IITGN-Robotics/Franka_IITGN_ROBOTICS/franka_ros/franka_iitgn/data/b_01.csv
time,fr3_joint1_pos,fr3_joint2_pos,fr3_joint3_pos,fr3_joint4_pos,fr3_joint5_pos,fr3_joint6_pos,fr3_joint7_pos,fr3_joint1_vel,fr3_joint2_vel,fr3_joint3_vel,fr3_joint4_vel,fr3_joint5_vel,fr3_joint6_vel,fr3_joint7_vel,fr3_joint1_eff,fr3_joint2_eff,fr3_joint3_eff,fr3_joint4_eff,fr3_joint5_eff,fr3_joint6_eff,fr3_joint7_eff,flexpin1,flexpin2,flexpin3,Force,ContactMic,ContactMic_gt
1739400522.848616,-0.7086018061777318,0.6814322524660409,1.4228778736802186,-1.87858829300356,-0.7154923765963668,1.9454749942869922,0.18966775049135845,0.0010348491920699294,0.0013195854503010183,0.0003174606846876346,-3.0942886020678825e-05,-0.0017674094115869505,-0.0007644116453650973,0.000897879305046763,0.1697271168231964,-23.53818130493164,19.477951049804688,17.87512969970703,0.8568216562271118,2.3604629039764404,-0.07411040365695953,,,,,,,,,
1739400522.8586285,-0.7086099120289105,0.6814496178104391,1.4228627623793109,-1.8785847659919306,-0.7154933418659513,1.945475741529982,0.18967063530319433,-0.0019281533117134144,0.0012404998393376464,-0.0004608551897275297,0.00044168034446567106,0.0010152287936251768,-0.00018746905404464962,-0.0006669428829113069,0.2689092457294464,-23.56198501586914,19.553329467773438,17.82355499267578,0.8375955820083618,2.3540542125701904,-0.07411040365695953,,,,,,,,,
1739400522.8705485,-0.7086067969893799,0.681462925888866,1.422853964458639,-1.8785808524781635,-0.7154964532025581,1.9454702205856886,0.1896750234648781,0.0010283860203015131,-0.0003974858989030448,-0.0005368422114498429,0.0006292055851836771,-0.0008991192051006182,6.989919105744751e-05,0.0004889293004061658,0.2173345386981964,-23.61355972290039,19.553329467773438,17.77594757080078,0.8504129648208618,2.3604629039764404,-0.10706938803195953,,,,,,,,,
1739400522.8805854,-0.7086126777828193,0.6814791703980316,1.422840237761242,-1.878580491857041,-0.7154965165500197,1.9454702198589424,0.18966823234993554,-0.00022021063375582097,0.000450919737830101,-0.0015698455475141298,-0.0002683567693095684,-0.00013082660051331595,-0.0005382494888076725,-0.0006608774875319275,0.2927129566669464,-23.71670913696289,19.628707885742188,17.79975128173828,0.8504129648208618,2.3604629039764404,-0.04023589566349983,,,,,,,,,
1739400522.891545,-0.7086164193106299,0.6814910713709351,1.422826011329673,-1.8785823510514146,-0.7154980370878793,1.9454702198589384,0.1896742532045265,0.0011389847918331618,0.0016468834116434797,-0.0008868925718010488,-0.0004818330482710957,0.0004994946806794606,-7.585107675429093e-05,-0.0003284063119728709,0.3165166676044464,-23.76828384399414,19.704086303710938,17.82355499267578,0.8641458749771118,2.3604629039764404,-0.10066069662570953,,,,,,,,,
1739400522.9035096,-0.7086250751850629,0.6814947952330523,1.4228108227999814,-1.8785822716149931,-0.7155004428224241,1.9454679468787033,0.18967514833326643,-0.0008170909904962319,-2.0660715287103997e-05,-0.0005041930429099425,-0.0002469875456066368,-0.0007643226532770331,0.0005086764479697311,-0.0007483935529593733,0.3918950855731964,-23.74051284790039,19.731857299804688,17.82355499267578,0.8568216562271118,2.3796889781951904,-0.10706938803195953,,,,,,,,,
1739400522.9135711,-0.7086233757924546,0.6815038798050943,1.422800456926934,-1.8785862530911455,-0.7154987739469781,1.9454671739503726,0.1896766162706351,3.792564578477956e-06,0.00046018763790570604,-0.001128772082057955,-0.0012850080967237896,-0.0008559280667521493,-0.0012203701411779338,0.0019886550807649154,0.3680913746356964,-23.79208755493164,19.755661010742188,17.87512969970703,0.8568216562271118,2.3732802867889404,-0.08051909506320953,,,,,,,,,
1739400522.9236007,-0.7086227242545093,0.6815061008872529,1.4227969109989762,-1.8785826347783863,-0.7154964684826689,1.945463981945392,0.18967619576045328,-3.2556030103445444e-05,-0.001401653165317698,0.000284044670336181,0.0010566393145402962,0.0015090594354144607,-0.0013104752549533364,0.0017055470295281334,0.3442876636981964,-23.76828384399414,19.704086303710938,17.79975128173828,0.8504129648208618,2.3732802867889404,-0.08051909506320953,,,,,,,,,
1739400522.9336233,-0.7086262676851979,0.6815072682589816,1.422795487810569,-1.8785825997538135,-0.715496947763978,1.9454655190841927,0.18967354987866455,-0.0005670636454029347,1.2944121834896748e-05,0.0012735495629588682,-4.3664483883687494e-05,0.000863221163179047,0.0004453419035024513,0.00014316792207813155,0.3680913746356964,-23.74051284790039,19.680282592773438,17.82355499267578,0.8504129648208618,2.3732802867889404,-0.09425200521945953,,,,,,,,,
1739400522.9455984,-0.7086249149530476,0.681501124492096,1.4227943806526253,-1.8785869270540827,-0.7154984654146673,1.94546520403235,0.18967552964791978,-0.00012546364962529066,-0.0021828028536542074,-0.0004024218794738833,-0.0011231095441817612,0.0015280972428475183,0.0012740409206363945,0.00012387382460561733,0.3165166676044464,-23.66513442993164,19.704086303710938,17.84735870361328,0.8641458749771118,2.3668715953826904,-0.10706938803195953,,,,,,,,,
1739400522.9575834,-0.7086165760089176,0.6815075642710221,1.4228002854948754,-1.8785890866474,-0.7155004550625976,1.9454689323807552,0.18967980852388952,0.000906860471184583,0.0006033479784165892,-0.0008462087186675196,-0.0010369561320709582,-0.0007466751576692408,0.0005708267157743472,0.0013859439899431185,0.2689092457294464,-23.74051284790039,19.577133178710938,17.87512969970703,0.8769632577896118,2.3668715953826904,-0.10706938803195953,,,,,,,,,
1739400522.9685113,-0.7086157131156965,0.6815030322624344,1.4228031759454378,-1.8785872374271024,-0.7154980561884529,1.9454646938531985,0.18967874227107334,0.000726695184648663,0.0007299427641642231,-0.0002580556458680549,-0.0009770064747998306,0.001136607328202121,-0.0006283453759933111,0.0011118678290489299,0.2173345386981964,-23.71670913696289,19.577133178710938,17.84735870361328,0.8504129648208618,2.3668715953826904,-0.10706938803195953,,,,,,,,,
1739400522.979545,-0.7086169569804491,0.6814956484513663,1.4228091629697992,-1.8785845365548062,-0.7155023837926613,1.9454652040234144,0.18968056683404141,-0.00012005165378174308,-0.0007628958350823555,0.0006026805923806885,0.0009025940958896581,0.00016038889468549883,0.0006516726083359704,0.0014066762784025195,0.2689092457294464,-23.61355972290039,19.501754760742188,17.82355499267578,0.8641458749771118,2.3668715953826904,-0.11347807943820953,,,,,,,,,
1739400522.989601,-0.7086142467215651,0.681497825523521,1.4228099471521554,-1.8785831046101695,-0.7155012885919282,1.9454686434923367,0.18967986287725772,0.000585250127548671,0.0009522838896044558,-0.0003422445545010755,0.00012745761665005503,-0.001047994053012112,0.0004213009454957057,-7.103581320492717e-05,0.2411382496356964,-23.63736343383789,19.529525756835938,17.82355499267578,0.8504129648208618,2.3604629039764404,-0.08051909506320953,,,,,,,,,
1739400522.9996207,-0.7086203295831203,0.6814901175919913,1.422814508663694,-1.8785837031512524,-0.7155029136299064,1.9454658178360753,0.18968061182922014,-0.0013088243749383383,-0.0015624991439049975,0.0010574732226683982,-0.00015184685119189783,-0.0001679137095245232,5.821543496965548e-05,0.0003745183896573819,0.2927129566669464,-23.53818130493164,19.477951049804688,17.79975128173828,0.8641458749771118,2.3604629039764404,-0.08692778646945953,,,,,,,,,
1739400523.0115423,-0.7086162669392557,0.681491937311732,1.4228108756841598,-1.8785836269529177,-0.7155029178271076,1.9454655692269944,0.189678293229761,0.0002811429165863495,-0.0009029425951585875,0.000217279698779822,-0.0009407954914936686,-0.0007114977171354074,-0.000804605636322729,-0.00041804502753114926,0.2689092457294464,-23.56198501586914,19.529525756835938,17.79975128173828,0.8641458749771118,2.3604629039764404,-0.09425200521945953,,,,,,,,,
1739400523.021575,-0.7086193672037094,0.6814974822491291,1.4228064260018192,-1.8785812429111417,-0.715502052147929,1.94546580470206,0.18967422901798014,-0.00012188551973756295,-0.0005068586593930144,-0.0003350144567666395,-6.122271757223231e-05,-0.0006023256267964206,-0.00018680954520155672,-0.0008207633174919032,0.2689092457294464,-23.61355972290039,19.577133178710938,17.79975128173828,0.8568216562271118,2.3604629039764404,-0.08692778646945953,,,,,,,,,
1739400523.0315769,-0.7086186957001692,0.681500955341007,1.4228043089255367,-1.878579490740818,-0.715504552556442,1.9454679519018474,0.18967829299510588,-0.0004012033904036709,0.000668711487141228,-0.0018335694293099428,0.0021222531863004574,-0.0012091850079899015,0.0008062190908794065,-0.0009142166302318622,0.2927129566669464,-23.68893814086914,19.604904174804688,17.74817657470703,0.8769632577896118,2.3403213024139404,-0.09425200521945953,,,,,,,,,
1739400523.0425274,-0.7086143399196024,0.6815054020154843,1.422802525266784,-1.878581832174451,-0.7155075102951333,1.9454655823071028,0.18967980853194058,0.0016992790851422888,0.0026426162276487982,0.00014102530010554266,0.0006045672026373944,-0.001975143547305256,0.0005107922193157846,0.0009207777540306305,0.2411382496356964,-23.74051284790039,19.628707885742188,17.77594757080078,0.8641458749771118,2.3604629039764404,-0.10706938803195953,,,,,,,,,
1739400523.0526035,-0.7086189370108854,0.6815049289691959,1.422806365058214,-1.8785805154453774,-0.7155029181229353,1.9454646938294933,0.1896764576746314,7.188888747972907e-05,0.00020574923575565092,0.0014366913873199306,0.0010408756852117271,0.0006413372551268141,-4.857016547443781e-05,0.0003001384074376506,0.2927129566669464,-23.71670913696289,19.577133178710938,17.79975128173828,0.8641458749771118,2.3668715953826904,-0.06678618490695953,,,,,,,,,
1739400523.0626109,-0.7086211494356865,0.6815044693235732,1.4227994032575422,-1.8785841350379275,-0.7155004966007769,1.9454639361671997,0.18967740983464826,0.00033247809898943333,-0.0014445595670565497,1.225720027756038e-05,0.0004064401394225065,0.0009143040097990144,-4.9020231425781955e-05,-1.6398097390284464e-05,0.2927129566669464,-23.74051284790039,19.628707885742188,17.84735870361328,0.8440042734146118,2.3732802867889404,-0.08692778646945953,,,,,,,,,
1739400523.073578,-0.7086194497828575,0.6815075903627436,1.4228015446478088,-1.8785788210553922,-0.7155052310620936,1.9454632962446912,0.18967656533831892,-0.00012597503118434185,-0.0002626444353987167,0.001549445239999617,0.0014315111581874014,-0.00015627294579343603,2.3731682195175547e-05,-3.0484142161719355e-05,0.2689092457294464,-23.74051284790039,19.628707885742188,17.77594757080078,0.8568216562271118,2.3796889781951904,-0.04023589566349983,,,,,,,,,
1739400523.0845816,-0.7086221597866879,0.6815113008419462,1.4227954479772782,-1.8785844088860935,-0.7155020523812186,1.9454654926719446,0.1896798085582362,-0.0012289839138630717,0.001045119167180556,-0.00021910554818009917,0.0014201425210211218,0.000754312143854413,0.0009996417476347969,0.0008482531540314771,0.3165166676044464,-23.79208755493164,19.680282592773438,17.84735870361328,0.8568216562271118,2.3604629039764404,-0.10706938803195953,,,,,,,,,
1739400523.0955403,-0.7086168693277797,0.6815075903446961,1.422793059926967,-1.8785903107579942,-0.7155029186911889,1.9454646938275104,0.18968294740940858,0.0006959278120471948,0.0006558019922540496,-0.002101198606382366,-0.00039549944943076865,0.00038857056773247987,0.00019549246507764278,0.0013096690120322561,0.2411382496356964,-23.74051284790039,19.680282592773438,17.89893341064453,0.8641458749771118,2.3668715953826904,-0.13361968100070953,,,,,,,,,
1739400523.1055596,-0.7086173033583323,0.681504616917204,1.422799072108497,-1.8785903051733384,-0.7155070251695307,1.9454654529409066,0.18968087364157668,-0.00010077883863639811,-0.000738974277481139,-4.706068740583145e-05,-0.0001796593651591234,-0.0015274671689028208,0.0002468909448510868,8.755537855930826e-05,0.2689092457294464,-23.68893814086914,19.628707885742188,17.89893341064453,0.8705545663833618,2.3604629039764404,-0.10706938803195953,,,,,,,,,
1739400523.1175208,-0.7086193696075175,0.6815069999685412,1.4228008538165051,-1.878587166828826,-0.7155028803195453,1.9454654514873644,0.1896792979011694,-0.0007048391368776108,0.0009896767168135429,0.0013562009298913478,-0.0004449336313163068,0.0007397731904085364,2.569547302620748e-05,0.00035298106650916573,0.2689092457294464,-23.68893814086914,19.604904174804688,17.84735870361328,0.8641458749771118,2.3604629039764404,-0.06678618490695953,,,,,,,,,
1739400523.127578,-0.7086173684078404,0.6814984569897409,1.4228042191487065,-1.8785883102820398,-0.7155045512641843,1.945464693827278,0.18968466033024872,-0.0008183556613518056,-0.0017230109898324138,0.0004438586934445252,4.306931076955805e-06,-0.0008328266429382019,-0.00026197785992324724,0.0008159514778580078,0.2411382496356964,-23.61355972290039,19.604904174804688,17.87512969970703,0.8769632577896118,2.3668715953826904,-0.12080229818820953,,,,,,,,,
1739400523.1385846,-0.7086206940615418,0.6815001733091025,1.4228049822283422,-1.8785854545633496,-0.7155029631072194,1.9454662091474346,0.18967278645688238,-0.0018601871636797589,-0.00043455852024958905,-0.0005288653557657457,-0.0008691941194945645,-0.0013440035470910002,-0.0006917303137884963,-0.002871864111166337,0.3165166676044464,-23.63736343383789,19.553329467773438,17.82355499267578,0.8641458749771118,2.3540542125701904,-0.04756011441349983,,,,,,,,,
1739400523.1495867,-0.708617440354928,0.6814984482696762,1.4228099565338777,-1.8785827681227127,-0.7155047748041351,1.9454639361671997,0.18967789013200037,0.00016220207441551668,-0.0005831192169985904,0.0019481903295452353,0.0008264218081186754,0.0008572595012378806,-0.00046604778063284133,0.0010447240427744575,0.2411382496356964,-23.61355972290039,19.529525756835938,17.79975128173828,0.8769632577896118,2.3732802867889404,-0.08051909506320953,,,,,,,,,
1739400523.1605368,-0.7086164733115544,0.6815021673978998,1.422807810809003,-1.8785774476927606,-0.7155045903545307,1.9454654514873564,0.18968077511580866,-0.0007441676128415144,0.0007546619659017129,0.0007812238920301942,0.0015155601173506192,0.0006438717235562757,-7.422549332937735e-05,-0.0006064915351787183,0.2689092457294464,-23.66513442993164,19.529525756835938,17.74817657470703,0.8769632577896118,2.3604629039764404,-0.08692778646945953,,,,,,,,,
1739400523.1705906,-0.7086184166189518,0.6814966583318561,1.4228074237461452,-1.8785766274203939,-0.7155021046919685,1.9454639361671997,0.1896822927166207,0.0012282833868387702,-0.0007047254130044802,-8.41137023666995e-05,0.001490901253584674,0.0006593627994937706,-0.0004435380212306589,0.0014614486196553116,0.2689092457294464,-23.58578872680664,19.553329467773438,17.74817657470703,0.8568216562271118,2.3732802867889404,-0.10066069662570953,,,,,,,,,
1739400523.1815763,-0.7086229016365624,0.6815039058132857,1.4228068575665227,-1.8785787063334887,-0.7155056009268661,1.9454654514873564,0.18968032250087777,-0.0016502399867178756,0.001655389839146763,0.00023228193205990455,0.0006584225193356879,-0.0011651702887012197,0.0004803047438283998,0.00031266999731342435,0.3165166676044464,-23.68893814086914,19.529525756835938,17.77594757080078,0.8833719491958618,2.3604629039764404,-0.10706938803195953,,,,,,,,,
1739400523.1925538,-0.7086210792334161,0.6815001607548804,1.4228033277247039,-1.8785822717238605,-0.7155045905125679,1.945464693881113,0.18967680093971154,-0.0008588901635955433,-0.00010415413590570738,-0.0013386459422384137,0.0005728579094457008,-0.0005318950683487029,-0.00017261914610294273,-0.0005478001609611075,0.2927129566669464,-23.63736343383789,19.604904174804688,17.82355499267578,0.8769632577896118,2.3668715953826904,-0.08051909506320953,,,,,,,,,
1739400523.2025595,-0.7086153064005035,0.6815029439049495,1.4228042814361888,-1.878582381466906,-0.7155030750312531,1.9454662091474355,0.18967825800555888,0.0011649436657975405,-0.0008281692691583811,0.0005982571794901374,0.0007471997774924534,0.0012179095772695437,0.0007635588695237469,0.0005183092861567942,0.2411382496356964,-23.68893814086914,19.604904174804688,17.82355499267578,0.8641458749771118,2.3540542125701904,-0.08051909506320953,,,,,,,,,
1739400523.2125616,-0.708619450073642,0.6815021712341032,1.4228015490255903,-1.87858623937947,-0.7155067027038506,1.9454639361671997,0.1896816134775221,-1.6235570880164074e-05,-3.80348804117467e-05,4.069941424423044e-05,-0.00166059678980273,-0.00024346816213238477,-0.0003821520593964349,0.0005062584823900737,0.2689092457294464,-23.66513442993164,19.628707885742188,17.84735870361328,0.8568216562271118,2.3732802867889404,-0.09425200521945953,,,,,,,,,
1739400523.2235787,-0.7086186946114104,0.6815038828077306,1.4228000272624812,-1.8785829898263553,-0.7155061120058249,1.9454639361671997,0.18968134592030872,0.0005881026986254699,-0.00041716805980844735,0.0006358595979804422,0.000722460507991574,0.00036672243147106937,-8.489439534715336e-05,0.0014081993449348413,0.2927129566669464,-23.68893814086914,19.628707885742188,17.82355499267578,0.8641458749771118,2.3732802867889404,-0.10706938803195953,,,,,,,,,
1739400523.2345636,-0.7086221500703097,0.6815082179295151,1.4228009607668561,-1.8785851330415737,-0.7155052311341858,1.9454639376207499,0.18968092489147523,-0.00023069598956162378,0.0012096583049148334,0.0014111477097722318,0.0003226959375922507,0.0006609315726055066,-0.00036158389218906374,0.0008601927961538686,0.3165166676044464,-23.71670913696289,19.604904174804688,17.82355499267578,0.8568216562271118,2.3732802867889404,-0.11347807943820953,,,,,,,,,
1739400523.2446022,-0.7086153063896367,0.6815120028918363,1.4227947353230765,-1.8785837075462548,-0.715503285039686,1.9454646938273024,0.18967829647814816,0.0013353563272410945,0.00116477470097169,-0.0010239909305432473,0.0002739779843508271,9.515091342070834e-05,0.0002609783419477575,-0.0007124160594312234,0.2411382496356964,-23.79208755493164,19.680282592773438,17.79975128173828,0.8641458749771118,2.3668715953826904,-0.05396880581974983,,,,,,,,,
1739400523.255503,-0.7086172680282385,0.6815038800654041,1.4227993106818888,-1.8785902229070495,-0.7155079668029822,1.9454639361671997,0.1896842858131203,0.000774302558248089,-0.0007814803923477285,0.0009915629150807734,-0.0013888414388749186,-0.0012873791909958185,-0.00028849366459312187,0.0007091751642927246,0.2689092457294464,-23.68893814086914,19.628707885742188,17.89893341064453,0.8705545663833618,2.3732802867889404,-0.11347807943820953,,,,,,,,,
1739400523.265562,-0.7086145910002085,0.6815065798698939,1.422797229769558,-1.8785871934180294,-0.7155061553357387,1.9454660884664254,0.18967464929742803,0.0019446954641113008,-0.00021650610110371583,-0.00038508376092208856,0.0004089629977677071,9.52642683922995e-05,0.0008219598607972441,-0.0015930697848739906,0.2411382496356964,-23.71670913696289,19.656478881835938,17.84735870361328,0.8641458749771118,2.3540542125701904,-0.06037749722599983,,,,,,,,,
1739400523.276529,-0.7086172136980585,0.6815058778635936,1.4228007634433588,-1.8785893406999217,-0.7155044907719136,1.9454638154855093,0.18968410115856457,0.00019281578070217553,-0.0008460366152312944,0.00035183042538207583,-0.0005127656669246629,0.0005090039968247757,0.00034133332145784155,0.00033988202289374615,0.2411382496356964,-23.71670913696289,19.604904174804688,17.87512969970703,0.8769632577896118,2.3732802867889404,-0.10706938803195953,,,,,,,,,
1739400523.2866368,-0.7086156336805451,0.6815078243837822,1.4227993104259562,-1.8785854892479732,-0.7155076688943637,1.945464555265557,0.1896746619439344,0.00028586405125292913,0.00028849221553206854,-0.000512491910673491,-0.00031259550550692206,0.00015365692986167562,-0.0006526516748891897,-0.0025211520978825246,0.2173345386981964,-23.74051284790039,19.628707885742188,17.82355499267578,0.8641458749771118,2.3668715953826904,-0.06037749722599983,,,,,,,,,
1739400523.297541,-0.7086209238832896,0.6815049767270216,1.422799309559409,-1.8785872464153721,-0.7155067021356257,1.9454654514850098,0.1896853493900828,-0.00020887114733966273,0.00018780805149010588,3.5053891805900995e-05,-0.0009662041641380269,0.0011907632423827806,0.0003092722447944514,0.0009182401610798819,0.2927129566669464,-23.66513442993164,19.628707885742188,17.84735870361328,0.8568216562271118,2.3604629039764404,-0.11347807943820953,,,,,,,,,
1739400523.3076084,-0.708619450108633,0.6815021715868058,1.4228049517598598,-1.8785797791079233,-0.7155036473298313,1.9454639361671997,0.189685348816721,-0.0006278504807592764,0.00015864335977324164,0.00017003908970885252,0.0003452280226897852,0.0007652517184341972,7.5397644767303835e-06,0.002300693665520104,0.2689092457294464,-23.66513442993164,19.553329467773438,17.77594757080078,0.8568216562271118,2.3732802867889404,-0.11347807943820953,,,,,,,,,
1739400523.3185496,-0.7086228486604901,0.6815001695642146,1.422806034175714,-1.878583332676241,-0.7155060628415236,1.9454646893576109,0.18968145292721317,-0.0011619207215755104,-0.00024310958277170641,0.0003834077680614267,-0.0011921935642717199,-0.0009806243014534792,0.00016749759032464682,-0.0006187374108890121,0.3165166676044464,-23.63736343383789,19.577133178710938,17.82355499267578,0.8504129648208618,2.3668715953826904,-0.08051909506320953,,,,,,,,,
1739400523.3295045,-0.7086194501098313,0.6815077203822627,1.4228031823263048,-1.878578947628814,-0.7155044944204069,1.945465451487331,0.18968565806555188,0.0006262372909585031,0.003023802309515988,-0.000902513066379041,0.001618745698237572,0.0004685799714948875,0.000119914244311688,0.0016027467474931559,0.2689092457294464,-23.74051284790039,19.577133178710938,17.77594757080078,0.8641458749771118,2.3604629039764404,-0.10706938803195953,,,,,,,,,
1739400523.3395965,-0.7086211592512077,0.6814982229352438,1.4228034872149895,-1.8785832256929746,-0.7155081420447178,1.9454631799606714,0.18967982501368555,-0.00010282739001243893,-0.0006517465995874395,-0.00099912363129057,-0.0010286058771877109,-0.0006171364452392158,-0.0005784405121605668,0.00017030677288790895,0.2927129566669464,-23.61355972290039,19.604904174804688,17.82355499267578,0.8769632577896118,2.3796889781951904,-0.06678618490695953,,,,,,,,,
1739400523.3505952,-0.708619446330731,0.6814964589942883,1.4228035578708877,-1.8785796955524892,-0.7155080440386338,1.9454636076982035,0.189678884677799,-0.0002400827028527177,-0.0014409113588374157,-0.0007222164189740571,0.0007049824027620099,-0.0003747276574010333,-0.0005715199381848393,-0.001604197112442459,0.2689092457294464,-23.58578872680664,19.604904174804688,17.77594757080078,0.8641458749771118,2.3668715953826904,-0.06678618490695953,,,,,,,,,
1739400523.3606188,-0.7086166221191958,0.6815038789558008,1.4228013710327676,-1.8785826261161642,-0.715508755436332,1.9454631784887275,0.1896822105712967,-2.251500953549888e-05,0.0010456911167319458,-0.0017024935395187402,-0.00065845563181497,-0.0009097718061541361,-0.00036156759373685686,0.00024363870831706105,0.2411382496356964,-23.68893814086914,19.604904174804688,17.82355499267578,0.8641458749771118,2.3796889781951904,-0.08692778646945953,,,,,,,,,
1739400523.371575,-0.7086226249544215,0.6815038914744969,1.422802198492093,-1.8785823523615612,-0.7155057096527612,1.9454646938272777,0.1896842379757296,-0.001416286051293565,-1.571563816773637e-05,-0.00022719658190169213,0.0009739306952546045,0.0009537763104095784,0.0005778927085609228,0.0019200434746528118,0.3165166676044464,-23.68893814086914,19.628707885742188,17.82355499267578,0.8504129648208618,2.3668715953826904,-0.10706938803195953,,,,,,,,,
1739400523.3815773,-0.7086192116871646,0.6815038539185935,1.4228013329932585,-1.8785872463622484,-0.7155076689681626,1.9454639361671997,0.1896783535353409,-0.0009052248954327709,-0.0005012886222236582,0.0012548938377512483,-0.0005869114435817659,0.0006942136347470288,0.00011981476732406808,-0.000304015481760854,0.2689092457294464,-23.68893814086914,19.604904174804688,17.84735870361328,0.8641458749771118,2.3732802867889404,-0.05396880581974983,,,,,,,,,
1739400523.3925521,-0.7086194499996187,0.681505877859484,1.4227993105782497,-1.8785871934333322,-0.7155068205194162,1.9454639361671997,0.1896854679384152,-0.0007042754261201568,0.0010984086549005424,-0.00078596723461088,-0.00023513194800755326,0.00021205969270920072,-0.000798294485065981,0.001072775841399223,0.2689092457294464,-23.71670913696289,19.628707885742188,17.84735870361328,0.8568216562271118,2.3732802867889404,-0.11347807943820953,,,,,,,,,
1739400523.4035013,-0.7086164176047396,0.6815082923906226,1.4227975411200184,-1.878585175062842,-0.7155084440768256,1.9454621931001086,0.18968146609160003,0.00015969036523692933,-0.000594102319648252,0.0004110716295154292,0.00021638907788332966,0.00014691793307227221,0.00020407677088427067,0.0004508281199765097,0.2411382496356964,-23.74051284790039,19.656478881835938,17.82355499267578,0.8705545663833618,2.3604629039764404,-0.08051909506320953,,,,,,,,,
1739400523.4136047,-0.7086208417783135,0.6815095884401011,1.4227954466617274,-1.8785851723325464,-0.7155060628594364,1.9454638958850154,0.18968145731534455,-0.0008120772465564929,0.00042383463325048313,-0.0006840881176465771,0.000585091863746135,-0.0001655209961871254,0.00041599323917684253,0.00021155759297485007,0.2927129566669464,-23.76828384399414,19.680282592773438,17.82355499267578,0.8504129648208618,2.3732802867889404,-0.08051909506320953,,,,,,,,,
1739400523.4245312,-0.7086204385428457,0.6815098348790033,1.4227972395810118,-1.8785872640742296,-0.7155068074920706,1.9454639361669723,0.1896809000187033,-9.316406252927122e-05,0.0013840432216914974,0.0005653782005774581,-0.0002559906083942649,0.0010761361892381366,0.00037843109431857816,-0.0017668075580987593,0.2927129566669464,-23.76828384399414,19.656478881835938,17.84735870361328,0.8568216562271118,2.3732802867889404,-0.06678618490695953,,,,,,,,,
1739400523.4345908,-0.7086173461930524,0.6815038837748614,1.422793426978234,-1.878581815967883,-0.7155133369932989,1.9454662091474346,0.18968460498653017,0.0013431412933759116,-0.0005629236824492105,-0.0022761073269007273,0.0014930992702573483,-0.0013764954347873092,0.0011312090265018777,0.0017726076903480802,0.2411382496356964,-23.68893814086914,19.704086303710938,17.77594757080078,0.8833719491958618,2.3540542125701904,-0.10706938803195953,,,,,,,,,
1739400523.4446175,-0.7086211616477709,0.6815082294496229,1.422799301706202,-1.878583706569313,-0.7155071782045832,1.9454671150815877,0.1896830808726556,-0.0004800585144896448,0.0012744471046327178,-0.00014349711226017847,-0.0001489054208399208,-0.0003645900843198853,0.0005696833885881632,-0.00026988642327029414,0.2927129566669464,-23.71670913696289,19.628707885742188,17.79975128173828,0.8568216562271118,2.3732802867889404,-0.09425200521945953,,,,,,,,,
1739400523.45558,-0.7086174168478513,0.6815039579331926,1.4227979460063893,-1.878582753405578,-0.7155080894125847,1.9454654515053014,0.18968465170984453,0.000501812839818475,-0.0005840486629435304,-0.0008051104646070964,-0.00035835717903747306,0.00032553930747341464,0.00021127570850199262,0.00032780115498219685,0.2411382496356964,-23.68893814086914,19.656478881835938,17.79975128173828,0.8705545663833618,2.3604629039764404,-0.08051909506320953,,,,,,,,,
1739400523.4665034,-0.7086228741700974,0.6815041139226384,1.422801199185427,-1.878583377554673,-0.715509202225475,1.9454639346773106,0.18968534953699145,-0.00015002933409099617,-0.0014191947422943659,0.0002428921750421076,0.00021143628558524172,-0.0005531337104350939,-0.00042708608329168363,0.00040747658720299205,0.3165166676044464,-23.68893814086914,19.604904174804688,17.79975128173828,0.8769632577896118,2.3732802867889404,-0.11347807943820953,,,,,,,,,
1739400523.478526,-0.7086211625216902,0.6815001694585144,1.4228067384710845,-1.8785832517964198,-0.715506102595869,1.9454655692249179,0.18968307648452795,-0.0009326340605474508,-0.00183137722797991,0.00038681899366230373,-0.0013166740870373676,-0.0005163310780409184,0.0006964377035085502,0.0009721363768894172,0.2927129566669464,-23.63736343383789,19.529525756835938,17.82355499267578,0.8504129648208618,2.3604629039764404,-0.09425200521945953,,,,,,,,,
1739400523.4885333,-0.7086173043064296,0.6815082936745921,1.4228067501352277,-1.8785805242646292,-0.715508920914208,1.945463940528515,0.18968221058729517,-0.0005539352385985573,0.0016303518463607475,0.0010872262447456707,-0.0002666273532690567,-0.0008104459854301314,0.00011127346512084158,5.6997278064385357e-05,0.2689092457294464,-23.74051284790039,19.529525756835938,17.79975128173828,0.8705545663833618,2.3732802867889404,-0.08692778646945953,,,,,,,,,
1739400523.498543,-0.7086186988267057,0.6815008743682957,1.4228060635739892,-1.8785865281623026,-0.7155084440849009,1.9454646938273517,0.18968641572563022,-0.00036350181409569235,-0.00041395912171214035,-0.0011698353650691595,-0.0024712780078576854,-0.0007444742008354231,-0.000448964735185055,0.0026318806942442472,0.2927129566669464,-23.63736343383789,19.577133178710938,17.84735870361328,0.8705545663833618,2.3668715953826904,-0.11347807943820953,,,,,,,,,
1739400523.5085905,-0.7086174508192079,0.6815005629791822,1.4228074282223715,-1.878585088752791,-0.7155084838132555,1.945464693827278,0.18968223697366232,0.00010136670327846909,-0.0014921323646096875,-0.0001286689012023793,-9.618651686863958e-05,-6.617006873167996e-06,0.00024465284454618975,0.0004401553139346309,0.2411382496356964,-23.61355972290039,19.553329467773438,17.84735870361328,0.8705545663833618,2.3668715953826904,-0.08692778646945953,,,,,,,,,
1739400523.520535,-0.708613593445112,0.6815001704320592,1.4228056753808156,-1.87858154898152,-0.7155099593972065,1.9454662091474346,0.18968145292736577,0.0004940130997587319,-0.0013256779625688926,0.0008580369454033121,0.0015139975860900803,-0.00010845113604431337,0.0010065599922154714,-5.868366293811702e-05,0.2173345386981964,-23.63736343383789,19.577133178710938,17.79975128173828,0.8833719491958618,2.3540542125701904,-0.08051909506320953,,,,,,,,,
1739400523.530571,-0.7086228725229374,0.6815059587497074,1.422802049994813,-1.878584887581864,-0.7155119076964058,1.9454654514873564,0.1896798293699061,-0.0015696946506474413,0.0010085615947040825,-0.00032404924739873217,-0.001158811406229721,-0.0011636818955111077,0.0005162993546574475,0.0006310235015898158,0.3165166676044464,-23.71670913696289,19.604904174804688,17.84735870361328,0.8897806406021118,2.3604629039764404,-0.06678618490695953,,,,,,,,,
1739400523.5415463,-0.7086157395393655,0.681506699622999,1.4228032537938877,-1.8785854518057923,-0.715506702788666,1.9454618646311042,0.18968451319032764,-0.000249353587080777,0.0006907538488237611,-0.0005671736104876395,-0.00014238311522483363,0.0007655013038741646,-0.001508528838434073,-0.0008810639781590787,0.2173345386981964,-23.68893814086914,19.577133178710938,17.82355499267578,0.8568216562271118,2.3540542125701904,-0.10706938803195953,,,,,,,,,
1739400523.5515778,-0.708621136139757,0.6815086872323948,1.4227972310791188,-1.87858258985085,-0.7155088485222003,1.9454654514137815,0.18968307664571118,-0.0010336484100719246,0.0017463068382260831,-0.0005411708855800239,0.0015135252467169695,0.0006581147894332374,0.0010041198612246176,0.0012199941501080246,0.2927129566669464,-23.71670913696289,19.656478881835938,17.82355499267578,0.8769632577896118,2.3604629039764404,-0.09425200521945953,,,,,,,,,
1739400523.5615768,-0.7086173726958195,0.6815061244293295,1.4227952096551093,-1.8785826287211902,-0.7155085632801333,1.945465451487355,0.18967845007524148,0.0006597803323259465,-0.0008677226047424309,-0.0005933374836803149,0.0010122885260178422,-0.000192900376386053,0.0005444147647020153,-0.0005247911390271437,0.2411382496356964,-23.71670913696289,19.680282592773438,17.82355499267578,0.8705545663833618,2.3604629039764404,-0.05396880581974983,,,,,,,,,
1739400523.5716045,-0.7086211626293661,0.6815106699851051,1.4228039660102452,-1.8785836280309842,-0.7155093209482121,1.9454654514873564,0.18968471028041756,-0.0007410488097661289,0.000951039688882763,0.0021326477179646635,-0.00036703792901191483,-0.0014181820350488918,0.0002986916811946514,0.0012073762254614288,0.2927129566669464,-23.74051284790039,19.604904174804688,17.79975128173828,0.8769632577896118,2.3604629039764404,-0.10706938803195953,,,,,,,,,
1739400523.5816152,-0.7086211507479387,0.6815099122546455,1.4227954484493825,-1.8785834562684582,-0.7155073729424861,1.9454638154861905,0.18968494722697984,-0.0005591759837746074,0.0003325300482826529,0.0009477535111680218,-0.00020487635202409086,-9.784719984604659e-05,0.0005094247623720046,0.0017757927942619778,0.2927129566669464,-23.76828384399414,19.680282592773438,17.79975128173828,0.8641458749771118,2.3732802867889404,-0.10706938803195953,,,,,,,,,
1739400523.591652,-0.7086192116912005,0.6815104112665844,1.4227992300865575,-1.8785872460840842,-0.715509241468025,1.9454654514853127,0.18967871756230276,0.000400450466099234,0.0003573552342598013,0.0013154363037970601,-0.0001103690248109136,0.0001153338309827111,0.00048045398709596794,-0.0014091517629105307,0.2689092457294464,-23.74051284790039,19.628707885742188,17.84735870361328,0.8769632577896118,2.3604629039764404,-0.06037749722599983,,,,,,,,,
1739400523.6025436,-0.7086211626293661,0.6815039669236276,1.4228009869262606,-1.878580515446796,-0.7155092017371282,1.9454624874984598,0.18968471033028647,-0.0009609857236141627,-0.0021167814333056725,0.0007917768791036047,0.0018247964629343025,0.0003782132657692484,-0.0015712584775929251,-0.00023903025550365108,0.2927129566669464,-23.68893814086914,19.604904174804688,17.79975128173828,0.8769632577896118,2.3732802867889404,-0.10706938803195953,,,,,,,,,
1739400523.6135774,-0.7086211538003943,0.6815026177019733,1.4228010931806376,-1.8785812094925116,-0.7155060628594364,1.9454641956995438,0.18968621536266406,0.001083954560455603,-0.0023738905247213575,0.0002604980158063858,9.586074651916486e-05,0.0010432627360894668,-0.0016961804177916934,0.0006931340729172555,0.2927129566669464,-23.63736343383789,19.604904174804688,17.77594757080078,0.8504129648208618,2.3668715953826904,-0.12080229818820953,,,,,,,,,
1739400523.6245108,-0.708619423618878,0.6815049242553379,1.4228018097815083,-1.8785857636960281,-0.7155084440768256,1.9454631784986853,0.18968430803832484,0.0006419835373817392,0.0011450716598997996,8.303915577883165e-05,-0.0005800319751726,0.00037665031628161756,-0.00032521734484842584,0.0017191504044662444,0.2689092457294464,-23.68893814086914,19.604904174804688,17.79975128173828,0.8705545663833618,2.3796889781951904,-0.10066069662570953,,,,,,,,,
1739400523.6345437,-0.7086228751149549,0.681502614497454,1.4227993105446024,-1.8785869157806534,-0.7155089130043295,1.945465847104407,0.18967775675642184,-0.0011149872707779097,-0.0012840797340678946,-0.001735624282665129,-1.5824511840177124e-05,7.897721483733806e-05,0.00036015828058701474,-0.0008391808649862941,0.3165166676044464,-23.63736343383789,19.628707885742188,17.84735870361328,0.8833719491958618,2.3540542125701904,-0.04023589566349983,,,,,,,,,
1739400523.6456385,-0.7086194501099802,0.6815021688304204,1.4228061409753405,-1.8785851183027642,-0.7155078933853999,1.9454646938211466,0.1896814073621508,-0.00059787238059129,0.00020471013236044575,0.0006296005177931984,-0.0005232167662509747,0.0007009415201670521,-0.00032433710869372596,-0.00024540915180974916,0.2689092457294464,-23.66513442993164,19.577133178710938,17.84735870361328,0.8568216562271118,2.3668715953826904,-0.10706938803195953,,,,,,,,,
1739400523.6565793,-0.7086194501099808,0.6815052095970641,1.4228070577241567,-1.8785854890866542,-0.7155078056280555,1.945464693827278,0.18967907170427606,0.00010024557195391373,0.0004845771100716837,0.001404264345462102,-0.000727647657607727,0.0007584987111363791,2.3840489493830034e-05,-0.0024178299022988817,0.2689092457294464,-23.66513442993164,19.529525756835938,17.82355499267578,0.8641458749771118,2.3668715953826904,-0.06037749722599983,,,,,,,,,
1739400523.666633,-0.7086163506684525,0.6815053003348633,1.422807843639827,-1.8785836949023598,-0.7155119779531899,1.9454639361671997,0.18968657062027378,0.0001606481215969898,0.0009577534233138451,0.00014270184959652824,0.0005541718336609024,-0.0011920495154890197,-0.000394963141146274,0.0008387176466607012,0.2689092457294464,-23.66513442993164,19.553329467773438,17.79975128173828,0.8641458749771118,2.3732802867889404,-0.12080229818820953,,,,,,,,,
1739400523.6775744,-0.7086194500924844,0.6815021675227295,1.422804153516053,-1.8785839911695654,-0.7155092024152273,1.945464693827278,0.1896845920233763,-9.146506875106056e-05,0.00033340631202731107,-0.0009091863858673197,0.0002064773629781543,0.0004993082713570432,0.0004006342686345579,0.00032188256986155286,0.2689092457294464,-23.66513442993164,19.577133178710938,17.77594757080078,0.8769632577896118,2.3668715953826904,-0.10706938803195953,,,,,,,,,
1739400523.6875763,-0.7086189900454978,0.6815001958855654,1.4228011996340595,-1.8785837075872966,-0.7155092017369153,1.94546692658051,0.18968389404974512,0.0002278066363842562,-0.0014630294113306646,-0.0001946672937869483,0.00041359309513092757,0.000372892789338175,0.001387188204429058,0.00016645157643436017,0.2927129566669464,-23.63736343383789,19.604904174804688,17.79975128173828,0.8769632577896118,2.3476455211639404,-0.07411040365695953,,,,,,,,,
1739400523.6985114,-0.7086204472173554,0.6815050102490752,1.4227957689091615,-1.8785865576506047,-0.7155099595605066,1.9454646938270508,0.18968307655675642,-0.0003948171746064242,-0.000961701949729345,-0.0010944349208350137,0.0001859380597326004,0.0010467514449970404,0.001565225564419002,-0.0007208579786560594,0.2927129566669464,-23.66513442993164,19.680282592773438,17.84735870361328,0.8833719491958618,2.3668715953826904,-0.09425200521945953,,,,,,,,,
1739400523.7085671,-0.708617452132781,0.6815052484270152,1.4227972042760488,-1.8785871669061902,-0.7155092076237907,1.9454621796911076,0.18968393219876825,0.0005349287728930971,-0.0013270009741412963,8.025632942181446e-06,0.001277138592036561,0.0010818818373394062,-0.0012320305903173638,-8.886235679894005e-05,0.2411382496356964,-23.66513442993164,19.656478881835938,17.84735870361328,0.8769632577896118,2.3604629039764404,-0.11347807943820953,,,,,,,,,
1739400523.7185726,-0.7086194501099806,0.6815079383891234,1.4227950761530228,-1.8785833866078112,-0.7155132179477875,1.9454654469992199,0.18968302655967062,-0.0005446162629473646,-0.0002309373905266005,-0.0007510606956177954,0.0008569672644651088,-0.001168256659825018,0.0006795655290165843,0.0010326921553119738,0.2689092457294464,-23.74051284790039,19.656478881835938,17.79975128173828,0.8833719491958618,2.3604629039764404,-0.12080229818820953,,,,,,,,,
1739400523.7285903,-0.7086194206755884,0.6815107480949605,1.4227950495167143,-1.8785854987271564,-0.7155096080116665,1.9454639361671238,0.18968621725817222,1.7959780664509283e-05,0.0004743711102228942,-0.0004765471153506867,-0.0016916497518646174,0.0013638287068940178,-7.63010694582754e-05,0.0016836123122852802,0.2689092457294464,-23.74051284790039,19.656478881835938,17.82355499267578,0.8568216562271118,2.3732802867889404,-0.12080229818820953,,,,,,,,,
1739400523.7395024,-0.7086211621944808,0.6815069221725552,1.42279723070205,-1.8785795397083953,-0.7155087637312475,1.9454650894443288,0.1896849004596559,-7.597958261266606e-05,-0.00038763886162105764,0.0009007320008033215,0.0020609777198206014,0.0005930755422865878,0.0002842798073997401,0.0005498397018282592,0.2927129566669464,-23.71670913696289,19.656478881835938,17.77594757080078,0.8641458749771118,2.3604629039764404,-0.10066069662570953,,,,,,,,,
1739400523.7495296,-0.7086228747153708,0.6815083338967529,1.422800959781663,-1.8785851186883336,-0.7155110367139914,1.945465451481225,0.18968459328537732,-0.000802394348105726,0.0004583053232681373,0.0022440437056585718,-0.0009098293247220676,-0.0004598505308803361,0.0006065295250190084,0.0013255039211616279,0.3165166676044464,-23.71670913696289,19.604904174804688,17.84735870361328,0.8833719491958618,2.3604629039764404,-0.10706938803195953,,,,,,,,,
1739400523.7595656,-0.7086211596872506,0.681509035586118,1.422799310533778,-1.8785848091382455,-0.7155092017916372,1.945465451487356,0.18968459180475947,-0.0006840493546490571,0.00015077690538549084,0.0011685147065574907,-0.0010252991148403108,0.00036227695932187305,0.001064768590956719,0.0018254633859205581,0.2927129566669464,-23.71670913696289,19.628707885742188,17.84735870361328,0.8769632577896118,2.3604629039764404,-0.10706938803195953,,,,,,,,,
1739400523.7705112,-0.7086211613225113,0.6815046245793115,1.4228010932175765,-1.878581647206213,-0.7155086162680216,1.9454654514873564,0.18968740009629234,-0.0007234447923556828,-0.0009347490675103541,0.00012418745606441583,0.0023454627509327994,0.0009067793497479042,0.0005977039170561899,0.001547780267647016,0.2927129566669464,-23.66513442993164,19.604904174804688,17.77594757080078,0.8705545663833618,2.3604629039764404,-0.12080229818820953,,,,,,,,,
1739400523.7805877,-0.7086196885285377,0.6815053264323335,1.422803173007432,-1.878584536550304,-0.7155092017398199,1.9454639356705699,0.18967831407025337,-0.000795197697207356,-0.00043015867178899264,0.0005987971307266904,-7.01264075121597e-05,0.0010797283981107413,0.0002061226731148321,-0.001135556304422944,0.2689092457294464,-23.66513442993164,19.577133178710938,17.82355499267578,0.8769632577896118,2.3732802867889404,-0.05396880581974983,,,,,,,,,
1739400523.7906053,-0.7086184876174596,0.6815033285033659,1.4228088841286821,-1.878583226676089,-0.7155084484919846,1.9454639346772853,0.18968414274539622,-0.0006431149039228114,-0.0002474460779069402,0.0017572836650049032,0.00035725520620488586,-0.0005358965402383163,-0.0016960561769840507,0.00046378312289105774,0.2689092457294464,-23.63736343383789,19.529525756835938,17.82355499267578,0.8705545663833618,2.3732802867889404,-0.09425200521945953,,,,,,,,,
1739400523.801534,-0.7086227957373371,0.6815053529836246,1.4228010932700657,-1.878582629093098,-0.7155092211054692,1.9454654514873535,0.1896849473894948,-0.001422916074335017,0.000392091142402779,-0.0009953529063804172,6.835026994416677e-05,-0.0005300989034941318,0.0011895715224255056,0.0005821056569157907,0.3165166676044464,-23.66513442993164,19.604904174804688,17.82355499267578,0.8769632577896118,2.3604629039764404,-0.10706938803195953,,,,,,,,,
1739400523.8116016,-0.7086193706330864,0.6815053225936598,1.4228076930169355,-1.8785825907963025,-0.7155116632192007,1.945464693827278,0.18967831845616018,-0.00012183304098224953,0.00017615516971767153,0.0009506903308799451,5.736285712391797e-05,0.00035945642461421984,-0.0003543738673920507,-0.0004251766104188411,0.2689092457294464,-23.66513442993164,19.529525756835938,17.82355499267578,0.8705545663833618,2.3668715953826904,-0.05396880581974983,,,,,,,,,
1739400523.8225286,-0.7086174521326395,0.6815012223655798,1.4228053454127485,-1.8785854901754153,-0.7155092415520686,1.945464693827278,0.18968311597567908,-0.0010244501848678752,0.0009609684893004927,0.0002636607991830083,-0.00035333838992092776,-0.00016301813855990104,0.0005617844425120123,0.00042722461803739397,0.2411382496356964,-23.63736343383789,19.577133178710938,17.82355499267578,0.8769632577896118,2.3668715953826904,-0.09425200521945953,,,,,,,,,
1739400523.8325775,-0.7086194459673619,0.6815023837872246,1.4228049645515586,-1.8785805726804874,-0.7155084440774998,1.945466966807513,0.18968070843152168,-0.00014788665832976615,-0.000257768526840086,0.0007490376988028727,0.001466680565416322,-0.00012869049796289432,0.0004432388114471588,-0.000555686973149248,0.2689092457294464,-23.63736343383789,19.553329467773438,17.79975128173828,0.8705545663833618,2.3476455211639404,-0.07411040365695953,,,,,,,,,
1739400523.8434954,-0.7086174521691044,0.6815062993575869,1.422803492207116,-1.8785851340191384,-0.7155116627276434,1.9454626823740835,0.18968459180475855,-0.00010165279235013411,-0.00043452406154609183,0.000673567972083322,0.0012039427483294415,-0.00033681638720920717,-0.0010666749384489586,0.0001988626089558527,0.2411382496356964,-23.68893814086914,19.577133178710938,17.82355499267578,0.8705545663833618,2.3796889781951904,-0.10706938803195953,,,,,,,,,
1739400523.8545713,-0.7086194501099808,0.6815083319940867,1.4228014199447387,-1.8785851458408982,-0.715510272736951,1.9454623126014867,0.18968734152799813,-0.0003304425209989365,0.0005465123213033864,0.0011729154264933507,0.0011933725690835935,-0.0005429904520810872,-0.00036927598274425627,0.0009674493834794178,0.2689092457294464,-23.71670913696289,19.604904174804688,17.82355499267578,0.8769632577896118,2.3870131969451904,-0.09425200521945953,,,,,,,,,
1739400523.8646066,-0.7086221594596408,0.6815049242633962,1.4227993198087845,-1.8785818198543354,-0.7155092017429497,1.9454639361671997,0.1896831266394729,-0.0009031414619551307,-0.0005579975481248235,0.0007964494048260729,0.0005814283315485275,0.0007932254523924791,0.0001660630062100063,0.001360861439792077,0.3165166676044464,-23.68893814086914,19.628707885742188,17.77594757080078,0.8769632577896118,2.3732802867889404,-0.10066069662570953,,,,,,,,,
1739400523.8765345,-0.708621162626672,0.6815083348836056,1.4227971512778945,-1.8785823907872017,-0.7155100790968449,1.945463931200903,0.18968525582176884,-0.0004912952361375743,-8.614274822863627e-05,-0.0004807724866799827,0.00029281615902033975,-0.0007677168380952298,-0.0005274082793906164,0.0003369856102983829,0.2927129566669464,-23.71670913696289,19.656478881835938,17.82355499267578,0.8833719491958618,2.3732802867889404,-0.10066069662570953,,,,,,,,,
1739400523.8866105,-0.7086194501099808,0.6815070272982661,1.4227972307502532,-1.8785871932706306,-0.7155100006058074,1.94546469382725,0.18967984692955073,-0.0001662664625637928,-0.0004333468669052359,-7.539726990014733e-05,0.00042256004916421626,0.0005214916784213474,-4.986565351423185e-05,-0.0017000680730413157,0.2689092457294464,-23.68893814086914,19.656478881835938,17.84735870361328,0.8833719491958618,2.3668715953826904,-0.06678618490695953,,,,,,,,,
1739400523.8976018,-0.7086190080331823,0.6815090408666624,1.4227970853004857,-1.8785853754347424,-0.715508483813488,1.945464693330648,0.18967913037827966,0.001011366222847999,-0.000299031581068813,-6.900716568734335e-05,0.00021248444667497005,0.0003592092532999244,0.0004683578706177885,-0.0009377260519523534,0.2927129566669464,-23.71670913696289,19.628707885742188,17.82355499267578,0.8705545663833618,2.3668715953826904,-0.06037749722599983,,,,,,,,,
1739400523.9095004,-0.708619450097818,0.6815070388579758,1.422799310527996,-1.8785854549074037,-0.7155084440770498,1.9454614309703604,0.18968460691890973,-6.066411006242325e-06,-0.001046983731821377,0.00021410447779336998,0.0004941598488036815,0.0008770000482584227,-0.00023769663612039081,0.0006118234861309563,0.2689092457294464,-23.68893814086914,19.628707885742188,17.82355499267578,0.8705545663833618,2.3668715953826904,-0.10706938803195953,,,,,,,,,
1739400523.9195213,-0.7086167373494555,0.6815032175245059,1.4227993101044922,-1.878587203985347,-0.7155101360033371,1.9454639361487807,0.18968018479028062,0.00016258298894823877,-0.0008679833803633483,0.00011122838877598688,-0.0012638638683942227,-0.0009240681970830661,0.0006884460737204918,0.00023919574166610217,0.2411382496356964,-23.66513442993164,19.628707885742188,17.87512969970703,0.8833719491958618,2.3732802867889404,-0.06678618490695953,,,,,,,,,
1739400523.9296362,-0.708618734842138,0.6815052214440078,1.4227989503937963,-1.878584411847004,-0.7155078460195551,1.9454639361671993,0.18968343191083584,-7.455688527393346e-05,-0.001119309243680334,-0.0008248497460133889,-0.0016302893093731769,0.0012151414248296262,-0.0007743811669086592,0.000782971466786783,0.2689092457294464,-23.66513442993164,19.604904174804688,17.84735870361328,0.8641458749771118,2.3732802867889404,-0.09425200521945953,,,,,,,,,
1739400523.9406085,-0.7086193706330833,0.6815053264436269,1.4228010961489193,-1.8785863161270804,-0.7155100130883953,1.9454645731462687,0.18967897807327472,-0.00023284118269466714,-0.0003516923285629786,0.00020812626969300368,-0.0006071990750691207,-0.0010851263558473091,-0.000838800730431458,-0.001173265619496897,0.2689092457294464,-23.66513442993164,19.604904174804688,17.84735870361328,0.8833719491958618,2.3668715953826904,-0.04756011441349983,,,,,,,,,
1739400523.9506168,-0.7086173043414229,0.6815052455541484,1.422801093217626,-1.8785854539107023,-0.7155088546875099,1.9454654499954236,0.18968616289473803,0.00035035321524409834,0.00024792981277586997,-0.0006200129485362837,-0.0007625080289528205,-0.00044471083407740454,-0.0003729613901834099,0.0010532162988085997,0.2689092457294464,-23.66513442993164,19.604904174804688,17.82355499267578,0.8705545663833618,2.3604629039764404,-0.12080229818820953,,,,,,,,,
1739400523.961604,-0.7086165880574334,0.6815025184027202,1.4228032524802916,-1.8785808465291496,-0.7155085634519573,1.9454611069710175,0.18968221058699897,0.0007398432256197304,-0.00039348210329643343,0.00034785488537235907,0.0002504608371243096,-0.0003714821885564386,-0.0017016414302168075,-0.001247206220349891,0.2689092457294464,-23.66513442993164,19.577133178710938,17.79975128173828,0.8705545663833618,2.3604629039764404,-0.08692778646945953,,,,,,,,,
1739400523.9724996,-0.7086173726801118,0.6815090105685799,1.422808055126428,-1.8785787194537928,-0.7155076864174211,1.9454654514628313,0.189680493391425,0.0011408307113060312,0.0018647938533577066,0.0013295458732119209,0.0025480041050401914,0.0012768297427425352,-0.00015554349911662836,-0.0010957232351584663,0.2411382496356964,-23.71670913696289,19.553329467773438,17.77594757080078,0.8641458749771118,2.3604629039764404,-0.06037749722599983,,,,,,,,,
1739400523.9824998,-0.7086194499996185,0.6815052260458468,1.422802046944382,-1.878582390624494,-0.7155139548402335,1.9454646536002744,0.18967907173434442,-0.0007585307868238316,0.0001345096746163771,-0.0005265826976064362,0.00034149198654087365,-0.00047805261850872,-0.00014317805178102325,-0.001406127857298094,0.2689092457294464,-23.66513442993164,19.604904174804688,17.82355499267578,0.8897806406021118,2.3668715953826904,-0.06037749722599983,,,,,,,,,
1739400523.9925847,-0.7086210831578504,0.6815053000141496,1.42280309365974,-1.8785850875137324,-0.7155124204425539,1.9454591893801574,0.1896823290607253,-0.00030270622733876313,-3.7082637570914285e-05,0.0007742131546748443,-0.0008556815550908158,0.0007039391559164441,-0.0017703130039008468,-0.0010190599807261764,0.2927129566669464,-23.66513442993164,19.577133178710938,17.84735870361328,0.8769632577896118,2.3732802867889404,-0.08692778646945953,,,,,,,,,
1739400524.0035431,-0.7086211625939246,0.6815090109052746,1.4228032389843404,-1.8785851605154515,-0.7155104363068182,1.9454639361404038,0.18968582335915032,0.000464743037405171,0.0012191430544047429,0.0003735788148850732,-0.0010396825954525897,-0.0007276013872077201,-0.00034068779027965844,0.0020942825238910736,0.2927129566669464,-23.71670913696289,19.604904174804688,17.82355499267578,0.8833719491958618,2.3732802867889404,-0.11347807943820953,,,,,,,,,
1739400524.0136142,-0.7086235904071799,0.6815091847317225,1.4227972572779939,-1.8785862369151214,-0.7155115091258228,1.9454646938272775,0.18968536474919734,-0.0010855556045471682,0.0005777177612886148,-0.0016468509230803678,-0.0013503175520491882,-0.0013135747672936866,5.896144729382368e-06,0.002328401031394877,0.3165166676044464,-23.68893814086914,19.656478881835938,17.84735870361328,0.8833719491958618,2.3668715953826904,-0.11347807943820953,,,,,,,,,
1739400524.0245428,-0.7086228750545399,0.6815053178137651,1.422799376518363,-1.8785864872950528,-0.7155110852887394,1.9454639229197042,0.18968333691651257,-0.0007495108173241901,-0.0007507158099335686,-0.0001474373497834337,-0.002406146688186241,0.0003788681140151299,-0.00021050413817546508,-0.0011957225842290846,0.3165166676044464,-23.66513442993164,19.656478881835938,17.87512969970703,0.8833719491958618,2.3732802867889404,-0.06037749722599983,,,,,,,,,
1739400524.0345643,-0.7086194530534194,0.6815090383229666,1.42279723119888,-1.8785832374646374,-0.7155069794715898,1.9454639361671249,0.189678314074267,0.0006815746513531897,0.0007339075564362215,-0.0005308354195148876,-0.00017425943155563163,0.0015426178036804109,2.6965854039894377e-05,-0.0017373545998540432,0.2689092457294464,-23.71670913696289,19.656478881835938,17.82355499267578,0.8568216562271118,2.3732802867889404,-0.05396880581974983,,,,,,,,,
1739400524.045495,-0.7086173726962847,0.6815090369058119,1.4227954127524143,-1.8785869540210398,-0.715509958652935,1.9454654514873564,0.18967983522044596,0.0005977903017669626,0.0002100194087390048,-0.0007881401274272184,-0.00035995845200931546,0.0005609427983987421,0.0009541129588180449,-0.0011382450133843665,0.2411382496356964,-23.71670913696289,19.680282592773438,17.84735870361328,0.8833719491958618,2.3604629039764404,-0.06678618490695953,,,,,,,,,
1739400524.0555086,-0.7086174521677819,0.6815068049615307,1.4227954470919382,-1.878587033501216,-0.7155142524031131,1.945464693330648,0.1896856595282859,0.0009087120680851268,-0.00036774340298665687,-0.0012238763877342644,-0.0004984704603090472,-0.000426033775619786,7.852510397001346e-05,0.0011190649703440407,0.2411382496356964,-23.68893814086914,19.680282592773438,17.84735870361328,0.8833719491958618,2.3668715953826904,-0.10706938803195953,,,,,,,,,
1739400524.0655632,-0.7086211626307121,0.6815018543972516,1.422798947450348,-1.878585487281829,-0.7155109053037919,1.9454646933306396,0.18968657275054607,-0.0011479812875734826,-0.0012833541049585848,0.0016319656840691654,0.0010802873332360933,0.0007352934132266814,0.0006601975461630896,0.001189479968101358,0.2927129566669464,-23.61355972290039,19.604904174804688,17.82355499267578,0.8641458749771118,2.3668715953826904,-0.12080229818820953,,,,,,,,,
1739400524.0765781,-0.7086211596872728,0.6815107484675956,1.4228032170136657,-1.8785893163937302,-0.7155117159275863,1.9454631785071128,0.18967836671109986,-0.0007137663345751795,0.001324174322725684,0.0005312950378475771,-0.0005746873149320515,-0.0004366918064425184,-0.0005270321908044258,-0.0003569813271320833,0.2927129566669464,-23.74051284790039,19.577133178710938,17.87512969970703,0.8705545663833618,2.3796889781951904,-0.05396880581974983,,,,,,,,,
1739400524.086593,-0.7086211358126934,0.6815090369057984,1.422802159789998,-1.8785837075520988,-0.7155112314997303,1.9454638957746533,0.1896838741235914,-0.00026264733716854153,-0.0007729819064575339,0.000610034673145069,0.0004915456291543078,0.00012433388843364432,-0.00037810645644374273,0.00011336763325195788,0.2927129566669464,-23.71670913696289,19.628707885742188,17.79975128173828,0.8568216562271118,2.3732802867889404,-0.10066069662570953,,,,,,,,,
1739400524.0975647,-0.7086211629576095,0.6815053264442197,1.422803173023516,-1.8785826704805422,-0.7155131330004479,1.9454639361669717,0.18968384730854598,-0.0012683889403645651,-4.204234749876013e-05,0.0006171260504907522,0.0017718911134607352,-0.0011722665998589684,0.0001603567322144686,9.044966538420218e-05,0.2927129566669464,-23.66513442993164,19.577133178710938,17.79975128173828,0.8705545663833618,2.3732802867889404,-0.10066069662570953,,,,,,,,,
1739400524.1085563,-0.7086211626307138,0.6815070419083902,1.4227993105768961,-1.8785830252202838,-0.7155109052575586,1.9454654514873564,0.1896874469158666,-0.0009553063552270621,0.0002551560956181061,-0.0004455604355189901,0.0005929152971411852,0.0002683136588776373,0.0006835288658987892,0.0021362417134523533,0.2927129566669464,-23.68893814086914,19.628707885742188,17.82355499267578,0.8641458749771118,2.3604629039764404,-0.12721098959445953,,,,,,,,,
1739400524.1185725,-0.7086229016423965,0.6815053251603,1.422801091582333,-1.8785833896191197,-0.715511415748303,1.945464693827278,0.1896885877465342,-0.0017558215849349276,-0.000528957939275586,0.0004688425143858993,0.000692109533098777,-0.0008170687406027783,-4.151274598772879e-05,0.0018651432237823445,0.3165166676044464,-23.66513442993164,19.604904174804688,17.79975128173828,0.8769632577896118,2.3668715953826904,-0.11347807943820953,,,,,,,,,
1739400524.129507,-0.7086211616497152,0.6815061258443802,1.4228038872820137,-1.8785839881880642,-0.7155102752871055,1.945464693827278,0.18968535099984937,-0.00061607486411027,5.91071171386578e-05,0.00023398024538284507,-0.0005486203600545956,-1.0131089401200163e-05,0.0001483005787401842,0.0007594068994696377,0.2927129566669464,-23.71670913696289,19.577133178710938,17.77594757080078,0.8769632577896118,2.3668715953826904,-0.11347807943820953,,,,,,,,,
1739400524.1395729,-0.7086211621946303,0.6815005204130248,1.4228032789833411,-1.8785789574874,-0.7155110640314651,1.9454637752591875,0.18968534946478857,-0.0005601508922737563,-0.0014744505494091265,0.0006077868366942582,0.0016617679442052398,2.0578486430170874e-05,-0.0006499757995629724,0.0007415208137668215,0.2927129566669464,-23.63736343383789,19.577133178710938,17.77594757080078,0.8641458749771118,2.3732802867889404,-0.11347807943820953,,,,,,,,,
1739400524.1505992,-0.7086228751514358,0.6815033255668802,1.4228031330227702,-1.8785830937834567,-0.7155116819171987,1.9454631785043963,0.18968541001995806,-0.000842192222025233,-0.0006430729766013969,-0.00043399646928984144,-0.0006507334811614418,0.0006780023968471797,0.00011963043974538737,-0.0011855932873925282,0.3165166676044464,-23.63736343383789,19.604904174804688,17.82355499267578,0.8705545663833618,2.3796889781951904,-0.08692778646945953,,,,,,,,,
1739400524.1625624,-0.7086174521691279,0.6815107118704251,1.4228031730597217,-1.8785833513431938,-0.7155080456859525,1.9454639182885316,0.18968635139306422,-7.215498060470752e-05,0.00045466847591120083,0.0004575680399060009,0.00030438969530856335,-0.0007359600083546535,-0.00020944082389585933,0.0008461466206732191,0.2411382496356964,-23.74051284790039,19.577133178710938,17.79975128173828,0.8641458749771118,2.3732802867889404,-0.12080229818820953,,,,,,,,,
1739400524.172658,-0.7086190168635002,0.6815070386437465,1.4228010971421625,-1.8785853715085956,-0.715509255374936,1.9454654513217122,0.18968544886180924,-0.00045727730213711813,-0.0002375072625574571,0.0006898195001371432,-0.0013452881681488206,0.0009717123803174436,-4.359458864976442e-05,-0.0009452310760713941,0.2927129566669464,-23.68893814086914,19.604904174804688,17.82355499267578,0.8769632577896118,2.3604629039764404,-0.08692778646945953,,,,,,,,,
1739400524.183556,-0.7086194500978679,0.6815070390739653,1.422799313484019,-1.8785812408405274,-0.7155087726006407,1.945462312609888,0.18968820903622724,3.203587062400218e-05,-7.488643550619103e-05,3.0257293995217174e-06,0.0012152230317103376,0.0008509030102352481,-0.0012294368804201398,0.0015013406176575886,0.2689092457294464,-23.68893814086914,19.628707885742188,17.79975128173828,0.8641458749771118,2.3870131969451904,-0.13361968100070953,,,,,,,,,
1739400524.1945546,-0.7086174517330627,0.6815059970419658,1.4227990691785555,-1.8785845267296175,-0.7155100392309722,1.9454646923373888,0.18968496096336934,0.0009543492563870025,-0.0007809215159463751,0.0003124350641840717,0.000466721688601819,0.0015159408720469415,0.0008186306109792675,-0.00017109991772361235,0.2411382496356964,-23.68893814086914,19.628707885742188,17.82355499267578,0.8568216562271118,2.3668715953826904,-0.07411040365695953,,,,,,,,,
1739400524.2064948,-0.7086174521691254,0.6815090051761881,1.422797468186772,-1.8785851271336909,-0.7155136190942712,1.945465451487348,0.18968860092630316,0.00034870548755475334,-0.0007757608451649698,0.0001494261372646843,-0.0003039850253275923,-0.0012993818623786332,0.0011217022534321063,0.001926294213734384,0.2411382496356964,-23.71670913696289,19.656478881835938,17.84735870361328,0.8769632577896118,2.3604629039764404,-0.11347807943820953,,,,,,,,,
1739400524.2175038,-0.7086165889780153,0.6815090253499003,1.4227993105418977,-1.87858723459318,-0.7155093229879305,1.9454631785071212,0.18968574591135623,0.00018996166773498923,0.0004342818001611278,-0.0003501235130061769,-0.00014015933883557415,0.00035700799780832566,0.0005512290557631943,0.002177332422452923,0.2689092457294464,-23.71670913696289,19.628707885742188,17.84735870361328,0.8769632577896118,2.3796889781951904,-0.11347807943820953,,,,,,,,,
1739400524.2284966,-0.7086174256620233,0.6815070389648856,1.4227988414865516,-1.8785827538414324,-0.715510685449002,1.9454654514873564,0.18968471028035191,0.002518835512305465,-0.0007267708855594399,0.00014758466080131794,0.001263413500667842,-8.652394937980223e-05,0.000669954296680691,0.0027097782608955586,0.2411382496356964,-23.68893814086914,19.604904174804688,17.79975128173828,0.8769632577896118,2.3604629039764404,-0.10706938803195953,,,,,,,,,
1739400524.2386458,-0.7086174521689782,0.6815053264442197,1.422799309219651,-1.8785872640706405,-0.715513270017373,1.945465451321813,0.18968436799830082,0.00017507469592501236,-0.0007879133131238293,-0.0009150819397125548,-0.0012339968920978067,-0.0007279805562547127,0.0005089380746663971,0.0006554002943924117,0.2411382496356964,-23.66513442993164,19.628707885742188,17.84735870361328,0.8705545663833618,2.3604629039764404,-0.07411040365695953,,,,,,,,,
1739400524.2496278,-0.7086174526051929,0.6815127483485346,1.4228003691315139,-1.8785819219317956,-0.7155133435617382,1.9454639354498446,0.18968222821381872,0.0010833904092477776,0.0026493255215634137,0.0011555360510143576,7.403183002654328e-05,-9.745001623190277e-05,-0.0005675576894804127,0.0003415492443017247,0.2411382496356964,-23.76828384399414,19.604904174804688,17.77594757080078,0.8833719491958618,2.3732802867889404,-0.08692778646945953,,,,,,,,,
1739400524.2605567,-0.7086174492256959,0.6815070389649674,1.4227993105282948,-1.878585490229273,-0.7155092165114113,1.9454628500381048,0.18968621536229346,0.0007916556480883742,1.5599593029225726e-05,6.574273713640089e-05,0.00013125834904051002,0.000891899735093741,-0.0008123040956528884,0.00041525266456053395,0.2411382496356964,-23.68893814086914,19.628707885742188,17.82355499267578,0.8769632577896118,2.3732802867889404,-0.12080229818820953,,,,,,,,,
1739400524.2714968,-0.7086174517330572,0.6815042196952324,1.4228008812899506,-1.8785819349047814,-0.7155131346108197,1.9454646938252342,0.1896849998017523,-5.471437007010312e-05,-0.0009277776675729937,-0.0006779087326214855,9.43127023326682e-06,-0.00044401354050301116,1.5352492358259497e-05,4.544454396767617e-05,0.2411382496356964,-23.68893814086914,19.604904174804688,17.77594757080078,0.8705545663833618,2.3668715953826904,-0.07411040365695953,,,,,,,,,
1739400524.2816427,-0.7086172128784112,0.6815054058693348,1.4228031613391021,-1.8785807670566648,-0.7155167519559609,1.945465451321813,0.18968571804358506,0.0001862947580892758,-0.00035976777342092343,0.00043580074066950096,-0.00013983759709072595,-0.0008509700920585802,0.0006181537878563643,-5.687591688846455e-05,0.2411382496356964,-23.66513442993164,19.577133178710938,17.79975128173828,0.8641458749771118,2.3604629039764404,-0.08051909506320953,,,,,,,,,
1739400524.2925205,-0.7086194236176767,0.6815062804460332,1.422803137686095,-1.878584536538407,-0.7155125403567922,1.9454631382801173,0.18968221109891684,-5.971725803966903e-05,0.0016087347173676142,1.7240458436536797e-05,-0.0009169044833715205,0.00048605191466998633,-0.001050165524590778,-0.0021948359404612046,0.2689092457294464,-23.66513442993164,19.577133178710938,17.82355499267578,0.8769632577896118,2.3796889781951904,-0.08692778646945953,,,,,,,,,
1739400524.3025532,-0.7086173043423202,0.6815090419003695,1.4227981843154038,-1.8785796642977912,-0.7155123945043644,1.9454662091467534,0.1896876370431605,0.0007051883681336475,0.0022579953040435174,-0.0007683496520955386,0.001437553780705294,7.865660797715861e-05,0.00027239210309235767,0.0018815445243037464,0.2689092457294464,-23.71670913696289,19.656478881835938,17.77594757080078,0.8641458749771118,2.3540542125701904,-0.12080229818820953,,,,,,,,,
1739400524.3125672,-0.708617452132789,0.6815070351131273,1.4227993106657222,-1.8785845276864055,-0.7155100004182977,1.945461314759021,0.18968145880183285,0.000434982759992989,0.0007336105283261977,-0.0016824303275345107,0.0007928919523252658,0.00014106055964302155,-0.001154299933972393,1.1448193622110264e-05,0.2411382496356964,-23.68893814086914,19.628707885742188,17.82355499267578,0.8705545663833618,2.3668715953826904,-0.08051909506320953,,,,,,,,,
1739400524.323487,-0.7086174433388098,0.6815070389649291,1.4228031700639934,-1.8785836797477218,-0.7155127930716084,1.9454654494817627,0.18968621536202812,0.0007401238374911286,0.0006473934369922295,0.0006915337151751504,0.00039074793231666353,0.0001245594048389397,-0.0003778265250228257,0.0017401110356370748,0.2411382496356964,-23.68893814086914,19.577133178710938,17.79975128173828,0.8705545663833618,2.3604629039764404,-0.12080229818820953,,,,,,,,,
1739400524.3335302,-0.7086174521686792,0.6815107494265351,1.4227971647731958,-1.8785854813975924,-0.7155099204325603,1.9454621931000067,0.18968546066589873,-0.0002754896816694549,0.00022304692724589212,-0.0015121303208057288,-0.000841662011195246,0.00028802266579708383,-0.0003757784043864664,0.001922999115629482,0.2411382496356964,-23.74051284790039,19.628707885742188,17.82355499267578,0.8705545663833618,2.3604629039764404,-0.11347807943820953,,,,,,,,,
1739400524.3455172,-0.7086192112553366,0.6815090398492432,1.4228010932135389,-1.8785872689817396,-0.7155102164880712,1.9454628164579624,0.18968236860624904,0.000622971996225563,0.0012356371214681007,0.0005321668388946473,-0.0012743445447156408,0.0009647491516007326,-0.0006348825367114741,-0.0007545762270970658,0.2689092457294464,-23.71670913696289,19.604904174804688,17.84735870361328,0.8568216562271118,2.3796889781951904,-0.08692778646945953,,,,,,,,,
1739400524.3555672,-0.7086174511866331,0.6815052483004329,1.42279508498349,-1.878585356582014,-0.7155102179761832,1.9454693865698898,0.18968383560813284,0.000862601478982819,-0.00027333704670695456,-0.0009643110002853458,-0.0010747619193583746,0.0006180286815425914,0.0011552572756718508,-0.0003037156297476846,0.2411382496356964,-23.66513442993164,19.656478881835938,17.84735870361328,0.8568216562271118,2.3540542125701904,-0.10066069662570953,,,,,,,,,
1739400524.3656003,-0.7086208447392566,0.6815090369044805,1.4227989571824926,-1.8785854547665823,-0.715510000396102,1.94546620936275,0.18967756077804104,-0.0003099417787585917,-0.0002975553061542338,-0.0005990747219584529,-0.0006054119640893878,0.0003927036483080488,0.0016265952734671302,-0.0003586932341953183,0.2927129566669464,-23.71670913696289,19.628707885742188,17.82355499267578,0.8705545663833618,2.3540542125701904,-0.04756011441349983,,,,,,,,,
1739400524.3775637,-0.7086194496721212,0.6815099393263454,1.4227992842656418,-1.8785807670562946,-0.7155081021045643,1.9454595899954383,0.18968383414463066,-2.1951117646372713e-05,0.0007512809515895812,-0.00046092738807694837,0.0013319906582497626,0.0007794903202905077,-0.0013264662619008284,0.0017716575760834208,0.2689092457294464,-23.76828384399414,19.628707885742188,17.79975128173828,0.8641458749771118,2.3732802867889404,-0.10066069662570953,,,,,,,,,
1739400524.3875928,-0.7086174433388076,0.6815070390581157,1.42279818442487,-1.8785872459627244,-0.7155108716238924,1.9454645729561912,0.18968709143260623,0.00063090680913381,-0.0012030872712466291,0.0005562991908148924,-0.0019560603182347696,8.888568660107366e-06,3.330377108229681e-05,0.001096694058577301,0.2411382496356964,-23.68893814086914,19.656478881835938,17.84735870361328,0.8504129648208618,2.3668715953826904,-0.10066069662570953,,,,,,,,,
1739400524.39854,-0.7086211626305625,0.6815070129645724,1.4228014295059177,-1.87858334021002,-0.7155092955783063,1.9454639227561517,0.18968287482605112,-0.0006974612280687094,-0.0005434832412756769,0.0006009730480231828,0.0014133970104005561,0.0008119250822410745,-0.0007013707898458964,-0.000637351152046241,0.2927129566669464,-23.68893814086914,19.628707885742188,17.82355499267578,0.8641458749771118,2.3732802867889404,-0.08051909506320953,,,,,,,,,
1739400524.4095185,-0.7086210556857527,0.6815076502554579,1.422797165758479,-1.8785819160409214,-0.7155123554230284,1.9454662084852363,0.18968145441058454,0.00042653512840947123,-2.4732450148788443e-05,1.1363516011214653e-05,0.0006115634049711719,0.0004333787798485748,0.0007644838700154892,5.986522875176578e-05,0.2927129566669464,-23.68893814086914,19.628707885742188,17.77594757080078,0.8641458749771118,2.3540542125701904,-0.08051909506320953,,,,,,,,,
1739400524.4205008,-0.7086194501093771,0.681505291780497,1.422799345849721,-1.8785827506074495,-0.7155121976968294,1.9454617303350072,0.1896878081714476,0.00024429119836013284,-0.0014595215518500315,0.0005908472926249696,0.0006412619211647607,9.91403244600956e-05,-0.0010128116913821787,0.003178353667364831,0.2689092457294464,-23.66513442993164,19.628707885742188,17.79975128173828,0.8705545663833618,2.3796889781951904,-0.12080229818820953,,,,,,,,,
1739400524.430576,-0.7086194488017855,0.6815070742856348,1.422803172680981,-1.8785835888173816,-0.715512156746911,1.9454639316730076,0.1896852723755355,-0.00020382149575825877,-0.0004807487731510596,0.00046910549652811614,-6.270145903608971e-06,-0.00024348702050616694,-0.00011519067089600943,0.0007620984666724114,0.2689092457294464,-23.68893814086914,19.577133178710938,17.79975128173828,0.8641458749771118,2.3732802867889404,-0.12080229818820953,,,,,,,,,
1739400524.4414895,-0.7086167339699291,0.681507753900294,1.422803891206603,-1.8785835924291134,-0.7155125143869172,1.945464692337313,0.18968531717756365,0.0009801060185819258,0.0013107285906701753,0.0012080430003081717,0.0008891740652674494,-3.497396288441622e-05,-0.0002687917051869533,-0.0005780549545240979,0.2411382496356964,-23.68893814086914,19.577133178710938,17.79975128173828,0.8641458749771118,2.3668715953826904,-0.07411040365695953,,,,,,,,,
1739400524.451596,-0.7086194501059265,0.6815053261272631,1.422802171676577,-1.8785808200377516,-0.7155132718895278,1.9454646923373804,0.1896792297551036,-0.00041382197276377245,0.000545998697344182,-0.0008721675838786494,0.0014460127030456026,-0.001393516858767714,0.0006471879278017994,-0.0005456344667700303,0.2689092457294464,-23.66513442993164,19.628707885742188,17.79975128173828,0.8705545663833618,2.3668715953826904,-0.06037749722599983,,,,,,,,,
1739400524.4634964,-0.7086211626307121,0.6815053264442179,1.422801181536905,-1.8785840896876804,-0.7155116484957407,1.9454646943117861,0.18968303400394093,0.0006875107477204726,-0.00047535994924173064,-0.000848662247045147,0.0006068198431387357,0.0010879389738302008,0.0006627566970521005,-0.001380127904151976,0.2927129566669464,-23.66513442993164,19.604904174804688,17.84735870361328,0.8568216562271118,2.3668715953826904,-0.06678618490695953,,,,,,,,,
1739400524.4735966,-0.7086174256781747,0.6815053264442197,1.4228031994988837,-1.8785833326340458,-0.7155115289314532,1.9454631740374568,0.1896878013638998,0.0008978335515350872,-0.0007944852800439067,0.00038554326001083287,1.0419286052024688e-05,-4.355340620137613e-05,-0.000773618926115342,0.001539301661740885,0.2411382496356964,-23.66513442993164,19.577133178710938,17.82355499267578,0.8833719491958618,2.3796889781951904,-0.12080229818820953,,,,,,,,,
1739400524.4845033,-0.7086135938810352,0.6815070477952686,1.422801093217726,-1.8785826277769824,-0.7155120016900574,1.945463605546108,0.18968019796286276,0.0021691870428276606,-0.0007093712486662108,0.00026253043507334115,0.00013279154736142381,0.00031414304234261386,-0.000528507417205677,-0.0014465010553588093,0.2173345386981964,-23.68893814086914,19.604904174804688,17.82355499267578,0.8568216562271118,2.3668715953826904,-0.06678618490695953,,,,,,,,,
1739400524.4945147,-0.7086174491893499,0.681503328503516,1.4228010951798693,-1.8785804893435833,-0.7155116440865641,1.9454629507417567,0.18968570927919876,0.0011661990920908104,-0.0002789861808690909,-9.51707686906901e-06,0.0014214424731068896,0.0003999735139721859,0.0003809894902522406,0.0018739230209739856,0.2411382496356964,-23.63736343383789,19.604904174804688,17.79975128173828,0.8568216562271118,2.3540542125701904,-0.11347807943820953,,,,,,,,,
1739400524.5055711,-0.7086174521690773,0.6815049290822607,1.4227995489591696,-1.8785825104331566,-0.7155147867190368,1.9454669667523317,0.1896814096717894,0.001102434581269311,0.00026805300561475435,0.0005556894404155685,-0.00018016066529948408,-0.000816360849866606,0.0011505637990148181,0.0004713004413809702,0.2411382496356964,-23.68893814086914,19.628707885742188,17.82355499267578,0.8833719491958618,2.3476455211639404,-0.06678618490695953,,,,,,,,,
1739400524.5155878,-0.7086194501099808,0.6815127473554778,1.422797163321141,-1.8785830234650567,-0.7155129553578014,1.9454651230183515,0.18968571072933038,0.0001434071107593993,0.002323672149153241,-0.0006118356904611282,0.0005152778427145018,-0.0005573865691994337,0.00014772782676567649,0.0006773437545876043,0.2689092457294464,-23.76828384399414,19.628707885742188,17.82355499267578,0.8769632577896118,2.3540542125701904,-0.10706938803195953,,,,,,,,,
1739400524.5255978,-0.7086228748243945,0.6815070389649507,1.4227989529308334,-1.8785846600286635,-0.7155129144069894,1.9454646938088842,0.18968565808450097,-0.0017775004764035924,-0.0006970749322125524,-0.0011345852481433102,0.00014136287965732319,0.0008030254387859616,0.0007087647649113463,0.0005392236407253768,0.3165166676044464,-23.68893814086914,19.628707885742188,17.82355499267578,0.8705545663833618,2.3668715953826904,-0.10706938803195953,,,,,,,,,
1739400524.5364835,-0.7086214010492893,0.6815090633967571,1.4227972317298296,-1.8785840671692653,-0.7155133114583956,1.9454639182885314,0.18968182590514443,-0.00166089146118477,0.00038099923450926187,0.00046983943055560603,0.0006845991219272547,-0.0008047567520124621,-0.0008071372535600876,0.0005294141159818542,0.2927129566669464,-23.71670913696289,19.656478881835938,17.84735870361328,0.8705545663833618,2.3732802867889404,-0.08051909506320953,,,,,,,,,
1739400524.5464952,-0.7086173461003363,0.681511924420155,1.4227971924860083,-1.878586135135761,-0.7155129158794012,1.9454639361668968,0.18968307697838893,0.0011275224485782268,0.0019462905059533645,-0.0001116344122221733,-0.00021353753350305507,-0.00029445786410957353,-0.0007490749999636726,-0.0007790086563315814,0.2411382496356964,-23.71670913696289,19.656478881835938,17.87512969970703,0.8705545663833618,2.3732802867889404,-0.09425200521945953,,,,,,,,,
1739400524.5575569,-0.7086239441790053,0.6815090368477067,1.4227982321939792,-1.8785837064076516,-0.7155129144191519,1.9454639361671997,0.18968813867922807,-0.00022425654076295242,-0.0005789016567040216,-0.0016224440964030295,-0.0005071250209248522,0.0011246243580869749,-0.00025583506869360695,0.00039519485885802406,0.2927129566669464,-23.71670913696289,19.604904174804688,17.79975128173828,0.8705545663833618,2.3732802867889404,-0.10066069662570953,,,,,,,,,
1739400524.5675871,-0.7086196875945193,0.6815053148884942,1.4227974691208294,-1.8785854902293033,-0.7155121567590488,1.945464693827278,0.18968120872489835,3.386503216738891e-05,-0.00017373670962864723,-0.0007833680396678797,-0.0015701083742422726,0.0023935696231399462,0.0010076426620282948,-0.0022429523068804675,0.2689092457294464,-23.66513442993164,19.656478881835938,17.82355499267578,0.8641458749771118,2.3668715953826904,-0.07411040365695953,,,,,,,,,
1739400524.578593,-0.7086211538008411,0.6814996151528295,1.422799310528893,-1.878583379522352,-0.715512516348313,1.945464693827278,0.18968613651065677,-0.0003945441106236116,-0.0029559677388988556,0.0005064335198300235,0.0012806835224340933,-5.6347312526269994e-05,0.0008077360127914781,0.0006162692920209564,0.2927129566669464,-23.58578872680664,19.628707885742188,17.79975128173828,0.8641458749771118,2.3668715953826904,-0.10706938803195953,,,,,,,,,
1739400524.5886137,-0.7086194501098313,0.6814995364427576,1.4228011049913332,-1.8785872464098334,-0.7155125124307143,1.945466207160916,0.18968693124934707,9.172394901081651e-05,-0.0018172513618304853,-0.0006438264317097555,-0.0012653901512626599,0.001645592232189566,0.0009275558709378938,0.002387826486265034,0.2689092457294464,-23.61355972290039,19.604904174804688,17.84735870361328,0.8641458749771118,2.3540542125701904,-0.11347807943820953,,,,,,,,,
1739400524.6005664,-0.7086194501463196,0.6815053235078836,1.4228010932539816,-1.8785869280877352,-0.7155140297131196,1.9454643653582626,0.18968308088136157,0.00028464334200269776,0.0005926343288131586,-0.0002653749268899296,2.8937304665605824e-05,-0.00046918973895574784,0.00018149853093675112,-0.0016813301246033257,0.2689092457294464,-23.66513442993164,19.604904174804688,17.84735870361328,0.8769632577896118,2.3604629039764404,-0.09425200521945953,,,,,,,,,
1739400524.6116366,-0.7086194501099808,0.6815033295935237,1.422800232511623,-1.8785852249920927,-0.7155132715624791,1.9454658471023634,0.18968458602123808,-0.0003269869270929786,-0.00020417071684269896,-0.0008757155150738267,-0.0009811337401741903,0.00010100856021297131,-7.574795012339557e-05,0.0006320009052153218,0.2689092457294464,-23.63736343383789,19.577133178710938,17.82355499267578,0.8705545663833618,2.3540542125701904,-0.06678618490695953,0,0,0,0.000,0,0
1739400524.622485,-0.7086193618068034,0.6815070388579596,1.4228031729908328,-1.8785883725294306,-0.715511841541575,1.9454646938252342,0.1896838348215173,-0.0002792043952123483,0.00027069494442881156,-0.00020025604225055462,-0.0014458356382698215,0.001188035424038343,-0.00025212957150012996,-0.0013883337293837724,0.2689092457294464,-23.68893814086914,19.577133178710938,17.87512969970703,0.8705545663833618,2.3668715953826904,-0.10066069662570953,0,0,0,0.000,0,0
1739400524.6326108,-0.7086174521676324,0.6815033286123809,1.422801093217576,-1.8785844531409617,-0.715513266141948,1.9454638154861905,0.18968383430713234,0.0002899178274118132,-0.00023997211511302954,-3.4550684152977434e-05,0.0006801735474904624,4.0472777924874937e-05,-0.0005216582660008505,-0.0002735352387366423,0.2411382496356964,-23.63736343383789,19.604904174804688,17.82355499267578,0.8705545663833618,2.3732802867889404,-0.10066069662570953,0,0,0,0.000,0,0
1739400524.643525,-0.708619441279663,0.6815056442999933,1.4228032420372438,-1.878585463732515,-0.7155140296585892,1.9454599201191922,0.1896845815249826,-0.00033295428946270207,0.0004945839798882567,0.0007520007340723014,-0.001706001240474609,-6.291057304552125e-05,-0.001353651505615396,-0.00014349239059840762,0.2689092457294464,-23.66513442993164,19.604904174804688,17.82355499267578,0.8769632577896118,2.3796889781951904,-0.06678618490695953,0,0,0,0.000,0,0
1739400524.653583,-0.7086211625215463,0.6815069321885999,1.4227972308961085,-1.8785805256940278,-0.7155132676378926,1.9454654514321752,0.18968625948403617,-0.00010373357451326966,0.000495221583065692,-0.0026425248141784085,0.0006589342762727273,0.0011299598339442206,0.000718986178886973,0.0017868143572278789,0.2927129566669464,-23.71670913696289,19.656478881835938,17.79975128173828,0.8705545663833618,2.3604629039764404,-0.12080229818820953,0,0,0,0.000,0,0
1739400524.6636317,-0.7086211626307102,0.6815070389293073,1.4227982292511905,-1.878588599121865,-0.7155125142293748,1.945464693827277,0.18968329001262443,-0.00022601446019141134,-0.0004907261108751334,-0.0007903605843672468,-0.001230317106954319,0.0004460806471127806,-0.00012791829085164396,0.00011702505116534907,0.2927129566669464,-23.68893814086914,19.604904174804688,17.87512969970703,0.8641458749771118,2.3668715953826904,-0.08692778646945953,0,0,0,0.000,0,0
1739400524.6755788,-0.7086203404300154,0.6815083378389822,1.4227956865124334,-1.8785864428522199,-0.7155129150712051,1.9454650760353278,0.18968075582886773,-0.0004181135722422329,0.001368602829542956,-0.0005514999798287582,-0.0011214817519151024,-0.00021265140048310502,0.0010841213493339539,-0.0016857004585290206,0.2927129566669464,-23.71670913696289,19.680282592773438,17.84735870361328,0.8705545663833618,2.3604629039764404,-0.04756011441349983,0,0,0,0.000,0,0
1739400524.6855984,-0.7086157396437552,0.6815090369018576,1.4227993105419035,-1.8785833052115686,-0.7155100519284997,1.9454654514852368,0.1896901769148736,0.0018441371457109616,-0.00038959850447764803,1.8665245234849136e-05,0.0005708316217319686,0.0008245348307216054,0.001069528097992708,0.0024091818309021776,0.2173345386981964,-23.71670913696289,19.628707885742188,17.82355499267578,0.8705545663833618,2.3604629039764404,-0.12721098959445953,0,0,0,0.000,0,0
1739400524.6964896,-0.7086194501099808,0.6815090644869197,1.422796912859263,-1.8785852517620703,-0.715513152771077,1.94545947096986,0.18967942769036006,0.0005069362669648488,0.0008309011657198434,-0.00040453670381819187,0.0011913689917739793,0.0010422863951852763,-0.0008828514078457406,-0.0008132271812321421,0.2689092457294464,-23.71670913696289,19.656478881835938,17.82355499267578,0.8705545663833618,2.3732802867889404,-0.06037749722599983,0,0,0,0.000,0,0
1739400524.706622,-0.7086194501099808,0.681509026331693,1.4228010932121928,-1.8785892457471995,-0.7155146503377395,1.9454639355949515,0.18968534947079113,-0.0008569093242549205,0.00011819565887578084,-5.803720463293569e-05,6.106648732707472e-05,-0.00010954591265431238,0.0015372298439742154,-0.0009571972141179013,0.2689092457294464,-23.71670913696289,19.604904174804688,17.87512969970703,0.8833719491958618,2.3732802867889404,-0.11347807943820953,0,0,0,0.000,0,0
1739400524.7175872,-0.7086193707461373,0.6815053352744778,1.4227972042597485,-1.8785892424801462,-0.715514029221784,1.9454639227581954,0.18968783013260213,0.000621982174030726,-0.0009398900210418274,-0.0002642194463819633,-0.0010466878177854025,-0.0005157354299160699,-0.0008826653475147719,0.0008876551010749451,0.2689092457294464,-23.66513442993164,19.656478881835938,17.87512969970703,0.8769632577896118,2.3732802867889404,-0.10706938803195953,0,0,0,0.000,0,0
1739400524.7285125,-0.7086215958767447,0.68150703019121,1.4227989925399527,-1.8785836888438807,-0.7155125294129904,1.9454631249740828,0.1896846313682796,-0.0011736099831809095,0.00028928940005833897,-0.00024632594977500667,7.421935797447226e-05,-0.0005848506418950154,-0.0019194822663491536,0.0004774988778691251,0.2689092457294464,-23.68893814086914,19.628707885742188,17.82355499267578,0.8641458749771118,2.3668715953826904,-0.10706938803195953,0,0,0,0.000,0,0
1739400524.7385428,-0.7086194501463196,0.681509028238862,1.4228056366606974,-1.878583377747585,-0.7155108112240728,1.9454654092472659,0.18967907171093815,-1.923511914815086e-05,0.000679563739894993,0.0026043124395218973,0.0005610703828580021,0.000818579920577097,-0.000411014215760671,-0.00233331647836955,0.2689092457294464,-23.71670913696289,19.577133178710938,17.79975128173828,0.8769632577896118,2.3604629039764404,-0.06037749722599983,0,0,0,0.000,0,0
1739400524.7485583,-0.7086167369133911,0.6815070419082434,1.4228031730491542,-1.8785822848183962,-0.7155140296586253,1.9454606777792365,0.18968858624550985,0.0009262438934001832,-0.0002545623408757535,0.0004954239296356522,0.0015323761122408416,4.852142893770398e-05,-0.0011785695723893993,0.001218720017423846,0.2411382496356964,-23.68893814086914,19.577133178710938,17.82355499267578,0.8769632577896118,2.3732802867889404,-0.10066069662570953,0,0,0,0.000,0,0
1739400524.7594893,-0.7086175581289031,0.6815033285033831,1.422804240428714,-1.8785794248597831,-0.7155112908678726,1.9454646931467112,0.1896858160569506,0.00023446648005850728,-0.0011681612880089507,0.0007965312643250404,0.00111435082383035,0.002163691971084743,-0.0001368264922088758,0.00036292521661963596,0.2411382496356964,-23.63736343383789,19.553329467773438,17.77594757080078,0.8568216562271118,2.3668715953826904,-0.10706938803195953,0,0,0,0.000,0,0
1739400524.76951,-0.708619458942093,0.6815070389649509,1.4227993134718837,-1.8785833626915087,-0.7155140252919153,1.9454643183752378,0.18968019797464253,-0.0009383100719590133,0.0005686929224430033,-0.001664048700900435,0.0008241097866774604,0.0005085124722693042,-0.0001930135822255821,-0.001525821763553867,0.2689092457294464,-23.68893814086914,19.628707885742188,17.79975128173828,0.8769632577896118,2.3668715953826904,-0.06678618490695953,0,0,0,0.000,0,0
1739400524.7796001,-0.7086174521692774,0.6815033285033666,1.4228049527410616,-1.8785847661374275,-0.7155116396108407,1.9454628500317588,0.18968638795915965,0.001101689560822784,-0.0010673403652997529,0.000793235461127712,0.0004655128072802074,-0.00010380901428089885,-0.0010142941946707324,0.000716554217156797,0.2411382496356964,-23.63736343383789,19.553329467773438,17.82355499267578,0.8568216562271118,2.3732802867889404,-0.12080229818820953,0,0,0,0.000,0,0
1739400524.78968,-0.7086250199375087,0.6815012224725845,1.4228003779617893,-1.8785833410703439,-0.7155140297129802,1.9454635741057784,0.18967938031398038,-0.0012258044514848955,-0.001664445087703597,-0.0004423363463715928,-0.0005356609823627392,-4.792267933811481e-05,0.00024354572614523648,-0.001826649993759961,0.3165166676044464,-23.63736343383789,19.604904174804688,17.82355499267578,0.8769632577896118,2.3732802867889404,-0.05396880581974983,0,0,0,0.000,0,0
1739400524.800563,-0.7086174522054499,0.6815053264085538,1.4227996636751352,-1.8785864487069561,-0.7155140311666809,1.9454669661392086,0.18968621684268716,-0.0002083571965811041,-0.000621851137638637,-0.0004825548300424809,-0.0008093691559155501,-0.001663162664960883,2.32748007355588e-06,0.00013204264094795646,0.2411382496356964,-23.66513442993164,19.604904174804688,17.84735870361328,0.8769632577896118,2.3476455211639404,-0.12080229818820953,0,0,0,0.000,0,0
1739400524.810571,-0.7086187348542438,0.6815053264442195,1.4227993105324874,-1.8785815616350843,-0.7155147873732173,1.94546281646409,0.1896826172043578,0.0007744425770155894,-0.0009220673388292333,0.0002521111147536983,-6.627739081533572e-05,-0.0009495308943613635,-0.0015948467127571597,-0.00212253546317005,0.2689092457294464,-23.66513442993164,19.628707885742188,17.79975128173828,0.8833719491958618,2.3796889781951904,-0.08692778646945953,0,0,0,0.000,0,0
1739400524.821528,-0.7086210713800577,0.6815108288993947,1.4227993105405574,-1.878581686408253,-0.7155144297453404,1.9454650892767418,0.18968238610578272,3.679212368145601e-05,0.0012192680828725382,0.00042600240472968827,0.00046504917195942693,0.0005802565159110962,0.0010269075480066458,-0.0003903279039474554,0.2927129566669464,-23.74051284790039,19.628707885742188,17.77594757080078,0.8833719491958618,2.3604629039764404,-0.08692778646945953,0,0,0,0.000,0,0
1739400524.8315604,-0.7086240233250671,0.6815090369071497,1.4227993115217037,-1.878587192339281,-0.7155112940286895,1.9454631780043574,0.18967704656620069,-0.0012256997884340151,4.865054425690334e-05,5.518726425848949e-05,-0.001530164394159433,0.0009897580008644087,0.0001616817094491521,-0.0013531935267885686,0.2927129566669464,-23.71670913696289,19.628707885742188,17.84735870361328,0.8897806406021118,2.3796889781951904,-0.04023589566349983,0,0,0,0.000,0,0
1739400524.8425338,-0.7086202090088831,0.6815070389649509,1.422799310649579,-1.878587176512992,-0.7155132720290553,1.9454614289838414,0.189684710280124,-0.00037160075876929065,-0.0008429145861113021,-0.0006086385628879538,0.0004092957750089709,-0.000274281983486015,-0.0009722789706357688,2.9932996465833825e-05,0.2927129566669464,-23.68893814086914,19.628707885742188,17.87512969970703,0.8705545663833618,2.3668715953826904,-0.10706938803195953,0,0,0,0.000,0,0
1739400524.8535876,-0.7086174256364526,0.6815063369546902,1.4228011197085304,-1.8785819248266613,-0.7155140297131305,1.945461829867422,0.18969124007056426,0.0006684840211426629,-0.0011628269952576758,0.0006625711396037958,0.0012847731694315106,-0.00012275775762978956,-0.0015160582108425624,0.0018879205607239796,0.2411382496356964,-23.68893814086914,19.604904174804688,17.77594757080078,0.8769632577896118,2.3870131969451904,-0.12721098959445953,0,0,0,0.000,0,0
1739400524.8645008,-0.708619450109831,0.6815090398452802,1.422801199181539,-1.8785872729063415,-0.7155140297131307,1.945464692334664,0.18968069594128606,-0.0007256447379512111,-3.642486448845875e-05,0.0010473699837057996,-0.00043907982645054276,-0.0010725879485718685,-0.00035196248435994835,-0.002097228040019696,0.2689092457294464,-23.71670913696289,19.604904174804688,17.84735870361328,0.8769632577896118,2.3668715953826904,-0.07411040365695953,0,0,0,0.000,0,0
1739400524.8745859,-0.708617204920231,0.6815090369058536,1.4227950849852846,-1.8785870344877627,-0.7155129568295248,1.9454662091474093,0.18968677260856578,0.0001943167909078397,0.0008681962916612881,-0.0009152340567901316,-0.0005744072403214379,0.0007326605869594934,0.0018641093513967087,0.001059919225546577,0.2411382496356964,-23.71670913696289,19.656478881835938,17.84735870361328,0.8769632577896118,2.3540542125701904,-0.11347807943820953,0,0,0,0.000,0,0
1739400524.88552,-0.7086194502539401,0.6815069308750218,1.4227993103467507,-1.8785853754338462,-0.715511211088466,1.9454620724190994,0.18968570949767694,-2.339047022568725e-05,-0.000916801578161058,0.00025890106350541584,0.00042133407639350403,0.00022562464514665052,0.00018617718901630298,0.0007754058769848143,0.2689092457294464,-23.71670913696289,19.628707885742188,17.82355499267578,0.8833719491958618,2.3604629039764404,-0.11347807943820953,0,0,0,0.000,0,0
1739400524.8955576,-0.7086211626307145,0.6815090367631406,1.422799310540554,-1.878587272577349,-0.7155120072985632,1.94546469360451,0.1896877496092422,-0.0008123014943057351,0.0005707219280388126,0.00013727129921620241,9.023842892879312e-07,-5.919551982638669e-05,0.0004981356887043384,0.0004158241283665938,0.2927129566669464,-23.71670913696289,19.628707885742188,17.84735870361328,0.8568216562271118,2.3668715953826904,-0.09425200521945953,0,0,0,0.000,0,0
1739400524.9064956,-0.708619449782932,0.6815033285033657,1.4227961718531723,-1.8785836956695288,-0.7155121567671308,1.9454639361671984,0.18968269813518668,0.0005670844160435042,-0.0008050937036498531,-0.001420090097432848,0.000642888643735068,0.0003244328634689512,0.00181461389747762,-0.0015164234376322785,0.2689092457294464,-23.63736343383789,19.628707885742188,17.79975128173828,0.8641458749771118,2.3732802867889404,-0.05396880581974983,0,0,0,0.000,0,0
1739400524.9165137,-0.7086196885285544,0.6815070389649509,1.4227964507726494,-1.878587246306171,-0.7155132720469959,1.9454639346773106,0.18968475195619697,-0.0005006652022435337,0.00016416164780562903,-0.0013210240244622585,-0.0009133186786374778,0.00016571251619174694,0.0013804272128278125,0.0006577736558051013,0.2689092457294464,-23.68893814086914,19.628707885742188,17.84735870361328,0.8705545663833618,2.3732802867889404,-0.10706938803195953,0,0,0,0.000,0,0
1739400524.92652,-0.7086174521812407,0.68150727738353,1.4228010171969623,-1.878586319230674,-0.7155140340737811,1.945463936167124,0.18968204377741069,0.0009900830528393294,0.001033011925266401,-5.207968678533985e-05,-0.0005399282901865347,-0.0007118453082505959,-0.0003417971362566131,-0.0013690132421335897,0.2411382496356964,-23.68893814086914,19.604904174804688,17.84735870361328,0.8769632577896118,2.3732802867889404,-0.05396880581974983,0,0,0,0.000,0,0
1739400524.9365563,-0.7086157396483966,0.68150705084907,1.4228013316357264,-1.878581805824136,-0.7155133287415365,1.9454646918407592,0.18969048048069162,0.0010995371033041992,0.00017011640919344713,-0.0001845045453491211,0.00040354617458074175,-0.0007028057788065129,4.482753895514567e-06,0.0019879526610472533,0.2173345386981964,-23.68893814086914,19.604904174804688,17.77594757080078,0.8705545663833618,2.3668715953826904,-0.12080229818820953,0,0,0,0.000,0,0
1739400524.9465954,-0.7086174246970282,0.6815053264444209,1.4228031730114696,-1.8785852518087276,-0.7155136257512389,1.9454643317842166,0.1896851183474122,0.0006570009119831878,0.0004176308704260385,-0.00042697870260629677,-1.5710404923845062e-06,0.0004041063343882314,0.0003923291280085638,0.0008869125888470055,0.2411382496356964,-23.66513442993164,19.577133178710938,17.82355499267578,0.8705545663833618,2.3668715953826904,-0.07411040365695953,0,0,0,0.000,0,0
1739400524.957523,-0.7086174521689728,0.6815070477952686,1.4228010932175765,-1.8785872636022742,-0.715513272055049,1.9454646938252342,0.1896823423035794,0.0008908748579379156,-0.0008686184753575463,-0.00038848719355219616,-0.0006396997449739333,0.00010287362592158693,0.0002812211927824688,-0.001096366722281774,0.2411382496356964,-23.68893814086914,19.604904174804688,17.84735870361328,0.8705545663833618,2.3668715953826904,-0.08692778646945953,0,0,0,0.000,0,0
1739400524.9676445,-0.7086174521691279,0.6815053529353224,1.4227973102235616,-1.8785836280792865,-0.7155125145544796,1.9454621859693235,0.18967975474783144,0.0004688509526425584,-0.0002849006987146942,-0.0013371621638692912,0.00018677543043544074,-0.00039993473043002946,0.00029136661638963187,-0.0016491255624064504,0.2411382496356964,-23.66513442993164,19.656478881835938,17.79975128173828,0.8641458749771118,2.3870131969451904,-0.05396880581974983,0,0,0,0.000,0,0
1739400524.9785807,-0.7086194412433243,0.6815090367989559,1.4228031465169273,-1.8785886343875562,-0.7155119504737935,1.945462849982221,0.18968074993448047,-0.0005327951942331147,0.00030450789850637074,0.0004419975435521581,-0.0011468408573183312,0.0003547806476454022,-0.0010146756150126483,-0.0009363577873709732,0.2689092457294464,-23.71670913696289,19.577133178710938,17.87512969970703,0.8504129648208618,2.3732802867889404,-0.07411040365695953,0,0,0,0.000,0,0
1739400524.9895403,-0.708621153836683,0.6815091458130554,1.4228011962378007,-1.878585722647952,-0.715513727577537,1.9454612745258864,0.18968147194177956,-0.0008162595196635028,0.0007597270174429607,0.0011429390424762382,-0.0007407640530975047,-0.0007597292452520752,-0.0006118419703322871,-0.0017482235317316536,0.2927129566669464,-23.71670913696289,19.604904174804688,17.82355499267578,0.8833719491958618,2.3668715953826904,-0.08051909506320953,0,0,0,0.000,0,0
1739400524.9997005,-0.7086211626305631,0.6815070389667952,1.422799204578489,-1.8785886370083311,-0.7155134333791819,1.945463176959326,0.18969065738461469,-0.00045518703540544075,-4.051606446086689e-05,0.00019443668600871309,-0.0016659896497012473,-0.0008531108298518638,0.00013500751522605591,0.0015632041776045508,0.2927129566669464,-23.68893814086914,19.628707885742188,17.87512969970703,0.8705545663833618,2.3796889781951904,-0.12080229818820953,0,0,0,0.000,0,0
1739400525.010547,-0.7086194510911272,0.6815090369058039,1.422801331634361,-1.8785870301149918,-0.7155140164703861,1.9454646938272517,0.18968309118610294,-0.00033003050467521604,0.0007593545728722029,0.0008768647637166639,-0.00017456615888863312,-3.5478835564989786e-05,0.00015613283934143396,-0.0010929630182085685,0.2689092457294464,-23.71670913696289,19.604904174804688,17.84735870361328,0.8769632577896118,2.3668715953826904,-0.09425200521945953,0,0,0,0.000,0,0
1739400525.0205917,-0.7086194510911328,0.6815053264442197,1.422803172681729,-1.8785827538766169,-0.7155116484956667,1.945464693330648,0.18969008840203508,-9.33809751003478e-06,-0.0013679006076792101,0.0011897770009763884,-0.0001591909447663123,0.00028749375431166477,0.0003738476411964351,0.002687521697415576,0.2689092457294464,-23.66513442993164,19.577133178710938,17.79975128173828,0.8568216562271118,2.3668715953826904,-0.11347807943820953,0,0,0,0.000,0,0
1739400525.0316038,-0.7086194236190331,0.6815070389649509,1.4227992183127924,-1.8785870341553303,-0.7155140297131307,1.9454639182885287,0.18968889642022116,-0.00046551883491025025,-0.0007849893613106614,0.00026540023583047554,6.81638829680673e-05,-0.0012644913650676983,0.00012035622434457517,-0.00020987872112676321,0.2689092457294464,-23.68893814086914,19.628707885742188,17.84735870361328,0.8769632577896118,2.3732802867889404,-0.10706938803195953,0,0,0,0.000,0,0
1739400525.0425162,-0.7086194500734925,0.6815069694731362,1.4227982507928911,-1.8785826652464135,-0.7155132720530524,1.945464693827177,0.1896901426088101,-0.00013251440219668072,-0.0008902394975402812,-0.0019230097772079693,-1.8543215537190433e-05,0.0005999524792862196,0.0009152444496650584,0.003313466802276163,0.2689092457294464,-23.68893814086914,19.628707885742188,17.79975128173828,0.8705545663833618,2.3668715953826904,-0.14094389975070953,0,0,0,0.000,0,0
1739400525.0544796,-0.7086174507519162,0.6815053264438273,1.4228007181731166,-1.8785872626529287,-0.7155155450332874,1.9454662091474346,0.18968073937160057,0.0010932390682274853,-0.0005580324004758178,0.0008489230014656766,-0.0017335429211497023,-0.000514375416555297,0.0008535998363901077,-0.001760133609258032,0.2411382496356964,-23.66513442993164,19.577133178710938,17.84735870361328,0.8897806406021118,2.3540542125701904,-0.07411040365695953,0,0,0,0.000,0,0
1739400525.064568,-0.7086174521691039,0.6815070302981575,1.4228007752845648,-1.8785826277889883,-0.7155143360518323,1.9454662091474346,0.18968508325076933,0.0003907521386525847,-0.00022229655313701528,0.0005650030738418389,0.00021273807819885792,-0.0003993577978013699,-3.224501163452882e-05,-0.00016272235974268856,0.2411382496356964,-23.68893814086914,19.604904174804688,17.82355499267578,0.8705545663833618,2.3540542125701904,-0.10706938803195953,0,0,0,0.000,0,0
1739400525.0755816,-0.7086211523831828,0.6815090369057549,1.4228031730056372,-1.8785833542870967,-0.7155123277875179,1.9454623126098889,0.18967847207170868,-0.0007787531269124339,0.0010538575061586322,0.000700895096862011,0.0006032254554281602,-0.0014291678964329269,-0.0004209287860893683,-0.0012008133432646817,0.2927129566669464,-23.71670913696289,19.577133178710938,17.79975128173828,0.8897806406021118,2.3870131969451904,-0.05396880581974983,0,0,0,0.000,0,0
1739400525.086509,-0.7086193706370633,0.6815082516619211,1.4228018084733138,-1.8785837041344666,-0.715514785883328,1.9454646936065536,0.18968897294764853,0.0005470069029039986,-0.00017187074375413968,0.0008991073886099466,-0.0003540141342369804,-0.0015612852909271373,0.00014002928712563946,0.0022160967253398558,0.2689092457294464,-23.68893814086914,19.604904174804688,17.79975128173828,0.8833719491958618,2.3668715953826904,-0.13361968100070953,0,0,0,0.000,0,0
1739400525.096571,-0.7086211626302634,0.6815070393351841,1.4228010932216142,-1.8785854637383501,-0.715513989813168,1.9454638954435657,0.18968369234355553,6.261256180142567e-05,-0.00046879517636819646,0.0008088001006164952,-0.0010349254502356742,7.164536901994626e-05,-0.0006187815326387965,0.0007407617189170649,0.2927129566669464,-23.68893814086914,19.604904174804688,17.82355499267578,0.8769632577896118,2.3732802867889404,-0.06037749722599983,0,0,0,0.000,0,0
1739400525.1075938,-0.7086228750424269,0.6815090369058059,1.4227971647733455,-1.8785819209505494,-0.7155115289857361,1.9454639167984127,0.1896814666045598,-0.0016201633498326242,0.0010630823585021324,-0.0012069130651876044,0.0012168127876179013,4.426283139756195e-05,0.0003435583227305537,7.45841141664412e-05,0.3165166676044464,-23.71670913696289,19.628707885742188,17.77594757080078,0.8833719491958618,2.3732802867889404,-0.08051909506320953,0,0,0,0.000,0,0
1739400525.1184924,-0.7086211626307114,0.6815070390012896,1.422799304641566,-1.87858474848261,-0.7155143336108549,1.945465449335185,0.18968232515215752,-0.0003428376469284393,0.00022736121374212917,0.00032690639019552765,0.0005503034246956638,-0.0005762888989733294,0.0004563699628198237,-0.002099246298425401,0.2927129566669464,-23.68893814086914,19.628707885742188,17.82355499267578,0.8705545663833618,2.3604629039764404,-0.06037749722599983,0,0,0,0.000,0,0
1739400525.128533,-0.7086194501099808,0.6815070625669736,1.4228024564433994,-1.8785847749610238,-0.7155140297311082,1.9454631785070848,0.18968419545535017,-2.2494710735927684e-05,-0.000491563929302789,0.00030885558996825635,0.0012252235371232243,-0.00031641243503276444,0.0005333895432753275,-0.0012665460602863687,0.2689092457294464,-23.68893814086914,19.577133178710938,17.82355499267578,0.8769632577896118,2.3796889781951904,-0.09425200521945953,0,0,0,0.000,0,0
1739400525.1395664,-0.7086211612135006,0.6815066981075514,1.4228014558676592,-1.8785872718848189,-0.7155147873732091,1.9454643273145833,0.18968754778102256,-0.0003025795095767483,-0.0004047405545379849,-0.00042897189433424256,0.00015650130333542844,-0.0006337056971785323,-0.0005450101380671461,0.0022652154669626752,0.2927129566669464,-23.68893814086914,19.628707885742188,17.84735870361328,0.8833719491958618,2.3668715953826904,-0.10066069662570953,0,0,0,0.000,0,0
1739400525.1495929,-0.7086157396483727,0.6815107494207626,1.422801101103079,-1.8785872729063247,-0.7155102066165244,1.9454654514811494,0.18968892193222467,0.0011255759076893373,0.0014384556748919858,-0.00035149976216782626,-0.00044083158760000254,0.0005712459891916491,0.0009797534359932032,0.0018645743889207584,0.2173345386981964,-23.74051284790039,19.604904174804688,17.84735870361328,0.8705545663833618,2.3604629039764404,-0.11347807943820953,0,0,0,0.000,0,0
