IITGN-Robotics/Franka_IITGN_ROBOTICS/franka_ros/franka_iitgn/data/b_02.csv
time,fr3_joint1_pos,fr3_joint2_pos,fr3_joint3_pos,fr3_joint4_pos,fr3_joint5_pos,fr3_joint6_pos,fr3_joint7_pos,fr3_joint1_vel,fr3_joint2_vel,fr3_joint3_vel,fr3_joint4_vel,fr3_joint5_vel,fr3_joint6_vel,fr3_joint7_vel,fr3_joint1_eff,fr3_joint2_eff,fr3_joint3_eff,fr3_joint4_eff,fr3_joint5_eff,fr3_joint6_eff,fr3_joint7_eff,flexpin1,flexpin2,flexpin3,Force,ContactMic,ContactMic_gt
1739400587.0346744,-0.7085378159088705,0.6812047263697407,1.4224952710509282,-1.878808499765266,-0.7152128776248696,1.945667951886102,0.18949268616410725,0.0002455539033197284,0.003986267695404253,-0.0005219878713688315,-0.00022736071365774804,-0.000624773512550065,5.83588886893658e-05,0.001497234779958053,0.2411382496356964,-23.68893814086914,19.553329467773438,17.82355499267578,0.8440042734146118,2.3540542125701904,-0.10706938803195953,,,,,,,,,
1739400587.0446763,-0.7085386813186693,0.6812278518505025,1.4224717964163598,-1.8788065983714428,-0.7152186730126534,1.9456693059952008,0.18949149925366973,-0.00035010306334248327,0.0014217162523849666,-0.0017274113522373535,0.0008316388181052504,-0.000978843608942909,-4.8863270465474435e-06,0.0009356664630624418,0.2173345386981964,-23.58578872680664,19.529525756835938,17.79975128173828,0.8440042734146118,2.3476455211639404,-0.09425200521945953,,,,,,,,,
1739400587.0551481,-0.7085352067032549,0.6812475606478388,1.4224539601922699,-1.878806160018633,-0.7152216644030198,1.9456662712464632,0.18949180223889847,0.0012870793634108717,0.0012040248517107685,-0.0031838685006749766,0.0005332461128085898,-0.0010030874563692871,-0.0007684169658075019,0.0003832511018537776,0.1935308277606964,-23.63736343383789,19.604904174804688,17.82355499267578,0.8375955820083618,2.3604629039764404,-0.09425200521945953,,,,,,,,,
1739400587.0657275,-0.7085369219760785,0.6812562060360458,1.4224435065773369,-1.878814926365658,-0.7152213548028123,1.945661151456365,0.18949287867827608,-0.001643327078645494,0.00201932570232942,-0.0009955810512072023,-0.0002917325617051383,0.00047438129042543496,0.00011199511540864628,-0.0006928910183514604,0.2173345386981964,-23.63736343383789,19.604904174804688,17.89893341064453,0.8440042734146118,2.3668715953826904,-0.06678618490695953,,,,,,,,,
1739400587.0766642,-0.7085373149393054,0.6812615932230781,1.422439227101174,-1.8788187214734722,-0.7152227634300109,1.94566035334601,0.18949839884636052,0.00039268415837907865,0.0013095999145299863,-0.0010519127274943479,-0.0007508448498501396,1.9921772465714496e-05,-0.0003126064679717476,0.002270234607570981,0.1935308277606964,-23.61355972290039,19.577133178710938,17.94654083251953,0.8504129648208618,2.3732802867889404,-0.11347807943820953,,,,,,,,,
1739400587.086682,-0.7085373159498337,0.6812688852819677,1.4224413268197718,-1.878807463390286,-0.7152223917698499,1.9456625287766445,0.18949287349685298,-0.0008370058172682441,0.0015561976664880699,0.0013438954027801386,0.0019659580758199097,0.0006802815199839069,0.0003847054142955066,-0.0013137320986354856,0.1935308277606964,-23.66513442993164,19.501754760742188,17.79975128173828,0.8311868906021118,2.3540542125701904,-0.06678618490695953,,,,,,,,,
1739400587.0976071,-0.7085369224397886,0.6812727789741015,1.422434445018661,-1.8788064743932034,-0.7152286465729463,1.9456588167795654,0.1894937511310708,-0.00031435551638898924,0.0004058198081426391,-0.0019107498667125767,-0.0002868424252314099,-0.0012728672005260276,-0.0009290610967807123,0.00010798514721724728,0.2173345386981964,-23.68893814086914,19.553329467773438,17.79975128173828,0.8568216562271118,2.3732802867889404,-0.07411040365695953,,,,,,,,,
1739400587.1086154,-0.7085473111799773,0.6812789499709833,1.4224265431277516,-1.8788048796491936,-0.7152287235055406,1.9456578977030516,0.18949450295891174,0.0004051298248495738,0.0009271067106928125,-0.0016240208422686286,3.9546422637035073e-05,0.0009614249226682741,-0.001323210771212897,0.0009273290992335027,0.2927129566669464,-23.71670913696289,19.628707885742188,17.79975128173828,0.8568216562271118,2.3540542125701904,-0.08051909506320953,,,,,,,,,
1739400587.1186924,-0.7085535669413735,0.6812821776486215,1.4224164932064765,-1.8788027138056158,-0.7152307036322426,1.9456571415323394,0.18949561493545664,-0.0015371328831961597,0.0014208466475636994,-0.001413478792381087,0.0006633743070753788,-0.00044946408875851763,-0.00028769618815607014,0.00048022487318884216,0.3680913746356964,-23.71670913696289,19.704086303710938,17.74817657470703,0.8641458749771118,2.3604629039764404,-0.08692778646945953,,,,,,,,,
1739400587.130666,-0.708555759429097,0.6812871124540971,1.4224070348399864,-1.878808420880327,-0.71523127883034,1.9456578976850407,0.18949713120156217,-0.0008126102241204858,0.0010249964001622664,9.112769968296915e-05,0.0011281972586195898,-0.00045658211449835966,0.0007759471509547346,0.0014576929451248673,0.3918950855731964,-23.74051284790039,19.704086303710938,17.82355499267578,0.8504129648208618,2.3540542125701904,-0.06678618490695953,,,,,,,,,
1739400587.141661,-0.7085526012261293,0.6812894222463778,1.4224069925190954,-1.8788148798633155,-0.715226896555272,1.9456563823648756,0.1894985570484293,0.0003136366653815891,-0.0002001739568557459,0.0009135033475206161,-0.000258836877340374,0.0019440121350913489,0.00036630550181812057,0.0005251294480404837,0.3165166676044464,-23.68893814086914,19.656478881835938,17.89893341064453,0.8440042734146118,2.3668715953826904,-0.11347807943820953,,,,,,,,,
1739400587.151714,-0.708555435316675,0.6812951576757642,1.422400632416345,-1.8788110287426365,-0.7152282874664077,1.9456563823648756,0.18949616588735763,-0.0007262056903938835,0.0021256641684121425,-0.00023639541513683965,-3.334020600840408e-05,0.00035599154870740964,0.0010789611979701186,-0.0006085513898083621,0.3165166676044464,-23.76828384399414,19.704086303710938,17.84735870361328,0.8504129648208618,2.3668715953826904,-0.09425200521945953,,,,,,,,,
1739400587.16365,-0.7085508887598546,0.6812880662051958,1.422408060153589,-1.8788066911605419,-0.7152319881543436,1.945654867044719,0.18949979217903734,-0.00041432296376430025,-0.0009708147193869058,0.00038102927540703606,0.00020275083868538681,-5.731140715612386e-05,-0.00043337088838549514,0.0014608554752643696,0.2927129566669464,-23.66513442993164,19.604904174804688,17.82355499267578,0.8568216562271118,2.3796889781951904,-0.09425200521945953,,,,,,,,,
1739400587.1736796,-0.7085508887545219,0.6812900920392827,1.4224098132580258,-1.8788106047312554,-0.715229851035307,1.945659521242343,0.18949379533234723,-0.0005174059515312496,0.0007700344639089741,0.001519153511096675,-0.0001393139337207592,0.0006326941159833041,0.0008779525898439131,-0.004533228887948663,0.2927129566669464,-23.68893814086914,19.577133178710938,17.84735870361328,0.8568216562271118,2.3403213024139404,-0.04756011441349983,,,,,,,,,
1739400587.1846292,-0.7085508887664105,0.6812907940501527,1.422407944074874,-1.8788148912089053,-0.7152334162144686,1.9456556247047974,0.18949761017997796,-0.0006313455553371777,0.0015925264307880141,0.0006183669167229227,-0.0005126589030333236,-0.0003261144857155495,-0.0012876426183059788,-0.0008257362134740007,0.2927129566669464,-23.68893814086914,19.604904174804688,17.89893341064453,0.8568216562271118,2.3732802867889404,-0.06678618490695953,,,,,,,,,
1739400587.1947157,-0.7085433200049951,0.6812844697722599,1.422407227190721,-1.8788131085326845,-0.715232073083576,1.9456566298288176,0.18949690501200636,0.0012843524511895455,-0.0003288795549063108,-0.0003812765116098125,0.0004376436955730546,0.00018477205672542477,-0.000807285216286783,-0.0015961525779422305,0.2173345386981964,-23.61355972290039,19.604904174804688,17.87512969970703,0.8440042734146118,2.3604629039764404,-0.06037749722599983,,,,,,,,,
1739400587.20572,-0.7085454657600935,0.6812907941928651,1.4224095371581136,-1.8788131114761237,-0.7152320775076827,1.9456571395375573,0.18950206662629143,-0.0002811350618362517,0.001714424204219257,0.0006105577352408303,0.00034329649282684025,0.0005644034007603846,0.0006414794033047645,0.00045354100900826756,0.2173345386981964,-23.68893814086914,19.553329467773438,17.87512969970703,0.8440042734146118,2.3604629039764404,-0.11347807943820953,,,,,,,,,
1739400587.2166834,-0.7085425133936242,0.6812844610596742,1.422409901511399,-1.8788092463928752,-0.715232835167786,1.9456570993255444,0.18950004339936885,0.0016087749113135542,-0.0016362682045408163,-0.0007892468298457232,-0.0002905316048462295,0.0012322361793262499,0.0006392074838503467,0.00023212025874485193,0.2173345386981964,-23.61355972290039,19.577133178710938,17.82355499267578,0.8504129648208618,2.3604629039764404,-0.08692778646945953,,,,,,,,,
1739400587.2286417,-0.708545465766651,0.6812838943717515,1.4224119226563534,-1.878809254896128,-0.7152357273723753,1.945656668913092,0.18949538969451574,0.0006823352859705049,-0.0014207844065641444,0.00017910187299961659,-0.0011258892852786962,-0.0005327419653973478,-0.0017735741919508222,-0.000586561504069589,0.2173345386981964,-23.63736343383789,19.553329467773438,17.82355499267578,0.8440042734146118,2.3604629039764404,-0.04756011441349983,,,,,,,,,
1739400587.238651,-0.7085515906557661,0.6812863815408833,1.4224083378113657,-1.878805689542239,-0.7152328744754534,1.9456586553371322,0.18950043720492313,-0.00118630362994109,0.00074593880305242,-0.0006417617397780819,-0.00039960937318633756,-0.0005782514267223994,0.0010075771432276927,-0.00024731493557803805,0.2927129566669464,-23.63736343383789,19.628707885742188,17.77594757080078,0.8504129648208618,2.3476455211639404,-0.09425200521945953,,,,,,,,,
1739400587.249627,-0.7085491762377528,0.6812887699540249,1.4224081592973459,-1.8788129986443356,-0.7152329921514344,1.9456553227267461,0.18949766267164356,0.0002857060763450998,0.0007318802942843423,0.00020916573682768294,-0.0012627090004188736,-0.0005454079422074993,-0.0014084108685647227,0.00015674808454684962,0.2689092457294464,-23.66513442993164,19.604904174804688,17.87512969970703,0.8504129648208618,2.3668715953826904,-0.06678618490695953,,,,,,,,,
1739400587.26062,-0.7085509003102463,0.6812897916393452,1.422403097722539,-1.8788044675228288,-0.7152343409696529,1.9456578971985214,0.18950432210864301,-0.00010243155151546564,-7.834382591676502e-05,-0.0019256178761575034,0.0033260490348983153,-0.0004515880572018547,0.001018134907650571,0.00023540211651388644,0.2927129566669464,-23.68893814086914,19.628707885742188,17.79975128173828,0.8641458749771118,2.3540542125701904,-0.08692778646945953,,,,,,,,,
1739400587.2706547,-0.7085492551981034,0.6812896078437451,1.4224077421356225,-1.878803573399081,-0.7152378318629042,1.9456571211287925,0.18949614791610608,-5.767276031370605e-05,0.000288308383803788,-0.0004349396761994797,0.0014822187139453915,-0.0007666857997474174,0.0005229600793018389,-0.0023770182952783086,0.2689092457294464,-23.68893814086914,19.604904174804688,17.74817657470703,0.8568216562271118,2.3604629039764404,-0.05396880581974983,,,,,,,,,
1739400587.2816758,-0.7085509147553476,0.6812880800317428,1.4224079715579059,-1.8788056803724547,-0.7152312854709513,1.9456563818802521,0.1895040883345298,-0.0004000018608739908,-0.0006136879594974967,0.0013139797595573184,0.002055586454717067,0.002595751954786535,0.0005209128920342481,0.0017166118544280373,0.2927129566669464,-23.66513442993164,19.604904174804688,17.77594757080078,0.8504129648208618,2.3668715953826904,-0.12080229818820953,,,,,,,,,
1739400587.292628,-0.708549254235371,0.6812918601498501,1.4224053110821877,-1.8788092097633864,-0.7152352163589308,1.945654866883205,0.18949694528121047,0.0002520640190742596,0.0004238429213376026,0.0008282511836570839,0.00013294807809883117,-9.394209761705194e-05,-0.0004110721247947357,-0.0021539899597124487,0.2689092457294464,-23.71670913696289,19.628707885742188,17.82355499267578,0.8705545663833618,2.3796889781951904,-0.06037749722599983,,,,,,,,,
1739400587.3026967,-0.7085498694141739,0.681288187267128,1.4224041622509713,-1.8788092461746209,-0.7152376376394847,1.9456571336724,0.18950405323117903,0.0005191697436911036,-0.001638136154412143,0.0013553058156049764,-4.424684407571675e-05,-0.0011047619143986105,0.0011103802179622192,0.001513328300361157,0.2689092457294464,-23.63736343383789,19.656478881835938,17.82355499267578,0.8641458749771118,2.3604629039764404,-0.12080229818820953,,,,,,,,,
1739400587.3136482,-0.7085457011705065,0.6812907280440942,1.4224009908639612,-1.878812771933445,-0.7152352164569554,1.9456562210207624,0.18949873442016985,0.0015486594600459013,-0.0004745708028796975,-0.00013311601596212923,-0.0006814390078763974,0.00017647082793632117,0.0009219295181195682,-0.0012970150656576207,0.2173345386981964,-23.68893814086914,19.656478881835938,17.89893341064453,0.8705545663833618,2.3668715953826904,-0.06678618490695953,,,,,,,,,
1739400587.323695,-0.7085491849045704,0.6812966461881368,1.422404126283572,-1.8788148820164465,-0.7152363272579645,1.9456560803840923,0.18950226765323977,-0.0003407085245209992,0.0010170454335712217,-0.0004474604436691601,-0.00044486735400012256,0.0007245505182571876,0.0006703091637414942,0.0009609730584665056,0.2689092457294464,-23.74051284790039,19.604904174804688,17.89893341064453,0.8769632577896118,2.3604629039764404,-0.10706938803195953,,,,,,,,,
1739400587.3346372,-0.7085475718030374,0.6812929387599064,1.4224055919667253,-1.8788124462588016,-0.7152367319226665,1.9456563823588937,0.18950425695940717,0.0002956662162965773,-0.00042456144040004873,0.0012624594023960532,-0.0008771657900209969,0.00017021017130631544,-0.0003158490225974573,0.0018142234367416726,0.2173345386981964,-23.68893814086914,19.604904174804688,17.87512969970703,0.8833719491958618,2.3668715953826904,-0.11347807943820953,,,,,,,,,
1739400587.3446953,-0.708546664750944,0.6812891477292567,1.4224068830769634,-1.8788117439873504,-0.7152377553770585,1.9456552191642784,0.18950011521675256,0.00042874613733289,-0.001188581049883696,0.001227229226110274,-0.0010570939118426303,0.00010614492023013022,-0.001217399114760561,-0.0006029261570458708,0.2411382496356964,-23.63736343383789,19.577133178710938,17.84735870361328,0.8641458749771118,2.3732802867889404,-0.06037749722599983,,,,,,,,,
1739400587.355682,-0.7085512007561832,0.6812914649783088,1.4224030587528584,-1.8788074898837814,-0.7152343397497577,1.9456571380845977,0.18950318284162937,0.0004795341194073018,0.0004168687462993097,-0.00024184703647048983,0.0006686158619670735,0.0008937405724722945,0.00022132606647499975,0.000992854755459161,0.2927129566669464,-23.66513442993164,19.628707885742188,17.79975128173828,0.8641458749771118,2.3604629039764404,-0.11347807943820953,,,,,,,,,
1739400587.3657115,-0.7085491765600668,0.6812891506222308,1.422404841539108,-1.8788130820421798,-0.7152386987291496,1.9456563410194134,0.18949620473752982,0.001392760043098675,-0.00012315591478977963,0.0008766939277592737,-0.00014844163069070758,-0.002074268798900128,-3.2740360350918445e-05,-0.001423082501096989,0.2689092457294464,-23.63736343383789,19.604904174804688,17.87512969970703,0.8641458749771118,2.3668715953826904,-0.05396880581974983,,,,,,,,,
1739400587.37573,-0.7085491762337962,0.6812929390795968,1.4224028322172684,-1.87880948448394,-0.7152329534616775,1.9456555069665271,0.1895000835064587,-0.0006407737542939992,0.0008350923110847521,-5.4079975837930815e-05,0.00022262880689264683,0.0005785493390434836,-0.0003155710049813616,-0.0009505821531389565,0.2689092457294464,-23.68893814086914,19.628707885742188,17.82355499267578,0.8504129648208618,2.3732802867889404,-0.08692778646945953,,,,,,,,,
1739400587.386703,-0.708549176554783,0.6812912223516201,1.4224087038956885,-1.878809254897473,-0.7152359108224603,1.945653085173901,0.1894962794007738,-0.0003777639152177688,0.0007986132569903132,0.0006050700541966898,-0.0013322253855609875,-2.6468393795832238e-05,-0.00021363325683897367,-0.0020694014828770172,0.2689092457294464,-23.66513442993164,19.553329467773438,17.82355499267578,0.8641458749771118,2.3668715953826904,-0.05396880581974983,,,,,,,,,
1739400587.397626,-0.7085512909313678,0.6812912005597827,1.4224101002433525,-1.8788052380357148,-0.7152346524741908,1.9456563822924275,0.18950367150296699,0.0002268782069812476,0.000103507441814174,0.0006261575796136829,0.001072634956235829,-0.00020192737862123727,0.0007391053179448795,0.0007654982139547457,0.2689092457294464,-23.66513442993164,19.577133178710938,17.79975128173828,0.8568216562271118,2.3668715953826904,-0.11347807943820953,,,,,,,,,
1739400587.407709,-0.7085508887903345,0.6812885252176655,1.422406216265576,-1.878811028705142,-0.7152360133090553,1.945651385990773,0.18950005710457263,0.0007767270746511674,-0.0005815732544123945,-0.00021516491964495784,-0.0016433135889812492,-0.00014206220642191839,-0.0007038365224104725,-0.000790436096119408,0.2927129566669464,-23.63736343383789,19.577133178710938,17.84735870361328,0.8769632577896118,2.3732802867889404,-0.08692778646945953,,,,,,,,,
1739400587.4177148,-0.7085491762337912,0.6812912264412768,1.4224044936132594,-1.8788052597999585,-0.7152360291028581,1.9456578976132493,0.18950005709651965,0.0009341856803426358,0.0003626411334122897,-0.0006506803745302741,0.0013456606480401726,-5.012512721109944e-05,0.0004313696101374262,0.0008823215917038024,0.2689092457294464,-23.66513442993164,19.628707885742188,17.77594757080078,0.8504129648208618,2.3540542125701904,-0.08692778646945953,,,,,,,,,
1739400587.4287093,-0.708553098786824,0.6812912265601857,1.4224069311485286,-1.878810392957575,-0.7152362818555353,1.9456556232512467,0.18949880214064593,-0.0008594956838494518,0.0003756214880611394,0.0002518344451606261,-0.0005454083591696778,-0.0003102900153975028,0.0019285294271686514,-0.0025450526849112383,0.2927129566669464,-23.66513442993164,19.577133178710938,17.84735870361328,0.8705545663833618,2.3732802867889404,-0.04023589566349983,,,,,,,,,
1739400587.439638,-0.7085478803156741,0.6812889599487397,1.422404841539165,-1.8788110277217545,-0.7152359742666089,1.945657021802859,0.18950318426049642,0.000191455118104056,-0.0014761570758010062,-0.00043996448932945406,-0.0004237166314844153,0.0004105841380573321,0.0006989437593125929,0.00018537467044383725,0.2411382496356964,-23.63736343383789,19.604904174804688,17.84735870361328,0.8769632577896118,2.3604629039764404,-0.11347807943820953,,,,,,,,,
1739400587.4496875,-0.7085492552097966,0.6812929381133906,1.4224037711743887,-1.8788092460657924,-0.7152387554196277,1.9456563300350644,0.18950249641553496,-7.026434137854067e-06,0.0005725834781379553,-7.41648342294043e-05,0.0009010484543364628,-0.0007263626288722056,0.0003407979272248379,-0.0005952798820404494,0.2689092457294464,-23.68893814086914,19.628707885742188,17.82355499267578,0.8641458749771118,2.3668715953826904,-0.08051909506320953,,,,,,,,,
1739400587.4597225,-0.7085491771981051,0.6812929390809013,1.4224030588741536,-1.8788100397472411,-0.7152359757330742,1.9456512146324645,0.18949614757197947,-0.00021148294762349766,0.0006183948590790169,-0.0003797875550555068,0.0013024187858558548,-0.0005619163074818989,-0.0014895616918411659,-0.001968902287601202,0.2689092457294464,-23.68893814086914,19.628707885742188,17.84735870361328,0.8769632577896118,2.3732802867889404,-0.05396880581974983,,,,,,,,,
1739400587.4706423,-0.7085492846447284,0.6812912265601864,1.4224009790722352,-1.8788131085159356,-0.7152356873354835,1.9456523278166487,0.18950452549901972,0.0004937899234450718,-0.0009576239533268298,-0.0006418814987422204,-0.0007218266331172026,-0.0012734210245431607,-0.0007792636215435021,0.0006548474658307409,0.2411382496356964,-23.66513442993164,19.656478881835938,17.87512969970703,0.8705545663833618,2.3732802867889404,-0.12080229818820953,,,,,,,,,
1739400587.4806902,-0.7085522192887869,0.681294938002917,1.4224048415391097,-1.8788090105906696,-0.7152328351704446,1.9456527269739605,0.18950231509615653,-0.0013062548284265855,0.001792351463726927,0.00010017302046619873,0.0008484299283607395,-0.0005646728493501349,-0.002166972194995425,0.001592226174062212,0.2689092457294464,-23.71670913696289,19.604904174804688,17.82355499267578,0.8504129648208618,2.3604629039764404,-0.06678618490695953,,,,,,,,,
1739400587.4917045,-0.7085471782010995,0.6812929391899394,1.4224021049697415,-1.878813178433297,-0.7152337294615875,1.9456554880461623,0.18950406782030776,0.000621651039740337,-0.000868999640620203,-0.00019457954340064431,-0.0007553334062845175,-0.0001935555830537092,0.0011498359977379798,0.00038331573938603933,0.2411382496356964,-23.68893814086914,19.628707885742188,17.84735870361328,0.8568216562271118,2.3732802867889404,-0.12080229818820953,,,,,,,,,
1739400587.5017655,-0.7085491762337891,0.6812949421091983,1.4224020786806666,-1.878814062130352,-0.7152328409843008,1.9456524305198424,0.1895024954377159,-7.817362991868572e-05,0.0007776963524102606,0.0002487564743101193,-0.001905013882059756,0.00022243219086476768,0.00025636658015946046,0.0014532429079354221,0.2689092457294464,-23.71670913696289,19.628707885742188,17.87512969970703,0.8504129648208618,2.3604629039764404,-0.08051909506320953,,,,,,,,,
1739400587.5126452,-0.7085533097857928,0.6812892286557007,1.4224061794677252,-1.8788056501925996,-0.7152367717422852,1.945655904927787,0.18950277866372678,-0.0010788751727655904,-0.0006955604990113752,0.002073440820837846,0.0020429295361471776,0.0007765010618842186,4.1940643868402844e-05,9.384977313696049e-05,0.2927129566669464,-23.63736343383789,19.577133178710938,17.77594757080078,0.8568216562271118,2.3668715953826904,-0.10066069662570953,,,,,,,,,
1739400587.5236106,-0.7085454758436334,0.6812912265601866,1.422404735571109,-1.878807454667317,-0.7152377960944066,1.9456522757223351,0.1894997184703663,0.001106950253356257,0.00012178156588341758,0.0011060505688902107,-0.000425266298449313,-0.0012965267278091937,-0.000634142626218811,-0.0003645358601664145,0.2173345386981964,-23.66513442993164,19.604904174804688,17.79975128173828,0.8641458749771118,2.3732802867889404,-0.05396880581974983,,,,,,,,,
1739400587.5336967,-0.7085471782934493,0.6812892374496511,1.4224009117812997,-1.878807434559601,-0.7152368111576649,1.9456531817133713,0.18950512477783665,0.0016006844036081137,-0.0013769654518337,-0.0012722025024904254,-0.0007031873506883646,0.00024204554367145392,-0.0009275458768280626,0.0009213959647921689,0.2411382496356964,-23.63736343383789,19.628707885742188,17.79975128173828,0.8568216562271118,2.3540542125701904,-0.12080229818820953,,,,,,,,,
1739400587.5447385,-0.7085516268585885,0.681289309218711,1.4224028202941164,-1.8788071323543323,-0.7152374450441583,1.9456548474069417,0.18950247503592646,-0.0010960912540176203,-0.0007273344114698023,-0.0010889962355187435,0.00033416045977472216,-0.0024012826589172647,-0.0014052130505918584,-0.0004927242224165127,0.2927129566669464,-23.63736343383789,19.628707885742188,17.79975128173828,0.8769632577896118,2.3668715953826904,-0.06678618490695953,,,,,,,,,
1739400587.5566368,-0.7085526273867971,0.6812884185195986,1.422404060304669,-1.878808998815044,-0.7152391086406376,1.9456528825676183,0.18950290202321113,-8.769254216389212e-05,-0.0007045297699618994,-0.0004075755703725587,-8.60262033367461e-05,-0.0010415871506412148,-7.932622767378458e-05,-0.0003219954869805046,0.3165166676044464,-23.66513442993164,19.577133178710938,17.82355499267578,0.8641458749771118,2.3604629039764404,-0.10706938803195953,,,,,,,,,
1739400587.5667121,-0.7085472688485924,0.6812892286034818,1.4224038878486427,-1.8788141828866143,-0.715234577134938,1.9456577274341145,0.18950646680594435,0.0014541299769116139,-0.000380337812331429,-0.000997750266935376,-0.0014868641226025358,0.002064972332583051,0.0013047281820393808,0.0006364763281720509,0.2411382496356964,-23.63736343383789,19.604904174804688,17.87512969970703,0.8641458749771118,2.3540542125701904,-0.10066069662570953,,,,,,,,,
1739400587.5776083,-0.7085509667571955,0.6812892374496508,1.4224047620500992,-1.8788110287610231,-0.7152367912864331,1.945653798310055,0.18949922741864764,-0.00045511040517923803,-0.0011089902164915194,-0.0001475081408278589,3.1431674665706065e-05,0.0004728974513703533,-0.0009601622867197303,0.00039549157539101027,0.2927129566669464,-23.63736343383789,19.604904174804688,17.84735870361328,0.8568216562271118,2.3604629039764404,-0.06678618490695953,,,,,,,,,
1739400587.5876124,-0.7085501734992249,0.681289225730452,1.4224001713477394,-1.878813109803195,-0.7152383461167298,1.9456534857807712,0.1894988614885744,0.0005332530432768549,-0.000985726174098489,-0.0016800458629668239,-0.0010618040557242984,-0.0006964610638904786,0.0008696949186783266,-0.0024277158977314382,0.2927129566669464,-23.63736343383789,19.628707885742188,17.87512969970703,0.8568216562271118,2.3604629039764404,-0.04023589566349983,,,,,,,,,
1739400587.597705,-0.7085492958673313,0.6812882313542906,1.4224048414902093,-1.8788092369084646,-0.7152383610376853,1.9456563690595328,0.18950251397621762,0.0007865329572284623,-0.001258751888539078,0.0006141132836233325,-0.00017412002548428628,0.00026667233750017616,0.001689582055287445,0.00041045123499739415,0.2411382496356964,-23.61355972290039,19.604904174804688,17.82355499267578,0.8568216562271118,2.3668715953826904,-0.09425200521945953,,,,,,,,,
1739400587.608686,-0.7085461683569987,0.6812949370258082,1.4224049475029223,-1.8788106500862793,-0.7152392256431276,1.9456540533630708,0.18950302531480473,0.0008515219476964294,0.0005118385802100428,0.0012243081046477648,0.0014677717882850888,7.152554146630925e-05,0.00013457449485689628,0.0005104447350736152,0.2173345386981964,-23.71670913696289,19.604904174804688,17.82355499267578,0.8641458749771118,2.3732802867889404,-0.08051909506320953,,,,,,,,,
1739400587.6196802,-0.7085450326723551,0.6812929400620641,1.422404841539708,-1.8788095184272584,-0.7152382434618683,1.945655858378059,0.18950291478816556,0.0016503770003781688,0.0005670574777301219,-4.69425891703384e-05,-9.374860383652706e-06,-0.00014494921875871834,-0.0004415302165605644,-0.0006706017945747833,0.2411382496356964,-23.68893814086914,19.604904174804688,17.84735870361328,0.8568216562271118,2.3668715953826904,-0.10066069662570953,,,,,,,,,
1739400587.6297686,-0.7085492829065156,0.6812929390809674,1.4224028204435115,-1.8788101766918457,-0.7152376035333863,1.9456541943847339,0.1895085476919128,-6.864796532700234e-05,-0.0006982512559979139,-0.000141662183201837,0.001121824799301161,-0.00026095093681652857,-0.0005862709068972158,0.0008216488200066327,0.2411382496356964,-23.68893814086914,19.628707885742188,17.84735870361328,0.8504129648208618,2.3732802867889404,-0.12721098959445953,,,,,,,,,
1739400587.640634,-0.708547257261015,0.6812929391293693,1.4223961764260986,-1.8788110552321786,-0.715237586096765,1.945656965039936,0.1895064799605478,-0.0013887600541400208,-0.0004606012511502975,-0.000371068083864026,0.000761156687254753,0.00015779272035915703,0.0014066019313378122,0.0011442443361552542,0.2411382496356964,-23.68893814086914,19.680282592773438,17.84735870361328,0.8504129648208618,2.3604629039764404,-0.10066069662570953,,,,,,,,,
1739400587.6506808,-0.7085471792572521,0.6812929508546754,1.4224027925932197,-1.8788092578400153,-0.715238361199151,1.9456521423558444,0.18950886174145626,0.0010598847886591752,-0.0004964558427920573,-0.0006581099598928403,0.0011319087435381482,-1.664109748113264e-05,0.0013758056606438158,0.001589788898351087,0.2411382496356964,-23.68893814086914,19.628707885742188,17.82355499267578,0.8568216562271118,2.3668715953826904,-0.12080229818820953,,,,,,,,,
1739400587.6606808,-0.708547204293334,0.6812966622976047,1.4224028207660508,-1.8788054332329287,-0.7152366230736077,1.9456516330598999,0.1895072205780277,-0.0003247446902293506,5.007990135947639e-05,0.0005093857644546704,0.0011409743158426122,-0.00040965459264637297,-0.0008688434777552275,0.0015991118003321017,0.2411382496356964,-23.74051284790039,19.628707885742188,17.77594757080078,0.8769632577896118,2.3668715953826904,-0.10706938803195953,,,,,,,,,
1739400587.672612,-0.7085529986373588,0.6812929390809896,1.4224037953951396,-1.8788074633497092,-0.7152369483253533,1.9456564317797167,0.18950327180726692,-0.0016571737624294677,-0.0004903608670538979,0.00016269289015284963,0.0004974929262560846,0.0005496180971585965,0.0010359268664823528,0.00014534748846257626,0.2927129566669464,-23.68893814086914,19.577133178710938,17.79975128173828,0.8568216562271118,2.3540542125701904,-0.10066069662570953,,,,,,,,,
1739400587.682716,-0.7085512353291495,0.6812940876194744,1.4224045222854909,-1.8788074646593012,-0.715239227088703,1.9456508738482958,0.18950572284588507,-4.899971254394885e-06,-0.0005465407278622067,0.00028889411936771004,0.00014422294812915445,-0.0012599456336977893,-0.001312728285503324,0.0007738255048622077,0.2927129566669464,-23.66513442993164,19.604904174804688,17.79975128173828,0.8641458749771118,2.3732802867889404,-0.09425200521945953,,,,,,,,,
1739400587.6947193,-0.7085471782948941,0.6812940880353515,1.4224086947377992,-1.878807463388798,-0.7152376035393679,1.9456575443916684,0.189507981987559,0.0016307687262401682,-0.0008468051123034385,0.0009923023733222152,2.259938846984401e-06,0.0008549749126482584,0.001999929100263072,0.0004173300085772345,0.2411382496356964,-23.66513442993164,19.553329467773438,17.79975128173828,0.8504129648208618,2.3540542125701904,-0.11347807943820953,,,,,,,,,
1739400587.705671,-0.7085526388313576,0.681294964874755,1.4224017420975639,-1.8788074753262964,-0.7152383219535896,1.945653502076643,0.18950886327153688,-0.000880336236952348,0.0010048935720308792,-0.0011259758140085754,0.00047369997681471316,-1.9502875976072783e-05,0.0001810686312876218,0.0008742024872253384,0.3165166676044464,-23.71670913696289,19.604904174804688,17.79975128173828,0.8568216562271118,2.3540542125701904,-0.12080229818820953,,,,,,,,,
1739400587.716641,-0.7085508926066421,0.6812897505325364,1.4224069301417863,-1.878813108495067,-0.715237722748436,1.945650261634374,0.18950485691243474,0.0001279412300726889,-0.0008468775540401524,0.0008904138276209246,-0.0017613846129307359,0.0007941895547669449,0.00036503711132888634,0.0007182560807035412,0.2927129566669464,-23.61355972290039,19.577133178710938,17.87512969970703,0.8504129648208618,2.3796889781951904,-0.08692778646945953,,,,,,,,,
1739400587.726682,-0.7085502204444633,0.6812921841969288,1.4224069213291144,-1.8788088035027564,-0.7152392275892708,1.9456517714639963,0.18950414450755704,-0.00014652973027745933,0.002451617100445883,0.00011963244802827531,0.0005785784634792586,-0.000568903719423764,-0.0018526988373917229,-6.898414938651034e-05,0.2411382496356964,-23.66513442993164,19.577133178710938,17.84735870361328,0.8641458749771118,2.3668715953826904,-0.08051909506320953,,,,,,,,,
1739400587.7376494,-0.7085454658250453,0.6812892286247392,1.4224087040059843,-1.878813108520123,-0.7152383611456139,1.9456516534553796,0.18950480025061148,0.002118667892686175,-0.0008931606183424306,0.0010229459159993915,-0.0008902200805072534,-0.00032517118020316166,-0.0010635085751905208,0.001283654513318879,0.2173345386981964,-23.63736343383789,19.553329467773438,17.87512969970703,0.8568216562271118,2.3668715953826904,-0.11347807943820953,,,,,,,,,
1739400587.7486866,-0.7085533068968626,0.6812929655718709,1.4224041616046432,-1.878812754338828,-0.7152392270966779,1.9456534487347723,0.18950048501010439,-0.001718861609053813,-0.0005332786528971985,-0.0001456950859616732,-0.00032825465425487265,-9.721805541161376e-05,-0.0006075359685387624,-0.0024156217917372835,0.2927129566669464,-23.68893814086914,19.604904174804688,17.87512969970703,0.8641458749771118,2.3604629039764404,-0.05396880581974983,,,,,,,,,
1739400587.7587116,-0.7085491878388314,0.6812913325241489,1.4224009780872504,-1.8788131114741242,-0.7152398292450501,1.9456559082010358,0.1895088573372502,0.00010510311473643639,0.00022218330371376614,-0.0012965270842785568,-0.0015439879774883241,-3.4769291155585026e-05,0.0017088487097967704,0.0009920485913917929,0.2689092457294464,-23.66513442993164,19.656478881835938,17.87512969970703,0.8705545663833618,2.3604629039764404,-0.12080229818820953,,,,,,,,,
1739400587.76875,-0.708545468661334,0.6812949458538828,1.4224030588620737,-1.8788133469513133,-0.7152392270940452,1.9456522866865489,0.18950335330219076,0.00239998829306178,0.0006582544663710601,1.7143912324168884e-05,-0.0006989478072061212,-0.0002709892333450266,0.001370556285590577,0.0004536769972134201,0.2173345386981964,-23.71670913696289,19.628707885742188,17.87512969970703,0.8641458749771118,2.3732802867889404,-0.07411040365695953,,,,,,,,,
1739400587.779636,-0.7085492881756442,0.6812892737521183,1.4223984809941237,-1.8788111083623893,-0.7152406898736858,1.9456520851669883,0.189505782703438,-4.1439320072857156e-05,-0.002781427618068036,-0.0010262670205259867,-0.000934662385861306,-0.00020117882285208605,0.0010211325635173015,0.00016014614959856976,0.2411382496356964,-23.63736343383789,19.680282592773438,17.84735870361328,0.8769632577896118,2.3668715953826904,-0.06678618490695953,,,,,,,,,
1739400587.7897098,-0.7085548126987178,0.6812936107482704,1.4224030588257444,-1.878812751399434,-0.7152369633318688,1.9456519803118935,0.18950152260080183,-0.0012459578694914166,-0.0009015502398153676,0.0013755713788238082,-0.0003065113700451295,0.0009311304868463719,-0.0004190031830526667,8.646604860044083e-05,0.3165166676044464,-23.66513442993164,19.628707885742188,17.87512969970703,0.8705545663833618,2.3668715953826904,-0.06037749722599983,,,,,,,,,
1739400587.8007302,-0.7085557332492886,0.6812930200239268,1.422401899953138,-1.878811040176752,-0.7152383611937609,1.9456538643439745,0.18950136156529218,-0.0016326215463339862,-0.0010143564361903047,0.00035764125614079874,-0.0008866610938810611,0.001116882183815077,0.00040669717062209786,-0.0034219853434940438,0.3165166676044464,-23.68893814086914,19.604904174804688,17.84735870361328,0.8568216562271118,2.3870131969451904,-0.06037749722599983,,,,,,,,,
1739400587.8107564,-0.7085500124943981,0.6812979040099035,1.4223989460440476,-1.8788092457268415,-0.715241557473979,1.9456520851835146,0.18949933686631212,0.0011698412451964385,-5.8578949518187676e-05,0.0007879761461323871,0.0007040847828275604,-0.00039043709778236574,0.00014764540756285108,-0.0015496795555693288,0.2411382496356964,-23.71670913696289,19.680282592773438,17.82355499267578,0.8833719491958618,2.3668715953826904,-0.04023589566349983,,,,,,,,,
1739400587.821664,-0.708551321263309,0.6812944452095836,1.4224008822055227,-1.878807435916689,-0.7152407424171595,1.9456531634805154,0.18950651741556643,0.0010596508260935975,2.378664596000454e-05,0.0014697265211464964,0.0018558838292213732,-0.0005925639913427469,0.0008391111568699263,-0.0002506435909576393,0.2689092457294464,-23.66513442993164,19.628707885742188,17.79975128173828,0.8769632577896118,2.3668715953826904,-0.11347807943820953,,,,,,,,,
1739400587.8317726,-0.7085509187501338,0.6812924168546123,1.4223977608751286,-1.8788074633883254,-0.715242265947137,1.945653144607943,0.18950398627266105,-0.0005196187234624912,0.00033654925064956404,-0.0012297299678086667,0.000717279173261245,-0.0012032406483839194,-0.0004382911164852498,-0.0012553425670251664,0.2927129566669464,-23.63736343383789,19.656478881835938,17.79975128173828,0.8504129648208618,2.3668715953826904,-0.08051909506320953,,,,,,,,,
1739400587.8426645,-0.7085503286546538,0.6812954159848732,1.422403768691845,-1.878805653239672,-0.7152400245195064,1.9456555699570703,0.18950754347293713,-0.001227486785325413,0.001283781109532929,-0.0006516661730567194,0.001498829533216313,0.00017601417112242222,0.00019406202112643909,0.0024992033085904416,0.2411382496356964,-23.68893814086914,19.604904174804688,17.77594757080078,0.8705545663833618,2.3604629039764404,-0.10066069662570953,,,,,,,,,
1739400587.8536782,-0.7085499832619981,0.6812914689173334,1.4224025795544994,-1.8788091361772559,-0.7152415133226149,1.9456519678700799,0.18950886174746617,-0.0008948753163643456,-5.131267399501201e-05,-0.0009356041827203202,0.00016484065881731692,-0.0015239205320810223,-0.0010482770236221292,0.0017921718204364685,0.2689092457294464,-23.66513442993164,19.604904174804688,17.82355499267578,0.8833719491958618,2.3668715953826904,-0.12080229818820953,,,,,,,,,
1739400587.8636987,-0.7085515249484534,0.6812954292346259,1.4224024475035475,-1.8788166738848613,-0.7152407293351076,1.945651618359937,0.18950126131754905,-0.0009680090775978625,0.0011702431537723799,-0.0006761054734971223,-0.0025122292726866076,0.000437957190488616,-0.0005691923253728201,-0.0003998692277130439,0.2689092457294464,-23.68893814086914,19.604904174804688,17.92273712158203,0.8769632577896118,2.3668715953826904,-0.04756011441349983,,,,,,,,,
1739400587.873721,-0.7085499877647229,0.681297440404514,1.4223985816549323,-1.8788110375731464,-0.7152383605532024,1.945652125643054,0.18950402801819397,0.0003021601814027576,0.0030369707254416897,-0.001558059501816102,-0.00014285654488402892,0.0006140495956548783,0.0011021950946335755,-0.00012809463820621404,0.2411382496356964,-23.71670913696289,19.656478881835938,17.84735870361328,0.8568216562271118,2.3668715953826904,-0.10706938803195953,,,,,,,,,
1739400587.8846219,-0.7085471810133428,0.6812922160423093,1.4224046604270402,-1.878808999798109,-0.715240299980281,1.9456564274218466,0.18950409928856615,0.0012990024025809936,-0.0002816560516634227,0.0002738481756079388,0.000861634591213765,0.0001002481141888775,-0.00013359130894601066,0.00040935527306378233,0.2411382496356964,-23.66513442993164,19.577133178710938,17.82355499267578,0.8641458749771118,2.3540542125701904,-0.08051909506320953,,,,,,,,,
1739400587.8946571,-0.7085485896697638,0.6812936137061736,1.4224009119664274,-1.878809246061639,-0.7152380080049059,1.9456570665897928,0.1895032184037175,0.0002839516511178456,-0.00026283921856218626,0.0004871295104788317,0.0002591519226161006,0.0009951334603746475,0.0016344590170153024,-0.0006808597836885891,0.2173345386981964,-23.66513442993164,19.628707885742188,17.82355499267578,0.8568216562271118,2.3476455211639404,-0.07411040365695953,,,,,,,,,
1739400587.904746,-0.7085483529372673,0.6812900617620833,1.4223998798023285,-1.8788131745100407,-0.7152392270906974,1.9456516161467128,0.18951144000903386,0.00041531336394984953,-0.0012903350116023379,-0.0011742221288095563,-0.001326153472174572,0.0009828368477073231,-0.0009115958333763307,0.0017209008330330328,0.2173345386981964,-23.63736343383789,19.628707885742188,17.84735870361328,0.8641458749771118,2.3668715953826904,-0.13361968100070953,,,,,,,,,
1739400587.9156861,-0.7085475291895358,0.6812923402753869,1.4224001968037103,-1.8788110291183293,-0.7152403892041257,1.945655852545823,0.18950485697276637,-0.00019749803591059486,-0.0014259968505968795,8.530878769661925e-05,-0.0007062039902675206,0.000665705669306541,0.0007506423147793164,-0.00027076146924429317,0.2411382496356964,-23.63736343383789,19.628707885742188,17.84735870361328,0.8769632577896118,2.3668715953826904,-0.08692778646945953,,,,,,,,,
1739400587.9257274,-0.7085540207897816,0.6812913447865175,1.4223969909681193,-1.878815722306743,-0.7152392270906971,1.9456566102776696,0.18949770222177456,-0.001950642237275447,-0.0010332617590174803,-0.0009165236796726635,-0.0013374004644639134,0.0006164140804794282,-0.0001983684434735521,-0.002322707455446925,0.2927129566669464,-23.66513442993164,19.628707885742188,17.87512969970703,0.8641458749771118,2.3604629039764404,-0.027418512850999832,,,,,,,,,
1739400587.9366107,-0.7085503368753027,0.6812960516414043,1.422401711175385,-1.8788110245745888,-0.7152399986563314,1.9456517318086255,0.18950714012932277,0.0008987753442736891,0.00011982131534141058,0.0005695369707806139,-0.00045695608121501443,-0.001458563875153763,0.0006307540953095687,0.0005262086416245407,0.2411382496356964,-23.68893814086914,19.604904174804688,17.84735870361328,0.8705545663833618,2.3668715953826904,-0.09425200521945953,,,,,,,,,
1739400587.9466703,-0.7085523266131625,0.681295191300719,1.422395977636877,-1.8788111083246342,-0.7152392270969142,1.9456545421662843,0.18950247577337842,-0.001240653369322131,0.0009844443341528253,-0.0011458461757110387,-0.0007520460173475148,0.0004976020327901911,0.001479781681084814,-0.0017518609057944668,0.2689092457294464,-23.68893814086914,19.680282592773438,17.84735870361328,0.8641458749771118,2.3540542125701904,-0.06678618490695953,,,,,,,,,
1739400587.95674,-0.7085513954142278,0.6812893389819386,1.4223956146542036,-1.878813108534032,-0.7152424462380699,1.945650869439094,0.1895088485368707,0.00023449224402746145,-0.002735148344475565,-0.00048365712502290167,-0.002019252898619335,-0.000150360096654404,-0.0006420838671791087,0.002187363631679693,0.2689092457294464,-23.63736343383789,19.656478881835938,17.87512969970703,0.8641458749771118,2.3732802867889404,-0.12080229818820953,,,,,,,,,
1739400587.967664,-0.7085483127015162,0.6812976958085919,1.4223991249797612,-1.8788092460658097,-0.7152399891900881,1.945650900101302,0.18950572090768747,0.0009926558410595177,-0.00010155222029453433,0.0003303707779997563,-0.00017525628228051205,-0.00016706700169279035,0.0003478826202142778,-0.0009417064184422047,0.2173345386981964,-23.74051284790039,19.628707885742188,17.82355499267578,0.8705545663833618,2.3732802867889404,-0.09425200521945953,,,,,,,,,
1739400587.9777045,-0.7085537056175684,0.6812922980988076,1.4224019859663721,-1.8788092429003,-0.7152383611995214,1.94565161415554,0.18950405969286796,-0.0007990693089696652,3.5571265103259524e-05,0.0005429664827320601,-8.734216244041178e-05,0.0006285396642901392,-0.0005490838559630963,-0.0005678069476190173,0.2927129566669464,-23.66513442993164,19.628707885742188,17.82355499267578,0.8568216562271118,2.3668715953826904,-0.08051909506320953,,,,,,,,,
1739400587.9887228,-0.7085486132607234,0.6812924472216919,1.4223991249676482,-1.8788110287428108,-0.7152379611672367,1.9456500993191599,0.18950262258386766,0.0009821713222604935,-0.0003077451189207462,-0.0009083346412980675,8.966417354648246e-06,0.0002014188837434753,-0.0015854657468120695,-0.0011648954872135074,0.2173345386981964,-23.63736343383789,19.628707885742188,17.84735870361328,0.8504129648208618,2.3796889781951904,-0.06037749722599983,,,,,,,,,
1739400587.9997075,-0.7085502588742498,0.681295407009372,1.4223977607444285,-1.8788128612837875,-0.7152361026379357,1.945655552021314,0.18950717002412426,0.00043662060341740727,0.0006425835868622059,-0.0006840017985075767,-0.0011817166725760781,0.0007393243881835696,0.0011553671458393816,0.0010632788370871626,0.2411382496356964,-23.68893814086914,19.656478881835938,17.87512969970703,0.8641458749771118,2.3604629039764404,-0.13361968100070953,,,,,,,,,
1739400588.011695,-0.7085492932350578,0.6812941272063113,1.422403941423777,-1.8788092182531526,-0.7152416373659392,1.9456532471228083,0.1895044535507434,0.0012382513893704926,8.939805301571934e-05,-7.795223518710601e-05,0.00033442949514094096,-0.0009214288735791534,0.0006185601523163617,-9.183176080983745e-05,0.2689092457294464,-23.66513442993164,19.577133178710938,17.82355499267578,0.8833719491958618,2.3540542125701904,-0.08051909506320953,,,,,,,,,
1739400588.022607,-0.708550337321498,0.6812944452104059,1.4223984786331558,-1.878808504428083,-0.7152399892266825,1.9456540504293496,0.18950572286466497,0.0002608030453041582,0.00048597599987170375,-0.0013151584811157257,0.0002839373838891557,-0.0001100249961059661,-0.0003558267467286539,0.0003213043929333281,0.2411382496356964,-23.66513442993164,19.656478881835938,17.82355499267578,0.8705545663833618,2.3732802867889404,-0.09425200521945953,,,,,,,,,
1739400588.0347078,-0.7085516332697029,0.6812961489014178,1.4224044272043217,-1.878805668497763,-0.7152410620555472,1.9456534389496327,0.18950927040327112,0.0004564981770656509,0.001749607040747243,0.00036483250636434005,0.0024224202534334285,-0.001060142942370978,-3.8822398787818945e-05,0.0026585716696097303,0.2689092457294464,-23.68893814086914,19.577133178710938,17.77594757080078,0.8705545663833618,2.3796889781951904,-0.09425200521945953,,,,,,,,,
1739400588.0456715,-0.7085502333362697,0.6812932967087697,1.4224065903024292,-1.8788091633587776,-0.7152392452499147,1.9456516328957318,0.18950886149309687,0.0008527557342921544,0.001156264423231723,0.00045443962362342824,1.1364587253382284e-05,0.00046477217484050017,-0.0008325485767367466,0.001949889475015691,0.2411382496356964,-23.68893814086914,19.577133178710938,17.82355499267578,0.8641458749771118,2.3668715953826904,-0.12080229818820953,,,,,,,,,
1739400588.0557144,-0.7085483907062006,0.6812932848865776,1.4223987501404878,-1.8788059191289501,-0.7152393464698001,1.9456528600465746,0.1895049750722616,0.0005138457774994316,-0.00030171715652209537,-0.0020944056160865808,2.2360887211688688e-05,-0.00030768072470734997,0.001176197639278191,0.0003345014342115845,0.2173345386981964,-23.68893814086914,19.604904174804688,17.77594757080078,0.8641458749771118,2.3604629039764404,-0.08692778646945953,,,,,,,,,
1739400588.066708,-0.7085501425799267,0.681294445194787,1.4223999196679156,-1.8788074633901366,-0.7152424458026786,1.9456540353041953,0.18950237785833562,0.00021958300880776146,0.0013232363384469632,-0.0010906771718423936,0.0011413431107912247,-0.00037093217321319995,-0.0004077338754300756,-0.00020348479332230008,0.2689092457294464,-23.66513442993164,19.628707885742188,17.79975128173828,0.8641458749771118,2.3732802867889404,-0.05396880581974983,,,,,,,,,
1739400588.0776834,-0.7085502292368038,0.6812907318059808,1.4224018748028227,-1.8788081654965567,-0.715239240360325,1.9456528426215969,0.18950724013627995,0.0007605405910872454,-0.0013736088177170533,0.0015271902287629544,0.0015373592196645488,0.0004032041297643587,0.0008237131139740936,0.001184633568489509,0.2689092457294464,-23.61355972290039,19.577133178710938,17.82355499267578,0.8641458749771118,2.3604629039764404,-0.10706938803195953,,,,,,,,,
1739400588.0896292,-0.708551624591021,0.6812943382296895,1.4223952624420035,-1.878809354966962,-0.7152400024174674,1.9456534825288183,0.18950739125663402,-0.0006298173045056331,0.0003980171556191783,-0.0012384118185589641,-0.0007228168667254918,-0.0002019958164605913,0.000884938807450758,0.0019312338671421561,0.2689092457294464,-23.66513442993164,19.680282592773438,17.82355499267578,0.8705545663833618,2.3540542125701904,-0.10706938803195953,,,,,,,,,
1739400588.1006012,-0.7085522976155245,0.6812915831582557,1.4223959777430522,-1.8788074633889955,-0.7152399862285099,1.9456559702840452,0.1895060987729633,0.0005982220175281209,-0.001022652846094656,0.00011031176887408526,0.0006200784574305001,0.0015123070684982356,0.00044711124576649015,-0.001184696444848239,0.2689092457294464,-23.66513442993164,19.680282592773438,17.79975128173828,0.8705545663833618,2.3668715953826904,-0.13361968100070953,,,,,,,,,
1739400588.1107173,-0.7085503110171005,0.6812961573562175,1.422397760312401,-1.8788092450483245,-0.7152415576375285,1.945652371727146,0.18950725987407446,-6.512019700327798e-05,0.0003890173746325564,-0.00013030718276097202,0.0006166858008712476,0.0006587244157423792,-0.000406117849525595,0.00015043113002131297,0.2411382496356964,-23.68893814086914,19.656478881835938,17.82355499267578,0.8833719491958618,2.3604629039764404,-0.10706938803195953,,,,,,,,,
1739400588.1217208,-0.708553970126455,0.6812961665620512,1.4223977604214166,-1.8788092499903895,-0.715239261182757,1.945652371653372,0.18950338150126256,-0.0009160494438843407,-0.0002728147143847164,-0.00021104668841571582,-0.0004987658305932107,0.00046377202974501905,-0.0008746836206741638,-0.00149673216770052,0.2927129566669464,-23.68893814086914,19.656478881835938,17.82355499267578,0.8641458749771118,2.3604629039764404,-0.07411040365695953,,,,,,,,,
1739400588.1317341,-0.7085502204740755,0.6812944452111538,1.4223998402112727,-1.878813108419697,-0.7152415002410155,1.9456492327759043,0.18950573598750664,-0.0006840196969182825,-0.0005142475575246594,-0.0006026092657974431,-6.0304706237993824e-05,0.0008064269009080845,-0.001841514282647522,-0.00013226312098650877,0.2689092457294464,-23.66513442993164,19.628707885742188,17.87512969970703,0.8833719491958618,2.3870131969451904,-0.09425200521945953,,,,,,,,,
1739400588.1426075,-0.7085522993168828,0.6812944452110044,1.422399838794061,-1.878813201037332,-0.7152407424168364,1.9456538869735285,0.18950591991633858,-2.2205204317371746e-05,-0.0006321947021489908,-0.0002802166397575964,-0.0010928299821287048,-5.191344147559664e-05,0.0014722820195392497,-0.001656059658460282,0.2689092457294464,-23.66513442993164,19.628707885742188,17.84735870361328,0.8769632577896118,2.3476455211639404,-0.08692778646945953,,,,,,,,,
1739400588.1526363,-0.7085503083421931,0.6812961547882963,1.4224013314877824,-1.8788092461025976,-0.715240304558968,1.945650856333215,0.18950167409242175,-0.00033023625563874496,0.00045593981461513645,-0.00040418856728588904,3.445827899161612e-05,-0.00024463350424955337,-0.0004766407026968968,-5.987883758332808e-05,0.2411382496356964,-23.68893814086914,19.604904174804688,17.82355499267578,0.8641458749771118,2.3732802867889404,-0.06037749722599983,,,,,,,,,
1739400588.1626825,-0.7085537488631434,0.6812924090053911,1.4224037026732124,-1.8788092369084437,-0.7152400264737268,1.9456523716533718,0.18950481735223434,-0.0008679226591076997,-0.0008256421763937825,0.0006723777218624959,0.00010728214834650353,-0.0006753982060084646,0.0003682579756514748,-0.00039763140926378206,0.2689092457294464,-23.63736343383789,19.577133178710938,17.82355499267578,0.8705545663833618,2.3604629039764404,-0.08692778646945953,,,,,,,,,
1739400588.173608,-0.7085516332776828,0.6812961577315195,1.4224015569109354,-1.878811028742777,-0.7152410620557574,1.9456538869735285,0.18950706652418972,-0.001182647428242492,0.0003435260601967945,9.334151378179926e-05,-0.0004791894498251582,-0.0004974103792004826,0.0007087645238971064,0.00033297589839754907,0.2689092457294464,-23.68893814086914,19.577133178710938,17.84735870361328,0.8705545663833618,2.3476455211639404,-0.10706938803195953,,,,,,,,,
1739400588.1837177,-0.7085523352680753,0.6812875293440788,1.4223978928398446,-1.8788092445961089,-0.7152392271149229,1.9456516139932933,0.18950723818124798,-0.0006667030445776075,-0.0026992072532747604,-0.0009507185547847033,4.6704653799509085e-05,0.0005269339172852294,-0.0003614478536220551,-0.00047398602529036954,0.2689092457294464,-23.61355972290039,19.656478881835938,17.82355499267578,0.8641458749771118,2.3668715953826904,-0.10706938803195953,,,,,,,,,
1739400588.193753,-0.708553345790434,0.6812971113517681,1.4224017288543473,-1.8788092373444834,-0.7152444352369007,1.9456516139932933,0.18950708037704997,-0.000809325939696589,-5.2613220879756453e-05,0.00026477119415125656,-6.268363928629768e-05,-0.0005191247772318471,0.00022883978027819153,-0.000166931726491591,0.2927129566669464,-23.68893814086914,19.604904174804688,17.82355499267578,0.8705545663833618,2.3668715953826904,-0.10706938803195953,,,,,,,,,
1739400588.2045994,-0.708554047796732,0.6812961577371187,1.4224000809197916,-1.8788092783345758,-0.7152399864716323,1.9456526736314228,0.1895096194006533,-0.0006331903413982611,0.00015236636555942702,-0.0005874354149189847,-0.0007174104045908675,0.00046821592405725667,0.0011272177886601771,0.002349731376517543,0.2927129566669464,-23.68893814086914,19.628707885742188,17.82355499267578,0.8705545663833618,2.3668715953826904,-0.12721098959445953,,,,,,,,,
1739400588.2147126,-0.7085485901512061,0.6812941273195656,1.4224016199489289,-1.8788092430139005,-0.715237603539397,1.9456523716713168,0.1895096150000123,0.0012729673679088716,-0.00023585585621922777,0.0007246503008091823,0.0004228614468579337,0.001102695982320579,0.00016605015972540678,0.0014363575671934338,0.2173345386981964,-23.66513442993164,19.604904174804688,17.82355499267578,0.8504129648208618,2.3604629039764404,-0.12721098959445953,,,,,,,,,
1739400588.2266731,-0.7085495272387253,0.6812942057004681,1.422401611441567,-1.8788091636494935,-0.7152426703945056,1.9456523716533718,0.1895040993066628,0.0013158360925187849,-0.0003270671695719258,-0.000873806593499925,0.00029478759814725614,-0.0016514160474097716,-4.252930486118833e-05,-7.690922880098413e-05,0.2689092457294464,-23.66513442993164,19.604904174804688,17.82355499267578,0.8568216562271118,2.3604629039764404,-0.08051909506320953,,,,,,,,,
1739400588.2376158,-0.7085479199139039,0.6812944481539929,1.4223977604698474,-1.8788130993751626,-0.7152399890185189,1.9456523716533718,0.1895075454717021,0.0020288531857926393,-0.000817024846994431,-0.00042793555912279277,-0.0003065747671880238,-0.00025261059674556963,0.00012699170114510456,0.0008402756969754659,0.2173345386981964,-23.66513442993164,19.656478881835938,17.87512969970703,0.8705545663833618,2.3604629039764404,-0.10066069662570953,,,,,,,,,
1739400588.2486796,-0.7085503359362063,0.6812940120735897,1.422397441221784,-1.8788092094361883,-0.7152432230305755,1.9456523716533718,0.18950278121928274,8.164181413467458e-05,8.409998405972479e-05,-0.0017029532651873075,0.0006190591988884003,-3.818918532719608e-05,-5.485471187247808e-06,-0.000871710331889254,0.2411382496356964,-23.68893814086914,19.656478881835938,17.82355499267578,0.8705545663833618,2.3604629039764404,-0.06037749722599983,,,,,,,,,
1739400588.2596664,-0.7085482284193949,0.6812937327493138,1.4223998402106721,-1.8788110285920212,-0.7152407426409614,1.94565312931345,0.1895078977920752,0.0006222624693831571,-0.0004692004204779804,-0.0006424832756563086,-0.0004981256903508174,0.0015030128340270028,0.000681428036603432,0.002053632941336936,0.2411382496356964,-23.66513442993164,19.628707885742188,17.84735870361328,0.8769632577896118,2.3540542125701904,-0.10066069662570953,,,,,,,,,
1739400588.2697055,-0.7085482308801921,0.6812960517317257,1.4223976915006216,-1.8788108874577372,-0.7152407468320058,1.9456523716533718,0.18950588041000282,-9.453536748736853e-06,-0.0007730610638756933,7.690341694779291e-05,0.0004013464305644842,0.0009456699512872312,0.0002750804407702144,0.00010377799141414961,0.2411382496356964,-23.68893814086914,19.628707885742188,17.84735870361328,0.8769632577896118,2.3604629039764404,-0.09425200521945953,,,,,,,,,
1739400588.280676,-0.7085503247578998,0.681293297580717,1.4223969791842803,-1.8788131085324185,-0.7152435187946353,1.9456516139932933,0.1895076407785435,0.00021776382950516765,-2.9645278582090466e-05,-0.0002637248721843145,-0.00012036236852407437,-0.0013281471592942273,-0.0002552465551260685,-0.0005138275802806878,0.2411382496356964,-23.68893814086914,19.628707885742188,17.87512969970703,0.8641458749771118,2.3668715953826904,-0.11347807943820953,,,,,,,,,
1739400588.2915986,-0.7085503113385176,0.6812944438543722,1.4223969791398716,-1.8788092338559876,-0.7152399848294374,1.9456566102058894,0.18950521127725242,0.0005282373820891944,1.648925734249151e-05,-0.00037216962004771136,-7.586496810094921e-05,0.0008442672347220845,0.0009996023185691568,-0.0022050375767456174,0.2411382496356964,-23.66513442993164,19.628707885742188,17.82355499267578,0.8705545663833618,2.3604629039764404,-0.08692778646945953,,,,,,,,,
1739400588.3016012,-0.708549401325283,0.6812944452109966,1.422399840304138,-1.8788074633887217,-0.7152401437024769,1.9456508563571417,0.18950707077878431,0.0003225404020946248,-0.0005151652272318887,0.0001971259543861436,0.000810398978443187,-0.0011745694989277198,-0.0006244939452592342,0.001676366050907746,0.2411382496356964,-23.66513442993164,19.628707885742188,17.79975128173828,0.8705545663833618,2.3732802867889404,-0.12080229818820953,,,,,,,,,
1739400588.3116512,-0.7085493229874459,0.6812943389201426,1.4223976812756078,-1.8788093256476854,-0.7152422582302571,1.945652371653372,0.18950656999528492,0.0005774057696844736,-0.0009217001815754658,-6.094025281145254e-05,0.00017365832144200378,-0.0003982325410561803,0.00021983565832955427,-0.0002141256526746718,0.2411382496356964,-23.66513442993164,19.656478881835938,17.82355499267578,0.8897806406021118,2.3604629039764404,-0.07411040365695953,,,,,,,,,
1739400588.32167,-0.7085523236727048,0.6812944452056041,1.4224037291650795,-1.8788091636535538,-0.7152435205934206,1.945650838890612,0.18950723688099488,0.0004084573098733264,-0.00034847692915230275,0.0011960881409437394,0.0020434475148187908,-0.00014375668977628599,-0.00011709127329251731,0.00039775808791428675,0.2689092457294464,-23.66513442993164,19.577133178710938,17.82355499267578,0.8641458749771118,2.3732802867889404,-0.10706938803195953,,,,,,,,,
1739400588.3326619,-0.7085513992662172,0.6812922997708412,1.42240162292478,-1.8788056810383553,-0.7152440204512485,1.9456508563331165,0.18950641133286752,-0.00038639828976331266,-0.0004907765582873791,-7.502596654119077e-05,0.001287234259289711,-0.0013348922203691282,-0.0008469402394422993,0.001028544794781371,0.2689092457294464,-23.66513442993164,19.604904174804688,17.77594757080078,0.8769632577896118,2.3732802867889404,-0.12721098959445953,,,,,,,,,
1739400588.3426788,-0.7085482299834097,0.6812924737489934,1.4223977869123707,-1.8788070208257397,-0.7152388777915389,1.9456531293134498,0.1895057272201665,-6.379658391059652e-05,-0.0008924442474416991,-0.0007515602015075493,-0.0003365122703055713,-0.0005490762744758042,0.0003861404806836238,0.0001036109306249586,0.2411382496356964,-23.63736343383789,19.656478881835938,17.82355499267578,0.8568216562271118,2.3540542125701904,-0.09425200521945953,,,,,,,,,
1739400588.3526816,-0.7085540477650066,0.6812907335506895,1.4223984490776338,-1.8788088033520185,-0.7152392290677202,1.9456503853829352,0.18950716834498585,-0.0006655934416593861,-0.0013075698386851003,-0.0005692876070105205,-0.0011701770981606965,0.0003654804664817119,-0.0010959828958136066,0.0011362654504719055,0.2927129566669464,-23.61355972290039,19.656478881835938,17.84735870361328,0.8641458749771118,2.3732802867889404,-0.13361968100070953,,,,,,,,,
1739400588.3636878,-0.7085507704785934,0.6812931625258681,1.4224005002279076,-1.8788077900728601,-0.7152422577370255,1.9456523718069016,0.1895084701560163,8.09440672234036e-05,-5.200596210850998e-05,-1.5376093171134324e-05,-0.00022401049161925482,-0.001221159499963393,0.00025784128138063946,0.0009998308578127576,0.2173345386981964,-23.63736343383789,19.577133178710938,17.79975128173828,0.8897806406021118,2.3604629039764404,-0.11347807943820953,,,,,,,,,
1739400588.3746355,-0.7085523351413379,0.6812910167600225,1.422401625825705,-1.878809611760895,-0.7152403467997847,1.9456516139932936,0.18951068235193513,-0.0006685760965464144,-0.0015441893730118719,0.0009580769167165937,0.0009727246571756557,0.0008634022771214871,0.00027920075940864985,0.0014433398204681445,0.2689092457294464,-23.63736343383789,19.604904174804688,17.79975128173828,0.8705545663833618,2.3668715953826904,-0.12721098959445953,,,,,,,,,
1739400588.3846471,-0.708550100446757,0.6812924474639579,1.422399605717329,-1.8788107816393311,-0.7152399847628883,1.9456516139932933,0.18950572288199954,0.000541782278971722,-0.0008895639754154796,-3.806808859334169e-05,-0.00046308124048222957,0.00041728824555022185,0.0003357006380544256,-0.0003379549299689802,0.2411382496356964,-23.63736343383789,19.628707885742188,17.84735870361328,0.8705545663833618,2.3668715953826904,-0.09425200521945953,,,,,,,,,
1739400588.3956237,-0.7085458167759995,0.6812961577317366,1.4223959777430744,-1.878811028741434,-0.7152415398133437,1.9456523716533718,0.18950525208218552,0.0014112987851978938,6.844776674853174e-05,-0.0006047674759400781,-0.0005098736396418929,0.0006418629576151295,0.00012708319588093767,0.0011451492291505118,0.2173345386981964,-23.68893814086914,19.680282592773438,17.84735870361328,0.8833719491958618,2.3604629039764404,-0.05396880581974983,,,,,,,,,
1739400588.4056578,-0.708552101228989,0.6812998681933198,1.4224013844697128,-1.8788111083247045,-0.7152450522666653,1.94565312931345,0.1895025566243085,-0.00020092191554414178,0.0008794126219045926,0.0001352948947436477,-0.0007294663768230674,-0.0026011611348854286,0.00064357227778506,-0.0009958378471163658,0.2689092457294464,-23.74051284790039,19.604904174804688,17.84735870361328,0.8769632577896118,2.3540542125701904,-0.10066069662570953,,,,,,,,,
1739400588.416615,-0.7085540217989937,0.6812923674702427,1.4223977604200713,-1.8788105631578171,-0.7152432433318585,1.9456523716533718,0.18950572284184786,-0.0005415362391642216,-0.0019263189400739488,-0.0012939315691591132,-0.0002937533993628013,-0.0008151980138388501,7.956010286620118e-05,-0.00018427895000900865,0.2927129566669464,-23.63736343383789,19.656478881835938,17.79975128173828,0.8705545663833618,2.3604629039764404,-0.09425200521945953,,,,,,,,,
1739400588.4266672,-0.7085503373386705,0.6812946725088714,1.4223969225883968,-1.8788131085851794,-0.7152399848119414,1.9456516139932933,0.18950247623540742,-0.0004111439775238491,-0.0008923616984983162,-0.000544147338732415,-0.0011626505528489549,0.0007735080193821043,0.0002210381707952742,-0.002068434672099533,0.2411382496356964,-23.63736343383789,19.680282592773438,17.87512969970703,0.8705545663833618,2.3668715953826904,-0.06678618490695953,,,,,,,,,
1739400588.4367068,-0.7085523352799638,0.6812961577694201,1.4223998401182574,-1.8788093255386702,-0.7152360540691702,1.94565312931345,0.18950799584424163,-0.000613779083659081,0.00013940068913248786,0.000522205301831891,-5.120669958398854e-05,0.0016213754472984697,0.0004320945327791163,-0.00023036677559540845,0.2689092457294464,-23.68893814086914,19.628707885742188,17.82355499267578,0.8641458749771118,2.3540542125701904,-0.11347807943820953,,,,,,,,,
1739400588.447611,-0.7085523352799638,0.6812944717019578,1.4224016228882912,-1.8788110287432773,-0.7152412591360361,1.9456516139932933,0.18950379176880694,-0.0008533116837690371,-0.0005801201114102193,0.0004567111481064188,0.00026360411651127184,-0.0009498751655857662,0.00042928308636063477,-0.0015099871692977728,0.2689092457294464,-23.66513442993164,19.604904174804688,17.84735870361328,0.8769632577896118,2.3668715953826904,-0.08692778646945953,,,,,,,,,
1739400588.4576943,-0.7085540449117639,0.6812944452114529,1.4224016227792755,-1.8788134924014794,-0.7152415152934339,1.9456516139932933,0.1895064805060375,-0.0016012222993998545,-0.00019043842514855912,0.0003122029666319275,-0.0016981493259851683,-0.000264783143513487,6.557363463684662e-05,4.021721149443301e-05,0.2927129566669464,-23.66513442993164,19.604904174804688,17.84735870361328,0.8833719491958618,2.3668715953826904,-0.10066069662570953,,,,,,,,,
1739400588.468629,-0.7085534669253083,0.6812951618839531,1.422397694444059,-1.87880702086746,-0.7152419367727721,1.9456523716533718,0.1895009604296603,0.0007282167445218702,0.0002989992983979035,-0.0001305411312378457,0.0007200637496110252,0.00015507978349803004,0.0002039059058993681,-0.0015164219760998735,0.2689092457294464,-23.66513442993164,19.628707885742188,17.82355499267578,0.8504129648208618,2.3604629039764404,-0.05396880581974983,,,,,,,,,
1739400588.4796011,-0.7085503373412402,0.6812961567519377,1.4224022234118796,-1.8788104380037793,-0.7152397083571497,1.9456501001266868,0.18950572335002924,0.0009405429947479469,-7.370427452385261e-05,0.0004209859771823045,-0.0001790651719204107,-0.0007667302827567947,-0.0004542036145467046,-0.0009162677023254421,0.2411382496356964,-23.68893814086914,19.628707885742188,17.82355499267578,0.8641458749771118,2.3796889781951904,-0.09425200521945953,,,,,,,,,
1739400588.4896247,-0.7085523352799638,0.6812945930373133,1.4224015173726068,-1.8788092372960485,-0.7152442777873511,1.945651613993367,0.18950485696679067,-0.0002208191156162128,0.00014586356514575927,0.0004896541053720034,6.519756863821939e-05,9.062503955587059e-05,0.0005202519567949703,-0.0011441742565580864,0.2689092457294464,-23.63736343383789,19.604904174804688,17.82355499267578,0.8705545663833618,2.3668715953826904,-0.08692778646945953,,,,,,,,,
1739400588.4996743,-0.7085503373391108,0.6812944452231172,1.4224016225606473,-1.878811064391099,-0.7152395908536927,1.9456523716533718,0.189507792169229,0.00018913352155345312,0.0005075726971684757,0.00015790245829265255,-0.0012121024428668587,-0.000553190214890901,-0.0003143544748761889,0.0004112779684421436,0.2411382496356964,-23.66513442993164,19.604904174804688,17.84735870361328,0.8641458749771118,2.3604629039764404,-0.12080229818820953,,,,,,,,,
1739400588.5106416,-0.708550363830064,0.6812996307558871,1.4224015954161904,-1.8788159706459975,-0.7152442767838076,1.9456523716533718,0.18950801333530673,0.00017220505678589728,0.0017088112819260042,-0.00013784230179381544,-0.002040922746740337,3.452528851212633e-05,-0.00040251236912798696,-0.00012115770660970217,0.2411382496356964,-23.74051284790039,19.604904174804688,17.87512969970703,0.8705545663833618,2.3604629039764404,-0.11347807943820953,,,,,,,,,
1739400588.5207047,-0.7085502593393166,0.6812900630722971,1.422401384468317,-1.8788100368698764,-0.7152436201222862,1.945650856333215,0.18950644483048573,0.0004064900682493763,-0.0006068768046696501,0.00039299969481591693,0.00010995119637152218,-0.0012413064189737582,-0.00032950030238559534,7.761338769685816e-05,0.2411382496356964,-23.63736343383789,19.604904174804688,17.82355499267578,0.8705545663833618,2.3732802867889404,-0.08692778646945953,,,,,,,,,
1739400588.5316188,-0.7085532629537533,0.6812966704344767,1.422401622887843,-1.8788075428631383,-0.7152441264158343,1.9456530900675932,0.18950725147198652,-0.0014135836165826104,0.0004448276072204114,0.0003290453460027433,6.80519425371801e-05,-0.002338297877812988,-0.0001286366748113018,7.903911447062925e-05,0.2689092457294464,-23.66513442993164,19.604904174804688,17.79975128173828,0.8769632577896118,2.3540542125701904,-0.10706938803195953,,,,,,,,,
1739400588.5416875,-0.7085523392202596,0.6812961577694199,1.4223985237738122,-1.8788096887392245,-0.7152399853046387,1.9456523716527072,0.18951104250013753,-0.0009177934731564391,0.0006518011104057907,-0.0008096181323908016,-0.0006027868638987611,0.0023842345934059006,0.00021044292449781183,0.0013338453737281662,0.2689092457294464,-23.68893814086914,19.604904174804688,17.79975128173828,0.8705545663833618,2.3604629039764404,-0.12721098959445953,,,,,,,,,
1739400588.552648,-0.7085503344502019,0.6812983064423869,1.4223998444454125,-1.8788085043316811,-0.7152462385175584,1.9456516139932931,0.1895114902061962,0.00026350588741040507,0.0006486701924162354,0.00029313733618951146,0.001025713306145596,-0.0015356990798292783,-8.639150815513854e-05,0.001953663532528835,0.2411382496356964,-23.68893814086914,19.628707885742188,17.82355499267578,0.8961893320083618,2.3668715953826904,-0.10706938803195953,,,,,,,,,
1739400588.5626798,-0.7085503201689995,0.6812946225081442,1.42239744253005,-1.8788110287302673,-0.715239984811341,1.9456523716533716,0.18950252538589327,-0.0002236164143716767,0.00012661653095711125,-0.00179059393387372,-0.00012181312580860462,-0.0011934543198285543,0.00018194499667117852,-0.0006597906479374958,0.2411382496356964,-23.63736343383789,19.656478881835938,17.84735870361328,0.8705545663833618,2.3604629039764404,-0.09425200521945953,,,,,,,,,
1739400588.574636,-0.7085507701575047,0.6812963961989327,1.4223997342093264,-1.878811743998566,-0.7152412298315594,1.9456523716533716,0.1895079964742247,0.00021512884082724125,0.0002598701839294724,-0.00019189124359872363,-0.0004290748264583487,-0.0015844505944956461,0.0004722966198593508,0.0005540221132769561,0.2173345386981964,-23.68893814086914,19.628707885742188,17.84735870361328,0.8705545663833618,2.3604629039764404,-0.11347807943820953,,,,,,,,,
1739400588.5847325,-0.7085485872743855,0.6813007782783047,1.4223974425293802,-1.8788093966643111,-0.7152400377456921,1.9456531249527993,0.18950207461933238,0.0007545896752340918,0.0005466863792317624,-0.0013994051068741962,-0.00010474312301152449,-0.0006655783998122073,0.00041759032497801056,0.00044383943967131196,0.2173345386981964,-23.71670913696289,19.656478881835938,17.84735870361328,0.8705545663833618,2.3540542125701904,-0.05396880581974983,,,,,,,,,
1739400588.594763,-0.7085523349583356,0.6812998686737988,1.4223997607330294,-1.8788096086761477,-0.7152411120948865,1.9456508563331412,0.18950571848133543,-0.0010089316784317542,0.001741892442065278,0.00045563307217526126,-6.855499924712566e-05,-0.0007732203323705372,-0.0001722941914167603,-0.0005950490176105435,0.2689092457294464,-23.74051284790039,19.628707885742188,17.79975128173828,0.8705545663833618,2.3732802867889404,-0.09425200521945953,,,,,,,,,
1739400588.6056252,-0.7085502302303226,0.6812944452110123,1.4223995213373415,-1.878808556399207,-0.7152388424708549,1.9456523716533716,0.18950997571504605,3.319520974766975e-05,-0.0006201659135764697,0.0006639581450242613,0.00036027962049855106,-0.0005086586549642499,0.000556298476377964,0.0019202178542406076,0.2689092457294464,-23.66513442993164,19.628707885742188,17.84735870361328,0.8568216562271118,2.3604629039764404,-0.12080229818820953,,,,,,,,,
1739400588.6166666,-0.7085523352324149,0.6812947631024431,1.422398734064394,-1.8788110404649445,-0.7152410827683423,1.9456508563332149,0.18950055855046277,-0.0009283489755089795,0.000726776088386517,-0.0003057391080044943,-0.000872671069546513,0.00032442765661317834,0.00013671275814658164,-0.002095797836980863,0.2689092457294464,-23.66513442993164,19.604904174804688,17.84735870361328,0.8769632577896118,2.3732802867889404,-0.04756011441349983,,,,,,,,,
1739400588.6277125,-0.7085544807625218,0.681298155674383,1.4224016189837374,-1.8788088737052624,-0.7152424856493722,1.9456508563332149,0.1895033416486177,-0.0014645761812882969,-0.0001971354804247754,0.0022638988477064336,-0.0004456500028921375,-6.433418932126003e-05,-0.0006558366092208144,-0.0010279020022773593,0.2689092457294464,-23.71670913696289,19.604904174804688,17.84735870361328,0.8641458749771118,2.3732802867889404,-0.07411040365695953,,,,,,,,,
1739400588.639711,-0.7085484697309449,0.6812940119281848,1.4223997430777702,-1.8788073534586525,-0.7152399862891164,1.9456508563870503,0.18950850521738688,-0.00011685812619961842,-0.0008413612377611008,-2.219520211598565e-05,0.0013087492935203835,0.0009703299452646379,-0.00019227207127923108,-0.00038472316616217973,0.2411382496356964,-23.68893814086914,19.628707885742188,17.79975128173828,0.8705545663833618,2.3732802867889404,-0.12080229818820953,,,,,,,,,
1739400588.6506212,-0.7085499923462876,0.6812924498744285,1.4224012683668383,-1.8788074277398503,-0.7152450359135608,1.945652371653372,0.1895072383981562,-0.0003982308846988998,-0.0016374342066099261,0.0008360725834360315,0.001277551054307027,-0.0005106376466032429,0.00020311527508492947,5.395112167713321e-05,0.2689092457294464,-23.63736343383789,19.604904174804688,17.79975128173828,0.8769632577896118,2.3604629039764404,-0.10706938803195953,,,,,,,,,
1739400588.660633,-0.7085540477518032,0.6812925120258294,1.4224039263775288,-1.8788092593292542,-0.7152435378422027,1.9456516139932933,0.18950572335003044,-0.001389523123499529,-0.00029964328445374283,0.001334771963346005,0.0002485908275228006,-0.0025185141526806016,-0.0007533321747636809,0.0008576449782975151,0.2927129566669464,-23.63736343383789,19.577133178710938,17.82355499267578,0.8641458749771118,2.3668715953826904,-0.09425200521945953,,,,,,,,,
1739400588.6706734,-0.7085485468172387,0.6812970560427141,1.4224034760371134,-1.878813108532909,-0.7152392685413556,1.9456508561717094,0.18950759344461152,0.0021324265233690206,1.2720323511689524e-05,-0.0003098355636795109,-0.0006176613228930429,0.0008985379827467965,-0.0005167228044968007,7.06165566820451e-05,0.2173345386981964,-23.66513442993164,19.577133178710938,17.87512969970703,0.8641458749771118,2.3732802867889404,-0.07411040365695953,,,,,,,,,
1739400588.68163,-0.708550259016538,0.6812944452620813,1.4223998398102669,-1.8788113921600702,-0.7152409153168712,1.9456523716533707,0.1895072382081566,-0.0002671998727511192,3.18257868976899e-05,-0.0009114280477884216,0.00041027688536352257,-0.0011555328832372417,9.828565744520086e-05,0.000470523643986486,0.2411382496356964,-23.66513442993164,19.628707885742188,17.82355499267578,0.8769632577896118,2.3604629039764404,-0.10706938803195953,,,,,,,,,
1739400588.6935945,-0.7085503286718753,0.681298158616028,1.4224016229246284,-1.8788113466463823,-0.7152405034571385,1.9456505524170968,0.18950409930668777,3.9250157456811185e-05,0.0009178705844297791,0.0004037269387042453,-0.0010673173525824378,-0.0003380595855550409,9.196221960868127e-05,-0.0013560661713797777,0.2411382496356964,-23.71670913696289,19.604904174804688,17.84735870361328,0.8705545663833618,2.3668715953826904,-0.08051909506320953,,,,,,,,,
1739400588.7036843,-0.7085548214187652,0.6812951604667582,1.4224016224885656,-1.8788094844861833,-0.7152404589834404,1.9456523694939714,0.1895059187253517,-0.0012805329214108001,0.000635683464283301,-0.0006261669688327447,-0.00013793620685502322,-0.0009300650121695716,-0.0005062258423675918,6.863483723334047e-05,0.3165166676044464,-23.66513442993164,19.604904174804688,17.82355499267578,0.8641458749771118,2.3604629039764404,-0.09425200521945953,,,,,,,,,
1739400588.7137215,-0.7085540468218176,0.6812931625380014,1.422401622888285,-1.8788131085367221,-0.7152411015372858,1.9456531293134134,0.1895067858168138,-0.0005548700452309834,0.000514649616272769,-0.0007451845151476242,-0.00211353020229019,-0.0004377286785310211,0.00026363706473291076,0.0002566541308640851,0.2927129566669464,-23.63736343383789,19.604904174804688,17.87512969970703,0.8769632577896118,2.3540542125701904,-0.09425200521945953,,,,,,,,,
1739400588.7237675,-0.7085496343658565,0.6812968744167974,1.4223998402112727,-1.878810199740126,-0.7152432034136568,1.9456531293134498,0.18950607490310098,0.0009422000779584089,0.0006760234603104594,-0.00022720252333619146,-0.00043497684320979187,0.00016037556456274313,0.00036798382336569664,-0.00042828867251652676,0.2411382496356964,-23.68893814086914,19.628707885742188,17.82355499267578,0.8705545663833618,2.3540542125701904,-0.09425200521945953,,,,,,,,,
1739400588.7346625,-0.7085503373351424,0.681300301770895,1.4223938329583325,-1.8788095669060711,-0.7152440802951123,1.9456538869735283,0.1895064803087044,0.0007826678374250767,0.001296952871732316,-0.0015405033502592668,2.9310483332588832e-05,7.999532334533585e-05,0.0009296799134024924,0.00025286338546940497,0.2411382496356964,-23.71670913696289,19.680282592773438,17.82355499267578,0.8769632577896118,2.3476455211639404,-0.10066069662570953,,,,,,,,,
1739400588.7447073,-0.7085478448069787,0.6812940130910307,1.42240370220576,-1.8788110287482622,-0.7152403426046774,1.9456516139932931,0.18950251414728433,0.00045784314667086316,-0.00013158032168311912,0.002400414224725331,-0.0007012942750875712,0.0004847947819321762,0.00026952748538070013,-0.002289356988982879,0.2173345386981964,-23.68893814086914,19.577133178710938,17.84735870361328,0.8705545663833618,2.3668715953826904,-0.09425200521945953,,,,,,,,,
1739400588.7555978,-0.7085538137928715,0.6812961586644366,1.422399828437513,-1.8788110277253436,-0.7152436775788421,1.9456508563332149,0.18950649843476547,-0.0011851774965224802,-0.000668500599678559,-0.00036169140805720806,-0.0005389488629981268,0.0005200012178020825,0.00012766339733811548,0.0006452036857842115,0.2927129566669464,-23.68893814086914,19.628707885742188,17.84735870361328,0.8641458749771118,2.3732802867889404,-0.10066069662570953,,,,,,,,,
1739400588.7656956,-0.7085515552566741,0.681295160466789,1.4224036882008995,-1.878808258117336,-0.7152416239274701,1.9456508563332149,0.18951048389917155,-0.0010445383195299613,-4.5419213039396935e-05,0.0024779378434082724,0.0006119858241826384,0.00023994148981609298,-0.00043448436452006643,0.0015283488726484345,0.2689092457294464,-23.66513442993164,19.604904174804688,17.79975128173828,0.8833719491958618,2.3732802867889404,-0.10706938803195953,,,,,,,,,
1739400588.7767475,-0.7085469121862477,0.6812973062379911,1.4224015437904785,-1.878811016537493,-0.715239228732622,1.9456516314358963,0.1895048570390916,0.0005067020165862685,0.0006150377173875403,0.0005315059552837357,-0.00023676058418590083,0.0018063131451355264,8.897402374210701e-05,-2.275816654098093e-05,0.1935308277606964,-23.66513442993164,19.604904174804688,17.84735870361328,0.8641458749771118,2.3668715953826904,-0.08692778646945953,,,,,,,,,
1739400588.787638,-0.7085478968077386,0.6812924562148687,1.4224015875668719,-1.8788110287302442,-0.715239719305134,1.9456523716534044,0.18950724029028895,0.0011486343929757873,-0.0005490692970773585,-1.0672831765111846e-05,-0.0007747119474945365,0.000675333256294087,0.0004178462168702424,-0.00014408335414081653,0.2173345386981964,-23.63736343383789,19.604904174804688,17.84735870361328,0.8641458749771118,2.3604629039764404,-0.10706938803195953,,,,,,,,,
1739400588.7976747,-0.7085483012457658,0.6812944452111558,1.4224016317180115,-1.8788110287428286,-0.715242654868023,1.945650856333215,0.18950414927819179,0.0005875807566650199,0.0005553059841362128,0.0006318313441481502,-5.6722484424237e-05,-0.00043214837261068675,-2.603844046965181e-05,-0.0004911420024264332,0.2173345386981964,-23.66513442993164,19.604904174804688,17.84735870361328,0.8568216562271118,2.3732802867889404,-0.05396880581974983,0,0,0,0.000,0,0
1739400588.8087168,-0.7085504433010971,0.681291732014414,1.4224005550309948,-1.8788131085326845,-0.7152432034318129,1.9456516139932933,0.18950598367660856,8.140340427934452e-05,-0.0013311141413341935,-0.0006574007250401442,-0.0012614466126828112,-0.0001647803570651972,-0.00030137314098099474,-0.0011867577111373284,0.2411382496356964,-23.63736343383789,19.628707885742188,17.87512969970703,0.8705545663833618,2.3668715953826904,-0.06037749722599983,0,0,0,0.000,0,0
1739400588.8196387,-0.7085482313089269,0.6812944455340154,1.4224005553256902,-1.878811030051024,-0.7152411844694154,1.9456516139932933,0.18950170076546818,0.0008636131752790294,-0.000406591552507483,-0.0013261156563240965,-0.00047402183079682894,0.0007699713241024742,-9.611163452732515e-05,-0.0009180195652062108,0.2411382496356964,-23.66513442993164,19.628707885742188,17.84735870361328,0.8504129648208618,2.3668715953826904,-0.08692778646945953,0,0,0,0.000,0,0
1739400588.8296623,-0.7085520231327401,0.6812944455380585,1.4224016229004022,-1.8788092823682492,-0.7152443294972552,1.9456508548796647,0.1895121189939937,-0.0005404810222711578,0.0005887191888416441,0.00043141190080070425,0.0003685257407552601,-0.0007028064273284482,-0.0007084684890784497,0.0020484967760135224,0.2689092457294464,-23.66513442993164,19.604904174804688,17.82355499267578,0.8705545663833618,2.3732802867889404,-0.14735259115695953,0,0,0,0.000,0,0
1739400588.8405936,-0.7085458167720505,0.6812963176586069,1.422401587567021,-1.8788110316868827,-0.715243203644678,1.9456516139932687,0.18950804630329704,0.0008959227672330957,-0.00048247812232145185,0.0005894788058877468,-0.0007344243757828031,0.0009755963452009431,-0.00014697380771004474,0.0010853600058372645,0.2173345386981964,-23.68893814086914,19.604904174804688,17.84735870361328,0.8705545663833618,2.3668715953826904,-0.08692778646945953,0,0,0,0.000,0,0
1739400588.850641,-0.7085475292465507,0.681292447271054,1.422403702677948,-1.8788133470602963,-0.7152435187037814,1.9456516139932931,0.18950648205417664,0.0011444852448168512,-0.0005184203524474774,0.0007734406076936915,-0.000244283829617129,-0.0010248104848565604,0.00041140738746988276,0.0011161482806578654,0.2411382496356964,-23.63736343383789,19.577133178710938,17.87512969970703,0.8641458749771118,2.3668715953826904,-0.10066069662570953,0,0,0,0.000,0,0
1739400588.8606515,-0.7085503372915555,0.6812962381857417,1.4223977604214173,-1.8788092460698491,-0.7152407621124425,1.9456516139932931,0.18950253261501385,-0.00042740218223646595,0.0005989638684325407,-0.001177703623829763,-0.0006119220736604991,0.00011224416629254961,0.000559206549142755,-0.002061454511728247,0.2411382496356964,-23.68893814086914,19.656478881835938,17.82355499267578,0.8769632577896118,2.3668715953826904,-0.06678618490695953,0,0,0,0.000,0,0
1739400588.8715992,-0.7085523352442976,0.6812962329897536,1.4224015965063548,-1.878809246174826,-0.7152398056106064,1.9456523716533716,0.1895056645981934,-0.0006425847557633351,2.7001678487489846e-05,0.0005755789155108855,0.00014297075059722063,0.0007542086746085027,0.0005619890922404767,0.00010462428735047349,0.2689092457294464,-23.68893814086914,19.604904174804688,17.82355499267578,0.8568216562271118,2.3604629039764404,-0.06678618490695953,0,0,0,0.000,0,0
1739400588.8816373,-0.7085522572788218,0.6812982351492717,1.4224016493779046,-1.8788109463265354,-0.7152415580379361,1.9456500986731364,0.18950415633430898,0.00045773617811185907,0.0009412568339775627,0.0002452893845130881,6.960492539706157e-05,0.0012205946300419238,-0.00021103801890522405,0.0005491881073628349,0.2689092457294464,-23.71670913696289,19.604904174804688,17.84735870361328,0.8833719491958618,2.3796889781951904,-0.08051909506320953,0,0,0,0.000,0,0
1739400588.891704,-0.7085495269166077,0.6812962373149574,1.4224013569980616,-1.8788091636481148,-0.7152404615948968,1.9456523716533716,0.18950672803436752,0.000500789360856282,-0.00012544155345429878,-7.785169333753071e-05,0.0004735675360804856,0.0013226168793925898,0.0006232625797936612,0.0011134260168327082,0.2689092457294464,-23.68893814086914,19.604904174804688,17.82355499267578,0.8705545663833618,2.3604629039764404,-0.06678618490695953,0,0,0,0.000,0,0
1739400588.9026923,-0.7085523266078859,0.681298180891835,1.4223998402107723,-1.8788074868271334,-0.7152408210426064,1.9456523716533716,0.18950576224049975,-1.1530351483258073e-05,-3.523869647872402e-05,-0.0004456145070923681,0.0002535345849338704,0.00036372178874740643,-2.0989390423342756e-05,-0.0006366249930433292,0.2689092457294464,-23.71670913696289,19.628707885742188,17.79975128173828,0.8641458749771118,2.3604629039764404,-0.09425200521945953,0,0,0,0.000,0,0
1739400588.9127011,-0.7085557603212793,0.6812961842231158,1.4223977252091624,-1.8788092447095597,-0.7152415366303322,1.9456523716533716,0.18950834050282037,-0.0014409130631786635,-0.0003365939274794805,-9.006173929064151e-05,0.0003107466948519201,-0.0002919231892878452,-4.25843783342903e-05,0.0008087941963853784,0.3165166676044464,-23.68893814086914,19.656478881835938,17.82355499267578,0.8705545663833618,2.3604629039764404,-0.10706938803195953,0,0,0,0.000,0,0
1739400588.9236054,-0.7085503373391108,0.68129839605361,1.4223997224735039,-1.878812364714677,-0.7152438762677317,1.9456516270752455,0.189507251313211,0.0006009137437368039,0.00044540200656911354,-4.0054794250529366e-05,-0.00046113814553665926,-0.000609845273254792,0.00019360128126388,-0.00032144406770438127,0.2411382496356964,-23.71670913696289,19.628707885742188,17.87512969970703,0.8641458749771118,2.3668715953826904,-0.10706938803195953,0,0,0,0.000,0,0
1739400588.9336536,-0.7085482226415353,0.6813025813939809,1.4223998372658395,-1.8788110316736715,-0.7152412767297932,1.9456500980273357,0.18950263175642176,0.0005519863845701831,0.0023958399466508943,0.0007444895780366073,0.0002313556611264776,-6.298556409316136e-05,-0.000786861857657586,0.0011580702627003742,0.2411382496356964,-23.76828384399414,19.628707885742188,17.84735870361328,0.8769632577896118,2.3796889781951904,-0.06678618490695953,0,0,0,0.000,0,0
1739400588.9446943,-0.708550336340321,0.6812944452231173,1.4224037026780973,-1.8788110287428783,-0.715240347462931,1.9456508563332042,0.1895088617441078,-1.7465032328250275e-05,-0.0010302934755211156,0.0018538762023191193,0.0005076461387155004,-0.00032276460840520167,-0.00013109506209690327,7.780655267002859e-06,0.2411382496356964,-23.66513442993164,19.577133178710938,17.84735870361328,0.8705545663833618,2.3732802867889404,-0.12080229818820953,0,0,0,0.000,0,0
1739400588.9556508,-0.7085469387885996,0.6812944452110044,1.4223987618653426,-1.8788110151763597,-0.715239704007197,1.9456523716533716,0.1895081140217378,0.00035275597003391496,-0.0012328387067734236,0.0008592562319671684,-0.000272785872228337,0.0004180469256575737,0.00032705545336813327,0.000683814650676813,0.1935308277606964,-23.66513442993164,19.604904174804688,17.84735870361328,0.8641458749771118,2.3604629039764404,-0.11347807943820953,0,0,0,0.000,0,0
1739400588.966603,-0.7085512823467833,0.6812960782952145,1.4223988865208057,-1.878810279212909,-0.7152432167102519,1.9456508563332149,0.189504138837865,-0.000959597619644505,-0.000139623812116871,-0.00040708086049732854,-0.0012722460875453636,-0.0007355781434941292,-0.00027393932206199156,-0.0004420288756460587,0.2411382496356964,-23.68893814086914,19.628707885742188,17.82355499267578,0.8705545663833618,2.3732802867889404,-0.08051909506320953,0,0,0,0.000,0,0
1739400588.976624,-0.7085503373551145,0.681294445209659,1.4224006691978246,-1.8788110552512785,-0.7152447192730383,1.9456523716533716,0.18950735629032436,-0.0006899718328080322,-0.0012150602561364354,0.0003099040521526018,-0.000795684764132705,-0.0003697636340285605,-0.00043908569808345235,0.00045743833905751737,0.2411382496356964,-23.66513442993164,19.604904174804688,17.84735870361328,0.8833719491958618,2.3604629039764404,-0.10706938803195953,0,0,0,0.000,0,0
1739400588.986655,-0.7085486209664716,0.6812944405233047,1.4223998400861055,-1.878811028404116,-0.715244718782249,1.9456516141547988,0.18950485696876612,0.0011419710634321583,-0.0008102790423399841,0.0002708206838211097,-0.0002587166333642242,0.0006517547434740827,-0.0002567986234079198,0.0008497462970545826,0.2173345386981964,-23.66513442993164,19.628707885742188,17.84735870361328,0.8833719491958618,2.3668715953826904,-0.08692778646945953,0,0,0,0.000,0,0
1739400588.9986145,-0.7085472172934859,0.6812961709226775,1.4223999061886283,-1.878805680674085,-0.7152412236873222,1.945651618353945,0.189507792169229,0.0013105864957435743,0.0003484780198528732,-0.0016518124440562235,0.0009274473237102117,-0.0009929623008725441,-0.0005929737787709484,0.0005531858617380642,0.2411382496356964,-23.68893814086914,19.656478881835938,17.77594757080078,0.8769632577896118,2.3668715953826904,-0.12080229818820953,0,0,0,0.000,0,0
1739400589.0096235,-0.7085503272637378,0.6812926900494555,1.4223952625007739,-1.8788099613215468,-0.7152409014197798,1.9456523716533964,0.1895064929887935,4.1140015957573644e-05,-0.00019493483595827717,-0.002107213045048003,-0.001519475006078348,0.00029195602235221275,0.0001103714502732029,-0.0016633781030011322,0.2411382496356964,-23.63736343383789,19.680282592773438,17.82355499267578,0.8769632577896118,2.3604629039764404,-0.10066069662570953,0,0,0,0.000,0,0
1739400589.019705,-0.7085519388809248,0.681296157733106,1.4223999186989484,-1.878803600586792,-0.7152432570989848,1.9456516139932933,0.18950247623547814,-0.0006465651776593461,0.00032773576769799866,0.00020408690992833095,0.0010743807392411073,0.0002978874132691521,-0.0004628903531555865,0.0005245920880621928,0.2927129566669464,-23.68893814086914,19.628707885742188,17.74817657470703,0.8705545663833618,2.3668715953826904,-0.06678618490695953,0,0,0,0.000,0,0
1739400589.030667,-0.7085523352323929,0.681294524683864,1.4224013049972961,-1.8788074633887888,-0.7152462081809718,1.9456524719483386,0.18950799633026702,-0.00045973000366192796,0.0004139265377231496,0.00041696893930387024,5.065821951799821e-05,-0.002315615197216682,0.00021262287847784796,-0.0006317390091079716,0.2689092457294464,-23.66513442993164,19.604904174804688,17.79975128173828,0.8833719491958618,2.3604629039764404,-0.11347807943820953,0,0,0,0.000,0,0
1739400589.0417068,-0.7085540477650288,0.6812966175786344,1.4224016264840342,-1.8788092460658097,-0.7152407770075447,1.9456523324080812,0.18950941311023414,-0.0010517689340885953,0.0006301799682291052,0.0010421419524587485,-0.0011081825869763981,0.0004175498585094719,0.0007665206360081242,0.0030375825637334285,0.2927129566669464,-23.66513442993164,19.604904174804688,17.82355499267578,0.8641458749771118,2.3604629039764404,-0.11347807943820953,0,0,0,0.000,0,0
1739400589.0526736,-0.7085523266131701,0.6812944452232673,1.4223977604214375,-1.8788074633887908,-0.7152410975490666,1.9456516139930717,0.1895087737796671,0.00030897800460216176,-0.0013261165934659027,-0.00010526602216362673,0.0008081887497272353,-0.00015302275511919807,-9.603329771055527e-05,0.002829519569889312,0.2689092457294464,-23.66513442993164,19.656478881835938,17.79975128173828,0.8705545663833618,2.3668715953826904,-0.10706938803195953,0,0,0,0.000,0,0
1739400589.0636246,-0.7085503402825011,0.681297103520542,1.422397663287922,-1.8788075693526036,-0.7152414196896724,1.9456531293134498,0.18950060391425017,0.00034624092350952747,0.000721035689414485,-0.0007844002651059181,0.00032802437289456923,-8.608506866915225e-05,0.00038091278722876223,-0.0011871555682145592,0.2411382496356964,-23.68893814086914,19.656478881835938,17.79975128173828,0.8705545663833618,2.3540542125701904,-0.05396880581974983,0,0,0,0.000,0,0
1739400589.0736568,-0.7085503348862946,0.6812951604827586,1.4224016199432077,-1.8788110287446234,-0.7152438777549915,1.9456508563332149,0.18950298753383857,0.0008089734206143417,-7.018784021081811e-05,-0.00020815692698729837,-0.00042286237470583134,0.0006837701176638242,-0.0007893241237964132,-0.0005838775569645554,0.2411382496356964,-23.66513442993164,19.604904174804688,17.84735870361328,0.8641458749771118,2.3732802867889404,-0.06678618490695953,0,0,0,0.000,0,0
1739400589.0837183,-0.7085523352799222,0.681293877793739,1.4223970851520866,-1.8788110252381576,-0.7152452492796533,1.9456508548796647,0.18950187994668363,-0.0013983024678941194,-0.0009347526444871036,-0.001126777011800813,-0.00013274599735677283,-0.0018056929338834305,0.00015811244745278415,-0.0021714357310820814,0.2689092457294464,-23.63736343383789,19.628707885742188,17.84735870361328,0.8833719491958618,2.3732802867889404,-0.06037749722599983,0,0,0,0.000,0,0
1739400589.094641,-0.7085522569578313,0.6812983035070228,1.4224008752391704,-1.8788088033519985,-0.7152407444002927,1.9456523716533636,0.18950835848620914,0.0004650737636473366,0.00032257440805398546,0.0003337723265677161,0.0009864487754432233,0.0010057328220685754,0.0004994418048393831,0.002158248045286228,0.2689092457294464,-23.68893814086914,19.604904174804688,17.84735870361328,0.8769632577896118,2.3604629039764404,-0.10706938803195953,0,0,0,0.000,0,0
1739400589.1046705,-0.7085485468159131,0.6812944849292649,1.4223998398715623,-1.8788110285920876,-0.7152411773402594,1.9456531293134498,0.18950096482291082,-9.638524746466778e-05,0.0005042759386053708,0.0006694592983591973,-0.00035144906910377537,-6.355141367078601e-05,0.00034756099053965297,-0.0026781614556820807,0.2173345386981964,-23.66513442993164,19.628707885742188,17.84735870361328,0.8705545663833618,2.3540542125701904,-0.05396880581974983,0,0,0,0.000,0,0
1739400589.1147077,-0.7085503373377898,0.6812924943658518,1.4224016572284106,-1.87881099211336,-0.7152399114309802,1.9456516139932931,0.18950741063503512,-0.0008325871105124914,-0.0006404845064025814,0.0011532046366154421,-0.0006259937639267695,-0.00011076560791053121,1.2670359277061984e-05,0.0012772310222637893,0.2411382496356964,-23.63736343383789,19.604904174804688,17.84735870361328,0.8568216562271118,2.3668715953826904,-0.08051909506320953,0,0,0,0.000,0,0
1739400589.1256204,-0.7085485988179995,0.681292447270417,1.4223998402114666,-1.8788110011574684,-0.7152409191954658,1.945651984648606,0.18950020284227825,0.0004307931714824971,0.00027572283000672145,-0.0005217588837600228,-0.0009883321984630428,-0.0007138011200087495,0.000528346594398381,-0.0015423522429965763,0.2173345386981964,-23.63736343383789,19.628707885742188,17.84735870361328,0.8769632577896118,2.3668715953826904,-0.04756011441349983,0,0,0,0.000,0,0
1739400589.1365907,-0.7085476801377585,0.6812953988126431,1.42240366724786,-1.8788084170629513,-0.7152440093688329,1.9456516139953857,0.18950251511787727,0.0005346614618905628,0.00034222600364919206,0.001001282516382119,-0.0004549676103563257,-0.000727780742878411,0.0004348391277090913,-0.0015427568216833895,0.2173345386981964,-23.66513442993164,19.577133178710938,17.79975128173828,0.8641458749771118,2.3668715953826904,-0.06678618490695953,0,0,0,0.000,0,0
1739400589.146699,-0.7085455789060101,0.6812977224422572,1.42239769825903,-1.8788093255548197,-0.7152446928688228,1.94565312931345,0.1895073694131549,0.0012472230768555033,0.00019640488947364032,0.00020285702404868614,-0.001417072257469328,0.000522300189641837,0.0006730744008852957,0.0020725914334003386,0.2173345386981964,-23.74051284790039,19.628707885742188,17.82355499267578,0.8705545663833618,2.3540542125701904,-0.10706938803195953,0,0,0,0.000,0,0
1739400589.157648,-0.7085503112145389,0.6812986244307289,1.4224016258196397,-1.8788110287432773,-0.7152431889569639,1.9456516139932933,0.18950992469170508,0.0009237903829374285,0.0009379298048164898,0.00025512544990441053,-0.0011089623331056058,-0.0016517234092345066,-0.00022391641935448967,0.0015227194427059054,0.2411382496356964,-23.68893814086914,19.604904174804688,17.84735870361328,0.8568216562271118,2.3668715953826904,-0.12080229818820953,0,0,0,0.000,0,0
1739400589.1676505,-0.708551915662093,0.6812945943873321,1.4223998402113223,-1.8788088889285142,-0.7152407947233613,1.945650856333215,0.18950446916507088,-0.0011103775381797764,0.0003339884525141545,0.0003964885724950559,0.0004818828293707203,-9.232046695981021e-05,-0.00037135871149681575,-0.0012257125515383197,0.2927129566669464,-23.63736343383789,19.628707885742188,17.82355499267578,0.8641458749771118,2.3732802867889404,-0.06037749722599983,0,0,0,0.000,0,0
1739400589.177676,-0.708554047764587,0.6812953349294315,1.4223998402112727,-1.878806721636052,-0.7152379719348744,1.945650856333215,0.18951009187013318,-0.000637217579312034,0.00016229773095666558,-0.0008486023902101395,0.0007776247775655294,0.0010859868292436574,-0.000609094720432015,0.0021831572547201996,0.2927129566669464,-23.63736343383789,19.628707885742188,17.79975128173828,0.8440042734146118,2.3732802867889404,-0.12721098959445953,0,0,0,0.000,0,0
1739400589.1886206,-0.7085465742927077,0.6812966881280123,1.4223977604214173,-1.8788091361732238,-0.7152426230143057,1.945652373106922,0.18950097857747997,0.0013427563926123078,0.00039386966695498867,-0.0007009753066222054,0.00023981957330437972,-0.0012243294202364003,0.0005335287437255236,-0.003223674041805182,0.1935308277606964,-23.66513442993164,19.656478881835938,17.82355499267578,0.8641458749771118,2.3604629039764404,-0.05396880581974983,0,0,0,0.000,0,0
1739400589.1996047,-0.7085557255096815,0.6812944452236656,1.4223976568334482,-1.8788106622968077,-0.7152428099900195,1.9456508563332233,0.1895017180898414,-0.0009154953286560695,0.00026517692768666707,-0.0010235089562198993,1.1958854641100683e-05,-0.00015668639887917425,0.00019494148489770054,-0.0005940464463020136,0.3165166676044464,-23.66513442993164,19.628707885742188,17.84735870361328,0.8641458749771118,2.3732802867889404,-0.06037749722599983,0,0,0,0.000,0,0
1739400589.2096581,-0.7085503373385212,0.6812944452110045,1.422402987276418,-1.8788092460596038,-0.7152444021021233,1.9456516139932933,0.18950992906524206,9.900014916130137e-05,-0.0017708601321140076,0.000821240396577217,0.0005489312181957273,-0.00047527200387717424,0.00030424739504024845,0.001021203430014462,0.2411382496356964,-23.66513442993164,19.577133178710938,17.82355499267578,0.8705545663833618,2.3668715953826904,-0.12080229818820953,0,0,0,0.000,0,0
1739400589.2206266,-0.7085538167407139,0.6812985448609657,1.4224015404598775,-1.878811029723975,-0.7152405207010328,1.9456500986731367,0.1895017181078142,-0.0012346273652221894,7.857517339031242e-05,-0.00017757546511750454,-0.0007020468653606332,-0.0007069918773041678,-0.0004900085120589123,-0.0014255519809521142,0.2927129566669464,-23.68893814086914,19.604904174804688,17.84735870361328,0.8705545663833618,2.3796889781951904,-0.06037749722599983,0,0,0,0.000,0,0
1739400589.2316585,-0.7085523089581566,0.6812955772528394,1.4223998359594832,-1.8788108872172,-0.7152417523143364,1.9456547528707608,0.18950414450755798,-0.0004267480289260042,-0.0006075252717495536,0.00033227345184064824,-0.0008631013389277411,0.00043236197431585166,0.0012812219260441191,-0.00024112866846963702,0.2689092457294464,-23.63736343383789,19.628707885742188,17.87512969970703,0.8568216562271118,2.3403213024139404,-0.08051909506320953,0,0,0,0.000,0,0
1739400589.2425907,-0.7085503113385822,0.6812924561181378,1.422397759113198,-1.8788092185811707,-0.7152407426540109,1.945652367292721,0.18951046640140565,0.0005385507763628074,-0.001805646895476182,-0.0006241797599665635,0.0001047024222811871,0.00012918935748080316,-4.205584951273662e-05,0.000943893325766173,0.2411382496356964,-23.63736343383789,19.656478881835938,17.82355499267578,0.8769632577896118,2.3604629039764404,-0.10706938803195953,0,0,0,0.000,0,0
1739400589.2526908,-0.7085523352795234,0.6812947644107882,1.4223976944440386,-1.8788113191617024,-0.7152405032926421,1.945651613831714,0.1895017183064194,-0.0008484950639515157,0.00020747686162015012,-0.0010838544173953184,-3.0538866383171786e-05,-0.0002679364635295464,0.00021473727438058593,-0.0016014784125531908,0.2689092457294464,-23.66513442993164,19.628707885742188,17.84735870361328,0.8705545663833618,2.3668715953826904,-0.06037749722599983,0,0,0,0.000,0,0
1739400589.2636003,-0.7085504433029236,0.6812998594011426,1.4224015164763009,-1.8788110287808069,-0.7152447935763019,1.9456505031205042,0.18950353869887662,-7.338142038904158e-05,0.0004689228805869085,0.000514756399848462,-0.0012669747001690043,-0.0007462687174308792,-0.00017746108863604703,-0.0005907221355343848,0.2411382496356964,-23.74051284790039,19.604904174804688,17.84735870361328,0.8705545663833618,2.3732802867889404,-0.06678618490695953,0,0,0,0.000,0,0
1739400589.274593,-0.7085501030152963,0.6812965911235216,1.4223977247724968,-1.8788075428616506,-0.7152435186582485,1.9456523716513778,0.18950516226218653,0.0002869003369672909,4.2269793892161074e-05,-0.000830313686971273,0.0019553884791976167,0.0008417939214968076,0.0003975930014636299,-0.0014913576314354048,0.2411382496356964,-23.66513442993164,19.656478881835938,17.79975128173828,0.8641458749771118,2.3604629039764404,-0.08051909506320953,0,0,0,0.000,0,0
1739400589.2846308,-0.7085503373351424,0.6812990189000422,1.4224015434148285,-1.8788110287441746,-0.7152388932170062,1.9456516139932931,0.1895104285087444,-4.9577629262350157e-05,0.0009679970400800099,0.0006755665445406212,-0.0005228340074344755,0.0011349434042127932,0.0002960759232385425,0.0009191379872614989,0.2411382496356964,-23.68893814086914,19.604904174804688,17.84735870361328,0.8568216562271118,2.3668715953826904,-0.10706938803195953,0,0,0,0.000,0,0
1739400589.2946544,-0.7085523352799636,0.6812926861732495,1.422397659121444,-1.8788110287428288,-0.7152408635974276,1.9456500986731364,0.1895040956072254,-0.00013529514993654274,-0.0004877395026895251,-0.00037299197942408354,-0.00042957339267738935,0.0006131332022157516,-0.00036460176917212924,-0.0011365862825469801,0.2689092457294464,-23.63736343383789,19.628707885742188,17.84735870361328,0.8769632577896118,2.3796889781951904,-0.08051909506320953,0,0,0,0.000,0,0
1739400589.3056238,-0.7085540468377179,0.681294418830416,1.4224016228396408,-1.8788110391599389,-0.7152436383316495,1.9456520184406618,0.18950811540780496,-0.000256956457972443,-0.0005053185084538454,-9.23099323725906e-05,-4.823407839315582e-05,-0.0011321267178349467,-0.0003756594872947426,-0.00019565798123453792,0.2927129566669464,-23.66513442993164,19.604904174804688,17.84735870361328,0.8641458749771118,2.3604629039764404,-0.11347807943820953,0,0,0,0.000,0,0
1739400589.3156843,-0.7085523092795674,0.6812961577312887,1.4223996135664498,-1.878808998817089,-0.7152457923401399,1.9456508563272334,0.18950247575140175,-0.0009462224229123858,-0.0006353148244117099,0.0006094449853203713,-0.0008770639093719863,-0.0010389746451141602,-0.0001993241879219758,-0.001476144615449496,0.2689092457294464,-23.68893814086914,19.628707885742188,17.82355499267578,0.8833719491958618,2.3732802867889404,-0.06678618490695953,0,0,0,0.000,0,0
1739400589.3266566,-0.7085503113385839,0.681292421215263,1.422401569905106,-1.8788091595781742,-0.7152415747287543,1.9456516139932931,0.189504877504138,0.00026835231309560675,4.9002959883888224e-05,0.0010369482793192491,0.0008488944852705037,-0.001020190453088794,-0.0001589181129179253,-0.0004146359406093181,0.2411382496356964,-23.63736343383789,19.604904174804688,17.82355499267578,0.8705545663833618,2.3668715953826904,-0.07411040365695953,0,0,0,0.000,0,0
