IITGN-Robotics/Franka_IITGN_ROBOTICS/franka_ros/franka_iitgn/data/b_03.csv
time,fr3_joint1_pos,fr3_joint2_pos,fr3_joint3_pos,fr3_joint4_pos,fr3_joint5_pos,fr3_joint6_pos,fr3_joint7_pos,fr3_joint1_vel,fr3_joint2_vel,fr3_joint3_vel,fr3_joint4_vel,fr3_joint5_vel,fr3_joint6_vel,fr3_joint7_vel,fr3_joint1_eff,fr3_joint2_eff,fr3_joint3_eff,fr3_joint4_eff,fr3_joint5_eff,fr3_joint6_eff,fr3_joint7_eff,flexpin1,flexpin2,flexpin3,Force,ContactMic,ContactMic_gt
1739400616.8422363,-0.7084092861060081,0.6804363670010041,1.4222251453539971,-1.8788734344705895,-0.7145151895372311,1.9460342334084102,0.18910289162008562,0.0005436357372439602,2.8199515786844705e-05,-0.0006052284766690819,0.0002086975328595142,0.0011761982052053612,-5.069186454130349e-05,0.0014086559985103226,0.2927129566669464,-23.71670913696289,19.656478881835938,17.79975128173828,0.9556986093521118,2.3732802867889404,-0.13361968100070953,,,,,,,,,
1739400616.8542097,-0.7084078822292929,0.6804338285128249,1.4222251453580348,-1.8788770047157877,-0.7145179739921691,1.9460334713876812,0.1890982506111278,-0.00013575130526588032,-0.001154646177750795,-0.0005891258601678489,-0.0005829180818688438,0.0006245324789549439,-0.0005624143151815746,-0.0008377277474482555,0.2927129566669464,-23.66513442993164,19.656478881835938,17.87512969970703,0.9685159921646118,2.3796889781951904,-0.09425200521945953,,,,,,,,,
1739400616.8642106,-0.708406511291647,0.6804384778650926,1.4222268620698102,-1.878873252787505,-0.7145170568019888,1.9460310414119963,0.189102155924508,0.0010466306034111565,0.000536701648710047,0.0002236466986533557,0.00021055996810982562,0.0004595745032383824,-0.0003474881262984607,0.0013258733792752548,0.2411382496356964,-23.71670913696289,19.604904174804688,17.82355499267578,0.9685159921646118,2.3732802867889404,-0.12721098959445953,,,,,,,,,
1739400616.8742356,-0.7084045880047329,0.6804523405676005,1.4222251256353462,-1.8788760106816882,-0.7145259620479903,1.946027786883101,0.18910176683113197,0.0009661829823951247,0.002214763183840589,0.00012051547221709211,-0.0010906613893408566,-0.0016403395024777942,-6.5491899876335e-05,0.0016163395108197702,0.1697271168231964,-23.58578872680664,19.450180053710938,17.82355499267578,0.8769632577896118,2.3476455211639404,-0.11347807943820953,,,,,,,,,
1739400616.8842456,-0.7084072409542292,0.6804720616307154,1.4222059004146952,-1.8788742262679858,-0.7145301655728757,1.9460190289014963,0.18910248941261926,-0.0005182026472333807,0.0010407429819351327,-0.0023473501489270506,-0.00042790030979174845,-0.0015063912268488155,-0.0016686865640446666,-0.00034512458072336126,0.1935308277606964,-23.53818130493164,19.501754760742188,17.79975128173828,0.8641458749771118,2.3540542125701904,-0.08051909506320953,,,,,,,,,
1739400616.8948736,-0.7084077474695123,0.6804937796787704,1.4221903384577048,-1.878878037855118,-0.7145389228648481,1.9460116795411884,0.1891098215342275,1.9049038382282094e-05,0.0017684047064550398,-0.0022208439954987443,-0.00022936327443336135,-0.0015618042571121185,-0.0006132333692119305,-0.00031606641691127866,0.1697271168231964,-23.61355972290039,19.501754760742188,17.87512969970703,0.8705545663833618,2.3668715953826904,-0.10706938803195953,,,,,,,,,
1739400616.905305,-0.7084135395282648,0.6805014936110592,1.42217193489081,-1.878882366900463,-0.7145384829559231,1.9460053953468857,0.1891141043319766,-0.0005218577063043879,0.001229947193261201,-0.0028511062975520455,0.00023171837260096073,-0.0003202741283151565,-0.000705016147515653,0.0015654451611000822,0.2411382496356964,-23.58578872680664,19.604904174804688,17.87512969970703,0.8568216562271118,2.3796889781951904,-0.09425200521945953,,,,,,,,,
1739400616.9161947,-0.7084097068242062,0.6805169403224409,1.4221609052447692,-1.8788880567656177,-0.7145436290941644,1.946005623181909,0.18911178927728212,-0.00046994356362156924,0.001972525146624238,-0.0004894089432248207,-0.0008768648319508866,-0.001431155593570187,0.00032046000359468,0.0009444734355184164,0.1935308277606964,-23.61355972290039,19.577133178710938,17.89893341064453,0.8641458749771118,2.3732802867889404,-0.04756011441349983,,,,,,,,,
1739400616.9262497,-0.7084143333474919,0.6805254415323809,1.422150214767286,-1.8788813622396505,-0.7145425287807902,1.9460016146840788,0.18911504718754807,0.0004336053000771312,0.0010140403939672997,-0.0004249353254565402,0.0004963392469746871,0.00030245249455329213,-0.001291554434527203,-0.0003318328348213017,0.2173345386981964,-23.63736343383789,19.604904174804688,17.84735870361328,0.8641458749771118,2.3668715953826904,-0.07411040365695953,,,,,,,,,
1739400616.9371908,-0.70841987337724,0.6805403973548271,1.4221410196136572,-1.8788726900685488,-0.7145430561441423,1.9460055114581984,0.189124834439242,-0.0018740059418878218,0.0013736189443881524,1.1869913948517471e-05,0.0004947678106585596,0.0005026207172402165,0.0004920797325657266,0.002645977729339638,0.2927129566669464,-23.71670913696289,19.604904174804688,17.77594757080078,0.8641458749771118,2.3604629039764404,-0.12080229818820953,,,,,,,,,
1739400616.9472697,-0.7084223009430167,0.6805509555333036,1.4221258017486937,-1.878878793582579,-0.7145427416179614,1.9459999801452477,0.18912610994435203,-0.0013032922219861636,0.0005010963358213427,-0.0014847318415349936,-0.0017096449230935412,0.0005453955905714522,-0.0007443577559643375,0.002559584398097084,0.3165166676044464,-23.74051284790039,19.731857299804688,17.84735870361328,0.8568216562271118,2.3796889781951904,-0.12721098959445953,,,,,,,,,
1739400616.958283,-0.7084245142963256,0.6805589930109293,1.4221115430424807,-1.8788794569440233,-0.714544111912227,1.9459999779379809,0.18911746419910483,0.0013198793428399068,0.0005359851467219465,-0.002531968839156958,0.000611677717337699,0.0004994787274479881,-0.0008142620845724412,-0.0011008430664804407,0.3165166676044464,-23.79208755493164,19.783432006835938,17.82355499267578,0.8641458749771118,2.3796889781951904,-0.05396880581974983,,,,,,,,,
1739400616.9702,-0.7084269841440876,0.6805665165094942,1.422103149089493,-1.8788812796559338,-0.7145463059008283,1.9460007355980469,0.18912536545698122,0.0009782330161777256,0.0004193479030877169,-0.0004741742290131582,-0.0001530995249473348,-0.0006338558110785329,0.00021994635524016047,0.000594850101811337,0.3442876636981964,-23.76828384399414,19.755661010742188,17.84735870361328,0.8705545663833618,2.3732802867889404,-0.12080229818820953,,,,,,,,,
1739400616.9813125,-0.7084276729118344,0.6805737387279328,1.4220962568051905,-1.8788834145409534,-0.7145475438651481,1.9460007355980469,0.1891215181562809,0.00046383831331835986,0.0012835940148329087,-0.0017859476534442772,-0.00011370623462541888,-0.001151810963710955,0.0008082202511836707,6.921825744532657e-06,0.3165166676044464,-23.81985855102539,19.755661010742188,17.87512969970703,0.8568216562271118,2.3732802867889404,-0.08692778646945953,,,,,,,,,
1739400616.9932573,-0.70842958434347,0.68057217233676,1.422095615440951,-1.8788795793832926,-0.7145461144733826,1.9459990727948793,0.18912560843045936,-0.00027286362398007945,-0.00024033392299448137,-0.0009049577273587631,0.0007479529288438457,0.000232268784508801,-0.00017195462068127275,0.0006490957186191387,0.3442876636981964,-23.76828384399414,19.731857299804688,17.82355499267578,0.8769632577896118,2.3870131969451904,-0.11347807943820953,,,,,,,,,
1739400617.0042377,-0.708427795688252,0.6805683837343299,1.422098788989437,-1.8788813500138404,-0.7145500989036196,1.945998915020167,0.18912223160809202,0.0010433188288923089,-0.0008595049988097608,-0.0008347340887863634,0.0002996166824939607,-0.0005951906042428235,-0.0012524801401385009,-0.0010647977019680786,0.3165166676044464,-23.74051284790039,19.680282592773438,17.84735870361328,0.8769632577896118,2.3604629039764404,-0.09425200521945953,,,,,,,,,
1739400617.015194,-0.7084261957898853,0.68056747938833,1.4221044596859058,-1.878879304662325,-0.7145488243697469,1.946001493018562,0.18911984682022648,-0.00035658077858296243,-0.0009075721928401011,0.0014156027735682686,0.000183538940489928,-0.002011770307229239,-0.0007383792994795542,-0.0016863167937914007,0.2927129566669464,-23.68893814086914,19.604904174804688,17.82355499267578,0.8641458749771118,2.3668715953826904,-0.07411040365695953,,,,,,,,,
1739400617.0252645,-0.7084236306303461,0.680561833963425,1.4221065908690649,-1.8788831947599671,-0.7145497033635586,1.9460007355980429,0.18912487283147641,-0.00025233176230684244,-0.0003840460873013249,0.0007814678055491596,-0.00038034723446863955,-0.0024798104630637807,-0.00023126981410232693,-6.77809068387582e-05,0.2927129566669464,-23.61355972290039,19.577133178710938,17.87512969970703,0.8705545663833618,2.3732802867889404,-0.11347807943820953,,,,,,,,,
1739400617.0363011,-0.70841594024556,0.6805599920210849,1.422110385497299,-1.878884975967753,-0.714546925025529,1.945998012365686,0.18912977522132693,0.0006674316831940457,-4.494464300531728e-05,-0.00044453374136143925,-9.938073939421945e-05,-0.00025576500591485213,-0.0002687539234516341,0.0017405624470627334,0.1935308277606964,-23.58578872680664,19.529525756835938,17.89893341064453,0.8833719491958618,2.3604629039764404,-0.12080229818820953,,,,,,,,,
1739400617.0472765,-0.7084196482852908,0.6805579627112897,1.422115255701379,-1.878883437566264,-0.7145496113963369,1.9460011912720985,0.18912926947494077,0.0009260540407537514,-3.7021797388361215e-05,-0.0002549464000640143,-0.0008121467363958879,-0.0004683525685624711,-0.000861268075202308,0.0018134690935604023,0.2411382496356964,-23.58578872680664,19.501754760742188,17.87512969970703,0.8833719491958618,2.3604629039764404,-0.11347807943820953,,,,,,,,,
1739400617.0572908,-0.7084224072307883,0.680557024022754,1.4221152588316255,-1.878874555161641,-0.7145489906961285,1.9460000803534503,0.18912770585771826,-0.0014125894517878208,-0.0014355937794479977,-0.0007817582839926833,0.0027692893949990195,-0.0004323974292649546,-0.0004912139766416445,0.001516629244583283,0.2411382496356964,-23.58578872680664,19.501754760742188,17.79975128173828,0.8769632577896118,2.3668715953826904,-0.12721098959445953,,,,,,,,,
1739400617.069217,-0.7084241453118331,0.6805599650559591,1.4221100237690263,-1.8788784710469764,-0.7145489259163157,1.9460022488159723,0.18912131704885143,-0.0007674691144593429,-4.262112730532856e-06,-0.001906779144373645,-0.00023921414853311627,0.0003341953515386999,-2.2612241332159795e-05,-0.001985273054296095,0.2689092457294464,-23.58578872680664,19.604904174804688,17.82355499267578,0.8641458749771118,2.3604629039764404,-0.04756011441349983,,,,,,,,,
1739400617.080263,-0.7084244051605926,0.6805656887645657,1.4221124862712335,-1.878881239960057,-0.7145453538708362,1.9460029688479044,0.18912425490643575,-0.0013315003674446745,3.910194723541049e-05,0.00019604880129797713,-0.0001022059622187602,0.000758815353103031,0.0005799951162606513,-0.001132937871582302,0.2689092457294464,-23.66513442993164,19.577133178710938,17.84735870361328,0.8705545663833618,2.3540542125701904,-0.10706938803195953,,,,,,,,,
1739400617.0922263,-0.7084240898064285,0.6805615704192979,1.422111475635938,-1.878882333933792,-0.7145496972906574,1.9460022509179793,0.18912462861076187,-0.00042341348427537466,-0.00015079241104115897,0.00034042828113124484,-0.0010280032609983917,-0.0009758935524996586,-0.0007427235087708365,0.00033324386137629754,0.2927129566669464,-23.63736343383789,19.553329467773438,17.87512969970703,0.8705545663833618,2.3604629039764404,-0.07411040365695953,,,,,,,,,
1739400617.1023083,-0.7084251003054516,0.6805650729015381,1.4221018884275256,-1.8788792483678078,-0.7145478728218948,1.9459996236321084,0.18913090622779205,-0.0003535523932180622,0.00021423783077574343,-0.0019556789084530157,0.0012205687795843164,0.0006247329363322999,-0.0019314578798051937,0.0024947491333394385,0.3165166676044464,-23.68893814086914,19.680282592773438,17.82355499267578,0.8641458749771118,2.3732802867889404,-0.12721098959445953,,,,,,,,,
1739400617.1132984,-0.7084261957900971,0.6805711984810596,1.4221022934709653,-1.8788802863970662,-0.7145484210140408,1.9459975435828751,0.18912852517241066,0.00021383932310991175,0.0009695720423870509,-0.000765990182876451,0.00022469538815732634,-9.018561523131837e-05,-0.0005334244569266807,0.0008791440055801768,0.2927129566669464,-23.74051284790039,19.680282592773438,17.84735870361328,0.8504129648208618,2.3732802867889404,-0.10706938803195953,,,,,,,,,
1739400617.1252587,-0.7084279082280568,0.6805712014109351,1.4220995575756772,-1.8788788374587677,-0.7145504610277594,1.946000613009303,0.18913090638980248,-0.0014401767063907805,-0.0001731496608430092,4.917134647564915e-06,0.0005814786937147559,-0.0007005006548334912,0.0006075593579064254,0.002530946751116394,0.3165166676044464,-23.74051284790039,19.680282592773438,17.82355499267578,0.8769632577896118,2.3732802867889404,-0.12721098959445953,,,,,,,,,
1739400617.13623,-0.7084242493134996,0.6805712014109405,1.4220971200047228,-1.8788783117989283,-0.7145512186857701,1.946003008093073,0.1891268742496458,0.0008717283998391216,0.00010856417293014577,-5.77175912825946e-05,0.0006778416159793871,0.00014995969941815606,0.0020257680866065486,0.00039512017636441786,0.2689092457294464,-23.74051284790039,19.704086303710938,17.84735870361328,0.8833719491958618,2.3540542125701904,-0.09425200521945953,,,,,,,,,
1739400617.146306,-0.7084240118044086,0.6805733471781524,1.4220970066241065,-1.8788855603277506,-0.7145512191702867,1.945999270419396,0.1891237627368698,-0.0002681210878654741,0.0005614992552999326,-1.980195079819729e-05,-0.0008113884554898634,-0.00030398699845209597,-0.0009113310992221176,-0.0008877608422080695,0.2927129566669464,-23.74051284790039,19.704086303710938,17.87512969970703,0.8833719491958618,2.3732802867889404,-0.06678618490695953,,,,,,,,,
1739400617.157265,-0.7084244832799337,0.6805694889265481,1.422096630136389,-1.8788834459739785,-0.7145497033656216,1.945997517412989,0.18913106435437546,-0.00034696319371881583,-0.0017341967659630477,-0.0004982745255845838,-0.0008728574987793077,0.0005336283156249036,0.0012079283007817043,0.0015863952717631502,0.2689092457294464,-23.71670913696289,19.680282592773438,17.87512969970703,0.8705545663833618,2.3732802867889404,-0.12721098959445953,,,,,,,,,
1739400617.1691937,-0.7084245912430261,0.6805698780785867,1.4220986790446355,-1.878887008348711,-0.7145507629492346,1.945995379688517,0.18912189310171673,-0.0008990535191154987,0.00014578382365050796,-0.0008842926858110799,-0.0002289562434079573,0.0008136517044872713,-0.0013173420101008318,-0.002720391773162093,0.2689092457294464,-23.68893814086914,19.680282592773438,17.92273712158203,0.8705545663833618,2.3796889781951904,-0.05396880581974983,,,,,,,,,
1739400617.180252,-0.7084224844136997,0.6805696378565451,1.422102651306447,-1.8788806225482877,-0.7145495885229559,1.9460000263846287,0.18912376712353995,0.00015922734379638677,0.0006978904980214219,0.00048476462405836883,0.0006431034410109844,0.0008027839785507988,-0.0005999235103576633,-0.000323326811699147,0.2411382496356964,-23.68893814086914,19.628707885742188,17.84735870361328,0.8705545663833618,2.3668715953826904,-0.06678618490695953,,,,,,,,,
1739400617.1902628,-0.7084224853760621,0.6805660968045871,1.4221065135922475,-1.878881362219488,-0.7145554577221559,1.946001334651362,0.1891285266350731,0.00027126662135842797,3.6175028111488396e-06,0.0003218114244982588,-0.0008861711245838373,-0.0012440058044505872,-0.00019602287348202685,-0.0008664347325740675,0.2411382496356964,-23.66513442993164,19.577133178710938,17.84735870361328,0.8833719491958618,2.3668715953826904,-0.10706938803195953,,,,,,,,,
1739400617.2002914,-0.708424483209923,0.6805638079652634,1.4221083082489385,-1.8788759855899675,-0.7145512187575584,1.9460022333114089,0.18912932248617478,-0.00019840046255721884,-0.0003802554198464274,0.000684739720011764,0.0003834475187737655,-4.6189962948916516e-05,0.0030085436526544594,0.0008797666651131381,0.2689092457294464,-23.63736343383789,19.553329467773438,17.77594757080078,0.8833719491958618,2.3604629039764404,-0.11347807943820953,,,,,,,,,
1739400617.2103062,-0.708422377286133,0.6805674909507524,1.422111281244306,-1.8788783952354482,-0.7145504610256953,1.9459981946672054,0.18912670819262953,-0.00010337394115948452,0.0005785161753129257,0.0005353504816449706,0.0002879896626967272,-6.889728059750606e-05,0.00011610091095816077,0.00043821643179378113,0.2689092457294464,-23.68893814086914,19.553329467773438,17.84735870361328,0.8769632577896118,2.3668715953826904,-0.09425200521945953,,,,,,,,,
1739400617.2212791,-0.7084261958218002,0.6805657784286252,1.422113089552799,-1.8788799147697468,-0.7145513822744615,1.9460013173543933,0.1891270098516891,-0.0002790692432143638,0.0008630411437937849,0.0016362632403187115,0.0003062462560020409,-0.0005666370329314716,0.0005936129991153742,0.00014146581763218338,0.2927129566669464,-23.66513442993164,19.529525756835938,17.79975128173828,0.8568216562271118,2.3668715953826904,-0.09425200521945953,,,,,,,,,
1739400617.2321932,-0.7084254925434216,0.6805637805967882,1.4221047402641167,-1.8788765850997382,-0.7145504521595084,1.946001007286833,0.1891230050779973,-2.895885197389122e-06,0.00048064793741818085,-0.0006632577118888158,0.0005447009607641791,0.000912806170602734,0.00026631095339654803,-0.0024354652478298655,0.2927129566669464,-23.63736343383789,19.604904174804688,17.82355499267578,0.8769632577896118,2.3668715953826904,-0.06037749722599983,,,,,,,,,
1739400617.2423174,-0.7084244910148829,0.6805637515984627,1.422106550876959,-1.8788783906640338,-0.7145497053035302,1.9460011455657642,0.18913016189343856,0.00032223674897826965,-3.4932198482505114e-05,0.0006293284024550226,0.0001444562086788824,0.0015855521987941234,0.001116090708411066,-0.00018657456606216026,0.2689092457294464,-23.63736343383789,19.577133178710938,17.84735870361328,0.8705545663833618,2.3604629039764404,-0.12080229818820953,,,,,,,,,
1739400617.2532616,-0.708424483316964,0.6805716350933233,1.4221046736208955,-1.8788745703696854,-0.714550461671725,1.9460004155251307,0.18913370439532554,0.0007750875901360877,0.0018340811939252884,-0.0009056334084887833,0.00027730176943310445,0.0003660644518460029,0.00018349620618053608,0.001770212339565588,0.2689092457294464,-23.71670913696289,19.604904174804688,17.79975128173828,0.8769632577896118,2.3668715953826904,-0.12080229818820953,,,,,,,,,
1739400617.2632623,-0.7084244804279894,0.6805696392683639,1.4221044369679205,-1.8788806097952646,-0.7145532354927221,1.9459972525877833,0.1891316647601563,0.0008418748761857852,5.2592427332891486e-05,8.272125362830961e-05,-0.0009292372429519581,-0.00026725686248046417,-0.0022860288546592326,0.0013788521829300223,0.2689092457294464,-23.68893814086914,19.604904174804688,17.84735870361328,0.8705545663833618,2.3668715953826904,-0.13361968100070953,,,,,,,,,
1739400617.274332,-0.7084283813412772,0.680571443112135,1.4220985507069566,-1.8788801041680065,-0.7145522790436959,1.946002198566456,0.1891248114017821,-0.001492099963187903,0.0011542982121907556,-0.0006848725506357846,0.0008143583241349531,-0.0007002107617493725,0.00015169548296912647,-0.00012764001117925613,0.2927129566669464,-23.74051284790039,19.680282592773438,17.87512969970703,0.8833719491958618,2.3604629039764404,-0.04756011441349983,,,,,,,,,
1739400617.285251,-0.7084279084077318,0.6805731996802068,1.42209868302039,-1.8788819706033768,-0.7145497208142021,1.9459998209542462,0.18912411969348186,-0.0009894719517461355,0.000403664559880219,-3.122272703730549e-05,0.000755956598248375,0.000929982842563478,0.0008621744898059247,-0.0007746736079437232,0.3165166676044464,-23.76828384399414,19.680282592773438,17.89893341064453,0.8705545663833618,2.3796889781951904,-0.06678618490695953,,,,,,,,,
1739400617.2962291,-0.7084215493623869,0.6805716699786941,1.42209397280742,-1.8788802816360413,-0.7145506186552392,1.945997504139623,0.1891285710036564,0.001245351683000015,-0.0003357390129110548,-0.0009051752626889162,0.0005981235735247379,0.000797507422996033,0.001244290235764524,0.0008429961642883747,0.2411382496356964,-23.71670913696289,19.731857299804688,17.84735870361328,0.8769632577896118,2.3732802867889404,-0.10706938803195953,,,,,,,,,
1739400617.306245,-0.708420764065694,0.6805696080819277,1.4220974682803018,-1.8788834379252786,-0.7145512319318973,1.945998156659563,0.1891307887726238,0.0015813030570199966,-0.0005302310349617826,-0.00039153134010088417,4.348612970260423e-05,0.000784189651876297,0.0025458622008201785,0.0009518018138443131,0.2173345386981964,-23.71670913696289,19.656478881835938,17.87512969970703,0.8833719491958618,2.3668715953826904,-0.12721098959445953,,,,,,,,,
1739400617.3162637,-0.7084224767091253,0.6805712142768787,1.4220965636929204,-1.87888344201345,-0.7145528522282377,1.9459983949652448,0.18912929599421432,0.0006705625192165957,-0.000590585944711039,-0.0012327566162783305,-0.0009235860090287804,-0.0010820509693661455,0.0005822616698587401,8.965212934706264e-06,0.2411382496356964,-23.74051284790039,19.680282592773438,17.87512969970703,0.8961893320083618,2.3796889781951904,-0.11347807943820953,,,,,,,,,
1739400617.327249,-0.7084261957306054,0.6805678219591588,1.4221022868961177,-1.87888137955725,-0.7145507933654409,1.9459996234078318,0.18912934734229303,-0.00044907690858530364,-6.603219898239181e-05,0.0017388367965477378,-0.0006644280469919812,0.0001422867072038972,0.0006686669161292095,0.000270670010736697,0.2927129566669464,-23.68893814086914,19.604904174804688,17.84735870361328,0.8705545663833618,2.3732802867889404,-0.08692778646945953,,,,,,,,,
1739400617.3372893,-0.7084299062992343,0.6805678353373541,1.4220998521188317,-1.8788834420138127,-0.7145521789042582,1.9459967641943172,0.1891285403405574,-0.00103531776938857,-0.00010599135571195766,0.000579702297650882,-0.00031896157907268063,-0.0003508959515415619,0.0002551667606048844,-0.000857886802532107,0.3442876636981964,-23.68893814086914,19.656478881835938,17.87512969970703,0.8641458749771118,2.3668715953826904,-0.10706938803195953,,,,,,,,,
1739400617.3482263,-0.7084264271156652,0.6805694977588099,1.4221022873406828,-1.8788831947646223,-0.7145515763312172,1.9459978546557062,0.18912928283257738,-0.0008289162117462096,-0.0009642274644250628,0.0006235576329272746,-0.00016305542160552767,0.0008666945844266739,-1.9046309610957417e-05,0.0005349268039519395,0.2927129566669464,-23.71670913696289,19.604904174804688,17.87512969970703,0.8833719491958618,2.3604629039764404,-0.11347807943820953,,,,,,,,,
1739400617.3582687,-0.7084286368713469,0.6805658049200289,1.422101961531405,-1.878882999437905,-0.7145522846407875,1.9460002057978871,0.18912467007619083,-0.0012646585520615875,-0.0009966340944990546,-0.0005573405142725396,-0.0008078385859654529,-0.0012073511749940832,0.00026602673506406804,9.011880845059426e-05,0.3165166676044464,-23.66513442993164,19.604904174804688,17.89893341064453,0.8833719491958618,2.3732802867889404,-0.07411040365695953,,,,,,,,,
1739400617.3691897,-0.7084245642628707,0.6805640169986164,1.4221067434907928,-1.8788773512499302,-0.7145512230484266,1.9459970268725695,0.18913132319599738,-0.0002790267028728567,-0.0005998556329956224,0.0008095648227101633,0.00012871359651937185,-8.781763784402796e-05,-0.0005687427709960402,0.0006372319794462427,0.2689092457294464,-23.63736343383789,19.577133178710938,17.82355499267578,0.8833719491958618,2.3732802867889404,-0.10066069662570953,,,,,,,,,
1739400617.3792436,-0.7084244833182913,0.6805616744609954,1.4221006481958753,-1.8788747062772055,-0.7145526838644919,1.9459967292651388,0.18913157648415155,-0.00014363132144758244,-0.002299507774760148,-0.001347115717190135,0.0002497801410606753,-0.00047699445541334897,-0.0005238030949226107,0.0024874625735547377,0.2689092457294464,-23.63736343383789,19.656478881835938,17.79975128173828,0.8833719491958618,2.3668715953826904,-0.12080229818820953,,,,,,,,,
1739400617.3902023,-0.7084284622858729,0.6805610238848898,1.422102288363526,-1.8788785527387122,-0.714551875354894,1.9459959672265386,0.18913260060024856,-0.0014778187754866758,-0.001646360532812826,-0.001503210781052218,0.00032689165722026817,-0.0002602630543259755,-0.001124560635468231,0.0010671439464504527,0.2927129566669464,-23.58578872680664,19.604904174804688,17.82355499267578,0.8769632577896118,2.3732802867889404,-0.11347807943820953,,,,,,,,,
1739400617.400316,-0.708424483045734,0.6805638727209197,1.422102727824375,-1.8788765013090405,-0.7145542970768914,1.9459974841616772,0.1891307826933639,0.00020245905803096135,-4.2766622457299344e-05,0.0005470013913483982,0.0010701319032605104,-0.0019036164818094375,-0.0015445110231919448,0.0015593722532637455,0.2689092457294464,-23.63736343383789,19.628707885742188,17.82355499267578,0.8705545663833618,2.3604629039764404,-0.08692778646945953,,,,,,,,,
1739400617.4112155,-0.708424483316919,0.6805658579020055,1.4221074411259713,-1.8788763560985575,-0.7145504805937989,1.9459975224385093,0.18912796547305694,0.0009560832921003417,-0.00012981649628593806,0.00094000594130341,0.0012613546791997543,0.001182157732726047,0.00038152287920257335,-0.0001459875168075052,0.2689092457294464,-23.66513442993164,19.577133178710938,17.82355499267578,0.8769632577896118,2.3604629039764404,-0.07411040365695953,,,,,,,,,
1739400617.4213762,-0.7084207728553363,0.6805657787570198,1.4221026553523342,-1.878883437888989,-0.714554521313766,1.9459991519557291,0.1891316837707046,0.0024440124134213143,-3.430269712814392e-06,-0.00028693752754145255,-0.00026489477069407036,0.0019269189073841163,-0.0012178352608365767,0.0013533562530171676,0.2173345386981964,-23.66513442993164,19.628707885742188,17.87512969970703,0.8833719491958618,2.3732802867889404,-0.13361968100070953,,,,,,,,,
1739400617.432235,-0.7084200414513803,0.6805694889992274,1.4221044076385105,-1.8788852246905148,-0.71455004476967,1.9459985552846808,0.1891310235003268,0.0016623787650486563,0.0002871809167128668,0.0002931287843474248,-0.001404586993888922,0.00032397319418925406,0.0003415504390713222,-0.0008227444762860473,0.2411382496356964,-23.71670913696289,19.604904174804688,17.89893341064453,0.8641458749771118,2.3604629039764404,-0.10066069662570953,,,,,,,,,
1739400617.4431975,-0.708422485227682,0.680570678694064,1.422098472353404,-1.878879136983592,-0.7145516898161681,1.9459990131531972,0.18912808504152376,0.0006356859108826038,9.34565872334178e-05,-0.0008999009756272976,0.0011022038174048061,-0.0012826149620706268,-0.00047660984810084684,-0.0009038710497264839,0.2411382496356964,-23.68893814086914,19.680282592773438,17.84735870361328,0.8833719491958618,2.3604629039764404,-0.06678618490695953,,,,,,,,,
1739400617.4532585,-0.7084261958376509,0.6805753480804397,1.422098785059175,-1.8788795713578625,-0.7145541003577671,1.9459987612443,0.18913180802347482,-0.0003580705784182583,0.0009196750288140631,-0.0006644132339768146,0.002115228059874228,-0.0007253588088640388,9.018416333460462e-05,0.0010260296720937569,0.2927129566669464,-23.76828384399414,19.680282592773438,17.82355499267578,0.8705545663833618,2.3796889781951904,-0.09425200521945953,,,,,,,,,
1739400617.4641886,-0.7084205388519161,0.6805686788549157,1.4220998564068077,-1.8788813622236171,-0.7145545720510087,1.9459943480498538,0.18913037979023287,0.001036850772768194,0.0002884537864651401,-3.0029157546967544e-05,0.0007690098511447603,-0.00141849843197923,-0.0011342934231950218,-0.0008632105574591389,0.2173345386981964,-23.66513442993164,19.656478881835938,17.84735870361328,0.8833719491958618,2.3870131969451904,-0.09425200521945953,,,,,,,,,
1739400617.4752328,-0.7084261948707118,0.6805702056122771,1.422099776921857,-1.8788813622236633,-0.7145544135712223,1.9459971446022382,0.18912856088735236,-0.00043736663477145525,-0.0009873884451955355,-0.00043477052638781925,0.0004793012583925988,0.0008005213531914598,0.0007973927578096851,-8.064853618978051e-05,0.2927129566669464,-23.71670913696289,19.656478881835938,17.84735870361328,0.8705545663833618,2.3732802867889404,-0.06678618490695953,,,,,,,,,
1739400617.4852462,-0.7084262082735762,0.6805712136248085,1.4220984701084765,-1.878883442013519,-0.714555868834937,1.9459967250546948,0.18912653171941607,-0.0006214179223878886,3.055305005864072e-05,0.0003052925476927235,1.2565782245589544e-05,0.00015001342186015372,-0.00022804512263071875,-0.001963701542379792,0.2927129566669464,-23.74051284790039,19.680282592773438,17.87512969970703,0.8833719491958618,2.3668715953826904,-0.05396880581974983,,,,,,,,,
1739400617.496308,-0.7084261958377219,0.6805706261482897,1.422100544842765,-1.8788790545672929,-0.7145543011327973,1.9459952624325478,0.18913494625066776,0.0006222512812840994,-0.00028209385113256544,0.00015141135438420439,0.0003830118974647523,-0.00024147590351643658,5.806380267166667e-05,0.0030204506207984335,0.2927129566669464,-23.68893814086914,19.656478881835938,17.84735870361328,0.8705545663833618,2.3796889781951904,-0.12080229818820953,,,,,,,,,
1739400617.5072277,-0.7084283813056277,0.6805702159737407,1.4221005687189765,-1.8788777954999518,-0.7145497557193767,1.9459991461411512,0.18912536298739493,-0.00010445626452914002,-0.001179926053360046,0.0007617524703204895,0.0011993515325598998,9.892778285057647e-05,1.8007222611572302e-06,-0.0016092641045045767,0.2927129566669464,-23.71670913696289,19.656478881835938,17.79975128173828,0.8705545663833618,2.3732802867889404,-0.04023589566349983,,,,,,,,,
1739400617.5182548,-0.7084251003296772,0.6805717440048429,1.4221044340930864,-1.878874706729465,-0.7145542965846863,1.9459970781171976,0.18913058374621552,0.00026092800593353546,0.0010504039500088328,0.0006509556765355805,0.001543061392964357,0.0009249287401666326,-0.0014695931665378347,5.787104005890365e-05,0.3165166676044464,-23.71670913696289,19.604904174804688,17.79975128173828,0.8705545663833618,2.3668715953826904,-0.09425200521945953,,,,,,,,,
1739400617.5292568,-0.708420769918851,0.6805645581548354,1.422102404203525,-1.878880261817645,-0.7145530524231667,1.9459985436442828,0.18913331893767973,0.0024691175478319316,-0.0003969792148351181,-0.0003934892935234253,0.00016463298690835805,0.00028343370937879966,-0.0007851206879143112,0.0023283007260965155,0.2173345386981964,-23.61355972290039,19.628707885742188,17.84735870361328,0.8705545663833618,2.3604629039764404,-0.10706938803195953,,,,,,,,,
1739400617.541188,-0.7084233877966034,0.6805677298086863,1.422106743398077,-1.8788783941042917,-0.7145544711782277,1.945998010187357,0.18912844236587276,0.0001491545069968311,0.0006248502612686155,-0.0003322046847283734,-0.001137245129390193,-0.0011630893302912594,0.0013581670269231458,-0.0009266076006463001,0.2927129566669464,-23.68893814086914,19.577133178710938,17.84735870361328,0.8705545663833618,2.3604629039764404,-0.06678618490695953,,,,,,,,,
1739400617.5513263,-0.7084261958218002,0.6805659569989201,1.4221082965976117,-1.8788773266669796,-0.7145504957015284,1.945998253776147,0.18913094207408787,-0.0012457061564483968,-0.0006380100003040895,0.0005912009485354698,0.0013502449310603087,-0.0003835650198665277,0.0013947410760153825,0.0017015450677088924,0.2927129566669464,-23.63736343383789,19.553329467773438,17.82355499267578,0.8641458749771118,2.3540542125701904,-0.08692778646945953,,,,,,,,,
1739400617.5622983,-0.7084255298027595,0.680568665954814,1.4221044340204254,-1.878878064202341,-0.7145491808006109,1.9459967248866195,0.18913256113581936,-0.0007813523218594664,0.0016861638227957626,-0.0014175541069685142,0.0001046834032439428,0.0019229260150983466,-0.0003309058188239327,0.001337276044774309,0.2927129566669464,-23.66513442993164,19.604904174804688,17.84735870361328,0.8568216562271118,2.3668715953826904,-0.10066069662570953,,,,,,,,,
1739400617.5732293,-0.7084207724235867,0.6805657818244296,1.4221045366235758,-1.8788813520301944,-0.71455249430045,1.9459974970821237,0.18913226076909764,0.002143302881995837,0.0003364580540551681,0.000302468978626856,0.0005416543550852065,0.0012144202088411847,0.0008051302034507506,-0.00020702032182610237,0.2173345386981964,-23.66513442993164,19.604904174804688,17.84735870361328,0.8568216562271118,2.3604629039764404,-0.10706938803195953,,,,,,,,,
1739400617.5832314,-0.7084261611704564,0.6805682062052661,1.4221044353943926,-1.8788791064585189,-0.7145525670384948,1.945996766071205,0.1891301844148659,0.00028260806108297305,0.0002488168036710223,-0.00030424357452751556,0.00019895065816981448,-0.001471775881986456,-0.0005924947655598216,0.00017469536579784454,0.2927129566669464,-23.68893814086914,19.604904174804688,17.84735870361328,0.8769632577896118,2.3668715953826904,-0.08051909506320953,,,,,,,,,
1739400617.5942724,-0.7084261959856333,0.6805678091691898,1.4221026514524249,-1.8788834408410509,-0.7145574539753323,1.945996021492418,0.1891322100492635,-0.00048126774347186015,0.00040012188521017445,0.00011937480972987019,0.000318791633413252,-0.002453804109336254,-0.00044404467747429107,0.0007479106859141224,0.2927129566669464,-23.68893814086914,19.628707885742188,17.87512969970703,0.8961893320083618,2.3732802867889404,-0.10066069662570953,,,,,,,,,
1739400617.60431,-0.7084266341533915,0.6805718740625358,1.422101933253246,-1.8788834409960142,-0.7145541697583248,1.9459977845255911,0.18913170703326224,-0.0006672235737371583,0.0006103438064970469,0.0007339427699332885,-0.001312427643575833,0.0005879906206198063,-0.00046128773527574746,9.265923217961769e-06,0.2689092457294464,-23.71670913696289,19.628707885742188,17.87512969970703,0.8769632577896118,2.3668715953826904,-0.06678618490695953,,,,,,,,,
1739400617.6151783,-0.7084223418034478,0.6805712025414963,1.4220980727365016,-1.8788813225417245,-0.7145551760885428,1.9459959672444096,0.18913340257693198,0.0003214606746949731,-0.001000229529411116,-0.0010253432883605444,0.0005097259384972601,0.00016539089692558837,-0.000295480958498143,0.0007982577868642705,0.2689092457294464,-23.74051284790039,19.680282592773438,17.84735870361328,0.8769632577896118,2.3732802867889404,-0.12080229818820953,,,,,,,,,
1739400617.6252313,-0.7084252116748703,0.6805739973508979,1.422097957615355,-1.8788809695238788,-0.7145537180068564,1.9459968954364386,0.1891329678998753,-0.00041212287293278466,0.0004398910293405883,-0.0015101400790421234,0.0011086212795775967,0.00034250894270375105,0.0004303651765847549,-0.0001238722113192836,0.2689092457294464,-23.76828384399414,19.680282592773438,17.87512969970703,0.8641458749771118,2.3668715953826904,-0.10706938803195953,,,,,,,,,
1739400617.6352866,-0.7084224853884024,0.6805707094501641,1.4221002309501347,-1.8788811799890557,-0.7145544717372619,1.9459985465482896,0.18913413944287727,0.0007259887458776692,-0.0003616384971583792,0.0006523097120244305,0.0005775187870393371,-0.0006036699074685918,0.0010837836938197357,0.0007723529383358185,0.2411382496356964,-23.68893814086914,19.628707885742188,17.87512969970703,0.8705545663833618,2.3604629039764404,-0.08692778646945953,,,,,,,,,
1739400617.6462483,-0.708424510298447,0.6805661231925733,1.4220967285940906,-1.8788793308906468,-0.7145561057821249,1.9459967248925492,0.18912942688099266,0.0003389966233512279,-0.0014222775898048048,-8.610513472197631e-05,0.0005117636562423748,0.00023018730430571303,-0.00024376167654108918,-0.001434884147966621,0.2689092457294464,-23.66513442993164,19.704086303710938,17.82355499267578,0.8833719491958618,2.3668715953826904,-0.07411040365695953,,,,,,,,,
1739400617.6562922,-0.7084261958381087,0.6805727073833414,1.4221002150656499,-1.8788780655674946,-0.7145533248575479,1.9459982402066995,0.1891294266462583,0.000699342987882816,0.0004579989574546254,0.0006363615005753903,0.0014971855739179816,-0.0006759368787914419,0.0003960240702871692,-0.0015819208895089356,0.2927129566669464,-23.71670913696289,19.656478881835938,17.84735870361328,0.8568216562271118,2.3540542125701904,-0.07411040365695953,,,,,,,,,
1739400617.6672587,-0.7084244833169205,0.6805668483566787,1.4221016080085944,-1.8788777938109666,-0.7145523640767694,1.9459952095663862,0.18912779880982494,0.0011811825060321654,-0.0009592607252063227,0.0008658414770561808,0.000328689259677753,0.002062843474844449,-0.0005753136155926894,-0.0005851723892642141,0.2689092457294464,-23.66513442993164,19.628707885742188,17.79975128173828,0.8568216562271118,2.3796889781951904,-0.06037749722599983,,,,,,,,,
1739400617.678205,-0.7084261968369675,0.6805706036242317,1.422101688505833,-1.878879570351576,-0.7145559724652817,1.9459974825466213,0.18912760725879535,-0.00012673328142049603,-0.0002064977937724141,-0.00024037576181773384,-0.00012692413309972064,-0.0006178871548001224,-0.00016732648808089612,0.0004358976833520738,0.2927129566669464,-23.68893814086914,19.628707885742188,17.82355499267578,0.8833719491958618,2.3604629039764404,-0.06037749722599983,,,,,,,,,
1739400617.688338,-0.7084262258171763,0.6805707082865948,1.422108303742467,-1.8788788377994867,-0.7145552163145802,1.9459974694646691,0.189130902627828,0.0004695502639134256,0.0022431563370530947,0.001607363605211298,0.0014913924876087223,0.00018666648027684303,6.0806991081614455e-05,0.00030190076383861635,0.2927129566669464,-23.68893814086914,19.553329467773438,17.82355499267578,0.8769632577896118,2.3604629039764404,-0.08692778646945953,,,,,,,,,
1739400617.699225,-0.7084244833541015,0.6805660449918622,1.4221064079555246,-1.8788813495574386,-0.7145559864112558,1.9459982402066256,0.18913388064253792,-0.00022565413305566492,-0.0005141911771590859,0.00026852146618268856,0.0004943384798501156,6.956227206805814e-05,0.00012878094184100135,0.00038548700298721237,0.2689092457294464,-23.63736343383789,19.577133178710938,17.84735870361328,0.8833719491958618,2.3540542125701904,-0.12080229818820953,,,,,,,,,
1739400617.7092586,-0.7084222513726475,0.680568447906944,1.4221065135916502,-1.878880536553217,-0.7145552293972701,1.9459967248865426,0.1891325612923156,0.00045832821416819493,0.0008572477940087025,-0.00046839667288811794,4.9037704036420605e-05,-0.001339286690448896,-0.0004841822006166032,0.000516037417350071,0.2411382496356964,-23.68893814086914,19.577133178710938,17.84735870361328,0.8769632577896118,2.3668715953826904,-0.10066069662570953,,,,,,,,,
1739400617.720237,-0.7084261708352665,0.6805652596417344,1.4221092689784314,-1.8788813610884634,-0.7145520905198063,1.9459959657729142,0.18913256568621467,-2.602603234443232e-05,0.0002046146511313075,0.0008107802353505503,-0.0008416919475388205,0.0007170982954129536,-0.0018309996028559664,0.00040725375361271043,0.2927129566669464,-23.61355972290039,19.577133178710938,17.84735870361328,0.8504129648208618,2.3732802867889404,-0.10066069662570953,,,,,,,,,
1739400617.7302644,-0.7084261952073565,0.6805650477627578,1.4220976845102578,-1.8788793309410814,-0.7145552293972738,1.9459974825465967,0.18913868391853678,-0.0007738504795635663,0.00010981931743194492,-0.0023029181691252287,0.0004181279519940464,-9.248897715015887e-06,-0.0005070489166095922,0.001232025108246427,0.2927129566669464,-23.61355972290039,19.656478881835938,17.82355499267578,0.8769632577896118,2.3604629039764404,-0.11347807943820953,,,,,,,,,
1739400617.7411954,-0.7084254546888805,0.680568882283964,1.4221045109575,-1.878880372887511,-0.7145552162614863,1.945997482546621,0.1891325598616833,-0.0012172138257614993,6.360014439301602e-06,0.00048648624665202894,-0.0010630761680965057,0.0008752505163765783,8.296848864974187e-05,-0.000631260131925572,0.2689092457294464,-23.66513442993164,19.604904174804688,17.84735870361328,0.8769632577896118,2.3604629039764404,-0.10066069662570953,,,,,,,,,
1739400617.751307,-0.7084244833333707,0.6805743404779384,1.4220984258966562,-1.8788813343956476,-0.7145559870571296,1.9459967248865426,0.18913018446875177,-0.00016174423332959275,0.0014984432773897558,-0.002055504617561964,0.0008508179302318957,8.273856872879808e-05,1.3288096908375691e-05,0.002131251444389153,0.2689092457294464,-23.74051284790039,19.656478881835938,17.84735870361328,0.8833719491958618,2.3668715953826904,-0.08051909506320953,,,,,,,,,
1739400617.7622817,-0.7084261698742834,0.6805685607437189,1.422099538503278,-1.8788791369834348,-0.7145559872208764,1.9459959652883976,0.1891317349573112,-0.0003938640879090974,-5.1371776498210274e-05,-0.0009626545653423438,0.0005981036214286443,-0.0011657911646206149,-0.0006630406032040604,0.0013424047610133452,0.2927129566669464,-23.68893814086914,19.656478881835938,17.84735870361328,0.8833719491958618,2.3732802867889404,-0.12080229818820953,,,,,,,,,
1739400617.7723675,-0.7084279083579432,0.6805685623793598,1.4220984710766125,-1.8788791369459072,-0.7145544673765474,1.9459970268645612,0.1891325610814251,-0.0006636330089604212,-0.0008868028024006658,-0.0006947075099090949,-0.0007198232023805259,0.000913536498112274,-0.0002683970002137256,-0.0003568511812309708,0.3165166676044464,-23.68893814086914,19.680282592773438,17.84735870361328,0.8705545663833618,2.3732802867889404,-0.10066069662570953,,,,,,,,,
1739400617.7843285,-0.7084247257226687,0.6805706978506348,1.4220998475747175,-1.8788795795340827,-0.7145547869606984,1.9459956652543953,0.18912856026145372,0.0001702365456856871,-0.0008811149251105783,0.00047327408572615456,0.0004915202416206326,-0.0004579562658392942,-0.000698103309481926,-0.0012377427623642507,0.2689092457294464,-23.68893814086914,19.656478881835938,17.82355499267578,0.8641458749771118,2.3668715953826904,-0.06678618490695953,,,,,,,,,
1739400617.7961936,-0.7084330751794243,0.6805727075410051,1.4221002140393926,-1.878883442013519,-0.7145567447194493,1.945996084477524,0.18913459009293207,-0.0019962978873389456,9.691908749673479e-05,0.00040529071642093814,-0.001367917653579467,0.001724676514908039,0.00026725541386017415,0.001205409166324463,0.3442876636981964,-23.71670913696289,19.656478881835938,17.87512969970703,0.8897806406021118,2.3732802867889404,-0.12080229818820953,,,,,,,,,
1739400617.807202,-0.7084284624147963,0.6805707096001742,1.422096559673517,-1.8788813303424614,-0.7145546306829148,1.9459968273565222,0.1891277635962293,-0.0006500197811404954,-0.0008324640558850383,-0.00021554462989058147,-0.0003059075886803417,-0.00014828296647186653,-0.0005058336717443939,-0.002507456943611014,0.2927129566669464,-23.68893814086914,19.680282592773438,17.84735870361328,0.8705545663833618,2.3540542125701904,-0.06037749722599983,,,,,,,,,
1739400617.8172755,-0.7084228106476476,0.6805726986016932,1.4220981066831366,-1.8788813316989283,-0.7145537140780144,1.9459967248785672,0.18913680573254132,0.0005090810457588981,0.0005047662634323085,-4.2907446060039804e-05,0.00015212155169983953,0.00015368883405949912,-0.000492088568352629,0.001092563965666038,0.2411382496356964,-23.71670913696289,19.656478881835938,17.84735870361328,0.8641458749771118,2.3668715953826904,-0.11347807943820953,,,,,,,,,
1739400617.8282847,-0.7084228361747591,0.6805726015771638,1.4221016859904343,-1.8788824519625897,-0.7145537140771171,1.9459956652484134,0.1891325525379062,9.300306238271545e-05,0.00025090844231250985,-7.393261944676458e-05,-0.001704709031597969,-0.0005188216427209214,3.1441750408691186e-05,0.0009055582749022419,0.2411382496356964,-23.71670913696289,19.628707885742188,17.87512969970703,0.8641458749771118,2.3668715953826904,-0.10066069662570953,,,,,,,,,
1739400617.8382926,-0.7084222513785882,0.68057342279497,1.4221026514360724,-1.878878147971238,-0.7145560003028287,1.9459967248685976,0.18913494690340588,0.0004890063041446971,0.001701384175313216,0.00041988933043737587,0.002149346125749584,2.4627479212608553e-05,0.0003414297963432498,-8.149042188889289e-05,0.2411382496356964,-23.71670913696289,19.628707885742188,17.84735870361328,0.8833719491958618,2.3668715953826904,-0.12080229818820953,,,,,,,,,
1739400617.848331,-0.7084254938234283,0.6805689961104094,1.4221062666704,-1.8788788805228949,-0.7145537140773414,1.9459974831926432,0.18912856172411463,-0.0007277999798796898,-0.00043650325212234067,3.835189485924741e-05,0.00042319796313040057,0.0010198295968572083,0.0005692221746989666,-0.002113867549781577,0.2927129566669464,-23.66513442993164,19.577133178710938,17.84735870361328,0.8641458749771118,2.3604629039764404,-0.06678618490695953,,,,,,,,,
1739400617.8592017,-0.7084262316663942,0.6805652866178533,1.4221080581763414,-1.8788803721965817,-0.71455590224867,1.9459967248865464,0.18913332312963574,-0.0005315478057900237,-0.0006006853346996335,0.001478720433389484,0.0005367547238564324,-0.0005640329004412444,-0.0002430745687955452,0.0003611080724100371,0.2927129566669464,-23.61355972290039,19.553329467773438,17.84735870361328,0.8705545663833618,2.3668715953826904,-0.10706938803195953,,,,,,,,,
1739400617.8702445,-0.7084269606479462,0.6805650481992797,1.422105122890188,-1.8788793292285257,-0.7145529273764795,1.9459967248865429,0.1891332706914565,-0.0010097237421825712,-0.0010078102630721383,-0.00031473408873976765,-7.306854055618339e-05,0.00014786388726786034,0.000226845619366337,0.0011400410969775977,0.2927129566669464,-23.61355972290039,19.604904174804688,17.82355499267578,0.8833719491958618,2.3668715953826904,-0.10706938803195953,,,,,,,,,
1739400617.881206,-0.7084261958761026,0.6805668513117824,1.4221026249627653,-1.8788813709404564,-0.7145559022249677,1.9459982402066995,0.18913024437432727,-0.0005879836019545942,-3.871943062947649e-05,-0.0009610635906153105,-0.0006193882162776708,4.492046787183993e-05,0.00048085244821793264,-0.001119869072802087,0.2927129566669464,-23.66513442993164,19.628707885742188,17.84735870361328,0.8705545663833618,2.3540542125701904,-0.05396880581974983,,,,,,,,,
1739400617.8913429,-0.7084225122505972,0.6805675306494474,1.422104442632262,-1.8788803364857036,-0.7145544717614208,1.9459967248865429,0.18912638747545626,0.00038950509813867005,0.0004653911431224947,-0.0003787184098575617,0.0005012445668699352,0.00025047777629635417,4.5776074423009696e-05,-0.0035005568705728323,0.2411382496356964,-23.68893814086914,19.604904174804688,17.84735870361328,0.8705545663833618,2.3668715953826904,-0.06037749722599983,,,,,,,,,
1739400617.9022377,-0.7084224853762192,0.6805678485592798,1.4221019361967333,-1.8788813711195225,-0.7145552426427505,1.9459974825466213,0.18913284944460676,0.0005094881479611351,0.0002435595792150434,0.0003016128265062294,0.00024402763708487342,0.0008594852496398507,5.014765971999043e-05,0.00036084065096208455,0.2411382496356964,-23.68893814086914,19.628707885742188,17.84735870361328,0.8769632577896118,2.3604629039764404,-0.10706938803195953,,,,,,,,,
1739400617.9122407,-0.7084261958376518,0.6805744954646765,1.422102558447721,-1.8788813581541748,-0.7145544717378683,1.9459982402066995,0.18913187382065652,-0.00010589462674009899,0.0011969518281542426,0.00048585811774187586,-8.530619435489738e-05,0.0008056358771282066,0.0008194799855582309,-0.0009743622738625053,0.2927129566669464,-23.74051284790039,19.656478881835938,17.84735870361328,0.8705545663833618,2.3540542125701904,-0.09425200521945953,,,,,,,,,
1739400617.922306,-0.7084246708797093,0.6805707095642611,1.4220987889967636,-1.8788834974391544,-0.7145580189510968,1.9459952095663862,0.18913657478414986,0.0009016882895496704,-0.00033630752199138424,-0.0003227754759278467,-0.0006631501479105923,-0.0009884303978557392,-0.0006843805087148849,0.0014136718265271634,0.2411382496356964,-23.68893814086914,19.680282592773438,17.84735870361328,0.8961893320083618,2.3796889781951904,-0.10706938803195953,,,,,,,,,
1739400617.9332404,-0.708424171460407,0.6805710245481732,1.422100568719128,-1.8788813634549648,-0.7145537538222951,1.9459974781859706,0.1891277434013892,0.0014819379486039788,0.0006935994586339066,0.0010390058059710772,-0.0004152010259617368,0.0004260108133484242,0.0010294605540932358,-0.0017833025004274372,0.2689092457294464,-23.68893814086914,19.656478881835938,17.84735870361328,0.8641458749771118,2.3604629039764404,-0.08692778646945953,,,,,,,,,
1739400617.94518,-0.7084264746461715,0.6805713895231202,1.4221005715050936,-1.878883441523621,-0.7145520504829604,1.9459956125601963,0.18912942680275308,-0.001375026103136471,0.0003669252222417115,-0.0003461987505401215,-0.0007403192064619488,0.0008446303667266877,-0.0008217755689907297,-0.0011072663777180161,0.2927129566669464,-23.68893814086914,19.656478881835938,17.87512969970703,0.8769632577896118,2.3732802867889404,-0.07411040365695953,,,,,,,,,
1739400617.955297,-0.7084262351456468,0.6805772810885458,1.422100558580614,-1.8788766125598795,-0.7145548690297137,1.9459959672244624,0.18912854287237543,-0.00035008023397199223,0.0016706339037152083,-0.00011060814500493382,7.411730177091258e-05,-0.00046838101170169156,-0.0002469585337652363,-0.000538402952938753,0.2927129566669464,-23.74051284790039,19.656478881835938,17.82355499267578,0.8705545663833618,2.3732802867889404,-0.06678618490695953,,,,,,,,,
1739400617.96628,-0.7084227402022607,0.680570789230502,1.422102570998195,-1.878881361155932,-0.714555111666432,1.9459967248865426,0.18912942680846656,0.0004375699593707828,1.0023045927772418e-05,0.001502913552616001,-0.000546167920466143,0.0008924533771068909,-0.0004501029859647689,-0.000716605009033185,0.2411382496356964,-23.68893814086914,19.628707885742188,17.84735870361328,0.8769632577896118,2.3668715953826904,-0.07411040365695953,,,,,,,,,
1739400617.9772491,-0.7084244833183589,0.6805707096006237,1.4221025454881555,-1.8788813578145551,-0.7145553716023566,1.9459967248865426,0.1891318021756214,-0.0005204839153672266,0.0006148455466531765,0.0010151835218661358,-0.0005482689292304637,-0.000722513281309738,-0.0002151789700670898,0.0006905961235192225,0.2689092457294464,-23.68893814086914,19.628707885742188,17.84735870361328,0.8897806406021118,2.3668715953826904,-0.09425200521945953,,,,,,,,,
1739400617.9872851,-0.7084224944809447,0.680572681050074,1.4221044311490654,-1.8788806204769481,-0.7145552295530468,1.945995209566386,0.18913307907106866,0.0014081174033545756,0.0005024049985885332,0.0016159157050056774,0.00011949763635067152,0.000547698638193919,-0.0004441090480565611,0.0016525706887883984,0.2411382496356964,-23.71670913696289,19.604904174804688,17.84735870361328,0.8769632577896118,2.3796889781951904,-0.10066069662570953,,,,,,,,,
1739400617.998184,-0.7084247271500257,0.6805689970429547,1.4221043267484004,-1.8788813622194762,-0.7145550724138481,1.9459983978899835,0.18913058380361858,-0.00031685331782525317,0.000773073737437541,0.0010459598396182234,-0.0009219700605085826,0.0017888852622966953,0.001331095325101952,-0.0011499093842973214,0.2689092457294464,-23.66513442993164,19.604904174804688,17.84735870361328,0.8769632577896118,2.3540542125701904,-0.09425200521945953,,,,,,,,,
1739400618.0082197,-0.7084266688246916,0.6805675665679678,1.4221006707565367,-1.8788769971692774,-0.7145553883403346,1.9459967248892132,0.18913584934383315,-0.0004304404891446775,4.953926646310896e-05,-0.000455761241323115,0.0005782723035217429,-9.104381083843748e-06,-6.0537333808224355e-05,0.0020423693772168195,0.2689092457294464,-23.66513442993164,19.656478881835938,17.82355499267578,0.8769632577896118,2.3668715953826904,-0.12721098959445953,,,,,,,,,
1739400618.018261,-0.7084244859238898,0.6805697123109544,1.4221065139209754,-1.87887735426284,-0.7145549406673911,1.9459974825466213,0.18913332334876967,0.0009764788853227816,0.00037402699288007017,0.0010185840445714716,-0.0001659726717048182,0.0006123272494899113,0.00019799317519962395,0.0001129566012079129,0.2689092457294464,-23.66513442993164,19.577133178710938,17.82355499267578,0.8833719491958618,2.3604629039764404,-0.10706938803195953,,,,,,,,,
1739400618.028268,-0.70842272865399,0.6805651806661583,1.4221067435075585,-1.8788813621859781,-0.7145535570759698,1.9459952095663862,0.1891294180329625,0.0005737384122458315,-0.001706884971245813,0.000154614938259757,-0.0003675722454219046,0.0010077469904828176,-0.000812724656568435,0.0007554185369441276,0.2411382496356964,-23.61355972290039,19.577133178710938,17.84735870361328,0.8641458749771118,2.3796889781951904,-0.07411040365695953,,,,,,,,,
1739400618.0392578,-0.7084245232909255,0.6805689970788449,1.4221046637189991,-1.8788794967911835,-0.7145575770647159,1.9459967248865429,0.18912821181454403,-0.0008162014117712627,-0.0002713157468587551,-0.00047190693058308804,0.0003896679829303772,-0.00017691300294085232,0.0005594875305996614,-0.00036212752449232225,0.2689092457294464,-23.66513442993164,19.604904174804688,17.82355499267578,0.8705545663833618,2.3668715953826904,-0.06037749722599983,,,,,,,,,
1739400618.0492823,-0.7084244836507028,0.6805726280681674,1.4221026504751644,-1.878879331278861,-0.7145559349456566,1.9459967248865429,0.18913018447576946,0.00013929231837087362,0.0008375783515974044,-0.0002769611397534185,0.0002886978381381226,0.00029464106626208485,0.00031792380214651155,0.00010873817679020261,0.2689092457294464,-23.71670913696289,19.628707885742188,17.82355499267578,0.8833719491958618,2.3668715953826904,-0.08051909506320953,,,,,,,,,
1739400618.0592837,-0.7084248080945592,0.6805689970780971,1.4221026821949938,-1.8788793319543813,-0.7145547534828839,1.9459967248865429,0.18913489473631598,0.00060742859007892,-0.0005356586800801217,-0.0007009988867112564,-0.0004920472639613064,0.00140403437636241,9.123881545051725e-05,0.0011717590694611175,0.2689092457294464,-23.66513442993164,19.628707885742188,17.82355499267578,0.8833719491958618,2.3668715953826904,-0.12080229818820953,,,,,,,,,
1739400618.070246,-0.7084244833187539,0.6805696207618136,1.4221028810408576,-1.878879468639363,-0.7145552298808834,1.9459959672264646,0.18913270748128605,0.0008191355854341197,-0.00047647659809646524,0.00023263387769522847,0.0004008285527546385,0.0002447071190863331,4.7210138202573636e-05,0.0009611764908758513,0.2689092457294464,-23.63736343383789,19.628707885742188,17.82355499267578,0.8769632577896118,2.3732802867889404,-0.06678618490695953,,,,,,,,,
1739400618.0802767,-0.7084242492065028,0.6805744201061559,1.422100572611263,-1.8788783666323845,-0.7145555870251507,1.9459974825466213,0.1891294268789946,0.0002726283788563281,0.00038647542777202494,-0.0003528080852258235,2.2405584366042697e-05,0.00026398319156311636,0.00026440824318260637,-0.0003788444251808302,0.2689092457294464,-23.74051284790039,19.656478881835938,17.84735870361328,0.8769632577896118,2.3604629039764404,-0.07411040365695953,,,,,,,,,
1739400618.0911872,-0.7084234690703289,0.6805707094911587,1.4220977105306176,-1.8788784461694457,-0.7145553486126198,1.9459924863340257,0.18913332480895395,-2.2314576244513535e-06,-0.0003157359883013013,-0.002186902484899889,-0.00012058286329888357,-0.00022657835326114246,-0.0009761740604500328,-0.00010009735737071115,0.2927129566669464,-23.68893814086914,19.656478881835938,17.84735870361328,0.8769632577896118,2.3668715953826904,-0.10706938803195953,,,,,,,,,
1739400618.1012564,-0.7084279083122049,0.6805727075410254,1.422100570523951,-1.8788792372830811,-0.7145576613252471,1.9459959671546843,0.18913646222381,-0.0006048177644256356,0.0002875732519464816,-0.0003553479768697769,0.00022884247480054376,-0.001476480284786398,-2.186371875991739e-05,0.0013438803360065364,0.3165166676044464,-23.71670913696289,19.656478881835938,17.82355499267578,0.8961893320083618,2.3732802867889404,-0.13361968100070953,,,,,,,,,
1739400618.1122828,-0.708424510409482,0.6805727075410272,1.4221002537711263,-1.878883438947858,-0.7145578176013355,1.9459959672264644,0.18912780308938673,-2.7436239244103057e-05,0.0008429980237038982,0.0001806459903621751,-0.0009173371792106818,-0.0008612765554273822,-0.0005167685072354864,-0.002606525043387804,0.2689092457294464,-23.71670913696289,19.656478881835938,17.87512969970703,0.8897806406021118,2.3732802867889404,-0.06037749722599983,,,,,,,,,
1739400618.1222904,-0.7084248070956966,0.6805703917087353,1.4220998196629637,-1.878887370457698,-0.7145563199596846,1.945997482546621,0.1891340790562135,-0.00028415992740691957,-0.0007707850866710817,0.001046517166752283,-0.0012488383535296044,-0.0007080603290308681,0.0009191668966500279,0.0004027834095481853,0.2689092457294464,-23.68893814086914,19.656478881835938,17.89893341064453,0.8769632577896118,2.3604629039764404,-0.11347807943820953,,,,,,,,,
1739400618.1332564,-0.7084280133973854,0.6805727065580862,1.4221004939072086,-1.8788834415357318,-0.7145592057688344,1.9459959678724867,0.18913272365080144,-0.0008232905120515988,-3.3556672326300117e-06,-5.957628199922664e-05,-0.0010227780208385496,-0.001430361930135589,-3.7694012731212144e-06,0.001672542301274882,0.3165166676044464,-23.71670913696289,19.628707885742188,17.87512969970703,0.8833719491958618,2.3732802867889404,-0.10066069662570953,,,,,,,,,
1739400618.1432638,-0.7084261958394306,0.6805687586608473,1.4221033705301884,-1.878883194764614,-0.7145552426972596,1.9459974825466322,0.18913256568891462,-0.0004426604466992357,-0.001619849062178151,0.0002660903803749939,-0.0006298894401386447,-0.00019856588905670106,-4.930964340081346e-05,0.0004703529215631645,0.2927129566669464,-23.66513442993164,19.604904174804688,17.87512969970703,0.8769632577896118,2.3604629039764404,-0.10066069662570953,,,,,,,,,
1739400618.1541808,-0.7084224853760676,0.6805707449200993,1.4220978323617883,-1.8788788377985581,-0.7145552293973488,1.9459927883120767,0.1891336321637938,0.0007638259347691712,0.0003799663366402805,-0.0016221285134061898,7.808569243354264e-05,0.0008873093689722457,-0.0005509373164658889,0.0010100783578886907,0.2411382496356964,-23.68893814086914,19.680282592773438,17.82355499267578,0.8769632577896118,2.3732802867889404,-0.10066069662570953,,,,,,,,,
1739400618.164262,-0.7084244833169205,0.6805707066573331,1.4221005066138177,-1.878883438948502,-0.7145559870573521,1.9459989976514371,0.1891274010301735,8.939226084277152e-05,0.00024239966434351173,0.00016168412868659002,-0.0016643197540062334,0.0008490041899196904,0.00036702193800563804,-0.0009028031388636207,0.2689092457294464,-23.68893814086914,19.628707885742188,17.87512969970703,0.8833719491958618,2.3476455211639404,-0.05396880581974983,,,,,,,,,
1739400618.1742647,-0.7084248340767643,0.6805685638328127,1.4221005052491928,-1.8788809603670285,-0.7145552293972738,1.9459974825466104,0.18912780326995987,-0.0005137602076038603,-0.0011421013576782568,2.6438298159023343e-05,-0.0014170000582369355,0.0013899973220559345,0.00023482108278213046,-0.001414466429287756,0.2689092457294464,-23.68893814086914,19.628707885742188,17.87512969970703,0.8769632577896118,2.3604629039764404,-0.06037749722599983,,,,,,,,,
1739400618.1843383,-0.708426196172737,0.6805701891602256,1.4221065139071818,-1.8788772717255264,-0.7145561860150295,1.9459959677109813,0.18912805145957023,-0.0003675950543113656,-0.0008279792571968391,-0.00037229936012021434,0.00048593279198282156,0.00044542710438388194,8.675935132109011e-05,-0.0003214919778157114,0.2927129566669464,-23.66513442993164,19.577133178710938,17.82355499267578,0.8769632577896118,2.3732802867889404,-0.08051909506320953,,,,,,,,,
1739400618.196293,-0.7084242493135021,0.680568970304509,1.4221044331482953,-1.8788783948470273,-0.7145567447228306,1.9459967248865455,0.1891295842195875,-0.0009121879835656992,0.0007791821019903936,-0.0002785570768007754,-0.00027116878427516436,-0.0005306307047542222,-6.512278381870898e-06,-0.0007035119189201001,0.2689092457294464,-23.66513442993164,19.604904174804688,17.84735870361328,0.8897806406021118,2.3668715953826904,-0.07411040365695953,,,,,,,,,
1739400618.206423,-0.7084261698359507,0.6805669991384388,1.422106513882953,-1.8788834009205149,-0.7145567846718929,1.9459967248865429,0.18913408106145643,-5.6735679067337224e-05,-0.001139006326697688,0.00042044169514601597,-0.0010141027673987116,-0.0011240804300560903,0.0004750297779999759,0.002119497318866071,0.2927129566669464,-23.63736343383789,19.577133178710938,17.87512969970703,0.8897806406021118,2.3668715953826904,-0.11347807943820953,,,,,,,,,
1739400618.217304,-0.7084261698371249,0.6805707095638355,1.4221041162380028,-1.8788776325158578,-0.7145575175316685,1.9459959672264646,0.18912971057513175,-0.0005703803226853723,-0.0002183905775320786,-0.0003345799601562249,-1.0059102862267294e-05,-0.0015153729376877673,0.00011632398458982394,-0.0016194588166976497,0.2927129566669464,-23.68893814086914,19.604904174804688,17.82355499267578,0.8961893320083618,2.3732802867889404,-0.08051909506320953,,,,,,,,,
1739400618.2282107,-0.7084244923106159,0.6805712770295524,1.4221044341276472,-1.8788831947536313,-0.7145552293973593,1.945996724940378,0.1891333276773758,3.2186450985361218e-06,0.00014963291046378511,0.000689048023628555,-0.001974993043519521,0.0006827211854385582,0.00018716052546781885,-0.0006006385625624206,0.2689092457294464,-23.71670913696289,19.604904174804688,17.87512969970703,0.8769632577896118,2.3668715953826904,-0.10706938803195953,,,,,,,,,
1739400618.2392027,-0.7084244804280402,0.680572707678307,1.422098387630645,-1.8788833585783393,-0.7145575553594152,1.945996724886543,0.18912856112825077,2.3820522868408007e-05,0.0005522628760415394,-0.0010309603214087378,-0.0002028945840983154,-0.0007966529589943823,-0.00020829909853960985,-0.0011933991848464614,0.2689092457294464,-23.71670913696289,19.656478881835938,17.87512969970703,0.8961893320083618,2.3668715953826904,-0.06678618490695953,,,,,,,,,
1739400618.249211,-0.7084261208344101,0.6805707092731277,1.422100250681686,-1.8788773543051598,-0.7145581752298024,1.9459974825466213,0.18913140427385708,-0.0009945552576879396,0.0005860908148468627,0.00027883922829384056,0.0003429994635941536,-0.0018575401934069011,6.33366586089317e-05,-0.0009376936230095716,0.2927129566669464,-23.68893814086914,19.656478881835938,17.82355499267578,0.8897806406021118,2.3604629039764404,-0.06678618490695953,,,,,,,,,
1739400618.259264,-0.7084246708784391,0.6805727075410217,1.4221026504658403,-1.8788833594464815,-0.7145574564088188,1.9459967248865429,0.18912942701943963,0.0007129297070970073,0.00048595387675964244,0.001474835374945156,-0.000926610556479691,0.0001237118359969276,-0.0001353018293198951,-0.001749462011356396,0.2411382496356964,-23.71670913696289,19.628707885742188,17.87512969970703,0.8705545663833618,2.3668715953826904,-0.07411040365695953,,,,,,,,,
1739400618.27025,-0.7084248071445868,0.6805729459596063,1.4220974443128684,-1.8788801988355937,-0.7145559856751585,1.9459967248865429,0.1891336912021839,-0.00026150866241397635,0.0009633631954438951,-0.0015862403984517838,0.0005080824779385882,-0.00147609982494708,-0.00012487457887027406,0.0012354291918709953,0.2689092457294464,-23.71670913696289,19.656478881835938,17.87512969970703,0.8833719491958618,2.3668715953826904,-0.07411040365695953,,,,,,,,,
1739400618.2802672,-0.7084261968424516,0.6805735588534041,1.422100559399783,-1.8788833595422967,-0.7145553486065399,1.9459959672264646,0.18913419955204377,-2.5151517478192272e-05,0.000824227994864588,0.0013020083980643483,-0.0012389133797125397,0.0013923464917192394,-0.0002240358539242647,0.0012702831756869959,0.2927129566669464,-23.68893814086914,19.656478881835938,17.87512969970703,0.8769632577896118,2.3732802867889404,-0.11347807943820953,,,,,,,,,
1739400618.2912612,-0.7084224857091898,0.6805727340802328,1.422097379993068,-1.8788803641194767,-0.7145567844558791,1.9459974825466213,0.18913582287662922,0.00039146384421556414,-0.00010960179886591794,0.0009268268826061017,0.001341044735549258,-7.74211433167505e-06,0.00039391351239109713,0.0024703298148778694,0.2411382496356964,-23.71670913696289,19.656478881835938,17.87512969970703,0.8897806406021118,2.3604629039764404,-0.12721098959445953,,,,,,,,,
1739400618.3022125,-0.7084244833050325,0.6805714248559614,1.4220995089538637,-1.878885258072059,-0.7145572259698223,1.9459974825466213,0.1891259793672928,0.0008379399917429745,0.0012529684579936503,-0.001281411082167163,-0.0008358487127197941,-0.000853636856735407,0.00042831677958440233,-0.0031809023159316448,0.2689092457294464,-23.68893814086914,19.656478881835938,17.87512969970703,0.8897806406021118,2.3604629039764404,-0.05396880581974983,,,,,,,,,
1739400618.3122327,-0.7084244846493414,0.6805705617859282,1.4221019675093547,-1.8788834407966435,-0.7145589647933541,1.9459959672264646,0.18912943101610527,0.00045255294271405466,0.0007649173425786583,0.00040852539915593646,-0.0015830065379872742,0.0006115619301634397,-0.0003182625911582941,-0.0006865636099211454,0.2689092457294464,-23.71670913696289,19.604904174804688,17.87512969970703,0.8769632577896118,2.3732802867889404,-0.07411040365695953,,,,,,,,,
1739400618.323256,-0.7084261958376743,0.6805706801294432,1.4221001611520299,-1.8788795415605106,-0.7145583683380003,1.9459967248865429,0.1891333277342939,-0.0006159015597373752,-3.484442839173896e-05,-0.0006925903188360008,-0.00011367582278193843,0.0003784227003159307,0.00047569056955210326,-0.00010577121392822675,0.2927129566669464,-23.68893814086914,19.628707885742188,17.82355499267578,0.9035135507583618,2.3668715953826904,-0.10706938803195953,,,,,,,,,
1739400618.3342824,-0.7084262769302778,0.6805631411776403,1.4221037185419696,-1.8788777144406936,-0.7145554030601895,1.9459943036322334,0.18913251351893504,-0.001162095028470398,-0.0019477431188664924,-0.0005698066326348561,0.0006060512855962402,-0.00023118968619477074,-0.00037129473513122736,0.0002658488718655001,0.2927129566669464,-23.61355972290039,19.604904174804688,17.79975128173828,0.8769632577896118,2.3604629039764404,-0.10066069662570953,,,,,,,,,
1739400618.3442972,-0.7084217445247668,0.6805727073956778,1.4221044709648218,-1.8788792485234056,-0.7145557574720317,1.945995966526607,0.18912970911161306,0.0002620149130386205,0.0013707662294884227,0.0009122571161083499,0.00014974958953082484,0.000896245606975931,-0.0004775204473862444,-0.000654045199603662,0.2173345386981964,-23.71670913696289,19.604904174804688,17.82355499267578,0.8833719491958618,2.3732802867889404,-0.08051909506320953,,,,,,,,,
1739400618.3542976,-0.7084245642779551,0.6805689970794405,1.4221019390317322,-1.878879100009358,-0.7145559914686229,1.9459971293338996,0.1891333233382676,-0.0006973480650117892,-0.0002937248418518036,-0.0011840086372235325,-0.00029706716009914036,0.00022293311547662748,0.00021958018447813595,0.0003518927510178802,0.2689092457294464,-23.66513442993164,19.628707885742188,17.84735870361328,0.8833719491958618,2.3604629039764404,-0.10706938803195953,,,,,,,,,
1739400618.3652756,-0.7084245642619569,0.6805707096001742,1.422102639674644,-1.8788812796438557,-0.7145587632716441,1.9459963716718391,0.18913072281393611,-0.0003024720146693094,0.00017850719212198385,0.0005150590307577598,-0.001511995808375916,-0.0007441446714246359,-0.0001268601144297024,-0.0013520050691852605,0.2689092457294464,-23.68893814086914,19.628707885742188,17.84735870361328,0.8705545663833618,2.3668715953826904,-0.12080229818820953,,,,,,,,,
1739400618.376248,-0.7084261140960956,0.6805689172795345,1.4221065139192306,-1.8788804433923645,-0.714555987136086,1.945996719070348,0.18913024386303626,0.00015183602498330712,-0.00017179695750408648,0.0007596877390196211,-0.0005382005756134496,-0.0007197390708986718,-0.0008391607988052941,-0.001530139166164511,0.2927129566669464,-23.66513442993164,19.577133178710938,17.84735870361328,0.8833719491958618,2.3668715953826904,-0.05396880581974983,,,,,,,,,
1739400618.3871775,-0.7084224854866411,0.6805705617370261,1.4221005055761944,-1.8788766111980486,-0.7145578176010369,1.9459959672264318,0.18912941366311198,0.001312286454014685,1.2228079807845098e-05,-0.000338863852525479,0.0009549301844257805,4.375243360310452e-05,-0.00046217012771812636,-0.0016697494753588537,0.2411382496356964,-23.71670913696289,19.628707885742188,17.82355499267578,0.8897806406021118,2.3732802867889404,-0.07411040365695953,,,,,,,,,
1739400618.398246,-0.7084244923107645,0.680572389613249,1.4220995371708551,-1.8788852141262553,-0.7145575023956782,1.9459943436691536,0.18913732828331004,0.000982797812545263,0.0007885904661499193,-0.0009921623954110793,-0.0022827795353609504,-0.0015018933094787796,-0.0007066036816603369,0.0012278701701030638,0.2689092457294464,-23.71670913696289,19.656478881835938,17.89893341064453,0.8961893320083618,2.3870131969451904,-0.14094389975070953,,,,,,,,,
1739400618.4092607,-0.7084283823529635,0.6805771332577506,1.4221019332512994,-1.8788795398521412,-0.7145559887652737,1.945995562779096,0.18912780278241426,-0.0012041920215603032,0.001621773067049441,0.0010137073420238732,0.0007334106506611531,-0.0003006436626536354,-0.00045897104703225105,-0.00236749455792689,0.2927129566669464,-23.76828384399414,19.628707885742188,17.82355499267578,0.8833719491958618,2.3796889781951904,-0.06037749722599983,,,,,,,,,
1739400618.4192982,-0.7084227283578693,0.6805700738294096,1.4221019008632514,-1.8788813225410697,-0.714555286794368,1.945998388486756,0.18912780763979858,0.000614483609508189,0.0001446574725380934,0.00044297200620595505,-0.00019595315447690594,0.000709872483191703,0.0003720140988111969,-0.0017139840011356374,0.2411382496356964,-23.68893814086914,19.628707885742188,17.84735870361328,0.8769632577896118,2.3796889781951904,-0.06037749722599983,,,,,,,,,
1739400618.4293103,-0.7084276793351477,0.6805707099164562,1.4220945703498131,-1.878879541899021,-0.7145548337811949,1.9459974827619622,0.18913363243472642,-0.00030987443551133893,-8.582024800498532e-05,-0.001358374322931242,0.0005474680884849967,0.0004019547767913291,0.00023542601820016434,0.0001717224782936397,0.2927129566669464,-23.68893814086914,19.731857299804688,17.82355499267578,0.8705545663833618,2.3604629039764404,-0.10066069662570953,,,,,,,,,
1739400618.4402232,-0.7084248993888211,0.6805724661790142,1.4220966422311578,-1.878879099336003,-0.7145570599470893,1.9459952095663897,0.1891333277522881,-0.0008000069967351529,-0.00024697192988104577,2.3758189478534234e-06,0.00023661400119530916,-0.0009938099059114576,0.0002578950683944731,0.0009572199113783608,0.2927129566669464,-23.71670913696289,19.680282592773438,17.84735870361328,0.8833719491958618,2.3796889781951904,-0.10706938803195953,,,,,,,,,
1739400618.4502602,-0.7084245653288664,0.6805707095988117,1.4221002418398978,-1.878879552024086,-0.7145544717432519,1.9459976002841912,0.18913068186018284,0.0010617645742875136,7.315243691486393e-05,0.001269939390688943,0.00013369689578251873,0.0011021615461903247,0.0004104946139802036,0.0012400422895813884,0.2689092457294464,-23.68893814086914,19.656478881835938,17.82355499267578,0.8705545663833618,2.3604629039764404,-0.12080229818820953,,,,,,,,,
1739400618.4612074,-0.7084261179480097,0.6805707982304005,1.4220938715438678,-1.878878120478065,-0.7145559081355486,1.9459959672271292,0.1891339625088901,-0.00018494758313790903,0.00012366478319861696,-0.0013960068895169434,-0.00027908035743919534,7.317053534712978e-05,-8.850451698579438e-05,0.0004428501035789982,0.2927129566669464,-23.68893814086914,19.704086303710938,17.84735870361328,0.8705545663833618,2.3732802867889404,-0.11347807943820953,,,,,,,,,
1739400618.4722369,-0.7084224853756278,0.6805689882496255,1.4221022751535655,-1.8788790971703166,-0.714555273556971,1.9459974825466213,0.18913570456303797,0.0013143493455198914,-0.0009416014208980888,-0.0001487647095930973,-0.0001730767262550337,0.00024155222943988394,1.4761058820131562e-05,0.0015689906616551605,0.2411382496356964,-23.66513442993164,19.604904174804688,17.84735870361328,0.8769632577896118,2.3604629039764404,-0.12721098959445953,,,,,,,,,
1739400618.4831963,-0.708426196281792,0.6805727075409773,1.4220997890000744,-1.8788812487801227,-0.7145575023777581,1.9459967118045907,0.1891360555960913,-0.0007739920708552859,0.0005747029919301375,-0.0007367805788540156,0.0007293298465821375,9.72495318872422e-05,7.890449820525142e-05,0.002667565691245549,0.2927129566669464,-23.71670913696289,19.628707885742188,17.84735870361328,0.8961893320083618,2.3668715953826904,-0.12721098959445953,,,,,,,,,
1739400618.4932487,-0.7084245922423495,0.6805703652177821,1.4221064989581065,-1.8788795693698714,-0.7145528081429641,1.9459974825463997,0.18913383673712478,2.2681328802939095e-05,-0.0009449283618223735,0.0007546131799530519,0.001020307580474522,0.0016734613242966553,0.0014591503802343626,-6.864626508225989e-05,0.2689092457294464,-23.68893814086914,19.604904174804688,17.82355499267578,0.8833719491958618,2.3604629039764404,-0.10706938803195953,,,,,,,,,
1739400618.5032902,-0.7084244833187652,0.6805707095943421,1.422100399756366,-1.8788788887170376,-0.7145552293434386,1.945997482546621,0.18913332774291694,3.669112232395681e-06,0.00016411913383608754,-0.0009761506340762983,0.00088517582236418,0.0007173923480403405,-0.00029583735698216813,0.0001903983866988776,0.2689092457294464,-23.68893814086914,19.628707885742188,17.84735870361328,0.8769632577896118,2.3604629039764404,-0.10706938803195953,,,,,,,,,
1739400618.5142286,-0.708426276782231,0.6805688819582635,1.422104369084182,-1.8788788519230422,-0.7145552298878467,1.945997483031138,0.18912973103686337,-0.0001837484826929548,-0.0003772695206601326,0.0009541842082445775,0.0008482476772676465,0.0010829244873221094,0.00044382076012973166,-0.0018167349465607484,0.2927129566669464,-23.66513442993164,19.577133178710938,17.84735870361328,0.8769632577896118,2.3604629039764404,-0.07411040365695953,,,,,,,,,
1739400618.5242305,-0.7084244833182913,0.6805690752421578,1.4221044326759071,-1.8788811144800388,-0.7145584500103928,1.9459974825466295,0.18913367877175916,-0.00020908849203461532,-0.00030065382655361885,7.703553768949092e-05,-0.0006627010322401788,-0.0009806351835788228,-0.00021352794122115365,0.0003685925629508135,0.2689092457294464,-23.66513442993164,19.604904174804688,17.84735870361328,0.8769632577896118,2.3604629039764404,-0.10706938803195953,,,,,,,,,
1739400618.5351853,-0.7084261959486868,0.6805678475965198,1.4221065145370477,-1.8788851137832558,-0.7145575024501973,1.945998240368205,0.18913050772835943,0.00016413368260736395,-0.0005315062797687346,0.0009126638018385904,-0.0012570775461611164,-0.0011231033639462957,0.0015982601825106483,-0.0023430991196233294,0.2927129566669464,-23.68893814086914,19.577133178710938,17.89893341064453,0.8961893320083618,2.3540542125701904,-0.08692778646945953,,,,,,,,,
1739400618.5452394,-0.7084286241750372,0.6805709478733485,1.4221033398901892,-1.8788788520821091,-0.7145588480735117,1.945996724886551,0.18912780908037163,-0.0011453412723290237,5.345827676441263e-05,0.0007826415638185889,0.0005085830248911774,-0.0016649550617059419,0.0005744908989132566,-0.000991013697184754,0.2927129566669464,-23.68893814086914,19.628707885742188,17.84735870361328,0.9035135507583618,2.3668715953826904,-0.06037749722599983,,,,,,,,,
1739400618.5552633,-0.708420772906056,0.6805707096015192,1.4221004804198367,-1.8788811145837505,-0.7145552293999823,1.9459974825466213,0.18912423866282455,0.0009159273282395583,-2.2243746494763977e-05,-0.0005389846643572884,0.0008912292999715576,0.0010927777898843043,0.0008894493018961108,-0.0036084340114556825,0.2173345386981964,-23.68893814086914,19.656478881835938,17.84735870361328,0.8769632577896118,2.3604629039764404,-0.06678618490695953,,,,,,,,,
1739400618.5672266,-0.7084245106315524,0.6805706301273146,1.422098788985033,-1.8788795798722953,-0.714559325080984,1.9459967248865429,0.18913658051030074,-0.0004171225865343394,-0.0011573687100119442,-0.0008851482601237358,0.0007136547994236824,-0.0008369205833036943,0.00044615955246896826,0.0014059749984392915,0.2689092457294464,-23.68893814086914,19.680282592773438,17.82355499267578,0.8833719491958618,2.3668715953826904,-0.13361968100070953,,,,,,,,,
1739400618.5782602,-0.7084244833169718,0.6805691030309935,1.4221016845871377,-1.878881113957282,-0.7145552294035548,1.9459967248865429,0.1891305661933243,0.000212541128097304,-4.77334302470782e-05,0.0005542020025696218,0.0004495480065177867,0.0012007245966007326,0.00014105890023778,-0.0005563741113833722,0.2689092457294464,-23.66513442993164,19.628707885742188,17.84735870361328,0.8769632577896118,2.3668715953826904,-0.04756011441349983,,,,,,,,,
1739400618.5891778,-0.7084261958376518,0.6805707096007723,1.4220996712328953,-1.8788794614806241,-0.7145556826839305,1.9459967248865429,0.18912942683292297,0.0003542748865554865,-0.0003911136900467023,-3.1099480537170746e-06,0.00019629630261629443,0.0008254707922422696,0.0003049977254955019,-0.0006390247233297314,0.2927129566669464,-23.68893814086914,19.628707885742188,17.82355499267578,0.8833719491958618,2.3668715953826904,-0.07411040365695953,,,,,,,,,
1739400618.5991843,-0.7084245642614998,0.6805727065598808,1.4220977524083973,-1.8788812794662033,-0.7145606367050632,1.9459964240016419,0.18912536212893713,0.000720054592740702,0.00023957979048906236,-0.0003481214881568381,-4.9304609179602745e-05,-0.0011365487768906443,0.00023490148464828424,-0.0013619386800131379,0.2689092457294464,-23.71670913696289,19.680282592773438,17.84735870361328,0.8833719491958618,2.3668715953826904,-0.06678618490695953,,,,,,,,,
1739400618.6092064,-0.7084264386755021,0.6805689960982467,1.4221015888181905,-1.8788794696540412,-0.7145570621394775,1.9459974825313346,0.18912815802213095,-0.0008217201516403353,-0.0005494693487148249,0.0012601737835935712,0.0012555365531041985,-0.0003187127490105832,0.0007322455461116809,-0.0015168811204328424,0.2927129566669464,-23.66513442993164,19.628707885742188,17.82355499267578,0.8833719491958618,2.3604629039764404,-0.06037749722599983,0,0,0,0.000,0,0
1739400618.6201746,-0.7084242353053667,0.6805744308543671,1.4220996839791442,-1.878881334810127,-0.7145559870593751,1.9459974649425127,0.18912954528286935,0.0009614118177013136,0.0012989664572629228,-0.00016037454697606418,-0.0004382913510149255,0.00047433352244455004,-0.00016224609752282915,0.00019559874777749385,0.2689092457294464,-23.74051284790039,19.628707885742188,17.84735870361328,0.8833719491958618,2.3604629039764404,-0.07411040365695953,0,0,0,0.000,0,0
1739400618.630293,-0.7084261958334516,0.6805726957674529,1.4220984313619331,-1.8788777561697543,-0.7145563844216506,1.945997482546323,0.1891293873196352,-0.0006509355994598504,0.00024286817873987677,0.001090076692357195,-7.510142054156755e-05,-0.0004907339983962758,-0.00032376806801750677,-0.001168539031829816,0.2927129566669464,-23.71670913696289,19.680282592773438,17.79975128173828,0.8833719491958618,2.3604629039764404,-0.07411040365695953,0,0,0,0.000,0,0
1739400618.6412811,-0.7084245642614998,0.6805727075409608,1.4221025587502367,-1.878878586330148,-0.7145568644740444,1.945995209566386,0.18913732812079473,0.00019228921332434422,0.0012768372949082398,0.0016708395837430562,0.0009644908203346955,0.0002338154453866678,-0.000460363869409253,0.0024142282705935207,0.2689092457294464,-23.71670913696289,19.628707885742188,17.82355499267578,0.8897806406021118,2.3796889781951904,-0.14094389975070953,0,0,0,0.000,0,0
1739400618.6512883,-0.7084207729677422,0.680572716371345,1.4221013303256926,-1.8788824530011115,-0.7145559870593802,1.945997482546621,0.18913741158865827,0.0012190411326689033,0.0012217154315461909,0.0011360908758759624,-0.00031716095669977016,0.0009254636363659936,0.00033786328175563346,0.002813132203701201,0.2173345386981964,-23.71670913696289,19.604904174804688,17.87512969970703,0.8833719491958618,2.3604629039764404,-0.11347807943820953,0,0,0,0.000,0,0
1739400618.6622374,-0.7084244833169212,0.6805689970794928,1.4221041149122866,-1.8788812166548106,-0.714554183004621,1.945997482546621,0.18913180804496235,0.0004968486150962809,-0.0005817604553981118,0.000623414031470234,-0.0011207369505772263,0.0012643347543422985,0.00035963564848713625,0.0006285757149386128,0.2689092457294464,-23.66513442993164,19.604904174804688,17.87512969970703,0.8769632577896118,2.3604629039764404,-0.09425200521945953,0,0,0,0.000,0,0
1739400618.6722548,-0.7084266688205623,0.6805648563148172,1.422101588756432,-1.8788813621859768,-0.7145560002851079,1.9459967248865426,0.18913648705821548,-0.0006874365638529188,-0.0015637710570896505,-0.0018710400480485422,-0.00034226592481334284,0.00017791844292937108,-1.392577229399102e-06,0.0009914996030556478,0.2689092457294464,-23.63736343383789,19.628707885742188,17.84735870361328,0.8833719491958618,2.3668715953826904,-0.12080229818820953,0,0,0,0.000,0,0
1739400618.6832333,-0.7084286488883981,0.6805690234250911,1.4221012509454223,-1.8788791369835913,-0.7145572612912425,1.9459967248865426,0.18913438963326812,-0.001630115051179069,-0.00010142464818705267,-0.00084179183914509,-0.00023614807588364078,-0.0004975503236762882,-0.00015404961464303277,-2.884563643935102e-05,0.3165166676044464,-23.66513442993164,19.604904174804688,17.84735870361328,0.8897806406021118,2.3668715953826904,-0.10706938803195953,0,0,0,0.000,0,0
1739400618.693298,-0.70842249437409,0.680570709600323,1.4221062745016024,-1.8788762554100253,-0.7145599633173292,1.945997486907272,0.18913494690964777,-0.00029547232032081183,0.00048637770762653275,0.0014432214630422764,0.0009151835841328387,-0.00045866058757160655,0.0001030348889140255,0.0004861978920623355,0.2411382496356964,-23.68893814086914,19.577133178710938,17.82355499267578,0.8897806406021118,2.3604629039764404,-0.12080229818820953,0,0,0,0.000,0,0
1739400618.704254,-0.7084264319282617,0.6805726722197563,1.422098148229568,-1.8788794971115805,-0.71455566384826,1.9459974830311626,0.1891340810063962,4.197557875485966e-05,0.0005023520525184547,-0.000990954339998538,0.001057827218894984,-0.0005773691206483703,0.00019805588316194395,0.0008589572585932419,0.2689092457294464,-23.71670913696289,19.656478881835938,17.82355499267578,0.8705545663833618,2.3604629039764404,-0.11347807943820953,0,0,0,0.000,0,0
1739400618.7152188,-0.7084262077704554,0.6805689970792437,1.422104115860935,-1.878881004746741,-0.7145602962591409,1.9459967248865455,0.18913570505125188,-0.0003925510529604786,-0.001212730951578784,0.0014092407472940985,-0.0003459134985597278,-0.001169825361911266,0.0003510355159190031,0.0011538693950108824,0.2927129566669464,-23.66513442993164,19.604904174804688,17.84735870361328,0.8833719491958618,2.3668715953826904,-0.12721098959445953,0,0,0,0.000,0,0
1739400618.7260401,-0.708424576146494,0.680568997079443,1.4221023335555938,-1.8788810871574513,-0.7145553504803273,1.9459982402066995,0.18913336283746932,-0.0010159167249204721,-0.0007837299993338855,0.0005379707019023385,0.000418249010696183,1.5475283125381535e-05,0.0005401775787479029,-0.00024351617975092082,0.2689092457294464,-23.66513442993164,19.628707885742188,17.84735870361328,0.8769632577896118,2.3540542125701904,-0.10706938803195953,0,0,0,0.000,0,0
1739400618.7362447,-0.708427908358907,0.6805727075410272,1.422100412983249,-1.8788829994489138,-0.7145566996458618,1.9459975217924779,0.18912536212915967,-0.0026665066882439865,0.0007683921384208359,0.0006817835533264134,-0.001155252930168981,-0.0008058719851937404,0.0008306258061179685,-0.001226211109188095,0.3165166676044464,-23.71670913696289,19.628707885742188,17.89893341064453,0.8769632577896118,2.3604629039764404,-0.06678618490695953,0,0,0,0.000,0,0
1739400618.747251,-0.7084269243388657,0.6805727104844664,1.4220997784977252,-1.8788812076035195,-0.7145567469060554,1.945995967226686,0.1891345592699627,-0.00023077876312613306,0.0008085472382154424,0.00015503056195342364,-0.0011168181801594792,0.0005183372159009664,-0.00015925677956375812,0.0014550913485929838,0.2927129566669464,-23.71670913696289,19.628707885742188,17.87512969970703,0.8897806406021118,2.3732802867889404,-0.11347807943820953,0,0,0,0.000,0,0
1739400618.7582188,-0.7084246708838217,0.6805686526970676,1.4221013317282563,-1.8788825873133612,-0.7145555446208137,1.9459974694646691,0.1891334819636506,0.0011056830266058968,-0.0005655282994398419,0.0005222770026951026,0.00034945708967097953,0.0008445082393626448,7.027688168609088e-05,0.0017331051307428538,0.2411382496356964,-23.66513442993164,19.604904174804688,17.87512969970703,0.8705545663833618,2.3604629039764404,-0.10706938803195953,0,0,0,0.000,0,0
1739400618.769265,-0.7084261968493047,0.6805744200598144,1.4221025322437892,-1.8788791339263116,-0.714556040045315,1.945996724886469,0.18912861356729274,-0.0009082442846037891,0.000933171058170389,0.00038939847356102194,0.00015899495041313196,-0.00010843484013738886,-0.0002778230592743047,0.0006431269790432095,0.2927129566669464,-23.74051284790039,19.628707885742188,17.84735870361328,0.8833719491958618,2.3668715953826904,-0.06678618490695953,0,0,0,0.000,0,0
1739400618.7802413,-0.7084207729663771,0.6805726957672702,1.4221043150830037,-1.8788834297534336,-0.7145588044800678,1.9459959672264644,0.1891320858472888,0.0017958924728849373,0.00019909566881225795,0.0011718211178070228,-0.00036698232560619876,-0.0009666166112795914,-0.0001244521313656138,-0.0003577797270015088,0.2173345386981964,-23.71670913696289,19.604904174804688,17.87512969970703,0.8705545663833618,2.3732802867889404,-0.06037749722599983,0,0,0,0.000,0,0
1739400618.7912288,-0.7084244834279562,0.6805716900560874,1.4220995123283005,-1.8788812519583493,-0.714555269158162,1.9459967253710595,0.18913570507542726,0.0005470633966006168,0.0003525690099808151,-0.0003427139301623702,-0.0003354103888652756,0.0011601405333091356,-0.0003151827204098826,0.0018918554523367538,0.2689092457294464,-23.68893814086914,19.628707885742188,17.84735870361328,0.8769632577896118,2.3668715953826904,-0.12721098959445953,0,0,0,0.000,0,0
1739400618.8022883,-0.7084244846493422,0.6805727074375456,1.4220983904110087,-1.8788813622230411,-0.7145564815553702,1.9459962146904093,0.18913412071422894,0.0006410159648992111,0.0015000933963872647,-0.0006436433110489188,-0.0007197871633857479,-9.801203136814414e-05,-0.000803864146196842,-0.0002782108434410891,0.2689092457294464,-23.71670913696289,19.656478881835938,17.84735870361328,0.8833719491958618,2.3668715953826904,-0.11347807943820953,0,0,0,0.000,0,0
1739400618.8132012,-0.7084244814273127,0.6805652861817931,1.422101211662252,-1.8788809949115164,-0.7145584619504574,1.9459967248836627,0.18913625160457875,6.0795187709759184e-06,-0.0021252537772071456,-0.0004063265743565903,0.0014127713765378206,-0.0009105907263409547,1.4092381225590253e-05,0.0008630044292881646,0.2689092457294464,-23.61355972290039,19.628707885742188,17.84735870361328,0.8769632577896118,2.3668715953826904,-0.13361968100070953,0,0,0,0.000,0,0
1739400618.8242497,-0.7084244843162256,0.6805707099272206,1.422099672356727,-1.878879328074995,-0.7145552294155216,1.9459959672264644,0.18912780520089267,0.000352067068094994,8.956781193518622e-05,-0.0012816094961434128,-0.0004255347684871649,0.0005898828613437076,-0.00047018182367222533,-0.0020325775125441215,0.2689092457294464,-23.68893814086914,19.628707885742188,17.82355499267578,0.8769632577896118,2.3732802867889404,-0.06037749722599983,0,0,0,0.000,0,0
1739400618.8351955,-0.7084273970007895,0.6805707096001761,1.422104077593088,-1.87888136210919,-0.7145544717371954,1.9459959672264644,0.1891227420323105,-0.001168234550596546,0.0007855851484799702,0.0007586505158187966,0.00012265051354099865,0.0011804582680386385,-0.00036198402694917605,-0.004086588730097161,0.2689092457294464,-23.68893814086914,19.604904174804688,17.84735870361328,0.8705545663833618,2.3732802867889404,-0.05396880581974983,0,0,0,0.000,0,0
1739400618.8452806,-0.708424483366264,0.6805726959853027,1.422102638255416,-1.8788812518830473,-0.7145575421139386,1.945997482546621,0.1891344509020748,0.0003528849974274369,0.0007692627152839069,0.00014732718636493845,-2.685868768428619e-05,0.0012780051767579165,2.3210166406236084e-05,-0.001206162189969819,0.2689092457294464,-23.71670913696289,19.628707885742188,17.84735870361328,0.8961893320083618,2.3604629039764404,-0.08051909506320953,0,0,0,0.000,0,0
1739400618.856276,-0.7084245913183959,0.6805729348401806,1.42209950773639,-1.8788813622230407,-0.7145560061899315,1.9459945543756254,0.1891317655687665,-0.00011198862676787809,0.0007721782914481986,-0.00038791058754081856,0.00016660089203900731,0.0007447818826593598,-0.0016040361359514735,-0.00016088696921352406,0.2689092457294464,-23.68893814086914,19.656478881835938,17.84735870361328,0.8833719491958618,2.3732802867889404,-0.06678618490695953,0,0,0,0.000,0,0
1739400618.868198,-0.70842623181363,0.6805706831581213,1.42209951645176,-1.8788792178871925,-0.7145552338125406,1.945995967218489,0.1891381457043219,-0.00032745271583588123,-0.0003023452750693481,-0.0017215246267266288,0.000641573436156668,0.0006806176148546634,-0.0005551046079216096,0.0018285361120191077,0.2927129566669464,-23.68893814086914,19.656478881835938,17.82355499267578,0.8769632577896118,2.3732802867889404,-0.12080229818820953,0,0,0,0.000,0,0
1739400618.8782341,-0.7084266688211716,0.6805707449209975,1.422101571780427,-1.87888270014765,-0.7145567447175052,1.9459982402066993,0.18913680789963205,0.00043234917408564255,0.0006272880331525525,0.00014348826959224804,-0.0007638642768593325,0.0008193975567928574,-0.00011138914398316544,-0.0001864573964740817,0.2689092457294464,-23.68893814086914,19.604904174804688,17.87512969970703,0.8897806406021118,2.3540542125701904,-0.11347807943820953,0,0,0,0.000,0,0
1739400618.8892093,-0.7084264388235489,0.6805685638330288,1.422096285736493,-1.8788813618831057,-0.7145574749658921,1.9459999038009308,0.18913135745992504,-0.0010984117030606966,-0.0006536223447823112,-0.0013355692373878375,-0.000576533097393981,-0.0011405902395551651,0.0006719187100468866,-0.0008153687363525932,0.2927129566669464,-23.68893814086914,19.680282592773438,17.84735870361328,0.8833719491958618,2.3668715953826904,-0.06037749722599983,0,0,0,0.000,0,0
1739400618.9002378,-0.7084276743590777,0.6805707447760901,1.4220973533509136,-1.8788787187541829,-0.7145553491223343,1.9459959674418053,0.18913071124013284,-0.0006999399425712161,-0.0003447183674151228,-0.0009231671586194979,0.0010129256352362922,0.000292970886276474,-0.00016934167801719338,9.246159895521313e-05,0.3165166676044464,-23.68893814086914,19.656478881835938,17.82355499267578,0.8769632577896118,2.3732802867889404,-0.08051909506320953,0,0,0,0.000,0,0
1739400618.9111786,-0.7084266691175615,0.6805758069826218,1.4220974632271972,-1.8788812798057448,-0.7145538862685383,1.9459974825466215,0.18913494105408002,-0.001380620732504341,0.0008319101969427218,-8.30865076799393e-05,-0.0006100314374700156,-4.142682257885183e-05,0.0003522107375833182,-4.4685708337932725e-05,0.2689092457294464,-23.71670913696289,19.656478881835938,17.84735870361328,0.8641458749771118,2.3604629039764404,-0.12080229818820953,0,0,0,0.000,0,0
1739400618.9212868,-0.7084273974328263,0.6805670002772043,1.4220976983808873,-1.878879579542457,-0.7145573081192667,1.9459967248865429,0.18913498688201957,-0.00027135142023682843,-0.0014306522725051072,-0.0007595210270639246,-0.00029082802684944907,-0.0007058377228523543,-0.0001651746890790591,0.00014512249751382704,0.2689092457294464,-23.63736343383789,19.656478881835938,17.82355499267578,0.8961893320083618,2.3668715953826904,-0.12080229818820953,0,0,0,0.000,0,0
1739400618.932187,-0.7084269243443491,0.6805707096001763,1.4221015875451393,-1.8788813622236633,-0.7145552471302212,1.9459954962761847,0.18912860042081536,-0.0004488619157934406,-0.0010760234102192223,-0.0001237886884877397,-0.0006452260003755618,0.00031122254327155464,-0.0011463130635840713,-0.002212884932187462,0.2927129566669464,-23.68893814086914,19.628707885742188,17.84735870361328,0.8769632577896118,2.3732802867889404,-0.06678618490695953,0,0,0,0.000,0,0
1739400618.943274,-0.708426195849989,0.6805689704794735,1.4221012537798248,-1.8788795764941888,-0.7145567447177307,1.945998240198724,0.18913364511149064,0.00032450818264694536,-0.0015564080634911453,0.001401822116942114,0.00047876426656478187,0.00020472338222128427,0.0007048684264632851,0.0010468221606853363,0.2927129566669464,-23.66513442993164,19.604904174804688,17.82355499267578,0.8897806406021118,2.3540542125701904,-0.10066069662570953,0,0,0,0.000,0,0
1739400618.9542725,-0.7084261958376518,0.680570471181545,1.4221012980403498,-1.8788812798073589,-0.7145570599409581,1.9459967248865426,0.18913617158611248,-0.00045650920755062265,-0.0002508265177357349,-0.00034054225607307875,-0.00020480653101417613,-0.00031342389731962075,8.998813034414746e-05,-8.500256876907078e-05,0.2927129566669464,-23.68893814086914,19.604904174804688,17.84735870361328,0.8833719491958618,2.3668715953826904,-0.10706938803195953,0,0,0,0.000,0,0
1739400618.9652724,-0.7084224853760676,0.6805689970754054,1.422100465950179,-1.8788805350068227,-0.7145571082503469,1.9459983579442695,0.18913419871548612,0.0008316288966257503,-0.00012732124395655473,-0.0008687328258664492,0.00026438887161226907,0.00028046961702424684,0.0006411374475089982,0.000461697781725467,0.2411382496356964,-23.66513442993164,19.628707885742188,17.84735870361328,0.8897806406021118,2.3540542125701904,-0.11347807943820953,0,0,0,0.000,0,0
1739400618.9762442,-0.7084261959486868,0.6805707097091904,1.4220997095997425,-1.8788795673321526,-0.7145553486086155,1.9459967248872074,0.18913570456437137,-9.579944140113215e-06,-0.0005263018911304138,-0.00036735870081435514,0.0009744948666017051,0.0007726035457394631,-8.949070384380153e-05,-1.643587188963219e-05,0.2927129566669464,-23.68893814086914,19.628707885742188,17.82355499267578,0.8769632577896118,2.3668715953826904,-0.12721098959445953,0,0,0,0.000,0,0
1739400618.9871693,-0.7084244833169208,0.6805668513243441,1.4221061947141274,-1.8788770246413542,-0.7145547889232402,1.9459967248865429,0.18913343590631104,0.00017156651958368327,-0.001329469585350478,0.0023601599489898074,0.00046861523334988686,-2.9402820990330394e-05,-0.0002148606145876548,0.0008200430216616048,0.2689092457294464,-23.66513442993164,19.577133178710938,17.82355499267578,0.8641458749771118,2.3668715953826904,-0.08051909506320953,0,0,0,0.000,0,0
1739400618.9973097,-0.7084224943699097,0.6805659659550752,1.4221041059850679,-1.8788806204337054,-0.7145564640762373,1.9459967248865429,0.18913652218398416,0.0009484777090844438,-0.0010754160247290132,0.0006123802135490164,-0.0019114757896010678,-0.00018624568087542405,0.00015864985429112565,0.0008523285253231884,0.2411382496356964,-23.63736343383789,19.604904174804688,17.84735870361328,0.8833719491958618,2.3668715953826904,-0.10706938803195953,0,0,0,0.000,0,0
1739400619.0082269,-0.7084207741879097,0.6805699943269399,1.4221044328156893,-1.878879579534082,-0.7145575069642705,1.9459967248865429,0.18912942686294465,0.0009877223605549682,-0.00026038267165714665,0.0005888431617892219,-0.0006087695985504635,7.950748493039156e-05,-0.0004165400861347211,0.00015003659892274645,0.2173345386981964,-23.68893814086914,19.604904174804688,17.82355499267578,0.8961893320083618,2.3668715953826904,-0.07411040365695953,0,0,0,0.000,0,0
1739400619.0192032,-0.7084252148284216,0.680568997078097,1.4221026130423549,-1.8788791359535453,-0.7145564641125515,1.9459959672264646,0.18913494692168586,0.0005514914929741813,-0.0013943570167266107,0.0004991593787426775,6.391408314621565e-05,-0.00011371589727367075,-5.313749007283285e-05,0.000791187150697506,0.2689092457294464,-23.66513442993164,19.628707885742188,17.84735870361328,0.8833719491958618,2.3732802867889404,-0.12080229818820953,0,0,0,0.000,0,0
1739400619.0302627,-0.7084245645987345,0.6805707880918874,1.4221023214599613,-1.8788763367711487,-0.7145567461918431,1.9459967250480483,0.18913095968054805,-0.00022746882500971938,0.001034967070018595,-0.0005605630581589811,0.0007352020487166133,0.000448188353768346,3.2912781887877915e-05,-0.0003058903625974158,0.2689092457294464,-23.68893814086914,19.628707885742188,17.82355499267578,0.8897806406021118,2.3668715953826904,-0.08692778646945953,0,0,0,0.000,0,0
1739400619.0412397,-0.7084261958751222,0.6805727162627717,1.4220978348733038,-1.878881279676005,-0.7145578097608356,1.9459974825466222,0.18912782226625496,-0.0011059837962910668,0.0008309111279923476,0.0003074095136973382,0.000238289887688706,-0.0005620500383380072,0.0003304085432411751,-0.0009108318027034648,0.2927129566669464,-23.71670913696289,19.680282592773438,17.84735870361328,0.8705545663833618,2.3604629039764404,-0.06037749722599983,0,0,0,0.000,0,0
1739400619.0522323,-0.7084261711340272,0.6805748621386061,1.4220973631993845,-1.8788852247990884,-0.7145572259885907,1.9459967248865429,0.18913695653160384,-0.0005995179958812494,0.0011271219955019099,-0.0010716351752744987,-0.001830592112585606,-0.0004929676077013278,0.00023187646424997803,0.0005684572893744979,0.2927129566669464,-23.71670913696289,19.656478881835938,17.89893341064453,0.8897806406021118,2.3668715953826904,-0.10706938803195953,0,0,0,0.000,0,0
1739400619.0632305,-0.7084244790913913,0.6805719922974527,1.4220983096659012,-1.8788803701756212,-0.7145544723940098,1.945997481093071,0.18913126391394192,-0.00010377696816496289,3.7173442846880766e-05,-0.0002576783571507548,8.096927390372006e-05,0.001114481393698066,-3.0098764784194004e-05,-6.728805156716827e-05,0.2689092457294464,-23.71670913696289,19.656478881835938,17.84735870361328,0.8705545663833618,2.3604629039764404,-0.08051909506320953,0,0,0,0.000,0,0
1739400619.0732703,-0.7084244833168489,0.6805727075289145,1.4221033700923544,-1.8788763622417295,-0.7145559870573632,1.94599596722644,0.1891306510524932,-0.00024595561406900643,0.0002528698478593685,0.0003978574216458565,-9.285739938949273e-05,0.0011947434538843963,-0.0003925139606378525,-0.0005562406626846834,0.2689092457294464,-23.71670913696289,19.604904174804688,17.82355499267578,0.8833719491958618,2.3732802867889404,-0.07411040365695953,0,0,0,0.000,0,0
1739400619.083286,-0.7084224853760676,0.6805689960982964,1.4220995076457674,-1.8788763648042845,-0.7145548293650641,1.945997482546621,0.18913145699715855,0.0015830079341266857,0.00019589098959663114,-0.00043203726318734163,0.0016869382693137373,0.0014721665128622301,0.0008302269885867957,0.00031018418033501235,0.2411382496356964,-23.66513442993164,19.656478881835938,17.82355499267578,0.8705545663833618,2.3604629039764404,-0.08692778646945953,0,0,0,0.000,0,0
1739400619.0951965,-0.7084230393035574,0.680576179111623,1.4220975943859306,-1.8788855022938293,-0.7145544776260927,1.9459959672264644,0.1891353023268242,0.00128422000008966,0.0013282307989709748,-0.0007967622866339682,-0.0013640783932302575,0.0004511097916802646,-0.00035986229863314384,0.0013854644254861473,0.2173345386981964,-23.76828384399414,19.656478881835938,17.87512969970703,0.8705545663833618,2.3732802867889404,-0.12080229818820953,0,0,0,0.000,0,0
1739400619.1063037,-0.7084244833335225,0.6805707099631122,1.4220973530485421,-1.8788778141815172,-0.7145567796086222,1.945997482546621,0.18913094212959752,0.00015173984095241525,0.0003021783951700867,-3.875535395691336e-05,-0.00027781557920726727,-0.0010594457067308958,0.0003698926069679447,-0.0005847767917877392,0.2689092457294464,-23.68893814086914,19.656478881835938,17.79975128173828,0.8769632577896118,2.3604629039764404,-0.08692778646945953,0,0,0,0.000,0,0
1739400619.1172094,-0.7084245604095919,0.6805669991385961,1.422102160649672,-1.878881361771741,-0.7145560062159602,1.9459959672264644,0.18913256568623948,0.0009951032776023016,-0.001411477445780881,0.0012904509112319485,-0.0003054924202855527,0.00014674979366445856,-0.0004089038979487912,0.000506900771140051,0.2689092457294464,-23.63736343383789,19.604904174804688,17.84735870361328,0.8833719491958618,2.3732802867889404,-0.10066069662570953,0,0,0,0.000,0,0
1739400619.128165,-0.7084266958025239,0.6805704274819013,1.4221004924450695,-1.8788791355138885,-0.714558964676296,1.945995209566386,0.18914013490010717,0.00037774422277787385,-0.00015784016362090732,0.0009973953063860056,-0.0009257164107029799,-0.000881861122284507,0.00024087403893629247,0.002987665005526773,0.2689092457294464,-23.66513442993164,19.628707885742188,17.84735870361328,0.8769632577896118,2.3796889781951904,-0.13361968100070953,0,0,0,0.000,0,0
1739400619.1391618,-0.7084244833210837,0.6805727075437188,1.4220976718863285,-1.8788794959579318,-0.7145552838760978,1.94599718056857,0.18913059255090808,0.0002471480604049435,0.0014551836985454382,-0.0010707068958736772,0.000277484105046258,0.0017422718797061427,0.000348240872160413,0.00030363377603151264,0.2689092457294464,-23.71670913696289,19.656478881835938,17.82355499267578,0.8769632577896118,2.3540542125701904,-0.08051909506320953,0,0,0,0.000,0,0
1739400619.1492429,-0.7084232138772816,0.6805690382875925,1.4221033786713249,-1.8788802538417337,-0.7145567461900727,1.945997482528676,0.18913363634192285,0.0004840542196161261,0.00028066585133702327,0.0008091416442141869,0.0009558618843717368,-7.70918569689267e-05,3.021159825815207e-05,0.0005822438511447798,0.2411382496356964,-23.66513442993164,19.577133178710938,17.84735870361328,0.8897806406021118,2.3604629039764404,-0.10066069662570953,0,0,0,0.000,0,0
1739400619.1592462,-0.7084283816867359,0.6805746584810354,1.4221022938259664,-1.8788795384893053,-0.7145578176010613,1.946000661461009,0.18912741277859818,-0.001392801991357604,0.00191918064765068,0.0005177085529165106,-0.0004556197249218582,-0.0007527417523565698,0.0010311646407417966,-0.0027269099422560956,0.2927129566669464,-23.74051284790039,19.628707885742188,17.82355499267578,0.8897806406021118,2.3604629039764404,-0.07411040365695953,0,0,0,0.000,0,0
