IITGN-Robotics/Franka_IITGN_ROBOTICS/franka_ros/franka_iitgn/data/b_04.csv
time,fr3_joint1_pos,fr3_joint2_pos,fr3_joint3_pos,fr3_joint4_pos,fr3_joint5_pos,fr3_joint6_pos,fr3_joint7_pos,fr3_joint1_vel,fr3_joint2_vel,fr3_joint3_vel,fr3_joint4_vel,fr3_joint5_vel,fr3_joint6_vel,fr3_joint7_vel,fr3_joint1_eff,fr3_joint2_eff,fr3_joint3_eff,fr3_joint4_eff,fr3_joint5_eff,fr3_joint6_eff,fr3_joint7_eff,flexpin1,flexpin2,flexpin3,Force,ContactMic,ContactMic_gt
1739400644.9038715,-0.708313480656778,0.6800067688538189,1.422027663784838,-1.8788471491535241,-0.7140778724242567,1.9462732056293726,0.18887921841818214,0.00021071954154457524,-0.0007328848890126353,0.00012935809040308605,0.000974745785124448,0.0007236148881847003,-0.0002672414497003157,0.0012191053083154657,0.2689092457294464,-23.71670913696289,19.604904174804688,17.84735870361328,0.9749246835708618,2.3796889781951904,-0.14735259115695953,,,,,,,,,
1739400644.914863,-0.7083144154502391,0.680008739359287,1.4220218152147863,-1.8788510568191537,-0.7140796168017864,1.9462732056296188,0.18887759827642753,-0.0007285842855357524,0.00034686715480411153,-0.001412406334241097,0.0004920185165234557,0.0004225753800940125,0.000860352594872943,-0.0009965414674202415,0.2927129566669464,-23.74051284790039,19.680282592773438,17.87512969970703,0.9886575937271118,2.3796889781951904,-0.13361968100070953,,,,,,,,,
1739400644.925846,-0.7083147713909762,0.6800061448255263,1.4220277425037489,-1.8788512952036371,-0.7140832806947092,1.946275478609854,0.1888775991973486,-2.563070796357227e-05,-0.0005197915995881022,0.0011711627770370952,-0.0007601557862577825,-0.0013001956359406392,0.0003823240252845549,0.001969817248381805,0.2689092457294464,-23.71670913696289,19.604904174804688,17.87512969970703,0.9813333749771118,2.3604629039764404,-0.13361968100070953,,,,,,,,,
1739400644.9368742,-0.7083153222401992,0.6800033203601894,1.4220238009904531,-1.8788513747132838,-0.7140795109167102,1.9462732056296188,0.18887207915666832,-0.00030073850815924325,-0.0004196814821253172,0.0002659755967086493,1.1003042407833365e-05,-0.00018985848932300155,-0.0006439151820973638,-0.0009516492934710557,0.2927129566669464,-23.66513442993164,19.656478881835938,17.87512969970703,0.9886575937271118,2.3796889781951904,-0.08692778646945953,,,,,,,,,
1739400644.946881,-0.7083154744406644,0.680010906875854,1.4220280264371643,-1.8788514406919865,-0.7140820856873221,1.9462771422040852,0.1888773988878905,-0.0010987079323020485,0.0013874957808602496,0.0007970171053048031,-4.788311157433579e-05,-0.0011832379187468633,0.0004291700854736489,-0.00018308799200094435,0.2689092457294464,-23.74051284790039,19.628707885742188,17.84735870361328,1.0014749765396118,2.3732802867889404,-0.14094389975070953,,,,,,,,,
1739400644.958831,-0.7083107744324351,0.6800085853502917,1.4220238018733558,-1.8788549273258777,-0.7140813330479727,1.9462754917097511,0.1888725297224578,0.001972960350189526,-0.00031377438832783707,-0.0008074662970088298,-0.0018976490216407516,-0.0006640165008948988,0.0006100517835602902,-0.002247588038546386,0.2411382496356964,-23.74051284790039,19.656478881835938,17.92273712158203,0.9950662851333618,2.3604629039764404,-0.12080229818820953,,,,,,,,,
1739400644.968858,-0.7083153135395522,0.6800107016501037,1.4220245161358507,-1.8788548311612003,-0.7140791248516003,1.9462732056298406,0.18887526630596435,-0.0007008356051364167,0.0008888942531478753,0.0005635491015214486,-0.00031406610820199597,-0.0014588084316460134,0.0001996175644367396,0.0017001374571285767,0.2927129566669464,-23.76828384399414,19.656478881835938,17.92273712158203,0.9749246835708618,2.3796889781951904,-0.14094389975070953,,,,,,,,,
1739400644.9797885,-0.708314380418268,0.6800070008567309,1.4220238008841342,-1.8788472283027589,-0.7140794974360369,1.9462739632896973,0.18887280122525743,-2.2375497244180986e-07,-9.489470103640973e-05,0.0003554438717576695,4.585322870679829e-05,0.000397015674967417,4.807433197154452e-05,-0.0011426360689155758,0.2927129566669464,-23.71670913696289,19.656478881835938,17.84735870361328,0.9886575937271118,2.3732802867889404,-0.10066069662570953,,,,,,,,,
1739400644.9898715,-0.7083144039524393,0.6800109534858972,1.4220238005651604,-1.8788446246858481,-0.7140758992895395,1.9462747209497755,0.1888743404329047,-0.0007049715564506299,0.0003088745115881507,-0.00013568658002465053,0.0008924375327738446,0.0006737988250063899,0.00028999593081376393,-0.0005065149121085414,0.2927129566669464,-23.76828384399414,19.656478881835938,17.82355499267578,0.9950662851333618,2.3668715953826904,-0.10706938803195953,,,,,,,,,
1739400645.0008712,-0.7083181178380747,0.6800138761898685,1.422026771484877,-1.8788513704466954,-0.7140786447526308,1.9462723397323864,0.18887294489070958,-0.0004263244544083409,0.00261829267237267,0.00047910196378477216,-0.0009359468595563101,0.0003189600471734459,-0.00026433726802128877,-0.0009385679842813354,0.3442876636981964,-23.76828384399414,19.604904174804688,17.87512969970703,0.9813333749771118,2.3870131969451904,-0.09425200521945953,,,,,,,,,
1739400645.0118217,-0.7083144076978392,0.6800070039083415,1.4220229718622899,-1.8788513747145579,-0.7140794974291991,1.9462732056296188,0.1888758820552124,0.0004543149512991289,-0.0006628005026366037,0.0003970766213231541,-0.00020150957203600038,-0.0005617636279385082,5.733026961696349e-05,-0.00014636903227771645,0.2927129566669464,-23.71670913696289,19.680282592773438,17.87512969970703,0.9886575937271118,2.3796889781951904,-0.10706938803195953,,,,,,,,,
1739400645.0228443,-0.7083126650033786,0.6800032893958874,1.4220238008818908,-1.8788513776580695,-0.7140778753978922,1.9462739632896973,0.18887446037673347,0.0010629406354922017,-0.0015849583332272284,-0.001253720025363224,-0.0003814672132919866,8.365963699287554e-05,0.0001303059483094533,0.0014964092462178553,0.2689092457294464,-23.66513442993164,19.656478881835938,17.87512969970703,0.9749246835708618,2.3732802867889404,-0.10706938803195953,,,,,,,,,
1739400645.0348306,-0.7083121162470328,0.680025605680428,1.4220173942129175,-1.8788441882557523,-0.7140841206896834,1.9462692580772871,0.18888146644311202,0.0007885565871216526,0.0035008503990706452,-0.0006118816347570764,0.0014537426091778894,-0.0008786816200151563,0.0007013101937409771,0.0004251356819961045,0.2173345386981964,-23.63736343383789,19.501754760742188,17.77594757080078,0.8769632577896118,2.3339126110076904,-0.12721098959445953,,,,,,,,,
1739400645.0458984,-0.708310765262284,0.680045111836801,1.4219975332583783,-1.878849639308529,-0.7140942051561386,1.9462635723983592,0.18888087615832566,-0.00011760696863091812,0.002943534562919122,-0.003499433068233524,0.00016252502817486251,-0.00041451162824146547,0.0005262454613818001,0.0006815229725634216,0.1935308277606964,-23.58578872680664,19.501754760742188,17.84735870361328,0.8705545663833618,2.3403213024139404,-0.08051909506320953,,,,,,,,,
1739400645.0568757,-0.7083160951321201,0.6800570379368442,1.4219808563134597,-1.8788602219559742,-0.7140966292707137,1.9462508188157719,0.1888864091414912,-0.000664938711339032,0.00026494702931943216,-0.002642404928730416,-0.0019859108554375043,-0.0002099304383183605,-0.00014043430673266294,0.000651646509919784,0.2173345386981964,-23.53818130493164,19.553329467773438,17.92273712158203,0.8769632577896118,2.3668715953826904,-0.11347807943820953,,,,,,,,,
1739400645.0678077,-0.7083144074521905,0.6800690854449347,1.4219612433381033,-1.878858873029018,-0.714101399577412,1.9462467666954257,0.18889433672159314,0.00015476466262277273,0.0010276669760860288,-0.0020160586589745445,-0.00023760525155020143,-0.0016961876923573978,-0.0003990168493800316,0.0016613397463491467,0.1935308277606964,-23.56198501586914,19.604904174804688,17.92273712158203,0.8769632577896118,2.3604629039764404,-0.11347807943820953,,,,,,,,,
1739400645.0778236,-0.7083174523321386,0.6800775064285055,1.4219506987167714,-1.8788612581206219,-0.7141010976801466,1.946242054936824,0.18889287597114743,-0.0003743398085563521,0.0018109420640645896,-0.0013801206968481528,-0.0014998634137692293,-0.0015736286654350698,-0.0009624909130175971,0.000701762774025681,0.2411382496356964,-23.58578872680664,19.577133178710938,17.92273712158203,0.8833719491958618,2.3732802867889404,-0.10066069662570953,,,,,,,,,
1739400645.087824,-0.7083223695004514,0.6800883731868715,1.4219470148767703,-1.8788545896854456,-0.714105663151522,1.9462443102588185,0.18889049929097054,-0.0008821322806333105,0.0011591192006853795,-0.0001534212982156123,-0.000740527981866352,-0.00098967353430035,0.0011856805395644187,0.0008678040281336503,0.2411382496356964,-23.63736343383789,19.529525756835938,17.84735870361328,0.8897806406021118,2.3540542125701904,-0.08051909506320953,,,,,,,,,
1739400645.09784,-0.7083249185642252,0.6800997453253321,1.4219333674659915,-1.8788492883990247,-0.7141046778844243,1.9462436668399208,0.1888907171611963,-0.0012492125397999725,0.0016485831478351151,-0.0010826073490656759,-0.0002958531323152542,-0.0017293032779464813,0.0017077061988278082,-0.001832209341156078,0.2927129566669464,-23.68893814086914,19.628707885742188,17.79975128173828,0.8769632577896118,2.3476455211639404,-0.05396880581974983,,,,,,,,,
1739400645.1078691,-0.708330842379142,0.6801109240222951,1.4219202061131064,-1.8788468024601033,-0.7141039202273382,1.946242440409881,0.1888966972776036,-0.0001335477161378076,-0.00014074261859025559,-0.0013850245665324363,0.0003852580837562734,-0.00046209177319569733,0.0008367858071579495,0.00013178778705954467,0.3442876636981964,-23.74051284790039,19.680282592773438,17.79975128173828,0.8705545663833618,2.3668715953826904,-0.12080229818820953,,,,,,,,,
1739400645.1188674,-0.708337407253816,0.6801204894650803,1.4219055164345744,-1.878851454609128,-0.7141047956249865,1.9462404657015455,0.18889685503091852,-0.002012943888579764,-0.0001972760063042088,0.0004249938052526859,-0.0006768807116986627,-0.0002961298003233362,0.0002458004137574437,0.0022588884358661345,0.3918950855731964,-23.74051284790039,19.755661010742188,17.82355499267578,0.8769632577896118,2.3732802867889404,-0.12080229818820953,,,,,,,,,
1739400645.1288893,-0.7083371967918848,0.6801288137811937,1.421894011275982,-1.8788564865972193,-0.7141086149483935,1.9462399945290574,0.18889890235342585,-0.00095957511944181,0.0003421357865912201,-9.940883703576968e-05,-0.0009285025881123661,-0.0008519705117849537,-0.0012579157542959812,0.00083709243686216,0.3442876636981964,-23.76828384399414,19.783432006835938,17.89893341064453,0.8833719491958618,2.3732802867889404,-0.11347807943820953,,,,,,,,,
1739400645.1398845,-0.7083361318515146,0.6801308432867529,1.4218837465119483,-1.878856376043091,-0.7141089344388366,1.9462397078165963,0.18889367228084478,-2.9093971059216138e-05,0.0002289882038030099,-0.0018933272007028508,0.00015356373353315642,-0.0026845846595454676,0.00039814378487511445,-0.0011543644685421545,0.3680913746356964,-23.79208755493164,19.783432006835938,17.89893341064453,0.8769632577896118,2.3796889781951904,-0.06678618490695953,,,,,,,,,
1739400645.149904,-0.708335282364896,0.6801350780674069,1.4218892614206544,-1.878852831345902,-0.7141055927645121,1.9462354293748585,0.18889692085971999,0.0002963941306295765,-0.0013125000099644209,-0.00020749519851753816,0.0016062275416206123,0.0006932399433233756,-0.0021845550493257587,-0.0009283431160223843,0.3165166676044464,-23.76828384399414,19.704086303710938,17.84735870361328,0.8833719491958618,2.3796889781951904,-0.09425200521945953,,,,,,,,,
1739400645.1607957,-0.708333578886462,0.6801353990611824,1.421889575798281,-1.8788555833974445,-0.7141060965533442,1.9462371688032236,0.18890011051879826,-9.132629602438672e-05,0.0006391020384681361,0.0005290299424399703,-0.001373963226083801,-0.0018283551595623657,0.00019342328176745994,-0.001800799538033827,0.2927129566669464,-23.76828384399414,19.656478881835938,17.84735870361328,0.8769632577896118,2.3732802867889404,-0.09425200521945953,,,,,,,,,
1739400645.1708252,-0.7083318576990864,0.6801287856377316,1.421891879215672,-1.8788507433380393,-0.7141094331203188,1.9462412035414065,0.18890016505754006,0.0006090941607149851,-0.0011460556439782247,0.0006818463683268085,0.0011918058001155005,0.0008252389326656954,-0.0003746020453987505,-0.0004861426543151191,0.2689092457294464,-23.68893814086914,19.656478881835938,17.82355499267578,0.8769632577896118,2.3668715953826904,-0.12080229818820953,,,,,,,,,
1739400645.1808689,-0.7083297118227113,0.6801306749833534,1.42189347442543,-1.8788566596600107,-0.7141070248429608,1.9462404260716393,0.18889767868412174,0.00047005469865994757,0.0009040792828955519,0.0009252886817073979,-3.161033295638621e-05,-0.001590982045765866,-0.0005301572645482701,0.002056795460873352,0.2689092457294464,-23.68893814086914,19.604904174804688,17.87512969970703,0.8833719491958618,2.3732802867889404,-0.10066069662570953,,,,,,,,,
1739400645.190907,-0.7083318537380133,0.6801260641884043,1.4218939954094982,-1.8788584719757853,-0.7141085519113592,1.9462419803143058,0.18889307339646824,-0.0006166616560525509,-0.0010415471423164068,-0.0020338927881387277,-0.0014792433730551101,-0.0002843890931680319,0.0012941126981382773,-0.002319749292081148,0.2689092457294464,-23.63736343383789,19.628707885742188,17.89893341064453,0.8705545663833618,2.3604629039764404,-0.06037749722599983,,,,,,,,,
1739400645.201913,-0.7083325596001616,0.6801259744215847,1.4218985125087293,-1.8788552942963384,-0.7141094070123704,1.9462372409665332,0.18889453980576057,-0.000981808471107896,-0.0006490272611251999,-0.00014712108655396387,0.000900563702028626,-0.0008398710294520828,-0.0004903469178199078,-0.0010042404159411413,0.2689092457294464,-23.63736343383789,19.577133178710938,17.84735870361328,0.8769632577896118,2.3732802867889404,-0.07411040365695953,,,,,,,,,
1739400645.2119138,-0.7083298609449264,0.6801259843717283,1.421898852590905,-1.8788549229871954,-0.7141086840760993,1.946240459126008,0.18889577426122892,-0.001174831296214796,-9.656192194840705e-05,-0.0006929337116594161,0.00103354336821848,-0.00016927167718758384,0.00047325493967386725,0.0006123754208255086,0.2411382496356964,-23.63736343383789,19.577133178710938,17.84735870361328,0.8705545663833618,2.3732802867889404,-0.08051909506320953,,,,,,,,,
1739400645.222875,-0.7083318478874822,0.6801259814829658,1.4219035024499813,-1.8788530357529643,-0.7141094418983224,1.9462419807994542,0.1888977417788938,-8.203989985383696e-05,0.0010850107209330632,0.0008667504822509034,0.00011671505396365789,-0.001492002655978335,0.0009405465191041814,1.1993837149424291e-05,0.2689092457294464,-23.63736343383789,19.553329467773438,17.82355499267578,0.8769632577896118,2.3604629039764404,-0.07411040365695953,,,,,,,,,
1739400645.2338254,-0.7083317782260244,0.680121961905736,1.4219055159911906,-1.8788555760251648,-0.7141086881143789,1.9462419764388392,0.18889855397844932,7.507598236964887e-05,-0.0008097480653235951,0.0015502019748823463,-0.0017834661097624522,0.0007006696052821878,0.0009487184648232762,-0.0002207384666204422,0.2689092457294464,-23.58578872680664,19.529525756835938,17.84735870361328,0.8705545663833618,2.3604629039764404,-0.10706938803195953,,,,,,,,,
1739400645.2438748,-0.7083318567164473,0.6801277136368725,1.4218996414003087,-1.8788515344568615,-0.7141091399202887,1.9462412216857874,0.188899552695267,0.00032766814341935195,0.00014795680163678249,-0.0008307356175672428,-8.507492571851945e-05,0.00022426571389999182,-0.0003283782724663875,8.594060856200955e-05,0.2689092457294464,-23.66513442993164,19.604904174804688,17.82355499267578,0.8833719491958618,2.3668715953826904,-0.11347807943820953,,,,,,,,,
1739400645.2548366,-0.7083335692385188,0.680127670306673,1.4218979853262226,-1.8788583996499755,-0.7141070650356032,1.9462408116231782,0.1888956922583755,-0.0009171645370436993,-0.0004936342635751621,-0.00036758339286703865,-0.001495319282223227,0.0006584357948821582,0.000269106837029935,-0.0011268195894547303,0.2927129566669464,-23.66513442993164,19.628707885742188,17.92273712158203,0.8568216562271118,2.3668715953826904,-0.04756011441349983,,,,,,,,,
1739400645.2658527,-0.7083318313149671,0.6801279826345149,1.4218952440188386,-1.878852820117269,-0.7141086884374146,1.9462411838865858,0.18889565347422824,-0.0003228852582038875,3.134970178917876e-05,7.690396721398262e-06,-0.0010002970275066058,0.0010087273057183058,0.001334527665945954,-0.001583955918461987,0.2689092457294464,-23.66513442993164,19.628707885742188,17.84735870361328,0.8705545663833618,2.3668715953826904,-0.08051909506320953,,,,,,,,,
1739400645.2758968,-0.7083334815892955,0.6801316927743359,1.4218949974097272,-1.8788546138847506,-0.714113422569894,1.9462418236005012,0.18890074585027053,0.0005113673306560405,1.4987417484246444e-05,0.0004253926899425199,-0.000578110625004817,-0.00042808380087411556,0.0005337633919325385,0.0014924367020939038,0.2927129566669464,-23.71670913696289,19.628707885742188,17.84735870361328,0.8833719491958618,2.3604629039764404,-0.08692778646945953,,,,,,,,,
1739400645.2868023,-0.7083318836988193,0.6801334051880679,1.4218893437261797,-1.8788535198076064,-0.7141089753268882,1.9462379985180562,0.1889019893165486,-0.0005825389174100304,0.0010169688801136792,-0.0012577050274857188,4.809337924314045e-05,0.0017250102676931367,-0.0003204755422288151,0.0002982569102554386,0.2689092457294464,-23.74051284790039,19.704086303710938,17.84735870361328,0.8769632577896118,2.3668715953826904,-0.10066069662570953,,,,,,,,,
1739400645.296907,-0.7083335407857186,0.6801357313748847,1.4218921568194658,-1.8788566609365842,-0.7141087018364216,1.9462368111994057,0.18889690673392553,-0.00010078282406344297,0.0010851712746442533,0.0002475906632426599,-0.0006514897397112423,0.0009363488610744402,0.00012688772391982877,-0.0016673090535435843,0.2927129566669464,-23.76828384399414,19.656478881835938,17.87512969970703,0.8705545663833618,2.3732802867889404,-0.06678618490695953,,,,,,,,,
1739400645.3077974,-0.7083318576984411,0.6801327613573546,1.4218903526494644,-1.8788587484895152,-0.7141094462592228,1.9462372340137455,0.18890007955772298,2.002360556327173e-05,0.00022215144066610264,-0.0001818917882073557,-0.0011185715713701392,0.0004580858970545546,0.0005640211313246236,-0.00011098468638201704,0.2689092457294464,-23.71670913696289,19.680282592773438,17.89893341064453,0.8769632577896118,2.3732802867889404,-0.12080229818820953,,,,,,,,,
1739400645.3179088,-0.7083335702553366,0.680136385515167,1.4218877920998734,-1.8788594754448982,-0.7141094469676044,1.9462357029306283,0.18889769943985218,-0.0001507444665969164,-6.88009985417836e-05,2.0035300922002927e-05,-0.0006299832048010322,0.0008742715457310702,-0.0005549999637085182,-0.0005138866743489498,0.2927129566669464,-23.74051284790039,19.680282592773438,17.89893341064453,0.8769632577896118,2.3732802867889404,-0.06037749722599983,,,,,,,,,
1739400645.3288505,-0.7083296213395077,0.6801366239445372,1.4218916879785657,-1.8788628109348358,-0.7141093329365915,1.9462396879481263,0.18889587718373224,0.0010033826089593794,1.1380524298362265e-05,0.0008087560036307437,-0.0014322293006718174,0.0007750704496844757,-0.0005511282662235389,-0.00174690391396134,0.2411382496356964,-23.74051284790039,19.628707885742188,17.94654083251953,0.8769632577896118,2.3668715953826904,-0.05396880581974983,,,,,,,,,
1739400645.338882,-0.7083314244484212,0.6801312760212685,1.421892396827175,-1.8788536007479466,-0.7141086930121601,1.9462375194673862,0.18889991012283153,-0.00018587823267596454,-2.2306352702665508e-05,-0.0002467951540715159,0.0018547082512700114,0.0007720782632259424,0.0008859189670690059,-0.0009795418861711846,0.2927129566669464,-23.66513442993164,19.628707885742188,17.82355499267578,0.8705545663833618,2.3668715953826904,-0.08051909506320953,,,,,,,,,
1739400645.3489008,-0.7083307090513665,0.6801366239471544,1.4218959886048346,-1.8788577265981312,-0.71411096157923,1.9462379744666678,0.18890321815418046,-0.00046806814130334563,0.0015559763738927975,0.0010743018429273021,-0.0005786710903511441,0.00037573361864034875,-0.0007249536737980504,0.0008405480510830588,0.2927129566669464,-23.74051284790039,19.604904174804688,17.87512969970703,0.8897806406021118,2.3540542125701904,-0.10706938803195953,,,,,,,,,
1739400645.3598783,-0.7083318577534469,0.6801292026956659,1.4218935447579817,-1.8788509987517357,-0.7141117192392337,1.946235737807183,0.18889935350161768,-0.000368708089165754,-0.00034497988703059956,-0.0014270730976199725,0.00211343156706658,-0.0004952237277474025,-0.0010070489799445435,-0.00036628901602318593,0.2689092457294464,-23.63736343383789,19.604904174804688,17.82355499267578,0.8961893320083618,2.3732802867889404,-0.11347807943820953,,,,,,,,,
1739400645.3708322,-0.708333570219671,0.6801292030227128,1.4218967623714622,-1.8788555322725706,-0.714110217003048,1.946238748884583,0.18890635787265903,-0.0011994203761831238,0.0003825264976969128,-0.0007547494014668919,-0.0002720981790334299,0.000391996590984536,-0.0008956890423414735,0.0018393384181881393,0.2927129566669464,-23.63736343383789,19.604904174804688,17.84735870361328,0.8833719491958618,2.3604629039764404,-0.13361968100070953,,,,,,,,,
1739400645.3808656,-0.7083345062333517,0.6801274901749348,1.4219015523668088,-1.8788535381131535,-0.7141094521460987,1.9462372516997848,0.18890244834620942,-0.001903788495293531,-0.0011772003899864878,-4.063085829931844e-06,-0.0007003050006476367,-0.00016225144859097822,0.0016482088185453619,-6.419694286737042e-05,0.2927129566669464,-23.61355972290039,19.553329467773438,17.84735870361328,0.8769632577896118,2.3604629039764404,-0.10066069662570953,,,,,,,,,
1739400645.3919613,-0.7083318577042234,0.6801264485244879,1.4218974616117488,-1.8788495421964906,-0.7141109882336661,1.9462396337362746,0.18890479942961863,-0.0002634858715314328,-0.0014993229250458407,-0.00016410840622985937,0.0012657257415740878,-0.00014148421335945195,-0.000313666027787563,0.0007352194548698684,0.2689092457294464,-23.61355972290039,19.604904174804688,17.77594757080078,0.8897806406021118,2.3668715953826904,-0.12080229818820953,,,,,,,,,
1739400645.4019763,-0.708334273513901,0.6801312009459218,1.42189916958555,-1.8788528227429808,-0.71410944625945,1.9462408642844788,0.1889031696433936,-0.0009012811930256144,0.002035083240088032,0.0003137364897093691,0.0005945340929477947,-0.0001962621872185113,0.0008129343991806041,0.0007911068127474368,0.2927129566669464,-23.66513442993164,19.604904174804688,17.82355499267578,0.8769632577896118,2.3604629039764404,-0.13361968100070953,,,,,,,,,
1739400645.4128523,-0.7083315398194111,0.6801287373049167,1.4218988422201442,-1.8788510513988308,-0.7141102058813698,1.9462367698896774,0.18890078837274185,-0.00010459981052513137,-0.001214752204894422,0.0010450614039332715,0.0009353369378830637,-0.0006651503171593009,-0.0010083950630247328,0.000262640369302992,0.2689092457294464,-23.66513442993164,19.577133178710938,17.79975128173828,0.8833719491958618,2.3732802867889404,-0.11347807943820953,,,,,,,,,
1739400645.422892,-0.7083319857367524,0.6801283281166154,1.4218979997017591,-1.8788533133146597,-0.7141105236122827,1.946237212433964,0.18890804193707467,0.000509527004775573,-0.0008128215564641788,0.001350817602060213,-2.1360439660087104e-05,-0.00014512314561795014,-0.001798804007332539,0.002250209635185986,0.2689092457294464,-23.66513442993164,19.577133178710938,17.84735870361328,0.8769632577896118,2.3604629039764404,-0.12080229818820953,,,,,,,,,
1739400645.4338045,-0.7083281501270092,0.680132877819762,1.4218949518965898,-1.8788612553136093,-0.7141102039251587,1.9462375187666097,0.18890804051504062,0.0013839064719010697,0.000651072983294734,0.0007591001851816589,-0.001986679945692191,0.000127039596600023,0.0007964733757259677,0.001276135182060348,0.2173345386981964,-23.68893814086914,19.628707885742188,17.92273712158203,0.8833719491958618,2.3668715953826904,-0.12080229818820953,,,,,,,,,
1739400645.4438107,-0.7083319357001285,0.6801329134836951,1.4218928266632445,-1.8788528576430004,-0.7141070294198479,1.9462365071136574,0.1889056054371186,-0.0004977453372747376,-0.0007455230308189059,0.0006301760939728884,0.000805999615630226,0.0003840024658755424,-0.0002286852070175686,0.0009917209743538899,0.2689092457294464,-23.68893814086914,19.656478881835938,17.84735870361328,0.8833719491958618,2.3668715953826904,-0.12721098959445953,,,,,,,,,
1739400645.4547944,-0.7083318576993799,0.6801366355016076,1.4218911253852,-1.8788556019680431,-0.7141109615073999,1.9462372298708064,0.18889881406333445,-0.0007161189314938294,0.0008561899002611148,-0.0005325182649073997,0.0013700584838223962,-0.0006204058640550839,0.0008432824648479777,-0.0009992732296524893,0.2689092457294464,-23.74051284790039,19.680282592773438,17.84735870361328,0.8897806406021118,2.3604629039764404,-0.06678618490695953,,,,,,,,,
1739400645.4649026,-0.7083298597580866,0.6801375590489515,1.4218911260639717,-1.8788525515251795,-0.7141109619082217,1.9462410465333522,0.18890008090625388,-6.185718067009652e-05,-0.0003179355455340587,0.0003076166711321537,0.001372229764428132,0.001517795912074397,0.0007080979081612096,-0.000906933874972573,0.2411382496356964,-23.71670913696289,19.680282592773438,17.84735870361328,0.8897806406021118,2.3668715953826904,-0.08051909506320953,,,,,,,,,
1739400645.4768946,-0.7083329018025495,0.6801338498339182,1.4218896541074173,-1.8788567744016558,-0.7141102441460818,1.9462364678757025,0.1889032125053848,0.0002597098636463926,-0.00018693081945761122,-0.00042900482274338934,0.00016877658824011898,0.0002119357634039211,-0.00035573901972468623,4.844476882792411e-05,0.2411382496356964,-23.68893814086914,19.656478881835938,17.87512969970703,0.8833719491958618,2.3668715953826904,-0.10706938803195953,,,,,,,,,
1739400645.4869266,-0.7083304139591607,0.6801329395969622,1.4218939037602414,-1.8788576928017917,-0.7141112766414044,1.9462372169501383,0.18890318024662237,0.000249787057566275,-0.00016760766719659928,0.0009710076036432983,0.00032057037030581347,8.586959025679334e-05,-0.00043252882150968965,-0.0007001889991919798,0.2689092457294464,-23.68893814086914,19.628707885742188,17.87512969970703,0.8833719491958618,2.3604629039764404,-0.10706938803195953,,,,,,,,,
1739400645.4978504,-0.7083297537861236,0.6801331484508437,1.4218900274753543,-1.8788573071504155,-0.7141109615852108,1.946236454767855,0.1889017013831407,0.0006448980460563864,-6.531114382436671e-05,-0.000620475110519738,0.0015247274414994594,-0.0005570200962908896,-0.0008369604190358789,0.0005306811303256263,0.2411382496356964,-23.68893814086914,19.680282592773438,17.89893341064453,0.8897806406021118,2.3668715953826904,-0.09425200521945953,,,,,,,,,
1739400645.5078733,-0.7083335689060916,0.6801312269758854,1.4218945082650283,-1.8788517639355866,-0.7141094462589989,1.9462364547678297,0.1889017042948578,0.0005118255343477008,-0.000763124515670639,0.001479955886453552,0.00014356176956465175,0.0021458062140586208,-0.0004133217541427868,-0.0003468816943802655,0.2927129566669464,-23.66513442993164,19.604904174804688,17.82355499267578,0.8769632577896118,2.3668715953826904,-0.09425200521945953,,,,,,,,,
1739400645.51881,-0.7083319657888661,0.6801292033437559,1.4219006297764192,-1.878855396780503,-0.714109499240905,1.9462364549831703,0.1889031671418864,0.0004093040282106226,-0.0016227570825631645,0.002096472396020289,-0.0010161417968307725,0.0009506367279018598,-7.850610633992802e-05,0.0005384932195279991,0.2411382496356964,-23.63736343383789,19.553329467773438,17.87512969970703,0.8769632577896118,2.3668715953826904,-0.10706938803195953,,,,,,,,,
1739400645.5288737,-0.7083336050295074,0.6801329144472815,1.4218965242980757,-1.8788517289440039,-0.7141127841200033,1.9462372129124286,0.18890560083166288,-0.000839798481779755,-0.000129254463686477,-0.0003171646329702878,0.0007543057153740538,-0.0010065036101983625,-0.0010012718371859497,-0.00013903918926321803,0.2927129566669464,-23.68893814086914,19.604904174804688,17.82355499267578,0.8769632577896118,2.3604629039764404,-0.12721098959445953,,,,,,,,,
1739400645.539852,-0.7083318579111121,0.6801312006365244,1.421898851335504,-1.8788507567289499,-0.7141098039602177,1.9462357147118625,0.1888942609670602,0.0004407994621838035,0.0016492211639751284,0.00044040829674782216,0.0008641214263034836,0.0015407794718940984,-0.00020295018049474944,-0.0017965885221202284,0.2689092457294464,-23.66513442993164,19.577133178710938,17.82355499267578,0.8769632577896118,2.3732802867889404,-0.06678618490695953,,,,,,,,,
1739400645.5498729,-0.7083318430847066,0.6801274906089755,1.42189892786632,-1.878849215707538,-0.7141109615852129,1.946238323300994,0.1888976994496831,4.4525114618081205e-05,-0.0003846958447917487,0.0006938464749271906,0.000978747539477253,0.00022824607537375274,0.00038791623745414416,-0.0009260925638247733,0.2689092457294464,-23.61355972290039,19.577133178710938,17.79975128173828,0.8897806406021118,2.3540542125701904,-0.06037749722599983,,,,,,,,,
1739400645.560885,-0.7083357022507503,0.6801290550873402,1.4218967715474762,-1.8788577710781291,-0.714110890070458,1.9462372521602753,0.18890083839777297,-0.0005833786454294916,0.0003586995233086349,-0.0007012024987866968,-0.0019057072876893808,0.0005703539112125106,0.0004451953273236425,7.47873279675188e-07,0.2927129566669464,-23.66513442993164,19.604904174804688,17.87512969970703,0.8769632577896118,2.3604629039764404,-0.08692778646945953,,,,,,,,,
1739400645.5718884,-0.7083318635413265,0.6801312009514542,1.4218988513368997,-1.878855583413589,-0.714109446267149,1.9462364678500061,0.18889574661351258,0.0010334699596248771,0.0003692884146704796,0.000921585299947267,0.0002483408968976314,0.0019221558121326387,-0.0010413432756907603,-0.0014869919408421113,0.2689092457294464,-23.66513442993164,19.577133178710938,17.84735870361328,0.8769632577896118,2.3668715953826904,-0.06678618490695953,,,,,,,,,
1739400645.5828238,-0.7083335702197038,0.6801349085173785,1.4218949888700252,-1.8788587866840512,-0.7141102178186512,1.9462344456593774,0.18890396413710622,0.0001075842599693866,0.0009284694811280233,-0.0006466454370220233,-0.0013536379684453686,-0.0001771984073863735,-4.0829704598836455e-05,0.00020064768939875497,0.2927129566669464,-23.71670913696289,19.628707885742188,17.89893341064453,0.8833719491958618,2.3870131969451904,-0.11347807943820953,,,,,,,,,
1739400645.5928855,-0.7083304143699781,0.6801351205731128,1.42189498785254,-1.878859364929834,-0.7141102083344713,1.9462373694176365,0.18890559710811122,-0.0002711142086886403,0.001072468064993963,-0.00019036122290504458,-0.00047374593798990317,0.0008317650425935414,-0.00043175116924354395,0.00037741796637225794,0.2689092457294464,-23.68893814086914,19.628707885742188,17.89893341064453,0.8833719491958618,2.3604629039764404,-0.12721098959445953,,,,,,,,,
1739400645.603831,-0.7083298597499389,0.6801387299891244,1.421892909080164,-1.8788594414702953,-0.7141120351713919,1.9462379247925312,0.1889025218601986,0.001279225574555278,0.001842041079137293,0.0003161968852717265,7.812606406082287e-05,-0.0010748600971785581,0.00083129310380256,0.00010894395079972456,0.2411382496356964,-23.74051284790039,19.656478881835938,17.89893341064453,0.8897806406021118,2.3668715953826904,-0.07411040365695953,,,,,,,,,
1739400645.6138594,-0.7083298914818206,0.6801349144567466,1.421892622149351,-1.8788574603837158,-0.7141127926315942,1.9462365725302946,0.18890635870931652,0.0016634846126839654,0.0005457066863551093,-0.00021416307102229752,-0.0001412384993541782,-0.00015149478376252223,-0.0001221683665723002,0.0007327298145978079,0.2411382496356964,-23.71670913696289,19.656478881835938,17.87512969970703,0.8961893320083618,2.3668715953826904,-0.13361968100070953,,,,,,,,,
1739400645.6239173,-0.7083298626475549,0.6801349107650493,1.4218911253808062,-1.8788553604120897,-0.7141138584926096,1.9462361680600255,0.18890484756038164,0.00034126800156547424,-0.0006443311061758327,0.0004902464143683638,0.0009146614445072076,-0.00026388329988839474,0.001234425389780003,0.0004392484585138295,0.2411382496356964,-23.71670913696289,19.680282592773438,17.87512969970703,0.8769632577896118,2.3732802867889404,-0.12080229818820953,,,,,,,,,
1739400645.6348739,-0.7083352828474158,0.6801368696120216,1.4218890004944609,-1.8788576927588168,-0.7141096054476578,1.9462364722130912,0.18889932307764146,-0.0010510543312008034,0.00019970976119475882,0.001231066453957506,-0.00043327159618925247,-0.00028218263934258155,0.0009025933473830989,-7.498166003800792e-05,0.3165166676044464,-23.74051284790039,19.704086303710938,17.87512969970703,0.8769632577896118,2.3668715953826904,-0.07411040365695953,,,,,,,,,
1739400645.6458137,-0.7083318576989401,0.6801349201289979,1.4218918831140168,-1.8788593989545743,-0.7141087342231273,1.946236460582129,0.1889024751187985,0.0003127413121062681,-0.0002464395375484659,0.0008617614046046991,-0.0015998154783020597,0.0008513474378978363,0.0002829233646838914,0.0008048322059720392,0.2689092457294464,-23.71670913696289,19.656478881835938,17.89893341064453,0.8705545663833618,2.3668715953826904,-0.10066069662570953,,,,,,,,,
1739400645.6559205,-0.7083343329179937,0.6801292415419437,1.4218901370510266,-1.87885380472402,-0.7141109748254045,1.9462349394477714,0.1888993230778396,-6.861150290025632e-05,-0.002765669165795613,-0.0008008780121367409,0.001047351249147997,-0.001039154409120995,0.00012236630407279011,-0.0014073387746970252,0.3165166676044464,-23.63736343383789,19.680282592773438,17.82355499267578,0.8897806406021118,2.3796889781951904,-0.07411040365695953,,,,,,,,,
1739400645.6668012,-0.7083342722245697,0.6801356221024235,1.4218921384991476,-1.87885489454324,-0.7141142191003224,1.9462372124279081,0.18890212821769664,-0.001006835698790055,1.843078564455695e-05,0.0009043525408909562,0.00018398279412125138,-0.0021385134034060203,0.0003248893952676777,0.0015438041269037967,0.2927129566669464,-23.71670913696289,19.656478881835938,17.84735870361328,0.8769632577896118,2.3604629039764404,-0.12080229818820953,,,,,,,,,
1739400645.6768732,-0.7083342735257894,0.6801343240171348,1.4218945064989472,-1.8788546067847953,-0.7141146573114843,1.9462364547678297,0.18890263051340492,-0.001055282581802935,-0.0006033706190991895,0.0004192480007234499,-0.0004892786445212358,-0.0015155567136682876,0.00043327688361687543,0.0006344063088541974,0.2927129566669464,-23.66513442993164,19.604904174804688,17.84735870361328,0.8897806406021118,2.3668715953826904,-0.10706938803195953,,,,,,,,,
1739400645.6878831,-0.7083342722339017,0.6801349114427817,1.4218947415706573,-1.8788496398325776,-0.7141130225585476,1.9462356971077515,0.1889028173720478,-0.0005037043144331193,0.0005950506752402304,-0.000874497334812118,0.0014002003335615927,1.926901719649833e-05,-0.0007677954713992514,0.00017025109943032504,0.2927129566669464,-23.71670913696289,19.628707885742188,17.79975128173828,0.8769632577896118,2.3732802867889404,-0.10066069662570953,,,,,,,,,
1739400645.6988168,-0.7083305617723101,0.6801300178439522,1.4218988503180185,-1.8788517042294022,-0.7141148535921309,1.9462379700879864,0.18890433416017127,0.0007462242218127767,0.00031926438895693294,0.0006030710980032916,0.00032197482304454456,-0.0014706094937903015,-0.0004926925351362746,0.0005869288458229951,0.2411382496356964,-23.63736343383789,19.577133178710938,17.79975128173828,0.8833719491958618,2.3540542125701904,-0.11347807943820953,,,,,,,,,
1739400645.708827,-0.7083304919550171,0.6801319408647244,1.4218971326385883,-1.8788566057823801,-0.7141118391813635,1.9462362192926899,0.18890671391896297,-0.0006110446867632487,0.0005189901000240197,-0.0001465226584157314,-0.000999466812076125,-0.00020925450727000391,-0.00047227859945153097,0.0018821135559444239,0.2689092457294464,-23.66513442993164,19.628707885742188,17.89893341064453,0.8961893320083618,2.3668715953826904,-0.13361968100070953,,,,,,,,,
1739400645.71886,-0.7083294762699344,0.6801301390489259,1.4218967726331355,-1.8788517992685534,-0.7141127841211373,1.9462356971037635,0.18890839738138449,0.0020187109296587458,0.0001834237441843927,-8.222859340769071e-05,0.0008935566722568129,0.00019652325917747152,-0.0007104617364092009,0.000890293913914377,0.2689092457294464,-23.63736343383789,19.604904174804688,17.84735870361328,0.8769632577896118,2.3732802867889404,-0.12080229818820953,,,,,,,,,
1739400645.7297833,-0.708329859815302,0.6801285739493227,1.4218949889750099,-1.8788549117615971,-0.7141109621430789,1.9462387277480648,0.1888961847623699,0.0010174318638007697,-0.00047582393634455734,-0.0013605353200571305,-0.001239874740628229,-8.895407928185845e-05,-0.00014089693943299776,-0.000821644533792804,0.2411382496356964,-23.66513442993164,19.628707885742188,17.87512969970703,0.8897806406021118,2.3476455211639404,-0.04756011441349983,,,,,,,,,
1739400645.739826,-0.7083335817753962,0.6801312018820561,1.421894988870027,-1.8788525400355989,-0.7141117192392432,1.9462379700879864,0.1889091096785882,0.0004094276986296719,0.00013739208821604917,-0.0006292642937582555,0.0013992364579206644,-4.1579049181635465e-05,-6.665982970639365e-05,0.0020691862532928877,0.2927129566669464,-23.66513442993164,19.628707885742188,17.84735870361328,0.8961893320083618,2.3540542125701904,-0.12080229818820953,,,,,,,,,
1739400645.7498312,-0.7083311434067664,0.680136702910047,1.4218949888700252,-1.8788553202388187,-0.7141099743308156,1.9462396336822176,0.18890484533941404,0.00037907267378174827,0.0013786774309810998,0.00012981180711291494,-0.00020441158936966358,-0.00023062296454757965,0.0005234537442033586,0.0015738378278413374,0.2689092457294464,-23.74051284790039,19.628707885742188,17.87512969970703,0.8833719491958618,2.3668715953826904,-0.12080229818820953,,,,,,,,,
1739400645.7599132,-0.7083335702156386,0.6801349114255978,1.4218949887569712,-1.8788546059669866,-0.7141140955835195,1.9462356971795316,0.18889698200188346,-0.00023334570053369522,-0.0002328403232209282,-0.0002860993113033771,0.0002042521122131301,-0.0012315819600863269,-0.00038845151590074785,-0.0010673517687968404,0.2927129566669464,-23.71670913696289,19.628707885742188,17.87512969970703,0.8769632577896118,2.3732802867889404,-0.05396880581974983,,,,,,,,,
1739400645.77086,-0.7083345023444317,0.680132991485439,1.4218927316356968,-1.8788517550701476,-0.7141134230867137,1.946238761179721,0.1889024619553107,-0.0005964786121618307,-0.002203741745807589,0.0012379081194303261,0.0016029291451495225,-0.0014259527425667432,0.00044963297554895644,-0.0006418380214064786,0.2927129566669464,-23.68893814086914,19.628707885742188,17.82355499267578,0.8833719491958618,2.3476455211639404,-0.10066069662570953,,,,,,,,,
1739400645.7818558,-0.7083335702249326,0.6801332370806898,1.4218895835490384,-1.8788556043971578,-0.7141134667396558,1.9462372124280969,0.18890560088672317,-0.0008070230377062589,-0.0007808186396420384,-1.5150082856131043e-05,0.00016160689848185105,-0.0005396069438998912,0.0005671425105409844,0.001379742151312714,0.2927129566669464,-23.68893814086914,19.656478881835938,17.84735870361328,0.8833719491958618,2.3604629039764404,-0.12721098959445953,,,,,,,,,
1739400645.7938128,-0.7083339637297216,0.6801360710878332,1.4218877977004794,-1.8788553834288104,-0.7141127921957664,1.9462356971077515,0.18890345211122062,-0.00042179027992193336,0.0011312388864968157,-0.0007801099559679117,0.0004539847209440114,-0.0018327556661905775,-0.0001609632134151817,0.0006377615772479271,0.2689092457294464,-23.68893814086914,19.680282592773438,17.84735870361328,0.8961893320083618,2.3732802867889404,-0.08051909506320953,,,,,,,,,
1739400645.80386,-0.7083318581744837,0.6801397449722881,1.421884045272724,-1.8788528779726843,-0.7141145484414642,1.9462390297261156,0.18890397897359387,-0.0006936926952910096,0.0008957836950721394,-0.0012476912684323029,0.0010977011900233703,-0.0017274933808352478,0.000878288989175695,-0.00030829868078268666,0.2689092457294464,-23.74051284790039,19.731857299804688,17.82355499267578,0.8833719491958618,2.3540542125701904,-0.11347807943820953,,,,,,,,,
1739400645.8138602,-0.7083346660609827,0.6801380358035078,1.421887824847479,-1.8788534673427966,-0.714111085440703,1.9462364547857747,0.18890515609613037,-0.0007225892498717666,0.0010878553279049692,7.748464245658647e-06,0.0004939735405200246,-0.001109616723672979,-0.0001007307646901692,0.0004819686378054722,0.2689092457294464,-23.71670913696289,19.680282592773438,17.84735870361328,0.8897806406021118,2.3668715953826904,-0.08692778646945953,,,,,,,,,
1739400645.8248627,-0.7083318577504586,0.6801352364297066,1.4218934458969639,-1.878855536335616,-0.7141091654367777,1.9462372124279081,0.18890596795892894,0.00034106108338436547,-0.001105414447298768,0.0008595737850936868,-0.0005802963261753196,0.0011978409582772452,0.0010868073238834743,0.002069334483522518,0.2689092457294464,-23.71670913696289,19.604904174804688,17.84735870361328,0.8705545663833618,2.3604629039764404,-0.09425200521945953,,,,,,,,,
1739400645.8358665,-0.7083298637169925,0.680137598944136,1.421893958666357,-1.878852908067421,-0.7141111210181397,1.9462364547678297,0.18890404305498454,6.018688777235514e-05,0.0007506206991237984,-0.0002039631136558782,0.0009607918144743091,8.02053668265583e-05,8.095404030985284e-05,-0.0008636195986509279,0.2411382496356964,-23.74051284790039,19.628707885742188,17.82355499267578,0.8897806406021118,2.3668715953826904,-0.08692778646945953,,,,,,,,,
1739400645.846805,-0.7083335702196931,0.6801343327130625,1.4218927500199843,-1.8788517555022812,-0.7141102039199769,1.9462364547678297,0.1889000809183004,-0.0007273551283631466,-0.00024547583123209617,-0.0014556035814995913,0.0006216901561736819,0.0006095698877866257,2.4262110171441488e-05,-0.0020562452488514424,0.2927129566669464,-23.66513442993164,19.628707885742188,17.82355499267578,0.8833719491958618,2.3668715953826904,-0.08051909506320953,,,,,,,,,
1739400645.856844,-0.708331857805937,0.6801322510895654,1.4218939245668458,-1.8788513547689945,-0.7141105323880812,1.9462387277480648,0.18889722709875006,-7.382131596452905e-05,-0.0008912742399047156,0.00017773897115016786,0.0004075823790897109,0.00048058900812881036,0.000459932339796312,-0.0016434393384018322,0.2689092457294464,-23.66513442993164,19.628707885742188,17.79975128173828,0.8769632577896118,2.3476455211639404,-0.06037749722599983,,,,,,,,,
1739400645.8677897,-0.7083298592049305,0.680134359997836,1.421898738352353,-1.878857408205931,-0.7141119079099669,1.9462372124279081,0.18889770396015598,0.0007956758664651609,0.0008445858175692323,0.0003806466137198831,-0.0018131046969509055,0.0004789567090476315,-2.4438758835622592e-05,-0.002064868323525884,0.2411382496356964,-23.66513442993164,19.577133178710938,17.89893341064453,0.8705545663833618,2.3604629039764404,-0.06037749722599983,,,,,,,,,
1739400645.8778622,-0.7083318576989301,0.6801322510900275,1.4218965238440182,-1.8788575818095559,-0.7141134424108668,1.9462379700879864,0.18890485633626278,-0.00038478969018135236,0.0011764935806985565,0.0004518090935934321,-0.0017785959314284357,-0.0006208861309765638,0.0004663024691538002,0.0008897116371830937,0.2689092457294464,-23.66513442993164,19.604904174804688,17.87512969970703,0.8833719491958618,2.3540542125701904,-0.12080229818820953,,,,,,,,,
1739400645.8879178,-0.7083334642558579,0.6801343599740262,1.4218942471191396,-1.8788538289734995,-0.714112195589142,1.9462379700879864,0.18890043615820717,-3.279724379589384e-05,0.0010666017329531133,-0.0006585136883103613,-0.00048009347279416386,-0.0011795615394447553,0.0005491357314664561,-0.0006839880303554347,0.2927129566669464,-23.66513442993164,19.628707885742188,17.82355499267578,0.8897806406021118,2.3540542125701904,-0.08051909506320953,,,,,,,,,
1739400645.898872,-0.7083335702190726,0.680130535916866,1.4218939983628651,-1.8788548464631647,-0.7141105196401437,1.9462356971077515,0.18890008729447277,-0.0012098663366124863,-0.0009248935303241488,-0.00033085482965571474,-0.0010776424325359484,0.0015120313420937622,-0.00034635282750398246,-0.0009943602307188326,0.2927129566669464,-23.61355972290039,19.628707885742188,17.84735870361328,0.8769632577896118,2.3732802867889404,-0.08051909506320953,,,,,,,,,
1739400645.9098616,-0.7083282252384954,0.6801322840671062,1.4218965238403403,-1.8788555364833728,-0.7141153916248074,1.946232216215312,0.18890174232809342,0.0006642157744217399,-0.0006599362325939403,-0.0002613552658081435,-0.0005134702695912316,-0.0014749052376478598,-0.0011800673752382822,0.0006062290757273051,0.2173345386981964,-23.63736343383789,19.604904174804688,17.84735870361328,0.8897806406021118,2.3668715953826904,-0.09425200521945953,,,,,,,,,
1739400645.9198692,-0.7083297803935452,0.680133159202619,1.4218928265466217,-1.8788556127008884,-0.7141156129422882,1.946237970016206,0.1889048826642605,0.0011593371487646918,-0.001442510145526568,0.00038319631572175574,-0.0009725359105572992,-0.0009297290277710064,0.0002587684700904062,0.0006776527722505361,0.2411382496356964,-23.68893814086914,19.656478881835938,17.84735870361328,0.8897806406021118,2.3540542125701904,-0.12080229818820953,,,,,,,,,
1739400645.929883,-0.7083326793535097,0.6801380694590106,1.4218949888686274,-1.8788528324481724,-0.7141110197090895,1.9462340735504393,0.1888989705659153,0.00012955224866437968,0.0006485427435413056,0.00018082180272796993,0.0007695173454132188,0.0011858442975282726,-0.0007770290479848531,-0.0008317898357967562,0.2411382496356964,-23.71670913696289,19.628707885742188,17.84735870361328,0.8897806406021118,2.3870131969451904,-0.06678618490695953,,,,,,,,,
1739400645.9407997,-0.7083383201433644,0.6801397833190994,1.4218849559407436,-1.878855600672185,-0.7141118386123757,1.9462364547678297,0.18890165013351493,-0.0014134937474246632,0.00046237082854383297,-0.0002699416005768416,-5.538101656252752e-05,-0.00044914901332200163,0.00013072074057499095,-0.002747576832034782,0.3165166676044464,-23.74051284790039,19.731857299804688,17.87512969970703,0.8961893320083618,2.3668715953826904,-0.06678618490695953,,,,,,,,,
1739400645.9508362,-0.7083318489200605,0.6801397791401537,1.4218877981700662,-1.878854660615569,-0.7141109748266535,1.9462372124279081,0.18890246785969678,0.00029744156568913005,0.00017976897787050095,-0.0011584850225170756,0.0014234812124098008,0.000919505112005975,0.00045445702878109634,-0.00010772129021862492,0.2689092457294464,-23.74051284790039,19.680282592773438,17.84735870361328,0.8897806406021118,2.3604629039764404,-0.10066069662570953,,,,,,,,,
1739400645.960857,-0.7083319356999309,0.6801397049908511,1.4218877797128884,-1.8788576156194419,-0.7141148928180236,1.9462372124279081,0.18890259359232825,-5.980963762117989e-05,0.0005732830561468079,-0.0002542643167864874,0.00018739637150559993,-0.00036614026609831107,-0.0009023235851483291,-0.0002396983590796551,0.2689092457294464,-23.74051284790039,19.680282592773438,17.87512969970703,0.8833719491958618,2.3604629039764404,-0.10066069662570953,,,,,,,,,
1739400645.9708583,-0.7083318577002605,0.6801380704700042,1.421891651009768,-1.8788538300238582,-0.7141132690394048,1.9462372124279081,0.18890322026745168,4.9980184297591e-05,0.00023134082752007768,0.00041157399941523615,0.0008501417484432165,0.0006516553383775095,0.0004073653813569533,3.69696734152696e-05,0.2689092457294464,-23.71670913696289,19.628707885742188,17.82355499267578,0.8961893320083618,2.3604629039764404,-0.10706938803195953,,,,,,,,,
1739400645.9818895,-0.7083335703266682,0.6801322510900277,1.4218916245189643,-1.8788556167496098,-0.7141102436642555,1.9462364547678297,0.18890881277887256,-0.0007653050128184753,-0.0015479154331346982,0.0003075802610655934,-0.001213421511085665,0.0019883517469126218,2.436174722448355e-06,0.0011046729929940428,0.2927129566669464,-23.66513442993164,19.628707885742188,17.87512969970703,0.8833719491958618,2.3668715953826904,-0.12721098959445953,,,,,,,,,
1739400645.9928908,-0.7083335731086025,0.6801323620569829,1.4218934336867872,-1.8788546941974484,-0.7141134358701039,1.9462379657273354,0.1889032254838337,-0.0006383953436812055,-0.00048780985042988663,-0.00027902571735654474,0.000844402059709122,-4.892075314919806e-05,0.0008492566463443993,0.0008718022441775097,0.2927129566669464,-23.63736343383789,19.604904174804688,17.84735870361328,0.8833719491958618,2.3540542125701904,-0.10706938803195953,,,,,,,,,
1739400646.0039048,-0.7083318576989558,0.6801343600097408,1.4218923958090637,-1.8788546937140806,-0.714114148421442,1.9462340335134953,0.18890357991093457,-0.00016662558790252435,0.0010347051824116953,-0.00029303747315900417,0.00033395808883917113,-0.0011515701186534414,-0.0008189077527734717,0.0005389691569210775,0.2689092457294464,-23.66513442993164,19.628707885742188,17.84735870361328,0.8769632577896118,2.3604629039764404,-0.10706938803195953,,,,,,,,,
1739400646.0148041,-0.708329859865084,0.6801360725304721,1.4218987278297095,-1.8788528575328804,-0.7141130392467054,1.9462364937804004,0.1888990248619648,-0.0008628682078567196,0.0009234212081209614,0.0004831748268597524,0.0002454632355726615,-0.0002641436424598372,-0.00014700454839320203,0.0007580368775332924,0.2411382496356964,-23.68893814086914,19.577133178710938,17.84735870361328,0.8705545663833618,2.3668715953826904,-0.10706938803195953,,,,,,,,,
1739400646.0258605,-0.7083335701106563,0.6801360715674951,1.4218967592220766,-1.8788556125505416,-0.7141113375954357,1.946237970088647,0.1889017422570179,-0.0003606517190053228,0.0007314942270166349,0.0005517313786888174,0.0002497759662615297,0.0002009758009080661,-1.7389489886577653e-05,4.255436745257996e-05,0.2927129566669464,-23.68893814086914,19.604904174804688,17.84735870361328,0.8897806406021118,2.3540542125701904,-0.09425200521945953,,,,,,,,,
1739400646.0368547,-0.7083281732377352,0.6801319419387308,1.4218964296720031,-1.8788594741775935,-0.7141094641565435,1.9462371731820514,0.1889017174587916,0.0009478037808925,-0.0007561569955226094,-0.00010832735458522795,-0.0006813306121522867,0.0004988728249287933,0.00038332687557236306,0.00039675473676463875,0.2173345386981964,-23.66513442993164,19.604904174804688,17.89893341064453,0.8769632577896118,2.3604629039764404,-0.09425200521945953,,,,,,,,,
1739400646.0488677,-0.7083281393701614,0.680134126973817,1.4218957790448559,-1.8788534977328049,-0.714111139711839,1.9462372124276865,0.18890246699312319,0.0011979760462073872,4.7104837251051165e-05,2.5286661257776686e-05,-4.376755466872209e-05,0.0017687339078567362,-2.7076450253460854e-05,0.0009038653689955939,0.2173345386981964,-23.66513442993164,19.604904174804688,17.82355499267578,0.8897806406021118,2.3604629039764404,-0.10066069662570953,,,,,,,,,
1739400646.0598013,-0.708331831314969,0.6801343860247114,1.4218898583185942,-1.8788538293480108,-0.7141123416828905,1.9462364722104326,0.18890519859277188,0.00048251659720030093,-3.900428680590183e-05,-0.0023170606026575993,0.00026003194444929376,0.0006683511276951073,-0.0002018437502127253,-0.00027234826173544273,0.2689092457294464,-23.66513442993164,19.656478881835938,17.82355499267578,0.8641458749771118,2.3668715953826904,-0.12080229818820953,,,,,,,,,
1739400646.0699105,-0.7083318578054901,0.6801343600101815,1.421889819943522,-1.8788538303400846,-0.7141107401902896,1.9462387277483602,0.18890083840379243,-0.00047399727886350947,8.22382365777879e-05,-0.0015565261439200303,-0.00045847344756856965,0.00012901107362084277,0.0009077063742841742,-0.0009344374869637175,0.2689092457294464,-23.66513442993164,19.656478881835938,17.82355499267578,0.8833719491958618,2.3476455211639404,-0.08692778646945953,,,,,,,,,
1739400646.0808606,-0.7083297119317282,0.6801302473713123,1.4218879120369994,-1.8788576801745478,-0.7141118125116533,1.9462340343045839,0.18890471441934092,0.0011037319183391753,-0.0012933209165234927,-0.0016857875180617465,-0.001136553694859489,-0.0004016033059217242,-0.0005230812496904079,0.0023045380655480744,0.2689092457294464,-23.63736343383789,19.680282592773438,17.87512969970703,0.8833719491958618,2.3870131969451904,-0.08051909506320953,,,,,,,,,
1739400646.0918257,-0.7083298626349047,0.6801353793385916,1.4218921353210778,-1.878857692771912,-0.7141105654835992,1.9462356971075299,0.1888993231579456,0.0017002672597451313,-0.000867131045867832,-0.00012463408632748025,-0.0012841669467191419,0.0022096842756481653,-0.0004893610268297233,-0.0016774582721413025,0.2411382496356964,-23.68893814086914,19.656478881835938,17.87512969970703,0.8769632577896118,2.3732802867889404,-0.07411040365695953,,,,,,,,,
1739400646.1018753,-0.7083314273414386,0.6801356524242435,1.4218925687748027,-1.878858785459467,-0.7141149744354304,1.9462356971077515,0.18890175711237978,0.000529675138934566,-0.0006976192650788239,0.0020790938920719967,-0.00012838158958773888,-8.808882207793622e-05,3.493259596000812e-05,0.0008826269606283532,0.2927129566669464,-23.71670913696289,19.656478881835938,17.89893341064453,0.8833719491958618,2.3732802867889404,-0.09425200521945953,,,,,,,,,
1739400646.1119573,-0.7083298638946972,0.6801376769203245,1.42188957138388,-1.8788545720751062,-0.7141120410845264,1.9462372124279081,0.18889848201614906,0.0008016736413876582,0.00013887647858405847,-0.0004044802381233855,-9.183693872678086e-05,0.00010253633430663042,0.00029967518685496207,-0.0010286286042715024,0.2411382496356964,-23.74051284790039,19.656478881835938,17.82355499267578,0.8897806406021118,2.3604629039764404,-0.05396880581974983,,,,,,,,,
1739400646.1229067,-0.7083314340822525,0.680138079289754,1.4218938762499902,-1.8788576928111633,-0.7141097812750727,1.946234939447673,0.18890357439610472,-0.0007234621463001559,0.0002522708298703007,0.001254957704411407,-0.0009170886204438648,0.001592850983476401,-0.00011466311262272244,-0.00015129604553893187,0.2927129566669464,-23.71670913696289,19.628707885742188,17.87512969970703,0.8705545663833618,2.3796889781951904,-0.10706938803195953,,,,,,,,,
1739400646.1338422,-0.7083318575415259,0.6801380704713749,1.4218877885556047,-1.878855383428859,-0.7141150313836446,1.9462372124279081,0.18890050927655175,0.00013489748874079301,0.0002913849113100863,-0.0009808233583468908,-5.54296021607025e-05,-0.001142047228065848,0.00020231951937049194,-0.0007422494609103424,0.2689092457294464,-23.71670913696289,19.680282592773438,17.84735870361328,0.8833719491958618,2.3604629039764404,-0.07411040365695953,,,,,,,,,
1739400646.1448472,-0.7083298597580857,0.6801343218177082,1.4218877885430432,-1.8788556016781326,-0.7141091037056135,1.9462356580234004,0.1889048431791693,-9.200472636502658e-05,-0.0017337170745212785,0.000285656284277697,0.0005059342282610886,0.000665020591977717,-0.00043718616232006564,-0.0009139559654933618,0.2411382496356964,-23.66513442993164,19.680282592773438,17.84735870361328,0.8705545663833618,2.3732802867889404,-0.12080229818820953,,,,,,,,,
1739400646.1568432,-0.7083281472373554,0.6801390244368088,1.4218934340260985,-1.878859502536116,-0.7141135165502362,1.946236454767609,0.18890089105263108,0.0011175407732387315,0.002411275063901948,0.0005698401988688122,-0.001361985822692937,-0.0003498720959995844,-6.461784227979194e-05,0.0003921325350961615,0.2173345386981964,-23.71670913696289,19.604904174804688,17.89893341064453,0.8705545663833618,2.3668715953826904,-0.08692778646945953,,,,,,,,,
1739400646.1677806,-0.7083339582163247,0.6801316600485335,1.421898480463555,-1.8788517630659995,-0.7141150186498271,1.9462356971077515,0.18890637165644336,-0.00041628781690397713,-0.0014013212831079868,0.0014966577078573844,0.00034453124875129704,-0.0005087676553380558,-0.0005188881191989667,0.0015077810644346947,0.2689092457294464,-23.63736343383789,19.577133178710938,17.82355499267578,0.8833719491958618,2.3732802867889404,-0.13361968100070953,,,,,,,,,
1739400646.1778388,-0.7083298611846258,0.6801343688281698,1.4218918000150513,-1.878853002187837,-0.7141104549075314,1.946234939447673,0.18890519859298532,0.0007366330661423216,0.0002975295409757009,-0.000828450142348989,0.0008352881552022967,0.0010790640837345373,-0.00039272156537585503,0.0009786660180109536,0.2411382496356964,-23.66513442993164,19.656478881835938,17.84735870361328,0.8705545663833618,2.3796889781951904,-0.12080229818820953,,,,,,,,,
1739400646.1879086,-0.7083298601861004,0.6801360725306215,1.42189590621365,-1.8788508362004126,-0.7141108965868385,1.9462372124279081,0.18890321962118153,0.00023294193111017862,-1.030111603826558e-06,0.0004356591956594063,0.00038225277687082486,0.0012116178031110656,0.00014689938373547116,0.0010865022975337472,0.2411382496356964,-23.68893814086914,19.604904174804688,17.82355499267578,0.8769632577896118,2.3604629039764404,-0.10706938803195953,,,,,,,,,
1739400646.1988862,-0.7083335698926244,0.6801353695572344,1.4218917339300743,-1.878851531606163,-0.7141107388700934,1.9462364547678297,0.18890636336807967,-0.000278293835811844,6.309225609672667e-05,-0.0014737181943475747,-0.0001350992534706905,0.0012570966058424676,-0.00020386583459323883,0.0011721505802478787,0.2927129566669464,-23.68893814086914,19.628707885742188,17.82355499267578,0.8833719491958618,2.3668715953826904,-0.13361968100070953,,,,,,,,,
1739400646.210862,-0.7083344273214013,0.6801322840637795,1.4218890689490762,-1.8788517808644172,-0.7141142736659097,1.9462372124279081,0.188905988840303,-0.0005638641576822033,-0.0009591032200406784,-0.001530002297183743,-0.0007661175560764284,-0.0006439540498181069,-7.597147990040596e-05,0.0003117768847192066,0.2689092457294464,-23.63736343383789,19.704086303710938,17.79975128173828,0.8769632577896118,2.3604629039764404,-0.09425200521945953,,,,,,,,,
1739400646.2217867,-0.7083318577037747,0.680134342948548,1.4218945051171485,-1.8788553026531343,-0.7141145528778191,1.9462364156834786,0.1889013561966597,-0.00015893490324350382,-0.0007063531419517769,0.0010752452486904773,-6.817394654678975e-05,0.00011135119443204091,-0.0008609012042740446,0.0005301807996028302,0.2689092457294464,-23.66513442993164,19.604904174804688,17.84735870361328,0.8833719491958618,2.3668715953826904,-0.08692778646945953,,,,,,,,,
1739400646.2318265,-0.7083352828473995,0.6801397829917674,1.4218916602984828,-1.8788594669754701,-0.7141110555762954,1.9462372124272462,0.18890613464017494,-0.0009511233933753492,0.001428729925216868,-0.00018543729336765145,-0.0016030467394000923,-0.00010875317655078587,0.00010339611000440534,-9.017048363244533e-06,0.3165166676044464,-23.74051284790039,19.628707885742188,17.89893341064453,0.8769632577896118,2.3604629039764404,-0.10066069662570953,,,,,,,,,
1739400646.2428126,-0.7083298626470182,0.6801382178696942,1.4218919165611212,-1.8788535457779127,-0.7141150333306846,1.9462372124279081,0.18890357570624403,0.0014941396983826948,9.779770334791097e-05,-0.00025996416378824393,0.00011498283373550025,-5.161071448722942e-06,0.0004869629075524674,-0.00017715696723458093,0.2411382496356964,-23.68893814086914,19.656478881835938,17.84735870361328,0.8833719491958618,2.3604629039764404,-0.10706938803195953,,,,,,,,,
1739400646.2528138,-0.7083298597581354,0.6801380705076566,1.4218880368491438,-1.8788553805594272,-0.7141157851402475,1.9462356971077515,0.18890804196110655,0.0006133356966157092,0.0006690137405835062,-0.000940581646859819,0.00041208284696354577,0.0004212716480311812,-0.0002817779234429765,0.001868170083490159,0.2411382496356964,-23.71670913696289,19.680282592773438,17.84735870361328,0.8897806406021118,2.3732802867889404,-0.12080229818820953,,,,,,,,,
1739400646.262934,-0.7083318605878707,0.6801396761016058,1.421889681112666,-1.8788537169592454,-0.7141141152894313,1.9462356971077515,0.1888978640400908,9.331523222577058e-05,0.00032352550309233907,-8.968351073818548e-05,0.0014037601386062606,-0.00013712378470045865,7.53008783375957e-05,-0.0011438990164350025,0.2689092457294464,-23.74051284790039,19.656478881835938,17.82355499267578,0.8769632577896118,2.3732802867889404,-0.06037749722599983,,,,,,,,,
1739400646.2749069,-0.7083298568146636,0.6801338886433016,1.4218896078501488,-1.8788576575335167,-0.7141142737437549,1.9462364533142793,0.18890495573339508,0.0010444651402954628,-0.0014932848322553468,0.0004957691613381432,-0.001045788338418872,0.0002577983292509033,0.0003267722698725232,0.0011067952408002465,0.2411382496356964,-23.68893814086914,19.656478881835938,17.87512969970703,0.8769632577896118,2.3668715953826904,-0.09425200521945953,,,,,,,,,
1739400646.285848,-0.708331857698934,0.6801382182816861,1.4218926403447358,-1.878856598233411,-0.7141150314047296,1.9462346734360254,0.18890323885808402,-0.00012460515757468433,0.0008153288755249038,0.0016382958359760552,-8.656147790811106e-05,0.0004414120341727179,-0.00011774908002438035,0.0013197140043479673,0.2689092457294464,-23.68893814086914,19.628707885742188,17.84735870361328,0.8833719491958618,2.3540542125701904,-0.09425200521945953,,,,,,,,,
1739400646.2958903,-0.7083348997434025,0.6801343603731282,1.421891733442971,-1.8788576928236609,-0.7141102979243209,1.946237212372079,0.1889056140222539,-0.0008889757189220654,-0.0015135256072827507,0.0007237604898616621,-0.001048337508175037,0.0007767558804266787,5.5077053501819967e-05,0.001227507804978874,0.2689092457294464,-23.66513442993164,19.628707885742188,17.87512969970703,0.8705545663833618,2.3604629039764404,-0.12721098959445953,,,,,,,,,
1739400646.3067923,-0.7083315427136043,0.6801333229379811,1.4218895712205277,-1.8788576801045622,-0.7141145550399761,1.9462364547678292,0.1889032215654168,0.0006541543507600753,-0.0009619255293632917,-0.0005167987590071765,-0.0006713629909671785,0.0004684264280419399,7.37364427056562e-05,0.00042722119800883197,0.2689092457294464,-23.66513442993164,19.656478881835938,17.87512969970703,0.8833719491958618,2.3668715953826904,-0.10706938803195953,,,,,,,,,
1739400646.3168898,-0.7083318576936052,0.6801387770427061,1.421889598692162,-1.8788531075620265,-0.7141110597734582,1.9462364416858773,0.1889039772752738,0.0005806996218762414,0.0006144497304208394,-0.0009388636893082338,0.0005920926562403325,0.0009685405220622314,-1.3842519918137088e-05,-0.0008338510104548124,0.2689092457294464,-23.71670913696289,19.656478881835938,17.82355499267578,0.8769632577896118,2.3668715953826904,-0.11347807943820953,,,,,,,,,
1739400646.3278527,-0.7083335702196708,0.6801322530563092,1.4218938793026,-1.8788535922444909,-0.7141139165892111,1.9462372124278342,0.18889948104218968,-0.00043287020570551655,-0.001472424896469368,-0.000923448705807642,-0.000608950181753693,0.00032992588535377826,0.00025739138505422634,-0.00025070786590887235,0.2927129566669464,-23.66513442993164,19.628707885742188,17.82355499267578,0.8769632577896118,2.3604629039764404,-0.07411040365695953,,,,,,,,,
1739400646.337854,-0.7083318576989396,0.6801350752297968,1.42189368097357,-1.8788538293912616,-0.7141154319214567,1.9462372124279081,0.18890479926356743,-0.00045370507065878914,-0.0005451689779173436,-0.000405920397269718,-0.0003805820092199164,8.231248452784603e-05,0.0002406887049270056,0.0015374547870190755,0.2689092457294464,-23.66513442993164,19.604904174804688,17.82355499267578,0.8897806406021118,2.3604629039764404,-0.10706938803195953,,,,,,,,,
1739400646.3478591,-0.7083318488686218,0.6801322539910711,1.4218978521141215,-1.878853725466435,-0.7141118132384293,1.9462367567458807,0.1889050018138576,-0.0001655894149942339,-0.0008206573669369212,0.0007065302479910816,-7.504294955050061e-05,0.0010387854313241038,0.0002747408334911653,0.0008880187745676495,0.2689092457294464,-23.66513442993164,19.577133178710938,17.82355499267578,0.8833719491958618,2.3732802867889404,-0.12080229818820953,,,,,,,,,
1739400646.3578758,-0.7083319857383973,0.6801370261691229,1.4218956685761956,-1.8788515255325284,-0.7141142748267395,1.9462356971256964,0.18890059851314864,0.0011943940379454032,0.0013985478631489742,-1.387270699851616e-05,0.0018312021347630554,-0.0006297223493334889,-0.0007699870224376747,-0.0011103880991188157,0.2689092457294464,-23.68893814086914,19.604904174804688,17.82355499267578,0.8769632577896118,2.3732802867889404,-0.08051909506320953,,,,,,,,,
1739400646.3688748,-0.7083359102545957,0.6801373005109331,1.4218939174519125,-1.8788516846688952,-0.7141157895553855,1.9462372124279081,0.18890438730349043,-0.0014552263688606226,0.0011718882970489454,-0.0007780067096451683,-0.00010886792959102402,-0.0007870242078512764,0.0002620940297613284,0.0010838401936289458,0.2927129566669464,-23.66513442993164,19.628707885742188,17.82355499267578,0.8897806406021118,2.3604629039764404,-0.11347807943820953,,,,,,,,,
1739400646.3798144,-0.7083363783095888,0.6801343715154435,1.421894987733438,-1.8788576668301495,-0.7141142344987955,1.9462356971077515,0.18889774063935413,-0.001429823963805915,-0.00015166052890912065,0.0002515916228251188,-0.0005610585551064456,-0.00013334426820322209,-0.0006828809377688574,0.0003594759402498369,0.2927129566669464,-23.66513442993164,19.628707885742188,17.87512969970703,0.8769632577896118,2.3732802867889404,-0.06037749722599983,,,,,,,,,
1739400646.3898575,-0.7083298607686188,0.680134386500889,1.4218899145082347,-1.8788574631132964,-0.7141185127870698,1.9462364533142793,0.1889095045907075,9.012523047378918e-05,8.288238630946467e-05,-0.0007606372890711793,-0.00024021118073345665,-0.0013246898990493662,-0.0007466942819531677,0.002342997645258067,0.2411382496356964,-23.66513442993164,19.656478881835938,17.87512969970703,0.8769632577896118,2.3668715953826904,-0.12080229818820953,,,,,,,,,
1739400646.4008532,-0.7083336052078422,0.6801361520034813,1.421892813306605,-1.878859449867913,-0.7141150317557061,1.946235684025791,0.18890564035000862,-0.001256807789960812,0.0007467869400911953,-0.0007345739951271493,-0.0014219381534216987,0.00038028555317930386,-0.0006523005790397318,-0.00024066794272057247,0.2927129566669464,-23.68893814086914,19.656478881835938,17.89893341064453,0.8833719491958618,2.3732802867889404,-0.12721098959445953,,,,,,,,,
1739400646.4108624,-0.7083318615514402,0.6801388466587289,1.421887802164417,-1.8788577076812065,-0.7141135165751447,1.946236454767608,0.18889845718105353,0.0001144710239368333,-0.00027828761854686987,-0.0004994782763530694,-7.615366956416193e-05,-0.00034399578737488864,9.086744118821904e-05,-0.0018111443552778612,0.2689092457294464,-23.74051284790039,19.680282592773438,17.87512969970703,0.8705545663833618,2.3668715953826904,-0.06678618490695953,,,,,,,,,
1739400646.4209049,-0.7083336482208761,0.6801370300065198,1.4218917969125802,-1.878855575225066,-0.7141150323798204,1.9462358053912698,0.18890008073769504,0.00033976229433477673,-0.0004890667706504415,-0.00014270365170220364,0.0003786302245467839,-0.0009260489466962459,-0.00037972759245177097,-0.00013919452086293084,0.2927129566669464,-23.68893814086914,19.656478881835938,17.84735870361328,0.8833719491958618,2.3604629039764404,-0.08051909506320953,,,,,,,,,
1739400646.431927,-0.7083339675829506,0.6801360725466871,1.4218927946507802,-1.8788559787351768,-0.714116520560991,1.9462364547440012,0.18890641839776537,-0.0009294499910915556,-0.00038942639823890876,3.45462355641746e-05,-5.293349498597475e-05,-0.0016474365336718118,-0.00028750427868164526,-0.0005187891830692225,0.2689092457294464,-23.68893814086914,19.656478881835938,17.82355499267578,0.8961893320083618,2.3668715953826904,-0.10706938803195953,,,,,,,,,
1739400646.4427888,-0.7083355206353663,0.680140499241053,1.421894865251642,-1.8788538185748733,-0.7141142742351753,1.9462356971077515,0.18890595690891976,-0.0017010092727625084,0.0012658102880557477,0.00039199584565173464,0.0004071823183432908,-0.00032489842287582947,8.260582136155416e-05,0.0016636568509255764,0.3165166676044464,-23.74051284790039,19.628707885742188,17.82355499267578,0.8769632577896118,2.3732802867889404,-0.12721098959445953,,,,,,,,,
1739400646.4538164,-0.7083324812006605,0.6801381470592969,1.4218938793205893,-1.878851358898232,-0.7141142742352254,1.9462372124279081,0.18890510804784547,-0.0003066814607115303,0.0004557139621342121,-0.0002869948271293798,0.0017345555826138051,-7.501811600540346e-05,-0.0006537135868249315,0.0005612893693213658,0.2689092457294464,-23.71670913696289,19.628707885742188,17.79975128173828,0.8769632577896118,2.3604629039764404,-0.08692778646945953,,,,,,,,,
1739400646.4639022,-0.708335282750961,0.6801363109503482,1.421889608000319,-1.8788553821574512,-0.7141157895553821,1.9462361527897787,0.18890879984997633,-0.0016473983427602932,-0.000228918736426113,-0.00023636100383405691,3.0387372604281107e-05,-0.001282224946605859,6.0852044348375415e-05,0.0013142533473987576,0.3165166676044464,-23.68893814086914,19.656478881835938,17.84735870361328,0.8897806406021118,2.3604629039764404,-0.12721098959445953,,,,,,,,,
1739400646.4748156,-0.7083298598650841,0.6801345984296658,1.421889583430092,-1.8788556120710096,-0.7141157910089323,1.9462356971017696,0.18890091773744838,0.0007150629522471412,-0.0003391099399235795,0.00040261867662311825,-0.0010714147526208215,-0.0005037380020235391,-0.0008753013888536394,-0.0008590068965670305,0.2411382496356964,-23.66513442993164,19.656478881835938,17.84735870361328,0.8897806406021118,2.3732802867889404,-0.08692778646945953,,,,,,,,,
1739400646.484832,-0.7083318576989414,0.6801315519727358,1.4218899283575646,-1.87885768180843,-0.7141157880836871,1.946237212427908,0.18889805542992416,0.00040985639169592944,-0.0006997029398039981,-0.0008292079200833283,-2.439432854063942e-05,-0.0006052291745848273,2.6214561370775714e-05,-0.0015760938402946442,0.2689092457294464,-23.66513442993164,19.656478881835938,17.87512969970703,0.8897806406021118,2.3604629039764404,-0.06037749722599983,,,,,,,,,
1739400646.495818,-0.7083318924731103,0.6801380666035655,1.421896506582021,-1.8788538048302323,-0.7141165397841764,1.9462332758534415,0.1888984709961678,-0.0008556839546332766,0.0006024097480656379,-0.00014442163092723975,0.0006087404812940033,-0.0006338454516984711,-0.0006818162352070198,-0.0009899623314822063,0.2689092457294464,-23.71670913696289,19.577133178710938,17.82355499267578,0.8961893320083618,2.3668715953826904,-0.06678618490695953,,,,,,,,,
1739400646.5058298,-0.7083327938202068,0.6801360813607243,1.4218966890910365,-1.878855622627983,-0.7141151893631212,1.9462364547139945,0.188906490130008,-0.0009413869462405734,0.00015576967592539968,0.0006328085910127659,-0.00042081024444149057,-0.0003282352418717613,-0.00022428361596769952,0.001189355340841634,0.2689092457294464,-23.68893814086914,19.604904174804688,17.87512969970703,0.8833719491958618,2.3668715953826904,-0.13361968100070953,,,,,,,,,
1739400646.515835,-0.7083298597739399,0.6801343561579822,1.4218917612926085,-1.8788577531894441,-0.7141141550286026,1.9462342842569114,0.18890708102133508,0.0008040610429429532,0.00034855288219795837,-0.0005196922547338909,0.0001272585622732624,0.0001023038134067773,-0.001309953580231116,0.0015704776566188854,0.2411382496356964,-23.66513442993164,19.628707885742188,17.84735870361328,0.8769632577896118,2.3732802867889404,-0.12721098959445953,,,,,,,,,
1739400646.526806,-0.7083318952550441,0.6801360725304504,1.4218945418796505,-1.8788514579051558,-0.7141142698193936,1.9462364678418063,0.1889005721913889,-0.00047147858238339964,0.0006071301283171356,0.0006936445918946936,0.0011004148630645335,-0.0003257486350602412,0.00017997049468453292,0.00017098831636727782,0.2689092457294464,-23.68893814086914,19.604904174804688,17.82355499267578,0.8769632577896118,2.3668715953826904,-0.08051909506320953,,,,,,,,,
1739400646.5369167,-0.7083318663663689,0.6801360725304721,1.4218945173274125,-1.8788532065518335,-0.7141163802659326,1.9462356972694783,0.18890432732567605,-0.00016456495139740508,-0.0003717850841156916,0.001263461807104153,0.0012385237220330424,0.0014472301586385614,0.00011585979814370182,-0.00025861311515069214,0.2689092457294464,-23.68893814086914,19.604904174804688,17.84735870361328,0.8769632577896118,2.3732802867889404,-0.10706938803195953,,,,,,,,,
1739400646.5478637,-0.7083300848948992,0.6801380734147644,1.4218941846347957,-1.8788575897743638,-0.7141139721055386,1.9462356971077523,0.18889932308386975,0.00045718830105258605,0.0005157220617351856,-0.0010674189444733113,-0.001005650904910195,8.770779147445698e-05,-0.0004996477758141115,-0.0020516527183980175,0.2411382496356964,-23.71670913696289,19.604904174804688,17.87512969970703,0.8833719491958618,2.3732802867889404,-0.07411040365695953,,,,,,,,,
1739400646.5588217,-0.7083338042243619,0.6801343590467804,1.4218955501104975,-1.8788594414703377,-0.71411181372302,1.9462372122125673,0.18890682793554722,-0.0008493895581411389,-0.0008307868907859369,0.0017039799602827077,-0.0018379323757237885,0.0015094688429535428,0.0010812209802443496,0.0006255141911832534,0.2927129566669464,-23.66513442993164,19.577133178710938,17.89893341064453,0.8833719491958618,2.3604629039764404,-0.10706938803195953,,,,,,,,,
1739400646.5688794,-0.7083280677684586,0.6801365057769365,1.421891898259435,-1.8788576162769797,-0.7141177126348985,1.9462379700879826,0.1889024626662513,0.0009831465272820317,-0.00034615401763228766,-0.000286692104468369,-0.0004893416088367847,1.9743082793539403e-06,0.0009647573181207793,-0.0005999197329892684,0.2173345386981964,-23.66513442993164,19.628707885742188,17.87512969970703,0.9035135507583618,2.3540542125701904,-0.10066069662570953,,,,,,,,,
1739400646.579868,-0.708329926947998,0.6801343600581926,1.421889571221458,-1.8788555242047684,-0.7141156701842589,1.946235697592268,0.1888973471544308,0.001229599913051692,-0.0011334689746718997,-0.00015928835279696517,0.0001984148158850851,-9.063509647544045e-05,-0.0004692763821041762,-0.0019102909005319756,0.2411382496356964,-23.66513442993164,19.656478881835938,17.84735870361328,0.8897806406021118,2.3732802867889404,-0.06037749722599983,,,,,,,,,
1739400646.5898738,-0.7083346657411201,0.6801380704713259,1.4218916124181586,-1.8788574367625963,-0.7141157895533605,1.9462364533142875,0.1889056022892191,-0.0006710408149529896,-0.0006929778513833626,0.0006573710287614523,-0.0007751561127972916,-6.466894185200315e-05,5.01669491306558e-05,0.0007146648329611126,0.2689092457294464,-23.71670913696289,19.628707885742188,17.87512969970703,0.8897806406021118,2.3668715953826904,-0.12721098959445953,,,,,,,,,
1739400646.6007998,-0.7083318577504568,0.680138096998617,1.4218874254526324,-1.8788567659492166,-0.7141136018683458,1.9462357029219441,0.1889017101455537,-0.00021294774927462765,-0.0009353870406006221,-0.0002970555466704841,-0.0006023196133985833,0.0016542144758442145,-0.000178728628708074,-0.00010910907122143024,0.2689092457294464,-23.71670913696289,19.656478881835938,17.87512969970703,0.8833719491958618,2.3732802867889404,-0.09425200521945953,,,,,,,,,
1739400646.610884,-0.7083320917023624,0.6801363492151091,1.4218860057570077,-1.8788555751777247,-0.7141150318226508,1.9462314585555291,0.18891228707239666,0.0014148164299075975,-0.0010426248911655058,-0.000652113169440461,-0.0008821709479933225,-0.0002619200675676349,-0.0018239583077395763,0.0007261949021861802,0.2689092457294464,-23.68893814086914,19.704086303710938,17.84735870361328,0.8833719491958618,2.3732802867889404,-0.14735259115695953,,,,,,,,,
1739400646.6218805,-0.7083318577002605,0.680136072532034,1.4218895671864598,-1.878857688712596,-0.714116438859264,1.9462364416619506,0.18890322565251916,-0.000717095521732735,0.00013741109431913485,-0.00040142290271196986,-0.0007713934194414599,8.055864843684568e-05,-5.5439663584241886e-05,-0.0019427444891963897,0.2689092457294464,-23.68893814086914,19.656478881835938,17.87512969970703,0.8833719491958618,2.3668715953826904,-0.10706938803195953,,,,,,,,,
1739400646.632837,-0.7083301717626469,0.6801336844904334,1.4218938762499664,-1.8788566966647438,-0.7141145762212188,1.9462364547677555,0.18890087783494727,-0.0002509060545099015,-0.0008961262988751982,0.000731211354495408,-0.0006194075404836368,-8.531409888624247e-05,2.8376670444951334e-05,-0.0011460826439633168,0.2411382496356964,-23.66513442993164,19.628707885742188,17.87512969970703,0.8705545663833618,2.3668715953826904,-0.08692778646945953,,,,,,,,,
1739400646.6438878,-0.7083335703629211,0.6801358386711358,1.421893433691124,-1.8788526282162128,-0.7141157893572886,1.9462356971077515,0.1888994959401445,9.457847508718406e-05,-0.0010283603091709684,-2.802166587315613e-05,0.000254701238515628,0.00021739959397021997,-7.930116108310968e-05,0.00043753716913652715,0.2927129566669464,-23.68893814086914,19.604904174804688,17.84735870361328,0.8897806406021118,2.3732802867889404,-0.07411040365695953,,,,,,,,,
1739400646.6548245,-0.708333570326669,0.680136072965217,1.4218919807881674,-1.878853753443903,-0.7141142742352243,1.9462356971077515,0.1889001379439483,0.0002491847663783028,0.0003249614128322382,0.00017042879952189035,0.001068916690188607,0.0010873525328263726,0.0001414917769657257,0.00019973954199065244,0.2927129566669464,-23.68893814086914,19.628707885742188,17.82355499267578,0.8769632577896118,2.3732802867889404,-0.08051909506320953,,,,,,,,,
1739400646.665833,-0.7083335702196714,0.6801360725304746,1.4218955501458046,-1.878851649583617,-0.7141165472154605,1.9462372125894136,0.18890345129896827,-0.0010472968827387504,-5.732108155268723e-06,0.0013177274740433197,0.0010433456708880903,-0.0005514331276342574,-0.00033230436508650216,-0.001650894908892758,0.2927129566669464,-23.68893814086914,19.577133178710938,17.82355499267578,0.8961893320083618,2.3604629039764404,-0.08051909506320953,,,,,,,,,
1739400646.6768413,-0.7083298931170647,0.6801323591799567,1.4218919806753205,-1.8788545812748456,-0.7141157851402232,1.9462356971077523,0.18890915406419861,0.0020382349757202475,-0.0007299079772092819,-0.0003328436426878634,5.3613140383552835e-05,-9.532164482990233e-05,-0.00037531263728385713,0.0019574641117377353,0.2411382496356964,-23.63736343383789,19.628707885742188,17.84735870361328,0.8897806406021118,2.3732802867889404,-0.12080229818820953,0,0,0,0.000,0,0
1739400646.688895,-0.7083355167440105,0.6801381764351218,1.4218938762518503,-1.8788528537180222,-0.7141157895553571,1.9462364547678297,0.18890099638668145,-0.0017458338366662454,0.0003841100197402318,-0.00022681065454137106,0.000452369454007248,0.0006612576220371691,-0.0002981170130651842,-0.0005271906379758547,0.3165166676044464,-23.71670913696289,19.628707885742188,17.84735870361328,0.8897806406021118,2.3668715953826904,-0.08692778646945953,0,0,0,0.000,0,0
1739400646.6997988,-0.7083339284097715,0.6801343600103391,1.4218926400180667,-1.8788527812730162,-0.7141157895553821,1.9462364547678297,0.18890251412480275,-0.000709696747633285,-0.0007092166377921107,0.0005000776694487879,0.0007501439756282503,-0.00036346892041268675,0.0001774816400321276,0.000541313499692917,0.2689092457294464,-23.66513442993164,19.628707885742188,17.84735870361328,0.8897806406021118,2.3668715953826904,-0.10066069662570953,0,0,0,0.000,0,0
1739400646.7098014,-0.7083355167911772,0.6801360725304721,1.4218935056917086,-1.8788537168072255,-0.7141174131126928,1.9462356969462458,0.1889048447979176,-0.00019864791236339253,-0.00020257879640575837,0.0009008694301585678,-0.00029249421538520687,-0.00036732271341755025,-0.000646514926193877,0.0024342507673839036,0.3165166676044464,-23.68893814086914,19.604904174804688,17.82355499267578,0.9035135507583618,2.3732802867889404,-0.12080229818820953,0,0,0,0.000,0,0
1739400646.7198493,-0.7083400890472538,0.6801383098710506,1.4218898184701785,-1.8788534986057115,-0.7141192704478211,1.946236454767827,0.18889807460537722,-0.001984822725734247,0.0003175114154822036,0.0006102927835749816,0.0012100301811954703,-0.00012389778357122175,0.0005357145431621142,0.0009381803688153362,0.3442876636981964,-23.71670913696289,19.656478881835938,17.82355499267578,0.8833719491958618,2.3668715953826904,-0.06037749722599983,0,0,0,0.000,0,0
1739400646.7308278,-0.7083335740874322,0.6801360638650302,1.4218948652469725,-1.8788555376988314,-0.7141150450011827,1.9462364552523463,0.18890019964678367,0.0008557208505668429,-0.00036717251421876504,0.0014434119280437336,-0.0006766025505644117,0.0003579654209243208,0.0003826717877512964,-0.0008861305109847649,0.2927129566669464,-23.68893814086914,19.628707885742188,17.87512969970703,0.8833719491958618,2.3668715953826904,-0.08051909506320953,0,0,0,0.000,0,0
1739400646.7417715,-0.7083335701106763,0.6801419287592193,1.4218899980745823,-1.8788546218549802,-0.7141156167414133,1.9462356971077541,0.188899336458689,0.0006367624734992226,0.0020462321321371444,0.0003877274219058993,0.00033859581906775494,-0.00022596870010446228,-0.0004110929102503088,-0.0029461115488766338,0.2927129566669464,-23.74051284790039,19.656478881835938,17.87512969970703,0.8833719491958618,2.3732802867889404,-0.07411040365695953,0,0,0,0.000,0,0
1739400646.7517815,-0.7083281472373535,0.680138218443039,1.4218874706588331,-1.8788535098232628,-0.714113328574547,1.9462364547678297,0.18890119965364693,0.0010667846442150334,-0.0005243302769633991,-0.0008238354726606339,0.0005033348535128695,0.000682630692973241,0.00046615167971079637,-0.0006999868397303217,0.2173345386981964,-23.68893814086914,19.680282592773438,17.84735870361328,0.8961893320083618,2.3668715953826904,-0.08051909506320953,0,0,0,0.000,0,0
1739400646.761844,-0.708329895600213,0.6801364022320091,1.4218860058606406,-1.8788545884950636,-0.7141135165206391,1.9462369213574586,0.18890484319142212,0.000970655093541765,0.0006073402748213526,-0.0012732228423106649,0.0006950104825641614,0.0008487547877825642,0.0006414158988881189,5.9879170859000004e-05,0.2411382496356964,-23.68893814086914,19.704086303710938,17.84735870361328,0.8705545663833618,2.3668715953826904,-0.12080229818820953,0,0,0,0.000,0,0
1739400646.7728512,-0.7083325597094026,0.6801417809711093,1.421885767447445,-1.878851072440759,-0.7141150318953035,1.946234939450307,0.18890045370960357,0.0003314067615638961,0.0011395575214569794,-0.0013122678826040658,0.0013164198095134048,6.954292931096566e-05,-0.0006747848888155895,-0.0002275526148725781,0.2689092457294464,-23.76828384399414,19.704086303710938,17.82355499267578,0.8833719491958618,2.3796889781951904,-0.08051909506320953,0,0,0,0.000,0,0
1739400646.7828932,-0.7083335731204905,0.6801363119301983,1.4218917608942787,-1.878853030986116,-0.7141170978891652,1.9462364547678297,0.18890323278519316,-0.0003098014851773493,1.2197760420371533e-06,0.0010279891969271824,0.00039999615267541876,-0.0010693425096379523,8.634566321046846e-05,-5.440835279130738e-05,0.2927129566669464,-23.68893814086914,19.628707885742188,17.82355499267578,0.9099222421646118,2.3668715953826904,-0.10706938803195953,0,0,0,0.000,0,0
1739400646.792901,-0.7083318576989887,0.6801380709114444,1.4218934336887976,-1.878857004028655,-0.714116547197291,1.9462372124279081,0.18890375112384805,-0.0003317756875540184,0.00019148069611086953,0.0007220451842771345,-0.0003421133624157773,-0.0006290937828504558,0.00023380521007887104,0.0009911395709066013,0.2689092457294464,-23.71670913696289,19.604904174804688,17.87512969970703,0.8961893320083618,2.3604629039764404,-0.07411040365695953,0,0,0,0.000,0,0
1739400646.8047733,-0.7083325597092002,0.6801380703286644,1.4218916510099178,-1.878852854034894,-0.7141153851080134,1.9462364504071787,0.18890162113396472,-0.0003219568164444112,0.0009262684862207225,-0.00041003099375930854,0.0004152545285922934,-0.0014527576298575024,1.0108233703985708e-05,0.0003035376163355751,0.2689092457294464,-23.71670913696289,19.628707885742188,17.84735870361328,0.8833719491958618,2.3668715953826904,-0.08051909506320953,0,0,0,0.000,0,0
1739400646.815788,-0.7083318577002605,0.6801360728575206,1.4218956590400622,-1.8788556044620028,-0.7141157895560467,1.9462356578618867,0.18890326495974394,-0.0003641573879481517,0.0003079967079408109,0.0006342185261503806,0.0001336596490858942,-0.0008413962126582139,-0.0004476513083791552,-0.0007683610857687548,0.2689092457294464,-23.68893814086914,19.604904174804688,17.84735870361328,0.8897806406021118,2.3732802867889404,-0.10706938803195953,0,0,0,0.000,0,0
1739400646.8258564,-0.7083298597580866,0.6801360726394939,1.4218895712577488,-1.8788538044102352,-0.7141135033296704,1.9462372124272433,0.18890399635951705,0.0005792367583887679,0.0003544164430734908,-0.0012808616671293478,-9.938049480150217e-05,0.0004143449053582252,-7.463177601359455e-05,-0.0014565185434212283,0.2411382496356964,-23.68893814086914,19.656478881835938,17.82355499267578,0.8705545663833618,2.3604629039764404,-0.07411040365695953,0,0,0,0.000,0,0
1739400646.8358872,-0.7083335702196708,0.6801322539789607,1.421888777651685,-1.8788555120854795,-0.7141150318950794,1.9462364416858773,0.18890639790090524,-0.0004130974489931099,-0.001709472539281162,-0.0012929515093547594,-0.0007003950877095559,-2.0081080002173925e-05,6.071008308316358e-05,-0.0005254511173702473,0.2927129566669464,-23.66513442993164,19.680282592773438,17.87512969970703,0.8833719491958618,2.3668715953826904,-0.13361968100070953,0,0,0,0.000,0,0
1739400646.8468268,-0.708329885865464,0.6801343599978522,1.4218927224273876,-1.8788556117450668,-0.714115044977256,1.9462364547139206,0.18890718793217778,0.0008949083819241115,3.961257577617748e-05,0.0010162762200391473,-0.0007082125861176214,-0.0004805257977138111,0.0003847840424275116,0.0031127004061497583,0.2411382496356964,-23.66513442993164,19.628707885742188,17.84735870361328,0.8833719491958618,2.3668715953826904,-0.10066069662570953,0,0,0,0.000,0,0
1739400646.8578353,-0.708334280897167,0.6801323619618901,1.4218877885611878,-1.8788566850470396,-0.7141150691790891,1.9462356971077506,0.18889936459897466,-0.0006576720600235121,-0.001377062725370532,-0.0016079349185815352,-0.0007870980727651728,0.0006300213740932949,0.00022946439040397962,-0.0011010721337292003,0.2927129566669464,-23.63736343383789,19.680282592773438,17.89893341064453,0.8833719491958618,2.3732802867889404,-0.07411040365695953,0,0,0,0.000,0,0
1739400646.8678427,-0.7083319617044714,0.6801402162385364,1.4218934336869369,-1.8788538204213652,-0.7141165465615733,1.9462368592151984,0.1889028305393221,0.0003000126746103513,0.0007544347715583361,0.00043290916825226454,0.00011663040331865067,0.0004013600099723975,0.00019179054533424034,0.0006827710357272579,0.2689092457294464,-23.71670913696289,19.604904174804688,17.82355499267578,0.8961893320083618,2.3604629039764404,-0.10066069662570953,0,0,0,0.000,0,0
1739400646.878797,-0.7083339635849537,0.6801344394947135,1.42189417282935,-1.8788553802794443,-0.7141128439390879,1.9462356971057575,0.18890702446596896,-0.0005657482076914701,-0.0006730109516370095,0.0016018267317723885,-8.220690581955893e-05,0.0017899222727872728,-0.00032811863926222423,0.0019464187894638733,0.2689092457294464,-23.66513442993164,19.604904174804688,17.84735870361328,0.8769632577896118,2.3732802867889404,-0.12721098959445953,0,0,0,0.000,0,0
1739400646.8888497,-0.7083299379018875,0.680132574815183,1.4218877885555605,-1.8788612578421369,-0.7141143919485732,1.9462364547678297,0.18890565789942335,0.00045196487854933036,0.0009319445462333027,-0.0005121563752388067,-0.0018627896764743623,-8.452071671987407e-05,0.00019942829090242707,0.0017119938842561195,0.2411382496356964,-23.66513442993164,19.680282592773438,17.92273712158203,0.8769632577896118,2.3668715953826904,-0.12721098959445953,0,0,0,0.000,0,0
1739400646.899831,-0.7083270767367186,0.6801343599639976,1.4218916632197398,-1.878849215024738,-0.7141177677796173,1.9462371949853052,0.18890357454974294,0.0013157270822215204,-0.0006643025448034625,0.0006415185411125454,0.0011193690535808486,-0.0008342547737004014,0.0001293245972852648,-0.00088495679515274,0.2411382496356964,-23.66513442993164,19.628707885742188,17.79975128173828,0.9035135507583618,2.3604629039764404,-0.10706938803195953,0,0,0,0.000,0,0
1739400646.9099102,-0.7083329337866585,0.6801343600097386,1.4218856427764517,-1.8788535465788554,-0.7141165501224105,1.946237212427022,0.18889706035213027,-0.0006142583508034813,-0.0006641320712655683,-0.0020021929741812204,0.0009415077892249538,-0.00016101611584031812,0.0006251069208187809,-0.0017130534184282235,0.2927129566669464,-23.66513442993164,19.680282592773438,17.84735870361328,0.8961893320083618,2.3604629039764404,-0.05396880581974983,0,0,0,0.000,0,0
1739400646.9208546,-0.708331961263197,0.680137106004697,1.4218910028002363,-1.8788556264970715,-0.7141173338858212,1.9462364547678297,0.18890544478584856,-0.0007812641901324463,0.0008291025262851804,0.0009261844731549835,-8.209892491099074e-05,4.4004690752404624e-05,0.00015067793322553216,-0.000763494571013651,0.2689092457294464,-23.68893814086914,19.680282592773438,17.87512969970703,0.8769632577896118,2.3668715953826904,-0.11347807943820953,0,0,0,0.000,0,0
1739400646.9318304,-0.7083318577006934,0.6801419287767703,1.4218916510643516,-1.878862170592188,-0.7141165479132983,1.9462357160039045,0.1889058906163573,0.0004596731630371018,0.0002885404528427298,4.5459277068152085e-05,-0.0018113325680267453,0.0008565166121824278,-0.00039181187374618987,0.0007767923900464824,0.2689092457294464,-23.74051284790039,19.628707885742188,17.92273712158203,0.8961893320083618,2.3732802867889404,-0.11347807943820953,0,0,0,0.000,0,0
1739400646.9427989,-0.7083326677991293,0.6801380709114279,1.4218934341391525,-1.8788575793851168,-0.7141162476911637,1.9462372124279437,0.1889038851024762,0.00037063438317427844,0.0004754772437392217,0.0015485181635760635,-0.0004656449797117808,-0.0005942710192246682,0.0006721386716815222,-0.0010386330932349755,0.2411382496356964,-23.71670913696289,19.604904174804688,17.87512969970703,0.8833719491958618,2.3604629039764404,-0.10066069662570953,0,0,0,0.000,0,0
1739400646.9537838,-0.7083325597250517,0.6801327609752466,1.4218917964601363,-1.878856696839091,-0.7141149664742366,1.946234990197815,0.1889032198398828,-0.0003324220167820266,-0.002082063250880821,0.00010149386156382384,-0.00010916626991193379,-0.0007810452654174949,3.360394428750688e-05,-8.152037236033513e-05,0.2689092457294464,-23.61355972290039,19.656478881835938,17.87512969970703,0.8833719491958618,2.3732802867889404,-0.10706938803195953,0,0,0,0.000,0,0
1739400646.9647913,-0.7083298603979777,0.6801360735598764,1.4218898185192053,-1.8788528570075544,-0.7141153453712143,1.946236454763839,0.18890728305777593,0.0008836560310293561,0.00046859239212007295,-0.00037103118471436454,0.0014663671600361398,0.0002545336798854571,-0.00021318382550922614,0.00010345433318095809,0.2411382496356964,-23.68893814086914,19.656478881835938,17.84735870361328,0.8833719491958618,2.3668715953826904,-0.14094389975070953,0,0,0,0.000,0,0
1739400646.974879,-0.7083305617683797,0.6801360754739636,1.4218934340386626,-1.8788573856044668,-0.7141135689188821,1.9462356971077512,0.18890722878074773,0.0006888173131689055,0.0005538215847541716,0.0002613522114733737,-0.0005359511253317552,-8.356025190479194e-05,-0.00037891460417427305,0.0011113290097053254,0.2411382496356964,-23.68893814086914,19.604904174804688,17.87512969970703,0.8705545663833618,2.3732802867889404,-0.14094389975070953,0,0,0,0.000,0,0
1739400646.9858809,-0.708335308742103,0.6801373617932072,1.4218916421796006,-1.8788560555446023,-0.7141181841553126,1.9462364547678297,0.18890309097038174,-0.000766886539464035,0.0012101126447224032,-0.0010339874097631855,-0.00023624665955593012,0.0002923703963289164,0.00017770606345466253,-0.001622641086051018,0.3165166676044464,-23.68893814086914,19.628707885742188,17.82355499267578,0.8833719491958618,2.3668715953826904,-0.06678618490695953,0,0,0,0.000,0,0
1739400646.9967983,-0.7083339637655341,0.6801343601623738,1.4218895713330664,-1.8788549127872343,-0.7141150186676217,1.9462364547678297,0.1889092931993454,-0.0005727856317705154,-0.00036788177165954315,-0.0018949829797569949,0.0002661967840100361,-0.000453032527533691,-7.986229471147636e-05,0.001589273810551896,0.2689092457294464,-23.66513442993164,19.656478881835938,17.84735870361328,0.8833719491958618,2.3668715953826904,-0.12721098959445953,0,0,0,0.000,0,0
1739400647.0068142,-0.7083315658435472,0.6801360725304747,1.42189166028034,-1.878851075164128,-0.7141168535539382,1.9462372124279081,0.1889083013741843,0.0011666054378681335,0.00044000933625553155,-8.478837245649039e-05,0.00044872581411637026,-0.0004701714150638416,0.00034054714690221995,0.0018039620210153011,0.2689092457294464,-23.68893814086914,19.628707885742188,17.82355499267578,0.8897806406021118,2.3604629039764404,-0.11347807943820953,0,0,0,0.000,0,0
1739400647.0168436,-0.7083318836943769,0.6801380734147644,1.4218896031014212,-1.8788549228409552,-0.7141182108277107,1.9462356971077515,0.1889040042955946,0.001556360358470712,0.0006624366997966227,-0.0008688564434206559,3.2488943009452485e-05,0.000679426175058106,-0.00027997501318996324,-5.778426966730689e-05,0.2689092457294464,-23.71670913696289,19.656478881835938,17.84735870361328,0.8833719491958618,2.3732802867889404,-0.10066069662570953,0,0,0,0.000,0,0
1739400647.0278163,-0.708330561768494,0.6801373684254152,1.4218895712202422,-1.878854912490834,-0.7141139721115952,1.9462379700879864,0.18889868822295416,0.000808520390573407,0.0008781243761965312,-0.0001714871273039457,-0.0004497680151825447,0.001047967385136045,0.0006170799317017261,-0.0010121176511828228,0.2411382496356964,-23.71670913696289,19.656478881835938,17.84735870361328,0.8833719491958618,2.3540542125701904,-0.04023589566349983,0,0,0,0.000,0,0
1739400647.0387785,-0.7083318577108282,0.6801380694964588,1.4218916510099178,-1.8788553820522735,-0.7141166902298445,1.9462379700879864,0.18890172255375484,0.00037867137398092996,0.0002674332432823581,0.0009763815240157444,-0.0008044078600470601,-0.0006280300960026849,0.00011771122868897189,-0.0013669534352188997,0.2689092457294464,-23.71670913696289,19.628707885742188,17.84735870361328,0.8897806406021118,2.3540542125701904,-0.09425200521945953,0,0,0,0.000,0,0
1739400647.0488844,-0.7083318605878707,0.6801351548836874,1.4218918982588147,-1.8788556120710092,-0.7141146747570362,1.9462387270482073,0.1889072028425566,9.965846339839114e-05,0.00019013856470109411,0.00018794804147818394,-0.0002525154580751098,0.0010333481814120016,0.0009604822257130734,0.0023636778274792707,0.2689092457294464,-23.66513442993164,19.628707885742188,17.84735870361328,0.8833719491958618,2.3476455211639404,-0.10066069662570953,0,0,0,0.000,0,0
1739400647.0588982,-0.7083318589829578,0.6801365537962505,1.4218925382110117,-1.8788533161896834,-0.7141156703400443,1.9462364547678177,0.1889012013588576,0.0004771521660279176,-3.3433651840017675e-05,0.00012117612349376477,-0.0006528635274305728,-0.00047058127753442537,0.00031253251036068733,-0.0008916286743677442,0.2689092457294464,-23.68893814086914,19.656478881835938,17.84735870361328,0.8897806406021118,2.3668715953826904,-0.08051909506320953,0,0,0,0.000,0,0
1739400647.0698488,-0.7083298597580938,0.6801380705830581,1.4218916510643511,-1.878855587459355,-0.7141147135126188,1.9462364547678297,0.18890488332000233,0.000568899386320135,0.00045967135955047813,-3.637149171508458e-06,-0.00038961149312169506,-0.0008202486265895069,8.337225382680642e-05,0.0014268678107285516,0.2411382496356964,-23.71670913696289,19.628707885742188,17.84735870361328,0.8833719491958618,2.3668715953826904,-0.12080229818820953,0,0,0,0.000,0,0
1739400647.0798848,-0.7083299753153312,0.6801411817956285,1.4218877620520909,-1.8788566945996834,-0.714110740355488,1.9462353438950417,0.1888988127638684,-0.00015789107125684326,0.0015639622783241566,-0.001393959846093955,0.0007643748667981767,0.000998428395614795,-0.0004402044153225965,-0.00030098153366660117,0.2411382496356964,-23.71670913696289,19.680282592773438,17.89893341064453,0.8833719491958618,2.3732802867889404,-0.06678618490695953,0,0,0,0.000,0,0
1739400647.0908039,-0.7083318576995918,0.6801419287768318,1.4218905602155,-1.878855536157066,-0.7141150318165698,1.94623862576127,0.18890076431675162,0.00028296913926730965,0.000541744691387265,0.0010931541179094659,-0.0005673468209028929,0.0004404247103637329,0.0012499753080452165,-0.0014471665582866562,0.2689092457294464,-23.74051284790039,19.656478881835938,17.84735870361328,0.8833719491958618,2.3604629039764404,-0.07411040365695953,0,0,0,0.000,0,0
1739400647.1008427,-0.7083318576989396,0.6801343610999044,1.4218919105188828,-1.8788538300212607,-0.714116529554821,1.946237094762143,0.18890784015214476,0.00045176716520773264,-0.0005699212100656545,0.00038228814561424283,0.0009539580134095524,-8.315527400132053e-05,0.000529527779148302,0.000844513467059656,0.2689092457294464,-23.66513442993164,19.628707885742188,17.82355499267578,0.8961893320083618,2.3604629039764404,-0.10706938803195953,0,0,0,0.000,0,0
1739400647.1117926,-0.7083321697034999,0.6801422466507091,1.4218941754341157,-1.878854596345674,-0.7141165517194141,1.9462349393936162,0.18890407879290882,-0.00020780669915914862,0.002487593372809446,0.001345696154275881,0.001781405677250484,-0.0009193296655492001,-0.0005278857569021406,2.7042788264787722e-05,0.2689092457294464,-23.74051284790039,19.604904174804688,17.87512969970703,0.8961893320083618,2.3796889781951904,-0.08692778646945953,0,0,0,0.000,0,0
1739400647.122786,-0.7083335702249546,0.6801360990631476,1.4218895712326238,-1.8788548973253687,-0.7141150318953801,1.9462372124279073,0.1889040168212604,-0.0012435842578943468,-0.0007335649835502532,-0.0003244588332840655,0.00048806606748406966,5.0834810289470336e-05,0.0007228836236289064,-0.0021856677069583886,0.2927129566669464,-23.68893814086914,19.656478881835938,17.84735870361328,0.8833719491958618,2.3604629039764404,-0.11347807943820953,0,0,0,0.000,0,0
1739400647.1328506,-0.7083339637297216,0.6801323620690376,1.4218895712200623,-1.8788549288206164,-0.7141182108096917,1.9462379700879864,0.18890298184076923,-0.0002877748157212927,-0.001956598932488132,-0.0014763704095798697,0.00015577936131602835,7.56381610438195e-05,0.0006444868541772975,0.0025576270484528327,0.2689092457294464,-23.63736343383789,19.656478881835938,17.87512969970703,0.8833719491958618,2.3540542125701904,-0.10066069662570953,0,0,0,0.000,0,0
1739400647.1428711,-0.7083330972337477,0.6801360759099764,1.4218914125913387,-1.87885382745887,-0.714115031949139,1.9462364547678297,0.18889816820760785,-0.00040811554921287225,0.00010196251677829148,-0.0001025270183917877,-0.00016057667023682855,0.0006143645788705243,3.6495099046516806e-05,0.000569030288165474,0.2927129566669464,-23.68893814086914,19.628707885742188,17.82355499267578,0.8833719491958618,2.3668715953826904,-0.05396880581974983,0,0,0,0.000,0,0
1739400647.1538384,-0.7083372809995774,0.6801370265318564,1.421889571557878,-1.8788576546997175,-0.7141150314047309,1.9462364547678297,0.18890496772005208,-0.0015990683384077091,0.0007571517400312747,-0.0010217000118069295,-0.001691482010754839,0.0009398866864902011,6.108696649328457e-05,0.0010269935071868862,0.3442876636981964,-23.68893814086914,19.656478881835938,17.87512969970703,0.8833719491958618,2.3668715953826904,-0.12080229818820953,0,0,0,0.000,0,0
1739400647.1648223,-0.7083298976351852,0.6801343717888833,1.4218934336869387,-1.8788510742309639,-0.7141150507914542,1.9462364373252268,0.18890748482185107,-0.00018749796678268642,-0.00124642818130052,0.0003460057549669846,0.0017854931853640177,-0.0003772448613785312,-2.692953235808881e-05,0.0013717782014037276,0.2411382496356964,-23.66513442993164,19.604904174804688,17.82355499267578,0.8833719491958618,2.3668715953826904,-0.10706938803195953,0,0,0,0.000,0,0
1739400647.1748269,-0.7083298597587281,0.6801391459718199,1.4218895712200623,-1.8788555871457029,-0.7141174116412932,1.9462372124276128,0.1888997196864307,-0.00021048589977483664,0.0014406658307482474,-0.0010552487523491456,-8.086925314589971e-05,-0.0001889643781195775,0.00026918000888046786,-0.00017368145327691906,0.2411382496356964,-23.68893814086914,19.656478881835938,17.84735870361328,0.9035135507583618,2.3604629039764404,-0.07411040365695953,0,0,0,0.000,0,0
1739400647.1848376,-0.708329859865084,0.6801361519483834,1.4218925504166464,-1.8788538048298564,-0.7141143134810571,1.9462364547678297,0.18890170430172235,0.000822832936658395,3.704903185196577e-05,0.0003007109642142536,-0.0001577345302229294,0.0008386421782692257,2.172469135456485e-05,-0.00011456112313027262,0.2411382496356964,-23.68893814086914,19.656478881835938,17.82355499267578,0.8769632577896118,2.3668715953826904,-0.09425200521945953,0,0,0,0.000,0,0
1739400647.1958022,-0.7083319357000802,0.6801349200674573,1.4218877885598609,-1.8788576161374402,-0.7141142807495054,1.9462379700879864,0.18890405673634714,0.0015843652422602886,0.0010214264516086682,-0.0014415256119939504,-0.0016613662722400762,0.0007694682406092302,0.0004415544286773247,-0.00022884970866022516,0.2689092457294464,-23.68893814086914,19.680282592773438,17.87512969970703,0.8769632577896118,2.3540542125701904,-0.08692778646945953,0,0,0,0.000,0,0
