IITGN-Robotics/Franka_IITGN_ROBOTICS/franka_ros/franka_iitgn/data/b_05.csv
time,fr3_joint1_pos,fr3_joint2_pos,fr3_joint3_pos,fr3_joint4_pos,fr3_joint5_pos,fr3_joint6_pos,fr3_joint7_pos,fr3_joint1_vel,fr3_joint2_vel,fr3_joint3_vel,fr3_joint4_vel,fr3_joint5_vel,fr3_joint6_vel,fr3_joint7_vel,fr3_joint1_eff,fr3_joint2_eff,fr3_joint3_eff,fr3_joint4_eff,fr3_joint5_eff,fr3_joint6_eff,fr3_joint7_eff,flexpin1,flexpin2,flexpin3,Force,ContactMic,ContactMic_gt
1739400676.1213927,-0.7082558874841941,0.6797051371960954,1.4218022440367506,-1.8788909002380114,-0.7137687419663964,1.9464671671474516,0.18868167519350557,-0.0010348912813045422,0.0013091900957896093,0.0015530160202164162,1.8554799697191712e-05,-0.0010296137701025793,0.0010799925771523894,0.00018667254702007467,0.2689092457294464,-23.74051284790039,19.628707885742188,17.84735870361328,0.9419656991958618,2.3604629039764404,-0.09425200521945953,,,,,,,,,
1739400676.1323588,-0.7082575610562883,0.6796997190880814,1.4217999258343201,-1.8788904768333297,-0.7137694886994231,1.9464664094873732,0.18868510954088913,-0.00010409135334685802,-0.001313900662436967,-0.0010438300313267588,0.0016089674658064943,-0.0006652366922955228,0.0010069951953110042,-0.0006706464438287918,0.2927129566669464,-23.66513442993164,19.656478881835938,17.87512969970703,0.9492899179458618,2.3668715953826904,-0.12721098959445953,,,,,,,,,
1739400676.142369,-0.7082575649159023,0.6797049099929147,1.4218000582850485,-1.8788947613913318,-0.7137699310969443,1.9464638712865574,0.1886867170067882,0.0012498888894023523,0.0011569076972278906,-6.359770834453917e-05,-0.001205567368005705,-0.0003373465389015796,-0.000770689251093586,0.0017852959128727792,0.2927129566669464,-23.74051284790039,19.656478881835938,17.89893341064453,0.9621073007583618,2.3870131969451904,-0.14094389975070953,,,,,,,,,
1739400676.152434,-0.7082568710375131,0.6797014354567745,1.421804026281914,-1.8788928718117233,-0.7137699273722211,1.9464632305703264,0.18867920477034483,-5.971970226058748e-05,3.724276937981598e-05,0.0012700943548232195,-0.0003898711238827401,-0.0001874100795839711,-0.0002141039305925653,-0.0018987326285467895,0.2927129566669464,-23.68893814086914,19.604904174804688,17.87512969970703,0.9621073007583618,2.3668715953826904,-0.08051909506320953,,,,,,,,,
1739400676.1633945,-0.708257522185534,0.6797033207333094,1.4217955171370853,-1.8788939304020842,-0.7137688687686748,1.9464632291014896,0.18868195456965686,5.33601602240361e-06,-0.0006694727115337802,-0.0022081221828648733,0.0001713334499690531,0.0006775105725880029,-0.0002423095112906548,-0.0018797236334261412,0.2689092457294464,-23.71670913696289,19.680282592773438,17.89893341064453,0.9556986093521118,2.3668715953826904,-0.10066069662570953,,,,,,,,,
1739400676.1734414,-0.7082551428120548,0.6797166707528778,1.4217897603207743,-1.8788908989527542,-0.7137722797364312,1.946459206073672,0.18868907911422095,0.00012956384026804809,0.0026761414805800718,-0.0008234542257493697,-0.0011119567382411443,9.056470589950411e-05,-1.1834627328754653e-05,0.0014985167770390933,0.1935308277606964,-23.63736343383789,19.529525756835938,17.84735870361328,0.8769632577896118,2.3476455211639404,-0.12080229818820953,,,,,,,,,
1739400676.1834445,-0.7082526281954066,0.679737199123615,1.4217769357516221,-1.8788898315455456,-0.7137793067639484,1.9464486285686358,0.1886890446459415,0.00048524380001396025,0.0017697641168739594,-0.0030628460663855877,-0.0002683863616307564,-0.0011446569402749859,-0.001756757958245409,-0.0009234662871292379,0.1419561207294464,-23.58578872680664,19.501754760742188,17.82355499267578,0.8705545663833618,2.3604629039764404,-0.08051909506320953,,,,,,,,,
1739400676.1953712,-0.7082563396557084,0.6797459515512304,1.421757147402954,-1.8788978873702213,-0.7137846857956177,1.9464426090586644,0.1886963293471732,-0.0003309043710644795,-0.00022743412571983763,-0.003530023365235044,-0.0013383322093171526,-0.0004785555547882149,-0.0013814780203409835,0.0009476341773720381,0.1935308277606964,-23.51041030883789,19.553329467773438,17.89893341064453,0.8504129648208618,2.3668715953826904,-0.10066069662570953,,,,,,,,,
1739400676.205405,-0.7082623874132546,0.6797610957061616,1.421740489701428,-1.8788997617788228,-0.7137858556039349,1.9464363457506497,0.18870113066475158,-0.0014389645285764019,0.00028750092216980015,-0.002390916916760534,-0.0006425609209455225,-1.7987001218347054e-06,-0.001388772434852203,0.0015526343145299605,0.2411382496356964,-23.58578872680664,19.604904174804688,17.92273712158203,0.8568216562271118,2.3796889781951904,-0.10066069662570953,,,,,,,,,
1739400676.215416,-0.70826103240532,0.679771164803846,1.4217312464639817,-1.8789024641065342,-0.7137883565826748,1.946437680049613,0.18869633050934326,-0.0008097727060237861,0.0005569336556684261,-0.0007063183058405398,-0.001591663825009775,-0.002676437947760754,0.0009332146861943197,-0.0003344526576697447,0.2173345386981964,-23.56198501586914,19.553329467773438,17.94654083251953,0.8769632577896118,2.3668715953826904,-0.06037749722599983,,,,,,,,,
1739400676.2264426,-0.7082627449280694,0.6797812341142698,1.4217198486961355,-1.8788965076245354,-0.7137904366742358,1.9464354931762713,0.18869760148499062,0.00017805575603480007,5.68645418067465e-05,-0.0004481035454000004,-0.000847900158482274,-0.0005948749558523983,-3.5472275048889414e-05,-0.001368294666992197,0.2411382496356964,-23.61355972290039,19.577133178710938,17.87512969970703,0.8641458749771118,2.3540542125701904,-0.06678618490695953,,,,,,,,,
1739400676.236471,-0.7082658923650194,0.6797930644336351,1.4217068646426803,-1.878890552268861,-0.7137915229745754,1.946435486653351,0.18870430674704064,-0.0007540268214151667,0.0017848284950736349,-0.002134446945880944,0.0010095848851988834,-0.0004819636683168219,0.0001469560740368005,0.0009993247091994923,0.2411382496356964,-23.68893814086914,19.656478881835938,17.79975128173828,0.8641458749771118,2.3540542125701904,-0.08692778646945953,,,,,,,,,
1739400676.2474372,-0.7082733248973456,0.6798060892845781,1.4216964708931554,-1.8788930237054104,-0.7137899259269137,1.946432911682991,0.18870668820017547,-0.0007741371175842992,0.0021655475861265053,-0.0014893225282374503,-0.0020548207258686037,0.0016308681462298884,-0.000688931110856822,-0.0008099455952382933,0.3442876636981964,-23.76828384399414,19.680282592773438,17.82355499267578,0.8504129648208618,2.3668715953826904,-0.10706938803195953,,,,,,,,,
1739400676.2584376,-0.7082764626036496,0.679812667286391,1.4216809226937812,-1.8788961974113894,-0.7137916024662806,1.9464329116770094,0.1887115049802608,-0.0005527380055146808,0.0005197544493724654,-0.0015042973798168437,-0.0008039039855126455,0.0002540706499228556,0.0004999154117011632,0.0025076712408828193,0.3442876636981964,-23.74051284790039,19.755661010742188,17.87512969970703,0.8641458749771118,2.3668715953826904,-0.12080229818820953,,,,,,,,,
1739400676.2693658,-0.7082765422395768,0.6798189607259167,1.421667520433257,-1.8788961974075014,-0.7137930829560386,1.9464328724311526,0.18870152249428945,1.1960750552528806e-05,0.0004787884226670735,-0.0017222464110764413,-0.0004952794767295493,-4.6754785438122995e-05,0.0002686960750974052,-0.0013816697403506782,0.3442876636981964,-23.76828384399414,19.807235717773438,17.87512969970703,0.8769632577896118,2.3668715953826904,-0.06037749722599983,,,,,,,,,
1739400676.279441,-0.7082768085667555,0.6798216095157095,1.4216663982805784,-1.8788962096900008,-0.7137966163398192,1.9464305304589555,0.18870316348224322,0.0002228658636931622,-0.00020670728112550106,-0.0005159066592073984,0.0006946108423345005,-0.0018741590627967607,0.0024278388491781344,-0.00023839330159025873,0.3442876636981964,-23.71670913696289,19.731857299804688,17.87512969970703,0.8705545663833618,2.3870131969451904,-0.07411040365695953,,,,,,,,,
1739400676.2894678,-0.7082766613993032,0.6798228486763656,1.4216643933651671,-1.87889828620241,-0.713792307217429,1.946432775850814,0.18870857628418958,0.001545622173007468,-0.0002182550794665065,-0.0008518444424190226,0.0004688854689646676,0.0007680756577028726,0.001610297454570815,9.035921891020223e-05,0.3442876636981964,-23.68893814086914,19.680282592773438,17.89893341064453,0.8705545663833618,2.3668715953826904,-0.08692778646945953,,,,,,,,,
1739400676.3004375,-0.7082724192595143,0.6798286664507124,1.421664148027616,-1.878896223233972,-0.713787438445371,1.9464274307315577,0.18870984731509596,0.0004818556563868702,0.0018916637063112482,-0.0004178904780800306,-0.00022686751621923333,0.0021253453899968983,-0.00026858865456264963,0.0009697966681141492,0.2411382496356964,-23.76828384399414,19.680282592773438,17.87512969970703,0.8568216562271118,2.3732802867889404,-0.12080229818820953,,,,,,,,,
1739400676.3104496,-0.7082750980644668,0.6798249290094375,1.4216623692387609,-1.878894197926734,-0.7137861219159307,1.946431322220579,0.18870512776273224,0.00013599012768202403,0.00040029852024014805,-0.00029272190099437174,-0.0008392677976638371,0.0014530817050665604,-0.0009516843804438331,-0.0006797799172140463,0.2927129566669464,-23.71670913696289,19.704086303710938,17.84735870361328,0.8440042734146118,2.3668715953826904,-0.06678618490695953,,,,,,,,,
1739400676.3224094,-0.7082739059648671,0.6798261092184879,1.4216694958477898,-1.878898320215731,-0.7137960203303754,1.9464289011449565,0.18870518602092878,-0.0006358777257492014,0.0011909718987213156,0.0005055525144220058,-0.0009341034327297712,-0.0017760142355932034,-0.0008318997648321417,-0.0005317336860333605,0.2927129566669464,-23.68893814086914,19.604904174804688,17.89893341064453,0.8705545663833618,2.3604629039764404,-0.09425200521945953,,,,,,,,,
1739400676.3324382,-0.708273623512816,0.6798234410427493,1.4216725656126785,-1.8788986688862173,-0.7137958557569551,1.9464307346251168,0.18870517288009428,0.00011026151811494066,0.000891437735722485,0.001569780367274342,0.0002679552439582468,-0.0014493185227149672,0.0002892223480921503,-0.00195658960971362,0.2689092457294464,-23.66513442993164,19.577133178710938,17.89893341064453,0.8641458749771118,2.3732802867889404,-0.09425200521945953,,,,,,,,,
1739400676.3433967,-0.7082685988295101,0.6798198713208042,1.4216744619871413,-1.8788948074710972,-0.7137944372050978,1.9464322034505697,0.1887093273273049,0.0008262491577242839,0.00033825709981442133,-0.00013501289948508041,0.000720057079868163,-0.0021512773149752395,0.0006118688565190422,0.0013559331948641575,0.1935308277606964,-23.63736343383789,19.553329467773438,17.84735870361328,0.8568216562271118,2.3604629039764404,-0.08692778646945953,,,,,,,,,
1739400676.3534129,-0.7082682412934928,0.6798174271522528,1.4216749771283914,-1.8788905866033019,-0.7137918803222882,1.9464281435228608,0.18870891528843492,4.743596235444664e-05,-0.0012062625226167108,-0.0001926511935717854,0.001773425872626841,-0.00014624846934678689,-0.001559266858462956,0.0007486031182399441,0.2173345386981964,-23.61355972290039,19.577133178710938,17.79975128173828,0.8568216562271118,2.3668715953826904,-0.08692778646945953,,,,,,,,,
1739400676.3644392,-0.7082705374587144,0.6798174281391779,1.4216787928186487,-1.878890564546301,-0.7137963590708613,1.9464289203461769,0.18870368646343033,0.00018315424762688112,-0.0006265137353176106,0.0002979326102955352,0.0012043465156197164,-0.0006610653412130194,-0.0007463081705682539,-0.0014991032353712868,0.2173345386981964,-23.61355972290039,19.529525756835938,17.79975128173828,0.8641458749771118,2.3604629039764404,-0.08051909506320953,,,,,,,,,
1739400676.3754368,-0.7082723370237285,0.6798147689948263,1.4216729318239567,-1.878896197512549,-0.7137940808337575,1.946428914209073,0.1887082144097218,-0.0001300239367572382,-0.0014171784487544748,-0.001820419883991942,-0.0011521965661319834,0.00024157663489181506,0.0006512582058779263,0.0015313176462608462,0.2411382496356964,-23.56198501586914,19.604904174804688,17.87512969970703,0.8568216562271118,2.3604629039764404,-0.08051909506320953,,,,,,,,,
1739400676.385483,-0.7082684786272124,0.6798191400115194,1.4216780848906163,-1.8788901891734164,-0.7137963376999416,1.9464296586258083,0.18870036186938335,0.0004538616363059958,0.0001492260926736273,0.0012581628381598924,0.0014341146102518983,-9.947727636805116e-05,-0.0001255692882806658,-0.0012293840020285603,0.2173345386981964,-23.63736343383789,19.577133178710938,17.82355499267578,0.8641458749771118,2.3540542125701904,-0.04023589566349983,,,,,,,,,
1739400676.3974595,-0.7082738752155254,0.6798211376014482,1.421671140369089,-1.8788948092047397,-0.713795511563144,1.9464281433054273,0.18870569990837724,-0.0006596921186229548,-0.0006148295749707129,-0.0009948723350675117,-1.707181834293938e-05,-0.00011964173358468397,-0.00022737321382885318,-0.0010245658709107756,0.2927129566669464,-23.66513442993164,19.628707885742188,17.84735870361328,0.8568216562271118,2.3668715953826904,-0.09425200521945953,,,,,,,,,
1739400676.408438,-0.7082770489983609,0.6798211380825983,1.421666967740091,-1.878896771379456,-0.71379574260518,1.946428195633236,0.18870453410449706,-0.0015068623443690319,-0.0006867413617736659,-0.000813075768824775,-0.0008852760493093749,7.143332288894733e-06,-0.00027125794381774315,-0.0017308615324039928,0.3165166676044464,-23.66513442993164,19.656478881835938,17.87512969970703,0.8568216562271118,2.3668715953826904,-0.06037749722599983,,,,,,,,,
1739400676.419403,-0.7082723412718407,0.6798257641270358,1.421668358718455,-1.87889233620361,-0.7137971351219835,1.9464296586258794,0.1887072182088329,0.0006174093775314476,0.0012197608539042397,0.0005635286237804633,0.0009299918509243548,0.0019003474085022504,0.0006711533142017979,-0.0006493200838885983,0.2411382496356964,-23.68893814086914,19.628707885742188,17.82355499267578,0.8705545663833618,2.3540542125701904,-0.10706938803195953,,,,,,,,,
1739400676.4294364,-0.7082743388896824,0.6798228621633159,1.4216644197221595,-1.878890552263629,-0.7137964951981709,1.9464289009655058,0.1887052111980154,-0.0008475466291300035,-0.0004422878465440411,0.00036138226820030115,0.0010620192632431842,-5.4162562249897045e-05,-0.0002889280383719418,-0.0001942804042431806,0.2689092457294464,-23.68893814086914,19.680282592773438,17.79975128173828,0.8641458749771118,2.3604629039764404,-0.05396880581974983,,,,,,,,,
1739400676.4394572,-0.7082730847506948,0.6798288294504339,1.4216707831299524,-1.8788964525055694,-0.7137971364126989,1.9464273856453491,0.18871222913329438,-0.00013968589431840553,0.0005617520802805646,0.0022667687372387797,0.0003937054102470963,9.14806531206917e-05,-0.0006432221602781444,0.00034248252305980035,0.2927129566669464,-23.76828384399414,19.628707885742188,17.87512969970703,0.8705545663833618,2.3732802867889404,-0.11347807943820953,,,,,,,,,
1739400676.4504128,-0.7082777642771109,0.6798260474160842,1.4216680816314125,-1.8788941176190856,-0.7137971351206865,1.9464281433054273,0.18871547630179153,-0.001135300469441653,0.0005495303943281884,0.001760145943835441,0.0008074902059948141,-0.0005078092355022499,-0.0005230802345660837,0.0031569425235058787,0.3165166676044464,-23.68893814086914,19.656478881835938,17.84735870361328,0.8705545663833618,2.3668715953826904,-0.14094389975070953,,,,,,,,,
1739400676.460418,-0.708276051410414,0.679828126317122,1.4216650614749338,-1.878899262678486,-0.7137941202977505,1.9464281433054273,0.18870674852928604,-0.0019600538640657497,0.000793239860027565,-0.0006993291825977171,-0.0007367223700878063,0.001315602221561754,0.00048629985734074455,-0.0016925198651510371,0.2927129566669464,-23.71670913696289,19.680282592773438,17.87512969970703,0.8568216562271118,2.3668715953826904,-0.06678618490695953,,,,,,,,,
1739400676.4714105,-0.7082740095515336,0.6798305513066507,1.4216680037267746,-1.8788997924877946,-0.7137959825057945,1.9464281433054273,0.18871015830479115,8.862692252612685e-05,0.0009970445075502088,0.0002068853047363203,-0.00024016607760822344,-0.0006124554720092572,0.00016009214763423,0.0001743853360411536,0.2689092457294464,-23.71670913696289,19.656478881835938,17.92273712158203,0.8568216562271118,2.3668715953826904,-0.08692778646945953,,,,,,,,,
1739400676.4814537,-0.7082689162288329,0.6798291416583508,1.421669809692216,-1.8788968861727888,-0.7137963794066434,1.9464281433054273,0.1887131345394615,0.0017810810107018798,0.0012307461137272741,-0.0002272264216087763,0.0008192920726776656,0.0011692899044740215,-0.0002781338476413363,0.0022822262666622175,0.1935308277606964,-23.71670913696289,19.604904174804688,17.87512969970703,0.8641458749771118,2.3668715953826904,-0.12080229818820953,,,,,,,,,
1739400676.4923778,-0.7082721024212341,0.67982241492384,1.4216749748739832,-1.8788930359917981,-0.7137965350900608,1.9464273812846982,0.18871071674287693,0.0003376089271245808,-0.0013567971599680428,0.001499552870783107,0.0016475375663080418,-0.000257495203939368,-0.000586050928201774,0.00033370900244353394,0.2411382496356964,-23.63736343383789,19.577133178710938,17.82355499267578,0.8641458749771118,2.3732802867889404,-0.10066069662570953,,,,,,,,,
1739400676.5023806,-0.7082743392126862,0.6798224183439948,1.4216726542105684,-1.8788979914340844,-0.7137974371013998,1.94642965862551,0.1887099707791623,-0.0003832260971038531,-0.0010365068731036445,0.0006686458565704678,-0.0010533824584831306,-0.00023605861484625375,8.328760987535682e-05,0.0005735647132189439,0.2689092457294464,-23.63736343383789,19.604904174804688,17.89893341064453,0.8641458749771118,2.3540542125701904,-0.09425200521945953,,,,,,,,,
1739400676.5124292,-0.7082743392167312,0.6798244187458472,1.4216711053168767,-1.8788930237056027,-0.7137965600735389,1.9464281433054273,0.18871222913324606,-0.0003853927854272352,0.0012559152702925909,-0.0010459267730506768,-0.0006941642770117609,-0.0005714787639786303,-0.00015492136938743923,0.0004760365255469562,0.2689092457294464,-23.66513442993164,19.628707885742188,17.82355499267578,0.8568216562271118,2.3668715953826904,-0.11347807943820953,,,,,,,,,
1739400676.5224686,-0.7082742328168533,0.6798221779712977,1.4216708302067715,-1.878896412530777,-0.7137993471398242,1.9464292541782156,0.18871097408161244,9.129908233991026e-05,-0.000734795964765446,4.499911991844393e-05,-0.000981316630671776,-0.00023836829621571177,0.0004042252945740426,-0.00036993923420161287,0.2689092457294464,-23.63736343383789,19.604904174804688,17.84735870361328,0.8504129648208618,2.3604629039764404,-0.06678618490695953,,,,,,,,,
1739400676.533456,-0.7082716260195404,0.6798246498589746,1.4216688179299708,-1.878891972808196,-0.7137962582772402,1.9464292556337597,0.18871629383691,0.0005485268450037214,0.0002570833892086608,-0.0017585694553687928,0.0003599809914534026,0.0004819580697200996,0.0003594775250593587,0.0007813929995530265,0.2411382496356964,-23.66513442993164,19.628707885742188,17.84735870361328,0.8641458749771118,2.3604629039764404,-0.12080229818820953,,,,,,,,,
1739400676.5444722,-0.7082720230452778,0.679826128381603,1.4216720970501278,-1.8788962312752382,-0.7137978927787393,1.9464296586315903,0.18870899683321818,0.0012384509280656444,0.00031000911491166946,-0.0003328659202038101,-0.0018293340990374757,-0.0005751094531284324,0.0008219320248581328,4.382322293386735e-05,0.2411382496356964,-23.68893814086914,19.604904174804688,17.87512969970703,0.8769632577896118,2.3540542125701904,-0.07411040365695953,,,,,,,,,
1739400676.5554595,-0.7082731850611973,0.6798244155238036,1.4216711053558142,-1.8788941136931236,-0.7137971351206792,1.9464289009655058,0.18870281250371204,0.001068499668366351,-0.00019814136646684392,-0.0013430882570526492,-0.0009010562149936678,-0.0002469783178300925,-0.0004200098004713583,-0.004730991358245319,0.2411382496356964,-23.66513442993164,19.628707885742188,17.84735870361328,0.8705545663833618,2.3604629039764404,-0.03382720425724983,,,,,,,,,
1739400676.5655177,-0.7082725632213615,0.6798261283776231,1.4216711138238185,-1.8788962739367223,-0.7137987861055255,1.9464281433054273,0.18870531219185546,3.474857040873804e-05,0.0001153102854540485,0.00020394984377455146,-0.0007721569314306118,-0.0015745202407263807,-0.00046013385798945655,-0.0020417051434091426,0.2411382496356964,-23.68893814086914,19.628707885742188,17.87512969970703,0.8833719491958618,2.3668715953826904,-0.05396880581974983,,,,,,,,,
1739400676.5763695,-0.7082743303868312,0.67982612837764,1.4216690475420093,-1.8788941444223328,-0.7137968876569926,1.9464273856453491,0.18871329555660393,-0.00010948035133844005,0.000663999784812988,0.0008488860091069577,0.0007976473683078411,-0.0007032094668818405,-0.0005504296607390293,0.0005753506182504245,0.2689092457294464,-23.68893814086914,19.628707885742188,17.84735870361328,0.8641458749771118,2.3732802867889404,-0.11347807943820953,,,,,,,,,
1739400676.5874765,-0.7082736239608445,0.679826547888071,1.4216680306136658,-1.8788980140980498,-0.7137971787358268,1.9464281433054273,0.18870673584125208,3.3637424709040604e-05,0.0004981201826036957,0.000524768122271241,-0.0010580211837334188,-0.0007725141064301627,0.00012598846256501545,-0.0004714363349146223,0.2689092457294464,-23.66513442993164,19.656478881835938,17.89893341064453,0.8705545663833618,2.3668715953826904,-0.05396880581974983,,,,,,,,,
1739400676.5984795,-0.7082716260066823,0.6798251525383547,1.4216659347484446,-1.8788962947694938,-0.7137981947768357,1.9464296600791342,0.18870995642719637,0.0009172599709103854,-0.0009203522425333783,-1.3518192589404915e-05,0.0005295888559878994,5.893998665092642e-05,0.00045486278244094493,0.0003137011119047113,0.2411382496356964,-23.66513442993164,19.656478881835938,17.84735870361328,0.8705545663833618,2.3540542125701904,-0.09425200521945953,,,,,,,,,
1739400676.6094604,-0.70827714627259,0.679832725206558,1.4216680144876999,-1.8789028494954472,-0.7138007339181757,1.946427385645357,0.18870932757032188,-0.0010581808184047363,0.0006608415095594467,0.0015437042365355623,-0.0019854614626745115,-0.0006421894450626657,-4.506291783217014e-05,-0.00013062623121067057,0.2689092457294464,-23.74051284790039,19.628707885742188,17.92273712158203,0.8641458749771118,2.3732802867889404,-0.08692778646945953,,,,,,,,,
1739400676.620409,-0.7082742589172604,0.6798312063959312,1.421665855120007,-1.878898978448633,-0.7137967775665877,1.9464281433054273,0.18871385415696298,-0.0008107805087397221,0.0007864457023267808,3.728068976030982e-05,-0.0009629700338966544,0.0009287039912837271,-0.00016264042663742285,-0.0011046607126787428,0.2689092457294464,-23.71670913696289,19.656478881835938,17.87512969970703,0.8705545663833618,2.3668715953826904,-0.12721098959445953,,,,,,,,,
1739400676.631362,-0.7082743392165802,0.679826834566597,1.4216659345927154,-1.878896222922541,-0.7137978947181518,1.9464266279852707,0.18870672221991627,-0.0014919530323523004,-0.0004144084500143677,-0.0007189453695582514,0.0006008974030775215,0.00042123646450548764,-0.00017648440785407763,-0.0008993943618479302,0.2689092457294464,-23.68893814086914,19.656478881835938,17.87512969970703,0.8769632577896118,2.3796889781951904,-0.06678618490695953,,,,,,,,,
1739400676.6414692,-0.7082743392167313,0.6798272368566023,1.4216662407105467,-1.8788941177230563,-0.7137968616543712,1.9464289009655058,0.1887067090383651,-0.0015624120559499981,-0.0008791756250968246,-0.0001854653827418545,0.0007870267900032442,0.00038135448452487805,0.0003489658592591566,-0.0023011186665259685,0.2689092457294464,-23.66513442993164,19.656478881835938,17.84735870361328,0.8641458749771118,2.3604629039764404,-0.06678618490695953,,,,,,,,,
1739400676.6524189,-0.7082721028572992,0.6798244274285579,1.4216697970614676,-1.878894118562454,-0.7138014394460912,1.9464281433054273,0.18871563486225282,0.0003345954773292359,-0.001214371724039538,0.0010776038479817815,0.0003247502996274994,-0.0014242983728069496,-8.382171583078776e-05,0.0029549422613689307,0.2411382496356964,-23.66513442993164,19.604904174804688,17.84735870361328,0.8769632577896118,2.3668715953826904,-0.14094389975070953,,,,,,,,,
1739400676.6644332,-0.708274302912968,0.6798254685335399,1.4216707694418567,-1.8788948092168578,-0.7137967878663081,1.946429658625584,0.18871309671044773,0.0007244812269605889,0.0002753263158822024,0.0006994555457813755,-0.001246324545370511,-0.0007307515470026165,0.000755323297419212,3.781605691063742e-05,0.2689092457294464,-23.66513442993164,19.628707885742188,17.84735870361328,0.8641458749771118,2.3540542125701904,-0.12080229818820953,,,,,,,,,
1739400676.6744576,-0.7082759457734447,0.6798245317410881,1.4216726290137776,-1.8788940381486898,-0.713797152565599,1.9464281433054273,0.18870536923462727,-0.00017954332245510705,0.00023579688594568165,0.0003329828757698797,0.0005886975102595913,-0.0017119554909362027,-0.00013873712399460194,-0.0027449888738900413,0.2927129566669464,-23.66513442993164,19.604904174804688,17.84735870361328,0.8705545663833618,2.3668715953826904,-0.05396880581974983,,,,,,,,,
1739400676.685432,-0.7082723412740838,0.6798237862818239,1.4216701032253807,-1.8788979683094174,-0.7138013751270423,1.9464281433054273,0.18871160798848632,0.0010560767740896379,0.00015529206790162499,0.0004677085853962702,-0.00082823112200977,-0.0017488985842233854,-0.0007219069279866099,0.00021535485608957386,0.2411382496356964,-23.61355972290039,19.604904174804688,17.89893341064453,0.8705545663833618,2.3668715953826904,-0.10706938803195953,,,,,,,,,
1739400676.6964154,-0.7082743392167313,0.6798194442803661,1.4216760615898547,-1.8788961839469684,-0.7137987316876035,1.9464281433054273,0.18870671539454068,-0.0003296615396602949,-0.0011099008474386195,0.0015102184783504506,-0.0014618543820741972,-0.0016613240620253376,-0.0004576206135347878,-0.0003807033108240959,0.2689092457294464,-23.58578872680664,19.553329467773438,17.84735870361328,0.8568216562271118,2.3668715953826904,-0.06678618490695953,,,,,,,,,
1739400676.7073617,-0.7082714518098263,0.679825429884208,1.421672581868507,-1.8788941431624457,-0.7137968486269193,1.9464281433054273,0.18871374168657937,0.0008895585477270351,0.0004123915423377126,-0.0008990162402426927,-0.00013759143910703364,-0.0006293084805283072,0.0003786793945956407,-0.00024867774896615525,0.2689092457294464,-23.66513442993164,19.604904174804688,17.84735870361328,0.8641458749771118,2.3668715953826904,-0.12080229818820953,,,,,,,,,
1739400676.7173843,-0.708272094010682,0.6798268333182219,1.4216700389812136,-1.8788941185625974,-0.7137965475286394,1.946429658625584,0.18870778992900925,0.001194832258824823,0.0004847076944905498,-0.0001555921077241602,-0.0002073139740316891,-0.00040125954666533334,0.0008045684984987588,-0.0008070665645683416,0.2411382496356964,-23.68893814086914,19.604904174804688,17.84735870361328,0.8641458749771118,2.3540542125701904,-0.06678618490695953,,,,,,,,,
1739400676.727425,-0.7082705223510816,0.6798246508352443,1.4216708799884499,-1.8788974953618678,-0.7137978971442884,1.9464281433054273,0.18871385855915382,0.0007180617795731794,0.0004317710486907087,0.0003520722303158579,9.727457353030469e-05,-0.0002446776308086517,6.626397057720915e-05,0.0005771322619071939,0.2173345386981964,-23.66513442993164,19.628707885742188,17.89893341064453,0.8769632577896118,2.3668715953826904,-0.12721098959445953,,,,,,,,,
1739400676.7374547,-0.7082702833898067,0.6798245285292016,1.4216688151032522,-1.878899759809891,-0.7138010716952196,1.9464289009655058,0.1887139249512258,0.0013765317940771927,-0.0013023143447821314,0.0006617326264088852,-0.0006990003384493122,-0.0004570885892344512,0.00037589365779556013,0.00011770986253784217,0.2173345386981964,-23.66513442993164,19.628707885742188,17.92273712158203,0.8769632577896118,2.3604629039764404,-0.10066069662570953,,,,,,,,,
1739400676.7484252,-0.7082701955028176,0.6798298417300634,1.4216660451489214,-1.8788982674810342,-0.7138003140889024,1.9464273856453491,0.18871528027638662,2.1218437110587945e-05,0.0008700443449442493,-0.0007448352798872968,2.987863949322058e-05,0.0005084655139769545,-0.0004651278949775849,0.002051985943727191,0.2411382496356964,-23.74051284790039,19.656478881835938,17.87512969970703,0.8705545663833618,2.3732802867889404,-0.12721098959445953,,,,,,,,,
1739400676.7594273,-0.7082779864838193,0.6798327367581294,1.4216623806817053,-1.8788999923536958,-0.7138013926471118,1.9464273856453491,0.1887070645333462,-0.0012312643891540748,0.0015280720780607095,-0.00039997496599466684,-0.0015253629676858665,0.00037773218921324586,5.937001615623442e-05,-0.0014447148836258482,0.3165166676044464,-23.74051284790039,19.704086303710938,17.92273712158203,0.8705545663833618,2.3732802867889404,-0.06678618490695953,,,,,,,,,
1739400676.7703881,-0.7082722525378903,0.6798291969024975,1.4216641519159103,-1.8788991905594639,-0.7138010216315059,1.9464281433054273,0.18870995332694956,-0.0006514914778661192,-4.9537381290105605e-05,-0.0006054413423691,-0.0013810731702730283,-0.0007579676545917941,0.00044755079837736976,-0.0025004572155841666,0.2411382496356964,-23.68893814086914,19.680282592773438,17.87512969970703,0.8641458749771118,2.3668715953826904,-0.06678618490695953,,,,,,,,,
1739400676.7813816,-0.7082723059541064,0.6798312580798058,1.4216662492488086,-1.878896198719134,-0.7137978971676248,1.9464327982941154,0.18871621481632847,0.0007152985424664615,0.0008835840624441757,0.0009505374809904033,0.0012938188601835773,5.0967838603479696e-05,0.0007164068082774167,0.0027781642159676653,0.2411382496356964,-23.71670913696289,19.656478881835938,17.87512969970703,0.8769632577896118,2.3540542125701904,-0.10706938803195953,,,,,,,,,
1739400676.7914255,-0.7082753363721107,0.6798312840802347,1.4216659345981937,-1.8788934190414195,-0.7138003140351417,1.946426628038441,0.18870988599408256,0.0006501261980838696,0.0012197871458574166,-0.00013825856632372407,0.0004906802472367912,-0.0008631420391136755,-0.0005035298115992702,0.00012823913385528573,0.2927129566669464,-23.71670913696289,19.656478881835938,17.84735870361328,0.8705545663833618,2.3796889781951904,-0.08051909506320953,,,,,,,,,
1739400676.8014362,-0.7082767272446552,0.6798252635666799,1.421668022990968,-1.878894126109084,-0.7137978928345928,1.9464304162856634,0.1887107686067012,-8.072824465967065e-05,-0.0014058736715795287,0.000543015980944883,-0.00030867406797841613,0.000966071897995355,0.0006614016609951781,-0.001040258612072647,0.2927129566669464,-23.63736343383789,19.628707885742188,17.84735870361328,0.8769632577896118,2.3476455211639404,-0.10066069662570953,,,,,,,,,
1739400676.812392,-0.7082743392205445,0.6798291743257407,1.4216640487865044,-1.878892848146269,-0.7138021826217693,1.9464273856453491,0.18871686785291833,-0.0004598562556985048,0.0006869044913723276,-0.0015477700205743814,0.0016371820858502124,-0.0005344384673530283,-0.0004891590571417398,0.0008105287834760566,0.2689092457294464,-23.68893814086914,19.680282592773438,17.79975128173828,0.8833719491958618,2.3732802867889404,-0.11347807943820953,,,,,,,,,
1739400676.8224726,-0.7082760517374626,0.6798292864589208,1.421670027591062,-1.8788923463171994,-0.7138006306084386,1.9464289009655058,0.1887103795030694,0.000822504892630019,0.001709799297301653,0.00027946409830752585,0.0009770104493883093,-0.0003699754130169227,-0.00026266565297014815,-0.0007787493210177158,0.2927129566669464,-23.68893814086914,19.604904174804688,17.82355499267578,0.8641458749771118,2.3604629039764404,-0.06037749722599983,,,,,,,,,
1739400676.833462,-0.7082752570088655,0.6798285843079067,1.421672565755652,-1.8788912750415316,-0.7137998143652996,1.946429658625584,0.1887147479864941,-0.00018171630404692344,0.00040665568616676155,8.529831920860728e-05,0.0011993250999055402,-0.0005742230086987249,0.0003346188148270084,0.0007696032954495974,0.2927129566669464,-23.68893814086914,19.577133178710938,17.79975128173828,0.8897806406021118,2.3540542125701904,-0.09425200521945953,,,,,,,,,
1739400676.8444276,-0.7082743401752221,0.6798224959667254,1.4216767347583068,-1.8788941177267042,-0.7138037823204147,1.9464289009655058,0.18871237310924288,-0.00035525941941285717,0.00035058673206562595,0.0003843994730230459,-0.0002890855030040797,-0.003343954361928452,0.00012549702144582338,0.0004867168511121702,0.2689092457294464,-23.63736343383789,19.553329467773438,17.84735870361328,0.8897806406021118,2.3604629039764404,-0.07411040365695953,,,,,,,,,
1739400676.8553634,-0.708271387492551,0.6798238258693581,1.4216719695048452,-1.8788904731056844,-0.7137985674307161,1.9464289009655058,0.1887138226737601,0.0004574226174506327,-0.00033877562762388167,3.3357986983715594e-05,0.0016128836176410608,-1.3011339998563457e-05,-0.00011786654201734802,0.00031818185219101,0.2411382496356964,-23.61355972290039,19.604904174804688,17.79975128173828,0.8705545663833618,2.3604629039764404,-0.11347807943820953,,,,,,,,,
1739400676.8654482,-0.7082723412274211,0.6798225223971047,1.421674976244027,-1.878898056609919,-0.7137971744393048,1.946429658625584,0.18871112830703354,4.4432570313078675e-05,-0.0005577827580454231,0.0002898613248192885,-0.0009994953703026204,0.0018077259090746275,0.00018167735272078491,4.029830659331001e-05,0.2411382496356964,-23.63736343383789,19.577133178710938,17.89893341064453,0.8705545663833618,2.3540542125701904,-0.10066069662570953,,,,,,,,,
1739400676.8754544,-0.7082720763663451,0.6798252378355847,1.4216721333648739,-1.8788941289566334,-0.7137968490575688,1.9464289009655058,0.1887115071378083,-0.0005549498590402799,0.00026671559359619064,4.475188473867854e-05,0.00024083323759883202,0.0006082423885394153,9.297879946781082e-05,0.00046340220607772717,0.2411382496356964,-23.63736343383789,19.577133178710938,17.84735870361328,0.8641458749771118,2.3604629039764404,-0.06678618490695953,,,,,,,,,
1739400676.8864243,-0.7082723412753799,0.6798254559130819,1.4216746925284691,-1.878898286307202,-0.7138011174738933,1.9464304162856625,0.18871159059671305,0.00027034444796347745,0.00038044930624620064,0.0007855060607117825,-0.0004751284574718811,0.0003399301346443531,0.0007667346837743592,-0.0017754631554298046,0.2411382496356964,-23.66513442993164,19.553329467773438,17.89893341064453,0.8769632577896118,2.3476455211639404,-0.08051909506320953,,,,,,,,,
1739400676.8964946,-0.7082752752304121,0.6798255383354915,1.4216690081046646,-1.8788979804150137,-0.7137955122117166,1.9464266279852707,0.18871625640486114,-0.00019152062063720567,-0.0005670826824375709,-0.001116009674445449,0.0010903225814632668,0.0017405483252688203,-0.00047182392991679294,0.002123188911354266,0.2689092457294464,-23.63736343383789,19.656478881835938,17.89893341064453,0.8568216562271118,2.3796889781951904,-0.10706938803195953,,,,,,,,,
1739400676.907468,-0.7082743392184926,0.6798305703957529,1.421671008518971,-1.878896896040277,-0.7137975955536534,1.9464273812846982,0.18871925055969396,1.4541414589358573e-05,0.000618726151041629,0.0007596167919781435,-0.0005561528387332762,0.0005300190227396056,-0.0004215700601598911,0.0033277286089741292,0.2689092457294464,-23.71670913696289,19.628707885742188,17.87512969970703,0.8641458749771118,2.3732802867889404,-0.13361968100070953,,,,,,,,,
1739400676.9193904,-0.708273623960994,0.6798291793298481,1.4216639135141687,-1.8788971167092983,-0.7138001076961225,1.9464281433054027,0.18871626942924605,0.00015059721428627024,0.00014457678154962633,-0.0009105452362059153,-0.0007896589270730667,0.001820321416928676,-8.8160103982677e-05,0.0005192223962789246,0.2689092457294464,-23.71670913696289,19.680282592773438,17.87512969970703,0.8568216562271118,2.3668715953826904,-0.10706938803195953,,,,,,,,,
1739400676.9294238,-0.7082741007941146,0.6798329714094731,1.4216677762777314,-1.8788989525768056,-0.7138007926185009,1.946428547752796,0.18871039364457293,0.000372086840365658,0.0005995459184509448,0.0007761037341700548,0.0001533270173633762,-0.0004231809878352228,0.0002608910587165814,0.0007904765824468962,0.2689092457294464,-23.74051284790039,19.628707885742188,17.87512969970703,0.8641458749771118,2.3604629039764404,-0.06037749722599983,,,,,,,,,
1739400676.9403594,-0.7082743130454244,0.6798302410979802,1.4216637848633844,-1.878894202665888,-0.713795648437356,1.9464281433034334,0.18871708146783278,0.00017563765495199935,-0.00031429438620211956,-2.1288773335109332e-05,0.001737470440604904,0.001774981189988709,0.00023124590989105656,0.0005768861187253966,0.2689092457294464,-23.68893814086914,19.656478881835938,17.84735870361328,0.8568216562271118,2.3668715953826904,-0.08692778646945953,,,,,,,,,
1739400676.9504488,-0.7082760555889275,0.6798293582460301,1.4216632237149303,-1.8788961839134382,-0.7137979392802194,1.9464289009655058,0.1887100854224488,-0.0007043945828225326,-0.0006778490219062924,-0.0006872892739627782,1.84298150331152e-05,0.0010960467544298583,0.0006601472463272579,-0.002218798040350841,0.2927129566669464,-23.68893814086914,19.680282592773438,17.84735870361328,0.8504129648208618,2.3604629039764404,-0.06678618490695953,,,,,,,,,
1739400676.9604604,-0.708272341276074,0.6798275749066801,1.4216641518686883,-1.8788941177226244,-0.7138001223865827,1.9464281433054273,0.18871384886605772,0.001138555227164432,-0.0004673463672578294,4.3452325869350143e-05,0.0004412779072480702,-4.224611217493873e-06,0.000244442550331042,0.00026661866294224747,0.2411382496356964,-23.66513442993164,19.680282592773438,17.84735870361328,0.8568216562271118,2.3668715953826904,-0.08692778646945953,,,,,,,,,
1739400676.9704738,-0.7082760507563161,0.6798312854736825,1.4216679992294583,-1.8788964376672457,-0.7137995208186538,1.9464289009655058,0.188709991729145,-0.00027334560157945924,0.000176353251940941,0.00019671534228980157,-0.0005593802165763898,-0.0007318098731848795,0.0006211118491355634,-3.3526542608701e-05,0.2927129566669464,-23.71670913696289,19.628707885742188,17.87512969970703,0.8504129648208618,2.3604629039764404,-0.05396880581974983,,,,,,,,,
1739400676.9804928,-0.7082714781937655,0.6798275749030838,1.4216698226742683,-1.8788941179366503,-0.7137976470125995,1.9464281433054273,0.1887178932041324,0.0004049012595184739,-0.00019321833866770127,6.427777183315051e-05,0.000588400047297762,0.00027178605428953233,-7.933788056501247e-06,0.0015235858456109606,0.2689092457294464,-23.66513442993164,19.604904174804688,17.84735870361328,0.8705545663833618,2.3668715953826904,-0.12080229818820953,,,,,,,,,
1739400676.9913797,-0.7082701924023757,0.6798275749151949,1.421668738420372,-1.8788923690586814,-0.7137979669097856,1.9464289009655058,0.18871231759204796,0.0009990397253477991,5.187265696862724e-05,0.0003625699151139444,0.0020170876982586144,-1.3814386950176288e-05,-0.00022735783444257604,0.001101332358982417,0.2411382496356964,-23.66513442993164,19.628707885742188,17.82355499267578,0.8641458749771118,2.3604629039764404,-0.10066069662570953,,,,,,,,,
1739400677.0013988,-0.708272341239487,0.6798234709314469,1.4216739769942495,-1.8788923349412043,-0.713801903438426,1.9464289009655058,0.18871261733039746,0.0007081659959502235,-0.0011950706072931493,0.0009337087866441928,0.0008155935116799371,-4.848888411500361e-05,-2.7158681175717774e-05,-0.001276124771269154,0.2411382496356964,-23.63736343383789,19.553329467773438,17.82355499267578,0.8705545663833618,2.3604629039764404,-0.08051909506320953,,,,,,,,,
1739400677.0133743,-0.7082743391803924,0.6798234709195582,1.421672807486932,-1.8788924454831226,-0.7137999292106267,1.9464289009655058,0.18871205134187657,0.0004654965581918751,-0.0002354403617678707,-0.00014453212148127,0.0009553435133133981,0.0014620525045325901,-7.116790429587397e-05,-0.0012960451519566484,0.2689092457294464,-23.63736343383789,19.577133178710938,17.82355499267578,0.8641458749771118,2.3604629039764404,-0.08051909506320953,,,,,,,,,
1739400677.0243554,-0.7082694914816047,0.6798312853607033,1.4216682453841123,-1.8788979810295359,-0.7138009888464671,1.9464273856453491,0.18870919473907727,0.0011532086110843268,0.0008124369506543435,-0.001053734242153337,-0.0006479375898435767,0.0008333702654042889,-0.00030106744349526126,-0.0019608727718592868,0.2411382496356964,-23.71670913696289,19.628707885742188,17.89893341064453,0.8641458749771118,2.3732802867889404,-0.04756011441349983,,,,,,,,,
1739400677.0344062,-0.7082734248651551,0.6798238644414977,1.421672640934708,-1.8788942322543243,-0.713800279932292,1.946429658625584,0.18871048879498334,-0.0009544444399523524,-0.0017838093003523124,-0.0010386244666317672,-5.5016145803162285e-05,0.0006008297113378549,0.0004540241688659543,-0.001958784122015218,0.2173345386981964,-23.61355972290039,19.604904174804688,17.84735870361328,0.8568216562271118,2.3540542125701904,-0.09425200521945953,,,,,,,,,
1739400677.0444221,-0.7082760517848149,0.6798255768552314,1.4216708574621089,-1.8788941941490074,-0.7138010276100962,1.9464281433054273,0.1887147367028114,-0.0003403354355742537,-0.0001280769994199026,-0.0005183947084598042,0.00028915428494730535,-0.0001587960545904739,-3.8284053790746733e-05,6.1529415880814e-05,0.2927129566669464,-23.63736343383789,19.628707885742188,17.84735870361328,0.8641458749771118,2.3668715953826904,-0.09425200521945953,,,,,,,,,
1739400677.0553918,-0.7082739059702509,0.6798266388894004,1.4216697974257175,-1.8788979800849521,-0.7138002739585766,1.9464281433054273,0.18871008536827494,0.0001791826410990114,-0.001253377323895163,0.0014967239684623042,0.0005351470264338573,4.949129136522332e-05,-6.32039667254192e-05,-0.0021617122236163894,0.2927129566669464,-23.66513442993164,19.604904174804688,17.89893341064453,0.8568216562271118,2.3668715953826904,-0.06678618490695953,,,,,,,,,
1739400677.066474,-0.7082743391803925,0.6798306743287588,1.4216680399975121,-1.8788971158655252,-0.7138011458320818,1.9464281433054273,0.1887178931800561,0.00044067084977120105,0.000665780433776859,-0.0003103128979435286,-0.000546626831004531,-0.0006472488135938995,-0.0002951922275251808,0.0023137625362027268,0.2689092457294464,-23.66513442993164,19.628707885742188,17.87512969970703,0.8641458749771118,2.3668715953826904,-0.12080229818820953,,,,,,,,,
1739400677.0773683,-0.7082743367012817,0.679832001607382,1.4216659345808,-1.8788968736233178,-0.7138002799170055,1.9464281433054273,0.1887111049726975,-0.00015117814433221452,0.0010752342648918001,0.0005605538573757072,8.40170962427408e-05,-0.0006804848782382781,5.0975273160895805e-05,-0.000978050595698376,0.2689092457294464,-23.71670913696289,19.656478881835938,17.84735870361328,0.8568216562271118,2.3668715953826904,-0.06037749722599983,,,,,,,,,
1739400677.0874512,-0.7082743401796657,0.6798275749152116,1.4216640430085934,-1.8788940145349287,-0.7137995208213216,1.9464281433054273,0.18871544396188,0.00011237085053986747,-0.0006440810542733311,-0.0009217612618106394,0.000837389733086995,0.0004380679019372254,0.00017692834255336547,0.001609994904234726,0.2689092457294464,-23.66513442993164,19.680282592773438,17.84735870361328,0.8504129648208618,2.3668715953826904,-0.12721098959445953,,,,,,,,,
1739400677.0984032,-0.7082723412758837,0.6798292874238132,1.4216623693781834,-1.8788962011861499,-0.713799220296813,1.9464289009655058,0.18871551196864303,0.0011307606375325651,-0.0006225623439290564,-0.0006783304370498955,0.0001694998864879979,0.0002445434443891611,0.000740792408270589,0.0006386945702712202,0.2411382496356964,-23.68893814086914,19.704086303710938,17.87512969970703,0.8568216562271118,2.3604629039764404,-0.10066069662570953,,,,,,,,,
1739400677.1084106,-0.7082758133188835,0.6798304398506169,1.4216680114392835,-1.8788982067294062,-0.7137994807664563,1.9464281433054273,0.1887131263814519,-0.0004676116877270356,-0.00033110599335992757,0.0006728202338605378,-0.0006535378295920672,0.0011694998257536016,7.987066631296363e-05,-0.0011556631400266972,0.2927129566669464,-23.66513442993164,19.628707885742188,17.89893341064453,0.8769632577896118,2.3668715953826904,-0.08051909506320953,,,,,,,,,
1739400677.1184962,-0.7082743392126937,0.6798292875813476,1.421665934907751,-1.878896447832109,-0.7138011398026163,1.9464281433054273,0.18871697416442582,0.00037229320178457873,-0.0010349928355878834,-0.00022853499925822783,0.0007239675678419597,0.00021094538141559462,8.022414961159126e-05,0.0008771071103426425,0.2689092457294464,-23.68893814086914,19.656478881835938,17.84735870361328,0.8641458749771118,2.3668715953826904,-0.11347807943820953,,,,,,,,,
1739400677.1294277,-0.7082760527004396,0.6798295268235396,1.421668039892529,-1.8788941176657925,-0.7138007921349224,1.9464289009655058,0.18871237310897868,-0.001028257324753486,0.0009423729884847779,0.000652344245909329,0.0006571346554346545,0.0004635336595055098,0.00023472561223394857,0.00011708703815035699,0.2927129566669464,-23.68893814086914,19.628707885742188,17.84735870361328,0.8641458749771118,2.3604629039764404,-0.07411040365695953,,,,,,,,,
1739400677.140458,-0.7082760213219291,0.6798238909338024,1.42167071508588,-1.8788961977224374,-0.7138002802620215,1.9464281433054273,0.18871572458672062,-0.00025670977852593836,-0.0010156328594016642,0.0004717901981120869,0.00037990507040243517,-0.00023839884083622662,0.0007354718919001186,-0.000173734825005318,0.2927129566669464,-23.61355972290039,19.604904174804688,17.87512969970703,0.8568216562271118,2.3668715953826904,-0.11347807943820953,,,,,,,,,
1739400677.1514478,-0.7082743391075433,0.6798255740734472,1.4216703966679278,-1.8788941431274542,-0.7138002799349523,1.9464289009655058,0.1887155699343478,-7.175938375244694e-05,-0.0011285672453777802,-0.0002974694491954472,0.00164808723902355,0.000746215916603293,0.00038975860328598544,-0.00016538571631353246,0.2689092457294464,-23.63736343383789,19.628707885742188,17.84735870361328,0.8568216562271118,2.3604629039764404,-0.07411040365695953,,,,,,,,,
1739400677.1623616,-0.7082759457736489,0.6798275778465048,1.4216725563664618,-1.8788961974076452,-0.7138011464862806,1.9464289009655058,0.1887092342502978,-5.0347490026674034e-06,-0.00022270813339279438,-1.2663389060555146e-05,-0.0005445732440836489,-0.0015093076377373125,0.0003259799745547236,-0.0026696957803213593,0.2927129566669464,-23.66513442993164,19.604904174804688,17.87512969970703,0.8641458749771118,2.3604629039764404,-0.04756011441349983,,,,,,,,,
1739400677.1724443,-0.7082703903347735,0.6798255769622786,1.4216728847379012,-1.8788961008917648,-0.7138011451861718,1.9464273856453491,0.18871529476709786,0.0011110568181295197,-0.0007129050197967389,0.0002718242126680733,-0.0001500331538359784,-0.00033511082373448444,-3.3060238071666505e-05,-0.0006754676729869131,0.2173345386981964,-23.63736343383789,19.604904174804688,17.87512969970703,0.8641458749771118,2.3732802867889404,-0.12721098959445953,,,,,,,,,
1739400677.1834536,-0.7082744473026227,0.6798275808444686,1.421670039402705,-1.8788885085339884,-0.7138000868481403,1.9464289009655058,0.18871150569257555,-0.00014183088258788859,0.0003502723515101297,-0.0009759765748377183,0.0015048569162897907,0.00017059640362361136,0.00017267857747291573,-0.0015015771323466476,0.2411382496356964,-23.66513442993164,19.604904174804688,17.79975128173828,0.8641458749771118,2.3604629039764404,-0.06678618490695953,,,,,,,,,
1739400677.1935134,-0.7082721934614079,0.6798258150598492,1.4216683079510746,-1.878898493278578,-0.7138041000286,1.9464289009655058,0.18871545884433485,5.418507533131394e-05,-0.0010608933384307947,-0.0009641743072399566,-0.0017390671718191667,-0.000492404802562329,-1.9567525381949247e-05,5.592759952492739e-05,0.2689092457294464,-23.63736343383789,19.656478881835938,17.87512969970703,0.8568216562271118,2.3604629039764404,-0.10066069662570953,,,,,,,,,
1739400677.2044642,-0.7082760515921077,0.679829252760672,1.4216680378798876,-1.878896274080781,-0.7137991032780424,1.9464266279852707,0.1887155119858461,0.00036077946129874474,0.0005253225867595281,-8.895389862810705e-05,-0.00011132772677991444,0.0008426504785365766,-0.00016614757147700104,0.000512182041957276,0.2927129566669464,-23.68893814086914,19.656478881835938,17.87512969970703,0.8568216562271118,2.3796889781951904,-0.10066069662570953,,,,,,,,,
1739400677.2154229,-0.7082743392523968,0.679831312182603,1.4216728245072998,-1.8788979535937111,-0.7138011458299689,1.9464281431439217,0.18871625648311,5.264683735886944e-05,0.0012857811510468635,0.002182594667348661,-0.0015442659045394674,-0.000133674663439027,-0.0003316062310753327,0.000945299853265862,0.2689092457294464,-23.71670913696289,19.577133178710938,17.89893341064453,0.8641458749771118,2.3668715953826904,-0.10706938803195953,,,,,,,,,
1739400677.2273524,-0.7082743653241089,0.6798312854011563,1.421665934703193,-1.8788948063822801,-0.7138040625049498,1.9464273856453482,0.1887162652588453,-0.0010553435604382685,0.0009400658154047326,-0.0009492188703647451,0.001229219680495899,-0.0013312040471601888,0.0001625503679165469,-0.0001949738686419658,0.2689092457294464,-23.71670913696289,19.656478881835938,17.84735870361328,0.8705545663833618,2.3732802867889404,-0.10706938803195953,,,,,,,,,
1739400677.237499,-0.7082760483937715,0.6798296318425442,1.4216659345928655,-1.8788968861761735,-0.7138002799471381,1.9464281389447764,0.18871313141939222,0.0005557165363521805,0.00026329182771900957,-3.301239428634754e-05,-0.0001649870886363151,-0.0009862353374535861,-2.130322799688127e-05,-0.0006928068449994118,0.2927129566669464,-23.68893814086914,19.656478881835938,17.87512969970703,0.8568216562271118,2.3668715953826904,-0.08051909506320953,,,,,,,,,
1739400677.2484567,-0.7082764452474944,0.6798310168413718,1.4216623692388268,-1.878896231424465,-0.7138018976780605,1.9464281433054027,0.18871150721204996,-0.00032037537523672724,-0.000782811597333363,-0.000731423306180962,0.0003100453954851483,0.00020322003879227494,0.00018565852204562055,-0.0019048280528804272,0.2689092457294464,-23.71670913696289,19.704086303710938,17.87512969970703,0.8705545663833618,2.3668715953826904,-0.06678618490695953,,,,,,,,,
1739400677.2593918,-0.7082743393593945,0.6798316032515574,1.421665934592865,-1.8788971926054792,-0.7138011453475678,1.9464273856453491,0.18871627110945935,0.0005007180527770613,0.0011736778083981567,-3.953367439982395e-05,0.00031330029905851425,6.492086781555219e-05,-0.00037241993626554743,0.0023265939183057254,0.2689092457294464,-23.71670913696289,19.656478881835938,17.87512969970703,0.8641458749771118,2.3732802867889404,-0.10706938803195953,,,,,,,,,
1739400677.269395,-0.7082760517374633,0.6798275759950392,1.421664151915846,-1.8788980059148808,-0.7138002784813975,1.9464281433054273,0.1887099346870608,0.000735465766448104,0.0005844018216569127,0.0003518536920463379,0.000713418263834032,0.00013893769348914767,5.1878251265076054e-05,-0.0023554664648981283,0.2927129566669464,-23.66513442993164,19.680282592773438,17.89893341064453,0.8568216562271118,2.3668715953826904,-0.05396880581974983,,,,,,,,,
1739400677.2794094,-0.7082775140658576,0.6798304359260496,1.4216651656422707,-1.8788962342554374,-0.71380028157017,1.9464273463994923,0.18871872968301623,0.00012893782438427263,0.000616362585736758,-0.0009795481694076418,-0.0005802908668872773,-0.0005890988268619394,-0.00023869043623335842,-0.0005738772750707648,0.3165166676044464,-23.66513442993164,19.628707885742188,17.87512969970703,0.8568216562271118,2.3732802867889404,-0.12721098959445953,,,,,,,,,
1739400677.2894416,-0.7082722614717328,0.6798255770106806,1.42167256372326,-1.8788964525061933,-0.7138019030077722,1.9464273856446843,0.18871003138480805,0.00044504170456395267,-0.0012728791534617964,0.00031307675220851213,-0.00041347028275726236,-0.0004099252963559491,1.129740462633573e-05,-0.0009506745265467214,0.2411382496356964,-23.63736343383789,19.604904174804688,17.87512969970703,0.8705545663833618,2.3732802867889404,-0.05396880581974983,,,,,,,,,
1739400677.300357,-0.7082706287183579,0.6798264526354055,1.4216727952182584,-1.8788915471475136,-0.7138019034922586,1.9464281428209105,0.18871865086443645,0.0012330431110022272,-0.00041191789305685517,0.0009380859256299763,0.001669707955024042,-0.0005004541263363303,-2.3530509098046018e-05,0.0004015509601009666,0.2173345386981964,-23.63736343383789,19.577133178710938,17.79975128173828,0.8705545663833618,2.3668715953826904,-0.12721098959445953,,,,,,,,,
1739400677.3113563,-0.7082739060772475,0.6798238647833761,1.4216697974952066,-1.8788962777330007,-0.713801145832183,1.9464281433054191,0.18871249158270842,-0.0007723477987884615,-0.0012638054244027543,-0.0008952671332239304,-0.0003854406242946571,0.0008538875440658364,-0.0004103704408135988,0.00016807764447452798,0.2927129566669464,-23.61355972290039,19.604904174804688,17.87512969970703,0.8641458749771118,2.3668715953826904,-0.07411040365695953,,,,,,,,,
1739400677.3214312,-0.708272341263766,0.6798292873881493,1.4216687151618106,-1.8788941232829073,-0.7138002799349505,1.946429658625584,0.18871074955307712,0.0006029884467136981,-7.639735529590472e-05,-0.0009538351302622801,0.0015571075801844195,0.00031566900570333025,0.0007017891565647316,-0.0018890528858679042,0.2411382496356964,-23.68893814086914,19.656478881835938,17.84735870361328,0.8568216562271118,2.3540542125701904,-0.06037749722599983,,,,,,,,,
1739400677.331456,-0.7082764452475131,0.6798234709314462,1.4216725771041387,-1.878896889006804,-0.7138000863575781,1.9464276704170806,0.18871546329514508,-0.0002761855675568328,-0.0012168933110951782,-0.00019540134114668902,-0.0009606144934141644,0.0005575883309056387,-0.000764270418976117,0.0002745341746011518,0.2689092457294464,-23.63736343383789,19.577133178710938,17.87512969970703,0.8641458749771118,2.3668715953826904,-0.12721098959445953,,,,,,,,,
1739400677.3414626,-0.7082736326634531,0.679825576926563,1.4216683099561596,-1.8788923377867617,-0.7138018622903954,1.9464278413193679,0.18870999200086322,-0.0004090329248385677,-0.0007066286793439456,-0.0016733195227069176,0.00036008791741371773,-8.98473475772433e-05,-0.00020210773790314688,-0.0024443600691669903,0.2689092457294464,-23.63736343383789,19.656478881835938,17.82355499267578,0.8705545663833618,2.3604629039764404,-0.05396880581974983,,,,,,,,,
1739400677.3523896,-0.7082763392797119,0.6798292899392624,1.421670872894208,-1.8788941256848655,-0.7138013528183239,1.9464273856393672,0.1887170200479004,-0.0005224495971821457,0.0004474928160844416,0.000721644224716186,0.0002822951274056045,-0.0005259367075585426,-0.0004474812326375291,0.00011658235546965344,0.2689092457294464,-23.68893814086914,19.628707885742188,17.84735870361328,0.8568216562271118,2.3732802867889404,-0.11347807943820953,,,,,,,,,
1739400677.3633788,-0.7082762857521732,0.679831199187619,1.4216683587637522,-1.8788923349406719,-0.71380008620011,1.946428143789944,0.1887210342484282,-0.00021230169973534657,0.000904593407333917,-0.0001367680661140449,0.00026545790186180326,0.00026753306750598347,-5.843966759000284e-05,0.0030532910106849257,0.2927129566669464,-23.68893814086914,19.628707885742188,17.82355499267578,0.8641458749771118,2.3668715953826904,-0.14735259115695953,,,,,,,,,
1739400677.3743825,-0.7082743395416867,0.6798292875652053,1.4216710796595373,-1.8788941204520686,-0.713801145814238,1.9464288966048633,0.18871319116251462,0.00029135187862365145,0.000918117607193903,0.0022121233972097355,3.730874028121884e-05,0.00013262829246310273,0.00033488434575193574,-0.0010760971145659902,0.2689092457294464,-23.68893814086914,19.628707885742188,17.84735870361328,0.8641458749771118,2.3604629039764404,-0.05396880581974983,,,,,,,,,
1739400677.3844035,-0.7082723413828776,0.6798292884049604,1.4216681035618728,-1.8788964279405862,-0.7138015502795514,1.9464273682027213,0.188717910827986,0.0011224833963498805,-9.553456726697987e-05,0.0004697347466199088,-0.0004896823041808044,0.001056326900062831,-0.0005128565617098108,0.0017283294788066367,0.2411382496356964,-23.68893814086914,19.628707885742188,17.87512969970703,0.8705545663833618,2.3732802867889404,-0.12080229818820953,,,,,,,,,
1739400677.3953853,-0.7082739059702512,0.6798329982124517,1.4216602196525112,-1.8789006811158862,-0.7138017857526975,1.9464281040594722,0.1887193148853915,0.00040958016787080774,0.0007118935181118778,-0.00231038719493856,-0.0013452898359644706,-0.0003825074185303929,0.00012122951842480756,0.0017627346563019656,0.2927129566669464,-23.74051284790039,19.704086303710938,17.92273712158203,0.8705545663833618,2.3668715953826904,-0.12080229818820953,,,,,,,,,
1739400677.405444,-0.708272367346917,0.679823873271821,1.421665934976376,-1.8788982638223846,-0.7138018976760664,1.946428900964841,0.18871237313335498,0.0005436247721767864,-0.0011142854358946628,-0.000344558966504516,0.00012525087568311953,0.0002960911973312596,0.00028582448334718265,-0.00024205138191782556,0.2411382496356964,-23.61355972290039,19.656478881835938,17.87512969970703,0.8705545663833618,2.3604629039764404,-0.07411040365695953,,,,,,,,,
1739400677.4154758,-0.7082743396451626,0.6798313552990508,1.4216637884986107,-1.8788982679359936,-0.7138019093790413,1.9464281434669328,0.188719526672692,0.00023236562184106568,-0.0010321399292001691,6.68870951881234e-05,-0.0012163457895799275,8.934822522912013e-05,0.00010811017563193981,0.0023601005825908466,0.2689092457294464,-23.68893814086914,19.656478881835938,17.87512969970703,0.8705545663833618,2.3668715953826904,-0.13361968100070953,,,,,,,,,
1739400677.4264328,-0.7082743421056649,0.6798316033767944,1.4216680156303492,-1.8788968959469858,-0.7138011458867243,1.9464281433054282,0.18871854553125797,0.00037476162581849955,0.0015940301442085969,-0.0002933775595536089,-0.001212941856703933,-0.0005402844923759728,-1.433807740566041e-06,0.0001764021398173591,0.2689092457294464,-23.71670913696289,19.628707885742188,17.87512969970703,0.8641458749771118,2.3668715953826904,-0.09425200521945953,,,,,,,,,
1739400677.4373934,-0.7082760517731447,0.6798315247661868,1.4216679084189143,-1.8788942206056238,-0.7138011458321832,1.9464285989874546,0.18871510976835842,-4.2769333430163806e-05,0.0009793930927520821,-0.0003659346317716613,0.0003795228035653016,-0.0002211205424245789,0.0005433123463674113,-0.0009587507050951472,0.2927129566669464,-23.71670913696289,19.628707885742188,17.84735870361328,0.8641458749771118,2.3540542125701904,-0.09425200521945953,,,,,,,,,
1739400677.4474447,-0.7082743392167319,0.6798308931443153,1.4216680172153489,-1.8788979800862642,-0.7138019034922614,1.946427385627404,0.1887179531152901,-0.0007900848803974335,0.0017237999329336544,-0.00011112557715534568,-0.0015470495661047,-0.00015967475738996688,-0.0006025103107565406,-0.0002691820573182462,0.2689092457294464,-23.66513442993164,19.628707885742188,17.89893341064453,0.8705545663833618,2.3732802867889404,-0.09425200521945953,,,,,,,,,
1739400677.4574559,-0.708273623960994,0.6798284054452097,1.421665934592913,-1.8788925645288879,-0.7138019034922614,1.9464289009655054,0.18871005046708114,0.000970125262856862,0.0002484902775739645,0.0004094101238926996,0.00112722005234814,-0.0010819008162632864,0.0002783393859817836,-0.001638389202687295,0.2689092457294464,-23.66513442993164,19.656478881835938,17.82355499267578,0.8705545663833618,2.3604629039764404,-0.06037749722599983,,,,,,,,,
1739400677.469417,-0.7082760517334249,0.6798278406170541,1.4216737360560345,-1.8788962742531536,-0.7138027847767882,1.9464281433054273,0.18871551198279973,-0.000991722722959776,0.00010583527625549058,0.0023955624568764546,-0.0006556614751898769,-0.0009122163774050107,-0.00010150766549151617,0.0005151113737826014,0.2927129566669464,-23.63736343383789,19.553329467773438,17.87512969970703,0.8769632577896118,2.3668715953826904,-0.10066069662570953,,,,,,,,,
1739400677.4794393,-0.7082743392167313,0.6798269241957133,1.4216677759645733,-1.8788941179330152,-0.7138011458328809,1.9464281433054273,0.18871313076935697,-0.00018177080193747778,-0.00041031207114148704,0.00029200866641867015,-0.00029611337953703085,0.00043785651192226535,-0.00018269184179596845,-0.0010615886171427918,0.2689092457294464,-23.61355972290039,19.628707885742188,17.84735870361328,0.8641458749771118,2.3668715953826904,-0.08051909506320953,,,,,,,,,
1739400677.4903874,-0.7082760521654523,0.6798293258493568,1.4216659468713269,-1.8788941941470714,-0.7138007926194733,1.9464273856453491,0.18871249353288833,8.657472666059857e-05,-0.00030101482783008107,-0.00035461254262974173,-0.0008196000585982777,0.0014557775318311528,-1.3402808045087606e-05,-0.00018150625812363125,0.2927129566669464,-23.68893814086914,19.656478881835938,17.84735870361328,0.8641458749771118,2.3732802867889404,-0.07411040365695953,,,,,,,,,
1739400677.5014374,-0.7082743403916852,0.6798268804392419,1.4216666490191148,-1.8788923362355068,-0.7138034144331575,1.9464289009655058,0.1887162676968711,0.00013535617449337076,-0.0006292006677258434,-0.00032582581947812,-9.618738366422015e-05,-0.0005704172903926899,0.00014544437379687724,2.2387390107900574e-05,0.2689092457294464,-23.66513442993164,19.656478881835938,17.82355499267578,0.8833719491958618,2.3604629039764404,-0.10706938803195953,,,,,,,,,
1739400677.5123465,-0.708270628755167,0.6798297206585331,1.4216662435570686,-1.8788961975125018,-0.7138043254005945,1.9464320798798938,0.1887183714857259,8.474092711636266e-05,0.00017747326085255238,-0.00010601888451084959,-0.00015484539007227182,-0.00023447759976753167,0.000677804430470032,0.0014582440954859562,0.2173345386981964,-23.66513442993164,19.656478881835938,17.87512969970703,0.8641458749771118,2.3604629039764404,-0.12080229818820953,,,,,,,,,
1739400677.5223477,-0.7082721018761527,0.679827294727555,1.4216697970614836,-1.8788979800845207,-0.7138009888667052,1.9464289009834508,0.18871865086691342,0.0010362281743200301,0.0003609465088781923,-0.0001261770018903532,-0.00011468782456011478,0.0005276248857090722,0.00025070210836978943,0.002027309897652208,0.2411382496356964,-23.68893814086914,19.604904174804688,17.89893341064453,0.8641458749771118,2.3604629039764404,-0.12721098959445953,,,,,,,,,
1739400677.532377,-0.7082756184869275,0.6798319919198637,1.4216681277596395,-1.8788979805044346,-0.7138002799322922,1.9464281433054276,0.18871551198674613,-0.0007205583334935745,0.0018869676990393909,-1.8644228063091042e-05,-0.00013438714243305144,0.00015835148745100506,-0.0002852163132980344,-0.0006522169130569612,0.3165166676044464,-23.71670913696289,19.628707885742188,17.89893341064453,0.8568216562271118,2.3668715953826904,-0.10066069662570953,,,,,,,,,
1739400677.542451,-0.7082716316344786,0.6798272907335668,1.4216666246231526,-1.8788962059107914,-0.7138048432824518,1.9464289009655058,0.18871181581327598,0.0006075914761195209,-0.0005930543426967692,-0.00035357811416004015,0.0011833829287154936,-0.0018396570830691125,0.00047001883925536046,-0.001649624977045614,0.2411382496356964,-23.66513442993164,19.656478881835938,17.87512969970703,0.8641458749771118,2.3604629039764404,-0.06037749722599983,,,,,,,,,
1739400677.5534523,-0.7082797621950409,0.6798258153792038,1.421665696178181,-1.8788948181750769,-0.7138034188332902,1.9464273856453491,0.18871608974874649,-0.0020986907031482213,-0.0012466341148741262,-0.0004614473439094231,-0.0001268676024024156,-0.0009264402581677523,-0.00018340296218995812,0.00032586218809217574,0.3442876636981964,-23.63736343383789,19.656478881835938,17.84735870361328,0.8833719491958618,2.3732802867889404,-0.10706938803195953,,,,,,,,,
1739400677.5643897,-0.7082723402947319,0.6798292874727134,1.4216659355372239,-1.8788982862035202,-0.7138016917826681,1.9464289009655058,0.18872215824726724,-0.00011178288254083842,-0.00019383087557262214,7.81818498432474e-05,-0.0015452644326248307,-0.0008315948228850474,0.00020338327651832057,0.001555026248175316,0.2411382496356964,-23.68893814086914,19.656478881835938,17.89893341064453,0.8705545663833618,2.3604629039764404,-0.12080229818820953,,,,,,,,,
1739400677.5744305,-0.7082743392167147,0.6798330243763515,1.4216677756371083,-1.8788982096779656,-0.7138011458285977,1.9464281433054273,0.18871865109895739,0.0002740720362187072,0.0002393463685411055,-0.00023638584939841915,-0.00012616329621043833,-0.00027330014188610907,-7.12056278274437e-05,2.5540902577468605e-05,0.2689092457294464,-23.74051284790039,19.628707885742188,17.89893341064453,0.8641458749771118,2.3668715953826904,-0.12721098959445953,,,,,,,,,
1739400677.585349,-0.7082742597438716,0.6798285289409355,1.4216659305579153,-1.878896205838043,-0.7138025765616901,1.9464289009655058,0.18871710634336225,0.00011031041336212133,-0.0004504677614463833,-2.7615062064204998e-05,-5.17504303660601e-05,-0.0011324284793834444,0.00020265066800805178,0.0008607857439275722,0.2689092457294464,-23.66513442993164,19.656478881835938,17.87512969970703,0.8641458749771118,2.3604629039764404,-0.11347807943820953,,,,,,,,,
1739400677.5953887,-0.7082760517361166,0.6798314005020023,1.42166613873727,-1.8789001232233715,-0.7138011453718958,1.9464273856453491,0.18871150721338478,-0.0005063097108377543,0.00013402742968217861,-0.00042538397488166106,-0.0005448435866994579,0.0009290058479246047,0.0001081941232734387,-0.0014564300919715648,0.2927129566669464,-23.71670913696289,19.680282592773438,17.89893341064453,0.8641458749771118,2.3732802867889404,-0.06678618490695953,,,,,,,,,
1739400677.6060214,-0.7082754131726294,0.6798314727658804,1.4216700718804018,-1.878894219693167,-0.7138002799349428,1.9464281433054273,0.18871382917435983,-0.0011442550533139586,0.0006401556911287109,0.0009805648892509812,0.0013214935396617116,0.0003876103890371831,-0.0002427978245135376,-2.573937020322191e-05,0.2411382496356964,-23.68893814086914,19.628707885742188,17.84735870361328,0.8568216562271118,2.3668715953826904,-0.11347807943820953,,,,,,,,,
1739400677.616468,-0.7082743392340722,0.6798275778588575,1.421669795763159,-1.878896529035566,-0.713797966917795,1.9464281433054273,0.18871547448190087,0.0003349846499880721,-0.000439056651458675,-0.000137312627249015,-0.00020937494028670702,-0.0003666343172280701,0.0001126892932180248,0.0002095638669997558,0.2689092457294464,-23.66513442993164,19.604904174804688,17.87512969970703,0.8641458749771118,2.3668715953826904,-0.10066069662570953,,,,,,,,,
1739400677.6264718,-0.7082723337295302,0.679827574903132,1.4216680398925052,-1.8788941176232616,-0.713802391582994,1.9464281433054273,0.18871637099264796,0.00030943271785424317,-0.0012493074813642135,0.0008070041921330581,0.0010014868833641902,-0.0009108196287128017,-9.844021413508159e-05,0.0007071097301708652,0.2411382496356964,-23.66513442993164,19.628707885742188,17.84735870361328,0.8705545663833618,2.3668715953826904,-0.08051909506320953,,,,,,,,,
1739400677.6373637,-0.7082743425336097,0.679827587112904,1.4216676517475788,-1.8788944492801272,-0.7138052810915538,1.9464304162856625,0.18871313078764818,0.00024193972160797486,-0.0002724733279858808,0.00028903456487256547,-0.0006871336219363331,-0.000667616251273698,0.0010626320797322828,-0.0007518861229687875,0.2689092457294464,-23.66513442993164,19.604904174804688,17.84735870361328,0.8705545663833618,2.3476455211639404,-0.08051909506320953,,,,,,,,,
1739400677.6483538,-0.7082716181528564,0.6798255779435821,1.4216700895639252,-1.8788979800901369,-0.7138026656246984,1.9464289009655058,0.18871940852429214,0.001312086507678704,-0.000986229126119114,-0.0003898516202329482,-0.0008931439390348206,-0.000504656730619343,0.00022984386824833762,0.00013030171613992426,0.2411382496356964,-23.63736343383789,19.628707885742188,17.89893341064453,0.8769632577896118,2.3604629039764404,-0.13361968100070953,,,,,,,,,
1739400677.6594696,-0.7082767547066182,0.6798275752301363,1.4216680143944347,-1.8788961974075014,-0.7138019034922866,1.9464281433054273,0.18870928300193146,-0.0004197601559965101,-0.0005806404343347868,-0.001062062406251692,-0.0004915973029218689,-0.00020702858127400343,-0.0001822152862035745,-0.0021228922382541694,0.2927129566669464,-23.66513442993164,19.628707885742188,17.87512969970703,0.8705545663833618,2.3668715953826904,-0.05396880581974983,,,,,,,,,
1739400677.670489,-0.7082723672802266,0.679821867481793,1.4216721074876426,-1.8788941555149306,-0.713801145832183,1.9464281433054273,0.18871789385019344,0.0005123891595011009,-0.0019550874188594253,-4.172292850949239e-05,0.00034213283725389743,0.00027720124355661685,0.00017736207595392712,0.0011990284688443162,0.2411382496356964,-23.58578872680664,19.577133178710938,17.84735870361328,0.8641458749771118,2.3668715953826904,-0.12080229818820953,,,,,,,,,
1739400677.6823807,-0.7082764453545597,0.6798256036106519,1.4216680484078943,-1.8788961839120693,-0.713801905400719,1.9464289009655058,0.1887123750594598,-0.0007127081628332428,0.00011607638710948737,-0.001320938954406808,-0.0002079862546707301,-0.0014686712413774156,0.00023231421922713833,-0.0007685405279698609,0.2689092457294464,-23.63736343383789,19.628707885742188,17.84735870361328,0.8705545663833618,2.3604629039764404,-0.07411040365695953,,,,,,,,,
1739400677.6923852,-0.7082682009905678,0.6798314279038865,1.4216680172173353,-1.878894219668537,-0.7138002799349613,1.9464273856453491,0.18871831290012486,0.0015385409431692796,-0.00010954792288334222,0.00034991499127904127,-0.0001143502317420411,4.932552975664992e-05,-0.0002890937388298599,-0.0005322600726562726,0.1935308277606964,-23.68893814086914,19.628707885742188,17.84735870361328,0.8568216562271118,2.3732802867889404,-0.08692778646945953,,,,,,,,,
1739400677.703434,-0.7082724192729808,0.6798295287979146,1.4216672992669706,-1.8788962777167284,-0.713804064194702,1.9464273856453491,0.18871667629949462,-0.0006730713134645405,0.0003246533950686626,0.000267574212862105,-0.0003300615718197638,0.00048615598077563166,-0.0005153222082701632,-8.387529289618936e-05,0.2411382496356964,-23.68893814086914,19.628707885742188,17.87512969970703,0.8705545663833618,2.3732802867889404,-0.11347807943820953,,,,,,,,,
1739400677.7143562,-0.7082764462118113,0.6798256917604472,1.421668705969817,-1.8788941516320814,-0.7137995224749882,1.9464304162856625,0.1887147543207234,-0.00043298699401772155,-0.001728078628022709,0.0009191108217231415,-7.101269988170019e-05,-0.00013940632973958125,0.0011415356777293912,-0.001300169487766946,0.2689092457294464,-23.63736343383789,19.628707885742188,17.84735870361328,0.8504129648208618,2.3476455211639404,-0.09425200521945953,,,,,,,,,
1739400677.7244396,-0.7082749379092589,0.679831285692363,1.421665934596769,-1.8788968736217817,-0.7138051023051069,1.9464281433054273,0.1887073604794904,0.0003557318260599923,-0.00039153668122583155,-0.00018964317409445643,-0.0007382137111041441,-0.0005100845697892649,-3.114651289508181e-05,-0.0031395218835754287,0.2411382496356964,-23.71670913696289,19.656478881835938,17.84735870361328,0.8641458749771118,2.3668715953826904,-0.06678618490695953,,,,,,,,,
1739400677.7355106,-0.7082743396950449,0.6798314374426614,1.4216649809185486,-1.8788980056098847,-0.7138012482168375,1.946429652811383,0.18871952111504828,9.142566074879591e-05,0.0005811842934833423,-0.0008213967721073039,-0.0006475019864438164,0.000520209379328515,0.0005829324445433573,0.0013169486383542979,0.2689092457294464,-23.68893814086914,19.656478881835938,17.89893341064453,0.8769632577896118,2.3540542125701904,-0.10706938803195953,,,,,,,,,
1739400677.746527,-0.7082743392167393,0.6798302411345403,1.4216680439705431,-1.8788979885882213,-0.7138011459717791,1.9464273856452505,0.188719587445466,0.0002783904269624297,-0.0009702682366100506,0.0019290977904596446,0.000408924889476687,5.9998635206026115e-05,-0.0004211412241658496,0.0006485736545218521,0.2689092457294464,-23.68893814086914,19.628707885742188,17.89893341064453,0.8641458749771118,2.3732802867889404,-0.10706938803195953,,,,,,,,,
1739400677.7573953,-0.7082743421056624,0.6798282819298855,1.4216700891803973,-1.8788961974075173,-0.7138027541711669,1.9464264797111959,0.18871976395082407,0.0007226670503370135,-0.000640985243429651,0.001362014224556148,-0.00015663517231351173,0.00039460424867743596,0.00012001137162211454,0.001732786444634531,0.2689092457294464,-23.66513442993164,19.628707885742188,17.87512969970703,0.8504129648208618,2.3540542125701904,-0.13361968100070953,,,,,,,,,
1739400677.769387,-0.7082723411305396,0.6798278134710073,1.4216680153392403,-1.8788961839119978,-0.7138019079256643,1.9464281432874821,0.1887134864083393,0.0007027065861038244,-0.0002383731147773767,7.20383575565039e-05,-0.0004651135025373273,-0.0009831422802288165,8.252849916673801e-05,-0.0009791254110307127,0.2411382496356964,-23.66513442993164,19.628707885742188,17.84735870361328,0.8705545663833618,2.3668715953826904,-0.08051909506320953,,,,,,,,,
1739400677.779415,-0.7082741007981513,0.6798323873027533,1.42166589632816,-1.878897102416679,-0.7138015034600766,1.9464289009655056,0.18872367356977002,0.0005158260454045237,0.0013399446777813643,-0.001145349810941816,-0.0008759689351715699,-3.951618210140682e-05,0.0005785682610339845,0.0015431674929252159,0.2689092457294464,-23.68893814086914,19.656478881835938,17.84735870361328,0.8641458749771118,2.3604629039764404,-0.13361968100070953,,,,,,,,,
1739400677.7903466,-0.7082777642925137,0.679828537425215,1.4216718756363753,-1.8788997665926122,-0.7138019030097634,1.946428900480989,0.1887123336963834,-0.0010985458306329145,-4.0905688528825794e-05,0.0013469179853841905,-0.0022244147275973384,0.00019008255065288297,-0.00015495312517483013,-0.002094512449430133,0.3165166676044464,-23.66513442993164,19.604904174804688,17.92273712158203,0.8705545663833618,2.3604629039764404,-0.07411040365695953,,,,,,,,,
1739400677.8014586,-0.7082760777378431,0.6798276014103356,1.4216660026421044,-1.8788923349406914,-0.7138020059615707,1.9464289009654976,0.18871487279943003,8.067892698703383e-05,-0.000815970662908,-0.0015025788773131484,0.0019692983072924506,0.0001149755661203552,0.00022382348002964226,0.0004971946830785906,0.2927129566669464,-23.66513442993164,19.656478881835938,17.82355499267578,0.8833719491958618,2.3604629039764404,-0.09425200521945953,,,,,,,,,
1739400677.8114817,-0.7082750426181056,0.6798303218793341,1.4216708004458585,-1.8788982893166388,-0.7138011457172099,1.9464281433054273,0.18871423652203667,-0.0008960107647671248,0.0014953478292035777,-0.0005832653722265446,-0.000984407535475944,0.000422742074414392,0.0002119104413614695,0.0013693003714649792,0.2689092457294464,-23.68893814086914,19.604904174804688,17.87512969970703,0.8641458749771118,2.3668715953826904,-0.08051909506320953,,,,,,,,,
1739400677.8224409,-0.7082723441687802,0.6798337131469743,1.4216697980102113,-1.8788943472177158,-0.7138011326963949,1.9464279863220006,0.18871607284741018,0.00027742188255401985,0.0018595590009276538,-0.0008551217588202971,0.0008576297472747152,0.0009019214501713419,-0.00031190311886976634,-0.0003661325033387137,0.2411382496356964,-23.74051284790039,19.604904174804688,17.84735870361328,0.8641458749771118,2.3668715953826904,-0.10706938803195953,,,,,,,,,
1739400677.8324745,-0.7082743401797573,0.6798292874359262,1.4216725610420755,-1.8788980821276355,-0.7138019079071978,1.9464281433027688,0.1887162696434916,-2.305362845415628e-05,0.0005992685741501436,0.0006369334543178738,-0.0008340578394419717,-0.0004237736914671397,-0.0004317403483311263,0.0006018382914305827,0.2689092457294464,-23.68893814086914,19.604904174804688,17.89893341064453,0.8705545663833618,2.3668715953826904,-0.10706938803195953,,,,,,,,,
1739400677.8443666,-0.7082743392167367,0.679827574903082,1.4216697999097652,-1.8788948830523977,-0.7138002799349754,1.9464289009655058,0.1887170287695377,-0.0002879326162812525,-0.0004565687808977502,0.001180666807273794,0.0001675978493906731,0.000646859538589269,0.00029741405413566006,-5.077076703768565e-05,0.2689092457294464,-23.66513442993164,19.604904174804688,17.84735870361328,0.8568216562271118,2.3604629039764404,-0.11347807943820953,,,,,,,,,
1739400677.8543713,-0.708275149316921,0.67983043625308,1.421664903167451,-1.8788904026612694,-0.7138061955172583,1.9464273856453491,0.1887123916359961,5.8462368536833006e-05,0.0011530995029399363,-0.0016268360165884105,0.0004084222590767509,-0.0021895629161915865,-0.000306376560472689,-0.0004098912404645591,0.2411382496356964,-23.66513442993164,19.628707885742188,17.79975128173828,0.8705545663833618,2.3732802867889404,-0.07411040365695953,,,,,,,,,
1739400677.8653486,-0.7082743392642857,0.6798275749515392,1.421668040259753,-1.878898209670248,-0.7138011459048688,1.9464281433054273,0.1887159156894839,0.00033265768893541613,-0.0005696746975389936,-1.2598326397844123e-06,-0.0005786221918985192,0.00025955744084644506,-0.0003829048010368568,-0.0008794939413973636,0.2689092457294464,-23.66513442993164,19.628707885742188,17.89893341064453,0.8641458749771118,2.3668715953826904,-0.10706938803195953,,,,,,,,,
1739400677.875476,-0.7082760780224964,0.6798276017210843,1.421668018162097,-1.8788944267460816,-0.7138040916638148,1.946429658625584,0.18871313710544363,-0.0006419363603905671,0.00046767998077273503,0.0008579055980612077,-0.00033604094928520005,-0.0009420350409727328,0.0006420590344936033,-0.0009947836304487938,0.2927129566669464,-23.66513442993164,19.628707885742188,17.82355499267578,0.8769632577896118,2.3540542125701904,-0.08051909506320953,0,0,0,0.000,0,0
1739400677.8864586,-0.7082743404645103,0.6798344921873702,1.4216697971647394,-1.878896200393704,-0.7138006748899786,1.9464281433054273,0.18871837931687832,0.00012835315688643437,0.002880287154568039,0.0009182836305906054,-0.0008033345693255321,0.000563080887767788,-0.00017366741128374216,0.0006869355718160353,0.2689092457294464,-23.71670913696289,19.604904174804688,17.87512969970703,0.8641458749771118,2.3668715953826904,-0.13361968100070953,0,0,0,0.000,0,0
1739400677.8974383,-0.7082731911425101,0.6798298354825272,1.4216648318503127,-1.8788924340364312,-0.7138026612041893,1.9464281433054273,0.18872038989880852,-9.391528840208398e-05,-0.0002522976639751747,6.975667141509456e-06,0.000980985773043652,0.0005686495008946393,-0.00031666982439031534,0.0008859652200987762,0.2927129566669464,-23.66513442993164,19.680282592773438,17.82355499267578,0.8769632577896118,2.3668715953826904,-0.11347807943820953,0,0,0,0.000,0,0
1739400677.9074543,-0.7082723412274339,0.6798278236074734,1.4216665174053509,-1.878896202969009,-0.7137995091929209,1.9464273856453491,0.18871152043270648,0.0009519860089911094,-0.0006421603316638509,0.000590385461170207,-0.00021486316167183275,0.00040634657127605584,6.779490764299384e-05,-0.0008437512257983186,0.2411382496356964,-23.66513442993164,19.656478881835938,17.87512969970703,0.8504129648208618,2.3732802867889404,-0.06678618490695953,0,0,0,0.000,0,0
1739400677.9193919,-0.7082716269831177,0.6798323548156636,1.4216682438289168,-1.8788982436858885,-0.7137990822056681,1.946429658625584,0.18871150769966588,0.0008676748808525679,0.0008890192652637618,0.0006328563931529019,-0.0009064317382280789,-0.0006024969295933696,0.0005685411143315457,-0.0005871590864150412,0.2411382496356964,-23.71670913696289,19.628707885742188,17.89893341064453,0.8705545663833618,2.3540542125701904,-0.06678618490695953,0,0,0,0.000,0,0
1739400677.9293983,-0.7082744175348316,0.6798293002937699,1.4216680142749993,-1.8788964269972506,-0.7138034017906268,1.9464273851608322,0.1887186523268512,-4.993238775815884e-05,-0.0003726337268780445,0.00021097578664091237,-0.0007622474791880798,-0.000744564307338853,-0.00036519131669906905,0.00016351159893357383,0.2689092457294464,-23.68893814086914,19.628707885742188,17.87512969970703,0.8833719491958618,2.3732802867889404,-0.12721098959445953,0,0,0,0.000,0,0
1739400677.9394279,-0.7082743392180576,0.679824129351248,1.4216697852859808,-1.8788941431313404,-0.7138011458318947,1.9464289009654976,0.18871237310930344,0.0002794863744000546,-0.00141881897171353,0.0002271767743757668,0.0007444168215135924,4.599507109631949e-05,0.0005666921523330868,-0.0011738853018584065,0.2689092457294464,-23.61355972290039,19.604904174804688,17.84735870361328,0.8641458749771118,2.3604629039764404,-0.07411040365695953,0,0,0,0.000,0,0
1739400677.9494667,-0.7082743379085361,0.6798293143553178,1.4216697983192836,-1.8788979800849521,-0.7138026626240593,1.9464266279852707,0.1887170287695377,-0.00013211017145077405,0.0008391010703773091,-8.60608739297169e-05,-0.0002504562490268632,-0.00023802854694206346,-0.0001826246236013406,-0.00022789067860541504,0.2689092457294464,-23.68893814086914,19.604904174804688,17.89893341064453,0.8769632577896118,2.3796889781951904,-0.11347807943820953,0,0,0,0.000,0,0
1739400677.959486,-0.7082723412758561,0.67982756432896,1.421670769441878,-1.8788941179325813,-0.7138026611523646,1.9464289009655058,0.18871203524063346,0.0001384867999408789,-0.001052074720423923,0.000861368992718815,0.0009409566608435055,-0.00012728966282220507,0.00055252194541215,-0.0014575286629013172,0.2411382496356964,-23.66513442993164,19.628707885742188,17.84735870361328,0.8769632577896118,2.3604629039764404,-0.07411040365695953,0,0,0,0.000,0,0
1739400677.9703724,-0.7082773812611943,0.6798285325382631,1.421668043722303,-1.8788941176526401,-0.7138017857546914,1.9464273856453491,0.18871702730499548,-0.00033495639695446796,0.0006665766786430162,-0.0011071245523326225,0.0005085010911854141,-6.305188652685357e-05,0.0002456156430330796,-8.800433564949142e-05,0.2689092457294464,-23.66513442993164,19.628707885742188,17.84735870361328,0.8705545663833618,2.3732802867889404,-0.11347807943820953,0,0,0,0.000,0,0
1739400677.9804,-0.7082760604557732,0.6798255769784465,1.4216698229899576,-1.878893338326362,-0.7138034537016048,1.946428130223475,0.18872265281109274,-0.0010394238682884097,-0.0019112347415620847,0.0006778000730946384,0.0005780975613610201,-0.0007173904655309375,-0.0005826568957565723,0.0028762042507078857,0.2927129566669464,-23.63736343383789,19.604904174804688,17.82355499267578,0.8705545663833618,2.3668715953826904,-0.13361968100070953,0,0,0,0.000,0,0
1739400677.9904065,-0.7082752753375573,0.6798292875328298,1.4216698225699855,-1.8788961974244935,-0.7138019167639909,1.9464289009652842,0.18871541004979864,-0.0012406609970852535,-0.0006748783428775863,0.0006101163696774536,-0.00019381067025537279,-4.5998490945934177e-07,0.0006104508937300352,-0.0011668543457270775,0.2689092457294464,-23.68893814086914,19.604904174804688,17.87512969970703,0.8705545663833618,2.3604629039764404,-0.06037749722599983,0,0,0,0.000,0,0
1739400678.0013888,-0.7082743430844928,0.6798315129909355,1.4216700541865515,-1.878897115760547,-0.7138020359472522,1.9464281433054273,0.18871953292718727,-0.00032085624999259613,0.0018758843527776604,0.0004176643178689807,0.0006083008927823539,0.0005227689005324651,-0.0003933313473443238,0.001013255077678854,0.2689092457294464,-23.68893814086914,19.628707885742188,17.87512969970703,0.8705545663833618,2.3668715953826904,-0.13361968100070953,0,0,0,0.000,0,0
1739400678.0123403,-0.7082743392046257,0.6798322577942675,1.4216718633929228,-1.8788922318129646,-0.713803018798627,1.9464289009655058,0.18871491234564647,-0.00046220669320201586,0.002220860332766284,0.0022866454381428127,0.002029107831948767,-0.0007702484222310449,0.00015831268223833562,0.0006674033151069523,0.2689092457294464,-23.68893814086914,19.604904174804688,17.82355499267578,0.8769632577896118,2.3604629039764404,-0.09425200521945953,0,0,0,0.000,0,0
1739400678.0224903,-0.7082779982616138,0.6798316804902254,1.4216660366670857,-1.878894117615899,-0.7138029705677231,1.9464273856453491,0.18871987509233018,-0.0005200293429254095,0.0011799652249782115,-0.0005891903473608246,0.0010927275280596196,9.479012992946609e-05,0.0001704992623885743,0.001138573549345154,0.3165166676044464,-23.68893814086914,19.656478881835938,17.84735870361328,0.8705545663833618,2.3732802867889404,-0.12721098959445953,0,0,0,0.000,0,0
1739400678.0333643,-0.7082770679288986,0.6798275749165908,1.4216718633546679,-1.878892411470047,-0.713800794315249,1.946428900480989,0.18872034456984624,-0.00011665430646669429,-0.000714260571416544,0.0008751865838004709,0.0009709096623253415,0.0008754505035815511,-2.997036318733585e-05,0.0009775535386945236,0.2689092457294464,-23.66513442993164,19.604904174804688,17.82355499267578,0.8641458749771118,2.3604629039764404,-0.11347807943820953,0,0,0,0.000,0,0
1739400678.0434525,-0.7082760528536479,0.679830038981968,1.421664186068893,-1.8788923349419224,-0.7137987245719203,1.9464289009654976,0.1887141972489178,-0.0014476309779823827,-0.0001935996275885282,-0.0006081566698203141,0.0019266010594427402,0.0007122855306541262,0.0005639074830361294,-0.00021744074448679475,0.2927129566669464,-23.68893814086914,19.680282592773438,17.82355499267578,0.8705545663833618,2.3604629039764404,-0.08051909506320953,0,0,0,0.000,0,0
1739400678.054413,-0.7082689044606651,0.6798307009488224,1.4216659345930578,-1.8788971035247868,-0.7138007925476929,1.9464281433054273,0.18871789321015547,0.0011741987408968749,0.001500949486320766,0.0003349793318954412,0.00040325238600787816,0.0014473265305543362,-3.073996907289575e-05,-9.754578084195478e-05,0.1935308277606964,-23.66513442993164,19.656478881835938,17.84735870361328,0.8641458749771118,2.3668715953826904,-0.12080229818820953,0,0,0,0.000,0,0
1739400678.0654206,-0.7082706287550806,0.679827587675632,1.4216637093164546,-1.8788941221606952,-0.7138025705274623,1.9464281433054273,0.1887147538391228,0.0024119432590949904,-0.001998263165140261,-0.0007841332553346126,0.0006070995244400764,-0.00125996740407311,-0.0011389032185464953,-0.0007752223457484722,0.2173345386981964,-23.66513442993164,19.656478881835938,17.84735870361328,0.8641458749771118,2.3668715953826904,-0.09425200521945953,0,0,0,0.000,0,0
1739400678.0763915,-0.7082723399313443,0.6798277611395781,1.421665937414726,-1.8788979726189503,-0.7138019035003038,1.9464273811231927,0.18871313076935425,0.0010228995785778606,-0.001160581180414203,-5.792496792400025e-05,-0.00028961214316017704,-0.00010029481437941995,-0.0004129153457304572,-0.00117216591585306,0.2411382496356964,-23.63736343383789,19.656478881835938,17.89893341064453,0.8705545663833618,2.3732802867889404,-0.08051909506320953,0,0,0,0.000,0,0
1739400678.0864081,-0.7082744514795382,0.6798297221244947,1.4216703867948022,-1.8788961839118714,-0.7138026613158642,1.9464273856452725,0.18871629597425327,-9.94080630638901e-05,-7.220054579676176e-05,0.0006309084123581537,0.0005238704485005035,-0.0004643038758391208,-7.058361967755508e-05,0.00040514054536503553,0.2411382496356964,-23.66513442993164,19.628707885742188,17.84735870361328,0.8769632577896118,2.3732802867889404,-0.10706938803195953,0,0,0,0.000,0,0
1739400678.0974233,-0.7082743392286435,0.6798302420913971,1.4216697988900697,-1.8788961890087623,-0.7138009996058476,1.9464289009655058,0.18871313076950563,-0.0002036359194749074,0.0004730282875648064,0.0002447904149022882,0.0012621524803989887,-6.805761593185365e-05,0.00034685804804922103,-0.0020193679961278462,0.2689092457294464,-23.68893814086914,19.604904174804688,17.87512969970703,0.8568216562271118,2.3604629039764404,-0.08051909506320953,0,0,0,0.000,0,0
1739400678.1074307,-0.7082764452475135,0.6798279202827877,1.421669797479685,-1.878896205910628,-0.7138029778597745,1.946426471001844,0.18871865232684842,-0.0013564391974506635,-0.0004102764185860741,0.00026212390684202005,-0.00012568038371227837,-0.00021425950742132616,-0.0012148865283678144,0.0016516315112026004,0.2689092457294464,-23.66513442993164,19.604904174804688,17.87512969970703,0.8705545663833618,2.3796889781951904,-0.12721098959445953,0,0,0,0.000,0,0
1739400678.1174483,-0.7082743392523971,0.6798258183300963,1.4216700806770797,-1.878898496124682,-0.7138035126751368,1.9464273856426906,0.18871470745730892,-0.0006032072029893797,-0.0004599147318610577,0.0002027635200261124,-0.0007448098006017853,-0.00047451449911256334,-0.0004897036177081215,-0.00048004022903071,0.2689092457294464,-23.63736343383789,19.628707885742188,17.87512969970703,0.8568216562271118,2.3732802867889404,-0.06678618490695953,0,0,0,0.000,0,0
1739400678.1274688,-0.7082750382835533,0.6798305418939317,1.4216697993679235,-1.8788927793298658,-0.7138011517738082,1.9464257220511176,0.18871900633869915,-0.000245365239244866,0.00023364809620671174,0.0006451709457599253,0.0007045568923315452,-0.0004800281048274892,-0.0007694608172971463,0.0017383524736584348,0.2689092457294464,-23.66513442993164,19.604904174804688,17.82355499267578,0.8641458749771118,2.3604629039764404,-0.12721098959445953,0,0,0,0.000,0,0
1739400678.1383471,-0.7082764452514596,0.6798258536622669,1.4216680907667987,-1.8788941172931053,-0.7138038433218009,1.9464273854120633,0.18871582058954203,-0.00065668490753717,-0.00016433083556196626,-0.00017942703067869658,0.001791737216697836,-0.0008944720644448506,-0.00022142878415692805,0.0007654232698277942,0.2689092457294464,-23.63736343383789,19.628707885742188,17.84735870361328,0.8833719491958618,2.3732802867889404,-0.09425200521945953,0,0,0,0.000,0,0
1739400678.1484427,-0.7082751193707953,0.6798279611527058,1.421669871591822,-1.8788948063824242,-0.7138034985929576,1.9464285989874506,0.18871947283538942,-0.001217753969460581,-0.0012538019859652397,0.0012570935321389943,3.420592170008831e-05,0.0002663602396298368,4.22375190222659e-05,0.0023186348256757656,0.2689092457294464,-23.63736343383789,19.604904174804688,17.84735870361328,0.8568216562271118,2.3540542125701904,-0.10706938803195953,0,0,0,0.000,0,0
1739400678.1584482,-0.7082743392563672,0.6798300041088752,1.4216666233614357,-1.8788941204870615,-0.7138013054320004,1.9464296585717489,0.18871314458335525,-0.0007162450028344834,0.0006644919240589866,-0.001244029882551053,-0.0004241190854222473,-0.0003757243932206724,0.000584995564261978,-0.00021889151162642105,0.2689092457294464,-23.68893814086914,19.656478881835938,17.84735870361328,0.8641458749771118,2.3540542125701904,-0.08051909506320953,0,0,0,0.000,0,0
1739400678.1693773,-0.7082743392167313,0.6798293789988272,1.4216659346991396,-1.8788941429053876,-0.7138034188127182,1.9464266279852704,0.18871702730692877,-0.0006022658203461427,-8.534025040980931e-05,0.00015509516941594184,0.0005215765532500395,3.666617989815348e-05,0.0002032521161004184,4.772867863194017e-05,0.2689092457294464,-23.68893814086914,19.656478881835938,17.84735870361328,0.8833719491958618,2.3796889781951904,-0.11347807943820953,0,0,0,0.000,0,0
1739400678.1794026,-0.7082743382355848,0.6798313681126664,1.4216662531680868,-1.878896029530391,-0.713801145832183,1.9464281433054273,0.1887115072120463,-5.661201642210862e-06,0.0012893539727668322,0.0001916750915379125,-3.3914337800923424e-05,0.0003188308386719328,0.0005412525000315854,-0.0016864173497530422,0.2689092457294464,-23.71670913696289,19.680282592773438,17.89893341064453,0.8641458749771118,2.3668715953826904,-0.06678618490695953,0,0,0,0.000,0,0
1739400678.1894717,-0.7082760252465038,0.6798258157083239,1.421664152277636,-1.8788979800371703,-0.7138030187802084,1.9464273856453491,0.18871588495865452,-0.00022756675338090184,6.737729739243238e-05,-0.0006478502853736338,5.768138777331559e-05,-0.0013887324162652598,0.00047787924181838304,0.0022932570059281845,0.2927129566669464,-23.63736343383789,19.680282592773438,17.89893341064453,0.8769632577896118,2.3732802867889404,-0.10066069662570953,0,0,0,0.000,0,0
1739400678.2004004,-0.7082743392165818,0.6798293934253126,1.421663206849779,-1.8788950397499213,-0.7138011458342018,1.9464273856453491,0.18871152054038112,0.0002119750124761076,-0.0008727915775063383,-0.0008970914386520673,1.974712552559152e-05,-0.000943574664815125,0.00013648218995203956,-0.0024163792331456874,0.2689092457294464,-23.68893814086914,19.680282592773438,17.84735870361328,0.8641458749771118,2.3732802867889404,-0.06678618490695953,0,0,0,0.000,0,0
1739400678.2104123,-0.7082769877511434,0.6798323873032017,1.4216620060236127,-1.8788983488551378,-0.7137996414841618,1.9464281040595706,0.18871627549758987,-0.0010827480498016462,0.0007477967565941191,-0.0009914872822948772,-0.0017781782817545833,-0.00028741648148005805,-5.169750446086088e-05,0.000835507377387117,0.2927129566669464,-23.68893814086914,19.680282592773438,17.87512969970703,0.8504129648208618,2.3668715953826904,-0.10706938803195953,0,0,0,0.000,0,0
1739400678.2213652,-0.7082757380242081,0.6798337520932713,1.4216669294632172,-1.8788968902785967,-0.7138019167384109,1.9464281433052057,0.18871988702263529,0.0004846648905608753,0.0018731097867522345,0.000481251079032109,-0.0012426294299540338,0.0003624856367633883,0.0002489809770102877,0.0015219431488499376,0.2927129566669464,-23.71670913696289,19.656478881835938,17.87512969970703,0.8705545663833618,2.3668715953826904,-0.13361968100070953,0,0,0,0.000,0,0
1739400678.231408,-0.7082697569179407,0.6798277316850813,1.421671872975554,-1.8788962229525095,-0.7138019039835075,1.9464281428209105,0.18872039291926423,0.0014514067337579395,-0.0012300070716655545,0.002266863805688652,-0.0005962624933367054,0.0007709461512773474,-6.302593374048432e-06,0.0020594098223270466,0.2173345386981964,-23.63736343383789,19.577133178710938,17.87512969970703,0.8705545663833618,2.3668715953826904,-0.14094389975070953,0,0,0,0.000,0,0
1739400678.242415,-0.7082750412253515,0.6798295258464467,1.4216666233576418,-1.8788962006618868,-0.7137969029190158,1.9464273856453482,0.18871475434494794,-0.00025406907081199185,-0.0004730652311556862,-0.0006735709891738904,-0.0003804471775336308,0.0007437615079616919,-0.0007898248009890502,0.0008066135701963032,0.2689092457294464,-23.68893814086914,19.656478881835938,17.87512969970703,0.8641458749771118,2.3732802867889404,-0.09425200521945953,0,0,0,0.000,0,0
1739400678.2533777,-0.7082760517414254,0.6798276573207268,1.4216680147015444,-1.8788961974075196,-0.7138016221608731,1.9464289009655058,0.18871257347291404,-0.0006844934283011165,-0.0012772378043198426,0.0005933220545141073,-0.001120212189583211,0.00022858901778375983,4.410861640296974e-05,-0.0002858703995299104,0.2927129566669464,-23.66513442993164,19.628707885742188,17.87512969970703,0.8641458749771118,2.3604629039764404,-0.06678618490695953,0,0,0,0.000,0,0
1739400678.2634957,-0.70827597322758,0.6798342297864565,1.4216680909121462,-1.8788948403955055,-0.7138029720232832,1.9464295408880141,0.18871617602588184,-0.0005603815762184346,0.001993304784009027,0.00019847298838886063,-0.001223587306137768,-0.0012538586040863223,0.0005172733502686266,0.0004207234783712678,0.2927129566669464,-23.71670913696289,19.628707885742188,17.84735870361328,0.8705545663833618,2.3540542125701904,-0.09425200521945953,0,0,0,0.000,0,0
1739400678.2743723,-0.7082723682387922,0.6798293680397957,1.4216695586415924,-1.8788941176217255,-0.7138015034660835,1.9464281433047625,0.18871626965484997,0.001053792948043611,-0.00015664989457562432,0.0003577115647407786,-0.0001541702756652005,-0.0030836780044185995,8.68352493638474e-05,-0.0009198113916905008,0.2411382496356964,-23.68893814086914,19.604904174804688,17.84735870361328,0.8641458749771118,2.3668715953826904,-0.10706938803195953,0,0,0,0.000,0,0
1739400678.2844121,-0.7082745847763326,0.6798287572951937,1.4216736595225765,-1.8788979800845202,-0.7138055968089559,1.9464281433054273,0.1887138561586465,-0.00042283646496392544,-0.0008707650328727765,0.00013870766996589966,-0.0008478179555034226,-0.0016152246591984742,-0.00037736558635366273,-0.0011003829012379755,0.2689092457294464,-23.63736343383789,19.553329467773438,17.89893341064453,0.8641458749771118,2.3668715953826904,-0.04756011441349983,0,0,0,0.000,0,0
1739400678.2953541,-0.7082723538316318,0.6798286085042762,1.4216707154127848,-1.878893329928071,-0.7138019168173719,1.9464281428209105,0.18871162619911191,-0.00015400477685744788,0.0007696737369523399,0.00206909617953975,0.00017530009974174793,0.00017394558527276198,0.0007339764277776118,-0.0018558261190435655,0.2411382496356964,-23.66513442993164,19.604904174804688,17.82355499267578,0.8705545663833618,2.3668715953826904,-0.06678618490695953,0,0,0,0.000,0,0
1739400678.3054295,-0.708274417218084,0.6798315519272455,1.4216680950218599,-1.8788941941639161,-0.7138019167379637,1.946427385645341,0.18871141357550192,0.00011497819041738399,0.001039480903073205,-8.89149481584562e-05,0.0013363186811244493,0.00022095209182751308,7.734895657184718e-05,-0.0029497646305533154,0.2689092457294464,-23.68893814086914,19.628707885742188,17.84735870361328,0.8705545663833618,2.3732802867889404,-0.05396880581974983,0,0,0,0.000,0,0
1739400678.3154795,-0.7082760517387835,0.6798314637539298,1.421668936516362,-1.878896170808828,-0.7138002853375366,1.9464289009655058,0.18871646618405985,-0.0008522169086972359,0.0005521667221731615,-0.0002337230206013903,-0.00019051216647648401,-7.826529988394363e-05,-0.0002286630205781635,2.2877843378579354e-05,0.2927129566669464,-23.68893814086914,19.628707885742188,17.87512969970703,0.8568216562271118,2.3604629039764404,-0.12080229818820953,0,0,0,0.000,0,0
1739400678.3274136,-0.7082764452475133,0.6798275778951455,1.4216687384255293,-1.8788923433347289,-0.7138002863124326,1.9464273856453491,0.1887216843458312,-0.0008241039066834821,-0.0014914142503916713,0.0005204439520567607,0.0007507533069129584,0.0005107587153762461,-0.00028828972682576044,0.0014290156648370871,0.2689092457294464,-23.66513442993164,19.628707885742188,17.82355499267578,0.8568216562271118,2.3732802867889404,-0.12080229818820953,0,0,0,0.000,0,0
1739400678.337463,-0.7082743396566097,0.6798292904036081,1.4216698991030539,-1.8788962059108176,-0.7138007926195092,1.9464273856453491,0.18871491670054663,0.00024099514860545054,0.00012240559343764537,0.0012220387443431645,-0.0006504416920727664,0.000809576891302838,-0.0008417682689565481,0.0006288143465980909,0.2689092457294464,-23.68893814086914,19.604904174804688,17.87512969970703,0.8641458749771118,2.3732802867889404,-0.09425200521945953,0,0,0,0.000,0,0
1739400678.348378,-0.7082689162344233,0.6798337229526493,1.4216680032873033,-1.8788961848569494,-0.713803734029964,1.9464273856453491,0.18871470599739903,0.002735756382733534,0.001617995355624945,-0.0005742508113041755,-0.00035611319069701647,0.00038570614622998313,-0.00017194803061141645,-0.0013737073787379703,0.1935308277606964,-23.74051284790039,19.656478881835938,17.84735870361328,0.8769632577896118,2.3732802867889404,-0.06678618490695953,0,0,0,0.000,0,0
1739400678.3593462,-0.7082722618030186,0.6798344652615649,1.421668014386613,-1.8788964271046311,-0.7138019438848076,1.9464257620880383,0.18872291591370316,-0.00010919563600422772,0.001258158826235788,0.0008526732803742226,-2.9482278460403668e-05,-0.0007065431532735783,-0.000206550637490008,0.0016505121678373111,0.2411382496356964,-23.71670913696289,19.628707885742188,17.87512969970703,0.8705545663833618,2.3870131969451904,-0.12721098959445953,0,0,0,0.000,0,0
1739400678.369439,-0.7082768287048353,0.6798321762997627,1.421665934592865,-1.878896873730458,-0.7138019034929454,1.9464266279852707,0.18871977856508057,-0.0005666464608101321,0.00014929497825175197,-0.0004069507373014046,0.0005121152388986735,0.0001317761883473893,-7.971666713342844e-05,0.0007362948924355224,0.2689092457294464,-23.68893814086914,19.656478881835938,17.84735870361328,0.8705545663833618,2.3796889781951904,-0.10066069662570953,0,0,0,0.000,0,0
1739400678.3794577,-0.7082706287973067,0.6798267269305818,1.4216659081019116,-1.8788941186091281,-0.7138007924579676,1.9464280250833406,0.18871050641952627,0.0003983202271412923,-0.0013937305292877973,-8.117077261461791e-05,0.0007711339554592763,-0.00046068662813933967,-0.0001352790249182078,-0.0018594085998007992,0.2173345386981964,-23.61355972290039,19.656478881835938,17.84735870361328,0.8641458749771118,2.3668715953826904,-0.09425200521945953,0,0,0,0.000,0,0
1739400678.3904095,-0.7082748506507252,0.6798335194875531,1.421668014346232,-1.8788961974075067,-0.7138002804235289,1.9464273856446817,0.18871254421358652,-0.0007699856797266706,0.00035528796579096253,0.0008672263120043782,2.621025359379411e-05,0.0007544818898929208,0.00047888631754406015,-0.0013235220791084005,0.2927129566669464,-23.71670913696289,19.628707885742188,17.87512969970703,0.8568216562271118,2.3732802867889404,-0.07411040365695953,0,0,0,0.000,0,0
1739400678.401384,-0.7082716259770221,0.6798276044591024,1.4216683204640632,-1.8788941176176457,-0.7137992072148717,1.9464289009655058,0.18871360905194667,0.0016500325897352989,-0.0015920689485529687,0.0010020264663313885,0.0006759020568030569,0.0005190168188620111,0.0006834673258924004,-0.0005496859721129553,0.2411382496356964,-23.66513442993164,19.628707885742188,17.84735870361328,0.8568216562271118,2.3604629039764404,-0.08051909506320953,0,0,0,0.000,0,0
1739400678.4114072,-0.7082743392046177,0.6798300322234598,1.4216659257677307,-1.8788923618151554,-0.7138011477763092,1.9464304162856625,0.18872019297707976,0.00017170816352103145,0.0006801456547583414,-1.1982471053934962e-05,0.0010092749712054478,-0.00012938815557164267,0.0009667048283967695,0.0016508783571296739,0.2689092457294464,-23.68893814086914,19.656478881835938,17.82355499267578,0.8641458749771118,2.3476455211639404,-0.12721098959445953,0,0,0,0.000,0,0
