IITGN-Robotics/Franka_IITGN_ROBOTICS/franka_ros/franka_iitgn/data/b_06.csv
time,fr3_joint1_pos,fr3_joint2_pos,fr3_joint3_pos,fr3_joint4_pos,fr3_joint5_pos,fr3_joint6_pos,fr3_joint7_pos,fr3_joint1_vel,fr3_joint2_vel,fr3_joint3_vel,fr3_joint4_vel,fr3_joint5_vel,fr3_joint6_vel,fr3_joint7_vel,fr3_joint1_eff,fr3_joint2_eff,fr3_joint3_eff,fr3_joint4_eff,fr3_joint5_eff,fr3_joint6_eff,fr3_joint7_eff,flexpin1,flexpin2,flexpin3,Force,ContactMic,ContactMic_gt
1739400704.2640066,-0.7081936995158794,0.6794202732337629,1.4215532280286123,-1.87892980896483,-0.7134670434659716,1.946635830364976,0.1885195798205574,0.000197672512712385,0.0013124704033307213,-0.0020171227030444192,0.0010575956583701788,-0.0005650922821905147,-0.0004048621321569492,-0.00020623733748200974,0.1697271168231964,-23.56198501586914,19.501754760742188,17.89893341064453,0.8375955820083618,2.3540542125701904,-0.06678618490695953,,,,,,,,,
1739400704.274045,-0.7081965192275218,0.6794301171847749,1.421533365132779,-1.8789319217592606,-0.7134679985700494,1.9466331448107528,0.18852451938885148,-6.611041045321664e-06,-4.982088908097573e-05,-0.001132911909051884,0.0009799235021293318,0.002094240416369781,0.0010168878787857488,0.0012646082333128963,0.1697271168231964,-23.56198501586914,19.553329467773438,17.92273712158203,0.8440042734146118,2.3732802867889404,-0.10706938803195953,,,,,,,,,
1739400704.28505,-0.7081918039241799,0.6794397646847414,1.4215195411520407,-1.8789398116035252,-0.7134719834475926,1.9466294878203996,0.18852454633899998,0.001598141629509301,0.000899267162026611,-0.0006621726875199799,-0.00025293719587395264,-0.00012233915968502053,0.000303053373325157,0.0011960738100511984,0.1419561207294464,-23.56198501586914,19.577133178710938,17.94654083251953,0.8375955820083618,2.3668715953826904,-0.09425200521945953,,,,,,,,,
1739400704.296033,-0.7082040056115778,0.6794492052425569,1.421504940717978,-1.8789288693506252,-0.7134735575542898,1.9466287105064972,0.1885293196600948,-0.0018464351000133349,0.0012911306790338293,-0.0024984172152698195,-0.0005736275292151453,-0.0004228754997844254,0.0008455268618949175,0.0005907281689009119,0.2689092457294464,-23.61355972290039,19.628707885742188,17.84735870361328,0.8504129648208618,2.3604629039764404,-0.10706938803195953,,,,,,,,,
1739400704.3070018,-0.7082040057358957,0.6794623175821135,1.4214996252235979,-1.8789235791873677,-0.7134735575001135,1.946627007011722,0.18852931962431466,0.00030953017098951614,0.0009289641788957813,-0.0007719840321496511,0.0010078676084491482,0.00047103654258527,-0.00019916406655860243,-0.0006099511631622576,0.2689092457294464,-23.66513442993164,19.577133178710938,17.77594757080078,0.8504129648208618,2.3476455211639404,-0.10706938803195953,,,,,,,,,
1739400704.3180246,-0.7082105897700331,0.6794700841446151,1.4214837979808688,-1.8789206117446846,-0.7134776380307091,1.9466247252383446,0.1885309996872358,-0.000771993468616598,-3.824351991271941e-05,-0.0015094612143781159,0.0008502580610007513,-0.00046016270523126414,-0.0003304188715817009,0.00034366517666277186,0.3165166676044464,-23.71670913696289,19.704086303710938,17.77594757080078,0.8568216562271118,2.3668715953826904,-0.09425200521945953,,,,,,,,,
1739400704.3290102,-0.708217479199504,0.6794848821070064,1.421470853062687,-1.8789299046587076,-0.7134788953577283,1.9466239632173792,0.18853293192791445,-0.00027630468565611153,0.00056557748668311,0.00016884018475238544,-0.001074214042806379,0.00031216472314807086,-0.0012645011619898284,-0.0015948383265381406,0.3680913746356964,-23.79208755493164,19.704086303710938,17.89893341064453,0.8568216562271118,2.3732802867889404,-0.10066069662570953,,,,,,,,,
1739400704.3390164,-0.7082176101818777,0.6794894738360192,1.421454893188214,-1.8789283960887648,-0.7134789333830499,1.946623922517986,0.18852671016263417,-0.0005841493946056879,0.001279034558698049,-0.001035912132126554,-0.0001977280862611935,-0.0007668833518916597,0.0002151338584845172,-0.0002030595282540064,0.3680913746356964,-23.76828384399414,19.783432006835938,17.87512969970703,0.8568216562271118,2.3732802867889404,-0.08051909506320953,,,,,,,,,
1739400704.3490736,-0.7082207370977238,0.6794864602243578,1.4214457062701118,-1.8789301523158113,-0.7134740159858226,1.946621080093816,0.18853334505710065,-0.0002489009287489725,-0.001196050916504828,-0.001675056718948647,0.00044560801261706956,-0.00024043097621281667,0.0008299510419015491,0.0015482080454122583,0.3680913746356964,-23.71670913696289,19.783432006835938,17.89893341064453,0.8504129648208618,2.3604629039764404,-0.10066069662570953,,,,,,,,,
1739400704.3600495,-0.7082153146044335,0.679497855888875,1.4214422082719096,-1.8789313680556001,-0.713474341596533,1.946621659762535,0.18852925080701877,0.0013060549311009653,0.0012249772484466655,-0.0019403653168510683,0.00039110231021412484,0.000250491221272923,-0.0015327654070050177,-0.0004776667269693834,0.2927129566669464,-23.79208755493164,19.783432006835938,17.87512969970703,0.8568216562271118,2.3796889781951904,-0.05396880581974983,,,,,,,,,
1739400704.3710048,-0.7082115789358683,0.679493254177995,1.4214471493141807,-1.8789331467119055,-0.7134743369971598,1.946621010923984,0.18853204001181484,0.0016384618061701535,-0.0005745315088647126,-0.0003277055904605585,-0.0005370450479992559,-0.00043025927840816024,-0.0003485262674815078,3.5095796388432456e-05,0.2411382496356964,-23.71670913696289,19.680282592773438,17.89893341064453,0.8440042734146118,2.3668715953826904,-0.08051909506320953,,,,,,,,,
1739400704.3819754,-0.7082128868278256,0.6794927890647218,1.4214555741364803,-1.8789292843580623,-0.713478730518856,1.9466217690563627,0.18853724037667818,6.702102860314091e-05,0.0009901258064704277,0.0007698253202726121,0.00032731619702539667,-7.938559036903598e-05,-0.000293586068022099,0.0009644639910126426,0.2689092457294464,-23.71670913696289,19.604904174804688,17.84735870361328,0.8568216562271118,2.3604629039764404,-0.13361968100070953,,,,,,,,,
1739400704.392034,-0.7082153086509367,0.6794910546320685,1.4214575552970654,-1.8789313670913577,-0.7134775537247913,1.9466192064921455,0.18852783840130613,-0.0002912038505216918,-0.0009837210635024328,-0.000190189713783105,-0.00018469217295889148,0.00034608807786831914,-0.002109185724870007,-0.0023091323213696394,0.2927129566669464,-23.66513442993164,19.577133178710938,17.87512969970703,0.8440042734146118,2.3732802867889404,-0.05396880581974983,,,,,,,,,
1739400704.4030733,-0.7082116041428185,0.6794946582116816,1.421455657438698,-1.878931399469206,-0.7134794276475995,1.9466187891602822,0.1885337376468329,0.000465994657470659,0.00043562279817523607,-4.9211563158281795e-05,0.0012687413239818347,0.000701201108851945,-0.001048912562976535,-0.00026242414689717913,0.2411382496356964,-23.71670913696289,19.604904174804688,17.87512969970703,0.8568216562271118,2.3796889781951904,-0.06678618490695953,,,,,,,,,
1739400704.4139743,-0.7082153147114338,0.6794851428485181,1.4214585197708693,-1.8789331468251367,-0.7134792294519914,1.9466185536332283,0.1885345960019574,-0.0011978243781933817,5.5418237167946744e-05,0.00032671490416095366,0.000516188682466147,-0.002630821805114239,0.001011622924185001,-0.00034732956086369973,0.2927129566669464,-23.61355972290039,19.604904174804688,17.89893341064453,0.8568216562271118,2.3796889781951904,-0.10706938803195953,,,,,,,,,
1739400704.4240327,-0.7082153146044382,0.679485366211833,1.4214644299826829,-1.878931365129065,-0.7134799368947534,1.9466207087143896,0.18853563899798387,-0.0010494531719201583,-0.00029810313423557055,0.001231197336250027,-0.0005074127209976389,-0.0003871939825869419,-0.0007532280588145392,0.00040510054986602644,0.2927129566669464,-23.61355972290039,19.529525756835938,17.87512969970703,0.8641458749771118,2.3604629039764404,-0.08051909506320953,,,,,,,,,
1739400704.4340527,-0.7082070305991718,0.6794831448640898,1.4214605466326784,-1.8789273348861697,-0.7134771551518979,1.9466249472649102,0.1885265978564602,0.0008207848671363648,6.201494741298242e-05,-0.0010893703536454065,0.0006379197662895453,0.0008931016651295386,-0.00033203162195334163,-0.002418099925057223,0.2173345386981964,-23.58578872680664,19.577133178710938,17.82355499267578,0.8375955820083618,2.3604629039764404,-0.04023589566349983,,,,,,,,,
1739400704.4450095,-0.7082135224856786,0.6794868349357178,1.4214608763688896,-1.8789274742080024,-0.7134791897155643,1.9466215245384078,0.18853032542029988,0.00042253144457475236,0.00040272015566247734,-0.0005902933020508488,0.00042554118282417354,-0.00023682181497219887,-0.0006099815030952744,-0.002719767415264497,0.2689092457294464,-23.63736343383789,19.577133178710938,17.82355499267578,0.8568216562271118,2.3540542125701904,-0.07411040365695953,,,,,,,,,
1739400704.4550488,-0.7082098919417653,0.67948511838117,1.4214578429429174,-1.8789291743561451,-0.7134783128461964,1.9466192332851002,0.18854053298332363,0.0011799043105644004,-0.0006507076203613922,-0.001391916483155814,0.00017171268929174526,0.00042612551859120537,-0.0016280564739667128,0.0032941784876640776,0.2173345386981964,-23.61355972290039,19.604904174804688,17.84735870361328,0.8504129648208618,2.3732802867889404,-0.12080229818820953,,,,,,,,,
1739400704.4659915,-0.7082170270888306,0.6794851312451666,1.4214546162535378,-1.878928539558296,-0.7134778304252145,1.9466214663726964,0.18853413699741287,-0.0013494319401536252,-0.0011150973891153244,-0.0008911294994269493,0.0007561800613050116,9.010927017131249e-05,-0.0009079546208400839,-0.0007113915032431282,0.3165166676044464,-23.61355972290039,19.656478881835938,17.84735870361328,0.8641458749771118,2.3540542125701904,-0.09425200521945953,,,,,,,,,
1739400704.4770877,-0.7082170258169718,0.6794932554626376,1.4214527883777646,-1.8789285424857052,-0.7134790312227344,1.9466207130730435,0.1885314590278032,-0.0012668036984011966,0.0007644282091257816,0.0008289569199203583,5.573878339437853e-05,0.001185607858693329,0.0014958525169900625,0.0001698566706576295,0.3165166676044464,-23.71670913696289,19.656478881835938,17.84735870361328,0.8568216562271118,2.3604629039764404,-0.08051909506320953,,,,,,,,,
1739400704.4880123,-0.7082153147470972,0.6794889543764602,1.4214569745449661,-1.878927740098227,-0.7134790709768102,1.9466214663904244,0.18853941059162072,-0.0008000092412007709,-0.0007250324434768993,0.000987815452460082,-0.00039428105317434385,0.0014241252104281006,0.00089018989249083,0.0015323229332068096,0.2927129566669464,-23.66513442993164,19.628707885742188,17.82355499267578,0.8568216562271118,2.3540542125701904,-0.12080229818820953,,,,,,,,,
1739400704.4980338,-0.7082153146044388,0.6794889873547649,1.4214520375444426,-1.8789306193528101,-0.7134795836793598,1.9466199510523148,0.1885297103634333,-0.00045057692612664613,-0.0014213539629556052,-0.0009705589044826482,-9.23102627034069e-05,0.0006430662959402971,-0.0002088591943028197,-0.0012333119564747579,0.2927129566669464,-23.63736343383789,19.680282592773438,17.87512969970703,0.8641458749771118,2.3668715953826904,-0.06037749722599983,,,,,,,,,
1739400704.5090106,-0.7082153146044364,0.6794962751964598,1.4214499325558072,-1.8789313641437142,-0.713478688294215,1.9466199902981711,0.18853875879107693,0.0003664043973487401,0.00010106903321333135,-0.00022275100392855982,-0.00020724806751807462,0.0009672437676778098,7.160464511420614e-05,0.0022071361773291333,0.2927129566669464,-23.76828384399414,19.680282592773438,17.87512969970703,0.8504129648208618,2.3668715953826904,-0.10706938803195953,,,,,,,,,
1739400704.5200024,-0.7082135486112254,0.6794956722142235,1.4214499214848266,-1.87893603433884,-0.7134834017814679,1.9466191933929007,0.18853110255633265,-0.0005114738478667205,-6.988737694760248e-05,-0.0002097796944996014,-0.0013640676680668504,-0.0014404460907851068,-0.0005161256091316819,-0.000373829021753018,0.2689092457294464,-23.71670913696289,19.680282592773438,17.89893341064453,0.8568216562271118,2.3732802867889404,-0.08051909506320953,,,,,,,,,
1739400704.5310397,-0.7082153146043357,0.6794973977711972,1.421448936668628,-1.8789352487070239,-0.7134815378805972,1.9466199529903814,0.18854048659340816,-0.0009354136585411696,2.1866738738369248e-05,-0.0002862644505812513,-0.0008801054066419429,0.00042957424796097115,2.7063232884178543e-05,0.0007342251684778591,0.2927129566669464,-23.74051284790039,19.680282592773438,17.92273712158203,0.8504129648208618,2.3668715953826904,-0.12080229818820953,,,,,,,,,
1739400704.5419667,-0.7082116041428521,0.6794960291055798,1.4214555681865342,-1.8789367133795227,-0.7134791147104609,1.946622372306657,0.18852986193405727,0.0015341563256978394,0.00043920306135884687,0.0006931190882405734,-0.0005483911505198318,0.0005532836694315575,0.0004816911599392539,-0.001927781450819573,0.2411382496356964,-23.71670913696289,19.604904174804688,17.94654083251953,0.8568216562271118,2.3732802867889404,-0.06678618490695953,,,,,,,,,
1739400704.5520325,-0.7082153120889869,0.6794954781941014,1.4214517154644941,-1.8789331560913272,-0.7134800968191769,1.946620708730338,0.1885408092460258,-0.0012601666071353026,0.0007860846275890186,-0.0010709528481119429,-2.0826787397051037e-05,-0.0007929888179460023,-6.234855072370792e-05,0.0018191810545145734,0.2927129566669464,-23.71670913696289,19.656478881835938,17.89893341064453,0.8641458749771118,2.3604629039764404,-0.13361968100070953,,,,,,,,,
1739400704.5620387,-0.7082116041428096,0.6794940576521735,1.4214568947309252,-1.8789313729783932,-0.7134816910975291,1.9466191933922365,0.18853307959665314,0.0004512912753221592,0.0008202904479856691,0.000475272489821365,-0.0007482877407477229,-0.00015897109402650316,-0.00034528881196846546,0.0004349726044139806,0.2411382496356964,-23.68893814086914,19.628707885742188,17.87512969970703,0.8504129648208618,2.3732802867889404,-0.06678618490695953,,,,,,,,,
1739400704.572047,-0.7082136020837051,0.6794900028179754,1.4214525367715816,-1.8789292843582124,-0.7134792442243826,1.9466199510523146,0.1885295011541754,-0.00016691716288262857,-0.001221606247071674,-0.0007504557511684524,0.0007270723175197076,3.5372766391051166e-05,0.000480164520332468,-0.001086119341116076,0.2689092457294464,-23.63736343383789,19.656478881835938,17.84735870361328,0.8568216562271118,2.3668715953826904,-0.06678618490695953,,,,,,,,,
1739400704.5840514,-0.7082138360871254,0.6794919978640654,1.4214578385323953,-1.878932771438928,-0.7134799378741886,1.9466199510523146,0.18853646298716367,-0.0010393144335755532,0.0002431307533731931,0.00035908343104012943,-0.0007259861484450567,0.0012113497120636277,-0.00017393741365860616,0.0008689516692761346,0.2689092457294464,-23.66513442993164,19.604904174804688,17.87512969970703,0.8641458749771118,2.3668715953826904,-0.11347807943820953,,,,,,,,,
1739400704.5950596,-0.708213602368799,0.6794957111075778,1.421463448730136,-1.8789292930900876,-0.7134853831783243,1.9466223724681297,0.1885405753128313,-0.00023520469352764244,0.0019047057971091459,0.002131999847080571,-0.00020749322401645643,-0.0017579170688753274,0.000586315805693399,0.0009548034554373878,0.2689092457294464,-23.71670913696289,19.529525756835938,17.84735870361328,0.8705545663833618,2.3732802867889404,-0.13361968100070953,,,,,,,,,
1739400704.6050797,-0.7082125401565379,0.6794882813036247,1.4214577375938717,-1.8789275811540513,-0.7134831747546452,1.9466191934460741,0.18853581596659993,0.0005691099978816713,-0.00049640646714588,-0.0005373120638243758,-0.0003075930197346331,-0.00031928078121203844,-0.0007212604816257252,-0.002231510707949359,0.2411382496356964,-23.61355972290039,19.577133178710938,17.82355499267578,0.8641458749771118,2.3732802867889404,-0.09425200521945953,,,,,,,,,
1739400704.6159847,-0.7082153232765135,0.6794940051647358,1.4214517169535432,-1.8789306865217186,-0.7134810225488516,1.94662222403255,0.1885400642092215,-0.0009258031405592008,0.001343527980401644,-0.002721326186507842,-0.0002979327952927738,0.001118215431409773,0.0010300328926594246,0.00010966561320122938,0.2927129566669464,-23.68893814086914,19.656478881835938,17.84735870361328,0.8641458749771118,2.3476455211639404,-0.12080229818820953,,,,,,,,,
1739400704.626017,-0.708213602083852,0.6794878966793071,1.4214559675475875,-1.8789308927798651,-0.7134791093384163,1.9466222240325497,0.188537896417036,5.367265253682568e-05,-0.0007363449536796546,-0.00036286385049322207,-0.0009451339554682118,0.0010559796444986837,0.0004659290497174964,0.0014172991616359884,0.2689092457294464,-23.63736343383789,19.628707885742188,17.89893341064453,0.8440042734146118,2.3476455211639404,-0.08051909506320953,,,,,,,,,
1739400704.6360433,-0.7082136020837052,0.6794920006103314,1.421453805464698,-1.878928541216553,-0.7134815258850021,1.9466199510523146,0.1885338360978413,0.00041125540373253906,0.000555621960515925,-0.0009099042580804468,0.0004399700169237966,0.00015387053461069663,5.3621270023090876e-05,-0.0006757703203181549,0.2689092457294464,-23.66513442993164,19.628707885742188,17.84735870361328,0.8641458749771118,2.3668715953826904,-0.10066069662570953,,,,,,,,,
1739400704.647007,-0.7082128868279679,0.6794920003250059,1.4214517159356646,-1.8789292832986981,-0.7134816911037851,1.9466184357321579,0.18852982474364147,0.0003465058597444976,0.00025833169206749195,-0.000953279634711555,0.0009770589733308801,-0.0005574341851502858,-0.0005994648128744498,-0.002015254752529752,0.2689092457294464,-23.66513442993164,19.656478881835938,17.84735870361328,0.8504129648208618,2.3796889781951904,-0.06037749722599983,,,,,,,,,
1739400704.6580262,-0.7082098916180833,0.6794957112145783,1.421451881313289,-1.8789311532014332,-0.7134802647965472,1.9466199495624255,0.18853144815350803,-0.00011888614662164192,0.00041835239755309774,-0.0004414297195060332,-0.00018337064576792156,-0.0010225121121140018,0.00023843772670713922,-0.001854624524292004,0.2173345386981964,-23.71670913696289,19.656478881835938,17.87512969970703,0.8568216562271118,2.3668715953826904,-0.05396880581974983,,,,,,,,,
1739400704.6680756,-0.7082136020837051,0.6794959852814796,1.4214517155023503,-1.8789341799685413,-0.7134799894036203,1.9466188313491835,0.18853967366621885,-0.00033199954386737456,0.0007281153409258109,-0.0004256129688633507,0.00020707523937663874,0.00039673503839786643,-0.000747030213580933,0.001006379530315464,0.2689092457294464,-23.71670913696289,19.656478881835938,17.89893341064453,0.8641458749771118,2.3732802867889404,-0.11347807943820953,,,,,,,,,
1739400704.6790645,-0.7082116051058293,0.679498572239077,1.4214488584011786,-1.878933147811916,-0.7134801130081425,1.9466214662048842,0.1885337574536515,0.0005484589853732992,-0.0003328099654078025,-0.0005120780494664451,-0.0010031587562105333,0.0008677125686756916,0.0006304067162646593,-0.0008657407159970933,0.2411382496356964,-23.71670913696289,19.656478881835938,17.89893341064453,0.8641458749771118,2.3540542125701904,-0.06678618490695953,,,,,,,,,
1739400704.6899598,-0.7082098916221263,0.6794938020291208,1.421452876815245,-1.8789370881330938,-0.7134800960023023,1.9466184357321568,0.18854129729545155,0.0014579175861924518,0.00012493488636415508,0.00011432804501829695,-0.0011729451535706452,-0.0002825703442659789,-0.00014721089990789012,0.0022835638062151534,0.2173345386981964,-23.68893814086914,19.628707885742188,17.92273712158203,0.8641458749771118,2.3796889781951904,-0.12721098959445953,,,,,,,,,
1739400704.7000415,-0.7082136367508786,0.6794920802273592,1.4214517154839876,-1.8789323218923935,-0.7134808328964874,1.9466199510523143,0.18853414038692248,-0.0008426952680397155,-0.0014091605219180613,-0.00043489906580122166,0.0004086508214425924,-2.2480390568248006e-05,-3.0258785774157297e-05,-0.0016992107099307679,0.2689092457294464,-23.66513442993164,19.656478881835938,17.87512969970703,0.8705545663833618,2.3668715953826904,-0.06678618490695953,,,,,,,,,
1739400704.7110703,-0.7082119161476081,0.6794960262538757,1.4214537867861285,-1.8789292857806807,-0.7134799896022112,1.9466222283932002,0.18853815836614238,0.00013515635588841725,0.0019014797475668367,0.0013063419689221237,0.001505083618974282,0.0016802385423435873,0.0009137387209646502,-5.01714467769649e-05,0.2411382496356964,-23.71670913696289,19.628707885742188,17.84735870361328,0.8641458749771118,2.3476455211639404,-0.10066069662570953,,,,,,,,,
1739400704.7219656,-0.7082157081162485,0.6794927169916586,1.4214576577562241,-1.878929287337849,-0.7134835133345728,1.94661827482417,0.18853447928220185,-0.00020972217253694032,-0.0009305656742741046,0.0023504502746518516,0.0007147837650920591,-0.0011900321505586044,-0.0014608581901861771,-0.0012175378150180841,0.2689092457294464,-23.66513442993164,19.577133178710938,17.84735870361328,0.8641458749771118,2.3796889781951904,-0.10706938803195953,,,,,,,,,
1739400704.731987,-0.7082116070674491,0.6794882991338596,1.4214558159650812,-1.878931364147969,-0.7134835310554837,1.946621466369746,0.18853577707369118,0.00024766046024648954,-0.00187868748571839,0.000635037210244418,-0.0007490438812958484,0.00034751259576733755,0.0006219675918037673,-0.0008403198653271455,0.2411382496356964,-23.61355972290039,19.604904174804688,17.87512969970703,0.8641458749771118,2.3540542125701904,-0.08051909506320953,,,,,,,,,
1739400704.7420878,-0.7082136020837547,0.6794900028122931,1.4214556849154065,-1.8789291749057293,-0.7134826615610145,1.9466222240325495,0.1885423960156654,-1.7344526979957422e-07,-0.0011192527339778362,-2.7642770249177757e-05,0.0001506755043265366,0.0002913647997868855,0.0008325047929783939,0.0019551567598794306,0.2689092457294464,-23.63736343383789,19.604904174804688,17.84735870361328,0.8568216562271118,2.3476455211639404,-0.13361968100070953,,,,,,,,,
1739400704.7530591,-0.7082136049726363,0.6794942269742145,1.4214576930781468,-1.8789270224879073,-0.7134836321277687,1.9466207087123928,0.18853294356314657,-0.0006859890043795396,5.256788987010669e-05,0.0013636971801213706,-0.0004379203012405403,-0.0013609213048120137,0.0001952525615144685,-0.0004586702600195265,0.2689092457294464,-23.66513442993164,19.577133178710938,17.84735870361328,0.8641458749771118,2.3604629039764404,-0.04756011441349983,,,,,,,,,
1739400704.7650006,-0.7082153146044526,0.6794900039512118,1.4214576577564715,-1.8789291744192114,-0.7134834195111157,1.9466207087123928,0.18854094121163667,-0.0006370168548270034,-0.00037106005325933367,8.508183542405655e-05,0.00016930518160676697,-0.0016447979890837515,0.00034451447392944937,0.0003564788008652018,0.2927129566669464,-23.63736343383789,19.577133178710938,17.84735870361328,0.8568216562271118,2.3604629039764404,-0.12721098959445953,,,,,,,,,
1739400704.7750258,-0.7082136280477463,0.6794920007530029,1.4214576577926108,-1.8789323217462,-0.713481539837315,1.9466198298746755,0.18853892860371976,-0.0007701417499670013,0.0006412245091227183,0.0001855008616003202,-0.0007611868937459305,-0.0016521449255191562,-0.00041212287372678635,0.0009153674924942282,0.2689092457294464,-23.66513442993164,19.577133178710938,17.87512969970703,0.8641458749771118,2.3668715953826904,-0.10706938803195953,,,,,,,,,
1739400704.785042,-0.7082105448261549,0.679492954427313,1.4214556047844193,-1.8789292016188193,-0.7134833274341811,1.9466231299646501,0.18854054541618936,0.0009223641964872743,0.00036869345947597963,-0.001066207482226504,0.000744644084998765,-0.0025686335680023924,0.0007599738352500452,0.00012605844161691358,0.2411382496356964,-23.66513442993164,19.604904174804688,17.84735870361328,0.8641458749771118,2.3668715953826904,-0.12080229818820953,,,,,,,,,
1739400704.7950468,-0.7082116041249126,0.6794937132898782,1.4214556616913652,-1.8789331427535956,-0.7134806340184974,1.9466191934460715,0.1885357771489266,-0.00011738952123989387,0.0008513515724945873,-0.0005916761556126794,-0.001632935361679869,-0.0007938029606016344,-0.0007928583438377672,-0.0016686506081275958,0.2411382496356964,-23.68893814086914,19.604904174804688,17.89893341064453,0.8568216562271118,2.3732802867889404,-0.08051909506320953,,,,,,,,,
1739400704.8050609,-0.7082116041428512,0.6794959493121683,1.4214537952936512,-1.8789331471517794,-0.7134838978240576,1.9466184357321605,0.18853501997478037,0.0011085695050753702,0.0004559643033814376,-4.050630553170242e-06,-0.00032602575043477007,-0.0023618716599313598,-0.000601305556681533,-0.0002718728743438437,0.2411382496356964,-23.71670913696289,19.628707885742188,17.89893341064453,0.8568216562271118,2.3796889781951904,-0.07411040365695953,,,,,,,,,
1739400704.816018,-0.7082153146044363,0.6794920020616397,1.4214517154995423,-1.8789316908696756,-0.7134828255787061,1.9466199510523146,0.18853394797827838,-0.0009564811151454414,-0.0007750294355340053,7.502821370924007e-05,1.5955911322058038e-05,0.00010009565447165143,-5.0552279095578015e-05,-0.001991562723766198,0.2927129566669464,-23.66513442993164,19.656478881835938,17.87512969970703,0.8568216562271118,2.3668715953826904,-0.07411040365695953,,,,,,,,,
1739400704.8269756,-0.7082153116609972,0.6794945344932853,1.4214509242756164,-1.878933385245361,-0.7134857432772664,1.9466199510523146,0.18853575953665178,-0.00014838313261876285,0.0007253822547092228,-0.00013222526029109638,0.0004970268995945321,-0.0004562168887659443,0.0002730278805116771,-0.0011143094924848246,0.2927129566669464,-23.68893814086914,19.656478881835938,17.89893341064453,0.8769632577896118,2.3668715953826904,-0.08051909506320953,,,,,,,,,
1739400704.837068,-0.7082114577074102,0.6794974266926586,1.4214476280033266,-1.8789332567173738,-0.7134795915656807,1.9466191933922363,0.18853501948845125,9.805895228740758e-05,0.0011669494064960534,-0.00044669197198680044,-0.000873357147337078,-0.0006185392755578575,-0.00018021354126404815,-0.0012993908272824683,0.2689092457294464,-23.74051284790039,19.680282592773438,17.89893341064453,0.8568216562271118,2.3732802867889404,-0.07411040365695953,,,,,,,,,
1739400704.8480697,-0.7082113657121679,0.6794981758543945,1.4214496229125997,-1.8789341877558865,-0.7134787538754204,1.9466199510523146,0.18853275637730066,0.0004919135801088755,0.00016123970957668488,-0.001141818919946075,-0.0005665734383734465,0.001291873681969862,0.00010758741861898835,-0.002396932909380876,0.2411382496356964,-23.71670913696289,19.680282592773438,17.92273712158203,0.8440042734146118,2.3668715953826904,-0.05396880581974983,,,,,,,,,
1739400704.859989,-0.7082153146030904,0.6794960422382235,1.421448948156157,-1.8789292843538756,-0.7134855043021625,1.946620708712393,0.18853847323160686,0.00022469507260383024,0.00010711841400880653,0.0002212023974471733,0.0009098296845150038,-0.0011619756275237864,0.00032570238201037286,0.0005781345444354054,0.2927129566669464,-23.71670913696289,19.656478881835938,17.84735870361328,0.8705545663833618,2.3604629039764404,-0.10066069662570953,,,,,,,,,
1739400704.8700144,-0.7082135108370884,0.679493805616113,1.4214451540085706,-1.878928424633256,-0.7134838984801823,1.9466205701527157,0.18854053958893827,0.0007028382002540138,-0.001847727070711462,-0.001118427995055144,-0.0003268447581444301,-0.0021353662112185813,-5.775365637887542e-05,0.00042168364384970457,0.2689092457294464,-23.68893814086914,19.704086303710938,17.87512969970703,0.8568216562271118,2.3604629039764404,-0.12080229818820953,,,,,,,,,
1739400704.8800519,-0.7082136020831901,0.6794952280529596,1.4214537064255715,-1.8789283045032485,-0.713479982542624,1.9466214662061456,0.18853891667433645,0.000198788742088872,-9.522239453522302e-05,0.0025659442157411894,0.0007569553233370054,0.0005302636465330083,0.00016288438536514308,0.001296886268803763,0.2689092457294464,-23.66513442993164,19.628707885742188,17.84735870361328,0.8641458749771118,2.3540542125701904,-0.10706938803195953,,,,,,,,,
1739400704.8910007,-0.7082123061531128,0.679492751493578,1.4214545744752016,-1.8789331733103594,-0.7134847491429521,1.9466207085468488,0.1885381583662206,0.000304034296573998,-0.0007926603566636888,0.00010321980202913396,-0.001002286468760968,-0.0013602430237005373,-5.501272948237637e-05,0.0004334725853819961,0.2411382496356964,-23.66513442993164,19.604904174804688,17.89893341064453,0.8641458749771118,2.3604629039764404,-0.10066069662570953,,,,,,,,,
1739400704.9019792,-0.708211604146815,0.6794925057572274,1.4214574249080085,-1.8789291653124471,-0.7134803089562336,1.946620708712392,0.1885396604817781,0.0018094797866679124,-0.0008056147657373782,0.0001499876886048267,6.490827592836454e-05,-2.9168165040446424e-05,-1.7504702575276847e-05,0.00018312328809332588,0.2411382496356964,-23.63736343383789,19.577133178710938,17.84735870361328,0.8568216562271118,2.3604629039764404,-0.11347807943820953,,,,,,,,,
1739400704.9120703,-0.7082138365151153,0.6794932210147756,1.4214576665826466,-1.8789331468229213,-0.7134847643169263,1.9466196225833103,0.1885390735000714,-0.0010009519855577822,-9.029566938577506e-05,0.00028535271078634265,-0.000847830015085347,-0.000883789316176779,-4.799731976819896e-05,0.0005641381085048319,0.2689092457294464,-23.63736343383789,19.577133178710938,17.89893341064453,0.8641458749771118,2.3604629039764404,-0.10706938803195953,,,,,,,,,
1739400704.9230077,-0.7082154262929268,0.6794903601129607,1.4214537954348023,-1.8789299996138,-0.7134805650355338,1.9466214648764508,0.188540183060416,-0.0015366033888608512,-0.0002804343692789371,-0.0013064247727734954,-0.0005057275241540636,-0.0006522771355919796,0.0009099779170761975,0.0009136589201896555,0.2927129566669464,-23.63736343383789,19.628707885742188,17.84735870361328,0.8568216562271118,2.3540542125701904,-0.12080229818820953,,,,,,,,,
1739400704.9340348,-0.7082136021913331,0.6794914823987858,1.4214576852283727,-1.8789313906429095,-0.7134773147601432,1.946619192895598,0.1885374005411063,-8.869628065377071e-05,0.0006557416845735013,0.00031698536546386673,-0.0005407891715009689,0.0015919199683515984,-0.0005235070449069014,-0.0006467491605723328,0.2689092457294464,-23.61355972290039,19.577133178710938,17.87512969970703,0.8375955820083618,2.3732802867889404,-0.09425200521945953,,,,,,,,,
1739400704.9450228,-0.7082136059356139,0.6794951360062191,1.4214576666957612,-1.878931364148068,-0.7134831343641103,1.9466199510523117,0.18853966048177714,-0.0008522623589180379,0.0006265782802362051,0.0003360919669268109,0.0008581091981512911,9.608583329735705e-05,-4.837123424052936e-05,0.00011871203534207376,0.2689092457294464,-23.66513442993164,19.577133178710938,17.87512969970703,0.8504129648208618,2.3668715953826904,-0.11347807943820953,,,,,,,,,
1739400704.9559612,-0.7082123060441183,0.6794940414667331,1.421453795289448,-1.8789313907478882,-0.7134858238522838,1.9466207087123928,0.18853968680913238,-0.00036054246525152377,-0.00010134173751540987,-0.0004608045340942381,-0.0009657978318637568,-0.001098881464773452,0.0006782939662459912,0.0005872671609282131,0.2411382496356964,-23.68893814086914,19.628707885742188,17.87512969970703,0.8641458749771118,2.3604629039764404,-0.11347807943820953,,,,,,,,,
1739400704.9660501,-0.7082153143130479,0.6794979760442317,1.4214577237336288,-1.8789292843594143,-0.7134838985343096,1.946621466372471,0.18854367846174014,-0.0012352764251995236,0.002061722012800706,0.0010064058392374323,-1.0438450652852692e-05,0.0006927396789216235,0.0003551588952377448,0.0033829289889552544,0.2927129566669464,-23.71670913696289,19.604904174804688,17.84735870361328,0.8568216562271118,2.3540542125701904,-0.14735259115695953,,,,,,,,,
1739400704.9770818,-0.7082153146044358,0.6794986914450247,1.4214496492092277,-1.8789331497683766,-0.7134847643777152,1.9466188649232319,0.18853753110252666,-0.0007408852500450714,0.0019537614885362185,-0.0011381113593542246,2.9935332847870607e-05,-0.0007842072118531706,-0.00048610471703611354,0.001548640052541721,0.2927129566669464,-23.71670913696289,19.656478881835938,17.89893341064453,0.8641458749771118,2.3668715953826904,-0.12080229818820953,,,,,,,,,
1739400704.9879906,-0.7082116041428521,0.679494786153296,1.4214499327875303,-1.878931969515307,-0.7134836870789504,1.9466207086939993,0.18853216503758968,0.0008065003096892206,-0.0005047605924931339,-0.0007834587872476302,0.000617323559265553,-0.00027911823797756064,0.0003997438907841915,-0.0007899753250237612,0.2411382496356964,-23.68893814086914,19.680282592773438,17.87512969970703,0.8641458749771118,2.3604629039764404,-0.07411040365695953,,,,,,,,,
1739400704.9980295,-0.7082137147520186,0.6794966934938536,1.4214500113505748,-1.8789292843614802,-0.7134831408143231,1.946619193392236,0.18853502093072863,-0.0006869958894427965,7.117281099903268e-05,0.0009960757592406395,-2.0091883600370194e-05,-0.0003037163543977164,-0.0002158664618959573,-0.0014123004689121051,0.2689092457294464,-23.68893814086914,19.680282592773438,17.84735870361328,0.8504129648208618,2.3732802867889404,-0.07411040365695953,,,,,,,,,
1739400705.0090003,-0.7082153926074845,0.6794988945400897,1.4214493827707597,-1.8789275016810438,-0.713483897008763,1.9466199495624255,0.18853997897581817,-0.0007494667722403546,-0.0001401311204088805,0.0010064604475774558,0.0009061895072939849,7.180106200160608e-05,0.00026149340256606383,0.0005543123376179313,0.2927129566669464,-23.71670913696289,19.656478881835938,17.82355499267578,0.8568216562271118,2.3668715953826904,-0.10706938803195953,,,,,,,,,
1739400705.019048,-0.7082153146048767,0.6794991373776661,1.4214488838628243,-1.8789293638309226,-0.7134831010839663,1.946619910825303,0.18853501949474988,-0.00036082801736190705,0.000791753511110246,-1.7767447534072187e-05,5.925017101012897e-05,0.0004735987800421501,-4.6854039904219884e-05,-0.0008184096695566297,0.2927129566669464,-23.71670913696289,19.656478881835938,17.84735870361328,0.8504129648208618,2.3668715953826904,-0.07411040365695953,,,,,,,,,
1739400705.0299613,-0.7082153146044364,0.6794989385333633,1.4214516911517616,-1.8789292843948502,-0.7134847643774909,1.946619193336828,0.18854067877847505,-0.00012552518243293297,0.0004461662073928401,0.000809087654619501,0.0006944785059590345,-0.0006911034703018875,-0.00014099191372852484,0.0004996677442746934,0.2927129566669464,-23.71670913696289,19.628707885742188,17.84735870361328,0.8641458749771118,2.3732802867889404,-0.10706938803195953,,,,,,,,,
1739400705.0400102,-0.7082136020837052,0.6794966921982116,1.421451484544636,-1.8789292843580647,-0.7134831408204044,1.9466191933922332,0.18853895694244488,-8.597998361419625e-05,-0.0010097385981416701,-4.114634303299886e-05,0.0005681838323545389,0.0003010841247356103,3.4212706194779104e-05,0.00036999651029717717,0.2689092457294464,-23.68893814086914,19.656478881835938,17.84735870361328,0.8504129648208618,2.3732802867889404,-0.10706938803195953,,,,,,,,,
1739400705.0500262,-0.7082136020837052,0.6794969279986066,1.4214496407006172,-1.878929293150696,-0.7134847643777152,1.9466207087123928,0.18853022674590997,0.0002004492772566177,0.0011879284534154942,-0.001696758762667924,0.0011324389115873986,-0.0010459017823252169,-0.0004161413350034829,-0.0018512398781656055,0.2689092457294464,-23.68893814086914,19.656478881835938,17.84735870361328,0.8641458749771118,2.3604629039764404,-0.06037749722599983,,,,,,,,,
1739400705.060038,-0.7082136020837052,0.6794952194037478,1.4214594668891076,-1.8789313641480674,-0.7134861943986166,1.9466207087123928,0.18854053952993555,0.00013387190691152725,0.0006616304912547503,0.0017885268754286839,-0.0006591976353029479,-0.000990370492239568,-0.00020046712390804825,0.0010706675026088915,0.2689092457294464,-23.66513442993164,19.553329467773438,17.87512969970703,0.8641458749771118,2.3604629039764404,-0.12080229818820953,,,,,,,,,
1739400705.072017,-0.7082081791013898,0.6794915335253986,1.421457665436012,-1.8789256823745586,-0.7134831275830003,1.946621466372471,0.188535777202831,0.0010179149105598866,-0.0009150417446153589,-0.0003944309126330315,0.0016864165442793287,0.0010055283596071883,0.0007333697660326936,-0.0024051612012149,0.1935308277606964,-23.61355972290039,19.577133178710938,17.79975128173828,0.8504129648208618,2.3540542125701904,-0.08051909506320953,,,,,,,,,
1739400705.0820525,-0.7082098915857822,0.6794943952409636,1.42145557796646,-1.8789330457666498,-0.7134852865875415,1.9466184357321576,0.18853451233629812,0.0012735269819260711,0.00024112374140039316,-0.001362427828432025,-5.12852218093442e-06,0.0006405870451227323,-0.0008172401328801232,-0.0007466065200635976,0.2173345386981964,-23.66513442993164,19.604904174804688,17.89893341064453,0.8504129648208618,2.3796889781951904,-0.06678618490695953,,,,,,,,,
1739400705.0931172,-0.708211682143992,0.6794929830397297,1.4214562935492028,-1.8789270591174208,-0.7134848173717346,1.946621466372471,0.18853589574238366,0.00021286833764669856,-0.0003937107158353944,-0.0013607706840613328,0.0006860910363356481,-0.0003791971081510313,0.0005445313939885266,-0.0008981197280776463,0.2411382496356964,-23.63736343383789,19.604904174804688,17.84735870361328,0.8641458749771118,2.3540542125701904,-0.08051909506320953,,,,,,,,,
1739400705.103986,-0.7082116041432925,0.6794931408985929,1.4214556035166017,-1.8789293902716295,-0.7134847643780143,1.9466199510523143,0.1885326397305629,3.557890026548578e-05,0.0003492047926213812,-0.0006963646686374608,0.00031914454505906184,-0.00028189514010097043,-0.00013684552667465917,0.00017588524061318994,0.2411382496356964,-23.63736343383789,19.604904174804688,17.84735870361328,0.8641458749771118,2.3668715953826904,-0.05396880581974983,,,,,,,,,
1739400705.1140249,-0.7082152792831654,0.6794968965991814,1.4214537952906958,-1.8789313994745704,-0.7134847643777152,1.9466225260106005,0.1885365348089803,-0.00030149495413847734,0.0009390864531633296,5.044154344679183e-06,-0.0008851108775114871,-0.0002311389220156242,0.0008795325530880883,-0.0006651206301758209,0.2927129566669464,-23.68893814086914,19.628707885742188,17.87512969970703,0.8641458749771118,2.3540542125701904,-0.08692778646945953,,,,,,,,,
1739400705.1249928,-0.7082135982660505,0.6794947769999007,1.4214528683980905,-1.878931364147985,-0.7134839382169126,1.9466206684873837,0.1885437415549348,-0.0005387988786391615,-0.00027520913927913515,-0.0008513141219612233,-0.0006190805367024975,2.4242253954342394e-05,0.0003277033043773497,0.00045844067922623565,0.2689092457294464,-23.68893814086914,19.628707885742188,17.87512969970703,0.8568216562271118,2.3604629039764404,-0.12080229818820953,,,,,,,,,
1739400705.1350253,-0.7082116041427875,0.6794952193673205,1.4214517153788666,-1.8789313677333424,-0.7134847516234847,1.946619193391555,0.18853895561103115,0.0016983039011630725,0.00010723297067124501,0.0007454544960106125,-0.00042858343210554456,0.0009681152565624638,-0.00040568108989015984,-0.00010433619143458299,0.2411382496356964,-23.66513442993164,19.656478881835938,17.87512969970703,0.8641458749771118,2.3732802867889404,-0.10706938803195953,,,,,,,,,
1739400705.1459935,-0.7082136020837051,0.6794969319245454,1.421447526292434,-1.8789317085303308,-0.7134847643776432,1.9466199510523143,0.18853830572568916,0.0008168781744324001,0.0002659641005427366,-0.0016749495824818735,-0.0003187477626793203,0.0006638286618203494,-0.001195839931550783,0.000626438836660214,0.2689092457294464,-23.68893814086914,19.680282592773438,17.87512969970703,0.8641458749771118,2.3668715953826904,-0.10706938803195953,,,,,,,,,
1739400705.156041,-0.7082136020837051,0.6794969306163503,1.4214499213390976,-1.8789313729840684,-0.7134838984804828,1.9466181072631537,0.18854311978704913,0.0009107010555403985,-0.0005502908057730734,-0.0010714640929122788,0.00012877963154052656,-0.0006107649046906838,-0.0008469510774178385,0.001486475604448247,0.2689092457294464,-23.68893814086914,19.680282592773438,17.87512969970703,0.8568216562271118,2.3732802867889404,-0.13361968100070953,,,,,,,,,
1739400705.167019,-0.708209917622501,0.6794969054335702,1.421451687155118,-1.8789331733160404,-0.7134887387263186,1.9466184357137641,0.18853971307290743,0.0012348177120983792,-0.0008841410719562526,0.0003272689326591826,-0.0009775855896163195,-0.00041582964710023054,-0.0008230151101036606,0.0005885759852214494,0.2173345386981964,-23.68893814086914,19.656478881835938,17.89893341064453,0.8705545663833618,2.3796889781951904,-0.11347807943820953,,,,,,,,,
1739400705.1780076,-0.708213710173781,0.6795006500716272,1.4214555766015344,-1.878931357934141,-0.7134856018293022,1.946619193392236,0.18853684009854868,-0.00014652837801484115,0.00021753498820047882,0.0017655655600290361,-0.00038489453001836263,0.000905428002374438,0.0003035586397470203,-0.0017865619423530548,0.2411382496356964,-23.74051284790039,19.604904174804688,17.87512969970703,0.8440042734146118,2.3732802867889404,-0.08051909506320953,,,,,,,,,
1739400705.1881287,-0.7082136020955937,0.6794989298654419,1.4214537612763143,-1.878928216936746,-0.7134815486885061,1.9466199510523143,0.18853967369237398,-5.915700634764797e-06,0.0011379832768252786,0.0014522044539354564,0.0017033144465567272,0.00013342132151378312,-0.0002110052923467805,0.0005251107808696935,0.2689092457294464,-23.71670913696289,19.628707885742188,17.82355499267578,0.8641458749771118,2.3668715953826904,-0.11347807943820953,,,,,,,,,
1739400705.1990387,-0.7082144001056386,0.6794952454041944,1.42145171549935,-1.878931364151956,-0.7134847643050545,1.9466199510523143,0.1885459213413198,-0.0007070701439635552,-0.0005455456654395362,0.00034092761152267666,-0.001704080272090867,-0.00014718721136899865,-5.8151615306944006e-05,0.004355255843132377,0.3165166676044464,-23.66513442993164,19.656478881835938,17.87512969970703,0.8641458749771118,2.3668715953826904,-0.12721098959445953,,,,,,,,,
1739400705.2090428,-0.7082136020392164,0.6794964067388137,1.4214516786520435,-1.8789331468249375,-0.7134848232464989,1.9466199510523143,0.18853617107414708,-3.498367913827981e-05,0.0002006905940056846,-0.0011763426890509178,0.00023460922550626618,-0.00015576725334257534,-0.00021660091836694483,0.0006662208485977097,0.2689092457294464,-23.71670913696289,19.656478881835938,17.89893341064453,0.8641458749771118,2.3668715953826904,-0.08051909506320953,,,,,,,,,
1739400705.2200363,-0.7082116041428513,0.6794969197810103,1.4214555779657927,-1.8789331585986944,-0.7134834984492701,1.9466207087123928,0.18853589509797913,0.00048387480107267165,0.00021906135921022758,-9.019974236311223e-05,0.00017215570227991956,0.000285644426334901,0.0004193491606706407,-0.00034478135544167474,0.2411382496356964,-23.68893814086914,19.604904174804688,17.89893341064453,0.8504129648208618,2.3604629039764404,-0.08051909506320953,,,,,,,,,
1739400705.231017,-0.7082136020837051,0.6794969319245228,1.4214537952893975,-1.8789292842450311,-0.7134858372619941,1.9466199510523143,0.1885420594402727,0.00011019301209938884,0.0012205346174325748,-0.00029739357459830846,0.000995281314388636,0.00024112823090895113,-0.0003634131786091839,0.0005384809585294629,0.2689092457294464,-23.68893814086914,19.628707885742188,17.84735870361328,0.8641458749771118,2.3668715953826904,-0.13361968100070953,,,,,,,,,
1739400705.2419624,-0.7082133640931159,0.6794914029784171,1.421457657756272,-1.8789314609543644,-0.7134863594772788,1.9466207087123928,0.18854226234881613,-0.00025350100933115005,-0.0015369513466124006,-8.540944178742128e-05,-0.000419992709594706,-0.0007576826356149808,-1.2203085924904417e-05,0.0015307364424539463,0.2689092457294464,-23.61355972290039,19.577133178710938,17.87512969970703,0.8504129648208618,2.3604629039764404,-0.10706938803195953,,,,,,,,,
1739400705.2519891,-0.7082114563124629,0.6794952194020198,1.4214557231760863,-1.8789272544337863,-0.7134862797523801,1.946621466372471,0.18854106520165,0.000258791887083336,0.0006078115964807481,-0.0007699326344154209,0.0009068322896427705,-0.0007300660658183098,0.0002294761709235115,0.0009918327882411674,0.2689092457294464,-23.66513442993164,19.604904174804688,17.82355499267578,0.8769632577896118,2.3540542125701904,-0.12080229818820953,,,,,,,,,
1739400705.262026,-0.7082094583393014,0.6794932214629612,1.4214519543566455,-1.878929522772455,-0.7134847643777161,1.9466199510523143,0.18853892040947443,0.001446858881919687,-0.0004788135905085597,-0.0011631137895633946,0.00016660511405857986,0.00025789688053833124,-5.767005651740117e-06,0.0002879189415619244,0.2411382496356964,-23.63736343383789,19.656478881835938,17.84735870361328,0.8641458749771118,2.3668715953826904,-0.10706938803195953,,,,,,,,,
1739400705.272992,-0.7082137101372948,0.679495921414075,1.4214561794792338,-1.8789306224052655,-0.713483456043932,1.9466207087123928,0.188538671614883,-0.00024086685786640889,0.0008443865902193184,-0.00014222574693213848,0.0003264221359116446,6.164829899176372e-05,-0.00030221603683273706,0.0005129662860904973,0.2411382496356964,-23.66513442993164,19.628707885742188,17.87512969970703,0.8440042734146118,2.3604629039764404,-0.10066069662570953,,,,,,,,,
1739400705.283056,-0.7082094670780988,0.6794952184345565,1.4214537953297741,-1.8789293903093143,-0.7134838984986521,1.9466199510523143,0.18853523032058198,0.0013967922994481598,-0.00137655053317572,0.0002386488775574422,0.0005105040175162997,-0.00023230512851250465,-0.0003352501450873161,-0.0004504854210931567,0.2411382496356964,-23.66513442993164,19.628707885742188,17.84735870361328,0.8568216562271118,2.3668715953826904,-0.06678618490695953,,,,,,,,,
1739400705.2930589,-0.7082136020716413,0.6794967281731343,1.4214497277332423,-1.87893314377308,-0.7134847643777152,1.946619193392236,0.1885374011982476,0.0001083346471453456,0.0005483281176904061,0.0005720175049196584,-0.00047803923583021656,-0.0002579268023751529,-5.168705771242893e-05,2.6872621962646448e-05,0.2689092457294464,-23.68893814086914,19.656478881835938,17.89893341064453,0.8641458749771118,2.3732802867889404,-0.09425200521945953,,,,,,,,,
1739400705.303071,-0.7082116070317831,0.679493141986651,1.4214553482395138,-1.8789329780313635,-0.7134847629059956,1.946619193392236,0.18854129870178526,0.00041749062980280985,-0.0018222511171236495,0.001858930121262366,-0.00033637876486484607,-0.00025181503083699194,0.0001624455944044671,0.0007539544270501598,0.2411382496356964,-23.63736343383789,19.604904174804688,17.89893341064453,0.8641458749771118,2.3732802867889404,-0.12721098959445953,,,,,,,,,
1739400705.3139644,-0.7082118381462886,0.6794952194033657,1.421448705341041,-1.8789283971602038,-0.7134838999521941,1.9466199510523143,0.18853967368638183,-0.0003704935706412795,-0.0008580951418861879,2.8552725418050682e-05,0.001166403493975868,0.0007912586128686564,-4.6893202489305705e-05,-0.00036772514081203386,0.2411382496356964,-23.66513442993164,19.656478881835938,17.87512969970703,0.8568216562271118,2.3668715953826904,-0.11347807943820953,,,,,,,,,
1739400705.3240323,-0.708211604146815,0.6794952455111918,1.4214469221944268,-1.8789313642066887,-0.7134815882947877,1.9466191928956065,0.1885350369858606,0.0005110686344545439,-0.0007728094733135743,-0.0013733562175248565,0.0011671062797273448,0.001004084852230613,-0.0005198397363435398,-0.0009020447135186537,0.2411382496356964,-23.66513442993164,19.680282592773438,17.87512969970703,0.8705545663833618,2.3732802867889404,-0.07411040365695953,,,,,,,,,
1739400705.3340333,-0.7082098916221211,0.6794932214642876,1.421453528385746,-1.8789331458074552,-0.713487117422019,1.9466207087123677,0.18853904045108527,3.0838593971811885e-05,-0.0013530212826347427,0.000550428074556962,-6.934933053775723e-05,-0.00014628327756293746,0.0002558399864042957,0.00033036437918357634,0.2173345386981964,-23.63736343383789,19.628707885742188,17.89893341064453,0.8568216562271118,2.3604629039764404,-0.10706938803195953,,,,,,,,,
1739400705.3450255,-0.7082136800848452,0.6794969318155293,1.4214507968310586,-1.8789331471519843,-0.7134823831845525,1.9466199510523143,0.18853647612348157,0.00017977568276914983,0.0006785376376727588,0.0005404132523832085,-0.00016893534682332163,0.001307564568490096,-6.148957452795008e-05,-0.0005962195539347915,0.2689092457294464,-23.68893814086914,19.656478881835938,17.89893341064453,0.8440042734146118,2.3668715953826904,-0.07411040365695953,,,,,,,,,
1739400705.357031,-0.7082153146048767,0.67949322274693,1.4214534522140525,-1.8789331733158925,-0.7134847643777154,1.9466191889225692,0.18854058090445214,0.00010048501190059803,-0.0007668776694872523,-0.0001458336743029058,-0.0003271324639622404,0.00022077664183429605,-0.00032924839908799353,0.002647987108398542,0.2927129566669464,-23.63736343383789,19.628707885742188,17.89893341064453,0.8641458749771118,2.3732802867889404,-0.12080229818820953,,,,,,,,,
1739400705.3679895,-0.7082137130625653,0.6794952193917039,1.4214570340233914,-1.8789331468249872,-0.7134844087303088,1.9466199510523061,0.18853840538958885,0.00012666327698591614,8.116106614964154e-05,4.894158187110419e-05,-0.00099294807508506,0.000618233892775477,-0.00032061367703949405,-0.0011699137477268712,0.2411382496356964,-23.66513442993164,19.604904174804688,17.89893341064453,0.8641458749771118,2.3668715953826904,-0.06678618490695953,,,,,,,,,
1739400705.3799596,-0.7082116157461473,0.6794989033744452,1.421452797442032,-1.8789313376569654,-0.7134870373559425,1.9466199510523143,0.18853800406850105,0.0005004953043874458,0.000771838284528785,0.0002573277722426616,0.00039867688920360706,-0.0010240591349597395,0.0007305759245435982,5.125573347831893e-05,0.2411382496356964,-23.71670913696289,19.604904174804688,17.87512969970703,0.8833719491958618,2.3668715953826904,-0.06037749722599983,,,,,,,,,
1739400705.3900094,-0.708212574823772,0.6794910756955997,1.421453718744281,-1.8789292840550904,-0.7134817500998677,1.9466214658758414,0.18853589576637161,-0.0005326411428879828,-0.0014756681702037958,-0.0010757142314521428,-0.00023146271565016455,0.0012571110681993524,0.0007828903344035371,-0.0007089998679520403,0.2411382496356964,-23.63736343383789,19.628707885742188,17.84735870361328,0.8504129648208618,2.3540542125701904,-0.08051909506320953,,,,,,,,,
1739400705.4010253,-0.7082153146099158,0.6794914911059573,1.4214555779659845,-1.878927059080305,-0.7134848041062943,1.9466199510523117,0.18853525607219543,8.919855365889393e-05,-0.000745415404495513,1.0707061852179294e-06,0.0006012351540449018,0.00043183946756124953,-0.00019600440035308467,-0.0018661555073023433,0.2927129566669464,-23.61355972290039,19.604904174804688,17.84735870361328,0.8641458749771118,2.3668715953826904,-0.06678618490695953,,,,,,,,,
1739400705.4110272,-0.7082116128096456,0.6794956035223342,1.4214535115670859,-1.8789313641102332,-0.7134839004434483,1.946620704242726,0.18854205492243328,0.0011137313994762283,7.047683907697059e-05,-0.0001659634644418456,-0.000515778351713672,0.00014055640380652236,0.0005315290136632256,0.0020775143220060507,0.2411382496356964,-23.66513442993164,19.604904174804688,17.87512969970703,0.8568216562271118,2.3604629039764404,-0.13361968100070953,,,,,,,,,
1739400705.42301,-0.7082116041429011,0.6794914019994391,1.4214554759155247,-1.8789313641479184,-0.7134846060861045,1.9466199510522892,0.188533398038013,0.0010179597330194751,-0.0022334569690947363,6.0506615589754206e-05,-0.00044160888128247616,0.002134064738462875,0.0003677184022507446,-0.0012284186271549716,0.2411382496356964,-23.61355972290039,19.604904174804688,17.87512969970703,0.8641458749771118,2.3668715953826904,-0.06037749722599983,,,,,,,,,
1739400705.4330425,-0.7082136025473608,0.6794932214623576,1.4214554986019972,-1.8789257181318948,-0.7134862794789458,1.9466191948457865,0.18854044012894425,0.0008165007100896637,-0.0005307846816920111,0.0006370730117407921,0.0016645692823037965,0.0004061423564026089,0.0002175335905166064,0.00026181244659342223,0.2689092457294464,-23.63736343383789,19.604904174804688,17.79975128173828,0.8769632577896118,2.3732802867889404,-0.08051909506320953,,,,,,,,,
1739400705.4439974,-0.7082133637721261,0.6794932214629612,1.421455335780272,-1.8789301091956285,-0.7134847645412384,1.9466191932267012,0.18854209500062985,5.470648559170656e-05,-0.00014433902571340097,-0.00042554816903631444,0.00015758979099302634,0.00017349395733208761,-0.0002358874097475364,0.0007210241671315635,0.2689092457294464,-23.63736343383789,19.604904174804688,17.89893341064453,0.8641458749771118,2.3732802867889404,-0.13361968100070953,,,,,,,,,
1739400705.4540226,-0.7082136020796693,0.67949669252482,1.4214525633083017,-1.8789313644235248,-0.7134821073727403,1.9466191933922334,0.18853665437317765,0.0002784479681199774,-0.0006625928462283006,-0.00038002984535314517,-7.072847781766123e-05,0.001308804647730312,-0.0019943759564531693,-0.000825964751230145,0.2689092457294464,-23.68893814086914,19.680282592773438,17.87512969970703,0.8769632577896118,2.3732802867889404,-0.08692778646945953,,,,,,,,,
1739400705.4640286,-0.7082153146044363,0.6794952454001402,1.421451383916601,-1.8789331468249422,-0.7134813496420006,1.9466199510523143,0.18853415359354195,-0.00020999095200251573,-0.0002575429790230893,-0.00047521905154207175,-1.0974371923368426e-05,-0.0002739546502750614,-0.0005629633465013629,-0.002447871137943586,0.2927129566669464,-23.66513442993164,19.656478881835938,17.89893341064453,0.8705545663833618,2.3668715953826904,-0.06678618490695953,,,,,,,,,
1739400705.4750278,-0.7082136020837051,0.6794968524518326,1.421452847330507,-1.8789331468249375,-0.7134838984569294,1.9466199509971334,0.18854460419767965,-0.0008395886581005006,-0.0003902755327241454,-0.00017226753281122085,-0.001138658562094556,0.0011244690169605177,0.00033287362516895683,0.0006440286621981446,0.2689092457294464,-23.68893814086914,19.628707885742188,17.89893341064453,0.8568216562271118,2.3668715953826904,-0.12721098959445953,,,,,,,,,
1739400705.48504,-0.7082116041428521,0.679496931920508,1.4214487298591756,-1.8789313519380964,-0.7134831408204032,1.9466199510523117,0.1885447934937341,8.618126121075017e-05,2.1832834670818034e-05,-0.00014453776471032818,-0.0007046647898607466,0.0007148794807027691,0.00022702422254094592,0.00011988727152189405,0.2411382496356964,-23.68893814086914,19.656478881835938,17.87512969970703,0.8504129648208618,2.3668715953826904,-0.12080229818820953,,,,,,,,,
1739400705.496066,-0.7082098916221209,0.6795006511599205,1.4214506986825064,-1.8789313730872295,-0.7134847643777152,1.946619193392236,0.18854105138210975,0.0010130098864317373,0.000969137811373172,0.00084864094380616,-0.0001908051379865498,0.00020925043086751318,-3.6365391482795733e-06,0.001008715031133029,0.2173345386981964,-23.74051284790039,19.628707885742188,17.87512969970703,0.8641458749771118,2.3732802867889404,-0.12080229818820953,,,,,,,,,
1739400705.507042,-0.7082114893487215,0.6794982136642301,1.421447074306964,-1.8789275012288786,-0.7134855220377936,1.946619193392236,0.18853339593476828,0.0014323933394524186,-0.0005965432033528133,-0.0010554845365081745,0.0016138109124237165,0.0009899128226629108,-0.0005089708300294064,-0.0016966296798477123,0.2411382496356964,-23.71670913696289,19.680282592773438,17.82355499267578,0.8705545663833618,2.3732802867889404,-0.06037749722599983,,,,,,,,,
1739400705.5180216,-0.7082136062559576,0.6794970099216426,1.4214509462699991,-1.878931364293271,-0.7134856427188028,1.9466199510523143,0.18854317219856703,0.0005350279325937394,3.916580934728641e-05,-0.001336841840761085,-0.0006747320453726001,0.0007177229242048562,-2.3100032345881323e-05,0.0006660520547984473,0.2689092457294464,-23.68893814086914,19.656478881835938,17.87512969970703,0.8705545663833618,2.3668715953826904,-0.10706938803195953,,,,,,,,,
1739400705.5280306,-0.7082118728135164,0.6794989298667194,1.4214528731440945,-1.8789234937639558,-0.7134871176239176,1.9466207610402018,0.1885311655900741,0.0008501786665232305,0.0011124361955275558,-0.0006058804715513526,0.0021260284206882276,-6.947012370287235e-05,0.0007933485962410994,-0.003267717481645421,0.2411382496356964,-23.71670913696289,19.628707885742188,17.79975128173828,0.8568216562271118,2.3604629039764404,-0.04756011441349983,,,,,,,,,
1739400705.5389934,-0.7082142517679726,0.6794932215699587,1.4214516782269233,-1.8789331467746913,-0.7134831408930847,1.9466199510526099,0.1885406593051724,-0.0004355023149822926,-0.0006233030572898772,-0.0007015324229908257,-0.0008943462091770679,0.0002050954045226059,-0.00027747125260130614,0.0024267791062485217,0.2411382496356964,-23.63736343383789,19.656478881835938,17.89893341064453,0.8504129648208618,2.3668715953826904,-0.12080229818820953,,,,,,,,,
1739400705.5500102,-0.708211604157798,0.6794915089422308,1.4214555694629374,-1.8789282862051087,-0.7134855352832705,1.946620708712393,0.18854043575533042,0.0005428763919695181,-0.0006865475971117574,0.0002101310195972227,0.00028964226855574796,0.0004251060086952311,2.390169115800872e-05,-6.79148098066476e-05,0.2411382496356964,-23.61355972290039,19.604904174804688,17.84735870361328,0.8705545663833618,2.3604629039764404,-0.08051909506320953,,,,,,,,,
1739400705.5600276,-0.7082116041428524,0.6794952194038144,1.4214555779662728,-1.878933137650667,-0.7134847637238418,1.9466199510523146,0.18854070773902779,0.0014944923448475817,0.0006456936582424058,0.0008535892094507025,-0.001330001308488244,0.00039752991958446455,0.0002024276083885973,0.0008628939399524301,0.2411382496356964,-23.66513442993164,19.604904174804688,17.89893341064453,0.8641458749771118,2.3668715953826904,-0.09425200521945953,,,,,,,,,
1739400705.5700793,-0.7082064666876561,0.6794952108944889,1.4214535078928339,-1.8789284553552048,-0.7134838984804717,1.9466199510523146,0.18854146060605936,0.0026470995736661016,0.0003792855022193001,-0.000794061458074123,-5.6011919019853724e-05,0.0005630957142580076,-0.000671731170944586,0.002762188353235227,0.1697271168231964,-23.66513442993164,19.604904174804688,17.82355499267578,0.8568216562271118,2.3668715953826904,-0.12721098959445953,,,,,,,,,
1739400705.5810049,-0.7082123075440803,0.6794952105734485,1.4214576577445865,-1.8789317497438436,-0.7134881102415562,1.946620708712393,0.1885433932239166,0.00028936907829594805,0.0002700667377375472,0.00013931207887211234,-0.0003252227188465104,-0.001304399900796839,-0.0001528278600339507,0.002727410203166511,0.2411382496356964,-23.66513442993164,19.577133178710938,17.87512969970703,0.8833719491958618,2.3604629039764404,-0.14094389975070953,,,,,,,,,
1739400705.5910172,-0.7082116028465691,0.6794927557450141,1.4214517142397984,-1.8789289546993972,-0.71348711714947,1.9466222240325497,0.1885352962595506,0.0002835345467831065,-0.0009046667486416868,-0.0010705387312116522,0.0013847809046489761,0.00012906787427619863,0.0007598572505355317,-0.001341574196358494,0.2411382496356964,-23.66513442993164,19.656478881835938,17.84735870361328,0.8568216562271118,2.3476455211639404,-0.09425200521945953,,,,,,,,,
1739400705.602027,-0.7082136020836979,0.6794932233568385,1.4214531064896134,-1.8789331468230765,-0.7134838991527498,1.9466214663724712,0.18853781977291917,-0.0003404526384050866,-0.0007497885584682064,4.135650207050221e-05,-0.0008578240794979899,-0.00039314193281441453,-6.35828654008801e-05,-0.0014218989502051778,0.2689092457294464,-23.63736343383789,19.628707885742188,17.89893341064453,0.8568216562271118,2.3540542125701904,-0.06037749722599983,,,,,,,,,
1739400705.6129515,-0.7082123061531128,0.6794977089925178,1.4214490144655894,-1.8789375069075727,-0.7134866373257444,1.946620708712393,0.1885393899032469,-0.00014776108305914685,0.0009642084142813564,-0.0010595508095331673,-0.001817476110138615,-0.00039470564960340625,0.00031983588472124524,-0.001761516641803291,0.2411382496356964,-23.68893814086914,19.680282592773438,17.94654083251953,0.8769632577896118,2.3604629039764404,-0.07411040365695953,,,,,,,,,
1739400705.623962,-0.7082153146083993,0.6794969319289321,1.4214537833287626,-1.8789333855750516,-0.7134847643797341,1.9466199331736465,0.18854181057095076,-0.00093900052412921,0.00016547122337512153,0.0005363505918076902,0.0009440020611764998,0.0010137702169993037,0.00011495572401595426,0.0003767848711167299,0.2927129566669464,-23.68893814086914,19.628707885742188,17.89893341064453,0.8641458749771118,2.3668715953826904,-0.12721098959445953,,,,,,,,,
1739400705.63498,-0.7082118378192236,0.6794952196157905,1.4214537177099882,-1.8789332252843554,-0.7134847643777152,1.9466190727109243,0.1885326792690969,-0.00021837533364940615,-0.00012541284077591524,0.00027258489809019523,-0.0005110997625757904,-0.0018075302080096554,-0.0001364836636589522,-0.0011133212239957013,0.2411382496356964,-23.66513442993164,19.628707885742188,17.89893341064453,0.8641458749771118,2.3732802867889404,-0.05396880581974983,,,,,,,,,
1739400705.6451027,-0.7082081791027088,0.679503684430594,1.4214480479658673,-1.8789332302228257,-0.7134847776231918,1.946615935004307,0.18853508274529301,0.0019710065315892344,0.001391941714348927,-0.0006401449213604028,-0.0007713745855376874,0.0004352136781006305,-0.0011415076721386789,-0.002224024949915979,0.1935308277606964,-23.74051284790039,19.704086303710938,17.89893341064453,0.8641458749771118,2.3732802867889404,-0.04756011441349983,,,,,,,,,
1739400705.6559865,-0.7082157081144872,0.6794986379915122,1.4214493090738556,-1.8789275046249538,-0.7134839028957164,1.9466199510339208,0.18854333934922232,-0.00025808527070349935,0.0007518311668492186,0.00016550600169813382,0.0012260173877578257,0.0001072111841187063,0.00020708743022456578,0.0021740796958795356,0.2689092457294464,-23.71670913696289,19.656478881835938,17.82355499267578,0.8568216562271118,2.3668715953826904,-0.11347807943820953,,,,,,,,,
1739400705.6660354,-0.7082131688728902,0.6794932243469495,1.4214496122119595,-1.8789331746241358,-0.7134847665036071,1.9466199510523141,0.18854338945440346,-0.0006404361623457311,-0.0019626801881154404,-0.00011104036166147753,-0.0005812069682462999,-0.0012544606244306712,-0.0004046355181101387,0.002003390182197411,0.2927129566669464,-23.63736343383789,19.656478881835938,17.89893341064453,0.8641458749771118,2.3668715953826904,-0.11347807943820953,,,,,,,,,
1739400705.6769876,-0.708214304081853,0.6794989298654148,1.421450699142823,-1.8789313641480756,-0.7134871171313126,1.9466230899297818,0.18853907794955185,0.000250239120320771,0.000636948196623057,0.0006112247932019621,-0.0006922818342165059,0.00013583323059873685,0.0017741693739681888,-0.000272709752580589,0.2689092457294464,-23.71670913696289,19.628707885742188,17.87512969970703,0.8568216562271118,2.3403213024139404,-0.10706938803195953,,,,,,,,,
1739400705.687003,-0.7082143041058543,0.6794952199307263,1.421453176737805,-1.878931354990552,-0.7134847644322233,1.9466197907903244,0.1885357815258478,0.0004314656257097616,0.00026685299358073845,0.0008140564846956819,-0.0007666087807486144,0.0005519063147005398,-0.000526211403235466,-0.0015991808830134006,0.2689092457294464,-23.66513442993164,19.604904174804688,17.87512969970703,0.8641458749771118,2.3668715953826904,-0.08051909506320953,,,,,,,,,
1739400705.6970356,-0.7082153146163251,0.6794969319245545,1.42145488821616,-1.878931361095308,-0.7134855403525275,1.946619193389522,0.18854126219731995,-0.0008051746781871786,0.0006104806031217518,0.001598218764450188,-0.00042311681990458945,-6.93016205058113e-05,-0.000641835832868817,-0.0001266969227564996,0.2927129566669464,-23.68893814086914,19.604904174804688,17.87512969970703,0.8705545663833618,2.3732802867889404,-0.11347807943820953,,,,,,,,,
1739400705.7080462,-0.7082136011025588,0.6794910756957494,1.4214545799306983,-1.8789275018263816,-0.7134879889155149,1.9466207087123928,0.18854404554295806,0.0008362818227613864,-0.001644152446309892,0.00073040182187332,0.00040151232838738404,-0.0007933295929301773,0.0003962366330321558,0.00035535421111047513,0.2689092457294464,-23.63736343383789,19.604904174804688,17.82355499267578,0.8641458749771118,2.3604629039764404,-0.11347807943820953,,,,,,,,,
1739400705.7189977,-0.7082153146044309,0.679496931876094,1.4214537701010057,-1.8789292834495948,-0.7134855397711397,1.946621466372471,0.18853353307126536,0.00021704055835541496,-0.00018205001537399906,-0.0011263944464203572,0.0004317355992307588,-0.0007863943464558489,0.00032229798289734065,-0.0020459556722821357,0.2927129566669464,-23.68893814086914,19.628707885742188,17.84735870361328,0.8705545663833618,2.3540542125701904,-0.06037749722599983,,,,,,,,,
1739400705.729095,-0.7082153522675383,0.6794969319245447,1.4214555778610114,-1.8789292843580476,-0.7134862796981722,1.9466199510523143,0.18853903478215872,-0.0008502372818276901,0.000621285563175574,-5.8800224106260235e-05,0.00010263486239645323,-0.0002707472204470662,1.1836105095753809e-05,-9.55975247462824e-05,0.2927129566669464,-23.68893814086914,19.604904174804688,17.84735870361328,0.8769632577896118,2.3668715953826904,-0.10706938803195953,,,,,,,,,
1739400705.7391312,-0.7082153018501708,0.6794952192947981,1.4214555779664149,-1.8789292843580627,-0.7134855619377478,1.9466207087123928,0.18854206433629536,-0.0007691228857050116,-0.00024897831116868664,-0.0004349668591014839,-0.00015651137757719544,0.0013118733767115444,0.0004776130979472139,0.003042260387315767,0.2927129566669464,-23.66513442993164,19.604904174804688,17.84735870361328,0.8705545663833618,2.3604629039764404,-0.09425200521945953,,,,,,,,,
1739400705.7510147,-0.708209891622049,0.6794952454041938,1.4214555694631477,-1.8789292846851118,-0.7134855222015432,1.9466207087123928,0.18853664361643546,0.0006559864206994742,0.0006422449266216325,-7.859992457297661e-05,0.0013659122682368589,0.0001622467482079961,0.0005867640676951811,-0.0011608315547256094,0.2173345386981964,-23.66513442993164,19.604904174804688,17.84735870361328,0.8705545663833618,2.3604629039764404,-0.06037749722599983,,,,,,,,,
1739400705.7619617,-0.708211997652903,0.6794988243296243,1.4214574163987241,-1.8789313729782369,-0.7134862796978721,1.946620707222504,0.18853939344875675,0.001290919293589036,0.00028170837564590076,0.0018694194684661834,-0.0009318112332335207,-0.0005099495520711773,0.0007211823729385799,-0.0006135033434219386,0.2173345386981964,-23.71670913696289,19.577133178710938,17.87512969970703,0.8769632577896118,2.3604629039764404,-0.10066069662570953,,,,,,,,,
1739400705.7720606,-0.7082153146401021,0.6794969319227583,1.4214514849623858,-1.8789333940739839,-0.7134855220377936,1.9466207087123677,0.1885349852737191,-0.00026907751355549327,-0.0004958375593366827,0.0005763037366290407,-0.000890056958329642,0.0008004640943538118,0.0005468406871451486,-0.0011122808977602323,0.2927129566669464,-23.68893814086914,19.656478881835938,17.89893341064453,0.8705545663833618,2.3604629039764404,-0.06037749722599983,,,,,,,,,
1739400705.7830212,-0.7082153106798509,0.6794976339348062,1.4214528764801433,-1.8789316685452495,-0.7134851234773035,1.9466199508315902,0.18853881220631571,-0.0007274946372113601,9.851819984729187e-05,0.0008649933872066861,9.904226947072365e-05,0.0008085264569977744,0.0001355566756630515,-0.00047160467024368567,0.2927129566669464,-23.68893814086914,19.628707885742188,17.84735870361328,0.8641458749771118,2.3668715953826904,-0.06678618490695953,,,,,,,,,
1739400705.793065,-0.7082116041426528,0.6794952194394801,1.4214528768896717,-1.8789313675395358,-0.7134855220560377,1.9466175698349142,0.18854317437937262,0.001298622261829643,-0.00113163236765116,0.0007321210756971554,0.00031467431767475415,-0.0007018768876960817,-0.00042320405783945745,-0.0005449538669735736,0.2411382496356964,-23.66513442993164,19.628707885742188,17.87512969970703,0.8705545663833618,2.3870131969451904,-0.10706938803195953,,,,,,,,,
1739400705.8049943,-0.7082153146519908,0.6794989298653986,1.4214496148988496,-1.8789275281720033,-0.7134848836596823,1.9466191531652333,0.1885436990640359,0.0001350090851353559,0.0002198537233498153,0.0003800449647537895,0.00021187904864014123,0.00014430067867223423,-0.00039028693120802556,0.0012566733491984744,0.2927129566669464,-23.71670913696289,19.680282592773438,17.82355499267578,0.8641458749771118,2.3732802867889404,-0.10706938803195953,,,,,,,,,
1739400705.815031,-0.708213589328802,0.6795006423861298,1.4214507044718185,-1.8789275016435087,-0.7134840235773241,1.9466207087121656,0.1885335336676242,0.000685747329109798,0.0008388285952494872,0.0005535089718661952,0.0007686018017532561,0.0008521971151504901,0.0008090497326186964,-0.0025892388641763735,0.2689092457294464,-23.74051284790039,19.628707885742188,17.82355499267578,0.8568216562271118,2.3604629039764404,-0.06037749722599983,,,,,,,,,
1739400705.8269513,-0.7082144121838229,0.6795013479364067,1.4214493048578396,-1.87893532791342,-0.7134839004434818,1.9466166926650665,0.18854606731336662,0.0003482945516337199,0.0015830676539580763,-0.0002525239505256382,-0.001660365988263983,0.0013587754970185713,-0.00016795009555281999,-0.0001906082209527178,0.2411382496356964,-23.71670913696289,19.656478881835938,17.89893341064453,0.8568216562271118,2.3668715953826904,-0.12721098959445953,,,,,,,,,
1739400705.8370006,-0.7082123061689644,0.6794964526293291,1.4214476279681252,-1.87893136710367,-0.7134847776232028,1.9466207086939993,0.1885397983871404,0.00020702538455629903,-0.0007619920303520496,-0.000386513333677764,-0.0005545142610367663,0.0008353607708188384,0.0005858114366413126,0.000792567765393887,0.2411382496356964,-23.68893814086914,19.680282592773438,17.87512969970703,0.8641458749771118,2.3604629039764404,-0.07411040365695953,,,,,,,,,
1739400705.8480606,-0.7082143071295232,0.679496897563546,1.4214506967971625,-1.8789335099151472,-0.7134858786845906,1.9466207087123928,0.18853937936654805,-0.00045689245893658587,0.00016863322467419755,-0.0012898988578681175,-0.0003374472572751679,-0.0006223855879459849,0.0003014147789534192,-0.00034222167576463563,0.2689092457294464,-23.68893814086914,19.628707885742188,17.87512969970703,0.8705545663833618,2.3604629039764404,-0.08051909506320953,,,,,,,,,
1739400705.858074,-0.7082139141002054,0.6794953320715459,1.4214528729996696,-1.878928695706552,-0.7134847658554747,1.9466207087123928,0.18854501317265004,-0.0002968227380119266,0.0008884494479091319,0.0002940969893036273,0.0012861411612078632,0.000500879460992328,0.0002409637037612252,0.0018458387297698327,0.2689092457294464,-23.66513442993164,19.628707885742188,17.84735870361328,0.8641458749771118,2.3604629039764404,-0.12721098959445953,,,,,,,,,
1739400705.8690228,-0.7082153146061977,0.6794914294700065,1.4214594025307998,-1.8789310334619147,-0.713484805585873,1.9466199510523143,0.1885370643335068,-0.0012389644198640905,-0.001194653525891917,0.0017405790443440917,0.000616693195346944,7.749340299765806e-05,-0.00020776133495749514,-3.165795284492865e-05,0.2927129566669464,-23.61355972290039,19.553329467773438,17.87512969970703,0.8641458749771118,2.3668715953826904,-0.08692778646945953,,,,,,,,,
1739400705.8791175,-0.7082167887065886,0.6794932214616154,1.4214528112540108,-1.8789292843524628,-0.7134844067505445,1.946619193392236,0.1885421254211303,-0.00020595045849045967,-0.0003907011416135573,-0.00040246610054549075,-0.0008517374601182399,0.0015637931576403426,-0.00015876063547400353,-0.00038209642321122687,0.3165166676044464,-23.63736343383789,19.604904174804688,17.84735870361328,0.8641458749771118,2.3732802867889404,-0.09425200521945953,,,,,,,,,
1739400705.8909469,-0.7082116044624986,0.6794930735275861,1.4214537148251567,-1.8789349019921722,-0.7134849365668924,1.9466191933370551,0.18853724029040844,2.944069366330425e-05,-0.0006148542660563239,-0.0006856534560784972,-0.002524384257362766,-0.000884138124009685,0.00011952676626429164,0.0008261485718537573,0.2411382496356964,-23.66513442993164,19.628707885742188,17.92273712158203,0.8641458749771118,2.3732802867889404,-0.08051909506320953,,,,,,,,,
1739400705.9010832,-0.7082081791013951,0.6794915089058895,1.4214526825630205,-1.8789312817311536,-0.7134856412499991,1.946620708712392,0.18854515204127914,0.002301495533076516,-0.00033236820500402654,7.995262746252147e-05,0.0007065264979088629,0.00041752140133261034,0.0008482699639577542,0.0008992081110755853,0.1935308277606964,-23.61355972290039,19.628707885742188,17.87512969970703,0.8705545663833618,2.3604629039764404,-0.12080229818820953,,,,,,,,,
1739400705.9119904,-0.708211997652903,0.679495815450262,1.4214531065588585,-1.8789291388700073,-0.7134879830287574,1.9466199465826475,0.1885416691199775,0.0005481873125787557,-3.679440507587859e-05,-4.510051766938469e-06,0.0006174116044799886,-0.0010311898707086936,0.0003658481908558891,0.00023952795692751077,0.2173345386981964,-23.66513442993164,19.628707885742188,17.87512969970703,0.8641458749771118,2.3668715953826904,-0.12721098959445953,,,,,,,,,
1739400705.922031,-0.7082119162544099,0.6794969319548279,1.4214517057015386,-1.8789291387947913,-0.7134835380477366,1.9466199510520872,0.1885407910000712,0.00038298082631873435,0.00023621445602333715,0.0006955553527222765,-0.0005453807150326,-5.624508968774677e-05,0.00044721002296620307,-0.0014400997677458146,0.2411382496356964,-23.68893814086914,19.656478881835938,17.87512969970703,0.8769632577896118,2.3668715953826904,-0.08692778646945953,,,,,,,,,
1739400705.932824,-0.7082105936341435,0.6794971629845268,1.4214517116852632,-1.878929138895285,-0.7134855220223169,1.946617450325145,0.18854481182346491,0.0006558719489192287,0.00038657949476432826,0.0002685236282217472,-0.00017345769636168892,1.874092159102756e-05,-0.0004646151476412535,-0.000497085751858762,0.2173345386981964,-23.68893814086914,19.656478881835938,17.87512969970703,0.8705545663833618,2.3604629039764404,-0.12080229818820953,,,,,,,,,
1739400705.9430275,-0.708211604146815,0.6794986914481238,1.4214514508134044,-1.878927501668482,-0.7134847643777151,1.9466175698165318,0.18854293969195188,0.0004305330413053627,0.0007491838996489155,0.0006500930582512389,0.0010118330174645534,0.0012778179540151994,-0.0007496368477065066,0.0012824555036606779,0.2411382496356964,-23.71670913696289,19.656478881835938,17.82355499267578,0.8641458749771118,2.3870131969451904,-0.10066069662570953,,,,,,,,,
1739400705.953964,-0.7082153912973812,0.6794989033730994,1.421451396677952,-1.8789313759216755,-0.7134839382169126,1.9466184357321576,0.18854842090721313,-0.00024702761981326455,0.0005128670030193,-0.0006644053233827382,-0.0002937965646985708,-0.0008201209960229471,7.070712747392734e-05,0.002554998857169099,0.2927129566669464,-23.71670913696289,19.656478881835938,17.87512969970703,0.8568216562271118,2.3796889781951904,-0.14735259115695953,,,,,,,,,
1739400705.963975,-0.708211604144151,0.679495219724358,1.4214451285402296,-1.8789292843582621,-0.7134890578751049,1.9466198288814163,0.18854020464628757,0.0010292885440848307,-0.0005022387425574128,-0.0006339323264512554,0.00010733690434616504,1.0305336466558578e-05,-0.000242606070976146,-0.0002603767409930829,0.2411382496356964,-23.66513442993164,19.704086303710938,17.84735870361328,0.8641458749771118,2.3668715953826904,-0.08051909506320953,,,,,,,,,
1739400705.974986,-0.7082099266102867,0.6794952194038162,1.4214486963671045,-1.8789313774115646,-0.7134862347043648,1.9466199509964437,0.18853595408905552,0.0013633125557055222,-0.0005043344956723941,-0.0016948564041510436,0.00040707748553926796,-0.0014334133034842843,0.00040783921193513514,-0.0023291285134612737,0.2173345386981964,-23.66513442993164,19.656478881835938,17.87512969970703,0.8641458749771118,2.3668715953826904,-0.08051909506320953,,,,,,,,,
1739400705.9860356,-0.7082116331393583,0.6794967853821561,1.4214527707509224,-1.8789331454683655,-0.713484375325941,1.9466199510523141,0.1885433808067787,0.0005240549357876656,-3.4667962985505016e-05,0.0010189108167189703,-0.0008746914268446456,-0.0005555590389871422,2.8310897356018856e-05,7.684532480079604e-06,0.2411382496356964,-23.71670913696289,19.628707885742188,17.89893341064453,0.8568216562271118,2.3668715953826904,-0.11347807943820953,,,,,,,,,
1739400705.9970155,-0.7082153146049274,0.6794969578886085,1.4214552336191635,-1.8789335128585467,-0.7134847643857906,1.9466199510523143,0.1885350783612644,-0.0005002108001629178,0.0003134272302057542,0.0016391709923601811,-0.00021051221715440914,0.0002810931977644167,0.0003280549937409295,-0.0019888898139435226,0.2927129566669464,-23.68893814086914,19.604904174804688,17.87512969970703,0.8641458749771118,2.3668715953826904,-0.07411040365695953,,,,,,,,,
1739400706.00703,-0.708213706513215,0.6794967050618375,1.42145731384434,-1.878931363142563,-0.7134840574262022,1.9466182079300423,0.18854390491564071,-0.00015001816655728906,-2.9443974840823905e-05,0.0014952970788425029,-0.00034424192694185846,0.0007587159996474665,-0.00033805313550623134,0.0006309470656949003,0.2689092457294464,-23.68893814086914,19.577133178710938,17.87512969970703,0.8568216562271118,2.3540542125701904,-0.12080229818820953,,,,,,,,,
1739400706.0179622,-0.7082136049732257,0.6794950589850947,1.4214514594739331,-1.8789349295019508,-0.7134847643786125,1.9466207130546496,0.18854425844075381,-0.0005311242854856702,0.0006031562067048469,-0.00037497010623677,-0.0018890759161911239,0.0006107818642270129,0.00013008871486660107,0.0031644087911896616,0.2689092457294464,-23.66513442993164,19.628707885742188,17.92273712158203,0.8641458749771118,2.3604629039764404,-0.12080229818820953,,,,,,,,,
1739400706.0280147,-0.7082114909837155,0.679495254068271,1.4214527112754407,-1.8789335108962768,-0.7134883406564018,1.9466207101660167,0.18853751909420552,-0.0005953330352837709,-0.00034766268037159196,-0.0006129751189776979,-0.00011519421523378359,-0.0015141586475001894,0.0005477696002652598,0.0005656205221779325,0.2689092457294464,-23.66513442993164,19.604904174804688,17.87512969970703,0.8641458749771118,2.3604629039764404,-0.06678618490695953,,,,,,,,,
1739400706.0389469,-0.7082116830587133,0.6794989404401722,1.4214507082366614,-1.8789349294373598,-0.7134851397409157,1.9466221838055546,0.18854520474284603,0.0006587345559111033,0.00024552474354543605,-0.0009369166767971617,-0.0007406928437583473,0.0001585045098843827,0.0001979816227428025,0.0013417336331539827,0.2411382496356964,-23.71670913696289,19.628707885742188,17.92273712158203,0.8641458749771118,2.3476455211639404,-0.12080229818820953,0,0,0,0.000,0,0
1739400706.0489721,-0.7082136020850416,0.679496932245717,1.4214489477906909,-1.878929296131819,-0.713484764384072,1.9466184357314764,0.18854387974621659,0.00043981504521977186,0.0015073821499050973,-0.0015478742693745022,-0.00041907686756127287,0.0013602279776291297,-0.0007218846646324,0.0012985871212440115,0.2689092457294464,-23.68893814086914,19.656478881835938,17.84735870361328,0.8641458749771118,2.3796889781951904,-0.10706938803195953,0,0,0,0.000,0,0
1739400706.0590038,-0.708210741060756,0.6794940709016017,1.4214471511569222,-1.8789292843582621,-0.7134874519777566,1.946621466372471,0.1885405599385961,0.000941751229661548,-0.0006053746761854263,-0.0016233481641119182,-0.00040624354404637564,-0.0014058226062520676,0.0003584957996119291,-0.001191381018959039,0.2689092457294464,-23.68893814086914,19.680282592773438,17.84735870361328,0.8504129648208618,2.3540542125701904,-0.08051909506320953,0,0,0,0.000,0,0
1739400706.0690064,-0.7082136020352535,0.6794931420486473,1.4214507075058787,-1.8789313631304334,-0.7134894136130175,1.9466184178534898,0.18854343477862506,0.0010101010610285709,-0.0005703455193494303,-0.0012753310126231191,-0.000893471221765205,-0.0021073434679526994,-0.00018758145044721954,-6.326476980073265e-05,0.2689092457294464,-23.63736343383789,19.628707885742188,17.87512969970703,0.8641458749771118,2.3796889781951904,-0.14094389975070953,0,0,0,0.000,0,0
1739400706.0800529,-0.7082136107504983,0.6794998658786312,1.421452787687087,-1.878931337002862,-0.7134830161645712,1.9466198303712043,0.1885470144059305,0.00024095403713111132,0.0011586401380277033,-0.0003487589614554598,-0.0014699767561669047,4.744569981966328e-05,-0.000763564188015831,0.0028657825110396298,0.2689092457294464,-23.71670913696289,19.628707885742188,17.87512969970703,0.8641458749771118,2.3668715953826904,-0.16108550131320953,0,0,0,0.000,0,0
1739400706.0909946,-0.7082139140883144,0.6794969332137988,1.4214496207502936,-1.8789292843579095,-0.7134842136941416,1.9466199509964521,0.18854683605303693,9.573765408862999e-05,0.00019925726698565049,-0.0009825853797097743,0.00022948600455448677,0.0009749781033098663,0.0002940266359975028,0.0018624414012364543,0.2689092457294464,-23.68893814086914,19.656478881835938,17.84735870361328,0.8504129648208618,2.3668715953826904,-0.13361968100070953,0,0,0,0.000,0,0
1739400706.1019719,-0.708213602549122,0.6794969434802773,1.4214516092143519,-1.8789328995760406,-0.7134855279307284,1.9466206952482104,0.18854393204577227,0.00023208082263309832,-0.00017698187600006957,0.0008837144745155559,-0.0007711305757523871,0.00017211434899886828,-0.0006097419488652894,-0.0001599587185479236,0.2689092457294464,-23.68893814086914,19.656478881835938,17.89893341064453,0.8705545663833618,2.3604629039764404,-0.11347807943820953,0,0,0,0.000,0,0
1739400706.111989,-0.7082120063197043,0.6794990338671143,1.4214524823548085,-1.8789323178180477,-0.7134847643778149,1.9466207087121647,0.18854020172190433,0.0010775821195378606,0.001971608821030572,4.022153608262383e-05,-0.0007518545571528493,0.0003476035360402432,0.0007029877476280942,-0.0003988288693161885,0.2173345386981964,-23.71670913696289,19.604904174804688,17.87512969970703,0.8641458749771118,2.3604629039764404,-0.08051909506320953,0,0,0,0.000,0,0
1739400706.122051,-0.7082136021195177,0.6794989298671599,1.4214493048228627,-1.878928781786702,-0.7134847687928741,1.9466184357321576,0.1885404014834041,0.0010071549660441235,0.001115987648609595,-0.0012328936639256285,0.0008003506298141316,0.0008089915104457636,-0.0005262078718890682,-0.0009303137864120243,0.2689092457294464,-23.71670913696289,19.656478881835938,17.87512969970703,0.8641458749771118,2.3796889781951904,-0.08051909506320953,0,0,0,0.000,0,0
1739400706.133034,-0.7082133638077895,0.6795007203872698,1.4214488457901349,-1.8789292477140191,-0.7134855764914445,1.946621466372471,0.18853968003087934,0.00022555359473686574,0.0008169202451035611,-0.0003704564566884506,0.0005165989414081574,-0.00034665929979919147,0.0006058138933780473,-0.001538808930177989,0.2689092457294464,-23.74051284790039,19.656478881835938,17.84735870361328,0.8705545663833618,2.3540542125701904,-0.11347807943820953,0,0,0,0.000,0,0
1739400706.1439967,-0.7082113647417816,0.6794951929133014,1.421450721673909,-1.8789313641477117,-0.7134890559124464,1.9466184357321576,0.18853706666104436,0.0007433771498077031,-0.0005546172535521946,0.0001338315937752064,1.3067111199403291e-05,-2.954344335204053e-05,0.0003544382470341477,-0.0009504452828554304,0.2411382496356964,-23.66513442993164,19.628707885742188,17.87512969970703,0.8641458749771118,2.3796889781951904,-0.05396880581974983,0,0,0,0.000,0,0
1739400706.1540363,-0.7082098533533564,0.6794997399651397,1.421445996906263,-1.878929257213012,-0.7134858799018642,1.9466199510523143,0.18854671941695494,0.0012710045602349817,0.001316022923490643,-0.0008282918199492699,0.0008901770372015374,0.0010686607237052367,6.175497128675143e-05,0.0007518615277293235,0.2173345386981964,-23.68893814086914,19.656478881835938,17.84735870361328,0.8705545663833618,2.3668715953826904,-0.13361968100070953,0,0,0,0.000,0,0
1739400706.1650474,-0.70821453809717,0.6794952194553316,1.4214469137098535,-1.8789275016808904,-0.7134863258137736,1.9466207087123928,0.18854445679643614,-0.0003091616129741121,0.0005770086797280916,-0.0018886795059446031,0.0005739195394893666,-0.0008975744575257894,0.0004884144125771265,0.002339597943520383,0.2689092457294464,-23.66513442993164,19.680282592773438,17.82355499267578,0.8769632577896118,2.3604629039764404,-0.11347807943820953,0,0,0,0.000,0,0
1739400706.17602,-0.7082116330374472,0.6794969319245459,1.4214513875875012,-1.8789313906388718,-0.7134831408206647,1.9466191933370551,0.1885363066794527,0.0012718099715637045,3.4174691177049936e-07,-0.0005294702575192905,-0.0006789163439929682,0.0013084899923878593,-0.0010011655311899313,-0.0006548020013203743,0.2411382496356964,-23.68893814086914,19.628707885742188,17.87512969970703,0.8504129648208618,2.3732802867889404,-0.08051909506320953,0,0,0,0.000,0,0
1739400706.18699,-0.7082137061210542,0.6794970359260657,1.4214548769055415,-1.8789291832624468,-0.7134860062585126,1.9466206938135024,0.18853893684024783,0.0002240657263285881,0.002025160044287413,0.0015413365172394027,0.0007518156463619623,0.0006361591045639025,-0.00026083250379790846,-0.00013841736449462312,0.2689092457294464,-23.68893814086914,19.604904174804688,17.84735870361328,0.8504129648208618,2.3604629039764404,-0.06678618490695953,0,0,0,0.000,0,0
1739400706.1979702,-0.7082153146050236,0.6794969319251327,1.4214509295438362,-1.878934100825732,-0.7134851264369182,1.9466207040219174,0.18854177531707633,-0.0012217099731605752,0.00014591236593479028,8.796958585183089e-05,-0.0012873219997104413,-8.013657811570032e-05,-4.063303045271803e-05,-0.0004555835290652022,0.2927129566669464,-23.68893814086914,19.628707885742188,17.89893341064453,0.8641458749771118,2.3604629039764404,-0.12080229818820953,0,0,0,0.000,0,0
1739400706.208005,-0.7082118381462724,0.6794915089422302,1.4214506967966347,-1.8789270550642068,-0.7134849365750427,1.9466191933921568,0.18854427982179434,0.0006992280885230249,-0.0012957765487518961,-0.0001337059715491518,0.00045893678149745476,-0.00016191865386568446,-0.0013768322885362224,0.0010859159602306003,0.2411382496356964,-23.61355972290039,19.628707885742188,17.84735870361328,0.8641458749771118,2.3732802867889404,-0.11347807943820953,0,0,0,0.000,0,0
1739400706.2190144,-0.7082116079987232,0.6794969319245456,1.421449338169679,-1.8789271384400439,-0.7134838984833989,1.9466199510523143,0.1885372486042673,0.0010846899114055454,0.0008381533180813269,-0.000894369799331426,-0.00025455681795279054,0.00016710121611333476,2.5351703630058957e-05,-0.0013389037900541335,0.2411382496356964,-23.68893814086914,19.656478881835938,17.84735870361328,0.8568216562271118,2.3668715953826904,-0.08051909506320953,0,0,0,0.000,0,0
1739400706.2290916,-0.7082116042498714,0.6794952197248068,1.4214509513699285,-1.878931351888298,-0.7134855235095132,1.9466184357321576,0.1885428234607616,0.001094542399785527,-7.86482180354281e-05,-0.001114522246025924,0.0005102904786857341,0.000581241245364158,9.048435344112912e-05,0.0007384162910722234,0.2411382496356964,-23.66513442993164,19.628707885742188,17.87512969970703,0.8705545663833618,2.3796889781951904,-0.10066069662570953,0,0,0,0.000,0,0
1739400706.2399888,-0.7082115738343113,0.6794953235123338,1.4214486540926752,-1.8789352925920801,-0.7134862341350547,1.9466207086572118,0.18854308483574442,0.001373006190787397,0.0007258008404708447,-0.001947473029221711,-0.0019699238745891703,0.0007578509946092573,0.0004055618822458116,-5.4839121494908855e-05,0.2411382496356964,-23.66513442993164,19.656478881835938,17.89893341064453,0.8641458749771118,2.3604629039764404,-0.14094389975070953,0,0,0,0.000,0,0
1739400706.250049,-0.7082145380968728,0.6794969319263087,1.4214524824097419,-1.8789313638450955,-0.7134871171561911,1.946620708712392,0.18854046452340434,0.00039598594756675776,0.0005036243947756761,0.0008024077456070644,-0.00020398683962000955,-0.0002523812664878054,0.00032449157937187545,0.0007000884706211321,0.2689092457294464,-23.68893814086914,19.604904174804688,17.87512969970703,0.8568216562271118,2.3604629039764404,-0.10706938803195953,0,0,0,0.000,0,0
1739400706.261052,-0.7082099002941981,0.6794952194038144,1.4214475262399673,-1.8789313366758171,-0.7134847643958847,1.9466199510523143,0.18854212070474974,0.0007626977514218759,-0.0015545047472135263,-0.00011270065305242342,6.632324111150492e-05,0.0013356063899058691,0.000222619612682434,0.0012816645327373495,0.2173345386981964,-23.66513442993164,19.680282592773438,17.87512969970703,0.8641458749771118,2.3668715953826904,-0.12080229818820953,0,0,0,0.000,0,0
1739400706.2719545,-0.7082099956236899,0.6794922109524908,1.4214506958867734,-1.8789335216887324,-0.7134847863990016,1.946619032484224,0.1885459223763104,0.00020702122588085053,-0.0014720110472629057,-0.00015157122123697907,-0.0008457191856860354,-0.00032228524447623316,-0.0004568170260671339,0.0004912264924110783,0.2173345386981964,-23.61355972290039,19.628707885742188,17.87512969970703,0.8641458749771118,2.3732802867889404,-0.12721098959445953,0,0,0,0.000,0,0
1739400706.282052,-0.7082116041446135,0.679497325446485,1.4214531672896733,-1.8789312542960581,-0.71348605627239,1.946620706557606,0.18853949746939447,3.104902007857534e-05,-0.0001683941316029218,0.001243081877514094,3.2945582486181295e-05,-0.0010968766840076245,0.0007087214482196505,8.427903292472245e-05,0.2411382496356964,-23.66513442993164,19.604904174804688,17.87512969970703,0.8705545663833618,2.3604629039764404,-0.08051909506320953,0,0,0,0.000,0,0
1739400706.2929788,-0.7082109668882549,0.679498322711479,1.421448899679235,-1.8789370752685484,-0.713484645389474,1.946619830371293,0.18853975278446425,0.0011006912978115627,0.00021898253099265913,-0.0017840163728267805,-0.0020490748646212493,0.0006807689846689063,-0.00047470988990040095,-0.00025654664270419734,0.2411382496356964,-23.68893814086914,19.680282592773438,17.92273712158203,0.8641458749771118,2.3668715953826904,-0.10066069662570953,0,0,0,0.000,0,0
1739400706.3030171,-0.7082136020729132,0.6794910725558118,1.4214488457862469,-1.8789282170821362,-0.7134879830265181,1.9466191933901924,0.18853241041236532,-0.00047392614024449587,-0.00156917293041554,0.0006920116339702651,0.0005120880872489214,0.00012949036491266398,0.0001571539085720693,-0.003511735201458929,0.2689092457294464,-23.63736343383789,19.656478881835938,17.82355499267578,0.8641458749771118,2.3732802867889404,-0.04756011441349983,0,0,0,0.000,0,0
1739400706.3130205,-0.7082153174933673,0.6794969317791374,1.4214527391866767,-1.8789299996259157,-0.7134837451846214,1.946621466372471,0.18853932430119283,-0.000690801346710615,0.00039677049020056076,0.0011684154565934643,0.0003691362655514625,0.0010452085670503218,0.0007103940678551186,-0.0010724233433931597,0.2927129566669464,-23.68893814086914,19.604904174804688,17.84735870361328,0.8641458749771118,2.3540542125701904,-0.10706938803195953,0,0,0,0.000,0,0
1739400706.325031,-0.7082164101247642,0.6794971660349625,1.421451473157849,-1.8789292843621006,-0.7134838984747294,1.9466191531652333,0.1885405583987472,-0.00018859071929525187,0.000104060676046526,0.0005116769479489473,-1.69960837217939e-05,0.0003402839627261787,-0.0004116581074762829,-0.00029517153237231176,0.2689092457294464,-23.68893814086914,19.656478881835938,17.84735870361328,0.8568216562271118,2.3732802867889404,-0.08051909506320953,0,0,0,0.000,0,0
1739400706.3360274,-0.7082156266261691,0.6794952206882242,1.4214489221810718,-1.8789314301373876,-0.7134855222013179,1.946621010690368,0.18854450208440457,-0.0009601656905548736,-0.00062113889151931,-0.000741408497848559,-0.0004029011028997602,0.0008779042912165013,3.915567304349282e-05,0.0026641860894621137,0.2927129566669464,-23.66513442993164,19.656478881835938,17.84735870361328,0.8705545663833618,2.3668715953826904,-0.14094389975070953,0,0,0,0.000,0,0
1739400706.3470254,-0.7082136367561626,0.6794989299724177,1.421448624566467,-1.8789292843944019,-0.7134855240000891,1.9466207085647946,0.18853689909685029,0.00019798747886320435,0.0008523847119626484,-0.0003140803137322112,0.0007785271418974775,0.0016508869736631072,0.00039571212668757357,-0.0009411290917878583,0.2689092457294464,-23.71670913696289,19.656478881835938,17.84735870361328,0.8705545663833618,2.3604629039764404,-0.08051909506320953,0,0,0,0.000,0,0
1739400706.3571098,-0.7082137060854209,0.6794969319245462,1.4214555680459844,-1.878925705776718,-0.713485122005595,1.9466191933922354,0.1885373715524073,-0.00041257099771350276,-0.0005005144844254793,0.0003073146860092372,0.001489430729420854,0.00014033723816195994,-0.0003025900760577137,-0.0005374207633274549,0.2689092457294464,-23.68893814086914,19.604904174804688,17.79975128173828,0.8641458749771118,2.3732802867889404,-0.08051909506320953,0,0,0,0.000,0,0
1739400706.3679798,-0.7082152792837525,0.6795006423861298,1.421451648231431,-1.8789313994691148,-0.7134849733284003,1.946621466372471,0.18853858252975958,-0.00025488900866612295,0.0019051527456698989,0.0004950185198656241,-0.0008637878029411858,-0.00020533179350245225,0.0003193052850701938,-0.0019528279356097941,0.2927129566669464,-23.74051284790039,19.628707885742188,17.87512969970703,0.8568216562271118,2.3540542125701904,-0.06678618490695953,0,0,0,0.000,0,0
1739400706.3780336,-0.7082136020819106,0.6794952184226679,1.4214528670642579,-1.8789291389096416,-0.713488552112542,1.9466207087123928,0.18854479792501458,0.0003010354119842715,-8.08818441669373e-06,0.0007174144942133784,-3.249350924954767e-05,-0.0007370240151441486,0.0002077736097331212,6.732644016320594e-05,0.2689092457294464,-23.66513442993164,19.628707885742188,17.87512969970703,0.8568216562271118,2.3604629039764404,-0.12080229818820953,0,0,0,0.000,0,0
1739400706.388039,-0.7082136800848452,0.6794969322455324,1.4214516907425918,-1.878931363117872,-0.7134866015431536,1.9466184357321576,0.18854217814354818,-0.00018209735057939094,0.0005982303285135969,0.0006898154126665181,-0.00019098964639785806,-0.0022328485896506317,-9.021923109952244e-05,0.00104359074091541,0.2689092457294464,-23.68893814086914,19.628707885742188,17.87512969970703,0.8705545663833618,2.3796889781951904,-0.09425200521945953,0,0,0,0.000,0,0
1739400706.398049,-0.7082153146057574,0.679496931924551,1.4214508073520218,-1.8789306253446498,-0.7134847643959967,1.9466207087123928,0.18854222759748496,-0.0006613613788717861,0.0005380568495039623,0.0006949342585097294,0.0007369299582216245,0.000688542931712796,0.00010189743919926153,-0.0008999565002894876,0.2927129566669464,-23.68893814086914,19.628707885742188,17.87512969970703,0.8641458749771118,2.3604629039764404,-0.10706938803195953,0,0,0,0.000,0,0
1739400706.4090092,-0.7082116041428522,0.6794969328875227,1.421453477782164,-1.8789292721440702,-0.7134846471307186,1.9466190727112271,0.18854095278253732,0.0003251481184221505,0.0009717099442212404,0.00028982533397691883,0.0015370238581239267,0.002657023671350191,-0.0003210904585488072,-0.0009778646921742426,0.2411382496356964,-23.68893814086914,19.628707885742188,17.84735870361328,0.8641458749771118,2.3732802867889404,-0.12080229818820953,0,0,0,0.000,0,0
1739400706.4199572,-0.7082153146044364,0.679496931924551,1.4214507728129084,-1.8789331468248684,-0.7134885535835,1.9466206684847085,0.1885381737811244,-0.00042288956302418996,-0.0003871697995620842,-0.00013860361090433678,7.799049729124085e-05,-0.00038684499758377753,0.00041627298251775083,-0.0016614556905618237,0.2927129566669464,-23.68893814086914,19.628707885742188,17.89893341064453,0.8568216562271118,2.3604629039764404,-0.06037749722599983,0,0,0,0.000,0,0
1739400706.4300618,-0.7082115953125344,0.6794920155613384,1.4214478323589306,-1.8789313997962382,-0.7134861951315488,1.946619951051633,0.18853817920453053,0.000516560417609166,-0.0008404249686815525,-0.001344210861755602,7.167297639742624e-05,-0.0013928478121130613,-0.0010830586954421058,-0.0009622541171425338,0.2411382496356964,-23.63736343383789,19.680282592773438,17.87512969970703,0.8641458749771118,2.3668715953826904,-0.06037749722599983,0,0,0,0.000,0,0
1739400706.441016,-0.7082144122908426,0.6794955212630543,1.421448616063653,-1.8789313656218583,-0.7134852412229501,1.9466184312073096,0.1885349772332936,-0.0004687820092697468,-0.0005334146919408578,0.0007578906761800303,-0.00026215873742507534,-0.00025205906073293583,-0.0011966987763095947,-0.00327285592092716,0.2411382496356964,-23.66513442993164,19.656478881835938,17.87512969970703,0.8641458749771118,2.3796889781951904,-0.06037749722599983,0,0,0,0.000,0,0
1739400706.4510257,-0.7082139141358217,0.6794910757008613,1.4214468588908016,-1.878930008444143,-0.7134892327416145,1.9466199510522377,0.18854363615095143,-0.0009889876313674472,-0.002521292131821725,-6.621623858409553e-05,-8.399229996488455e-05,-0.0017679584983175188,0.0005017065879784228,0.0010608243093133169,0.2689092457294464,-23.63736343383789,19.680282592773438,17.84735870361328,0.8705545663833618,2.3668715953826904,-0.13361968100070953,0,0,0,0.000,0,0
1739400706.4610767,-0.7082119161526971,0.6794962137960278,1.4214486415682528,-1.8789313716338518,-0.7134839029584827,1.9466199376433133,0.18854131365314505,0.0011582180610922614,0.00013063332692063863,0.0006049506336923013,-0.0002366109983263238,0.000354603358240859,0.0003615707923670974,0.0006725673469513517,0.2411382496356964,-23.68893814086914,19.656478881835938,17.87512969970703,0.8568216562271118,2.3668715953826904,-0.08692778646945953,0,0,0,0.000,0,0
1739400706.4719882,-0.708211846814827,0.6794950201567,1.4214507979222335,-1.8789290400889862,-0.7134873935141246,1.9466203421996227,0.18854091384826852,0.0004716275441161148,6.829279853192295e-05,0.0005932142692209412,0.0011187088666477537,-0.0004535293104233368,0.0001320319565803752,0.00038064812474040163,0.2411382496356964,-23.68893814086914,19.628707885742188,17.84735870361328,0.8833719491958618,2.3604629039764404,-0.11347807943820953,0,0,0,0.000,0,0
1739400706.4830058,-0.7082136020878148,0.6794968259283567,1.4214534509087342,-1.8789274986244515,-0.7134842561143829,1.9466199510461075,0.18854076665288091,-0.00011361847517842353,-0.00036228447281018314,0.0011982324561800514,0.0010410106481361357,0.0002715574250229011,0.0010386862851143096,-0.0012458455527469148,0.2689092457294464,-23.68893814086914,19.628707885742188,17.82355499267578,0.8568216562271118,2.3668715953826904,-0.09425200521945953,0,0,0,0.000,0,0
1739400706.4939508,-0.7082153146044364,0.6794934557871743,1.421452708479927,-1.8789313759216697,-0.7134878721968182,1.946621466372471,0.18853666242370618,-0.00034654007714410534,-0.0012045944127068442,-0.00029858101186376975,-0.0004265217458941236,-0.0009981057319572817,0.0006271053415936129,-0.0018092330380311149,0.2927129566669464,-23.63736343383789,19.604904174804688,17.87512969970703,0.8568216562271118,2.3540542125701904,-0.04756011441349983,0,0,0,0.000,0,0
1739400706.5040214,-0.7082116041428522,0.6794932213579133,1.4214554886859871,-1.878934463589646,-0.7134855221050888,1.9466199505556847,0.18854532285632447,0.0005931118718538037,-0.0012510591252015675,0.000584811639371057,-0.0022464397139009373,-0.0008571792126603786,-0.0003590496761383417,0.0006773058988116878,0.2411382496356964,-23.63736343383789,19.604904174804688,17.87512969970703,0.8705545663833618,2.3668715953826904,-0.12080229818820953,0,0,0,0.000,0,0
1739400706.5160112,-0.7082116041428522,0.6794961815248721,1.4214545583667293,-1.8789313600954742,-0.7134862798613967,1.9466207087123901,0.1885437050955748,0.0007514215687939301,0.0007427156667865627,0.00038554082329219676,-0.000323257932742611,-0.0007784791693112266,7.638297116270185e-05,0.000574365217051135,0.2411382496356964,-23.66513442993164,19.577133178710938,17.87512969970703,0.8769632577896118,2.3604629039764404,-0.10706938803195953,0,0,0,0.000,0,0
1739400706.5271065,-0.7082144094864528,0.679501035897991,1.421456738930823,-1.8789309215722967,-0.713485523582191,1.946619193392236,0.18854690913923303,-0.001191090049424672,0.001718018290348732,0.0003033853391786281,-0.0009667402296796786,0.0008558577256858696,-0.0003559964335382524,0.001897034015510768,0.2689092457294464,-23.71670913696289,19.577133178710938,17.89893341064453,0.8705545663833618,2.3732802867889404,-0.10706938803195953,0,0,0,0.000,0,0
1739400706.5380774,-0.7082082572497509,0.6794932991489412,1.4214513857097422,-1.8789331896557693,-0.713483898698524,1.9466199510523143,0.18854603481883703,0.0016465314230437946,-0.0004955951552933515,-0.0001805903536583955,-8.297388399989078e-05,0.0005248768521993322,0.00039582264014102807,0.0014172231385336256,0.1935308277606964,-23.63736343383789,19.628707885742188,17.89893341064453,0.8568216562271118,2.3668715953826904,-0.12080229818820953,0,0,0,0.000,0,0
1739400706.5490153,-0.7082136804062787,0.6794949819486509,1.4214525156912174,-1.8789311158817783,-0.7134839382169138,1.9466184178534898,0.18853893686827938,-0.0018028623201647134,0.00010681209381298496,-3.4356230257131214e-05,4.492474056578272e-05,0.00020030182854615658,-0.000267141189429213,0.0006214912378722585,0.2689092457294464,-23.66513442993164,19.604904174804688,17.87512969970703,0.8568216562271118,2.3796889781951904,-0.06678618490695953,0,0,0,0.000,0,0
1739400706.5600612,-0.7082116824654267,0.6794953060704073,1.4214507300011265,-1.8789335100227451,-0.7134863140987037,1.9466199510522135,0.18853981592520716,-0.0002611589493718926,0.0003068698850495321,-0.0006937547688135616,5.285507190964974e-05,-0.0009850819717706844,-0.0002327862267937552,-0.0012172669159833042,0.2411382496356964,-23.66513442993164,19.628707885742188,17.87512969970703,0.8641458749771118,2.3668715953826904,-0.07411040365695953,0,0,0,0.000,0,0
1739400706.5709412,-0.7082136020841473,0.6794915349430994,1.4214506971078056,-1.8789313906509852,-0.7134838986527554,1.9466199510523143,0.1885444569051877,-0.0001414374494829611,-0.000929581243206156,0.00023080589248452297,-0.00023866721708142765,0.0013592680792969829,-0.0002540066622760028,0.0008157247359315226,0.2689092457294464,-23.61355972290039,19.628707885742188,17.87512969970703,0.8568216562271118,2.3668715953826904,-0.11347807943820953,0,0,0,0.000,0,0
