IITGN-Robotics/Franka_IITGN_ROBOTICS/franka_ros/franka_iitgn/data/b_07.csv
time,fr3_joint1_pos,fr3_joint2_pos,fr3_joint3_pos,fr3_joint4_pos,fr3_joint5_pos,fr3_joint6_pos,fr3_joint7_pos,fr3_joint1_vel,fr3_joint2_vel,fr3_joint3_vel,fr3_joint4_vel,fr3_joint5_vel,fr3_joint6_vel,fr3_joint7_vel,fr3_joint1_eff,fr3_joint2_eff,fr3_joint3_eff,fr3_joint4_eff,fr3_joint5_eff,fr3_joint6_eff,fr3_joint7_eff,flexpin1,flexpin2,flexpin3,Force,ContactMic,ContactMic_gt
1739400735.028606,-0.7081226678699238,0.6790792300836268,1.4213418489361747,-1.8789569409254072,-0.7131295412470875,1.9468444943734957,0.18832112598716189,0.0015844572181245072,0.001621692228792818,-0.0009529137204682067,0.0006048271352280493,-4.35071866109345e-05,-0.0009832983897511526,0.0005334870012279563,0.2173345386981964,-23.71670913696289,19.628707885742188,17.84735870361328,0.9419656991958618,2.3732802867889404,-0.12721098959445953,,,,,,,,,
1739400735.0395584,-0.7081287297974801,0.6790787607590651,1.4213441290530482,-1.8789617571028816,-0.7131273879660314,1.9468446166870312,0.1883223985184689,-0.0005134246751047369,0.0021081178412699934,0.00026790247060438986,-0.001518062409106455,0.00033375388949444034,0.00024044925171799457,0.0018220071222791445,0.2927129566669464,-23.74051284790039,19.604904174804688,17.89893341064453,0.9227396249771118,2.3732802867889404,-0.14094389975070953,,,,,,,,,
1739400735.049607,-0.7081236346683754,0.6790835071454306,1.4213303261715737,-1.878955779253379,-0.7131291712904566,1.9468387071491051,0.18832950623416794,0.000148064066525834,0.0012765238713233053,-0.0018274784978475882,7.15015604745777e-05,0.0005168946848313551,-8.700065939429522e-05,0.0030713422651963483,0.2173345386981964,-23.58578872680664,19.501754760742188,17.84735870361328,0.8568216562271118,2.3540542125701904,-0.13361968100070953,,,,,,,,,
1739400735.0605469,-0.7081249992250898,0.6790983002409677,1.4213168504733016,-1.8789580137590027,-0.7131371122803993,1.9468322490253993,0.1883214834808322,-0.0004700327970716096,0.0016366713041727952,-0.0034577062929317883,4.839029809244769e-05,0.0007785325931755046,-0.0010657616820597192,-0.001562439261329289,0.1935308277606964,-23.53818130493164,19.426376342773438,17.84735870361328,0.8568216562271118,2.3540542125701904,-0.08051909506320953,,,,,,,,,
1739400735.0706284,-0.7081250901903934,0.6791188375835602,1.4212901364150774,-1.8789643739354458,-0.7131434941108892,1.9468267045451784,0.18832885706029534,-0.0005479227214282269,0.0020764591299382313,-0.002727200155821624,-0.0010960652380952757,-0.0002498417683130654,-0.00041387882079692046,0.0003195322407601892,0.1935308277606964,-23.56198501586914,19.501754760742188,17.89893341064453,0.8568216562271118,2.3604629039764404,-0.07411040365695953,,,,,,,,,
1739400735.0815375,-0.708131669980811,0.6791250090104961,1.4212724494498519,-1.8789689306827302,-0.713141236619374,1.9468196631932817,0.1883356883782484,-0.0027936064693960382,0.0009333583645838152,-0.002209382141072442,9.28143586273807e-05,0.0012464908081927092,-0.0006050918149311431,0.0015205248044763934,0.2411382496356964,-23.51041030883789,19.553329467773438,17.92273712158203,0.8375955820083618,2.3796889781951904,-0.10066069662570953,,,,,,,,,
1739400735.0916657,-0.7081316656117248,0.6791359912286704,1.4212576221238884,-1.8789661619113438,-0.7131492682265531,1.9468171706551753,0.1883359963045983,-0.0002747152073077641,-0.00015324974898957606,-0.0012199969728707832,-9.458072931106367e-05,-0.0010782904377009996,0.0006361998777261843,0.0006872439643756385,0.2411382496356964,-23.56198501586914,19.577133178710938,17.92273712158203,0.8440042734146118,2.3604629039764404,-0.12080229818820953,,,,,,,,,
1739400735.102607,-0.7081360593841443,0.6791511480593678,1.4212520251199374,-1.8789635418136597,-0.7131507593543286,1.946816092901576,0.18833367494452646,-0.0009706174419877524,0.0015281055474000809,-0.00011419986105924295,-0.00032296698679352585,-0.0007959462106087396,-0.0001638136613663378,-0.0010128065933972643,0.2689092457294464,-23.63736343383789,19.553329467773438,17.87512969970703,0.8504129648208618,2.3604629039764404,-0.07411040365695953,,,,,,,,,
1739400735.11464,-0.7081337792529642,0.6791616751691527,1.4212398147844758,-1.8789555655444523,-0.7131503075127957,1.94681856167681,0.18833769147230858,-0.00019175045702352002,-0.0006582469804230274,-0.0009130777875218032,0.0007491476916672843,0.00011640031033513355,-0.0007843341588102956,-0.0002600363488712144,0.2689092457294464,-23.68893814086914,19.628707885742188,17.77594757080078,0.8375955820083618,2.3476455211639404,-0.10706938803195953,,,,,,,,,
1739400735.1265478,-0.7081423138823396,0.6791814935987206,1.4212295458049697,-1.8789566296578755,-0.7131492314195621,1.9468129139868786,0.18834150607215977,-0.00037670093317186063,0.002299813306251234,-0.0009996960105333173,0.0009737995302955844,-0.0014173184679971515,-0.0003516094033153086,0.002091652380420039,0.3442876636981964,-23.79208755493164,19.680282592773438,17.79975128173828,0.8641458749771118,2.3604629039764404,-0.12721098959445953,,,,,,,,,
1739400735.1366105,-0.7081423138881946,0.6791842260477892,1.421218247972326,-1.8789643873153672,-0.7131490972594255,1.946813503232509,0.18833993578294977,-0.00040188845059025406,0.00031697915747761255,-0.00020307843149105467,-0.001388216450229156,0.00036199606738337325,-0.0006622503585693945,-0.001043781231042608,0.3442876636981964,-23.74051284790039,19.704086303710938,17.92273712158203,0.8504129648208618,2.3870131969451904,-0.08692778646945953,,,,,,,,,
1739400735.147532,-0.7081470066229952,0.6791904863691055,1.4212000821209132,-1.8789667706325393,-0.7131486438135267,1.946812402280626,0.1883383108198273,0.00036205157495175055,-0.0002282337256776454,-0.0015557907600170688,-0.0011026147480651376,0.001380866329956997,-0.00013187511403596323,-0.002093515538066671,0.3680913746356964,-23.76828384399414,19.783432006835938,17.92273712158203,0.8504129648208618,2.3604629039764404,-0.07411040365695953,,,,,,,,,
1739400735.1576118,-0.7081455325376667,0.679196075802904,1.4211970388832604,-1.8789633493993492,-0.7131488480990831,1.9468116398052813,0.18833649370698163,0.00017866308608676767,-0.0009350570743854929,-0.00025515485524888875,0.000905393792660522,-0.0003120841158323906,-0.00024284171699543537,-0.0018437346138255534,0.3442876636981964,-23.74051284790039,19.731857299804688,17.87512969970703,0.8568216562271118,2.3668715953826904,-0.06037749722599983,,,,,,,,,
1739400735.1695476,-0.708142093636953,0.6791934131307586,1.4211993891706476,-1.8789652450301486,-0.713153587866103,1.9468101242697566,0.1883455085856067,0.0013997546953778927,-0.0022862156687409327,0.0010011926314331444,-0.0003307353292854747,-0.0008117293150224495,-0.0011523942875227612,-0.000120357450620056,0.2927129566669464,-23.68893814086914,19.656478881835938,17.89893341064453,0.8641458749771118,2.3796889781951904,-0.13361968100070953,,,,,,,,,
1739400735.1806436,-0.7081412615152683,0.679196524460975,1.4212015090598902,-1.8789612236531852,-0.7131515642977776,1.946810881929834,0.18834398725440438,-9.76261116281069e-05,-0.0005709768680790892,0.0004811798850281897,0.0014134264686919598,0.0010980781309726994,-0.0008455358507758412,0.000362124969094087,0.2411382496356964,-23.68893814086914,19.628707885742188,17.84735870361328,0.8440042734146118,2.3732802867889404,-0.12080229818820953,,,,,,,,,
1739400735.190662,-0.7081381492967272,0.6791951300309399,1.4212017736426001,-1.878966843317401,-0.7131530927019054,1.9468108688478816,0.18834528911426282,0.0012228354873892065,-0.00032930606334277983,-0.000639319995736802,-0.0007731239141296372,-0.0006075786020152498,-0.0004532245985525917,0.0017506265004576757,0.2411382496356964,-23.66513442993164,19.628707885742188,17.89893341064453,0.8568216562271118,2.3732802867889404,-0.10066069662570953,,,,,,,,,
1739400735.202591,-0.7081401109478767,0.6791927169215934,1.4212044094030936,-1.8789625969916508,-0.7131523365136206,1.9468116395898383,0.188341774423305,0.00023042200243005283,0.000400780760458675,-0.0009056637787992207,0.0007928608003184249,-0.000972034997645771,6.228547896048957e-05,7.643514401602114e-05,0.2689092457294464,-23.63736343383789,19.628707885742188,17.87512969970703,0.8504129648208618,2.3668715953826904,-0.10066069662570953,,,,,,,,,
1739400735.2126796,-0.7081401095567049,0.6791950396198654,1.42120827442856,-1.878963544656165,-0.7131516303637374,1.9468131549100687,0.1883424230701543,-0.00035618276742984827,0.000693719267237416,1.4478526065541937e-06,0.0003042733315973702,0.0003647478189654031,0.0006754592567727801,0.0005901799450357327,0.2689092457294464,-23.63736343383789,19.577133178710938,17.87512969970703,0.8440042734146118,2.3540542125701904,-0.10706938803195953,,,,,,,,,
1739400735.2235825,-0.7081381231715685,0.6791925757926326,1.4212123053870576,-1.878963312343809,-0.7131523352057244,1.9468123972499904,0.18834312737052797,0.00023323047401039302,0.0007611000295356877,0.0006320670495089768,0.00019081246682679597,-0.000435195456968121,0.00042216522940290396,-0.0005447169439048145,0.2411382496356964,-23.63736343383789,19.529525756835938,17.87512969970703,0.8504129648208618,2.3604629039764404,-0.11347807943820953,,,,,,,,,
1739400735.2345364,-0.7081401480758438,0.679196520588947,1.421217246267093,-1.8789611264838504,-0.7131530927019802,1.9468131549100687,0.18834101300462466,-0.0006781891116868121,0.0031159332668982847,0.0014995193134693958,-0.0001828032805849632,4.249181338623892e-05,0.0006221133477145315,-0.00047134621977611136,0.2689092457294464,-23.68893814086914,19.501754760742188,17.84735870361328,0.8568216562271118,2.3540542125701904,-0.09425200521945953,,,,,,,,,
1739400735.2445633,-0.708138115575402,0.6791927875622735,1.4212133883653453,-1.8789555172910164,-0.713152335041901,1.9468123972499904,0.18834321568361967,0.0008089050065043148,0.0014496114354216343,-0.0007352641974311491,0.0019094791690708135,0.0001674301181010115,-3.762817824338342e-05,0.0006562768827999184,0.2411382496356964,-23.63736343383789,19.553329467773438,17.79975128173828,0.8504129648208618,2.3604629039764404,-0.14094389975070953,,,,,,,,,
1739400735.2556148,-0.708140811602646,0.6791911014960739,1.4212133810169647,-1.8789594496494917,-0.7131566265763248,1.9468123972499904,0.18834787067748957,-0.00040068919984891733,0.0002647949951518678,0.0008107287853833546,-0.0004393241104448522,-0.0015027048861767731,2.6930725023354438e-05,0.0011431359385368784,0.2689092457294464,-23.61355972290039,19.553329467773438,17.82355499267578,0.8504129648208618,2.3604629039764404,-0.11347807943820953,,,,,,,,,
1739400735.2656271,-0.7081425242065756,0.679194095321197,1.421210919757918,-1.878966850991585,-0.7131508641095349,1.9468123972499904,0.1883484256343676,-0.0007022303259401873,0.0005504692655600401,2.8602464742998556e-06,-0.002805453303247889,0.0007442233868219656,0.0007402110021486376,0.00125778479442488,0.2927129566669464,-23.66513442993164,19.577133178710938,17.92273712158203,0.8375955820083618,2.3604629039764404,-0.12721098959445953,,,,,,,,,
1739400735.2756486,-0.7081425254905465,0.6791985224435937,1.421204944736364,-1.8789647769136317,-0.7131528118798108,1.9468123841680383,0.18834168729384637,0.0004777172274691928,0.0013029757003076368,-0.0011884857200103048,-0.00034277256436406165,-0.001346710179803104,-0.00028563905748169716,-0.0003097219369207208,0.2927129566669464,-23.71670913696289,19.656478881835938,17.89893341064453,0.8504129648208618,2.3604629039764404,-0.07411040365695953,,,,,,,,,
1739400735.2866127,-0.7081439396679056,0.6791948119941463,1.4212045457380633,-1.8789590787931456,-0.7131517363302338,1.9468084606754503,0.18834529209670012,-0.00020584184929751302,-0.001065616013012122,-0.00010791543666100232,0.0010964213513971785,0.0014638642235318086,-0.0007166254389838339,0.00024159494614234191,0.2927129566669464,-23.66513442993164,19.628707885742188,17.84735870361328,0.8440042734146118,2.3668715953826904,-0.09425200521945953,,,,,,,,,
1739400735.2975445,-0.7081403783819078,0.6791950504127254,1.4212025680838045,-1.878963312225361,-0.7131541662950883,1.9468108819118888,0.18834873829692605,0.0002683049074305159,-0.00019900357483237019,6.231238947328928e-05,-0.0008374623536424358,-0.0005212603457584704,-0.0008400190754347658,-0.0007578123278543727,0.2689092457294464,-23.66513442993164,19.656478881835938,17.87512969970703,0.8568216562271118,2.3732802867889404,-0.12080229818820953,,,,,,,,,
1739400735.3075862,-0.7081401904513208,0.6791985234409146,1.421200572105522,-1.878964811036174,-0.7131523880419889,1.9468107641922636,0.18834704940972305,0.0005526848675567309,-0.000567766201305418,0.0011889165200544925,-0.0002999421852614358,0.0018028924295759245,-0.0008626849674160325,0.0010010928765067828,0.2689092457294464,-23.71670913696289,19.656478881835938,17.89893341064453,0.8504129648208618,2.3732802867889404,-0.10706938803195953,,,,,,,,,
1739400735.3176467,-0.7081419386017598,0.6792029491542487,1.4212023204070292,-1.8789649613551858,-0.7131536129878006,1.9468101242637736,0.18834127919961396,9.182036701055525e-05,0.0002769227339457273,0.0018435533317348693,0.00018058573800591905,-0.0006170142205526891,-0.0009358547118241195,-0.000213859657927705,0.2927129566669464,-23.76828384399414,19.656478881835938,17.89893341064453,0.8504129648208618,2.3796889781951904,-0.06037749722599983,,,,,,,,,
1739400735.328574,-0.7081364887591941,0.6791986141397601,1.4211993612129106,-1.878966877591305,-0.7131528119541414,1.9468101242697553,0.18833688983749947,-0.0005645937649272671,-0.00027293491104474964,-0.0008744306825465956,0.0011053250243562498,0.00041412840278308736,3.743668004238971e-05,-0.0026746274373968355,0.2173345386981964,-23.71670913696289,19.656478881835938,17.92273712158203,0.8504129648208618,2.3796889781951904,-0.06037749722599983,,,,,,,,,
1739400735.3385787,-0.7081384236219229,0.6792022341160276,1.4212017059069075,-1.878967133739411,-0.7131534900743544,1.946811639589912,0.18834099204087176,0.0008463876326408548,8.02481696485322e-06,0.0003631614710849756,0.00011975217303309286,0.0012385091660507188,0.0006038702194487101,-0.0005890866943381359,0.2411382496356964,-23.76828384399414,19.628707885742188,17.92273712158203,0.8568216562271118,2.3668715953826904,-0.09425200521945953,,,,,,,,,
1739400735.3486667,-0.7081420824075048,0.67920321406405,1.421203370959859,-1.8789633122418563,-0.7131594852916994,1.946811639589912,0.18834236392902512,-0.00013500250071315692,0.0017383293149179431,0.0005443772729896973,0.0011093940604226242,0.00017156027277633897,0.0012717370355435748,-0.0006943713031574096,0.2927129566669464,-23.74051284790039,19.604904174804688,17.87512969970703,0.8705545663833618,2.3668715953826904,-0.06678618490695953,,,,,,,,,
1739400735.358679,-0.7081401211168302,0.6791957825077181,1.42120739269751,-1.8789635430855234,-0.71315712180898,1.9468101242697553,0.1883464102232713,-0.0001454013523506651,-0.0007162001420579141,0.0003785978180525833,9.639909212107655e-05,-0.0015524512706157176,0.0004014362764017996,0.0004326885229930469,0.2689092457294464,-23.63736343383789,19.553329467773438,17.87512969970703,0.8504129648208618,2.3796889781951904,-0.10066069662570953,,,,,,,,,
1739400735.3695977,-0.7081410580891447,0.6791929064068297,1.421203331093355,-1.8789613092933222,-0.7131564312432058,1.9468116395360768,0.1883495489389269,-0.0015627911541954574,-0.002040024648391053,-0.0008050791383303632,0.00018361244551823416,0.00047646925692165814,0.00032165290241264436,0.0029125579605561993,0.2689092457294464,-23.63736343383789,19.604904174804688,17.84735870361328,0.8568216562271118,2.3668715953826904,-0.12721098959445953,,,,,,,,,
1739400735.380574,-0.7081401108816868,0.6791985533441947,1.4212088075019622,-1.878963312237952,-0.7131520984439239,1.946813912570147,0.18834793866696356,4.738256056582607e-05,0.0005839343254527868,3.1180822834675622e-06,-0.0012597254716255465,0.00020683880933095483,0.001031099837749393,0.002037859482102567,0.2689092457294464,-23.71670913696289,19.577133178710938,17.87512969970703,0.8440042734146118,2.3476455211639404,-0.11347807943820953,,,,,,,,,
1739400735.3905823,-0.708140147112824,0.6791918168978388,1.4212141554900373,-1.8789612324476628,-0.7131523901584489,1.9468123972499904,0.18834716349637023,0.0007104373388312117,-0.00047755808769844816,0.0013974898798357499,-0.0004204350874240267,0.0010138628789612982,0.0002667812035089186,0.0007852126416717436,0.2689092457294464,-23.61355972290039,19.501754760742188,17.84735870361328,0.8504129648208618,2.3604629039764404,-0.10706938803195953,,,,,,,,,
1739400735.4015944,-0.7081422165143295,0.6791891065391865,1.4212102930181303,-1.8789612324476628,-0.7131517414516177,1.9468131549100687,0.18834479978947227,0.0005462912553220913,-0.001852108571666314,0.0012152151806934062,0.00032312751966198834,0.0010516655775583766,0.0006946032534404321,-0.0007132317305593107,0.2689092457294464,-23.58578872680664,19.553329467773438,17.84735870361328,0.8440042734146118,2.3540542125701904,-0.08692778646945953,,,,,,,,,
1739400735.4125593,-0.7081439281201042,0.6791928111098707,1.4212064305512557,-1.8789611500313637,-0.7131566748684706,1.946811639589912,0.1883503067615943,-0.0015664253014539488,-0.0013116923324199572,-0.0012707266336063657,-0.0004678645993327223,0.0006374090312001619,0.0005267594183923583,0.0020985453189293723,0.2927129566669464,-23.63736343383789,19.604904174804688,17.84735870361328,0.8568216562271118,2.3668715953826904,-0.13361968100070953,,,,,,,,,
1739400735.422606,-0.7081381496356044,0.6791928133991458,1.4212085103411112,-1.8789611311476397,-0.7131519887063597,1.9468123972499904,0.18834577018185097,0.0007045823673283919,-0.0011584856056547882,-0.0003742367724811177,-0.0006249879224848329,0.0003535677674602706,0.00014901463668660366,0.00018154893668070134,0.2411382496356964,-23.63736343383789,19.577133178710938,17.87512969970703,0.8440042734146118,2.3604629039764404,-0.09425200521945953,,,,,,,,,
1739400735.432619,-0.7081409206217956,0.6791965254959907,1.4212045419104236,-1.8789611172156724,-0.7131586077824017,1.946811639589912,0.18834641022995008,0.0005749407612329662,0.0006529102350455188,-0.0006372871013134601,0.0010010648853526186,-0.0003892522085157498,-0.0003432538514003634,0.000883347680004146,0.2411382496356964,-23.68893814086914,19.628707885742188,17.84735870361328,0.8641458749771118,2.3668715953826904,-0.10066069662570953,,,,,,,,,
1739400735.4436195,-0.7081384626203158,0.6791899796303155,1.4212035685469606,-1.878963311256155,-0.7131544551407241,1.946811521852342,0.18834792554413116,-0.0002906131090882354,-0.00200404224433728,-0.0010040587887079912,-0.0009594503178623366,0.00014772119343492183,0.00018537100929939842,0.00040926241736924016,0.2411382496356964,-23.63736343383789,19.604904174804688,17.87512969970703,0.8641458749771118,2.3668715953826904,-0.11347807943820953,,,,,,,,,
1739400735.45554,-0.7081391606208123,0.6791975669487749,1.4212085099615674,-1.8789689435588541,-0.7131562463878789,1.946811639427742,0.18834792554413116,-0.0011800308503599,0.0003552893806175701,0.002007539229687863,-0.0007227966908049977,-0.00034299912445474976,0.0004595728421763333,0.0009332872236584096,0.2411382496356964,-23.68893814086914,19.577133178710938,17.92273712158203,0.8440042734146118,2.3668715953826904,-0.11347807943820953,,,,,,,,,
1739400735.465629,-0.7081418234029851,0.6792054501022977,1.4212036159868018,-1.8789663989358056,-0.7131587667880884,1.9468084606755232,0.1883471678840528,-0.0004883234685128667,0.0026677536959362168,0.0004964446965051996,-0.0005955316564872589,-0.0009647374361982513,-0.00015997878205616662,0.0011749256139759877,0.2927129566669464,-23.76828384399414,19.628707885742188,17.87512969970703,0.8641458749771118,2.3668715953826904,-0.10706938803195953,,,,,,,,,
1739400735.4766052,-0.7081411097106446,0.6792054427377902,1.4211965095108083,-1.8789707278749446,-0.7131571451936328,1.9468101089476677,0.18834823083355132,-0.0002575996077445415,0.001160845278098429,-0.001797743177229517,-0.0018466702976208589,-0.00043967607578345564,-0.0008867362100621848,0.00034035783092885443,0.2927129566669464,-23.76828384399414,19.704086303710938,17.94654083251953,0.8504129648208618,2.3668715953826904,-0.10706938803195953,,,,,,,,,
1739400735.4866266,-0.7081426280851878,0.6791999761879195,1.4212016765127493,-1.8789653273488933,-0.713156076234847,1.946811625045769,0.1883420500349858,-0.00022892814113658027,0.00030133295603824344,0.0007728172303850818,0.0003352068070072899,0.0013285369189447696,0.000673993122430878,-0.0019503383394802848,0.2927129566669464,-23.68893814086914,19.628707885742188,17.89893341064453,0.8504129648208618,2.3668715953826904,-0.06678618490695953,,,,,,,,,
1739400735.4976125,-0.7081424524843805,0.6791958817902735,1.421197932791572,-1.8789652440501046,-0.7131557078143081,1.946812396550051,0.18834728647357718,0.0003705523089681286,-0.0015644421494561537,-0.0009512847436260317,-0.0007228135154568344,-0.000467067480312973,-0.0004871470811085574,0.0013110085827166458,0.2689092457294464,-23.66513442993164,19.704086303710938,17.89893341064453,0.8375955820083618,2.3604629039764404,-0.10706938803195953,,,,,,,,,
1739400735.5085745,-0.7081392971699018,0.6791980302694464,1.421201429271887,-1.878963998950311,-0.7131528317476135,1.9468062901646028,0.1883397629871802,0.0007794512754385089,-0.0007598094191400009,3.7831550262710205e-05,-0.0001588363783422908,0.000609790041206981,-0.0005766122045869635,-0.0004289418918947429,0.2173345386981964,-23.66513442993164,19.628707885742188,17.84735870361328,0.8504129648208618,2.3732802867889404,-0.08051909506320953,,,,,,,,,
1739400735.5196152,-0.7081449801562049,0.679198096872341,1.4212014288963706,-1.8789604509343714,-0.7131546495836704,1.9468081586197112,0.1883436241281262,-0.002257600865402109,-0.0002350327056252281,0.00010090660192626556,0.0008302677899556095,0.00034888317160968314,-0.00034071561707250004,-0.0008228031198349915,0.2927129566669464,-23.66513442993164,19.628707885742188,17.87512969970703,0.8311868906021118,2.3604629039764404,-0.07411040365695953,,,,,,,,,
1739400735.5296302,-0.7081390775353065,0.6791987978314975,1.4212023917643897,-1.8789594497544915,-0.713154968958339,1.9468109843752242,0.18834796491462255,0.0005862435873905968,-0.00041588036043287905,0.00044801221713666376,0.0019889075711160206,0.0009712139619436797,1.8871366471454206e-05,0.00023678140793744645,0.2411382496356964,-23.68893814086914,19.628707885742188,17.82355499267578,0.8440042734146118,2.3604629039764404,-0.11347807943820953,,,,,,,,,
1739400735.5405881,-0.7081425651892624,0.6791980205011148,1.421203185414918,-1.8789594497343047,-0.7131547020192797,1.9468119243536681,0.1883447867208894,-8.275940350925797e-05,0.0009718275289054947,-0.00021226762013396586,0.0012001572148085389,0.0005735061487970768,-0.0005291745150252502,-0.0018805867835243939,0.2689092457294464,-23.66513442993164,19.604904174804688,17.82355499267578,0.8568216562271118,2.3604629039764404,-0.08692778646945953,,,,,,,,,
1739400735.5515988,-0.7081424611961518,0.6791973065588519,1.4212077911061305,-1.8789612314301773,-0.7131548900197233,1.9468105156325024,0.18834894891536363,-0.00046174977440002546,0.00022202789441332554,0.0015307742348795836,-0.00019680082009799742,0.0003297074259487668,-0.0007612379039315438,0.0018801066901398239,0.2689092457294464,-23.66513442993164,19.577133178710938,17.84735870361328,0.8311868906021118,2.3732802867889404,-0.12080229818820953,,,,,,,,,
1739400735.5626066,-0.7081391646175617,0.6791960312746371,1.4212082597005296,-1.8789612324476455,-0.7131571630181275,1.946810724940204,0.18834718246764556,-0.0002801511030931423,4.492135868623063e-05,9.05037125027717e-05,-0.0014310089019925576,-0.0009312733835570337,0.00027022898954587456,0.0006502696789145658,0.2411382496356964,-23.63736343383789,19.577133178710938,17.84735870361328,0.8504129648208618,2.3732802867889404,-0.10706938803195953,,,,,,,,,
1739400735.5726428,-0.7081389293319568,0.6791931687377146,1.4212123583299212,-1.8789650595932663,-0.7131570438088383,1.9468096227820848,0.18834438915553758,-0.00018894346633586024,-0.00020482389978704386,0.0006854670612935273,-0.0008074704245824027,0.0006013976680278682,-0.0015128855637464484,0.0008090774514729498,0.2411382496356964,-23.63736343383789,19.553329467773438,17.89893341064453,0.8504129648208618,2.3540542125701904,-0.08051909506320953,,,,,,,,,
1739400735.5835316,-0.7081463465049586,0.6791940812802344,1.421209577575299,-1.8789650958587467,-0.713157163016109,1.9468123447008592,0.18834169979952414,-0.0004102535112886865,-0.00039441883014230614,0.0009994247845284679,-0.0007060376276735789,-0.00019896408315102146,-0.00124577471550708,-0.0009336632113415618,0.3165166676044464,-23.61355972290039,19.553329467773438,17.89893341064453,0.8504129648208618,2.3604629039764404,-0.06037749722599983,,,,,,,,,
1739400735.5936577,-0.7081401222339351,0.6791960317216161,1.4212074319911423,-1.8789650944784775,-0.7131571625275546,1.9468123798070909,0.1883425235550681,0.00010788085398948892,7.738111693001017e-05,-0.0005496215256734182,-0.00019690101376067845,-0.0010302806652042213,-0.00030912602794087906,-0.00013147714686580084,0.2689092457294464,-23.63736343383789,19.553329467773438,17.89893341064453,0.8504129648208618,2.3604629039764404,-0.06678618490695953,,,,,,,,,
1739400735.6045525,-0.7081364254165569,0.6791970730460566,1.4212064001195661,-1.8789633973751838,-0.7131578803415111,1.9468116391052968,0.1883440422920957,0.0010048384303773385,-0.00036841537647069617,0.0005383987398203099,-0.0008153533038688444,0.00014136006570437785,0.0009875665595608782,-0.0010138638186043204,0.2173345386981964,-23.66513442993164,19.604904174804688,17.87512969970703,0.8568216562271118,2.3668715953826904,-0.08051909506320953,,,,,,,,,
1739400735.614628,-0.7081369403818404,0.6792017410903315,1.4212015080096714,-1.8789669579016492,-0.7131571237655315,1.9468108819298255,0.18834313282269757,0.0010177824813528901,0.001920236141074727,-0.000407833362581569,-0.0006754453747133315,-0.0005116738466199896,0.0008757191471825472,-0.0011374555549331375,0.2411382496356964,-23.71670913696289,19.656478881835938,17.92273712158203,0.8504129648208618,2.3732802867889404,-0.10066069662570953,,,,,,,,,
1739400735.6256342,-0.7081449681524655,0.6791997065362292,1.4211979154390946,-1.878961257957923,-0.7131556476977495,1.9468131418281165,0.18834241421970557,-0.0005082464798304532,-0.0010342156793997463,-0.00018655070336855996,0.0009826691206717758,0.0005464985218320217,0.0013257453785934662,-0.0004022078159646394,0.2927129566669464,-23.68893814086914,19.680282592773438,17.84735870361328,0.8375955820083618,2.3540542125701904,-0.06678618490695953,,,,,,,,,
1739400735.6366646,-0.7081442781146247,0.6791997431654887,1.4211997135068708,-1.8789651062523731,-0.7131589435588651,1.9468112863232931,0.18834240982360193,-0.0009466359317831791,-0.0010510796285188228,-8.820963871328117e-05,0.00029266972110544376,-0.001637638907939418,-0.001135091001832064,-0.0026261758078287216,0.2927129566669464,-23.68893814086914,19.680282592773438,17.89893341064453,0.8641458749771118,2.3668715953826904,-0.06678618490695953,,,,,,,,,
1739400735.647584,-0.7081402206920849,0.6792017411065484,1.4211993493003268,-1.8789615385654086,-0.7131572807565839,1.946809853895466,0.18834362566303123,0.000675406570608343,-0.0003729122991091913,0.00041710486361569215,0.001289064464541841,-0.00026386079905199166,0.0007800725200006896,-0.0015442995640140953,0.2411382496356964,-23.71670913696289,19.656478881835938,17.84735870361328,0.8504129648208618,2.3540542125701904,-0.07411040365695953,,,,,,,,,
1739400735.6586123,-0.7081432676339661,0.6792056060986933,1.4211958105704776,-1.8789633122392464,-0.7131572807563623,1.9468116214288174,0.18834953155182277,-0.00020000607226533117,0.0007613332816318154,0.0008082999970639807,0.0005470033774425158,-0.0005746039442994814,0.0004374263829049095,-0.0003125482540029848,0.2689092457294464,-23.76828384399414,19.704086303710938,17.87512969970703,0.8504129648208618,2.3668715953826904,-0.12721098959445953,,,,,,,,,
1739400735.6696692,-0.7081448732345019,0.6791997430932173,1.4211976461932145,-1.8789668775915565,-0.7131555679252853,1.9468092182816648,0.18834967303921302,-0.001538428012285607,-0.00027635275334350433,-3.20589766131615e-05,-0.001400770378386458,0.0008805257030406915,0.0008286958638160323,0.0015045124208858188,0.2927129566669464,-23.68893814086914,19.680282592773438,17.92273712158203,0.8641458749771118,2.3604629039764404,-0.12721098959445953,,,,,,,,,
1739400735.6805632,-0.7081412677724771,0.6792017411065481,1.421201429223867,-1.878962597050421,-0.7131564445857367,1.946811168621687,0.188346719888372,0.0014368167656203053,-0.0002790253499496435,0.0006966988483600631,-0.00016381065624855118,0.0009847412890286091,-5.302015208464547e-05,0.0012140592869647215,0.2411382496356964,-23.71670913696289,19.628707885742188,17.87512969970703,0.8440042734146118,2.3668715953826904,-0.09425200521945953,,,,,,,,,
1739400735.6905835,-0.708142837536666,0.6791960339880806,1.421201457022567,-1.8789618248959725,-0.7131579206788705,1.9468123972420146,0.188344791221027,-0.0003685752539502144,-0.0002871349223707446,-0.0005489262355969456,0.000724707533571966,0.00026837614660732043,0.0016422797934930494,-0.000598861397673572,0.2927129566669464,-23.63736343383789,19.628707885742188,17.82355499267578,0.8568216562271118,2.3604629039764404,-0.08692778646945953,,,,,,,,,
1739400735.7015803,-0.7081401182648885,0.6791980306449714,1.4212070714603688,-1.8789612409643393,-0.713157760260767,1.9468113332512105,0.1883424105256227,0.001015629965323484,2.4941641721920398e-05,-0.00025758558106516154,4.3728714789771574e-05,3.248668652217399e-05,-5.359732531086086e-05,-0.0011754481392324458,0.2689092457294464,-23.66513442993164,19.553329467773438,17.84735870361328,0.8568216562271118,2.3604629039764404,-0.06678618490695953,,,,,,,,,
1739400735.7116015,-0.708141135127685,0.6791960413709045,1.4212074387655527,-1.8789650949149699,-0.7131605906200196,1.946811626453903,0.1883511668842178,-0.00038667487677943393,0.00010913873622100221,-0.0008776624833704255,-0.0013118283582582162,-0.0006159331483376065,0.00011852299081241291,0.001001246631844648,0.2689092457294464,-23.63736343383789,19.577133178710938,17.89893341064453,0.8705545663833618,2.3668715953826904,-0.11347807943820953,,,,,,,,,
1739400735.7216065,-0.7081449724447645,0.679194311781101,1.4212076881343654,-1.878961464870347,-0.7131595857318945,1.9468108819297598,0.18834478668496119,-0.002198268682715268,-0.0003870257350407604,-0.00010504482318741937,-9.556157239475155e-05,-0.00012867940299982669,0.000426072577542328,-0.00082923652388477,0.2927129566669464,-23.61355972290039,19.577133178710938,17.84735870361328,0.8440042734146118,2.3732802867889404,-0.08692778646945953,,,,,,,,,
1739400735.7325773,-0.7081427970916303,0.6791960296152694,1.421210293013489,-1.8789633119117817,-0.7131531867251848,1.946812043552764,0.1883491957288912,-2.689819250157688e-05,0.0011335486796165005,0.0010615150357926556,0.00011586482186093291,0.0020722173988917403,0.0007477719410943195,0.00015155949012655827,0.2927129566669464,-23.63736343383789,19.553329467773438,17.87512969970703,0.8440042734146118,2.3604629039764404,-0.09425200521945953,,,,,,,,,
1739400735.743662,-0.7081378452515678,0.6791957942855146,1.4212064305512557,-1.8789594507154495,-0.7131574764217303,1.9468123957944437,0.18834242302039045,-0.0005849277455140635,0.0012956740678185254,-0.0012325428993914004,0.0002325844187666857,0.0009802016669699105,0.0010550590691129531,0.00041815743297897185,0.1935308277606964,-23.63736343383789,19.604904174804688,17.82355499267578,0.8504129648208618,2.3604629039764404,-0.06678618490695953,,,,,,,,,
1739400735.7546508,-0.7081391606366616,0.6791996636914899,1.4212025058862554,-1.8789659239522383,-0.7131571819160502,1.946810181679007,0.1883487919274936,0.00035156246680542085,0.0015248628142905062,-0.0012751787859363053,-0.000378318252256316,-0.00044573429533790836,-0.001957945026620304,0.00035166605957557,0.2411382496356964,-23.68893814086914,19.628707885742188,17.92273712158203,0.8504129648208618,2.3668715953826904,-0.12080229818820953,,,,,,,,,
1739400735.7655795,-0.7081432425549132,0.6791960208935668,1.421200070139533,-1.8789653520355338,-0.7131595842725441,1.9468076484392718,0.18835033318526875,0.0005740000315942158,-0.0005420035407563465,-0.0015718387789099841,0.0003253687561669037,2.3933619550434897e-05,-0.0020609005537782377,0.00265914883735836,0.2689092457294464,-23.63736343383789,19.680282592773438,17.87512969970703,0.8440042734146118,2.3604629039764404,-0.12080229818820953,,,,,,,,,
1739400735.7765357,-0.7081395571781619,0.6791990269287451,1.421202157248191,-1.878963311812968,-0.7131574650141238,1.9468123972231832,0.1883471810155893,0.0009154177408198027,-0.0008367594743444133,0.00032798748329385314,0.0003484392836332576,3.317825036509668e-05,0.0010088560741168746,0.0005780175628040962,0.2173345386981964,-23.68893814086914,19.628707885742188,17.87512969970703,0.8440042734146118,2.3604629039764404,-0.10706938803195953,,,,,,,,,
1739400735.786639,-0.7081431646013338,0.6792017444113398,1.4212032158373527,-1.8789594497706363,-0.7131564053759948,1.9468105799517823,0.1883505530846972,-0.0005689723838610029,0.0007047596003653019,0.0003766849020994742,0.0006000691321995066,0.0003069310840436411,0.0005226889177048238,-0.0004040130705137064,0.2689092457294464,-23.71670913696289,19.604904174804688,17.82355499267578,0.8440042734146118,2.3668715953826904,-0.10706938803195953,,,,,,,,,
1739400735.798669,-0.7081414673812866,0.6792055943252537,1.4211979337713447,-1.8789633470500469,-0.7131556447363626,1.9468105794612842,0.18834195309816643,-3.484823912601584e-05,0.0016067337510061947,-0.0005784117364946518,-9.344849005847683e-05,0.0013028033000669788,0.00024583502026148224,-0.0008555126577540426,0.2411382496356964,-23.74051284790039,19.704086303710938,17.87512969970703,0.8375955820083618,2.3668715953826904,-0.05396880581974983,,,,,,,,,
1739400735.8095505,-0.7081385354600418,0.6792054515477107,1.421195412066156,-1.878963312237584,-0.7131602891346298,1.946810758322233,0.18834168780817795,0.003127924089090674,0.0014665089874995542,-0.0001999573688064724,6.025352419958025e-05,-0.0010668730846071497,0.0001656570739718897,-0.002890224224406802,0.2173345386981964,-23.76828384399414,19.680282592773438,17.87512969970703,0.8769632577896118,2.3732802867889404,-0.06037749722599983,,,,,,,,,
1739400735.8195982,-0.7081432465097567,0.6791966699365228,1.421201455677882,-1.8789632582744655,-0.7131603608284528,1.946810226252463,0.18835030676219794,0.00010058920932191006,-0.001555385634883084,0.0008076857955958687,0.0003758214008582005,-0.001035489401428783,0.0004101784853624985,0.0012789591699169,0.2689092457294464,-23.68893814086914,19.628707885742188,17.87512969970703,0.8504129648208618,2.3668715953826904,-0.13361968100070953,,,,,,,,,
1739400735.82962,-0.708141192660503,0.6792034574271424,1.4211971772848624,-1.878961282049151,-0.7131579207323613,1.9468108294165845,0.1883488414123916,0.00070304230638486,0.0011922356662469281,-0.0007261876041491789,0.0004320040678027167,-0.0005762458306241352,-0.0003025153127570464,-0.0005570907546023451,0.2411382496356964,-23.74051284790039,19.656478881835938,17.84735870361328,0.8568216562271118,2.3732802867889404,-0.09425200521945953,,,,,,,,,
1739400735.8405623,-0.7081445982768686,0.6791997432013828,1.4212032118881759,-1.8789612409512118,-0.713157163018128,1.9468118870535578,0.18834714281010242,-0.0008670287804221113,-0.0002569096223154491,0.0006479141774629943,0.0009616775412379143,-0.000982818787102149,0.00048276360784858607,-0.0006918468210761932,0.2927129566669464,-23.68893814086914,19.604904174804688,17.84735870361328,0.8504129648208618,2.3604629039764404,-0.06678618490695953,,,,,,,,,
1739400735.8505712,-0.7081432715398259,0.6791981647352738,1.4212024622615782,-1.878965403866786,-0.7131595573174692,1.9468073485394402,0.18835164516097957,-0.0003646226470135345,0.00010438363954645854,-0.00024092294448542847,-0.002195159169519143,-6.90129149898117e-05,-0.0009122830894922061,0.0024038807222135495,0.2689092457294464,-23.63736343383789,19.628707885742188,17.89893341064453,0.8705545663833618,2.3668715953826904,-0.14094389975070953,,,,,,,,,
1739400735.8615756,-0.7081406745799202,0.6791980310486506,1.4212063113477975,-1.878963074765491,-0.71315792067828,1.9468095126493294,0.18834792554679844,-5.469579885487044e-05,0.0002370684942288075,0.0007033726502018154,-0.0005852461584490476,0.000102662377589687,0.00014607009371187874,-0.0013215791613713133,0.2411382496356964,-23.66513442993164,19.604904174804688,17.87512969970703,0.8568216562271118,2.3476455211639404,-0.11347807943820953,,,,,,,,,
1739400735.8726025,-0.7081432685995054,0.6791953341982033,1.4212073167279735,-1.878961243943194,-0.7131571625275546,1.9468123907110944,0.1883479780354644,-0.0005588905032667775,-0.00018974306215100724,-0.0007743651725471769,0.00037296549221381957,0.0007031502120220857,0.0003248759195068934,2.8275563253111005e-05,0.2689092457294464,-23.61355972290039,19.553329467773438,17.87512969970703,0.8504129648208618,2.3604629039764404,-0.11347807943820953,,,,,,,,,
1739400735.882626,-0.7081394798191535,0.6791977922435576,1.4212056452341562,-1.8789633152428342,-0.7131620178176271,1.9468073467714082,0.1883424054501636,0.0002757066946031091,0.0005615658572954482,-0.0006145204872287206,-0.0004403479549388439,-0.0006854231806383634,-0.0015643550852815697,-0.001260803394458692,0.2173345386981964,-23.66513442993164,19.577133178710938,17.87512969970703,0.8641458749771118,2.3668715953826904,-0.06678618490695953,,,,,,,,,
1739400735.8936121,-0.7081410366581549,0.6791980421993429,1.421204634739772,-1.8789612323386633,-0.713157163251709,1.9468123579260657,0.18834327150851732,0.000823740428834831,0.0010830030836608742,-0.0004378249360118046,0.0004474998658575112,0.0008018088777041896,0.0020096134307951733,-0.0012568611319869155,0.2411382496356964,-23.66513442993164,19.628707885742188,17.84735870361328,0.8504129648208618,2.3604629039764404,-0.07411040365695953,,,,,,,,,
1739400735.9055803,-0.7081449551219005,0.6791980213786466,1.4212081078959713,-1.878961232447662,-0.7131571630719643,1.946807650687415,0.1883503799522367,-0.0011952491681999087,0.0007807179673482558,0.00041044933054716593,0.0003480185694064997,-0.0005664210012214263,-0.00041216056294488766,3.363687448280136e-05,0.2927129566669464,-23.66513442993164,19.553329467773438,17.84735870361328,0.8504129648208618,2.3732802867889404,-0.12080229818820953,,,,,,,,,
1739400735.9165404,-0.7081432686027235,0.6791953174483215,1.421204643610267,-1.8789633034072006,-0.7131561051545413,1.9468131372877198,0.18835079668959784,-0.0011650940535040232,-0.000786680864351772,-0.0003684962486204407,0.0003265372216341767,0.00030266013577715396,0.000832917541134171,0.001967241555095447,0.2689092457294464,-23.63736343383789,19.628707885742188,17.87512969970703,0.8504129648208618,2.3540542125701904,-0.13361968100070953,,,,,,,,,
1739400735.9265616,-0.7081448771584201,0.6791975973581071,1.4212039399292238,-1.878963051150164,-0.7131579206722345,1.9468069308197655,0.18835138289062112,-0.0011815975101839337,-0.0005037737068904565,-0.0004606723105824422,-0.000618806936555311,0.00022998678395526426,0.0008870091725758809,0.0011984913443701785,0.2927129566669464,-23.68893814086914,19.604904174804688,17.89893341064453,0.8568216562271118,2.3796889781951904,-0.13361968100070953,,,,,,,,,
1739400735.9365957,-0.7081378451908044,0.6792015026516299,1.421201439047212,-1.878965094879926,-0.7131571630181277,1.9468105777981288,0.18834581216225396,0.0017425531695351828,0.00045181378437527493,0.0005157886712239827,-0.0005436993442459239,0.0005723078607994601,0.0013923093290002149,0.0008175304557432784,0.1935308277606964,-23.71670913696289,19.628707885742188,17.89893341064453,0.8504129648208618,2.3668715953826904,-0.09425200521945953,,,,,,,,,
1739400735.9475987,-0.708144981123599,0.6791997460532805,1.4211975667565997,-1.878963312552454,-0.7131582226562571,1.9468101235639041,0.1883457124041709,-0.0011436608523590051,0.00013284760685740413,-0.0006547919300748327,-1.2298076986403197e-05,2.8236702107493596e-05,0.00038559629425086867,-0.001084303616361042,0.2927129566669464,-23.68893814086914,19.680282592773438,17.87512969970703,0.8504129648208618,2.3796889781951904,-0.06678618490695953,,,,,,,,,
1739400735.9586082,-0.708142174063705,0.6792017411065647,1.421192605165137,-1.8789688898568386,-0.7131595442414986,1.9468091835251706,0.188341647862308,0.0006439045010026363,-0.0001348690222234237,-0.002647315172796165,-0.0010963837287682949,0.00018278805864309927,-0.00024777218563433825,-0.0028788938594487734,0.2927129566669464,-23.71670913696289,19.704086303710938,17.94654083251953,0.8705545663833618,2.3476455211639404,-0.06037749722599983,,,,,,,,,
1739400735.970578,-0.7081432682660319,0.6792034575861853,1.4211971772664693,-1.8789667981199927,-0.7131563989805978,1.9468069060289799,0.188340929660069,2.3307254230610873e-05,0.0006716074143185088,1.1264510306225857e-05,-0.0015943382994182097,-0.00048267919067831685,-0.0005711937722110957,-0.0027384362474379845,0.2689092457294464,-23.74051284790039,19.656478881835938,17.92273712158203,0.8440042734146118,2.3796889781951904,-0.05396880581974983,,,,,,,,,
1739400735.9805906,-0.7081439825746362,0.679205451568155,1.4212052932042591,-1.8789633377468766,-0.7131563342514564,1.9468112983478374,0.18834514444764028,5.733539565506876e-05,0.0020619939359435373,0.002142554349396415,0.00014919129257986118,-0.0003095750893865941,0.0009729840311915134,-0.0007443203111866738,0.2689092457294464,-23.76828384399414,19.577133178710938,17.87512969970703,0.8705545663833618,2.3604629039764404,-0.08051909506320953,,,,,,,,,
1739400735.9906032,-0.7081412706741084,0.6791997460546266,1.4212011377139424,-1.8789632857469971,-0.7131579206238448,1.9468118426376728,0.18834721787397096,0.0007171724595893508,-0.001070512283829748,-0.0007056376641064507,0.0002952626223062321,0.00011127788121690886,0.0016439844353897779,-0.00023468389454157836,0.2411382496356964,-23.68893814086914,19.628707885742188,17.87512969970703,0.8568216562271118,2.3339126110076904,-0.08051909506320953,,,,,,,,,
1739400736.0015306,-0.7081432686028702,0.6791999761879856,1.421199243431766,-1.8789651034176567,-0.713157933760158,1.9468092183147527,0.18834693661340088,-1.997740552362629e-05,-0.0003592232392732784,-0.000869569509723159,-0.0006080391361951232,6.095724877443906e-06,0.0017319682161731098,-0.0005496799553542744,0.2689092457294464,-23.68893814086914,19.656478881835938,17.89893341064453,0.8568216562271118,2.3604629039764404,-0.10066069662570953,,,,,,,,,
1739400736.0116322,-0.7081412706620173,0.6791944212454071,1.42120392715438,-1.8789594582740565,-0.7131575132694504,1.946808851987105,0.18835299262718397,0.00012683661735058647,-0.000949087797556484,0.0012670779596125102,0.0010910973446367723,0.0014298551192347627,-0.0007396508398041386,0.002639923840930574,0.2411382496356964,-23.61355972290039,19.604904174804688,17.82355499267578,0.8504129648208618,2.3604629039764404,-0.14735259115695953,,,,,,,,,
1739400736.0216365,-0.7081432647509621,0.6791943292798747,1.4212032119125506,-1.8789650949146812,-0.71315792133016,1.9468108818697945,0.18834565841425677,0.00022337173438745508,-0.0011304423703094066,-0.0006156663415643244,-0.0010606368561251408,-0.00036705627156093264,0.0010403758496620311,-0.0005579032508841598,0.2689092457294464,-23.61355972290039,19.604904174804688,17.89893341064453,0.8568216562271118,2.3732802867889404,-0.09425200521945953,,,,,,,,,
1739400736.0326095,-0.7081412668100874,0.6791996636928871,1.4212032146621834,-1.8789633122375184,-0.7131575162308412,1.9468111163118231,0.18834985876517282,0.0007754212863190924,0.0009371844868518339,-0.0014579085530065801,0.00010530559315864919,0.0005616139881147691,-0.0006563719123729644,-0.00015288016349407146,0.2411382496356964,-23.68893814086914,19.604904174804688,17.87512969970703,0.8504129648208618,2.3668715953826904,-0.12080229818820953,,,,,,,,,
1739400736.0426745,-0.7081394454729073,0.6791921744148223,1.421205327011611,-1.878967160227743,-0.7131579206841878,1.9468108099642603,0.1883433894700821,0.0018594644792761946,-0.0015164713038468675,-0.00037729908919549105,-0.0013035878344748644,-0.00016368094233718423,-0.0005970565611916344,-0.001980399213067528,0.2173345386981964,-23.61355972290039,19.577133178710938,17.89893341064453,0.8568216562271118,2.3604629039764404,-0.07411040365695953,,,,,,,,,
1739400736.053608,-0.7081449811229654,0.6791997432242413,1.4212053183994784,-1.87896331228417,-0.7131579192064865,1.9468134023650505,0.18835006235070056,-0.0014620917878418725,0.0004946054780837581,-0.00019974824605644532,-1.133454601376809e-05,0.002683315318788322,1.1564576940001727e-05,0.000987052246150672,0.2927129566669464,-23.68893814086914,19.577133178710938,17.87512969970703,0.8568216562271118,2.3476455211639404,-0.12721098959445953,,,,,,,,,
1739400736.063624,-0.7081476081431304,0.6791957148126734,1.4212032119008902,-1.878963338062262,-0.7131589047975003,1.9468114649937365,0.18834527805255866,-0.0019324071358690856,-0.0006688831654676657,-0.00010022344038660542,-0.0007622432465297139,-0.0009602347400593066,0.0004498533339831958,-0.00029792114786347974,0.2927129566669464,-23.63736343383789,19.604904174804688,17.87512969970703,0.8641458749771118,2.3668715953826904,-0.08692778646945953,,,,,,,,,
1739400736.0745473,-0.7081457277931932,0.6791980306788356,1.4211993849001892,-1.8789612358999903,-0.7131618783357931,1.9468123447596906,0.18835193152932336,0.0001354984643337743,-0.00045494634149677695,-0.0017860788328224438,-0.0006039942012206799,-0.0014894587725386161,0.0013109295539084406,0.0012922406545931905,0.3165166676044464,-23.66513442993164,19.656478881835938,17.84735870361328,0.8504129648208618,2.3604629039764404,-0.10706938803195953,,,,,,,,,
1739400736.0846095,-0.7081420777109663,0.679199743165696,1.4212013540027941,-1.8789633121285607,-0.7131596488074645,1.946806821641202,0.1883489549904167,0.000339222674910633,0.0004953025270015767,-0.001115827673054071,-0.0007280640907117452,0.00010360323264982407,0.00019856390273918366,0.0013023579535221047,0.2689092457294464,-23.68893814086914,19.628707885742188,17.87512969970703,0.8705545663833618,2.3796889781951904,-0.12080229818820953,,,,,,,,,
1739400736.0955653,-0.7081374519967839,0.6792004452829536,1.4212014292229942,-1.878957304003431,-0.7131587865760289,1.9468105755186533,0.18835246599762517,0.0010454891079682972,0.000693092747997307,-2.710125195000705e-05,0.002056487066193551,-0.0008583083299538593,0.0012737486976694557,0.00217195632474064,0.2173345386981964,-23.68893814086914,19.628707885742188,17.82355499267578,0.8641458749771118,2.3668715953826904,-0.12080229818820953,,,,,,,,,
1739400736.105627,-0.7081412677374184,0.679201849208368,1.4212014305316139,-1.8789633122011795,-0.7131595399818637,1.9468092181560768,0.18834959913469887,-7.653435112164289e-05,0.0007513705181261116,0.000309453174960399,-1.0356150341187735e-06,0.0005477996909923162,-0.00045835698053791664,-0.000458040749987635,0.2411382496356964,-23.68893814086914,19.628707885742188,17.87512969970703,0.8705545663833618,2.3604629039764404,-0.10066069662570953,,,,,,,,,
1739400736.1166632,-0.7081432686028537,0.6792020832117864,1.4211992834562142,-1.8789633122375182,-0.7131589818236969,1.946806572528701,0.18834276567014943,-0.0004904652451825657,0.0009111083883870923,0.0006414457978204439,0.00044869115871199556,0.0008339378523100457,-0.0022011600147402973,-0.0016514113199134562,0.2689092457294464,-23.68893814086914,19.628707885742188,17.87512969970703,0.8568216562271118,2.3796889781951904,-0.06678618490695953,,,,,,,,,
1739400736.1286252,-0.7081459917794269,0.6792004480780969,1.421199346478011,-1.8789649801204067,-0.7131578720629406,1.9468123955610497,0.188346714600944,-0.0007003416170097634,-0.000527562417273029,0.00031216912535112016,0.001028549596252364,0.0009815074017020962,0.001191218723110298,0.0001788930814491537,0.3165166676044464,-23.68893814086914,19.656478881835938,17.89893341064453,0.8568216562271118,2.3604629039764404,-0.06678618490695953,,,,,,,,,
1739400736.1396124,-0.7081422545867285,0.67919977301931,1.4212010662422365,-1.8789633122373024,-0.7131611388383593,1.9468094632109554,0.188347344987407,0.000887240323493893,-0.0008736496565260517,0.0009542137389944577,0.0008670378557441552,-0.0004467596352146489,0.0004321580902874104,0.001209807393553844,0.2689092457294464,-23.68893814086914,19.604904174804688,17.87512969970703,0.8568216562271118,2.3732802867889404,-0.10706938803195953,,,,,,,,,
1739400736.150615,-0.7081428749800978,0.679199743165864,1.4211997467857496,-1.878963285746565,-0.7131579207502079,1.9468088727430355,0.18834646035801256,0.00014586406140662208,-0.002247621348659305,-0.00023998610261849145,0.0006533527410030866,-4.191265415379129e-05,4.31117978957759e-05,-0.00037112534356998185,0.2927129566669464,-23.68893814086914,19.656478881835938,17.87512969970703,0.8568216562271118,2.3540542125701904,-0.07411040365695953,,,,,,,,,
1739400736.1606512,-0.7081374519678387,0.679199053801322,1.4212024938170067,-1.8789668775911077,-0.7131611039532461,1.946810052079019,0.18834930344787928,0.0013888353690679777,-0.00018650578298145902,-0.00013587866119531045,0.0001682756197131951,-0.0007115479653780428,-0.0006999952224249252,0.0018603030624876856,0.2173345386981964,-23.68893814086914,19.604904174804688,17.92273712158203,0.8568216562271118,2.3668715953826904,-0.12080229818820953,,,,,,,,,
1739400736.1716125,-0.7081411596356018,0.6791980306410728,1.4212014366324712,-1.8789633150719414,-0.7131575206094579,1.9468092001841806,0.18835011529414072,0.0002261347266096244,-0.000707965292688579,-0.0006029125284545449,0.0013597966854912082,-0.0004891159391329317,0.0028047462138962405,0.00037725210672867355,0.2689092457294464,-23.66513442993164,19.628707885742188,17.87512969970703,0.8504129648208618,2.3604629039764404,-0.10066069662570953,,,,,,,,,
1739400736.1816635,-0.7081429304907833,0.6791980319289335,1.421203574991007,-1.878967143221349,-0.7131579206963736,1.9468096152286756,0.18834478879902425,-0.00032934941586063504,5.418277402536795e-05,-0.0006061909169300217,-0.0019142770128569805,0.0009468216032691988,0.0005649725846294616,-0.0017498383411756139,0.2689092457294464,-23.66513442993164,19.628707885742188,17.89893341064453,0.8568216562271118,2.3476455211639404,-0.08692778646945953,,,,,,,,,
1739400736.1926107,-0.7081410366579608,0.679198264636274,1.4212021483956663,-1.8789610279006586,-0.7131570452623885,1.9468115167837476,0.18835073523276658,0.0011528164750127612,0.000785636470474141,-0.0006688110610808387,0.00011340048396039437,0.0009940567764298225,0.00036957164838365413,-0.0006684278715956278,0.2411382496356964,-23.66513442993164,19.628707885742188,17.84735870361328,0.8504129648208618,2.3668715953826904,-0.12721098959445953,,,,,,,,,
1739400736.2035978,-0.7081428721999253,0.6791943201873427,1.4212040095846534,-1.8789633122340543,-0.7131568582005905,1.9468081572418432,0.1883507115551659,0.0004963416690703639,-0.0010580861096653501,-0.00048562747864814676,-0.0003891487515298678,0.0002048109610765231,-0.0001893198979094508,4.1195071410762884e-05,0.2927129566669464,-23.61355972290039,19.604904174804688,17.87512969970703,0.8504129648208618,2.3604629039764404,-0.10706938803195953,,,,,,,,,
1739400736.214544,-0.708140299965306,0.6791943201833801,1.421206324875309,-1.8789594497706437,-0.7131571631790597,1.9468093062016087,0.18834892858073965,0.00215483497877751,-0.002536375384033838,-0.0011946407720756817,0.0003880478304773441,0.00017925278037555058,-0.0007977245991306521,0.0008934350278828302,0.2411382496356964,-23.61355972290039,19.577133178710938,17.82355499267578,0.8504129648208618,2.3732802867889404,-0.12080229818820953,,,,,,,,,
1739400736.2245655,-0.7081440450934816,0.6791960587044912,1.4212074644020205,-1.8789633122375184,-0.7131587928741591,1.946809160005402,0.18835053365010507,-0.0007849437975526221,0.0007569411239673469,0.0010686065859583723,-0.001955517854322712,-6.578562590485466e-05,-1.4374580611683076e-05,-0.0004526378113459261,0.2927129566669464,-23.63736343383789,19.577133178710938,17.87512969970703,0.8641458749771118,2.3604629039764404,-0.10706938803195953,,,,,,,,,
1739400736.2346447,-0.7081453363530903,0.6791997432731333,1.4212014331847993,-1.8789594500855795,-0.7131579264925137,1.946809344987884,0.1883480487628743,-0.0010478750068169517,0.0016152269806184545,-0.0006264809671040013,0.0007162773987346703,0.0007342678913066234,-0.0018507907553373603,0.0017141297853154813,0.2689092457294464,-23.68893814086914,19.628707885742188,17.82355499267578,0.8568216562271118,2.3732802867889404,-0.07411040365695953,,,,,,,,,
1739400736.2446456,-0.708144981158619,0.679196032704113,1.4211997125238232,-1.8789632987420202,-0.7131593398278614,1.9468070347167046,0.18835345644649745,-0.00019057742084519137,-0.002090704073645068,-0.0007368423084944824,-0.0007611972443049941,-0.0018258380344060973,-0.0010023339794387497,0.0005786675573862506,0.2927129566669464,-23.63736343383789,19.680282592773438,17.84735870361328,0.8568216562271118,2.3668715953826904,-0.12080229818820953,,,,,,,,,
1739400736.2546756,-0.708142009778208,0.6792001366757463,1.4211994554337148,-1.8789644209679612,-0.7131587928981897,1.9468069167656734,0.18835349690849476,0.0004424484097169653,-0.0005905104137813918,-0.00016172232169275598,-2.896164008333386e-05,-0.0007890666931822845,0.0008092671628051286,0.002030098587807026,0.2927129566669464,-23.66513442993164,19.656478881835938,17.87512969970703,0.8641458749771118,2.3668715953826904,-0.09425200521945953,,,,,,,,,
1739400736.2665994,-0.7081412446448639,0.6791967347262605,1.4211972753566569,-1.878965094920796,-0.7131618725747957,1.9468073965962482,0.18834531121054682,0.00028861933336005104,-0.0021483691698095204,-0.0008279272940777775,-0.0011842681252952243,-0.0012760222583882849,-0.0007587005315961331,-0.0017405897456604202,0.2411382496356964,-23.63736343383789,19.680282592773438,17.89893341064453,0.8504129648208618,2.3668715953826904,-0.06037749722599983,,,,,,,,,
1739400736.277547,-0.7081432657138901,0.6791997431789051,1.4212000646887522,-1.8789633122375184,-0.7131619669701837,1.9468123448962527,0.18834972213683676,0.0005165241960190677,-0.0005108550865025984,-0.0005110928488892015,0.0005057907963404103,-0.0009532124723247126,0.0017375181328475302,-3.528166670159656e-05,0.2689092457294464,-23.68893814086914,19.656478881835938,17.87512969970703,0.8641458749771118,2.3604629039764404,-0.12721098959445953,,,,,,,,,
1739400736.2885652,-0.7081452195421643,0.6791997432726931,1.4211975548778084,-1.878963349085017,-0.713158787131744,1.9468076468859854,0.18834366697660673,-0.0008081712954728705,-0.0021269384467369487,-0.0012950787665036035,-0.00045326016927546055,-0.00011091798203116321,-0.0017324816382837003,-0.001276724708718965,0.2927129566669464,-23.68893814086914,19.680282592773438,17.87512969970703,0.8641458749771118,2.3604629039764404,-0.07411040365695953,,,,,,,,,
1739400736.298669,-0.7081412971570081,0.6791998211668373,1.4211947057333938,-1.8789660786349704,-0.7131588258213046,1.946808022952336,0.18835351761218033,0.00040133129156880637,-0.0006591955469089679,-8.651478911204488e-05,-0.0008092417735764662,-0.0009129051177424373,0.00047147771982425,-0.00015794256291440162,0.2411382496356964,-23.68893814086914,19.680282592773438,17.87512969970703,0.8641458749771118,2.3604629039764404,-0.12080229818820953,,,,,,,,,
1739400736.3096046,-0.7081412706621668,0.679200782854288,1.4211993490903638,-1.8789650949301537,-0.7131579208937684,1.9468061135604764,0.18834782800268268,-0.0008350137173684856,-0.00045504421137794785,0.0008429887437293678,-0.0002796311899161707,0.0006170430821381139,-0.002603858231604586,0.0009207786991007369,0.2411382496356964,-23.68893814086914,19.656478881835938,17.89893341064453,0.8568216562271118,2.3732802867889404,-0.10066069662570953,,,,,,,,,
1739400736.319653,-0.7081441245827802,0.6792017411241557,1.421199322833588,-1.8789651204243443,-0.7131625124434369,1.9468068843002824,0.18834721375697447,-0.0006699100532567595,0.00021529101152380258,-0.0011261906928287566,-8.332915065024482e-05,-0.0019914209655535974,-0.0008403135264831578,-0.0007297808943947015,0.2927129566669464,-23.71670913696289,19.656478881835938,17.89893341064453,0.8568216562271118,2.3668715953826904,-0.10706938803195953,,,,,,,,,
1739400736.3297029,-0.7081423287227756,0.6791989667656428,1.4212014380532858,-1.8789602523878037,-0.7131595443132789,1.9468130312777667,0.18834798912480025,0.0010396226500841465,-0.00037059050817660004,0.0013188047962783846,0.0018279078067956062,-0.0007494847012433508,0.0023484155364385164,-0.00038467226670270145,0.2689092457294464,-23.66513442993164,19.628707885742188,17.84735870361328,0.8705545663833618,2.3540542125701904,-0.08692778646945953,,,,,,,,,
1739400736.3405585,-0.7081412707657279,0.6792011549044181,1.421197177175448,-1.8789650950139836,-0.7131587865754391,1.9468098071094817,0.1883490931342061,0.0013194317486463405,0.0022869176776537633,-0.0013370551307861915,-0.000953667870347448,0.0007821105004645597,0.0015498168152723501,0.0015883613012824917,0.2411382496356964,-23.66513442993164,19.656478881835938,17.89893341064453,0.8641458749771118,2.3732802867889404,-0.08692778646945953,,,,,,,,,
1739400736.351533,-0.708141166624832,0.679195802969962,1.4212081527009799,-1.878964001002303,-0.7131589803163354,1.9468076288992586,0.18834201595532424,0.00046366861850762595,-0.0018562537182040249,0.001503969265563565,-0.001042117776339778,0.0006831065776749124,-0.00036207494468275877,-0.0017599671395365755,0.2411382496356964,-23.63736343383789,19.577133178710938,17.87512969970703,0.8568216562271118,2.3604629039764404,-0.06037749722599983,,,,,,,,,
1739400736.361543,-0.7081454032486608,0.6791987326513343,1.4212010661816774,-1.87895944095199,-0.7131579162809923,1.9468085587034385,0.18834849168617118,-0.0009072176930391005,-0.0003645864170971717,-0.0011063216526362204,-6.95854617563436e-05,0.002079533717117154,0.000268588425213492,-0.001377249021925289,0.2689092457294464,-23.66513442993164,19.604904174804688,17.82355499267578,0.8568216562271118,2.3540542125701904,-0.08692778646945953,,,,,,,,,
1739400736.3715932,-0.7081432686390207,0.67919637072094,1.4212007139313434,-1.8789594497704942,-0.7131606038735718,1.9468079835475842,0.18834682126442476,3.074438640603864e-05,1.473346249411173e-05,-0.0016555528586445335,0.0004833278586840175,0.0005962300984423223,-0.0011331164089123525,-0.0008677564462602431,0.2689092457294464,-23.63736343383789,19.628707885742188,17.82355499267578,0.8705545663833618,2.3604629039764404,-0.06678618490695953,,,,,,,,,
1739400736.382588,-0.7081432686028705,0.679196145516996,1.4212053575182568,-1.878961265479592,-0.713158787065937,1.9468091442005673,0.18834722392839237,-0.0005689605949914619,9.054471320845488e-05,0.0004375343674936384,0.00048144242301750216,-0.0004263480263676218,-0.0008506747404753368,-0.002169818291812742,0.2689092457294464,-23.63736343383789,19.604904174804688,17.84735870361328,0.8641458749771118,2.3476455211639404,-0.08051909506320953,,,,,,,,,
1739400736.3935857,-0.7081432686028702,0.6791961110268804,1.421203250213599,-1.87895766771157,-0.7131591412417014,1.9468076288784086,0.1883464129082614,0.00023726915003391047,-0.0011633033851074334,-0.0016935268230366487,0.0011053631895737068,-1.7288656792554596e-05,0.00018850033193076334,-0.0005370847424283086,0.2689092457294464,-23.63736343383789,19.604904174804688,17.79975128173828,0.8641458749771118,2.3604629039764404,-0.06037749722599983,,,,,,,,,
1739400736.4045968,-0.7081432425668244,0.6791980307880696,1.421206245800891,-1.8789611479237194,-0.7131587866312759,1.9468076288784086,0.18834953057080453,0.0009104981073949599,-0.0002873301782272948,6.653640180376763e-05,0.0011526647463011039,0.0005781758133696071,0.0010728144354727187,-0.0008992165802072082,0.2689092457294464,-23.66513442993164,19.577133178710938,17.84735870361328,0.8641458749771118,2.3604629039764404,-0.08692778646945953,,,,,,,,,
1739400736.4155555,-0.708143186749381,0.6791997431656979,1.4212014293485928,-1.8789633126560015,-0.713161217330165,1.9468068450544258,0.1883527270657926,0.0003791317458262326,-0.000142350074472053,-0.000986553098945605,-0.00037897222515057797,-0.0017115283908408212,0.0005518209511771089,0.0025012691304216583,0.2689092457294464,-23.68893814086914,19.628707885742188,17.87512969970703,0.8568216562271118,2.3668715953826904,-0.14094389975070953,,,,,,,,,
1739400736.425578,-0.7081391646298489,0.679201745065454,1.4212014295504696,-1.8789633122375256,-0.7131578240789186,1.946806871217887,0.1883480487321988,0.0013035304162990337,0.0005170905659172359,0.00015728654971871155,-9.675223634659556e-05,-0.0006143383847470923,-0.00047458422976362074,-0.001001081518305508,0.2411382496356964,-23.71670913696289,19.628707885742188,17.87512969970703,0.8440042734146118,2.3668715953826904,-0.07411040365695953,,,,,,,,,
1739400736.4356394,-0.7081449810760471,0.6791980307876498,1.4212014292234205,-1.8789653922019014,-0.7131598898280841,1.9468076288784086,0.18835084883876435,-0.001416992331594058,-0.0011414053635311792,0.0010134504192606097,-0.0010917258187458357,8.545963569924748e-05,-0.00047987339968860005,0.0008741237162039658,0.2927129566669464,-23.66513442993164,19.628707885742188,17.89893341064453,0.8641458749771118,2.3604629039764404,-0.10706938803195953,,,,,,,,,
1739400736.446606,-0.7081411616091108,0.679202551206739,1.4212007139676814,-1.878963541791119,-0.7131630265877341,1.9468076288784086,0.1883511891162173,-0.00010751018684742602,0.0005901605128855311,-0.00012457889392405603,0.000276012657722627,-0.0011960506800257795,-0.0009260894199885934,0.00016652092259915324,0.2689092457294464,-23.68893814086914,19.628707885742188,17.87512969970703,0.8641458749771118,2.3604629039764404,-0.10066069662570953,,,,,,,,,
1739400736.456627,-0.7081412689742349,0.6792034550539123,1.4212021444428171,-1.8789633390187312,-0.7131606040890612,1.9468083865384869,0.18834953057068446,-0.0001036353069608474,0.0016314099027332713,0.000730516289515144,0.0008952935947425052,0.0001373832216559496,0.00022284360203679002,0.001140998879360597,0.2411382496356964,-23.74051284790039,19.628707885742188,17.87512969970703,0.8705545663833618,2.3540542125701904,-0.08692778646945953,,,,,,,,,
1739400736.467612,-0.7081411625720849,0.6792006795003714,1.4212007136419784,-1.8789668769253962,-0.7131612506840372,1.9468083908991376,0.18834769592839892,0.0002433694542836302,-0.00019298135348418133,0.00020328868452388488,-0.0008623848325371397,-0.0003466361528893448,0.00071377150164677,-0.0013781739719581194,0.2689092457294464,-23.68893814086914,19.628707885742188,17.92273712158203,0.8641458749771118,2.3540542125701904,-0.07411040365695953,,,,,,,,,
1739400736.4776194,-0.7081411595404937,0.6792017411224054,1.4212014301924467,-1.8789612664607271,-0.7131587925928751,1.9468061135583257,0.18835184868836025,0.0008713022657907096,0.0006443344876769857,-0.0002002836697951365,0.0005064045720496629,-0.00023928767986308957,-0.0001625798201967452,0.001461591069841037,0.2689092457294464,-23.71670913696289,19.628707885742188,17.84735870361328,0.8641458749771118,2.3732802867889404,-0.13361968100070953,,,,,,,,,
1739400736.4885635,-0.7081432675923216,0.6791998211668356,1.421201429223424,-1.8789633769933738,-0.7131579206782401,1.9468103913566257,0.18834683433321744,8.365695367307295e-05,0.0003648839584796495,0.0004844983771629716,0.00030547944000515785,5.464205612594266e-05,0.0005761677634217359,0.00018342537668703608,0.2689092457294464,-23.68893814086914,19.628707885742188,17.87512969970703,0.8568216562271118,2.3732802867889404,-0.06678618490695953,,,,,,,,,
1739400736.4985974,-0.708142172975544,0.679196034096399,1.4212031854094844,-1.8789586010140715,-0.7131630251279559,1.946807629112359,0.18835269082773082,0.0008721587817024897,-0.0010311099639036003,6.189764357771211e-05,0.0018133522321915614,-0.0008209977044563062,-8.173089359386773e-05,0.00030021167180757413,0.2927129566669464,-23.63736343383789,19.604904174804688,17.84735870361328,0.8641458749771118,2.3604629039764404,-0.11347807943820953,,,,,,,,,
1739400736.5096002,-0.7081432685513523,0.6791997431657033,1.4211993534670155,-1.8789612323237919,-0.7131595444209493,1.9468068712183315,0.18835413049792968,-0.0008276922015750786,-0.0013379866367969877,-0.0003092121774177667,0.0003407811334817804,0.00024151350720656467,0.0002281823878357545,0.0012360650076524873,0.2689092457294464,-23.68893814086914,19.656478881835938,17.84735870361328,0.8705545663833618,2.3668715953826904,-0.11347807943820953,,,,,,,,,
1739400736.520607,-0.7081395580342883,0.6792017411065485,1.4212010926242018,-1.878962597086759,-0.7131592576872249,1.9468068712183302,0.18834956994743238,0.0010833928606768912,0.0002865832289650585,0.0005041181200291584,-0.0007445110967699222,8.324242178793566e-05,0.0006816856206251993,0.0013088188263297507,0.2173345386981964,-23.71670913696289,19.604904174804688,17.87512969970703,0.8641458749771118,2.3668715953826904,-0.08692778646945953,,,,,,,,,
1739400736.530694,-0.7081395581412843,0.6791980595342754,1.4212070435888344,-1.8789629943339683,-0.7131579250468352,1.9468083846004198,0.18835430600738942,0.0005038467019417767,-0.0009982024215808715,-0.00025326261939204674,0.00023568522671534983,0.00030922312871808607,-8.280030519855318e-05,0.0012488940009724283,0.2173345386981964,-23.66513442993164,19.553329467773438,17.87512969970703,0.8568216562271118,2.3540542125701904,-0.12721098959445953,,,,,,,,,
1739400736.5415385,-0.7081394541397659,0.6791981433134407,1.4212035749904568,-1.878967795942807,-0.7131587996574155,1.9468070282017458,0.18835082017086224,0.002398444679835702,0.0008818624455994786,-0.00048035808499567636,-0.0015947135583129109,0.0006066666911655538,0.0004189870216247727,0.0007490809208043925,0.2173345386981964,-23.66513442993164,19.628707885742188,17.92273712158203,0.8641458749771118,2.3668715953826904,-0.10066069662570953,,,,,,,,,
1739400736.5525362,-0.7081449811230144,0.6791997431663315,1.4212052917024063,-1.8789633119156537,-0.7131580384158499,1.946806113559138,0.18834485945024612,-0.0001710713527410889,0.00041502026280128865,3.379069121993189e-05,-0.00015752270212059027,0.0005409946137351235,-0.0008807698426367817,-0.0005903766886174607,0.2927129566669464,-23.68893814086914,19.577133178710938,17.87512969970703,0.8568216562271118,2.3732802867889404,-0.07411040365695953,,,,,,,,,
1739400736.5625982,-0.7081432682818779,0.679199742184549,1.4212069183650324,-1.8789631377976583,-0.7131612178166746,1.946806113558252,0.18835026316971293,-0.0006399348271669601,0.0002791623004925094,0.00037077483616812664,5.335902250438291e-05,-0.0007232001874451534,-0.000767680878466652,-8.311830701366522e-06,0.2689092457294464,-23.68893814086914,19.553329467773438,17.84735870361328,0.8568216562271118,2.3732802867889404,-0.12080229818820953,,,,,,,,,
1739400736.5726292,-0.7081432686028648,0.67919974605461,1.4212071100129902,-1.878965095051783,-0.7131583264360677,1.9468076288784086,0.18834951926425644,-0.0010869606521463173,0.0004307911212211835,0.0012372247836215673,-0.00020102007028529532,-0.000824903943885316,0.0001332888910587531,-0.00033523245394796806,0.2689092457294464,-23.68893814086914,19.553329467773438,17.89893341064453,0.8568216562271118,2.3604629039764404,-0.11347807943820953,,,,,,,,,
1739400736.5836313,-0.7081391646312352,0.6792061812143653,1.4212014952013787,-1.8789632769162496,-0.713158838910119,1.9468076288784086,0.18835037875500268,0.00024120097081975391,0.0019395646888184328,-0.00017351678738627627,0.0007993329035973032,0.0002366352418332234,0.00015261267795611285,0.00047024878387744737,0.2411382496356964,-23.74051284790039,19.656478881835938,17.87512969970703,0.8641458749771118,2.3604629039764404,-0.09425200521945953,,,,,,,,,
1739400736.5945659,-0.7081382284947053,0.6791997431827165,1.4211993494497137,-1.878968079876804,-0.7131573562794032,1.9468083865384869,0.18835191747671812,0.0014375021925141982,0.000860838621068711,-0.00029214555700185176,3.1967596000768894e-05,0.0014376953119454147,0.0011548978756421586,0.0013704533965226261,0.2411382496356964,-23.68893814086914,19.656478881835938,17.89893341064453,0.8641458749771118,2.3540542125701904,-0.10706938803195953,,,,,,,,,
1739400736.6055937,-0.7081392448355832,0.6792000927263604,1.4211993406032455,-1.8789653785837135,-0.7131576514567716,1.9468079308564594,0.18834951996818877,0.0018334582728865123,0.0008271500117566066,0.0007017101459398518,9.407830653043389e-05,0.0002249887004208505,0.0003464165387607614,0.0004104949994925424,0.2173345386981964,-23.68893814086914,19.656478881835938,17.87512969970703,0.8504129648208618,2.3668715953826904,-0.11347807943820953,,,,,,,,,
1739400736.6165626,-0.7081446083565327,0.6792018580567332,1.4211972312044199,-1.8789671640186383,-0.713160961449764,1.9468061135642336,0.18834865262719053,4.8062401599141124e-05,0.0005515423979801321,-0.0014385448071026871,-0.0007717637710136718,-0.0007968817489679762,-0.0004749825980761806,-0.00020758563232069769,0.2689092457294464,-23.71670913696289,19.680282592773438,17.89893341064453,0.8705545663833618,2.3732802867889404,-0.08051909506320953,,,,,,,,,
1739400736.6275702,-0.7081411923474478,0.6792027552646929,1.421199268650614,-1.8789594499222952,-0.7131582228795981,1.946806113558252,0.18834582826315202,0.0008725900299325196,0.0011580920197289209,-0.00037777647519906334,0.0013911416199530054,-2.3514128944597166e-05,-0.0003909587704184558,-0.0017537111527803624,0.2411382496356964,-23.71670913696289,19.656478881835938,17.82355499267578,0.8504129648208618,2.3732802867889404,-0.09425200521945953,,,,,,,,,
1739400736.6385674,-0.7081395582498602,0.6792000667317052,1.4212032118999818,-1.8789653245027995,-0.713157920684189,1.9468061150118021,0.18834681682839396,0.00018073144591442664,0.00103278721355454,0.0005317716040657587,-0.0011236197025081135,0.0010940013909104393,3.6581998435692245e-05,-0.0010824691481529367,0.2173345386981964,-23.68893814086914,19.604904174804688,17.89893341064453,0.8568216562271118,2.3732802867889404,-0.06678618490695953,,,,,,,,,
1739400736.6485832,-0.7081432689299209,0.6791980304303925,1.4211975657753977,-1.8789604512184572,-0.7131580565044014,1.9468068713798603,0.18835353533930876,0.0005230612552447841,-0.001037720722947327,0.00011721877204500062,-0.00010571696666167015,0.0004934775607306912,0.0001419053830052986,0.0007721640913946114,0.2689092457294464,-23.66513442993164,19.680282592773438,17.87512969970703,0.8568216562271118,2.3668715953826904,-0.12080229818820953,,,,,,,,,
1739400736.659542,-0.7081432686392108,0.6791980307519605,1.4211992831291524,-1.8789633123263465,-0.7131611394852398,1.9468075264090918,0.1883526956938188,-0.0006100878539988931,0.00020385198600104233,-8.059363691116823e-05,0.0002346905182150572,-0.0014159188488684377,0.00039121764205485776,0.0006741147590397274,0.2689092457294464,-23.66513442993164,19.628707885742188,17.87512969970703,0.8568216562271118,2.3732802867889404,-0.11347807943820953,,,,,,,,,
1739400736.6696196,-0.7081432686028708,0.6791969687177939,1.4212014694140775,-1.8789633083129342,-0.7131593340680727,1.9468068712422568,0.1883511875021148,0.0001845120237859874,0.0007257101694040087,0.00023127415124026462,0.0008886435809543315,-0.00014891012310889163,-0.0004924419400468844,-0.0010078667882061818,0.2689092457294464,-23.63736343383789,19.628707885742188,17.87512969970703,0.8568216562271118,2.3668715953826904,-0.10066069662570953,,,,,,,,,
1739400736.6806397,-0.7081374521105039,0.6792001627884077,1.42120321320886,-1.8789612323022855,-0.7131598462215466,1.9468091311704483,0.18834754282871716,0.0009363006863240507,0.0005202442676461414,-0.0008515457820626125,0.00032830331727553034,-0.00032057126628682995,0.0003465725191167963,-0.0022737659812939663,0.2173345386981964,-23.66513442993164,19.604904174804688,17.84735870361328,0.8641458749771118,2.3476455211639404,-0.07411040365695953,,,,,,,,,
1739400736.6915424,-0.7081411615972225,0.6791968391559178,1.421206006946038,-1.8789594497706428,-0.7131584308803243,1.946807628878335,0.18834718807108766,-9.131355915290186e-05,0.00016029613649771383,0.0007122827765114123,0.001414795225367244,-0.001158230509004345,-0.00025839449625955077,-0.0020858502440416022,0.2689092457294464,-23.63736343383789,19.577133178710938,17.82355499267578,0.8568216562271118,2.3604629039764404,-0.06678618490695953,,,,,,,,,
1739400736.7025213,-0.7081405647879543,0.6791980316124937,1.4212014645487272,-1.8789594497706437,-0.713159847885339,1.9468083865384869,0.18834699145373437,0.0013999726171501662,-0.0004149964085984904,-0.0005773540383049504,0.0012568083571154371,-0.0001458877139859949,0.0006902769437301762,-0.0015044128433637797,0.2411382496356964,-23.66513442993164,19.628707885742188,17.82355499267578,0.8641458749771118,2.3540542125701904,-0.07411040365695953,,,,,,,,,
1739400736.7126055,-0.7081378456086007,0.6791960327041275,1.421203211901036,-1.8789612324476628,-0.713159850592192,1.9468076288784086,0.18835321892150986,0.0018118251298618868,-0.00073774942782314,-0.0001922069370475942,0.0006828557237995297,-0.00016105912197599876,0.0005661889278246452,0.00015822118653131703,0.1935308277606964,-23.63736343383789,19.604904174804688,17.84735870361328,0.8641458749771118,2.3604629039764404,-0.12080229818820953,,,,,,,,,
1739400736.7235851,-0.7081466933233402,0.6791995050681088,1.421203212009454,-1.8789612326535823,-0.7131579208457182,1.9468077466159786,0.18834531713967018,-0.00047043679138098545,-2.894865884022922e-05,-0.00029008879634756176,-0.0003427777806030739,0.0007710245704021592,0.0007706369114837093,0.0001626041020349443,0.3165166676044464,-23.68893814086914,19.604904174804688,17.84735870361328,0.8568216562271118,2.3604629039764404,-0.05396880581974983,,,,,,,,,
1739400736.7336318,-0.7081429565983045,0.679196882138714,1.4212014295504694,-1.8789625282355165,-0.7131646581856853,1.9468076283958857,0.1883519511507627,-0.00018406061663594835,-0.001506630681927862,-0.0008979179141541576,0.0003763560717960733,-0.000790606519713876,-0.00036527116699599073,-0.00028214593352216867,0.2689092457294464,-23.68893814086914,19.628707885742188,17.89893341064453,0.8769632577896118,2.3604629039764404,-0.10706938803195953,,,,,,,,,
1739400736.7445474,-0.7081449811218402,0.6791960366468662,1.4212052956148806,-1.8789632857320762,-0.7131595573958958,1.9468068712183275,0.18835128571850598,-0.0005404455069197517,-0.0017526560857639574,0.0011654294365573503,0.0013788920504504193,-3.1258514171097346e-05,-0.00017566495026494097,-0.0012879881633131413,0.2927129566669464,-23.63736343383789,19.577133178710938,17.87512969970703,0.8705545663833618,2.3668715953826904,-0.11347807943820953,,,,,,,,,
1739400736.7545543,-0.7081450115391403,0.6792017411066152,1.4211972036664178,-1.878962949566791,-0.713161971465756,1.9468053558981735,0.1883440000119371,-0.001418566002289452,-0.0007934368501764785,-0.0004940023572650214,0.000402500472390015,-0.0009486005941323707,-0.0006604786606154402,-0.0013395929643901308,0.2927129566669464,-23.71670913696289,19.656478881835938,17.89893341064453,0.8641458749771118,2.3796889781951904,-0.06678618490695953,,,,,,,,,
1739400736.7655253,-0.7081432657504495,0.6792017498803392,1.4211997301722787,-1.8789650977368497,-0.7131587995656804,1.9468076288784086,0.18834991506462115,-0.000417657291673113,-0.0004861283879080119,-4.98403432906355e-06,-0.0005288445638682841,-0.0005387679936238799,0.0003220214104920065,-0.0022508876842667683,0.2689092457294464,-23.71670913696289,19.680282592773438,17.89893341064453,0.8641458749771118,2.3604629039764404,-0.06678618490695953,,,,,,,,,
1739400736.775623,-0.7081449811235531,0.6792041604260088,1.421198280740724,-1.8789654096405144,-0.7131571649564148,1.94680539514403,0.1883525119732941,-0.0010262920919946125,0.0018254918227972945,0.0004918048029181163,-0.0016124590135809303,0.0011106539058016824,0.00014676614856114027,0.0016653071512102895,0.2927129566669464,-23.71670913696289,19.680282592773438,17.89893341064453,0.8504129648208618,2.3796889781951904,-0.12080229818820953,,,,,,,,,
1739400736.7860496,-0.7081446779493589,0.6791997444906362,1.421197558047334,-1.8789612579627994,-0.7131564055195878,1.9468068712189948,0.18834324904120003,0.00022637275527687126,-0.00028022555763375845,1.5216114018977607e-05,0.0003275581434645963,0.00281388085514388,0.00033949417840613153,-0.00306364350242335,0.2927129566669464,-23.68893814086914,19.680282592773438,17.84735870361328,0.8440042734146118,2.3668715953826904,-0.06037749722599983,,,,,,,,,
1739400736.7965848,-0.7081432676381817,0.6792019628277755,1.4212052931801331,-1.8789612324478067,-0.7131578182088895,1.9468068712183302,0.1883535751274352,-6.182692866384956e-05,-2.764281155126955e-05,0.0015942398647597043,0.00038354818501458725,0.000644704161051148,0.00024669311695254165,0.0003211074471460324,0.2689092457294464,-23.68893814086914,19.577133178710938,17.84735870361328,0.8440042734146118,2.3668715953826904,-0.10706938803195953,0,0,0,0.000,0,0
1739400736.8076208,-0.7081433477547321,0.679199747351126,1.4212053576676582,-1.8789633145995375,-0.7131627231578805,1.9468068712183302,0.1883519511659634,-6.770753594660344e-05,-0.00021650895887529944,0.0011512721864475896,-0.0007134699076957322,-0.0006008962584768149,-0.0004662861841203613,4.91422654034913e-06,0.2689092457294464,-23.68893814086914,19.604904174804688,17.87512969970703,0.8705545663833618,2.3668715953826904,-0.10706938803195953,0,0,0,0.000,0,0
1739400736.8185203,-0.7081395584687816,0.6791981076649816,1.4212052917387448,-1.8789576661124916,-0.7131608137785678,1.9468075111408387,0.1883535747141068,0.00015980490241457724,-0.00022877245774127728,0.0008777668864058148,0.0015752871625571109,-9.806765663588853e-05,-0.00024695270683139695,0.0008728226805313017,0.2173345386981964,-23.66513442993164,19.577133178710938,17.79975128173828,0.8769632577896118,2.3604629039764404,-0.12080229818820953,0,0,0,0.000,0,0
1739400736.8285327,-0.7081431896387587,0.6792000435048006,1.4212032383913917,-1.8789653127290251,-0.7131592576958926,1.946805395142036,0.18834845780081882,-1.523998921443623e-05,0.0003638703593911039,-4.8509400620270674e-05,-0.0009823183849446849,-0.0006944904091034387,-0.00012416755889191658,7.572436529054672e-05,0.2689092457294464,-23.68893814086914,19.604904174804688,17.89893341064453,0.8641458749771118,2.3796889781951904,-0.08051909506320953,0,0,0,0.000,0,0
1739400736.8386018,-0.7081395581399487,0.6791981086511906,1.4211993494340118,-1.8789633112600608,-0.7131582740603999,1.9468083865391514,0.18835008135212641,0.0008921292477115997,-0.000762419895019395,-0.0007937694411415442,3.460468714069529e-05,2.6799929478496732e-05,0.00018987039662390117,0.000316551416668796,0.2173345386981964,-23.66513442993164,19.656478881835938,17.87512969970703,0.8568216562271118,2.3540542125701904,-0.09425200521945953,0,0,0,0.000,0,0
1739400736.8495471,-0.7081449639535392,0.6791981384988328,1.4212052959419277,-1.8789594620167989,-0.7131617278303815,1.946806877032531,0.18834881227732753,-0.0005862840988163444,0.0006315211509309869,4.203925692158639e-05,0.0002763999865946446,-0.0012512619428281363,-0.0003196500956507101,-0.00015441343952332903,0.2927129566669464,-23.66513442993164,19.577133178710938,17.82355499267578,0.8769632577896118,2.3668715953826904,-0.08051909506320953,0,0,0,0.000,0,0
1739400736.8595862,-0.7081431906014394,0.6792001369985652,1.4212041655748262,-1.8789612324478702,-0.7131585896210898,1.9468076287170013,0.18835508987225313,0.0007613483762292707,-0.00030592331894980157,0.00047609634105493203,0.0007272115027075106,-0.0007440590615745029,0.00030593732675968777,0.0011495778205180857,0.2689092457294464,-23.66513442993164,19.604904174804688,17.84735870361328,0.8504129648208618,2.3604629039764404,-0.13361968100070953,0,0,0,0.000,0,0
1739400736.8705492,-0.7081411664953529,0.6791980306806356,1.4212032119165883,-1.878960252597329,-0.7131587865995982,1.9468068319724707,0.1883504356746263,-0.000657219152349674,-0.0006139520682305676,5.7389547048321493e-08,0.0009696492425690811,0.0013678787549223225,-0.00022496930843725563,-7.559786248644769e-05,0.2689092457294464,-23.66513442993164,19.604904174804688,17.84735870361328,0.8641458749771118,2.3668715953826904,-0.09425200521945953,0,0,0,0.000,0,0
1739400736.8815951,-0.7081432685989147,0.6791980335338954,1.4212052917024063,-1.8789589718723634,-0.713158793035662,1.946806113558178,0.18835027836263926,-0.0002812458191465448,-4.89934735134733e-05,0.000800580975093222,0.001559205021988403,0.000594317521688957,-0.0005819340379465131,-0.0005285442997392204,0.2689092457294464,-23.66513442993164,19.577133178710938,17.84735870361328,0.8641458749771118,2.3732802867889404,-0.09425200521945953,0,0,0,0.000,0,0
1739400736.892541,-0.7081449811236014,0.6791980306450132,1.4212014194119547,-1.8789633121992353,-0.7131588403404431,1.946806113558252,0.18834774932716328,-0.0003455388479618292,-0.0007930294217412145,0.00022755425551718584,0.0011316769603857554,0.002334515036579118,-9.32219555218717e-05,-0.000609217881780933,0.2927129566669464,-23.66513442993164,19.628707885742188,17.87512969970703,0.8375955820083618,2.3732802867889404,-0.08051909506320953,0,0,0,0.000,0,0
1739400736.9025452,-0.708147206363673,0.6792008415749382,1.4211964963917676,-1.8789614629807314,-0.7131579265104296,1.9468053558981735,0.1883501305412188,-0.0009285774600219887,0.0002756095372889806,-0.0012100980120897608,-7.263672911588784e-05,0.00047442518766405893,-0.0005054196961070555,-0.0002980601826781065,0.2927129566669464,-23.66513442993164,19.704086303710938,17.84735870361328,0.8568216562271118,2.3796889781951904,-0.10066069662570953,0,0,0,0.000,0,0
1739400736.9135373,-0.7081410631984505,0.679204575835433,1.4211975540056616,-1.878963961017147,-0.7131579381208419,1.9468076288784086,0.1883567135855738,-0.0007911626598950169,0.002083668825522165,-0.0009262335707948387,-0.0006222578074751817,0.001373238071323183,0.0005360248651132108,0.0012261127024644114,0.2411382496356964,-23.71670913696289,19.680282592773438,17.84735870361328,0.8568216562271118,2.3604629039764404,-0.14735259115695953,0,0,0,0.000,0,0
1739400736.9235635,-0.7081449434569861,0.6792025665513421,1.421204290246152,-1.8789595253651261,-0.7131579226165685,1.9468118674309258,0.1883504338925158,-0.000518472358449147,-0.0003759605340638633,0.0008143776576333523,0.0003036140041667978,0.00035103409458761125,0.0011255319325850065,-0.0003007062355163896,0.2927129566669464,-23.68893814086914,19.628707885742188,17.82355499267578,0.8568216562271118,2.3604629039764404,-0.09425200521945953,0,0,0,0.000,0,0
1739400736.934636,-0.7081432686026575,0.6792027594172054,1.4211972743250438,-1.8789650860846463,-0.7131593785891138,1.9468069104881136,0.1883503985974555,7.489470313503711e-05,0.001930624798697136,-0.00030410381382651807,0.0002824288294778676,-0.0015193487355385415,5.8094919622304105e-05,-0.0018130591000181313,0.2689092457294464,-23.71670913696289,19.656478881835938,17.89893341064453,0.8568216562271118,2.3668715953826904,-0.12080229818820953,0,0,0,0.000,0,0
1739400736.9455712,-0.7081405599849632,0.6791943231137254,1.4212014279035095,-1.8789597558882756,-0.713158222664487,1.9468036923041636,0.18835310227417817,0.0009553909609793228,-0.00221977414503451,0.0008174307261954681,0.0014504616223955736,-5.409542166415524e-06,-0.0007449821288511046,-0.0014526205818930341,0.2411382496356964,-23.61355972290039,19.628707885742188,17.82355499267578,0.8504129648208618,2.3668715953826904,-0.12080229818820953,0,0,0,0.000,0,0
1739400736.9556172,-0.7081432685908348,0.6792020532181559,1.4211992834561844,-1.87896540415184,-0.7131579250568021,1.946806871164495,0.1883567137460884,8.018882771846487e-05,-0.0003615997894347762,-7.174180169727292e-05,-0.0001557814483012555,-0.00010583355367737191,0.00025721966342895044,0.002328786369085964,0.2689092457294464,-23.71670913696289,19.628707885742188,17.87512969970703,0.8568216562271118,2.3668715953826904,-0.14735259115695953,0,0,0,0.000,0,0
1739400736.966597,-0.7081411626084267,0.6791963216787438,1.4212032118883249,-1.8789635422575033,-0.7131582364380916,1.9468083908991374,0.18835043729927514,5.080096174199343e-05,-0.0017723736461502145,0.000505581761293804,0.0006356112292314117,0.0006511809521366379,0.00021904287581425588,-0.0005114130288412699,0.2689092457294464,-23.61355972290039,19.604904174804688,17.87512969970703,0.8504129648208618,2.3540542125701904,-0.09425200521945953,0,0,0,0.000,0,0
1739400736.9775293,-0.7081419859058661,0.679196067382583,1.4212029734818588,-1.8789612324489613,-0.7131597147914719,1.9468083865385113,0.188353574714115,0.0013671425549557164,-0.0015333827966384783,7.9346422236596e-05,0.0011198673805374473,-0.0011346380281348728,8.865803254064445e-05,0.001522400006263063,0.2411382496356964,-23.63736343383789,19.604904174804688,17.84735870361328,0.8705545663833618,2.3540542125701904,-0.12080229818820953,0,0,0,0.000,0,0
1739400736.9875498,-0.7081432657260518,0.6792034536278669,1.4212015086922407,-1.8789612295042235,-0.7131578186962937,1.946806113558252,0.1883456734023016,-0.0007429749633615343,0.0015741577626486368,-0.0012076242114741923,0.0010281225412368618,0.00016040008988967247,-0.0008151098515933714,-0.0011047789066105167,0.2689092457294464,-23.74051284790039,19.628707885742188,17.84735870361328,0.8440042734146118,2.3732802867889404,-0.05396880581974983,0,0,0,0.000,0,0
1739400736.997616,-0.708143268602724,0.6791960413709045,1.4212021454643398,-1.8789650949143877,-0.7131576220514104,1.9468070282017567,0.18834804149641696,-0.00019588155167863693,-0.001338340066495991,-8.563801962123446e-05,-0.001033362114659724,2.0968826494513433e-05,-4.7182630434682916e-05,-0.0019617892817538687,0.2689092457294464,-23.63736343383789,19.628707885742188,17.89893341064453,0.8440042734146118,2.3668715953826904,-0.07411040365695953,0,0,0,0.000,0,0
1739400737.008586,-0.7081412436986602,0.6791929592629792,1.421201429273218,-1.8789660554744458,-0.7131618725232142,1.9468061135585473,0.18835595593147117,0.00040978468310091216,-0.0021259886037550873,-0.0007180585568252074,-0.0009225119206017203,-0.0031607722666951036,-0.0006916343143326957,0.0012143895770815197,0.2411382496356964,-23.63736343383789,19.628707885742188,17.87512969970703,0.8504129648208618,2.3732802867889404,-0.14094389975070953,0,0,0,0.000,0,0
1739400737.020581,-0.7081395581411338,0.6792038471199808,1.42120535766765,-1.8789633122166653,-0.7131571635292299,1.94681080730828,0.18834490526189804,0.0007310040140412163,0.0009965078831497224,0.00041147754982338045,0.0003227775936101935,0.0014358657986044286,0.0007672649262960868,-0.0005701106728399778,0.2173345386981964,-23.71670913696289,19.604904174804688,17.87512969970703,0.8504129648208618,2.3604629039764404,-0.07411040365695953,0,0,0,0.000,0,0
1739400737.0315373,-0.7081415090805964,0.6791980345008353,1.4212039271965515,-1.8789629491473254,-0.7131569199866177,1.9468072756716794,0.18834865478140161,0.00030587804631469116,-0.00011798041183412437,0.00016160319763783602,-0.00042916141284252455,-0.00015627170960231065,-0.00018890061848117606,-0.0011251702859662448,0.2411382496356964,-23.66513442993164,19.604904174804688,17.89893341064453,0.8440042734146118,2.3604629039764404,-0.08051909506320953,0,0,0,0.000,0,0
1739400737.0425303,-0.7081449809822841,0.6792002493440815,1.421203212885622,-1.8789633122254055,-0.7131602010980739,1.9468072205529119,0.18835043513370567,-0.0016380859960218308,0.0004322225014208907,-0.00017051570544327494,0.0002630732043081755,0.00015023503358042617,0.00047703298432742774,-6.81917649480855e-05,0.2927129566669464,-23.66513442993164,19.604904174804688,17.87512969970703,0.8641458749771118,2.3668715953826904,-0.09425200521945953,0,0,0,0.000,0,0
1739400737.0526507,-0.7081405686517541,0.6791970478264805,1.4212010308119716,-1.8789650949145371,-0.7131582764615713,1.9468061135641679,0.18835677349669783,0.0008355665257717676,-0.0008420638721025244,-0.0002748082507912629,-0.00042584086282186775,-0.0003787289305150068,-4.419999348634796e-06,0.0008756844408004482,0.2411382496356964,-23.63736343383789,19.604904174804688,17.89893341064453,0.8504129648208618,2.3732802867889404,-0.12080229818820953,0,0,0,0.000,0,0
1739400737.0636115,-0.7081413491600113,0.6791997817019682,1.4211986340318727,-1.87896146235086,-0.7131583462268843,1.9468068726718804,0.18834892610913637,0.00021340437135069379,0.0002751403798230772,0.00033757631474898373,0.0002250678370077935,7.757598981938401e-05,0.0003101626644360431,-0.000645760941194853,0.2411382496356964,-23.68893814086914,19.656478881835938,17.84735870361328,0.8504129648208618,2.3668715953826904,-0.08051909506320953,0,0,0,0.000,0,0
1739400737.073618,-0.7081432686033133,0.6792010730106371,1.421199349102476,-1.8789633119117675,-0.7131618920697796,1.94680611355826,0.18835271028015188,-0.0007783247141788503,-4.848840519451874e-05,-0.00015617066332994863,0.00012066120578548758,-0.002157764864598538,2.8629301872424234e-05,-0.0005466744753876891,0.2689092457294464,-23.66513442993164,19.656478881835938,17.87512969970703,0.8504129648208618,2.3732802867889404,-0.11347807943820953,0,0,0,0.000,0,0
1739400737.084578,-0.7081411625720881,0.6792007701443821,1.4211993453999594,-1.8789659338996996,-0.7131625261981034,1.946806113558252,0.1883434989637785,0.0007202632749357277,0.0006674778751888454,2.4215640179316877e-05,-0.0008176419125321676,-0.0003806573031172385,-0.0005827501044049102,-0.0029918706739609155,0.2689092457294464,-23.68893814086914,19.656478881835938,17.89893341064453,0.8568216562271118,2.3732802867889404,-0.04756011441349983,0,0,0,0.000,0,0
1739400737.0955207,-0.7081412706501286,0.6791997431714928,1.4212011113319571,-1.8789632987467508,-0.7131606101983623,1.946806111620185,0.18834996340664226,0.00014530732872161916,-0.0007287689717977262,0.0002595846428649861,0.0016777404123326305,-4.8161514598225484e-05,-0.0006761429690674906,-0.0010934809847705186,0.2411382496356964,-23.68893814086914,19.628707885742188,17.84735870361328,0.8705545663833618,2.3732802867889404,-0.09425200521945953,0,0,0,0.000,0,0
1739400737.1065078,-0.7081401693598374,0.67919998915283,1.4212022489579441,-1.8789671099895662,-0.7131576284458461,1.9468076288783975,0.18835155037697496,0.0004605346717303049,4.6338427479063096e-05,0.0005322336096008798,-0.0018350255602003196,-0.0004665325303410236,-0.000299211565380001,0.00011228514335014187,0.2173345386981964,-23.68893814086914,19.604904174804688,17.92273712158203,0.8440042734146118,2.3604629039764404,-0.10066069662570953,0,0,0,0.000,0,0
1739400737.1166103,-0.7081435060688234,0.6792018492006433,1.4212032128652767,-1.8789676674183569,-0.7131579387875445,1.946806113558252,0.1883510491924761,-0.0003570138684931128,-0.0006302892006846271,0.001166436365800142,-0.0016739727747778917,0.0012566564308455603,-0.0004302568440382594,-0.0004953970032898781,0.2689092457294464,-23.68893814086914,19.604904174804688,17.92273712158203,0.8568216562271118,2.3732802867889404,-0.10066069662570953,0,0,0,0.000,0,0
1739400737.1275504,-0.7081411246963317,0.6792058731011433,1.4212052916902986,-1.878963312241977,-0.7131620197558047,1.9468065180056204,0.18834956993859236,0.0005349603393830676,0.0015733714194590316,0.0009932028956890727,0.00032612094354033186,-0.0010131579771547842,-0.0007202769237758923,-0.0008419490452052999,0.2689092457294464,-23.74051284790039,19.577133178710938,17.87512969970703,0.8641458749771118,2.3668715953826904,-0.08692778646945953,0,0,0,0.000,0,0
1739400737.137569,-0.7081367499569385,0.6792005271769759,1.4212032092840472,-1.8789650977489603,-0.7131600617376946,1.9468076288724268,0.18835427988285183,0.001354781840529163,0.00066722772214725,0.00018525976840941,-8.132013159739136e-06,0.0010629293198614112,-0.0008175927483333582,0.00028799448607911833,0.2173345386981964,-23.68893814086914,19.604904174804688,17.89893341064453,0.8440042734146118,2.3604629039764404,-0.12721098959445953,0,0,0,0.000,0,0
1739400737.147601,-0.7081413058287339,0.6791987329894946,1.4212031488664763,-1.8789612324477107,-0.7131583327408691,1.94680687121833,0.18834577291776589,-0.0004117756279329381,-9.373463738590555e-05,0.0011935758686740599,0.0005746878893414177,0.0011598149307282491,-0.0003920744578280587,-0.00248131851597731,0.2411382496356964,-23.66513442993164,19.577133178710938,17.84735870361328,0.8568216562271118,2.3668715953826904,-0.06678618490695953,0,0,0,0.000,0,0
1739400737.158587,-0.7081431763753055,0.6792008387969692,1.4212063112935311,-1.8789566139304523,-0.7131569171715677,1.9468068726718804,0.18835195114880376,-0.00148285909900168,0.0002815967302751066,0.0006230047103910773,0.001302508321219772,0.001479959390586334,-0.0007241525459792502,-0.0002640012391773077,0.2689092457294464,-23.66513442993164,19.604904174804688,17.82355499267578,0.8440042734146118,2.3668715953826904,-0.10706938803195953,0,0,0,0.000,0,0
1739400737.1685915,-0.7081449801590626,0.6791962680390571,1.4212014292759072,-1.8789634151735282,-0.713161134250184,1.9468061135582764,0.1883452787729129,-0.0007665568371987129,0.0006573165303619915,7.151488367289693e-05,-0.0005117999354546106,-0.0021434836098462736,-0.00027173152414619557,-0.002142613163984735,0.2927129566669464,-23.63736343383789,19.628707885742188,17.87512969970703,0.8440042734146118,2.3732802867889404,-0.08692778646945953,0,0,0,0.000,0,0
1739400737.1805084,-0.7081412742656051,0.6791970506078345,1.4211993582638813,-1.8789612324482436,-0.7131579549231416,1.9468083865384869,0.1883504358124156,0.0010321656844825724,-0.0004905381111810333,-0.0007334259482927734,0.0005390824990677699,6.56985383904294e-05,-0.00021900286665172292,-4.510567679050188e-05,0.2411382496356964,-23.63736343383789,19.656478881835938,17.84735870361328,0.8440042734146118,2.3540542125701904,-0.09425200521945953,0,0,0,0.000,0,0
1739400737.1905699,-0.7081449811236218,0.6792004464656716,1.4211993568103807,-1.8789650859752032,-0.7131614602597542,1.946806113558252,0.18834987854019614,-0.0005739237459548025,0.0001530453788033796,-0.0013798958960573502,2.7634124332169248e-05,-0.0006384981846459985,-0.000193766859459623,9.49255150959888e-05,0.2927129566669464,-23.68893814086914,19.656478881835938,17.89893341064453,0.8504129648208618,2.3732802867889404,-0.08051909506320953,0,0,0,0.000,0,0
1739400737.2005868,-0.7081394801401459,0.6792007613891483,1.4212031412582706,-1.8789633160162948,-0.7131635491088837,1.9468076288784086,0.18835193808813439,0.0008363051069901103,0.001019696364359585,0.00036638630528987515,-0.0003209525475799603,-0.0016650470025748008,0.00018285251844570981,0.000370667514975443,0.2173345386981964,-23.68893814086914,19.604904174804688,17.87512969970703,0.8641458749771118,2.3604629039764404,-0.10706938803195953,0,0,0,0.000,0,0
1739400737.2115982,-0.7081412710979355,0.6792040811545553,1.421201066133093,-1.8789612328792487,-0.7131621730394397,1.9468068712183302,0.1883474452456208,0.000634661089335515,0.0018365277073327073,-0.00011723303277710016,-5.0649324660911594e-05,-0.000454081150553276,-0.00018549800298149022,-0.0005578937193103338,0.2411382496356964,-23.71670913696289,19.604904174804688,17.84735870361328,0.8568216562271118,2.3668715953826904,-0.08692778646945953,0,0,0,0.000,0,0
1739400737.2225454,-0.7081405689788077,0.6792000147384298,1.421201349738446,-1.878967236757166,-0.7131558221480053,1.9468068712183302,0.18835183303930222,0.0004182326164344281,0.0004556539580629448,-0.001081054811048457,-0.0011080708399978235,0.0007430799267090066,-0.00035890807223105286,-0.0006269575881908813,0.2411382496356964,-23.68893814086914,19.628707885742188,17.89893341064453,0.8375955820083618,2.3668715953826904,-0.10706938803195953,0,0,0,0.000,0,0
1739400737.2336135,-0.7081432685909871,0.6791980653167367,1.4212024963163055,-1.8789635448014537,-0.7131586955475581,1.9468076288784086,0.18834718872001754,-0.0009640198243036101,-0.00017759224490392005,-0.0002838243076447193,-0.0005419581513800577,-0.00027394165687201705,0.00042611861702516367,-0.000997763805310865,0.2689092457294464,-23.66513442993164,19.604904174804688,17.87512969970703,0.8504129648208618,2.3604629039764404,-0.06678618490695953,0,0,0,0.000,0,0
1739400737.2445753,-0.7081432426024902,0.6791980307521575,1.4211978179259872,-1.8789611532910517,-0.7131608197987978,1.9468044900009411,0.1883543307540822,0.00030853261418103197,-0.0015286507406433105,0.0006545732819797273,0.000662409877203996,-0.0010146701991323112,-0.0007586281058461138,0.0007626989154481605,0.2689092457294464,-23.66513442993164,19.680282592773438,17.84735870361328,0.8440042734146118,2.3870131969451904,-0.12721098959445953,0,0,0,0.000,0,0
1739400737.2555768,-0.7081434165381965,0.679202551218627,1.4212028940094716,-1.8789612045030104,-0.7131582640638281,1.9468068712183302,0.1883519687084122,-0.0007632764237321013,0.0013169926640874442,-4.179160071205167e-05,0.00023135753364847243,0.001946136270375596,-0.0001289619634113491,0.0013256692601981727,0.2411382496356964,-23.68893814086914,19.604904174804688,17.84735870361328,0.8504129648208618,2.3668715953826904,-0.10706938803195953,0,0,0,0.000,0,0
1739400737.2665048,-0.7081442791254543,0.6792002440100389,1.4212007139658869,-1.878959086680293,-0.7131579758445529,1.9468068712183302,0.18834803712223824,-0.0008753672353689915,0.0004184233341442775,-0.00033098505607987556,0.002218213451014913,0.000773815680716568,-0.00030792156815635037,-0.0007687706896404342,0.2927129566669464,-23.66513442993164,19.628707885742188,17.84735870361328,0.8440042734146118,2.3668715953826904,-0.07411040365695953,0,0,0,0.000,0,0
1739400737.2766366,-0.7081432691441384,0.6791997518699724,1.4211954121469015,-1.878963312621094,-0.713157692783036,1.9468068712183302,0.1883539780573893,0.00010901356165412675,6.267261048743301e-05,-0.001364724648307786,0.0007123269210437251,0.001297190673204616,-3.763806716171966e-05,0.00017156904898783863,0.2689092457294464,-23.68893814086914,19.680282592773438,17.87512969970703,0.8504129648208618,2.3668715953826904,-0.12721098959445953,0,0,0,0.000,0,0
1739400737.2875397,-0.7081391646312382,0.6791980309660057,1.4211993494214004,-1.8789633122375207,-0.7131626316375439,1.9468076288784086,0.1883464296022872,0.0014644170276944743,-0.000557296399439838,-0.0003301311422793137,0.0007749548883317697,-0.0007184197156045185,0.0003438757891224723,-0.0012777955763094498,0.2411382496356964,-23.66513442993164,19.656478881835938,17.87512969970703,0.8568216562271118,2.3604629039764404,-0.06037749722599983,0,0,0,0.000,0,0
1739400737.2985861,-0.708141508937933,0.6791952571600435,1.4211989655647679,-1.8789613089770831,-0.7131608702970579,1.9468053558981735,0.18835038586558656,-0.0004295170510590566,-0.00063757489418083,-0.0012157993351533578,0.0012633933765631373,-0.0005198191469136785,-0.00043952196932492307,0.0016669390039931343,0.2411382496356964,-23.61355972290039,19.628707885742188,17.84735870361328,0.8504129648208618,2.3796889781951904,-0.12080229818820953,0,0,0,0.000,0,0
1739400737.3085902,-0.70814127034237,0.6791982649746661,1.4212050522403215,-1.8789650949149692,-0.71316181364615,1.9468076274248582,0.1883471871919207,6.026969262154844e-05,-0.00045807862016099705,-0.00015168280474819212,-0.00033311294944861147,-0.001244630186729807,-0.0001574251864955416,-0.0016361732171134833,0.2411382496356964,-23.66513442993164,19.577133178710938,17.89893341064453,0.8504129648208618,2.3604629039764404,-0.06678618490695953,0,0,0,0.000,0,0
1739400737.3186042,-0.70814333652,0.6792017421804913,1.4212034620887188,-1.878965108650587,-0.7131610385474645,1.9468079820910937,0.18835270897936346,-0.0013980786643368037,0.0015677090167813808,-0.00029431722693886776,-0.0005144471402107645,0.0011047704069258684,0.00012190985687056323,0.0006007032895871979,0.2689092457294464,-23.71670913696289,19.604904174804688,17.89893341064453,0.8440042734146118,2.3604629039764404,-0.11347807943820953,0,0,0,0.000,0,0
1739400737.3305132,-0.7081395666509948,0.6791989666586512,1.4212052916917055,-1.8789633035472497,-0.7131625654434189,1.9468076288804026,0.1883522759215394,0.0005354253145679478,-0.0013267377336611702,0.001051381647265155,-0.00044843006863726274,0.0010397808796551082,-7.076305424981498e-05,0.0009099149608832565,0.2173345386981964,-23.66513442993164,19.577133178710938,17.87512969970703,0.8568216562271118,2.3604629039764404,-0.12080229818820953,0,0,0,0.000,0,0
1739400737.3415527,-0.7081449811236494,0.67920044518124,1.4212070743673124,-1.8789640010022535,-0.7131579948145457,1.9468076288784086,0.18835461128653117,-0.0010347003074973778,0.0007647037773948558,0.0010377502413858593,-0.0011296296110773828,0.0007271742055772283,0.00021682593510902423,6.57206647159791e-05,0.2927129566669464,-23.68893814086914,19.553329467773438,17.87512969970703,0.8440042734146118,2.3604629039764404,-0.13361968100070953,0,0,0,0.000,0,0
