IITGN-Robotics/Franka_IITGN_ROBOTICS/franka_ros/franka_iitgn/data/b_08.csv
time,fr3_joint1_pos,fr3_joint2_pos,fr3_joint3_pos,fr3_joint4_pos,fr3_joint5_pos,fr3_joint6_pos,fr3_joint7_pos,fr3_joint1_vel,fr3_joint2_vel,fr3_joint3_vel,fr3_joint4_vel,fr3_joint5_vel,fr3_joint6_vel,fr3_joint7_vel,fr3_joint1_eff,fr3_joint2_eff,fr3_joint3_eff,fr3_joint4_eff,fr3_joint5_eff,fr3_joint6_eff,fr3_joint7_eff,flexpin1,flexpin2,flexpin3,Force,ContactMic,ContactMic_gt
1739400762.3391545,-0.7080584202044565,0.6787997403917424,1.4210234353909639,-1.8790091536009212,-0.7127841564062197,1.947032895189803,0.18813533216042508,-9.927444945153762e-05,-0.0010075083419214832,-0.0017790163732184607,0.0007686149516508942,-0.0019398877775904052,-0.0004829971960868591,9.808935767572412e-05,0.2411382496356964,-23.63736343383789,19.577133178710938,17.84735870361328,0.8568216562271118,2.3604629039764404,-0.10066069662570953,,,,,,,,,
1739400762.349247,-0.7080636931473895,0.6788131604278664,1.421016887837046,-1.8790082005806914,-0.7127832635667343,1.947032928621237,0.18813943151655046,-0.0008177802571273767,0.0013501628009230946,-5.428334527939437e-05,0.0003204415190203049,0.0005797599808185403,-0.000756066830379674,0.0023274499350147532,0.3165166676044464,-23.68893814086914,19.604904174804688,17.84735870361328,0.8504129648208618,2.3604629039764404,-0.10706938803195953,,,,,,,,,
1739400762.3601823,-0.7080716852008884,0.678821049756889,1.420997889712112,-1.879004880332842,-0.7127845460115236,1.94703141911547,0.18813790522663038,-0.0005275871008187413,-0.0003270321924468974,-0.0015414318975072079,0.0007133495112255502,-0.000785115790742478,-0.00047873001406214085,0.0020026074587503693,0.3442876636981964,-23.71670913696289,19.704086303710938,17.82355499267578,0.8568216562271118,2.3732802867889404,-0.12080229818820953,,,,,,,,,
1739400762.371173,-0.7080716037070595,0.6788321206200432,1.4209845004567558,-1.8790105102436676,-0.7127880182992242,1.947031419115503,0.188133964890762,-0.0006904296784320284,0.0013560834688226603,-0.0003571021934452213,6.466508081694265e-05,-0.0006553116300497386,0.00020174146135764118,-0.003708449122965979,0.3680913746356964,-23.79208755493164,19.755661010742188,17.87512969970703,0.8504129648208618,2.3732802867889404,-0.06037749722599983,,,,,,,,,
1739400762.3812325,-0.708072850100064,0.6788299263633437,1.4209700204029685,-1.8790151548308518,-0.7127880299994093,1.9470294423454824,0.18813903016216907,0.0004665228048660241,-0.0007340815329704369,-0.0017690497151951607,-0.0003112812691437968,0.0006855392572424439,0.0008953554633145674,5.2175306800209716e-05,0.3165166676044464,-23.71670913696289,19.783432006835938,17.94654083251953,0.8504129648208618,2.3870131969451904,-0.10066069662570953,,,,,,,,,
1739400762.3922076,-0.708075083035296,0.6788349732920574,1.4209623654478392,-1.8790186975060428,-0.7127912501038435,1.9470243916496757,0.1881355051186959,-0.0007486306842721879,-0.000556116571076013,-0.0014590837234371204,-0.0022162113768120374,0.0006806336000049487,-0.000415315350641441,-0.0007599103305372913,0.3442876636981964,-23.74051284790039,19.755661010742188,17.97431182861328,0.8504129648208618,2.3934218883514404,-0.06037749722599983,,,,,,,,,
1739400762.4022324,-0.7080729861310497,0.6788386341789633,1.4209721996034383,-1.8790112255433942,-0.7127883488023786,1.947026650750125,0.18814102083219197,-0.0011343557958026006,0.001069459025949582,0.0005159943707833141,0.0005752773449567775,0.0009101975528096637,0.0001255575997346721,0.0007347994190037522,0.3442876636981964,-23.76828384399414,19.628707885742188,17.87512969970703,0.8440042734146118,2.3732802867889404,-0.10706938803195953,,,,,,,,,
1739400762.4131725,-0.7080710950740504,0.6788365598680217,1.4209714785792549,-1.879009006188357,-0.7127928736672309,1.9470277616167087,0.188137127003205,-0.0002259931138797411,-0.0004221467338072068,-0.0008369092317103711,-0.000305921616148565,-0.0003057800335668155,-9.164190888785064e-05,-0.0003957863682104826,0.3165166676044464,-23.71670913696289,19.628707885742188,17.87512969970703,0.8641458749771118,2.3668715953826904,-0.07411040365695953,,,,,,,,,
1739400762.4241507,-0.7080714105478988,0.6788307435275548,1.420974441819055,-1.879013015909857,-0.7127934383480821,1.9470274084059926,0.188143760395131,0.0001211538488187845,-0.0011756658250943138,1.3363193016996118e-05,-0.0007488393351942552,-0.0008898132408340813,-0.00021338653825545077,0.0015142494060231344,0.2927129566669464,-23.66513442993164,19.628707885742188,17.89893341064453,0.8568216562271118,2.3668715953826904,-0.12721098959445953,,,,,,,,,
1739400762.434203,-0.7080676911456428,0.6788315488854632,1.420978317311932,-1.8790186620838076,-0.7127894619907534,1.9470281660640774,0.1881450358473348,0.0008556142838819915,-0.0011813851581749055,0.0006435711080818567,-0.0015302688423317716,-0.00011820487458087623,-5.549600478833318e-05,0.0023768366306466957,0.2411382496356964,-23.66513442993164,19.577133178710938,17.97431182861328,0.8504129648208618,2.3604629039764404,-0.14094389975070953,,,,,,,,,
1739400762.4442196,-0.7080634167574003,0.67882851914884,1.4209819182053485,-1.879013017048935,-0.712790219648813,1.947027408403999,0.18813945571748128,0.0023824552875371,-0.0006228336363212624,-0.00013546400775236777,0.0003727956497993562,-0.0008290528396659069,-0.00034088877248534947,-0.0024159677097267372,0.1935308277606964,-23.63736343383789,19.529525756835938,17.89893341064453,0.8568216562271118,2.3668715953826904,-0.06678618490695953,,,,,,,,,
1739400762.454267,-0.7080666433887032,0.6788249090677091,1.4209841208796543,-1.8790178726765308,-0.7127881904229794,1.9470257448097676,0.1881434196552732,-0.000133247098330825,-0.0010243137481321042,-0.0002564770095851795,-0.0018251274571988811,0.0007883618984837052,-0.0006126985242512289,0.0007067737184024581,0.2689092457294464,-23.58578872680664,19.529525756835938,17.92273712158203,0.8504129648208618,2.3540542125701904,-0.12721098959445953,,,,,,,,,
1739400762.4652286,-0.7080677520099475,0.6788190591297033,1.4209871809921661,-1.879011234498281,-0.7127880713538853,1.9470289237062104,0.18814420848803987,-0.0008788233024139769,-0.002634132063277938,0.0012179742342231098,-0.0006343285107576201,0.00044328921574588397,0.0007173878336364847,0.0009047710042659006,0.2411382496356964,-23.51041030883789,19.501754760742188,17.87512969970703,0.8504129648208618,2.3540542125701904,-0.12080229818820953,,,,,,,,,
1739400762.4771867,-0.7080646306979118,0.67882760847008,1.4209871840501556,-1.8790112225981614,-0.7127898635231711,1.9470281660640771,0.1881398308649618,0.001861387257755749,-0.0001845813492905166,0.0005693189982588554,-0.000683038232009408,0.0016432662156584499,-6.807883104169844e-05,0.0004282542693853735,0.2411382496356964,-23.58578872680664,19.501754760742188,17.87512969970703,0.8568216562271118,2.3604629039764404,-0.06678618490695953,,,,,,,,,
1739400762.4881654,-0.7080714105419764,0.678824811563851,1.4209815358538123,-1.8790112343718957,-0.7127928415253602,1.9470296813842338,0.18813663722657634,-0.001374351264962079,-0.0003308637485096947,-0.0006602421219029372,-0.0010866194008217803,-0.0010798694971045331,0.0005745702127881297,-0.0013167336287907597,0.2927129566669464,-23.58578872680664,19.577133178710938,17.87512969970703,0.8504129648208618,2.3476455211639404,-0.06678618490695953,,,,,,,,,
1739400762.498202,-0.7080711390346067,0.6788333174094948,1.4209812974352274,-1.879012989576837,-0.7127893064222568,1.947025875641239,0.18814280723586702,0.0006110999170992784,0.0003831758257062008,-2.6454975519281756e-05,-0.0005841515311365047,0.000413697753674791,-0.0008662876631373451,0.001763408053851321,0.2927129566669464,-23.66513442993164,19.577133178710938,17.89893341064453,0.8568216562271118,2.3796889781951904,-0.12080229818820953,,,,,,,,,
1739400762.5082364,-0.7080700252993014,0.678835055015004,1.4209794560599134,-1.8790092340544566,-0.7127925010742927,1.9470281268179253,0.18813486659177592,-0.0013868627972047978,0.00012751995966447347,0.0010114421518734637,0.0007397780857421443,5.831470315690039e-05,0.00027850360430931715,-0.003494075707757032,0.2689092457294464,-23.68893814086914,19.604904174804688,17.84735870361328,0.8504129648208618,2.3604629039764404,-0.05396880581974983,,,,,,,,,
1739400762.5192356,-0.7080688275448866,0.678835940177384,1.4209734478298646,-1.8790073755030285,-0.7127936163787102,1.947028923723934,0.1881473282347825,0.0009751264115336665,0.00035914353503799647,-0.0005328149009171184,0.001066055396567283,-0.0005197633366550397,3.499621219871474e-05,0.0007913467608146826,0.2689092457294464,-23.74051284790039,19.656478881835938,17.82355499267578,0.8568216562271118,2.3540542125701904,-0.12080229818820953,,,,,,,,,
1739400762.5312688,-0.7080697470385332,0.678836981353608,1.4209748399554998,-1.8790073705968682,-0.7127925024524981,1.947025893083842,0.18814214876682958,-0.0004220433963255468,0.0011506382811869017,0.0007999744439917271,0.0006443626252732876,-0.0006246236357631598,-0.00036876255595972413,0.0012162727449778871,0.2689092457294464,-23.74051284790039,19.656478881835938,17.82355499267578,0.8568216562271118,2.3796889781951904,-0.10706938803195953,,,,,,,,,
1739400762.5422285,-0.7080696993828627,0.6788352669670206,1.4209705894757936,-1.8790083243868367,-0.7127934956976266,1.9470266507439205,0.1881446972210839,0.0001270027356397495,-0.0008032887066263024,-0.0004283061080055594,0.0007304151639884042,-0.0017536195652608883,0.00012274787117772,0.0008387482862528559,0.2689092457294464,-23.68893814086914,19.680282592773438,17.84735870361328,0.8568216562271118,2.3732802867889404,-0.13361968100070953,,,,,,,,,
1739400762.5532002,-0.7080712544857427,0.6788353539711656,1.4209676929815642,-1.8790130167172014,-0.7127928000692171,1.947027407919482,0.1881384018431963,-0.0002676314573224957,-0.0003425324923205385,-0.000648478335124669,0.00016435961444695823,-0.00020274003239169905,0.000522478243777753,-0.0024149601654074146,0.2927129566669464,-23.68893814086914,19.680282592773438,17.89893341064453,0.8504129648208618,2.3668715953826904,-0.08051909506320953,,,,,,,,,
1739400762.563233,-0.7080714885846994,0.6788336677771801,1.4209714777905886,-1.879014799725939,-0.7127892301656518,1.9470258407560088,0.1881437721072281,-0.0011198679997913243,-0.0018476875216764037,-0.0004723944316104375,-0.00014732693881688012,0.0016267268137202765,-0.0008455316692227597,-0.000646752047155297,0.2927129566669464,-23.66513442993164,19.628707885742188,17.92273712158203,0.8504129648208618,2.3796889781951904,-0.12080229818820953,,,,,,,,,
1739400762.5742269,-0.7080676610572944,0.6788391260820881,1.4209744543913507,-1.879016582402975,-0.712792047720648,1.9470274084039003,0.18814743376262577,0.0006888760169239563,0.0003957747749346672,0.0008438157444169235,-0.0002599366867520796,0.0007599364219803075,0.00033719354089683314,0.002078474526435746,0.2689092457294464,-23.74051284790039,19.628707885742188,17.94654083251953,0.8568216562271118,2.3668715953826904,-0.12080229818820953,,,,,,,,,
1739400762.5852194,-0.7080668160851302,0.6788317489840626,1.4209740916459155,-1.8790133801391298,-0.7127914228408057,1.9470274084039987,0.18814506573369985,-0.00043411417094844804,-0.0014920685961677489,-0.0005316534774012955,0.0008751022515422841,-0.00029605968424627525,-7.309886965139125e-05,-0.00023654869586088633,0.2411382496356964,-23.63736343383789,19.604904174804688,17.87512969970703,0.8504129648208618,2.3668715953826904,-0.10066069662570953,,,,,,,,,
1739400762.5952394,-0.7080683852953865,0.6788336674519009,1.420980099976911,-1.8790133801512428,-0.712791269963957,1.9470281660640771,0.1881426845165341,-0.000802613714378091,0.00016330960596010663,-2.028800368402046e-05,-0.00010453331574461502,0.0009615196887741342,0.0005440888252274771,-8.872021328701091e-05,0.2689092457294464,-23.66513442993164,19.553329467773438,17.87512969970703,0.8504129648208618,2.3604629039764404,-0.08051909506320953,,,,,,,,,
1739400762.6052892,-0.7080697673855159,0.6788336674514523,1.4209783172029902,-1.8790112344082568,-0.712791267982856,1.9470296813842338,0.18814344233912744,-0.0003544428280966797,7.025022482974488e-05,0.0002385957207197812,-0.0005087172751542087,0.001080015401085801,0.00046294104934606307,1.6438574929318015e-06,0.2689092457294464,-23.66513442993164,19.577133178710938,17.87512969970703,0.8504129648208618,2.3476455211639404,-0.08692778646945953,,,,,,,,,
1739400762.6162772,-0.7080733070810885,0.6788337705263341,1.4209810535543241,-1.8790091545820622,-0.7127936156086355,1.9470281544356753,0.1881410609592243,-0.0013436204804703374,0.0006249693879384111,0.00020788294676383798,0.0006432191135845158,0.0006459268154112118,0.0003045680000404452,-0.0028230107116472064,0.3165166676044464,-23.66513442993164,19.553329467773438,17.84735870361328,0.8568216562271118,2.3604629039764404,-0.06678618490695953,,,,,,,,,
1739400762.6262777,-0.708070552584707,0.6788309665391071,1.4209802092394754,-1.8790084334394463,-0.7127925420798906,1.947027408403802,0.18814820461139062,-0.00042011531761751214,0.0005548867644286188,-0.0009536172492246284,0.00041155157793742623,0.00040339609373747626,0.00033873167885264456,0.0005140704325635765,0.2927129566669464,-23.63736343383789,19.553329467773438,17.84735870361328,0.8568216562271118,2.3668715953826904,-0.12721098959445953,,,,,,,,,
1739400762.6371553,-0.7080677781297253,0.6788335547791706,1.4209850977744496,-1.8790130160637195,-0.7127928594231921,1.9470227141694543,0.18814896227146896,0.0007794440286985236,0.0003621497390694519,-0.00018550418660470697,-0.0012040805565043597,-0.0005459834170242118,-0.0017931322074494415,0.0016347886162744398,0.2411382496356964,-23.66513442993164,19.529525756835938,17.89893341064453,0.8504129648208618,2.3796889781951904,-0.13361968100070953,,,,,,,,,
1739400762.647177,-0.7080714885965933,0.6788353799702754,1.4209792147018745,-1.879011234371901,-0.7127931446128313,1.947027408188658,0.18813999469835574,-0.001578557010453088,0.001360128816335192,-0.0008944459179999835,-0.0011020289920202855,-0.00021147904197240636,-0.00029065885764983376,-0.0016120838483612238,0.2927129566669464,-23.68893814086914,19.604904174804688,17.87512969970703,0.8568216562271118,2.3668715953826904,-0.06678618490695953,,,,,,,,,
1739400762.658193,-0.7080731751169446,0.6788336549327508,1.420978583146813,-1.8790127783033088,-0.7127902302047638,1.947028166064076,0.1881446182396928,0.0001588339066273932,0.000486166042616807,-0.0003815891019953697,-0.0020065522421522843,-8.197580659039894e-05,0.00027230355635842526,0.00010625240755433017,0.3165166676044464,-23.66513442993164,19.577133178710938,17.89893341064453,0.8641458749771118,2.3604629039764404,-0.13361968100070953,,,,,,,,,
1739400762.6681945,-0.7080713990392885,0.6788316960013404,1.4209765027632342,-1.8790060429266686,-0.7127893254828939,1.9470289237241554,0.1881419267828892,0.0008320436204899647,-0.001233585293938051,-0.0007053448359528467,0.0008441347603111871,0.001122273005348415,0.000839905514117459,-0.001384835589881629,0.2927129566669464,-23.63736343383789,19.604904174804688,17.84735870361328,0.8568216562271118,2.3540542125701904,-0.07411040365695953,,,,,,,,,
1739400762.6782203,-0.7080677781334925,0.6788353802996809,1.420974705369009,-1.879009154529366,-0.7127921016965035,1.9470274084039987,0.18813780165858549,0.00022101867269121308,0.0006189602861138723,-6.594374298738489e-05,0.0009593070725404415,0.0005946952133407733,0.0002876112510980229,-0.0026795438455904843,0.2411382496356964,-23.68893814086914,19.628707885742188,17.84735870361328,0.8440042734146118,2.3668715953826904,-0.04023589566349983,,,,,,,,,
1739400762.6882315,-0.7080697760758622,0.6788373779130421,1.4209744550674073,-1.879013016721887,-0.7127928594292593,1.9470258359108659,0.1881474464617279,-0.0015974400684460475,0.0006139769378687864,-0.00025670410949319686,9.977960078679471e-05,0.0001755779430627227,-0.0010701029745883563,-0.0007340274147250416,0.2689092457294464,-23.71670913696289,19.628707885742188,17.89893341064453,0.8504129648208618,2.3796889781951904,-0.12080229818820953,,,,,,,,,
1739400762.6983225,-0.7080697760758622,0.6788388563233501,1.4209695149044614,-1.8790147998349664,-0.7127928594292605,1.9470272906654607,0.18814268435401083,-0.0009040075980942948,0.00032113651673611714,-0.0011821274750322755,0.0002692379250590959,0.00022191823476645783,0.000137929223481593,-0.0009927312792602746,0.2689092457294464,-23.74051284790039,19.656478881835938,17.92273712158203,0.8504129648208618,2.3668715953826904,-0.08051909506320953,,,,,,,,,
1739400762.7092319,-0.7080714922001867,0.6788374878001135,1.4209705919260456,-1.8790112431295587,-0.7127944829865713,1.9470274084033343,0.18814181352933323,-0.0007867027794463961,0.001094226472166732,0.00041886870886011517,-0.00010271012415997071,-0.000581335498693477,0.00048278240803595524,-0.0008910173619242911,0.2927129566669464,-23.71670913696289,19.680282592773438,17.87512969970703,0.8641458749771118,2.3668715953826904,-0.07411040365695953,,,,,,,,,
1739400762.7201633,-0.7080669679278423,0.6788398711157163,1.4209716317823546,-1.879013017048986,-0.7127946767274682,1.9470274084039987,0.1881457634882263,-0.0002536648023428507,-0.0002038155362049852,0.0006036548311466342,-7.075467983331044e-05,-0.0012108228873492037,0.00017492704172322675,0.0014534857454434479,0.2689092457294464,-23.71670913696289,19.656478881835938,17.89893341064453,0.8568216562271118,2.3668715953826904,-0.13361968100070953,,,,,,,,,
1739400762.7302418,-0.7080677750915244,0.6788354107569938,1.4209723736254778,-1.8790148085562737,-0.7127952937834675,1.9470274084039987,0.18813710446281084,0.0001048948739840883,-0.0004970739484543718,0.001833436684648336,-0.0010233693078734018,-0.0002600331107674935,0.0002792611649317612,-0.002686798112925829,0.2411382496356964,-23.68893814086914,19.656478881835938,17.92273712158203,0.8440042734146118,2.3668715953826904,-0.06037749722599983,,,,,,,,,
1739400762.740297,-0.7080697760758107,0.6788384477992164,1.4209720482244796,-1.8790130170490862,-0.7127923826461594,1.9470281660640771,0.18814315835608048,-0.00039222644753629835,0.0002635765173474958,0.0006968312245337662,0.0003641928554713581,0.001456637996963076,-0.00022136794925068206,6.527036149112976e-05,0.2689092457294464,-23.71670913696289,19.656478881835938,17.89893341064453,0.8504129648208618,2.3604629039764404,-0.08051909506320953,,,,,,,,,
1739400762.7522037,-0.7080704913315995,0.6788359192248554,1.4209744547342698,-1.8790112432022357,-0.7127936170866475,1.9470274084039987,0.1881450642739631,-0.0012635454022631323,0.00024428119402811985,0.00016913355515622516,0.0011022598300103035,4.9223144027324206e-05,0.000578858601390252,-0.00029539124887369074,0.2689092457294464,-23.66513442993164,19.628707885742188,17.87512969970703,0.8568216562271118,2.3668715953826904,-0.10066069662570953,,,,,,,,,
1739400762.762291,-0.7080677781390469,0.6788341344901565,1.4209783172029886,-1.8790084030239573,-0.7127936214499896,1.9470281660640771,0.18813949347218617,0.0005270607385624826,5.2986626193798946e-05,0.0009932230811186664,0.0020623366982175746,1.5970403098473394e-05,0.0006044581725943959,-0.002380973227587433,0.2411382496356964,-23.63736343383789,19.577133178710938,17.84735870361328,0.8568216562271118,2.3604629039764404,-0.05396880581974983,,,,,,,,,
1739400762.7732384,-0.7080680165535883,0.6788340250665574,1.4209790327857745,-1.8790104386494466,-0.7127952406467235,1.9470274084039987,0.18814896080795057,0.0009770496709464427,0.0006226834671921826,0.0008123173148224966,0.0003317240269122553,-0.0005797814001096101,0.0006947409894231857,0.0016975748170131224,0.2411382496356964,-23.66513442993164,19.577133178710938,17.87512969970703,0.8705545663833618,2.3668715953826904,-0.13361968100070953,,,,,,,,,
1739400762.7841985,-0.7080676740269403,0.678834704523887,1.4209801793905525,-1.8790133762130468,-0.7127945281004642,1.9470289232396387,0.1881403032995827,0.0008770032973472547,0.00139393339909067,0.0007585789075533665,-0.0011378568368918755,-0.0008785047034801843,0.0011252110490238788,-0.0009173363840779846,0.2411382496356964,-23.66513442993164,19.553329467773438,17.87512969970703,0.8641458749771118,2.3540542125701904,-0.06037749722599983,,,,,,,,,
1739400762.794235,-0.708071479928037,0.678833815295374,1.4209801263723074,-1.879005576182344,-0.7127936170901029,1.9470281660640691,0.18814756591228698,0.00013336827477945028,0.0006413683531297964,0.0009752439589915244,0.0011676759531044382,-0.0014212730686616807,4.176144953004556e-05,0.0014693266171471639,0.2927129566669464,-23.63736343383789,19.553329467773438,17.79975128173828,0.8568216562271118,2.3604629039764404,-0.12080229818820953,,,,,,,,,
1739400762.8051596,-0.7080694640712529,0.6788316695227122,1.4209829991678167,-1.879013016903508,-0.7127944830404066,1.9470281660640771,0.1881465812172664,0.00021717345056619875,0.00100336711061573,0.0015447981099737803,-0.0019851754778904126,-0.00015715311012707547,0.00039494583576817283,-0.00018627339235830333,0.2689092457294464,-23.63736343383789,19.553329467773438,17.89893341064453,0.8641458749771118,2.3604629039764404,-0.11347807943820953,,,,,,,,,
1739400762.8152246,-0.7080677781297253,0.6788313575060391,1.4209786365607386,-1.8790112254325813,-0.7127928986751181,1.9470281268182206,0.18814314735923632,0.0010737781451994658,-0.0009160092128083683,-0.00013326163941287423,-0.001240662714153157,-0.00040887807859003617,0.0004999078250159201,0.001234133164073099,0.2411382496356964,-23.63736343383789,19.577133178710938,17.87512969970703,0.8504129648208618,2.3604629039764404,-0.08051909506320953,,,,,,,,,
1739400762.8262646,-0.7080677786881657,0.6788324911644533,1.420980577766134,-1.8790130160677398,-0.712795683083422,1.9470281660638558,0.18814715362954504,8.473194875729213e-05,-0.0011159488667850611,0.0009992319159138356,-0.0010428913681632343,0.0004574976814586513,0.0005598208833223607,-7.807057662604044e-05,0.2411382496356964,-23.63736343383789,19.577133178710938,17.89893341064453,0.8833719491958618,2.3604629039764404,-0.12721098959445953,,,,,,,,,
1739400762.8362653,-0.7080658316108671,0.6788375257533102,1.420980825421557,-1.879012911085107,-0.7127960383254792,1.9470281602498762,0.18814305308273926,0.0012036385215494448,0.0011384467927038914,0.0013808840764059315,-0.0005969621461919067,6.400928140784973e-05,-0.00011051505248834903,0.0014300315769103077,0.2173345386981964,-23.68893814086914,19.553329467773438,17.89893341064453,0.8504129648208618,2.3604629039764404,-0.08051909506320953,,,,,,,,,
1739400762.8472972,-0.7080677781336883,0.6788337027848363,1.4209744548855647,-1.879011393317039,-0.7127929117750144,1.9470234718294999,0.1881428761086092,-0.0004957110590160306,-0.0010248668663670893,-0.0008497615384563397,0.00018319773309402016,0.0006538681280805877,-0.001657930391230085,-0.0013539929012124162,0.2411382496356964,-23.66513442993164,19.628707885742188,17.87512969970703,0.8504129648208618,2.3732802867889404,-0.07411040365695953,,,,,,,,,
1739400762.8582234,-0.7080677674534337,0.6788383479402915,1.4209723749462595,-1.8790148144440493,-0.7127929002904685,1.9470258930120619,0.18815171200014144,0.0013326483123749532,-6.737973710586886e-05,-0.0002021975446081335,-0.0007269520424398687,0.0004729254776839123,6.812823934857387e-05,0.001922356985166331,0.2411382496356964,-23.68893814086914,19.656478881835938,17.92273712158203,0.8504129648208618,2.3796889781951904,-0.12080229818820953,,,,,,,,,
1739400762.870193,-0.708067674097763,0.6788358221747526,1.420968805776651,-1.8790139706869973,-0.7127944834713188,1.9470266113903931,0.18814110096198794,0.0008905780213116557,-0.0007757240123388913,-0.0020223703950164053,0.0006350505998023883,0.00018118006620875833,-0.000450000648703961,-0.00010091591042945582,0.2411382496356964,-23.66513442993164,19.704086303710938,17.89893341064453,0.8641458749771118,2.3732802867889404,-0.06678618490695953,,,,,,,,,
1739400762.880195,-0.7080693824582266,0.6788365651160312,1.4209723749462368,-1.8790147997313391,-0.7127928505982726,1.9470274084037766,0.18814896227169475,0.00022626401714990444,-0.000988793871063246,0.0009748104802727456,-0.0008070851414688515,0.0011037110632658553,0.0006690242360825497,0.002061505760282943,0.2927129566669464,-23.66513442993164,19.656478881835938,17.92273712158203,0.8504129648208618,2.3668715953826904,-0.13361968100070953,,,,,,,,,
1739400762.8902223,-0.7080694640356342,0.6788341640699261,1.4209723736380633,-1.8790112686460234,-0.7127967960035774,1.947024987940753,0.1881437527275817,4.2170654031973176e-05,-0.0030995169260770268,0.00012700931789136745,0.0005258163715981788,-0.0013758410514026393,9.314891942447355e-05,-0.00030391069945741225,0.2689092457294464,-23.63736343383789,19.656478881835938,17.89893341064453,0.8568216562271118,2.3870131969451904,-0.08051909506320953,,,,,,,,,
1739400762.9002333,-0.708071488591309,0.6788385985017226,1.42097230896888,-1.8790130183275224,-0.7127944830404066,1.9470241883050228,0.1881474469694025,-0.00015459969460185645,0.000864273885489676,0.00043492431622382094,-0.0014638150281446806,0.0007014654481788463,0.0004564014686963998,-0.0003714607436463305,0.2927129566669464,-23.68893814086914,19.628707885742188,17.89893341064453,0.8641458749771118,2.3668715953826904,-0.12080229818820953,,,,,,,,,
1739400762.9102595,-0.7080732011173245,0.6788382807315605,1.4209759194853555,-1.8790130170489583,-0.7127945265930796,1.9470249870951566,0.18814582339400185,-0.0001607617155814559,-0.0001757328986350719,0.0005797756446642359,-0.0011038721781243613,0.00010879755908571657,-0.0007658513582851634,-0.00020722945372065088,0.3165166676044464,-23.68893814086914,19.604904174804688,17.89893341064453,0.8641458749771118,2.3604629039764404,-0.10706938803195953,,,,,,,,,
1739400762.9222264,-0.7080714886329321,0.6788368762890116,1.4209762290170858,-1.8790144475604114,-0.7127976626010631,1.9470242294716655,0.18814744846811887,1.2188355712705506e-05,0.000151226741891481,0.0007212193144385038,-0.0019157919243229663,-0.00011725263177769972,-0.0001552343491218071,0.000722703442236948,0.2927129566669464,-23.66513442993164,19.604904174804688,17.89893341064453,0.8641458749771118,2.3668715953826904,-0.12080229818820953,,,,,,,,,
1739400762.9322526,-0.7080700144944415,0.6788357022787258,1.4209800998799602,-1.8790071331674902,-0.7127932126599194,1.9470272906484838,0.1881478622767456,-0.00045163776826046595,-0.00036308906566397126,0.001462389563878448,0.0008669579832087881,0.0003641192129997628,-0.0003741992813462211,0.0006303876431093325,0.2689092457294464,-23.68893814086914,19.553329467773438,17.82355499267578,0.8504129648208618,2.3668715953826904,-0.09425200521945953,,,,,,,,,
1739400762.944158,-0.708069698076068,0.6788367948029648,1.420975535652899,-1.8790101560246397,-0.7127928594312546,1.9470289062808879,0.18814652408555266,-0.0002863200023976613,0.00020221506570952062,-0.00134537396546215,0.0004453161460918405,0.0003364947660897179,-0.00092371681707659,-0.0010450402040678146,0.2689092457294464,-23.66513442993164,19.577133178710938,17.89893341064453,0.8504129648208618,2.3540542125701904,-0.11347807943820953,,,,,,,,,
1739400762.9542773,-0.7080697757187636,0.6788347821970887,1.420976316870291,-1.8790081968579933,-0.7127935376104227,1.9470296808996188,0.1881435606497206,-0.0010435437571033558,0.0007313017507579986,-0.0017482545883335098,0.0005261775850447394,0.0010934729887548179,0.001268959701999501,-0.0014701369964620697,0.2689092457294464,-23.63736343383789,19.604904174804688,17.84735870361328,0.8568216562271118,2.3476455211639404,-0.08692778646945953,,,,,,,,,
1739400762.9642823,-0.7080714885965873,0.6788317583025554,1.4209850971210802,-1.8790133533049085,-0.7127976618996135,1.9470266507439125,0.18814658105608623,-0.0007397984126277582,-0.0009757513404995031,0.0014498014553130964,-0.001909249364484477,-0.0003603811678838856,0.0005663650627217075,0.00017736068172968062,0.2927129566669464,-23.63736343383789,19.529525756835938,17.87512969970703,0.8641458749771118,2.3732802867889404,-0.11347807943820953,,,,,,,,,
1739400762.9762573,-0.7080714899047886,0.6788345659643369,1.4209765950046398,-1.8790112314041012,-0.7127959984861787,1.9470296769697482,0.18814106296357497,-0.001281405044699569,0.0007065065253012054,-0.0007735143429515177,9.702107132360835e-05,-0.0001084475099138419,0.0008849768741797392,-0.0009164624764719138,0.2927129566669464,-23.63736343383789,19.604904174804688,17.87512969970703,0.8769632577896118,2.3476455211639404,-0.06678618490695953,,,,,,,,,
1739400762.9872282,-0.7080714882756035,0.6788382766610157,1.420976511492818,-1.8790151185985353,-0.7127921032227328,1.9470225920712252,0.18814268451653787,-0.0015394989130411423,0.00023616870250845942,-0.0014737888821908134,-0.0020236746253003268,0.0006504531176800066,-0.0015707441514216847,-0.0006543648495719883,0.2927129566669464,-23.68893814086914,19.604904174804688,17.92273712158203,0.8440042734146118,2.3796889781951904,-0.08051909506320953,,,,,,,,,
1739400762.999221,-0.7080667340313973,0.6788422296099084,1.4209724024199053,-1.8790112343737178,-0.7127971372276428,1.9470274083315293,0.1881517119947829,3.852617392408563e-06,0.0016408527388100467,-0.0009784649575722683,0.0007639372117766066,-0.0005414717670481954,-7.654698343560836e-05,0.004468141045420215,0.2689092457294464,-23.74051284790039,19.656478881835938,17.87512969970703,0.8504129648208618,2.3668715953826904,-0.12080229818820953,,,,,,,,,
1739400763.0092278,-0.7080697760586897,0.6788367761770842,1.4209744550996566,-1.879014799689617,-0.7127958963460755,1.9470274025897976,0.18814896245806023,-0.0003956071214176069,-0.0008747521461471722,0.0002578773448431508,-4.325991908506432e-05,-9.510886251389749e-05,0.0003200523313766351,0.00023708582570604883,0.2689092457294464,-23.66513442993164,19.628707885742188,17.92273712158203,0.8641458749771118,2.3668715953826904,-0.13361968100070953,,,,,,,,,
1739400763.0201538,-0.7080714857076621,0.678842309083965,1.4209705922692415,-1.8790119466842157,-0.7127944829945498,1.947028884424431,0.188148022354006,-0.0008056394683998585,0.0010279042126554803,-0.000832950925783026,-0.00039804365124036995,0.0004232962671516991,0.0005888408665125978,0.002485320994825065,0.2927129566669464,-23.74051284790039,19.680282592773438,17.87512969970703,0.8641458749771118,2.3540542125701904,-0.09425200521945953,,,,,,,,,
1739400763.030253,-0.7080719218430251,0.6788405863163252,1.420968094336483,-1.8790091634244428,-0.712793617089339,1.947026650743255,0.18814902662741098,8.435123881179676e-05,0.00026983336979089683,-0.001520492037384996,0.0012560271840985134,0.0011199123878103535,0.0009134715440517452,0.0006774403459783174,0.2689092457294464,-23.71670913696289,19.704086303710938,17.84735870361328,0.8568216562271118,2.3732802867889404,-0.10706938803195953,,,,,,,,,
1739400763.0412242,-0.708071718360492,0.6788367806834807,1.420972268978408,-1.8790157700137924,-0.7127956996081273,1.9470289237241554,0.18814228375746228,-0.0008391016184821025,-0.0010560942969004066,0.0014737207351986437,0.00011743932894127569,-0.001237320790023888,0.00022694530124969082,-0.0009093806153525385,0.2927129566669464,-23.66513442993164,19.656478881835938,17.94654083251953,0.8641458749771118,2.3540542125701904,-0.07411040365695953,,,,,,,,,
1739400763.0513127,-0.7080697760875353,0.6788413118142358,1.4209687742655657,-1.8790151362839216,-0.7127944961303344,1.9470273953220467,0.18814589648098395,-0.0006724708532657789,0.0007149871781399934,-0.0008529766431059126,-0.0007610938000148825,-0.00025331161766998513,0.00035673258915573636,0.0014823849132430467,0.2689092457294464,-23.71670913696289,19.704086303710938,17.89893341064453,0.8641458749771118,2.3668715953826904,-0.08051909506320953,,,,,,,,,
1739400763.062253,-0.7080697760758622,0.6788368870874542,1.4209702203485295,-1.8790070083907482,-0.7127937790795127,1.9470242294357019,0.18814344224891577,0.0005959569396120621,-0.00026148210657575544,0.00017929961349802347,0.0012873325748061072,-0.000597275343024168,-0.0009646804908695753,-0.0012725952623446914,0.2689092457294464,-23.66513442993164,19.656478881835938,17.84735870361328,0.8568216562271118,2.3668715953826904,-0.08692778646945953,,,,,,,,,
1739400763.072257,-0.7080697759331989,0.678838598623007,1.4209769994451702,-1.8790097560787187,-0.7127941452135094,1.947027286072492,0.18814745301853908,0.00017338392853938624,0.0006548523378792542,0.001637737753041152,0.0001350031284864234,3.514626993462033e-05,-7.319273504306694e-05,0.0016278582187963153,0.2689092457294464,-23.68893814086914,19.553329467773438,17.82355499267578,0.8568216562271118,2.3668715953826904,-0.12080229818820953,,,,,,,,,
1739400763.083187,-0.7080680175347339,0.6788348881614171,1.420973058335888,-1.8790091546318597,-0.7127944834740694,1.9470211428809479,0.188146178814325,0.00011188128059832483,-0.00027450089149193675,-0.0010777752959807176,-0.00019039230899379036,0.0006966949037633821,-0.0018143830110709035,0.00014784749230625115,0.2411382496356964,-23.63736343383789,19.604904174804688,17.84735870361328,0.8641458749771118,2.3796889781951904,-0.10706938803195953,,,,,,,,,
1739400763.094201,-0.7080676700464315,0.6788368861022702,1.4209822456292736,-1.8790112738583211,-0.7127929117570722,1.9470274083233485,0.18814430807585122,0.0011465315686072577,0.0007953603094960769,0.001297771268863428,9.216558855303742e-05,0.0011861308744358094,0.0004163790760159,0.0011218116806424893,0.2689092457294464,-23.66513442993164,19.553329467773438,17.84735870361328,0.8504129648208618,2.3668715953826904,-0.09425200521945953,,,,,,,,,
1739400763.1042285,-0.7080697760401964,0.6788348577458782,1.4209804669311246,-1.8790112344078078,-0.7127952406475359,1.9470274084039974,0.18814434756498813,-0.0012520841795670566,0.0001623990642465539,-0.0003128653515910776,-0.000539073340965084,-0.0009472015796435046,6.826300739752761e-05,-0.0006580926341569717,0.2689092457294464,-23.63736343383789,19.577133178710938,17.87512969970703,0.8705545663833618,2.3668715953826904,-0.09425200521945953,,,,,,,,,
1739400763.1142538,-0.7080660773880331,0.6788348881598718,1.4209801117629821,-1.8790119387030084,-0.7127959983067281,1.9470274084039987,0.18814933077940016,-4.0074348721582395e-06,0.0003306279377246713,-0.0011267441818749474,-0.000552657687264507,0.0003559373817244545,0.000607503098368539,0.00027460359554597414,0.2173345386981964,-23.63736343383789,19.553329467773438,17.92273712158203,0.8769632577896118,2.3668715953826904,-0.10066069662570953,,,,,,,,,
1739400763.1251864,-0.7080697790556624,0.6788345483577083,1.4209822033919273,-1.879013016934537,-0.7127936608573519,1.9470266488058536,0.1881473786705079,-0.00088163775525887,-0.0001418216621384625,0.0009606131929964798,-0.00034667315161337667,0.0009183540877559472,-0.00011544814229684898,0.0009265657825800425,0.2689092457294464,-23.63736343383789,19.529525756835938,17.89893341064453,0.8568216562271118,2.3732802867889404,-0.10706938803195953,,,,,,,,,
1739400763.1351943,-0.7080660396139483,0.6788365387706843,1.4209762403620056,-1.8790109164804771,-0.7127949539375923,1.9470281659025388,0.18814582358285528,0.0011951538054537337,-0.00012820968226886885,-0.0005495037992596903,0.00029403419269670005,0.0006662369132456921,-0.00044497527852142144,-0.0005897042947006807,0.2173345386981964,-23.66513442993164,19.604904174804688,17.87512969970703,0.8641458749771118,2.3604629039764404,-0.10706938803195953,,,,,,,,,
1739400763.145246,-0.7080714885961531,0.6788348880465187,1.4209730990323635,-1.8790133336267967,-0.7127960383516242,1.947027408403996,0.18814820899929863,-0.001184620091637931,0.0011779435706095113,-0.0018869230896414145,-0.0006105551208536201,3.92385900723756e-05,0.0006945752459066051,0.0025316586336515444,0.2927129566669464,-23.63736343383789,19.656478881835938,17.89893341064453,0.8504129648208618,2.3668715953826904,-0.12721098959445953,,,,,,,,,
1739400763.15618,-0.7080677781350092,0.6788331730969723,1.4209744586284485,-1.8790111023550038,-0.7127948492991785,1.947028166010242,0.18814425974185112,1.1961790255185512e-06,-0.0002836905405954525,-0.0005008999040840658,-8.457882421237283e-05,-0.0003417837479598035,0.0001830871022915931,-0.0018261096532602961,0.2411382496356964,-23.61355972290039,19.628707885742188,17.87512969970703,0.8641458749771118,2.3604629039764404,-0.06678618490695953,,,,,,,,,
1739400763.1671655,-0.7080699808084143,0.67884059656384,1.4209723749462804,-1.8790147987440642,-0.7127929117591373,1.9470278597253752,0.18814582438714872,-0.00036844312509721,0.0006898921621937228,-0.0007433292853770083,-0.000327450133494717,-0.00023464765120093686,0.0003648446812895062,-0.0013019534058978533,0.2689092457294464,-23.71670913696289,19.656478881835938,17.92273712158203,0.8504129648208618,2.3540542125701904,-0.10706938803195953,,,,,,,,,
1739400763.1772194,-0.7080677752495452,0.6788385982959526,1.4209723060254629,-1.879009155563192,-0.7127971497018397,1.9470274040253293,0.18814030378714725,0.0006484037706303875,-0.0007118371926695739,0.0011048608710630898,0.00033333046376910337,-0.0004207800422384225,9.192754667190217e-05,-0.0028846549409350004,0.2411382496356964,-23.68893814086914,19.628707885742188,17.84735870361328,0.8568216562271118,2.3668715953826904,-0.06037749722599983,,,,,,,,,
1739400763.1882114,-0.7080677781349604,0.6788406004884345,1.4209688427397746,-1.879013016067807,-0.7127937365017898,1.9470281660640032,0.18815038980317383,0.0010892781480294567,0.0007365828453879042,-0.0013645354099205901,-0.00030517969406335474,-0.0001382342276683402,0.0009268982980350374,0.002375523735694279,0.2411382496356964,-23.71670913696289,19.680282592773438,17.89893341064453,0.8568216562271118,2.3604629039764404,-0.13361968100070953,,,,,,,,,
1739400763.1982589,-0.7080714887056097,0.6788385986230235,1.4209722570534573,-1.8790109959533332,-0.7127939724022954,1.9470281659025717,0.18814980467917122,-0.0001333877331589544,-0.001420591338743718,0.0001576853626709914,-0.0006465366953116909,-0.00023409487146885624,0.0009001468066674647,0.0005745693028805464,0.2927129566669464,-23.68893814086914,19.656478881835938,17.87512969970703,0.8568216562271118,2.3604629039764404,-0.10066069662570953,,,,,,,,,
1739400763.2091558,-0.7080732011173252,0.6788364528557895,1.42097397670577,-1.8790138647580943,-0.7127969200420203,1.94702422948961,0.18814912026279343,-0.0008622586419791519,-0.001666618579425713,0.0022878126705601297,-0.001268373877190919,0.0004929196510685056,4.118780222243182e-05,0.0006014274066760161,0.3165166676044464,-23.68893814086914,19.604904174804688,17.89893341064453,0.8568216562271118,2.3668715953826904,-0.13361968100070953,,,,,,,,,
1739400763.2191694,-0.7080669680348194,0.6788405964548381,1.4209743748213497,-1.8790109577316965,-0.7127978558096637,1.947026650582415,0.18814867851313635,0.0004217864357428005,3.139082126740343e-05,0.0013264012503411146,0.0002721374043289582,-0.00021427465458174357,0.00025050479366170507,0.0013564706540948686,0.2689092457294464,-23.71670913696289,19.628707885742188,17.87512969970703,0.8568216562271118,2.3732802867889404,-0.12721098959445953,,,,,,,,,
1739400763.2301521,-0.7080697760600106,0.6788390318694815,1.420976140692738,-1.879012059448473,-0.7127936362247606,1.947025853676479,0.1881482179402952,0.0002517250817104367,-0.0005560889472191952,0.0016814309493010026,0.00011251631173750723,-6.057466203112719e-05,-0.0005276756746534401,0.0025543687336746002,0.2689092457294464,-23.66513442993164,19.577133178710938,17.89893341064453,0.8568216562271118,2.3796889781951904,-0.12721098959445953,,,,,,,,,
1739400763.241221,-0.7080677781713478,0.6788407710022957,1.420978378916424,-1.8790088365398625,-0.7127944829866794,1.94702553877776,0.18815064573399048,0.00048045082618024,0.0006436359060942495,0.0008565194918854494,0.002024767349629805,-0.00026342282275835404,-0.0015646694555502805,0.0009060750595200909,0.2411382496356964,-23.68893814086914,19.604904174804688,17.84735870361328,0.8641458749771118,2.3732802867889404,-0.12080229818820953,,,,,,,,,
1739400763.2512531,-0.7080677781350094,0.6788346497551011,1.4209730246727934,-1.879011336954431,-0.7127965085028644,1.9470289237178784,0.1881476224855617,0.0009867971510882129,-0.0015085584482654956,-0.0009653235695071773,0.00012811363606481755,-0.0006665445329716341,-4.016481376433454e-05,0.0013572100269748735,0.2411382496356964,-23.63736343383789,19.628707885742188,17.87512969970703,0.8769632577896118,2.3540542125701904,-0.12080229818820953,,,,,,,,,
1739400763.2622232,-0.7080656721042271,0.6788331756393402,1.4209801001989837,-1.8790121909902526,-0.7127937413438474,1.9470274069504485,0.18814582409922406,0.0010592621203252264,-0.0007238372343380204,0.0008666545986557707,-0.0006567135439856604,0.000880238328501903,0.0004044595526873094,-0.0002869732702430474,0.2411382496356964,-23.61355972290039,19.553329467773438,17.87512969970703,0.8568216562271118,2.3668715953826904,-0.10706938803195953,,,,,,,,,
1739400763.2731514,-0.7080714887809789,0.6788331726972467,1.4209784185016214,-1.8790084354179395,-0.7127959481673236,1.9470285176990956,0.1881451837198199,-0.0010820603503600315,-0.0008854440729088276,-0.0006147512444849689,0.0007792718406806902,-0.0005575329490071264,0.00034463439052267775,-0.0016956046932497559,0.2927129566669464,-23.61355972290039,19.604904174804688,17.84735870361328,0.8641458749771118,2.3540542125701904,-0.10066069662570953,,,,,,,,,
1739400763.2841809,-0.7080677781350102,0.6788340136325961,1.4209783968335157,-1.8790102332509813,-0.7127939883989449,1.9470274084017067,0.18814820461205664,-0.0005956414241673942,-1.8994807888921819e-06,-0.0008148466802594391,-0.0013633544731134974,0.0010911444390299954,0.0003361528790191178,-4.376291382524077e-05,0.2411382496356964,-23.66513442993164,19.577133178710938,17.82355499267578,0.8568216562271118,2.3668715953826904,-0.12721098959445953,,,,,,,,,
1739400763.2951534,-0.7080697760639735,0.678834888156012,1.4209786393583246,-1.879013017042208,-0.7127983701993421,1.9470281660640771,0.1881451670803819,0.00047086592315539105,-0.00031104097382287906,5.4452480632146034e-05,-0.0025521864404947515,-0.0023796630668310994,0.0005217219397934691,-0.0010588390206999795,0.2689092457294464,-23.63736343383789,19.577133178710938,17.89893341064453,0.8568216562271118,2.3604629039764404,-0.07411040365695953,,,,,,,,,
1739400763.3052537,-0.7080714885965932,0.6788368861022701,1.4209766359390688,-1.8790084393263247,-0.7127967960842213,1.9470274084039987,0.18814658565937314,-0.0013309495071325945,0.0012374107613863415,-0.0016343882888781361,0.001653585450169928,-3.243827505490071e-05,0.0005717420502783785,-9.575512954803961e-05,0.2927129566669464,-23.66513442993164,19.628707885742188,17.84735870361328,0.8568216562271118,2.3668715953826904,-0.11347807943820953,,,,,,,,,
1739400763.3162143,-0.7080697760758622,0.6788407443902134,1.4209804629825133,-1.8790089161594454,-0.712793921184908,1.9470266507439205,0.18814856441961064,-0.00011266575727949167,0.0003888188471965124,0.0005132939872426995,0.001479484217940405,0.000753298218492392,3.71721616556872e-05,0.0007246064702595701,0.2689092457294464,-23.68893814086914,19.577133178710938,17.84735870361328,0.8504129648208618,2.3732802867889404,-0.12721098959445953,,,,,,,,,
1739400763.327205,-0.7080697770570086,0.6788366477200298,1.4209695218088196,-1.87901277862632,-0.7127936214679705,1.9470287652871787,0.18814212868881935,6.353095452813122e-05,0.00015656382066774505,-0.0011373234148342834,-0.0006034565926072021,0.0012220742053488502,-3.2989668915062804e-05,-0.001318108928058005,0.2689092457294464,-23.66513442993164,19.656478881835938,17.89893341064453,0.8568216562271118,2.3540542125701904,-0.06678618490695953,,,,,,,,,
1739400763.3372254,-0.7080670414575806,0.6788385996028021,1.4209754416872835,-1.87900908860336,-0.7127951478931134,1.947028048325613,0.188140659213447,0.0014585664849756437,0.00014305944792896257,0.00063012694941872,0.0011420271998776274,-0.0019517782184865571,0.0013928039494175114,-0.0019715078680250893,0.2411382496356964,-23.68893814086914,19.604904174804688,17.87512969970703,0.8568216562271118,2.3604629039764404,-0.06037749722599983,,,,,,,,,
1739400763.3483,-0.7080676700326044,0.6788406760367307,1.4209681246725274,-1.8790130169035817,-0.7127955441041752,1.9470249348198867,0.188151403400021,0.0009367052399378384,0.001372209321435077,-0.0008191542607179213,-0.0002409733061061874,0.0009034965291678338,-0.00045211957018788406,0.0007867483238769841,0.2689092457294464,-23.71670913696289,19.680282592773438,17.89893341064453,0.8641458749771118,2.3604629039764404,-0.12721098959445953,,,,,,,,,
1739400763.3591444,-0.7080677781191577,0.6788391379424609,1.4209684464852714,-1.8790130170489363,-0.7127978193708994,1.9470234654529546,0.18814664098329173,0.0005957587406417925,0.00025295554723319075,-0.0017550288495621349,0.00038608362203791224,0.00012852855691261302,-0.000605938888698095,0.0012231382045951303,0.2411382496356964,-23.66513442993164,19.680282592773438,17.89893341064453,0.8641458749771118,2.3732802867889404,-0.08692778646945953,,,,,,,,,
1739400763.3692303,-0.7080677739621084,0.6788386078185031,1.4209702162787878,-1.8790120633746203,-0.7127950435631489,1.947027369104199,0.18814121897796846,0.0006818149878187534,-0.000762948610959935,-0.001534301937260018,0.0012651914416751335,-0.0012308914999915024,0.0010271011626971393,-0.0025487612288345456,0.2411382496356964,-23.68893814086914,19.656478881835938,17.89893341064453,0.8568216562271118,2.3668715953826904,-0.06678618490695953,,,,,,,,,
1739400763.3792493,-0.7080677742830304,0.6788406802885043,1.4209762373765757,-1.8790112344647836,-0.7127937876633919,1.947027510872651,0.18814507174965397,0.0017927271408607784,0.0011212392737237667,0.001397610823478091,0.00013368744639133927,0.0019179970350265301,0.0013964517391045804,-0.0005561300815632084,0.2411382496356964,-23.71670913696289,19.604904174804688,17.87512969970703,0.8568216562271118,2.3540542125701904,-0.10066069662570953,,,,,,,,,
1739400763.390225,-0.7080697760757969,0.6788365362546527,1.4209752834117673,-1.8790070313812193,-0.7127985377860131,1.9470272901579853,0.18814447936474912,9.443218729736689e-05,-0.0011734827555207048,0.0010194400577760478,0.0013288061423591948,0.001178379026500545,-0.0002501207219659925,0.0010511305688555984,0.2689092457294464,-23.68893814086914,19.604904174804688,17.84735870361328,0.8705545663833618,2.3668715953826904,-0.09425200521945953,,,,,,,,,
1739400763.4011996,-0.7080643560013201,0.6788368870795358,1.4209761743774207,-1.879013018026088,-0.7127959008502877,1.94702240783053,0.18814821777542734,0.001508090779668342,-0.000733738489240076,0.0004733035045381873,-0.0012401223184052663,-0.0006320058598586426,-0.0010484466677731146,0.0016725665622608892,0.1935308277606964,-23.66513442993164,19.577133178710938,17.89893341064453,0.8641458749771118,2.3732802867889404,-0.12721098959445953,,,,,,,,,
1739400763.411218,-0.7080697760759114,0.6788348881614337,1.4209764757954233,-1.8790105220596363,-0.7127937755503273,1.947025577951985,0.18814538814870982,-0.001070869898325562,-0.0003628182262781845,-4.044723978602118e-05,-0.00022986772472648247,0.00024807911615562994,0.0002527976973524558,-0.0004069961546964383,0.2689092457294464,-23.63736343383789,19.604904174804688,17.87512969970703,0.8568216562271118,2.3732802867889404,-0.09425200521945953,,,,,,,,,
1739400763.421241,-0.7080677776080971,0.6788368861022702,1.4209762374171702,-1.879009154569999,-0.7127928739674466,1.9470274077398086,0.1881494756746223,0.000794726045361334,0.0004304481776491451,0.0009342440952405126,0.00019313846103127753,0.0013083947723896837,-0.000907011760565716,0.0011725262501328347,0.2411382496356964,-23.66513442993164,19.604904174804688,17.84735870361328,0.8504129648208618,2.3668715953826904,-0.13361968100070953,,,,,,,,,
1739400763.4322395,-0.7080753468845336,0.6788369655751298,1.4209787940401468,-1.8790112696931887,-0.7127926308615539,1.9470295619777693,0.188154141497205,-0.0012353074469491317,0.00042703337855805475,-0.00023785664419903577,-0.0007377130041183099,0.0005141426711047496,0.0017664353767934359,0.0005177588966200306,0.3165166676044464,-23.66513442993164,19.577133178710938,17.87512969970703,0.8440042734146118,2.3476455211639404,-0.14735259115695953,,,,,,,,,
1739400763.443149,-0.708073200529848,0.6788385191505903,1.4209783290884537,-1.8790091280913082,-0.7127955938623463,1.9470288059859115,0.18813914412402147,-0.0014659437117466203,0.0002472489069758615,-0.00020749115838698457,-0.00026842731072584524,-0.0011149787811846619,0.001323786517361956,-0.0011226518395463677,0.3165166676044464,-23.68893814086914,19.577133178710938,17.84735870361328,0.8705545663833618,2.3540542125701904,-0.04756011441349983,,,,,,,,,
1739400763.4533067,-0.7080732014443435,0.6788331756366484,1.4209785556221715,-1.8790042721351201,-0.7127948405778771,1.9470255910998095,0.18814663811493637,-0.0010291116240691521,-0.0005536188234309773,0.0006155067931575258,0.0014458998135095948,0.0007776520012688161,-0.000946804742471506,-0.0005363034123174185,0.3165166676044464,-23.61355972290039,19.577133178710938,17.82355499267578,0.8641458749771118,2.3732802867889404,-0.11347807943820953,,,,,,,,,
1739400763.464224,-0.708070729786518,0.6788369125932234,1.4209783871053792,-1.879009039769986,-0.7127984778652261,1.947027407863653,0.18814356070432123,-0.0003300903134345572,-0.0008651022174453813,0.0005563875096239282,-0.000349293017154042,-0.00019746692453652848,0.0009603976632421476,-0.0005053322171531156,0.2689092457294464,-23.66513442993164,19.604904174804688,17.84735870361328,0.8705545663833618,2.3668715953826904,-0.08692778646945953,,,,,,,,,
1739400763.4742625,-0.7080677781511603,0.6788406756010976,1.4209763169223981,-1.8790090486163047,-0.7127960521264457,1.9470249813354792,0.1881443080758521,0.0017162259315417823,0.0017450246216926732,-0.00017682949939000248,0.0007741593029437626,0.001264595355798584,-0.00013839825695902217,-0.001075410070177688,0.2411382496356964,-23.71670913696289,19.604904174804688,17.84735870361328,0.8504129648208618,2.3604629039764404,-0.09425200521945953,,,,,,,,,
1739400763.4843178,-0.7080714885965936,0.6788331755330081,1.4209744547374605,-1.8790108670282957,-0.7127944893393577,1.947025237839148,0.18815217438030135,-0.00035095178359928323,-0.0011721262345032414,-1.882952995500782e-05,-0.0008483839780100769,0.000529051396859135,-0.00019221153455364277,0.001859768297252081,0.2927129566669464,-23.61355972290039,19.628707885742188,17.89893341064453,0.8641458749771118,2.3732802867889404,-0.13361968100070953,,,,,,,,,
1739400763.4951804,-0.7080697760758622,0.6788385986230008,1.4209699201179256,-1.8790109046219075,-0.7127960048208224,1.9470242294816351,0.18815113931008076,-0.00044063246490604784,0.00019695952623727752,-0.0015561354262609345,-0.00012538454189262946,9.83820300932939e-05,-0.0006365309711553175,0.0021984837942185887,0.2689092457294464,-23.68893814086914,19.656478881835938,17.87512969970703,0.8769632577896118,2.3668715953826904,-0.12080229818820953,,,,,,,,,
1739400763.505237,-0.7080697790193015,0.6788405790122352,1.4209741103121492,-1.8790130170433523,-0.7127936626340237,1.9470274039895128,0.1881427373964372,-0.0001830916119308062,0.00012159391270193142,-0.0006353867895090566,-0.0005133736930429688,0.0006533223726032785,0.0011673697719289514,-0.0012314212426915558,0.2689092457294464,-23.71670913696289,19.628707885742188,17.89893341064453,0.8568216562271118,2.3668715953826904,-0.08051909506320953,,,,,,,,,
1739400763.5166738,-0.7080707297501951,0.67883860745322,1.4209705922672953,-1.8790112343719179,-0.7127959104270053,1.9470246208550024,0.1881485197672498,-0.00025183622438008143,0.00018530071919592463,-0.0011719217492500177,0.00024933990216185965,4.856239664250184e-05,-0.0012348433786829106,-0.0005988122490226397,0.2689092457294464,-23.68893814086914,19.680282592773438,17.87512969970703,0.8641458749771118,2.3604629039764404,-0.12080229818820953,,,,,,,,,
1739400763.5272553,-0.7080725344337184,0.6788407440632144,1.4209702291790467,-1.8790172973316634,-0.7127972669620646,1.9470246691087196,0.18814895956894181,-0.001893014680318427,-0.0006986980675231191,-0.000754206478529655,-0.0010541670958078221,0.00048385165602883736,-0.0010671128932551123,0.0009902639663030277,0.3165166676044464,-23.68893814086914,19.656478881835938,17.94654083251953,0.8568216562271118,2.3870131969451904,-0.13361968100070953,,,,,,,,,
1739400763.5391982,-0.7080697760720988,0.678838689918068,1.4209742162690833,-1.8790112347030024,-0.7127946201792501,1.9470278128493461,0.1881463382414834,-0.00046726565830789053,0.0006227881007684751,-0.00017234764665190525,0.0010850869640777897,-0.00025758275190758206,0.0010903303218225131,-0.0008186050554165626,0.2689092457294464,-23.68893814086914,19.628707885742188,17.87512969970703,0.8641458749771118,2.3604629039764404,-0.10706938803195953,,,,,,,,,
1739400763.5501676,-0.7080697790193015,0.678843143947171,1.4209737100334225,-1.879013025879255,-0.7127987782278066,1.947023404017466,0.18814896243495272,0.000661535913039216,0.00027334734158537084,-7.296415937066566e-05,-0.0006014837540458339,-2.185788116393563e-05,-0.002234055541964676,0.0006925606192325576,0.2689092457294464,-23.71670913696289,19.628707885742188,17.89893341064453,0.8641458749771118,2.3604629039764404,-0.13361968100070953,,,,,,,,,
1739400763.5602958,-0.7080722038523805,0.6788368949757281,1.4209761625928472,-1.87901301694007,-0.7127973107947598,1.9470281091334665,0.1881495550632686,-0.0015212327587996793,0.00023482154293686644,0.0003025009284017774,-0.0009163055854938847,-0.0006384093822546294,-0.0005036447833138081,0.0009448062213002699,0.2927129566669464,-23.66513442993164,19.577133178710938,17.89893341064453,0.8568216562271118,2.3604629039764404,-0.10706938803195953,,,,,,,,,
1739400763.5711696,-0.7080719218471118,0.6788385986230515,1.420978308360508,-1.8790147987448087,-0.7127944880140955,1.9470289193093482,0.1881441076813913,-0.00040359065413555367,0.0002673470379675712,-0.00022310154784159746,-0.001015909369464216,0.0005311276968237991,0.001076361667832857,-0.0016699672939174388,0.2689092457294464,-23.68893814086914,19.577133178710938,17.92273712158203,0.8641458749771118,2.3540542125701904,-0.08051909506320953,,,,,,,,,
1739400763.5811899,-0.7080693125205194,0.6788361826202899,1.4209722778126135,-1.8790090886046893,-0.7127975725017296,1.947023926865463,0.18814931836591955,0.0007874357570770188,-0.0002415918266017677,-0.0011966031482887897,-0.00028871629865962265,-0.0010923347431331144,0.00020078277705723105,-1.412126338428115e-05,0.2689092457294464,-23.66513442993164,19.656478881835938,17.87512969970703,0.8769632577896118,2.3604629039764404,-0.13361968100070953,,,,,,,,,
1739400763.5912006,-0.7080660656064276,0.6788327423822916,1.4209744547344692,-1.8790090495630567,-0.7127964761910179,1.9470274062326351,0.1881451262951492,0.001521897409653489,-0.0015885186854572163,-0.00029793805334881444,0.0003599568465170378,-0.0002584261119325912,0.0010453036542314143,-0.0008665418674332799,0.2173345386981964,-23.63736343383789,19.628707885742188,17.84735870361328,0.8705545663833618,2.3668715953826904,-0.07411040365695953,,,,,,,,,
1739400763.6021936,-0.708071488275601,0.6788405965517414,1.4209762387213283,-1.879011234371325,-0.7127981873394305,1.9470255385626294,0.18814630530800575,-0.00015019325249862337,0.0008592043971963516,-0.0005584061522266098,0.000622827306155877,-0.0005305056462387543,-0.00036026499390921665,0.0012851686913510504,0.2927129566669464,-23.71670913696289,19.604904174804688,17.87512969970703,0.8641458749771118,2.3732802867889404,-0.10066069662570953,,,,,,,,,
1739400763.6122272,-0.7080699239022157,0.6788391113423415,1.4209822466283881,-1.8790084393263249,-0.7127965676601773,1.947027808471882,0.1881447385319874,0.0001015180863538777,0.0013220309526267504,0.0006199913217438829,0.0009413067368363777,0.00021687172614055325,0.0008966968092165036,-0.0016071088935900157,0.2411382496356964,-23.66513442993164,19.553329467773438,17.84735870361328,0.8504129648208618,2.3604629039764404,-0.06678618490695953,,,,,,,,,
1739400763.62223,-0.708069698220077,0.6788368862489711,1.4209790355475367,-1.8790112314163656,-0.7127954049441627,1.9470295636406083,0.18814896688416877,-0.00039914454031747136,4.325919109368539e-05,-0.00015759473867567406,-0.00030224431505746863,0.0012344727202333059,-0.00013340506928226467,0.0004880342585616679,0.2689092457294464,-23.66513442993164,19.577133178710938,17.87512969970703,0.8440042734146118,2.3476455211639404,-0.13361968100070953,,,,,,,,,
1739400763.633189,-0.7080678693811864,0.6788405965638552,1.4209790984401374,-1.8790112332817384,-0.7127999681490482,1.9470270159447678,0.188152588290832,0.0005070966187791045,-0.0003205560368200204,-0.00012052203313739801,0.0003470328611041195,-0.000617597583045787,0.0006661644208940584,0.003029144584312762,0.2411382496356964,-23.71670913696289,19.604904174804688,17.87512969970703,0.8705545663833618,2.3668715953826904,-0.12721098959445953,,,,,,,,,
1739400763.6441426,-0.7080697670885915,0.6788348880524008,1.4209743752794048,-1.8790111284080988,-0.712798340239127,1.9470257385088345,0.18815229320350704,-0.0003825833973410878,-0.0003214244935892547,0.00010568373452812604,0.0020109741481316844,-0.0006623275406721918,0.0007806276259887932,0.0013675272933800619,0.2689092457294464,-23.63736343383789,19.628707885742188,17.87512969970703,0.8568216562271118,2.3540542125701904,-0.13361968100070953,,,,,,,,,
1739400763.6541936,-0.70806977607571,0.6788327423942033,1.420970592267894,-1.8790121880444397,-0.7127991336198177,1.9470235682692019,0.1881449034053222,0.0007113740406918262,-0.0011077123489794533,0.00018365603529047955,-0.0010329814392599558,-0.0012910723709145902,-0.0008265800742636008,-0.00103255303538315,0.2689092457294464,-23.63736343383789,19.680282592773438,17.87512969970703,0.8641458749771118,2.3604629039764404,-0.08692778646945953,,,,,,,,,
1739400763.664222,-0.7080714799298,0.6788368860659314,1.4209754084104305,-1.8790091545982126,-0.712796849056317,1.9470273872436814,0.1881490208016124,-0.000812838663922432,-0.0007369317050838282,0.00040669903149783597,-0.00016822837143049755,0.0009810891913997698,0.0008596128226180876,0.0010175273537479238,0.2927129566669464,-23.66513442993164,19.628707885742188,17.84735870361328,0.8568216562271118,2.3540542125701904,-0.13361968100070953,,,,,,,,,
1739400763.6751795,-0.7080697773840084,0.678841338419561,1.4209702701315496,-1.87901302162762,-0.7127976277921696,1.9470258341465738,0.1881429932801688,-0.0005434511087152589,0.0011386459477089137,-0.0015494555921073743,-0.0014985528505793036,-0.001896151678939801,-0.0013611194081470776,-0.0020716445540713765,0.2689092457294464,-23.71670913696289,19.680282592773438,17.89893341064453,0.8504129648208618,2.3668715953826904,-0.07411040365695953,,,,,,,,,
1739400763.6862853,-0.7080697760758843,0.6788396317827409,1.4209713139944784,-1.8790052260288923,-0.7127979099884848,1.947028109187452,0.18814867868568452,-0.00021313072495584965,0.0004515177310778975,-0.0015948080592375527,0.0017060770377707014,0.0002866557707652403,0.0007932961025018296,0.0027126405934455957,0.2689092457294464,-23.68893814086914,19.656478881835938,17.82355499267578,0.8568216562271118,2.3604629039764404,-0.12721098959445953,,,,,,,,,
1739400763.6971953,-0.7080732011173246,0.6788443128597531,1.4209695129401665,-1.8790090750930517,-0.7127948511795207,1.9470255385625346,0.1881515238184953,-0.0009737508372464558,0.00224198809499199,-0.0005631087751502088,0.000865020337783954,0.0004591603975582125,-0.001080545224791854,0.0015958317652832936,0.3165166676044464,-23.76828384399414,19.656478881835938,17.84735870361328,0.8568216562271118,2.3732802867889404,-0.12721098959445953,,,,,,,,,
1739400763.7072237,-0.7080704913315995,0.6788405965639532,1.4209695137658247,-1.8790112343705716,-0.7127982675019922,1.9470254195680274,0.18814506595264927,-6.381292835302774e-05,0.0003074114689271823,-0.00144582447860252,0.0008783925599677015,-0.0003191464176445311,-0.0014461450671003852,-0.0014588006974218899,0.2689092457294464,-23.71670913696289,19.656478881835938,17.87512969970703,0.8568216562271118,2.3732802867889404,-0.10066069662570953,,,,,,,,,
1739400763.7172272,-0.7080752688955093,0.6788368537244385,1.4209702260781367,-1.879012381266059,-0.7127952060600186,1.9470249348010304,0.18814061190037845,-0.0014211761459944038,-0.0008381990960207238,-0.0007459485874779331,-0.00028971066733628827,0.0010696122883090274,0.00035680835654611394,-0.0033144953412157455,0.3165166676044464,-23.66513442993164,19.656478881835938,17.89893341064453,0.8568216562271118,2.3604629039764404,-0.05396880581974983,,,,,,,,,
1739400763.7281466,-0.7080630353915833,0.6788368861020875,1.4209744545786285,-1.8790112343683287,-0.7127968700689813,1.9470235567841716,0.1881444460550928,0.00181345195054606,-0.0006910163430336319,-0.0001389854993477521,-0.0001646432334713928,-0.0003877547022333985,-0.00010108400850128577,-0.0015710756509551766,0.2173345386981964,-23.66513442993164,19.628707885742188,17.87512969970703,0.8440042734146118,2.3604629039764404,-0.09425200521945953,,,,,,,,,
1739400763.7381666,-0.708067778083692,0.6788385986230014,1.4209811782259352,-1.8790093665096879,-0.7127973937974211,1.9470273892682814,0.1881489638989556,0.000315854669550241,0.00024633416105735275,0.0008046355559945072,-8.273394709956325e-05,-0.00021478843116802835,0.0005612400305323525,0.0008360153840156407,0.2411382496356964,-23.68893814086914,19.577133178710938,17.84735870361328,0.8504129648208618,2.3668715953826904,-0.13361968100070953,,,,,,,,,
1739400763.748201,-0.7080661450871367,0.6788405965638544,1.4209783169243915,-1.879009154585651,-0.71279727458417,1.947027037748362,0.18815282653781296,0.0007860192755175168,-0.0005417850572454453,-0.0006267405778808497,0.0006642801107105278,0.000468035657974382,0.0016503973593134777,0.0023874505209446,0.2173345386981964,-23.71670913696289,19.577133178710938,17.84735870361328,0.8504129648208618,2.3668715953826904,-0.12721098959445953,,,,,,,,,
1739400763.7582538,-0.708069776077208,0.6788348086885574,1.4209800998800028,-1.879010234190652,-0.7127975098957854,1.9470281654117778,0.18814658161989758,3.192765325546755e-05,-0.0008930540103383405,0.000675054178108249,-0.00011583928832314844,-0.00019088451947412766,-7.665957355021935e-05,-0.0014612201240531066,0.2689092457294464,-23.63736343383789,19.553329467773438,17.89893341064453,0.8504129648208618,2.3604629039764404,-0.11347807943820953,,,,,,,,,
1739400763.7692118,-0.7080675657225676,0.6788332552221134,1.4209763168859928,-1.8790130079121996,-0.7127929330811156,1.9470249474193122,0.18814594185870934,0.00044767617039897665,-0.0009680185874258456,0.00020562310538567918,-0.0011211470322311746,0.0014505241829414549,-0.0008060694800398093,-0.0015078925076206957,0.2689092457294464,-23.61355972290039,19.604904174804688,17.89893341064453,0.8375955820083618,2.3604629039764404,-0.08051909506320953,,,,,,,,,
1739400763.7792315,-0.7080697500380496,0.6788385987333654,1.4209783214559688,-1.879013017048782,-0.7127954572360817,1.9470226857647417,0.18815221376409297,-0.00011094398224198885,0.0011599295057258263,0.0006359371763150059,-0.0009202758342796949,0.00045671380851741494,-0.0010150597921993146,0.0031078359833424593,0.2689092457294464,-23.68893814086914,19.577133178710938,17.89893341064453,0.8440042734146118,2.3668715953826904,-0.13361968100070953,,,,,,,,,
1739400763.7902162,-0.7080697759687177,0.6788376043014474,1.4209783185112077,-1.8790104926252271,-0.7127983835148781,1.9470249826008736,0.18814658302261456,-0.0001570480760406708,0.0002930438136614865,0.0003764082962685885,0.0003641125139240114,0.00012021246729979972,0.0006323725869766626,-0.0012816088366121156,0.2689092457294464,-23.66513442993164,19.577133178710938,17.87512969970703,0.8568216562271118,2.3604629039764404,-0.11347807943820953,,,,,,,,,
1739400763.8011775,-0.7080719218430734,0.6788393129016466,1.4209783152407032,-1.8790112344040695,-0.7127960666295534,1.9470281654000843,0.18815267443894523,-0.0007424451883583138,0.0004577709287228263,0.0003569074472718061,-0.0006176033118544923,0.00020798998334866693,0.0011712354736802745,0.0031126349268258808,0.2689092457294464,-23.68893814086914,19.577133178710938,17.87512969970703,0.8641458749771118,2.3604629039764404,-0.13361968100070953,,,,,,,,,
1739400763.8112068,-0.7080677781713479,0.6788368861143665,1.4209744547360807,-1.8790091545820626,-0.7127965168741208,1.9470274084039876,0.18814466794490475,0.0009723758811206095,9.273530783312698e-05,-0.0005749735079906315,-6.237145295610622e-05,0.0006695492365034247,0.0003866244950751607,-0.0009995471403945314,0.2411382496356964,-23.66513442993164,19.628707885742188,17.84735870361328,0.8440042734146118,2.3668715953826904,-0.09425200521945953,,,,,,,,,
1739400763.8221984,-0.7080732011173249,0.6788386340896275,1.420974419414843,-1.879004510555045,-0.7127992513561593,1.9470241110521835,0.18814467415708944,-0.0008049840453943207,0.0006424081786596501,0.0010935022144309134,0.002677423084973463,-0.0007222477387160415,-0.000505083585843281,-0.00040854140336041875,0.3165166676044464,-23.68893814086914,19.628707885742188,17.82355499267578,0.8641458749771118,2.3668715953826904,-0.06678618490695953,,,,,,,,,
1739400763.832248,-0.7080683853008174,0.6788370038404408,1.4209723726563188,-1.8790126538012704,-0.7127992469975026,1.9470251155775145,0.18814724724904314,0.0006571333653646351,-0.0007369117689165733,0.0002735905962892162,-0.0007274454130914943,-0.000836935322180573,-0.00030204914091324075,0.0003785765931328443,0.2689092457294464,-23.66513442993164,19.656478881835938,17.92273712158203,0.8641458749771118,2.3732802867889404,-0.10706938803195953,,,,,,,,,
1739400763.8432264,-0.7080698544551944,0.6788413926026405,1.420975642904385,-1.8790091531285091,-0.7127980322481373,1.9470278128253693,0.18815050141218193,0.0006654292597440612,0.0014560208557672025,0.0004014120549697619,2.0202068838673403e-05,-2.0957756830894284e-05,-0.00012422457663222958,0.0016702331773916655,0.2689092457294464,-23.71670913696289,19.628707885742188,17.84735870361328,0.8568216562271118,2.3604629039764404,-0.10706938803195953,,,,,,,,,
1739400763.8543308,-0.7080732805903318,0.67883903187098,1.4209752747774926,-1.8790102806975988,-0.7127960327127274,1.9470280027812683,0.18814194020954492,-0.0019270915397709867,0.0006150315665235736,-0.0008908321910228465,0.0008937184528174794,7.884114015750896e-05,0.0005081051222627397,-0.0004660310249107063,0.3165166676044464,-23.66513442993164,19.604904174804688,17.87512969970703,0.8641458749771118,2.3604629039764404,-0.07411040365695953,,,,,,,,,
1739400763.8652098,-0.7080666261069382,0.678834914688709,1.4209755676668963,-1.8790112343557672,-0.7128000089637238,1.9470242236726447,0.18814988716186987,-0.000454380074214192,-0.0009303089964185051,0.0001203015092482735,-0.00025292990657380327,-0.00031694593607968545,0.00046233684695919466,4.655163141352404e-05,0.2411382496356964,-23.63736343383789,19.628707885742188,17.87512969970703,0.8705545663833618,2.3668715953826904,-0.14094389975070953,,,,,,,,,
1739400763.8761635,-0.7080697760981446,0.6788398554874402,1.4209716597289541,-1.8790112915189563,-0.7127992513402083,1.9470291192431097,0.18814802024142102,4.5325372726294196e-05,0.0013684572608387957,-0.0004371649339858754,-0.0003730950286872667,-0.0004809876219706549,0.0015330985392291536,-0.0003198596299006429,0.2689092457294464,-23.66513442993164,19.656478881835938,17.84735870361328,0.8641458749771118,2.3403213024139404,-0.09425200521945953,,,,,,,,,
1739400763.886246,-0.7080677810784496,0.678838600082057,1.420977999275213,-1.8790091546906298,-0.7127944488864536,1.947026644372651,0.1881538306292083,0.000719728856586709,0.0008704063942452657,0.0012263996223725315,0.0014557936241123763,0.0008965478978779674,0.001193343974958174,0.002979185690648833,0.2411382496356964,-23.68893814086914,19.577133178710938,17.84735870361328,0.8504129648208618,2.3732802867889404,-0.14735259115695953,,,,,,,,,
1739400763.898224,-0.7080697798577901,0.6788368870834194,1.4209801352006803,-1.879013052370208,-0.7127980322603988,1.9470248635799614,0.18814820900540108,-0.0009109301225256475,-0.0004382779161714358,0.0019475798972457049,8.939061573747724e-05,-0.00031001765156238184,0.001043579096335573,0.0005664967269289026,0.2689092457294464,-23.66513442993164,19.553329467773438,17.89893341064453,0.8568216562271118,2.3604629039764404,-0.12721098959445953,,,,,,,,,
1739400763.9091723,-0.7080669564791163,0.6788348881614227,1.4209783436941412,-1.8790130170491361,-0.7127976277988488,1.9470230108575102,0.18814198406175803,0.0009996735919776483,0.0001810961946611038,6.007344067347925e-05,-0.00018676364724293086,3.683505847576063e-05,-0.0012580319757145482,-0.0023081375674811446,0.2689092457294464,-23.63736343383789,19.577133178710938,17.89893341064453,0.8504129648208618,2.3668715953826904,-0.07411040365695953,,,,,,,,,
1739400763.9202094,-0.7080697760599455,0.6788368861022702,1.4209804634064152,-1.8790102806976015,-0.7127943311488846,1.9470259955283356,0.188148934605154,-0.0001569632990827127,-0.0003743783942228541,-0.00044008725736210144,0.0008736570154990994,0.0021742034379931855,0.0007547551268830409,-0.000504696101052072,0.2689092457294464,-23.66513442993164,19.577133178710938,17.87512969970703,0.8504129648208618,2.3668715953826904,-0.09425200521945953,,,,,,,,,
1739400763.931225,-0.7080677781350091,0.6788385986230014,1.4209762373889097,-1.8790084394299575,-0.7127975865444741,1.9470269372304025,0.18814858831149836,0.000675047889335987,0.0006372327655124957,-0.0006472378611348499,0.00020138520107574383,0.0008753549407031005,-0.00021383953189074673,0.0010733594401591401,0.2411382496356964,-23.68893814086914,19.604904174804688,17.84735870361328,0.8504129648208618,2.3668715953826904,-0.09425200521945953,,,,,,,,,
1739400763.9421446,-0.7080697760639735,0.6788338909085362,1.4209783139325005,-1.879011234225217,-0.7127992513580758,1.9470264806776552,0.1881479154271937,0.0005162677305835608,-0.0007895314571911939,0.0011709361410435284,-0.0007421623147439185,-0.0004008319479423744,-0.0010081368057597746,-0.00226637905049083,0.2689092457294464,-23.61355972290039,19.577133178710938,17.87512969970703,0.8641458749771118,2.3732802867889404,-0.09425200521945953,,,,,,,,,
1739400763.9522135,-0.7080700144944411,0.6788388399971329,1.4209759989944986,-1.8790091545820595,-0.7127990182753967,1.9470272887254818,0.18814623364293417,-0.0001420018523617902,0.0010367953483648702,-0.0007557964243150236,0.0003328019011533033,-0.0007503932850380292,0.0011610254420124327,-0.0013885202460028978,0.2689092457294464,-23.68893814086914,19.604904174804688,17.84735870361328,0.8769632577896118,2.3668715953826904,-0.10706938803195953,,,,,,,,,
1739400763.9622426,-0.7080677781390469,0.678840596567942,1.4209755218263094,-1.8790069607386757,-0.7127992497134882,1.9470273541360963,0.18814387120795903,0.0014634110423495175,0.0007442964265364908,5.7650331797307096e-05,0.0005755864250612486,0.0003121903728242213,0.0002586318158426277,-0.0017768865842965275,0.2411382496356964,-23.71670913696289,19.604904174804688,17.84735870361328,0.8641458749771118,2.3668715953826904,-0.08051909506320953,,,,,,,,,
1739400763.9722688,-0.7080641190901266,0.6788378407577331,1.4209762374010146,-1.8790110308013916,-0.712799589302583,1.9470280483255884,0.18815181148923718,0.0016148858733318226,0.0004305884965823325,-0.00010605669879050472,0.00018801976016956167,-0.00023538222427961226,0.0004479403767980026,0.0015599002815180802,0.1935308277606964,-23.66513442993164,19.604904174804688,17.87512969970703,0.8769632577896118,2.3604629039764404,-0.12721098959445953,,,,,,,,,
1739400763.9841468,-0.7080732011160037,0.6788388636469391,1.420974454736114,-1.8790147987436603,-0.7127992513515071,1.9470264763172265,0.18814712677587947,-0.00019509042561303936,0.0003559834367130294,0.0004131930080645081,-0.0009132598834838964,-0.0011096312413027012,0.0009049483862921809,0.0009888145766496742,0.3165166676044464,-23.68893814086914,19.628707885742188,17.92273712158203,0.8641458749771118,2.3732802867889404,-0.08051909506320953,,,,,,,,,
1739400763.9941971,-0.7080676701540963,0.6788348969932309,1.4209705922692395,-1.8790112382964979,-0.7127992513581534,1.9470281660092574,0.18814568215229155,0.0006191290671257453,-0.0009089524400254835,-0.0008441674282865322,0.00010223532711125995,-0.0010055214534582762,0.0020706806850511773,-0.0016565797177998055,0.2689092457294464,-23.63736343383789,19.680282592773438,17.87512969970703,0.8641458749771118,2.3604629039764404,-0.06678618490695953,,,,,,,,,
1739400764.0062368,-0.7080697760639741,0.6788389253448078,1.4209705892894613,-1.87901269915752,-0.7127978752647846,1.9470229964647667,0.18814265574493436,-0.00022286973471178186,0.0014686813051204824,-0.0011272061810784196,-0.00022565509184622058,0.0018059196715720515,-0.0015085692228147519,-0.001030282523105431,0.2689092457294464,-23.68893814086914,19.680282592773438,17.89893341064453,0.8568216562271118,2.3732802867889404,-0.06678618490695953,,,,,,,,,
1739400764.0162425,-0.7080677791161555,0.6788407443920577,1.4209744547360972,-1.879015162814354,-0.7127983854042057,1.947023874748887,0.18814315759149874,0.00017106312338185145,0.0008053719186150749,0.0010175433004880824,-4.3190436245430443e-05,0.0007391281488421887,-0.00032487479664593857,-0.0006058608806115242,0.2411382496356964,-23.68893814086914,19.628707885742188,17.89893341064453,0.8568216562271118,2.3668715953826904,-0.07411040365695953,,,,,,,,,
1739400764.0262449,-0.7080684943719094,0.6788427511977229,1.420974454736114,-1.8790132550677894,-0.7127992513581525,1.9470228144793564,0.18814584590899852,-0.0005993981925391991,0.0006656458688296037,-0.0006141529765139618,9.42020340513995e-05,-0.0007141484942192812,-0.0008956052115488336,-1.2900693783648954e-05,0.2411382496356964,-23.71670913696289,19.628707885742188,17.89893341064453,0.8641458749771118,2.3668715953826904,-0.06678618490695953,0,0,0,0.000,0,0
1739400764.0371783,-0.708067670376172,0.6788370780923807,1.4209783172029886,-1.879011028332514,-0.7128002021435388,1.9470238075946495,0.18814931939809093,-0.000282901110967552,-0.0005900851146804331,0.000504950527088786,0.00035097858899352534,-0.00032734286018206295,0.0003979405983031967,0.0005953926773211634,0.2689092457294464,-23.63736343383789,19.577133178710938,17.87512969970703,0.8641458749771118,2.3604629039764404,-0.13361968100070953,0,0,0,0.000,0,0
1739400764.0482457,-0.7080760616766238,0.6788409499226671,1.420975998994554,-1.8790130170454473,-0.7127983854770226,1.9470269865149943,0.18814736940517587,-0.002037027897801908,0.001399155236175369,-9.07367676399605e-05,-0.00010851377384482283,-0.0007284443436018863,-0.0002910850285968584,0.0004937188825061726,0.3165166676044464,-23.71670913696289,19.604904174804688,17.89893341064453,0.8568216562271118,2.3604629039764404,-0.10706938803195953,0,0,0,0.000,0,0
1739400764.0591388,-0.7080647906091575,0.678834896956061,1.4209762374126844,-1.879014720253096,-0.712798385460921,1.947028923721936,0.1881404808230383,0.002348540525517922,-0.0012269668791535244,-4.441626066795532e-05,-0.0011309685569810633,6.960734240895129e-06,0.0016445136545499986,-0.0028974746837199645,0.1697271168231964,-23.63736343383789,19.604904174804688,17.92273712158203,0.8568216562271118,2.3540542125701904,-0.06037749722599983,0,0,0,0.000,0,0
1739400764.069155,-0.7080677781714202,0.6788368821778334,1.4209744544090652,-1.879010200896347,-0.7128000032040308,1.947025989577453,0.18814439186952187,-0.00018983876943299443,-0.0002318886767031232,0.00033498883010935293,0.0004630119585848975,-0.0002852898281076635,-0.0001723282813686441,-0.002542080396798636,0.2411382496356964,-23.66513442993164,19.628707885742188,17.87512969970703,0.8705545663833618,2.3668715953826904,-0.06678618490695953,0,0,0,0.000,0,0
1739400764.079304,-0.7080677784620586,0.6788348921949526,1.4209762374131276,-1.879011154881556,-0.7127992508735382,1.9470288779940477,0.1881434072619343,1.6317816824639218e-05,-0.001454898673024153,-0.00011526196993067069,-0.00016693456590270912,0.00011703085859670636,0.0009420312576737122,-0.002107733717070734,0.2411382496356964,-23.63736343383789,19.604904174804688,17.87512969970703,0.8641458749771118,2.3540542125701904,-0.07411040365695953,0,0,0,0.000,0,0
1739400764.0902421,-0.7080697731869329,0.6788348894696351,1.4209751788221692,-1.8790119496635451,-0.7127994629232075,1.9470246788726624,0.18815193000509878,-0.00014760775656438884,-0.0008523278576208598,-0.0012257510633556178,-0.0013681268734687486,-0.0007673407797443815,-1.4664598743911554e-05,0.0013822514843918714,0.2689092457294464,-23.63736343383789,19.628707885742188,17.87512969970703,0.8568216562271118,2.3540542125701904,-0.12721098959445953,0,0,0,0.000,0,0
1739400764.1011872,-0.7080697760758459,0.6788368948962565,1.4209741990310332,-1.8790073631151019,-0.7127983854670032,1.9470257301964677,0.18814550370678274,7.707972278484387e-07,-0.0005597044995468673,7.49544153784332e-05,0.00035987435093527454,0.0008980630479985723,0.0012150267039288246,-0.0014439554846028449,0.2689092457294464,-23.66513442993164,19.604904174804688,17.82355499267578,0.8568216562271118,2.3540542125701904,-0.06678618490695953,0,0,0,0.000,0,0
1739400764.1112666,-0.7080714885965934,0.6788386015665896,1.4209754161590626,-1.8790125387283991,-0.7127999703830273,1.947028557375411,0.18814398838710314,-0.0012221298756662446,0.0005919385408009024,-0.0005866620187937964,3.764168817836687e-05,-0.00024046293632729629,-0.00010468794813450988,-0.0008151259573060024,0.2927129566669464,-23.68893814086914,19.604904174804688,17.92273712158203,0.8641458749771118,2.3540542125701904,-0.05396880581974983,0,0,0,0.000,0,0
1739400764.122222,-0.7080697414086888,0.6788331316344689,1.4209762382442885,-1.8790073365710087,-0.7127976273203848,1.9470235176083226,0.18815137483807312,-0.00023479379935859872,-0.0019297857331569339,-0.0004266282721578645,0.001328465573762338,0.00031383111956232075,-0.0011558825130481634,0.001919569193157257,0.2689092457294464,-23.61355972290039,19.604904174804688,17.82355499267578,0.8504129648208618,2.3604629039764404,-0.11347807943820953,0,0,0,0.000,0,0
1739400764.1331565,-0.7080729671137086,0.6788368861020218,1.4209762364319913,-1.879012990557784,-0.7128035428925745,1.9470261228635999,0.18815646921488433,-0.0005141025849186578,-0.0004984368197630603,0.00011801053026922003,-0.0004991041638471218,-0.0017641927693159668,-0.0009628991338061087,0.00197858821902754,0.3165166676044464,-23.66513442993164,19.604904174804688,17.89893341064453,0.8641458749771118,2.3732802867889404,-0.12080229818820953,0,0,0,0.000,0,0
1739400764.144148,-0.708066065612957,0.6788386820204468,1.4209762373041113,-1.8790112343354295,-0.71279687016499,1.9470258254848012,0.18814681853069015,0.0011380434063327548,-0.0003592788171837508,0.0002897391520433407,-0.00024089518402239967,-0.0001209898013115571,-0.00017960863362023163,-0.0018536028111048452,0.2173345386981964,-23.68893814086914,19.604904174804688,17.87512969970703,0.8440042734146118,2.3668715953826904,-0.08692778646945953,0,0,0,0.000,0,0
1739400764.154213,-0.7080677781350092,0.6788385986244138,1.4209762374131314,-1.8790126627890609,-0.7127954572899255,1.947028008569327,0.18814748266635992,0.00029283336915939,0.0003195246080269603,-0.00036158208429522347,-0.0008510656245743452,0.0017478329290943693,0.000989507855896236,0.0006417017126338011,0.2411382496356964,-23.68893814086914,19.604904174804688,17.92273712158203,0.8440042734146118,2.3604629039764404,-0.08051909506320953,0,0,0,0.000,0,0
1739400764.1652036,-0.7080705001619172,0.6788385973148062,1.4209762639040864,-1.8790129921811645,-0.7127983854529454,1.9470211772814383,0.18815133952015428,-0.0006674260344629372,0.0006471397024796951,-2.8621093776308194e-05,0.0004359971705313546,4.428598247492428e-05,-0.0007875946772412095,0.0013559703876140801,0.2689092457294464,-23.68893814086914,19.604904174804688,17.89893341064453,0.8568216562271118,2.3796889781951904,-0.11347807943820953,0,0,0,0.000,0,0
1739400764.1752882,-0.7080657276216001,0.6788427776523152,1.4209766005037745,-1.8790147997255346,-0.712800311159807,1.9470261359457655,0.18814910624707684,0.0017029834528291213,0.0016569552591015491,0.0007299442028642878,-0.0008158756930979933,-0.0007967793909243917,4.179963465866808e-05,-0.00020806244215670062,0.2173345386981964,-23.71670913696289,19.628707885742188,17.92273712158203,0.8641458749771118,2.3732802867889404,-0.09425200521945953,0,0,0,0.000,0,0
1739400764.1862068,-0.7080698025610914,0.6788348970286717,1.4209723486006605,-1.879009088604706,-0.7127983854788689,1.947023454614495,0.18814951581589506,0.00010758928275726281,-0.0021379990104575444,-0.0014494490769616129,0.0007788846183015032,-0.0008636248310387593,-0.00121010352491485,-0.000683246283524616,0.2689092457294464,-23.63736343383789,19.656478881835938,17.87512969970703,0.8568216562271118,2.3604629039764404,-0.10706938803195953,0,0,0,0.000,0,0
1739400764.197159,-0.7080697760759119,0.6788338918775864,1.4209730107290865,-1.879014799588676,-0.7127976282914158,1.9470262244874306,0.18814986390574698,-7.403724945235158e-05,-0.0017288759949423103,-0.001142959693014108,-0.0008852246167341348,0.0007874431031307207,-0.0007494580361596913,0.00035954894276244993,0.2689092457294464,-23.61355972290039,19.656478881835938,17.92273712158203,0.8504129648208618,2.3668715953826904,-0.10066069662570953,0,0,0,0.000,0,0
1739400764.2082589,-0.7080704910106072,0.6788368861143997,1.420974454746881,-1.8790085639979361,-0.7127968701407725,1.947026596457995,0.18814743003558088,4.117217199257699e-06,-0.0004703506813916199,9.090218942943526e-05,0.0019600194905248962,0.0007782869948147912,0.0005317561000100353,-0.0008315721536596621,0.2689092457294464,-23.66513442993164,19.628707885742188,17.82355499267578,0.8440042734146118,2.3732802867889404,-0.08051909506320953,0,0,0,0.000,0,0
1739400764.2192369,-0.708068015594647,0.6788331769488812,1.4209723749462586,-1.879011234414986,-0.7127971568505629,1.9470281268179142,0.18814581964168733,6.253486619685344e-05,-0.0016607475991953845,-0.0001667736287945668,0.000186768759567769,0.00029612457306268746,0.0018827879435467064,-0.0005668950088446301,0.2411382496356964,-23.61355972290039,19.656478881835938,17.87512969970703,0.8504129648208618,2.3604629039764404,-0.06678618490695953,0,0,0,0.000,0,0
1739400764.2301447,-0.7080697760772027,0.6788391379423186,1.4209762374131332,-1.8790055892280244,-0.7127992513554949,1.9470234037487333,0.18814910673507135,-0.00013427814992282596,0.0003603975629897609,0.0003794413591126103,0.0009155149136347904,9.663913658023457e-05,-0.000973052543440106,0.0010388774282724797,0.2689092457294464,-23.66513442993164,19.604904174804688,17.79975128173828,0.8641458749771118,2.3604629039764404,-0.09425200521945953,0,0,0,0.000,0,0
1739400764.241286,-0.708066065614278,0.6788357736039623,1.4209783172029886,-1.8790102041681809,-0.7127992469975027,1.9470258475123843,0.18814824018800466,0.001686823878575668,0.0006798601713420215,0.0011584897849711753,-0.0002104715505313417,-0.00044435921091487657,-0.0009805359450948744,0.0006449485971556128,0.2173345386981964,-23.66513442993164,19.577133178710938,17.87512969970703,0.8641458749771118,2.3796889781951904,-0.08692778646945953,0,0,0,0.000,0,0
1739400764.2521687,-0.7080705708044591,0.6788386780937677,1.4209801352012785,-1.87901123337672,-0.7127987960706879,1.9470238092714425,0.18814974055894781,-0.000843586527139331,0.0008115954197733808,0.00122927714362047,0.0003668477111038013,-0.001101543227312196,5.888153241040471e-05,0.0008541689630495084,0.2689092457294464,-23.68893814086914,19.553329467773438,17.87512969970703,0.8568216562271118,2.3604629039764404,-0.10066069662570953,0,0,0,0.000,0,0
1739400764.2632306,-0.7080677781394954,0.6788348999356227,1.4209800998802071,-1.8790128051213053,-0.7127968701430822,1.947027368595196,0.1881522451245204,0.0003397692481689138,-0.000339371022466331,0.00044629628286751684,-0.00017429884907252207,0.0005050061929334132,0.0016267856528339006,0.0013944293471291147,0.2411382496356964,-23.63736343383789,19.553329467773438,17.89893341064453,0.8440042734146118,2.3668715953826904,-0.12080229818820953,0,0,0,0.000,0,0
1739400764.2741482,-0.7080714616332364,0.6788405170911941,1.4209782910390842,-1.8790147732314135,-0.7127972922487683,1.9470222942916537,0.18815102234506018,-0.0012287426006770898,0.0008460673219559223,4.281286680027683e-05,-0.0003767548691985444,0.0007207650866359735,-0.0015260546944851367,0.0012965337484842892,0.2927129566669464,-23.71670913696289,19.577133178710938,17.92273712158203,0.8504129648208618,2.3732802867889404,-0.11347807943820953,0,0,0,0.000,0,0
1739400764.2842214,-0.7080697760754056,0.6788369659008329,1.4209744164709608,-1.879011234371469,-0.7127983854552383,1.9470246458520046,0.18815188921133869,3.222832699753002e-05,-0.0004448978023216989,-0.0007230516025975762,0.00022177144697699248,0.0007097687755649348,0.00019751253709863505,0.0005978044734170446,0.2689092457294464,-23.66513442993164,19.628707885742188,17.87512969970703,0.8568216562271118,2.3540542125701904,-0.12080229818820953,0,0,0,0.000,0,0
1739400764.2952435,-0.7080677781350092,0.6788368860663819,1.4209761540154717,-1.879010280588585,-0.7127976278008427,1.9470242161681692,0.18814746887465503,0.0006295544314457916,-0.001044281241007654,-0.00045331612899142236,0.00031676164541712354,0.00039628185722347516,-0.00013606985657883572,-0.0005997120326562752,0.2411382496356964,-23.66513442993164,19.604904174804688,17.87512969970703,0.8504129648208618,2.3668715953826904,-0.08051909506320953,0,0,0,0.000,0,0
1739400764.3061404,-0.7080677869653269,0.678837919249446,1.4209740916454505,-1.8790130170798913,-0.712798385460921,1.9470258340295565,0.18815137484000152,-0.0003719028483001321,3.6343995885839277e-06,-7.560424979064504e-05,-0.0004816798905846911,-0.0007180119318122729,-0.001568027925987861,0.0013642634083394331,0.2411382496356964,-23.66513442993164,19.604904174804688,17.89893341064453,0.8568216562271118,2.3668715953826904,-0.11347807943820953,0,0,0,0.000,0,0
1739400764.316187,-0.708065672104277,0.6788368945023551,1.4209783860753324,-1.8790147908956383,-0.712798385460921,1.9470279945362607,0.18814787469175837,0.0011877109910789457,0.0005986723602955838,0.0005793974208270306,-0.0007865215997240288,0.0006503005501676024,0.0007441654777051455,-0.0019228606783154257,0.2411382496356964,-23.66513442993164,19.604904174804688,17.92273712158203,0.8568216562271118,2.3604629039764404,-0.08692778646945953,0,0,0,0.000,0,0
1739400764.327203,-0.708067814425538,0.6788391114877442,1.4209744547482432,-1.879013016721838,-0.7127982691950707,1.947023751631012,0.18814580647620602,-3.8831973639667826e-05,0.00023079950784135194,-0.00013667358905280328,-6.497269027022932e-05,0.000630808841387045,0.0001741382704170022,-0.0015854056959572233,0.2411382496356964,-23.66513442993164,19.628707885742188,17.89893341064453,0.8568216562271118,2.3604629039764404,-0.06678618490695953,0,0,0,0.000,0,0
1739400764.3381865,-0.7080697770572134,0.6788377624242359,1.4209703528695141,-1.8790148104095483,-0.7127983854602646,1.947025363428281,0.18814824035021965,-0.0005261731123452542,0.0014807214025886282,-0.0005624043932444438,-0.00043436751771330475,-0.0002895841253803703,0.00059218291387396,-0.00032074087487400454,0.2689092457294464,-23.63736343383789,19.680282592773438,17.92273712158203,0.8568216562271118,2.3796889781951904,-0.08692778646945953,0,0,0,0.000,0,0
1739400764.3492038,-0.708069776184884,0.6788385984211942,1.4209762374117818,-1.8790125708884076,-0.712797588554986,1.947024928843184,0.18815061555485124,0.0008950601521627676,0.0009251043639061892,0.0006541954329354097,-0.00017544751006908822,0.001064493542995396,-0.0008217798034492048,0.0004331519622567129,0.2689092457294464,-23.68893814086914,19.604904174804688,17.92273712158203,0.8504129648208618,2.3604629039764404,-0.10706938803195953,0,0,0,0.000,0,0
1739400764.360173,-0.7080715239542037,0.6788368861022691,1.4209723748372423,-1.879012653946162,-0.7128003262038307,1.9470266069037983,0.18814672497615462,-0.00016184570069900037,-0.00037379265850038656,3.9322457269335245e-05,-0.0009692879412060526,-0.00042489154523467424,0.0017634238153434038,-9.596051595408552e-05,0.2927129566669464,-23.66513442993164,19.656478881835938,17.92273712158203,0.8641458749771118,2.3732802867889404,-0.07411040365695953,0,0,0,0.000,0,0
1739400764.3722422,-0.7080714881688032,0.6788390318694821,1.4209768349973186,-1.8790109959048868,-0.7127952109677593,1.9470226415126373,0.18815026175971164,-0.0003359563873409002,-0.0001638044103207027,0.0006355591770675908,-0.0008483188307473788,0.0008462941484355038,-0.0014559357321216073,0.0002542442256250847,0.2927129566669464,-23.66513442993164,19.628707885742188,17.87512969970703,0.8568216562271118,2.3668715953826904,-0.10706938803195953,0,0,0,0.000,0,0
1739400764.383202,-0.7080653636040148,0.678836647695804,1.4209762344831305,-1.8790130170475905,-0.7127985829289586,1.947024580882404,0.1881458547431919,0.0024322541547075784,-0.0002574279915057204,0.0006580927221688658,-0.0014202208504764129,-0.0001789233909928365,-0.0001616184045296179,-0.0015525863546611445,0.2173345386981964,-23.66513442993164,19.604904174804688,17.89893341064453,0.8504129648208618,2.3604629039764404,-0.06678618490695953,0,0,0,0.000,0,0
1739400764.393208,-0.7080697760718992,0.6788377491830205,1.420977315868063,-1.8790110744450519,-0.7127991336259752,1.9470226967275557,0.18814574049715832,0.00020488790852713623,-1.4250376542920048e-06,3.220002372626837e-05,0.0010174257184840283,-0.00034648657247514294,-0.0015816326974402075,-0.0019895783588759226,0.2689092457294464,-23.63736343383789,19.628707885742188,17.87512969970703,0.8641458749771118,2.3668715953826904,-0.06678618490695953,0,0,0,0.000,0,0
1739400764.4041824,-0.7080743499465914,0.6788385996525994,1.4209744273124678,-1.8790091545793537,-0.7127992513561596,1.947023809532692,0.18814668537469287,-0.000348426088727169,-2.3180654775183812e-05,-0.0001753848490926665,0.0007390065251483681,0.00043947176291460024,-1.7078369188167465e-05,-0.001383787391798596,0.2927129566669464,-23.68893814086914,19.628707885742188,17.84735870361328,0.8641458749771118,2.3604629039764404,-0.07411040365695953,0,0,0,0.000,0,0
1739400764.4151914,-0.7080677781154957,0.6788331844710096,1.4209784230576303,-1.879012937576077,-0.7127983987063976,1.947023567760199,0.18815208130988012,0.00036354704271957075,-0.001087171137772472,0.000596811902801986,0.00023351755844472138,0.0004325710469179245,-6.516931045359904e-05,0.002132524678015676,0.2411382496356964,-23.61355972290039,19.577133178710938,17.89893341064453,0.8568216562271118,2.3604629039764404,-0.12080229818820953,0,0,0,0.000,0,0
1739400764.4252162,-0.7080736256970116,0.6788348920861523,1.4209743753740633,-1.8790130436475603,-0.7127960724439897,1.947024286174976,0.1881482403477427,-0.0026957679009069827,0.0001922739892663678,0.0002936272249058598,-0.00020472566872508903,0.00015499909476009786,-0.0010740767990638823,0.0011597629150064605,0.2927129566669464,-23.63736343383789,19.628707885742188,17.89893341064453,0.8641458749771118,2.3540542125701904,-0.08692778646945953,0,0,0,0.000,0,0
1739400764.4362006,-0.7080714886006146,0.6788368865625685,1.4209783172028392,-1.8790112343719678,-0.7127972277626513,1.947027347402995,0.1881506215859632,-0.0012218779180777437,-0.0010093263175836753,0.0006165978945951942,6.704301494124066e-05,0.0009994121186645449,0.0011935894932071818,-3.567398790754484e-05,0.2927129566669464,-23.66513442993164,19.577133178710938,17.87512969970703,0.8440042734146118,2.3540542125701904,-0.10706938803195953,0,0,0,0.000,0,0
1739400764.4472232,-0.7080698113971332,0.6788393138787413,1.4209722954733988,-1.879013019992376,-0.7127992513601722,1.947028210167146,0.18815137922798444,-0.0007011059552993523,0.0007634563093271689,-0.002351070139462387,0.0002804485815404333,-0.0002278564725752996,0.0005084939531059573,-0.00034558542236680855,0.2689092457294464,-23.68893814086914,19.656478881835938,17.89893341064453,0.8641458749771118,2.3476455211639404,-0.11347807943820953,0,0,0,0.000,0,0
1739400764.4572818,-0.7080702926500484,0.6788348894817252,1.4209743752619084,-1.879013014432596,-0.712798385460921,1.9470276422765567,0.1881522407373119,-0.0009539528868277496,-0.0011757674804170407,-0.0010017628405455722,-2.9371921392475216e-06,1.9417472880692673e-05,-0.00028410779289678536,0.0001714594551750884,0.2689092457294464,-23.63736343383789,19.628707885742188,17.89893341064453,0.8568216562271118,2.3604629039764404,-0.12080229818820953,0,0,0,0.000,0,0
1739400764.4681365,-0.7080714622781371,0.6788369660112024,1.4209746931542444,-1.8790130169399057,-0.7128035428925773,1.947023926055053,0.1881506215678812,-0.0007144770964706971,-0.0007378513821826185,-9.262619725415952e-05,0.0005547872154984584,-0.0007060542674444892,0.0004995182630416486,0.0006675691443072234,0.2927129566669464,-23.66513442993164,19.628707885742188,17.89893341064453,0.8641458749771118,2.3604629039764404,-0.10706938803195953,0,0,0,0.000,0,0
1739400764.4781597,-0.7080717154590023,0.678843458024222,1.420976236327008,-1.879011234044867,-0.7127983855335984,1.947021142163811,0.1881451014734899,-0.0008229200113374394,0.0012845979674377822,0.0009065907593711756,7.917651440903729e-06,-4.41756926108761e-05,-0.001910921663794434,-0.0005948841629957054,0.2927129566669464,-23.71670913696289,19.604904174804688,17.87512969970703,0.8568216562271118,2.3796889781951904,-0.06037749722599983,0,0,0,0.000,0,0
1739400764.4881687,-0.7080700144982832,0.6788379887415672,1.4209762364319682,-1.879014799616934,-0.712798387423215,1.9470245085655788,0.18814824035051692,-0.0003990494247427477,0.00022189790584874528,0.001188429084766532,-0.0005767129457252403,0.00021955085469209991,-0.0005298524342745219,-0.0016307209075287288,0.2689092457294464,-23.63736343383789,19.604904174804688,17.92273712158203,0.8568216562271118,2.3540542125701904,-0.08692778646945953,0,0,0,0.000,0,0
1739400764.4981759,-0.7080677791201934,0.6788368861547788,1.4209762369770513,-1.8790090760903468,-0.712800009018265,1.9470237530107595,0.18815300278529506,-7.481751087725372e-06,-0.0008393943796122699,0.00010445952244367502,-2.7496721809756126e-05,-0.0009959949853965383,-0.0002865636936931452,0.0009067073278133795,0.2411382496356964,-23.66513442993164,19.604904174804688,17.84735870361328,0.8705545663833618,2.3604629039764404,-0.12721098959445953,0,0,0,0.000,0,0
1739400764.5091407,-0.7080632572522595,0.6788425475031656,1.420974454409058,-1.8790083733476393,-0.7127976278008427,1.9470279896252454,0.18815262851326667,0.002428284437015959,-0.00042376743435420616,0.0005695643741967468,0.0007932755459565705,0.00022423303467878104,0.0003099623670904071,0.00016880763816310752,0.2173345386981964,-23.74051284790039,19.628707885742188,17.87512969970703,0.8504129648208618,2.3604629039764404,-0.12721098959445953,0,0,0,0.000,0,0
1739400764.5192435,-0.7080697760243431,0.6788369655764758,1.4209762374131314,-1.8790091193159721,-0.7127969726100818,1.947026694370375,0.18814835882183387,0.0005932360864975668,-0.0011264191041810549,0.00032107281921198557,0.0018542850445155358,0.0011533087964277662,1.2461143555391846e-05,-0.0005903547640370497,0.2689092457294464,-23.66513442993164,19.604904174804688,17.84735870361328,0.8568216562271118,2.3604629039764404,-0.08692778646945953,0,0,0,0.000,0,0
1739400764.5302193,-0.7080677782440251,0.678833205075527,1.4209702291427078,-1.8790112343717187,-0.7127992513501779,1.947024934598232,0.18815256838338812,0.0006303279714476761,-0.0018398240135127312,-0.0007161137214134605,-0.0005461380579643814,-4.905456613082265e-05,-0.001006801013577333,-0.00022477044661078785,0.2411382496356964,-23.61355972290039,19.656478881835938,17.87512969970703,0.8641458749771118,2.3604629039764404,-0.12721098959445953,0,0,0,0.000,0,0
1739400764.5411317,-0.7080714974269117,0.6788371245210154,1.420978318172022,-1.8790129115211889,-0.712799608986022,1.9470240543454822,0.18815062151128212,-0.0015801957961098338,-0.00028155127782949596,0.0005803767035642067,-0.0009929566415894653,-0.0010083163932111472,-0.0006517492010451453,-0.0002009282990133712,0.2927129566669464,-23.66513442993164,19.577133178710938,17.89893341064453,0.8641458749771118,2.3668715953826904,-0.10706938803195953,0,0,0,0.000,0,0
1739400764.5512366,-0.7080704917678141,0.6788391471037155,1.4209761714357931,-1.8790091457499574,-0.7127983854669775,1.9470228020464682,0.188145100010854,-0.0009441759089174467,0.00152710514328521,-0.0002576371075910707,0.0003749965660870461,0.0007775250705079254,-0.0009063687761239653,-0.0012001970553874872,0.2689092457294464,-23.66513442993164,19.577133178710938,17.84735870361328,0.8568216562271118,2.3668715953826904,-0.06037749722599983,0,0,0,0.000,0,0
1739400764.562129,-0.7080646748432733,0.6788368511208114,1.4209783145744852,-1.879011472790447,-0.7127992513581535,1.9470234025385775,0.18815102380768686,0.0014218273830443945,0.00012733844034401275,0.000567671063672944,-0.00048527765690183815,-2.1525205171048873e-05,-0.0014759349407549962,-0.00017509553922469994,0.2173345386981964,-23.66513442993164,19.577133178710938,17.87512969970703,0.8641458749771118,2.3604629039764404,-0.11347807943820953,0,0,0,0.000,0,0
1739400764.572155,-0.7080677780044589,0.6788393148592927,1.4209755224844,-1.8790138460556771,-0.712799370567443,1.9470253869942309,0.18815173464225446,-4.593544621475602e-05,0.0004493866621053269,-0.00022990663189054563,-0.0011171523797099759,-0.0001554130264462286,0.0010752115863193069,-0.0003711032661404832,0.2411382496356964,-23.68893814086914,19.604904174804688,17.92273712158203,0.8641458749771118,2.3540542125701904,-0.11347807943820953,0,0,0,0.000,0,0
1739400764.5831265,-0.7080700144944391,0.6788331759798643,1.4209790324466185,-1.8790125744697337,-0.7127984384448462,1.947021318958532,0.1881475353513152,-0.00045644099662017735,-0.0014185263565757778,0.0009476824440695556,-0.0001998751064063222,-0.0005452819806718277,-0.0023233046211719064,0.0002630408905002768,0.2689092457294464,-23.61355972290039,19.577133178710938,17.92273712158203,0.8568216562271118,2.3870131969451904,-0.08051909506320953,0,0,0,0.000,0,0
1739400764.5931618,-0.708067778136355,0.6788385986230033,1.420978317207026,-1.8790132820185848,-0.7128000266791663,1.9470227766721246,0.18814908853391235,0.0016828471963305758,9.247750586026512e-05,0.0005178731599664136,7.087985844573869e-05,-0.00012807271021314645,-0.002085362350198296,-8.589604079303191e-05,0.2411382496356964,-23.68893814086914,19.577133178710938,17.89893341064453,0.8705545663833618,2.3668715953826904,-0.09425200521945953,0,0,0,0.000,0,0
1739400764.6032872,-0.7080678693816259,0.6788369135743698,1.420976236431987,-1.8790112608673584,-0.7127993705677421,1.9470268787487537,0.18814585913282786,0.0009101175390667394,-0.0009372004941770539,-0.0001748292175868414,1.6279258942994933e-06,-0.001026387232112525,0.00019855063404374733,-0.00027101177833377486,0.2411382496356964,-23.66513442993164,19.604904174804688,17.87512969970703,0.8641458749771118,2.3668715953826904,-0.06678618490695953,0,0,0,0.000,0,0
1739400764.6142051,-0.7080697760763772,0.6788379457405547,1.4209744851516473,-1.8790151624892493,-0.7127983854615939,1.9470259367621376,0.18814292213225467,1.5006498773582303e-05,0.00020526653195812524,-0.0009776817023112155,-0.0014330216489941746,0.0004397263495720719,0.0007441955287956705,-0.0027070711139555344,0.2689092457294464,-23.66513442993164,19.628707885742188,17.89893341064453,0.8568216562271118,2.3668715953826904,-0.05396880581974983,0,0,0,0.000,0,0
1739400764.6242273,-0.7080688401711975,0.6788395611455806,1.4209723750557899,-1.8790073450143578,-0.712798385460921,1.9470225434331307,0.1881467118425695,0.0007209696625830746,0.00041141713580975523,2.3986841235248437e-05,0.0010790319081004965,6.172106351271268e-05,0.0005287702463192165,0.0004641889132585454,0.2689092457294464,-23.68893814086914,19.656478881835938,17.82355499267578,0.8568216562271118,2.3796889781951904,-0.07411040365695953,0,0,0,0.000,0,0
1739400764.6351993,-0.7080732011120414,0.6788356035316041,1.4209733949526302,-1.8790105191160287,-0.7127984251973508,1.9470231109907055,0.18815224073723746,-0.0008196158306723433,-0.0018019240936068106,0.00016666392056862865,4.170461268479528e-05,-5.4172591841816775e-06,-4.585355730925347e-05,0.0007033115397452742,0.3165166676044464,-23.63736343383789,19.628707885742188,17.87512969970703,0.8568216562271118,2.3668715953826904,-0.12080229818820953,0,0,0,0.000,0,0
1739400764.646174,-0.708065672104227,0.6788393492121245,1.4209744635484842,-1.879012989128659,-0.7128016173578884,1.9470261228708987,0.18814910819785488,0.0009526743921482049,0.0006580439441750026,0.0005590592196743819,-0.0004329694590265308,-0.0009355510309574536,0.0007404505541329424,0.00013086330749561745,0.2411382496356964,-23.68893814086914,19.628707885742188,17.89893341064453,0.8568216562271118,2.3732802867889404,-0.09425200521945953,0,0,0,0.000,0,0
