IITGN-Robotics/Franka_IITGN_ROBOTICS/franka_ros/franka_iitgn/data/b_09.csv
time,fr3_joint1_pos,fr3_joint2_pos,fr3_joint3_pos,fr3_joint4_pos,fr3_joint5_pos,fr3_joint6_pos,fr3_joint7_pos,fr3_joint1_vel,fr3_joint2_vel,fr3_joint3_vel,fr3_joint4_vel,fr3_joint5_vel,fr3_joint6_vel,fr3_joint7_vel,fr3_joint1_eff,fr3_joint2_eff,fr3_joint3_eff,fr3_joint4_eff,fr3_joint5_eff,fr3_joint6_eff,fr3_joint7_eff,flexpin1,flexpin2,flexpin3,Force,ContactMic,ContactMic_gt
1739400791.287822,-0.7079859293934361,0.6784280389308426,1.4208732731782172,-1.8790332880909497,-0.7124216782339743,1.9472452637844904,0.18793205470961855,-0.0001543521429847367,0.0009000586855312957,-0.0005646970653788296,-0.0012308315897145783,0.0007804661668828677,-0.0009140606901445865,-8.1529991395732e-05,0.1697271168231964,-23.53818130493164,19.402572631835938,17.87512969970703,0.8705545663833618,2.3540542125701904,-0.08051909506320953,,,,,,,,,
1739400791.298808,-0.707990609338548,0.6784443319772248,1.4208485870196632,-1.879037104775473,-0.7124316168688013,1.947242824499567,0.18793842677099742,-0.0011272956069823144,0.0024837722443253616,-0.0013673938099276963,-0.0012152399512942687,-0.0021810685737006542,-0.00021951651480115733,-0.00019419081950423065,0.1935308277606964,-23.58578872680664,19.477951049804688,17.92273712158203,0.8769632577896118,2.3668715953826904,-0.06037749722599983,,,,,,,,,
1739400791.3088202,-0.7079908595811376,0.6784533239088153,1.4208240009981878,-1.8790390305951088,-0.7124301023501475,1.9472325373110393,0.18794650579582972,-0.0005767085493927488,0.0008054235193730897,-0.0029177168086350763,0.0009399515724745589,0.0014794157323965618,-0.00026527221136572114,0.00028523676430962743,0.1935308277606964,-23.53818130493164,19.553329467773438,17.94654083251953,0.8641458749771118,2.3796889781951904,-0.12721098959445953,,,,,,,,,
1739400791.3198185,-0.7079963607326655,0.6784657220990883,1.4208101051801787,-1.8790402763435838,-0.7124308781071369,1.9472278961223413,0.18795078207847804,0.0001810492047000963,0.0012945600699428828,-0.000707449934280653,0.0005818805351588902,0.0005398602572273158,-0.0014953679658965676,0.0017428809353771959,0.2411382496356964,-23.58578872680664,19.604904174804688,17.92273712158203,0.8705545663833618,2.3732802867889404,-0.12080229818820953,,,,,,,,,
1739400791.33078,-0.7079947584754401,0.6784708756859164,1.4207976663484676,-1.8790336676529442,-0.7124367240441518,1.9472335808673622,0.18794927707718545,0.0002510193695135509,0.00045219378890302807,-0.0015928837170867426,0.001645711659010549,-0.0005465579811891673,0.0007642411700014953,0.0010899483123745037,0.2173345386981964,-23.63736343383789,19.604904174804688,17.84735870361328,0.8833719491958618,2.3668715953826904,-0.10706938803195953,,,,,,,,,
1739400791.3408267,-0.7079991813472956,0.6784801068214803,1.4207952189279711,-1.879034678848633,-0.712435986243873,1.9472342468134354,0.18795009480558356,-0.00043915373128206785,0.0007867389877117857,-2.18283781589345e-05,-0.001214791368877987,-0.0006946362088784329,0.0006166798306477758,0.0002460482765360027,0.2689092457294464,-23.63736343383789,19.553329467773438,17.87512969970703,0.8769632577896118,2.3476455211639404,-0.08692778646945953,,,,,,,,,
1739400791.3518267,-0.7080071092133059,0.6784929960118458,1.4207789425057913,-1.8790304732779501,-0.7124340818711565,1.9472312141171828,0.18794883234742418,-0.0007665069830206052,-0.00015233176382275452,-0.0009444092660393572,0.00022053330261104508,-0.0007904688954575969,-0.00023135434688398342,-0.001479792653233437,0.3442876636981964,-23.68893814086914,19.680282592773438,17.82355499267578,0.8568216562271118,2.3732802867889404,-0.06678618490695953,,,,,,,,,
1739400791.363807,-0.708010891942707,0.6785031766683127,1.4207616623299426,-1.8790336457222483,-0.7124358614255883,1.9472286520748645,0.18794855466708577,-0.00030156426324652217,0.0018989296332039196,-0.0008370871130298483,0.0009205482988862291,-0.001035009719086693,0.0002525241095220975,-0.0006132146436246132,0.3442876636981964,-23.74051284790039,19.704086303710938,17.87512969970703,0.8705545663833618,2.3668715953826904,-0.06037749722599983,,,,,,,,,
1739400791.374785,-0.7080129514775177,0.6785104917341567,1.4207488954758036,-1.8790382098390663,-0.7124357110809217,1.9472278760247863,0.18795255993159968,-0.0002608887574493278,0.0006311308847444717,-0.0028639079132445886,-0.0003233595152581976,0.0012112368864331507,0.0010985553296825785,0.0001513333823464888,0.3680913746356964,-23.79208755493164,19.783432006835938,17.92273712158203,0.8705545663833618,2.3732802867889404,-0.09425200521945953,,,,,,,,,
1739400791.385786,-0.7080134287779511,0.6785126504869297,1.4207484215415294,-1.879036735350018,-0.7124380374458968,1.9472262393854194,0.18795170725225613,-0.0014442007568137827,-1.971386860040893e-05,9.536922184652345e-05,0.0013699666629692921,-0.001452917594657482,0.0003400496464832302,-0.0008247577880987143,0.3442876636981964,-23.76828384399414,19.704086303710938,17.87512969970703,0.8769632577896118,2.3870131969451904,-0.08692778646945953,,,,,,,,,
1739400791.3967483,-0.708009381533083,0.6785130016030779,1.4207469571139306,-1.8790384158946338,-0.7124364586831714,1.9472278760246087,0.18795661589643073,-0.00037565174174259547,0.0002820295284976191,-2.439772092089223e-05,0.0006138405588245781,0.00011515685819185744,0.0007817598463968037,0.0009841273030560846,0.3442876636981964,-23.76828384399414,19.680282592773438,17.89893341064453,0.8769632577896118,2.3732802867889404,-0.12721098959445953,,,,,,,,,
1739400791.4067497,-0.7080112434118708,0.6785122671055366,1.420752565791722,-1.8790355392696687,-0.7124360117680414,1.9472275740466314,0.18795093637519167,-0.0010838420352352468,0.0006424052987402324,0.0007468576196359593,-0.00026921116740140637,0.0020235855011041574,-0.0012937573385740863,-0.002193610350569998,0.3442876636981964,-23.68893814086914,19.604904174804688,17.89893341064453,0.8641458749771118,2.3668715953826904,-0.08051909506320953,,,,,,,,,
1739400791.4177895,-0.7080078565910689,0.678509873838632,1.420754681556345,-1.8790385267365026,-0.7124358246385036,1.9472271139860082,0.18795017432630856,-0.00027203913685624657,-0.00016957659426927838,5.781826715425744e-05,8.701504368897528e-05,0.0011169975388992917,-0.00048201705207038083,-0.0015170213615692935,0.2927129566669464,-23.66513442993164,19.577133178710938,17.89893341064453,0.8705545663833618,2.3796889781951904,-0.07411040365695953,,,,,,,,,
1739400791.4287493,-0.7080038226848796,0.6785077164834006,1.4207546848274277,-1.8790402302052664,-0.7124340818722781,1.9472286206028002,0.1879548393040856,0.0010730597563287031,0.00032102287991784943,-0.0011467225185090703,-1.3236556519946717e-05,0.002518418261563689,0.0017543773693852619,0.0003325881514856567,0.2411382496356964,-23.66513442993164,19.577133178710938,17.92273712158203,0.8568216562271118,2.3668715953826904,-0.11347807943820953,,,,,,,,,
1739400791.4388509,-0.7080038223511821,0.6785057711825456,1.4207575801907155,-1.8790403105098394,-0.7124364805320459,1.9472277568328977,0.18795456418161835,0.000682027332359777,-0.0010457531186834615,-0.0010714801085652222,-0.00010239692091224895,0.0005242792640288456,0.0014277024809648997,0.00016576916583973156,0.2411382496356964,-23.63736343383789,19.577133178710938,17.92273712158203,0.8769632577896118,2.3732802867889404,-0.07411040365695953,,,,,,,,,
1739400791.4498565,-0.708002031940329,0.6785039831126258,1.4207635404441161,-1.879036745054903,-0.7124365030352556,1.9472292736065964,0.18795902199457,0.0011721723038759617,-0.00030336840213816526,-1.1295576702243285e-05,0.0009007411714628398,0.0008464776391013606,0.00018807945079493595,0.0009345041723499925,0.2173345386981964,-23.61355972290039,19.501754760742188,17.87512969970703,0.8769632577896118,2.3604629039764404,-0.12080229818820953,,,,,,,,,
1739400791.460767,-0.7080038223507255,0.6785076896855367,1.42076421974474,-1.8790346800687454,-0.7124357054295901,1.947228633684096,0.18795728737935094,0.0005749275267353702,0.0014251720914407859,-0.00029601489188369,-0.0006937100222787097,0.001974366678445243,0.000959489195068505,0.0006742006467706796,0.2411382496356964,-23.66513442993164,19.529525756835938,17.87512969970703,0.8705545663833618,2.3668715953826904,-0.10706938803195953,,,,,,,,,
1739400791.47083,-0.708009835236339,0.6784995667157466,1.420762081240737,-1.8790356693271641,-0.7124376328953048,1.9472290381321293,0.1879552014900665,-0.0022009194513613814,-0.00026106436226184973,-0.001290119294032028,-0.0010846544580728956,-4.318936107944099e-06,-0.0003133336320016743,-0.00097695350821229,0.2927129566669464,-23.56198501586914,19.553329467773438,17.89893341064453,0.8568216562271118,2.3604629039764404,-0.08051909506320953,,,,,,,,,
1739400791.4818075,-0.7080058233029628,0.6784991699918094,1.420764334429962,-1.8790339094610218,-0.7124364194820384,1.9472293375614862,0.1879529437904565,0.00014630634759947028,-0.0008749096454551803,4.920757151379528e-05,-0.0010122434881222541,0.00030129155174349304,-0.0005303996826654443,-0.001594159434664042,0.2689092457294464,-23.58578872680664,19.529525756835938,17.87512969970703,0.8641458749771118,2.3604629039764404,-0.06037749722599983,,,,,,,,,
1739400791.4927642,-0.7080058206251404,0.6785076895976403,1.420757925732417,-1.879040298075441,-0.712438154782004,1.9472235982260049,0.18795049610513262,0.0003566186265383768,0.00026932031730484763,-0.0006983911199890873,-0.0019271592470971126,-0.000439720255794353,-0.0024757153979705236,-0.0022754506016004453,0.2689092457294464,-23.66513442993164,19.577133178710938,17.92273712158203,0.8897806406021118,2.3732802867889404,-0.04023589566349983,,,,,,,,,
1739400791.5028226,-0.7080092450125052,0.67850569170832,1.4207557437444713,-1.879036231638719,-0.7124379340912526,1.9472285753254162,0.18795405636166404,-0.0010247626166629983,-0.0006609967483849454,-0.0006234637135871911,-0.000761587745156951,-0.0007585594189433811,-1.2899828728531738e-05,-0.0008144881443471802,0.3165166676044464,-23.63736343383789,19.604904174804688,17.89893341064453,0.8769632577896118,2.3668715953826904,-0.06678618490695953,,,,,,,,,
1739400791.5128298,-0.7080032560840274,0.6785077694490842,1.4207557399634667,-1.879034434474066,-0.7124416353514278,1.9472278585817502,0.18795095595703995,0.0011395645590934998,-2.620879761809419e-05,0.00045465372290346003,-0.0012684795237219953,-0.0018501319457332592,-0.000724518087511752,-0.0023066805172957394,0.2689092457294464,-23.66513442993164,19.604904174804688,17.84735870361328,0.8833719491958618,2.3732802867889404,-0.08051909506320953,,,,,,,,,
1739400791.5228572,-0.7080075328803593,0.6785107890920554,1.4207540098313705,-1.8790402080508675,-0.7124403379687603,1.9472293913445438,0.1879528793566026,0.00043479122286596566,0.0011286319622170488,6.619070528528058e-05,-0.000434371778724956,3.541324162215659e-05,0.0011073473798027807,-0.0003596550723732987,0.2927129566669464,-23.66513442993164,19.628707885742188,17.92273712158203,0.8705545663833618,2.3604629039764404,-0.06037749722599983,,,,,,,,,
1739400791.5337825,-0.7080058202920185,0.6785115479546153,1.4207470218692733,-1.8790367713353204,-0.7124404679859788,1.947229391344839,0.18796049698029865,0.0010880827926627362,-0.0008647584484726241,-0.0001931908372815726,0.00019734171086287038,-0.0003272190853520521,0.0009912451897637286,0.0005821890239529009,0.2689092457294464,-23.68893814086914,19.680282592773438,17.87512969970703,0.8705545663833618,2.3604629039764404,-0.12080229818820953,,,,,,,,,
1739400791.5438304,-0.7080075328127494,0.6785114089774167,1.420747433854536,-1.8790412641886793,-0.7124365241444296,1.9472275707671813,0.18795887342566348,-0.0013589538025955926,-4.3980056131705996e-05,-0.0009602344575494583,-0.0021458793392421776,0.0010247173360726932,-0.0005894137313898703,0.0016677963971012658,0.2927129566669464,-23.71670913696289,19.704086303710938,17.92273712158203,0.8641458749771118,2.3476455211639404,-0.10706938803195953,,,,,,,,,
1739400791.5548232,-0.708008005906695,0.6785156130650132,1.4207532539811818,-1.8790385621163896,-0.7124404737829277,1.9472278367061595,0.18795649220827443,0.00020679454777794678,0.0010059962713859297,0.002508983953469692,-0.0006238903333479681,-0.0006887822669543605,0.001207058846133553,0.0005403998913278582,0.2689092457294464,-23.74051284790039,19.628707885742188,17.92273712158203,0.8705545663833618,2.3732802867889404,-0.08692778646945953,,,,,,,,,
1739400791.5657747,-0.7080097213266764,0.6785106698773601,1.420750826952985,-1.879037849309776,-0.7124412308150024,1.9472277059052465,0.1879588734256635,-0.00045512107031009505,-0.0009178478109034304,0.0008670344160214798,0.0004106513995034858,-0.0011028667012060336,0.0008595063726116301,0.0004556626220161029,0.2927129566669464,-23.66513442993164,19.628707885742188,17.89893341064453,0.8769632577896118,2.3732802867889404,-0.10706938803195953,,,,,,,,,
1739400791.576783,-0.7080065488055863,0.6785089103577946,1.4207509190805452,-1.8790367451560512,-0.7124362752853461,1.9472246772650903,0.18795881687044605,-0.0005803904123545652,-0.000784702328626913,-0.0008629197068646839,0.0007702142283527136,0.001053788912742975,-0.0016922171137711477,9.975917878297436e-05,0.2689092457294464,-23.63736343383789,19.656478881835938,17.87512969970703,0.8440042734146118,2.3604629039764404,-0.10706938803195953,,,,,,,,,
1739400791.5867984,-0.7080040651972406,0.6785125858265026,1.4207586889658785,-1.8790360917163684,-0.7124376993159821,1.9472247930395554,0.18795730977253058,0.0008070628389992822,0.0002887790153635231,0.0011101193850212776,0.0005509848895557138,0.00018886475067183628,-0.0015990641906088255,-9.581368429987516e-05,0.2411382496356964,-23.68893814086914,19.553329467773438,17.87512969970703,0.8769632577896118,2.3604629039764404,-0.06678618490695953,,,,,,,,,
1739400791.5968218,-0.7080017522998643,0.6785089103585479,1.4207594068387674,-1.8790346653589598,-0.7124392493844246,1.9472274512245156,0.1879613147648748,0.0012290647640179008,-0.0004959005462135142,0.00026997149493970774,0.0006023588920724109,0.0005313434739106448,0.00022889408007443427,0.0008179926241694213,0.2411382496356964,-23.63736343383789,19.553329467773438,17.84735870361328,0.8641458749771118,2.3668715953826904,-0.10066069662570953,,,,,,,,,
1739400791.6077747,-0.7080058201499642,0.6785109079729448,1.420763304966119,-1.8790325962412504,-0.7124380925756529,1.9472243946277017,0.18795649242496476,0.0008906340855315696,-6.98069330600157e-05,0.0025057138745015785,0.0015315700020513282,0.000242451679239935,0.001206304659989409,-0.0013507850989251848,0.2689092457294464,-23.66513442993164,19.501754760742188,17.84735870361328,0.8504129648208618,2.3668715953826904,-0.08692778646945953,,,,,,,,,
1739400791.617875,-0.7080076137573262,0.6785109082999881,1.4207612261580138,-1.8790364614025286,-0.7124436924517643,1.9472278605231357,0.18795573454819978,-0.0003706235697567611,0.001104254370570547,-0.0002530933162356022,-0.0008831152208911822,-0.0008718233462948677,0.00018022090239852445,-0.0011099232611807555,0.2927129566669464,-23.66513442993164,19.529525756835938,17.89893341064453,0.8705545663833618,2.3604629039764404,-0.08051909506320953,,,,,,,,,
1739400791.628744,-0.7080038223513174,0.6785043702995832,1.4207614644348436,-1.8790328020188742,-0.7124412184032985,1.9472254019551667,0.18795887342566353,0.0017498041781837598,-0.0001469244949352398,0.0010797841649046824,0.0015574029724428722,-0.00038792029199604647,0.0005122001069964382,-0.0003625383054693649,0.2411382496356964,-23.56198501586914,19.529525756835938,17.82355499267578,0.8769632577896118,2.3668715953826904,-0.10706938803195953,,,,,,,,,
1739400791.638754,-0.7080038223511652,0.6785051958789067,1.4207579077298758,-1.8790346652636811,-0.7124411269687104,1.9472292924651566,0.18795735274251207,0.0011919176214086678,-0.000386481560469995,0.0005945076313800033,-0.0010528237439251396,0.0003483274384705096,0.0005238662724490217,-0.00039840462529917235,0.2411382496356964,-23.58578872680664,19.577133178710938,17.84735870361328,0.8769632577896118,2.3339126110076904,-0.09425200521945953,,,,,,,,,
1739400791.6497467,-0.7080100510885506,0.6785071889717302,1.4207579077299262,-1.8790357416341747,-0.7124419891205134,1.9472293869659112,0.18795888658934765,-0.0016117416853447615,-0.0005514175729248578,0.00013336974887367815,-0.00029144153465412287,-0.00016094685779602646,0.0009043285376231467,0.0008384961152928411,0.2927129566669464,-23.61355972290039,19.577133178710938,17.87512969970703,0.8833719491958618,2.3604629039764404,-0.10706938803195953,,,,,,,,,
1739400791.6597564,-0.7080061181126026,0.6785126208205746,1.4207558279401666,-1.8790364615255533,-0.7124404738009465,1.947227083554102,0.18796156324406482,-0.0004833151532276977,0.002317580330064042,-0.0006130103821783478,-0.0011280377983589355,0.00048350826104511923,-0.0006153902410746955,0.0011609210374455433,0.2689092457294464,-23.68893814086914,19.604904174804688,17.89893341064453,0.8705545663833618,2.3668715953826904,-0.12080229818820953,,,,,,,,,
1739400791.6697748,-0.7080092453385242,0.6785111967570399,1.4207519568610067,-1.8790378390371232,-0.7124404738009465,1.9472254024163123,0.18796420916849665,-0.001061036501589503,0.0007824136590998754,-0.0006066780118797706,-0.0006446667212151517,0.0004030396961266173,-0.0001256244537000501,0.0014112810936663751,0.3165166676044464,-23.66513442993164,19.656478881835938,17.89893341064453,0.8705545663833618,2.3668715953826904,-0.12080229818820953,,,,,,,,,
1739400791.6798553,-0.7080058472735447,0.6785167602820403,1.4207515436666895,-1.8790388457166745,-0.7124407497786175,1.9472278605402027,0.18796129419706203,0.0005989661306349375,0.001436439528279451,-7.504946228267393e-05,-0.0014906900115606604,0.0006703905944267758,-0.0007306508390459225,0.0010504106123594512,0.2689092457294464,-23.71670913696289,19.628707885742188,17.89893341064453,0.8641458749771118,2.3604629039764404,-0.12721098959445953,,,,,,,,,
1739400791.6907988,-0.708006251688013,0.6785163322392056,1.4207518480485535,-1.8790382982504334,-0.7124404694461308,1.9472284571505172,0.1879600464113899,-0.00019192035363678906,0.0014765761801364607,0.00020920076336144588,0.000543016950306759,0.0009976719915465013,0.00161743169452501,0.000267612866156206,0.2411382496356964,-23.74051284790039,19.656478881835938,17.89893341064453,0.8705545663833618,2.3668715953826904,-0.08692778646945953,,,,,,,,,
1739400791.7017734,-0.7080058203057318,0.6785124733214201,1.420751060469636,-1.8790421736436487,-0.7124386565027143,1.9472240358889954,0.18795887490836202,-0.0006843058706429313,-0.00044183665200474157,0.0001964330677984694,-0.0008899907344274034,0.0012426532213046172,0.00044654596599062713,0.0015530837449894775,0.2689092457294464,-23.71670913696289,19.628707885742188,17.94654083251953,0.8641458749771118,2.3668715953826904,-0.10706938803195953,,,,,,,,,
1739400791.7117875,-0.7080058202920184,0.6785147693860265,1.420746991948564,-1.879038527838263,-0.712440592992291,1.947223277721368,0.18795963547367178,-0.0001385378546340774,0.0003838950208828912,-0.001697260800287111,0.0002378409863567036,0.00032600438702265347,0.00019501530780303514,8.325910806716288e-05,0.2689092457294464,-23.68893814086914,19.680282592773438,17.89893341064453,0.8705545663833618,2.3732802867889404,-0.11347807943820953,,,,,,,,,
1739400791.7228303,-0.7080124141638638,0.6785126213052574,1.4207490945844314,-1.8790385278369006,-0.7124427467818545,1.9472249763484326,0.18796238097159557,-0.0016872057776532957,-0.000563446294530177,0.000637953312392616,0.0006949005614146692,-0.00014440976068617992,-0.00041239072567721065,0.00030851558651438034,0.3165166676044464,-23.68893814086914,19.656478881835938,17.89893341064453,0.8897806406021118,2.3604629039764404,-0.10066069662570953,,,,,,,,,
1739400791.7328665,-0.7080058203456826,0.6785175062754885,1.4207516792569688,-1.8790385278369006,-0.7124415890888937,1.9472246636786485,0.187965538773009,-0.00019468333009298804,0.0005785725160766792,-0.00022785861057026733,0.00014175848716918959,-0.0002673885649901832,-0.0008150344366037552,0.002544599941574071,0.2689092457294464,-23.71670913696289,19.656478881835938,17.89893341064453,0.8769632577896118,2.3604629039764404,-0.12721098959445953,,,,,,,,,
1739400791.7428842,-0.708009257436306,0.6785089370080103,1.4207510830682542,-1.879032882693007,-0.7124412309825646,1.947222350155217,0.1879638962017646,0.00010425433123361,-0.00038374498911121003,9.036063790503279e-05,0.0007738042331105247,0.0004658430495352592,-0.0019062688486819988,-0.0009689656166018938,0.3165166676044464,-23.63736343383789,19.628707885742188,17.82355499267578,0.8769632577896118,2.3796889781951904,-0.11347807943820953,,,,,,,,,
1739400791.7538898,-0.7080075328128177,0.6785118887924624,1.4207529679112263,-1.879038244546616,-0.7124412844429288,1.9472261536155022,0.18795737719800937,-0.0007494063705448676,0.0006773212338210965,-0.0012828397886485363,-0.0004557767266325267,-0.00042212697693864943,0.0010955210810917224,-0.0008609582916062309,0.2927129566669464,-23.66513442993164,19.628707885742188,17.92273712158203,0.8769632577896118,2.3604629039764404,-0.09425200521945953,,,,,,,,,
1739400791.764792,-0.7080065578981093,0.6785092383946272,1.4207554650147936,-1.8790385264605158,-0.7124404870467222,1.9472250939321774,0.18795734926473937,5.231661665529731e-06,-0.0002214010942807955,-0.0009534682056783646,-0.001402197960243342,-0.0004918840389131344,-0.001051014832237059,-0.001353810642143908,0.2689092457294464,-23.63736343383789,19.604904174804688,17.89893341064453,0.8705545663833618,2.3604629039764404,-0.06678618490695953,,,,,,,,,
1739400791.7748556,-0.708003849345183,0.6785130554899723,1.420757509639461,-1.8790318750380468,-0.7124415423241262,1.9472246665877404,0.1879573117785087,0.0014018329218583143,0.0013514493516796405,0.00012174602064734337,0.0006223226146287067,-0.0008418373081473841,-0.000510531676778943,-0.0006877162262895269,0.2411382496356964,-23.66513442993164,19.553329467773438,17.84735870361328,0.8705545663833618,2.3604629039764404,-0.06678618490695953,,,,,,,,,
1739400791.7867403,-0.7080099768327942,0.6785096256269988,1.4207559126334006,-1.8790327716798518,-0.7124412446586982,1.947225146251592,0.18795842438444302,-0.0007211593598446339,0.0005661474329456655,-0.00022061070095469445,0.0008520003921652767,-0.00045536259547681153,-0.0003051141166797008,-0.00036837859383152344,0.3165166676044464,-23.63736343383789,19.604904174804688,17.82355499267578,0.8769632577896118,2.3604629039764404,-0.09425200521945953,,,,,,,,,
1739400791.79678,-0.708000397313832,0.6785072419940358,1.4207578992271352,-1.8790346280669932,-0.7124412844430059,1.947227198149838,0.18796142577735916,0.002854140250723932,-0.0009133394819977144,-0.0009079205594679725,0.0006527369329922274,-0.00022235128581385538,0.0018295388321508713,-0.0002373628544624965,0.1935308277606964,-23.61355972290039,19.577133178710938,17.84735870361328,0.8769632577896118,2.3476455211639404,-0.12721098959445953,,,,,,,,,
1739400791.8067908,-0.7080076137573287,0.6785072361038673,1.4207597240565855,-1.879036711146174,-0.7124408782492124,1.9472247465429768,0.18796047495091878,0.0002467691510823643,7.673950571798184e-05,8.11108301867009e-05,-0.0009858759580699775,-5.709817247839181e-06,0.00044461091097058853,0.001129188127953804,0.2927129566669464,-23.61355972290039,19.553329467773438,17.87512969970703,0.8769632577896118,2.3604629039764404,-0.08051909506320953,,,,,,,,,
1739400791.818852,-0.7080075328132063,0.6785091232681287,1.4207578727358938,-1.8790375285800622,-0.7124420067797449,1.9472231267114568,0.18795513704631703,0.0007853327330699292,0.0005596099292522118,-7.254962770496541e-06,0.00014426658594171885,3.476226430739902e-05,0.0001936013786938321,-0.0007771567063232234,0.2927129566669464,-23.63736343383789,19.577133178710938,17.92273712158203,0.8833719491958618,2.3732802867889404,-0.07411040365695953,,,,,,,,,
1739400791.8297381,-0.7080038480130564,0.6785092252954278,1.4207582053442411,-1.8790357727725293,-0.7124388522059618,1.9472258515836511,0.187957558595844,0.00170942352576157,-0.00045890858820516,9.59537792524807e-05,0.0008631236647005374,0.0013255060000132582,0.00010635460279649411,-0.0014537240430705374,0.2411382496356964,-23.63736343383789,19.577133178710938,17.89893341064453,0.8568216562271118,2.3540542125701904,-0.08692778646945953,,,,,,,,,
1739400791.8408515,-0.708008338568254,0.6785126209350745,1.4207519526144126,-1.8790402991295703,-0.712441271197488,1.94722386548266,0.18796446465724942,-0.0003014342003031886,0.0004191490266018135,-0.001025635154593855,-0.0014620020420516122,-0.00048158754629736646,-0.0004948782055623567,0.0020330790283359323,0.2689092457294464,-23.68893814086914,19.656478881835938,17.92273712158203,0.8769632577896118,2.3668715953826904,-0.12721098959445953,,,,,,,,,
1739400791.8518193,-0.7080060070446152,0.6785126204936762,1.4207481499146526,-1.8790420922461097,-0.7124423048534482,1.9472214845803066,0.18796511866109403,0.0005699821501988678,0.0013880577611015276,-0.0009181346405251522,-0.0009876260288874698,-0.00036392240620905844,-0.0015619740486568473,0.0012504965308630786,0.2411382496356964,-23.68893814086914,19.704086303710938,17.94654083251953,0.8769632577896118,2.3870131969451904,-0.12080229818820953,,,,,,,,,
1739400791.8628123,-0.7080038343922991,0.6785177299768612,1.4207508182710769,-1.879042332590659,-0.7124416359144529,1.9472231078146087,0.1879606169993001,0.0009641032635173572,0.0014700282251290642,0.00032521515061943913,-0.0007777487456171189,0.0005960435568557302,0.0007861752527395642,0.0009689693384909189,0.2411382496356964,-23.71670913696289,19.628707885742188,17.94654083251953,0.8833719491958618,2.3732802867889404,-0.12080229818820953,,,,,,,,,
1739400791.8737497,-0.7080058202920861,0.6785126515808754,1.4207509148288617,-1.8790367454882817,-0.7124413511050586,1.9472238653131797,0.18795812914666374,-0.0007149994310417579,-0.0006344553484786217,-0.0007305684220553841,0.0009962895173217601,-0.0001375546081746302,-0.0004254561168541597,-0.0012998398427317554,0.2689092457294464,-23.68893814086914,19.656478881835938,17.87512969970703,0.8769632577896118,2.3668715953826904,-0.10066069662570953,,,,,,,,,
1739400791.883854,-0.7080080097929231,0.6785156522363236,1.4207508181457762,-1.879038527836906,-0.7124459654340257,1.9472239045590354,0.1879669669304754,0.0006454880000418657,0.0001704280718511556,-0.00031587240931366605,-0.00027898602234535544,-0.0011265259155610326,-0.0004320377520546036,0.0017006697641476992,0.2689092457294464,-23.71670913696289,19.628707885742188,17.89893341064453,0.8897806406021118,2.3668715953826904,-0.14735259115695953,,,,,,,,,
1739400791.8947983,-0.7080058472859044,0.6785119427611989,1.4207508269392346,-1.879038527873239,-0.7124412316427188,1.9472253806873923,0.18796254633747608,-0.0002681681917734495,-0.0011823177298041485,0.00036777596303343195,0.00032423516559317126,0.0005340624999815948,0.0013215880318524697,0.0013390236478039805,0.2689092457294464,-23.66513442993164,19.628707885742188,17.89893341064453,0.8769632577896118,2.3540542125701904,-0.10706938803195953,,,,,,,,,
1739400791.9048483,-0.7080045479639051,0.6785120070379739,1.4207511271701874,-1.8790388910361104,-0.7124417082981862,1.947227801887646,0.18796016403460428,0.00028746976282566645,-0.00035006500063469704,0.00027874898189820125,-0.0004400226716907091,-0.0004890712499324308,0.0002717530323759255,0.0011619557179121526,0.2411382496356964,-23.66513442993164,19.628707885742188,17.87512969970703,0.8769632577896118,2.3604629039764404,-0.11347807943820953,,,,,,,,,
1739400791.9157991,-0.7080081257176513,0.6785134102658956,1.420750102854924,-1.8790346625127237,-0.7124421480695144,1.9472238827737267,0.18795697259041966,0.00017179527170136614,-0.0009957931846010025,-0.0007070719617612517,-0.000169065009690234,-0.0009039894750416091,-0.0006619987177288174,0.0002934354534990201,0.2689092457294464,-23.66513442993164,19.628707885742188,17.84735870361328,0.8833719491958618,2.3668715953826904,-0.08051909506320953,,,,,,,,,
1739400791.9268053,-0.7080067766747721,0.6785061923231104,1.4207554311487618,-1.8790353804857756,-0.7124445030946466,1.9472249774945563,0.18796085241025226,0.00036739798725745883,-0.0011053769126800252,0.0007292863013903517,-0.0007525186502191848,-0.0013616936973545612,0.00030168978821691936,-0.00025836518624879523,0.2411382496356964,-23.58578872680664,19.577133178710938,17.84735870361328,0.8769632577896118,2.3668715953826904,-0.12080229818820953,,,,,,,,,
1739400791.9377582,-0.7080060761705503,0.6785117717147408,1.4207634519834524,-1.8790346653740628,-0.712441637616614,1.947223865319457,0.18796599374476355,-1.9766931084353606e-06,0.0008533014264037299,0.003046736685705277,0.00026474403170705633,0.0005333146660480601,-0.0004050608421753945,0.0019195915651280706,0.2689092457294464,-23.63736343383789,19.501754760742188,17.84735870361328,0.8833719491958618,2.3668715953826904,-0.12721098959445953,,,,,,,,,
1739400791.9479067,-0.7080088165782076,0.6785101505924976,1.4207575812245894,-1.8790364787241216,-0.7124413904007916,1.947225380794841,0.18796404856626547,-0.00017536286754302508,-0.00019710969831627186,0.000583700866096206,-0.001018910919687544,-0.0013721221600095192,0.0005831231458339419,0.0014718565893577415,0.2689092457294464,-23.61355972290039,19.577133178710938,17.87512969970703,0.8769632577896118,2.3540542125701904,-0.14735259115695953,,,,,,,,,
1739400791.9587877,-0.7080067916438841,0.6785072107189974,1.4207578726248444,-1.879032595259946,-0.7124419891220005,1.9472252781640187,0.18795901091567715,0.0004710513398230256,-7.403159265914096e-05,-0.0005327735332810397,0.000885648450836906,8.763897333248218e-05,0.0009540437315720868,-4.5541806583075764e-05,0.2689092457294464,-23.61355972290039,19.577133178710938,17.84735870361328,0.8833719491958618,2.3668715953826904,-0.10706938803195953,,,,,,,,,
1739400791.9697587,-0.7080067633430306,0.6785119515857554,1.4207596554125248,-1.8790382245110007,-0.7124412447610097,1.9472238653211542,0.18795887797685945,-0.0008669383166840418,0.0020402856837753794,0.001039588372040665,-0.0004339123368256187,0.00017063684131374035,-0.0007297441803683915,-0.0025922088107583185,0.2411382496356964,-23.66513442993164,19.553329467773438,17.89893341064453,0.8769632577896118,2.3668715953826904,-0.10706938803195953,,,,,,,,,
1739400791.9808326,-0.7080068847241799,0.6785153605259364,1.4207578727352073,-1.879036736546497,-0.712440513701126,1.9472238653131788,0.1879609754271901,-0.0003050497982415646,0.0012923718738081067,-0.00046080405729840814,-0.00014335857980688532,-0.00041116206407019307,-0.0008731081584424081,0.001371597239638839,0.2689092457294464,-23.71670913696289,19.577133178710938,17.87512969970703,0.8705545663833618,2.3668715953826904,-0.12080229818820953,,,,,,,,,
1739400791.9917688,-0.7080039032977473,0.6785116616401431,1.4207511727932962,-1.8790364385872762,-0.7124440500617631,1.9472246229732573,0.18796511746569158,0.001170668183044879,0.00022831592908142598,-0.0021569098686378386,0.000911430369416207,-0.0008395922534490624,0.0005965827255859962,0.0007764680883042428,0.2411382496356964,-23.66513442993164,19.628707885742188,17.87512969970703,0.8705545663833618,2.3604629039764404,-0.12080229818820953,,,,,,,,,
1739400792.0037618,-0.7080088162412259,0.6785137808829198,1.4207470362070667,-1.8790367196483442,-0.7124421255812078,1.9472246229732573,0.18796553731839685,-0.0007953342744954847,0.00035111487468365214,-0.0012074502254132214,0.00020270273558085434,-0.0009434425829855429,0.00021266405254759225,0.0013204013887220347,0.2689092457294464,-23.66513442993164,19.680282592773438,17.87512969970703,0.8833719491958618,2.3604629039764404,-0.12721098959445953,,,,,,,,,
1739400792.0137842,-0.708005848323597,0.6785121024041282,1.4207472749520569,-1.8790367451594496,-0.712446280657838,1.9472238653131788,0.18796313837914663,0.0008387042847393703,-0.0009789305251308041,-0.0004905417171183733,0.0002902981982173988,-0.0004350130566655822,-0.0010809059385078112,0.00026068755373441873,0.2689092457294464,-23.63736343383789,19.680282592773438,17.87512969970703,0.8833719491958618,2.3668715953826904,-0.10706938803195953,,,,,,,,,
1739400792.023863,-0.7080080422523388,0.6785193932763002,1.420748822045358,-1.8790367451598815,-0.7124404875612222,1.9472253806333355,0.1879611655676544,0.00010831500841006488,0.0023122473536898625,-0.0006122218403426968,8.284311013386009e-05,-0.0008257449005999575,0.00033412912812824387,0.0011675779910171142,0.2689092457294464,-23.76828384399414,19.656478881835938,17.87512969970703,0.8705545663833618,2.3540542125701904,-0.08692778646945953,,,,,,,,,
1739400792.0348024,-0.7080075628047662,0.6785170479976032,1.4207469674162718,-1.8790385193336314,-0.7124420369307894,1.9472238653131788,0.1879647684450825,-0.0007667268999426689,-0.0009062978236608053,-0.0011108181002611015,-0.00100899246099233,-0.0009790978673924148,3.752192882720736e-05,0.0012424663679360508,0.2927129566669464,-23.74051284790039,19.680282592773438,17.89893341064453,0.8705545663833618,2.3668715953826904,-0.12080229818820953,,,,,,,,,
1739400792.04485,-0.7080078492572023,0.67851567972004,1.4207483939368686,-1.8790403105137756,-0.7124438196912594,1.9472238651516731,0.18796243808667085,-0.0014765852003759193,-9.071921261809301e-05,-0.0010910188472491144,-0.001389142665134731,0.00011166986059795033,-0.0005357141347647084,-2.2485468821874645e-05,0.2927129566669464,-23.71670913696289,19.656478881835938,17.92273712158203,0.8897806406021118,2.3668715953826904,-0.10066069662570953,,,,,,,,,
1739400792.055767,-0.7080080058344579,0.6785156125965077,1.420750062392375,-1.8790360563950974,-0.7124432209564853,1.947223865313178,0.18795839542367493,-0.0004668901169257751,-0.00014525595602385454,-0.00032603993591456576,0.0011468680300862064,-0.0005853814770221532,0.00039047091335114306,0.000795984216840168,0.2689092457294464,-23.68893814086914,19.656478881835938,17.87512969970703,0.8833719491958618,2.3668715953826904,-0.08051909506320953,,,,,,,,,
1739400792.0658183,-0.7080077756834997,0.6785147291367074,1.4207487383414845,-1.8790385278252362,-0.7124412314818862,1.9472246229732573,0.18795925952826975,-5.3784858644413985e-05,-0.0004983402183332004,-0.0002489955723141575,-0.000614673323685478,0.0010404577096144766,0.0005433141530205297,-0.001637694515513583,0.2927129566669464,-23.71670913696289,19.656478881835938,17.89893341064453,0.8769632577896118,2.3604629039764404,-0.07411040365695953,,,,,,,,,
1739400792.0777483,-0.7080105667368713,0.6785140435358198,1.4207533160416732,-1.8790325224062816,-0.7124409508561375,1.947227039866916,0.18796006452222128,-0.0011159437453582607,0.0006273665117144949,0.0004381195453159022,0.0015110525286855326,-0.00021995081424029683,0.0005455877061741705,-0.0008741535298751137,0.2927129566669464,-23.66513442993164,19.604904174804688,17.84735870361328,0.8705545663833618,2.3668715953826904,-0.10706938803195953,,,,,,,,,
1739400792.0887704,-0.7080088422771179,0.6785104173427171,1.4207564635838967,-1.8790367196029847,-0.7124404723500893,1.947225380705091,0.18795971745718104,-0.000470153401549871,-0.001362057657542467,0.0006472502103300872,-0.000869877368077107,0.0011599305940352422,-1.1062986978715428e-05,-0.0022226502617929416,0.2689092457294464,-23.61355972290039,19.553329467773438,17.87512969970703,0.8705545663833618,2.3540542125701904,-0.07411040365695953,,,,,,,,,
1739400792.0997982,-0.7080067920141462,0.6785113482512785,1.420756472228485,-1.8790355176795515,-0.7124412319515899,1.9472246229732577,0.1879684203285899,-0.0002374935558372672,-0.00046772508865435664,0.00034823211332860775,0.0009130686110389941,0.00017035705603879665,3.4585092868317266e-05,0.0034405318204960983,0.2689092457294464,-23.61355972290039,19.553329467773438,17.89893341064453,0.8769632577896118,2.3604629039764404,-0.14735259115695953,,,,,,,,,
1739400792.109815,-0.7080058203345152,0.6785099802682283,1.4207568263793926,-1.8790379393930883,-0.7124397205560299,1.9472253806333355,0.18795839377549867,0.0009503327239882323,0.0005179721013318182,-0.0007515698035064013,0.00011693780191259905,2.7310611284665472e-05,0.0010095979979774761,-0.0027088475934577594,0.2689092457294464,-23.63736343383789,19.577133178710938,17.92273712158203,0.8641458749771118,2.3540542125701904,-0.06678618490695953,,,,,,,,,
1739400792.119848,-0.7080060362797903,0.6785114006358797,1.4207564911973145,-1.8790388104153648,-0.7124412711975295,1.9472246228117516,0.18795729232693126,-3.596727085526175e-05,-7.896101026733468e-05,-0.00012500199896969385,0.00016860992008225446,-0.0002987115206387511,0.00026363663846320357,-0.001578652456309183,0.2411382496356964,-23.63736343383789,19.553329467773438,17.89893341064453,0.8769632577896118,2.3604629039764404,-0.08051909506320953,,,,,,,,,
1739400792.1308126,-0.7080060078673046,0.6785136809453156,1.4207611197441787,-1.8790382954158114,-0.7124440968993574,1.9472253806333346,0.18795463760242737,0.0002481703878991177,0.0008399251884334117,0.0010181697729969312,-0.0011971609866322007,0.0004112517461896904,0.0005705276904284777,-0.0010867861901527206,0.2411382496356964,-23.68893814086914,19.529525756835938,17.89893341064453,0.8769632577896118,2.3540542125701904,-0.06678618490695953,,,,,,,,,
1739400792.1417341,-0.7080063329778826,0.6785092669936778,1.4207557492058163,-1.8790424534453964,-0.712441989627852,1.947226138293414,0.18796355316492191,-5.7167035848599185e-05,-0.0004601336406113318,0.0006065447021207896,-0.0016627703147908306,-0.0016111739518695906,0.0007647417631450328,0.0011351054227180936,0.2411382496356964,-23.63736343383789,19.577133178710938,17.92273712158203,0.8833719491958618,2.3476455211639404,-0.13361968100070953,,,,,,,,,
1739400792.1517656,-0.7080062511752029,0.6785177574550023,1.4207526842014786,-1.8790345889859124,-0.712441237347912,1.9472231076531006,0.18796280116181857,0.0005111119571844762,0.0012596401784133473,0.0006174243921943877,0.0013009762293801157,0.00031379585372089526,0.00020498399754690554,0.0020032682927253707,0.2411382496356964,-23.71670913696289,19.604904174804688,17.84735870361328,0.8769632577896118,2.3732802867889404,-0.12721098959445953,,,,,,,,,
1739400792.1618173,-0.7080045899778625,0.6785151242144513,1.4207547465545605,-1.8790367108305763,-0.7124412314611246,1.9472231076531006,0.18796422672824908,0.0003704435040370887,-0.001346192646392818,0.0011355367134802579,0.0010704468525346627,0.00014336040238533375,-0.00031802482576860137,0.001996524018537889,0.2411382496356964,-23.68893814086914,19.604904174804688,17.87512969970703,0.8769632577896118,2.3732802867889404,-0.12080229818820953,,,,,,,,,
1739400792.1718228,-0.7080093262910597,0.6785151212602532,1.4207487384644162,-1.8790392430920564,-0.7124451554441122,1.947224627333908,0.18796137773006572,-0.001625729484784379,-0.000530491180308392,0.0005505544176594955,-0.0007290612151612984,0.0002684362827810186,0.0004722825672546266,-0.00013876102993959317,0.3165166676044464,-23.68893814086914,19.656478881835938,17.89893341064453,0.8833719491958618,2.3604629039764404,-0.12721098959445953,,,,,,,,,
1739400792.1829345,-0.7080060641264428,0.6785199077826949,1.4207487383190638,-1.8790392094187236,-0.7124388504607821,1.9472238653132525,0.1879627952243719,0.00033863436909594406,0.0006302952558184971,-0.00042280488736865174,-0.00024650872176118483,0.0009347150712543809,0.0001728586044665284,-9.34625363642385e-06,0.2689092457294464,-23.71670913696289,19.656478881835938,17.89893341064453,0.8568216562271118,2.3668715953826904,-0.10066069662570953,,,,,,,,,
1739400792.1938076,-0.7080060352069092,0.6785157335235141,1.4207469733026776,-1.8790337471272793,-0.7124427472717553,1.9472231207350528,0.18796053272187718,0.0010274855989510392,-0.0007755657829818961,0.00017863808976967418,0.0013723106855999152,4.308182689089776e-05,-0.00036200182563497497,0.00036537799153095365,0.2411382496356964,-23.68893814086914,19.680282592773438,17.84735870361328,0.8897806406021118,2.3732802867889404,-0.08051909506320953,,,,,,,,,
1739400792.204762,-0.7080083295864689,0.6785178374117975,1.4207515245707747,-1.8790364390370162,-0.7124430205240219,1.9472231207351267,0.18796285208417418,-0.0008644724490870314,0.00040913633616957747,0.00015552365497960419,0.00021250155446073669,5.137718468948183e-06,-1.6590696951823743e-05,-0.002021934306147957,0.2689092457294464,-23.71670913696289,19.628707885742188,17.87512969970703,0.8833719491958618,2.3732802867889404,-0.12721098959445953,,,,,,,,,
1739400792.2148027,-0.7080058324373378,0.6785136938113282,1.4207486723536689,-1.8790406696137778,-0.7124415864384492,1.947227004190868,0.18796362766631522,0.0006624572474438354,-0.00014425766076015217,-6.228726469701089e-05,0.00012759450225270202,-0.0008791251191842074,0.001229054230777177,1.2095012690639608e-05,0.2689092457294464,-23.68893814086914,19.628707885742188,17.89893341064453,0.8705545663833618,2.3403213024139404,-0.10706938803195953,,,,,,,,,
1739400792.2248192,-0.7080043043281236,0.6785118110821826,1.420750826902896,-1.8790370718129308,-0.7124409506569473,1.9472246229732573,0.1879639768882441,0.0019276898201673076,-0.0015015107991987655,0.00010486725836296936,-0.0001599542449358122,0.0005417163821999238,0.00022600356257949827,-3.298380471193944e-05,0.2173345386981964,-23.63736343383789,19.628707885742188,17.87512969970703,0.8705545663833618,2.3604629039764404,-0.10066069662570953,,,,,,,,,
1739400792.2348425,-0.7080080462128889,0.6785141087834503,1.420750840675731,-1.8790385278534962,-0.7124419891453301,1.9472246229732573,0.18796214316970025,-0.0009393697211932313,-0.0001804102540269547,-0.001505153695345584,-0.00017803991650071192,0.0008219096974094789,0.0001000827445175418,-0.000258249055991545,0.2689092457294464,-23.66513442993164,19.628707885742188,17.89893341064453,0.8833719491958618,2.3604629039764404,-0.09425200521945953,,,,,,,,,
1739400792.2448616,-0.7080097183659683,0.6785158394714401,1.4207529275078197,-1.8790364390421999,-0.7124452077719212,1.9472241672912298,0.18795977500777655,-0.00023598545230481,0.0002097306486065028,2.591439778962799e-05,0.0006498873881494514,-0.00025795196779659007,0.0002867721611348232,-0.00017820508545811375,0.2927129566669464,-23.68893814086914,19.604904174804688,17.87512969970703,0.8833719491958618,2.3732802867889404,-0.07411040365695953,,,,,,,,,
1739400792.2558608,-0.7080089815843529,0.6785120234741352,1.4207603916988858,-1.8790344483307322,-0.712443307809018,1.947225384999968,0.187962155629351,-0.0012594194051727806,-0.0004229569018595026,0.0022455071283188958,0.000872463050846923,-0.0017252526889360038,0.0002758510516445489,0.0002486126083605902,0.2689092457294464,-23.63736343383789,19.529525756835938,17.87512969970703,0.8641458749771118,2.3540542125701904,-0.09425200521945953,,,,,,,,,
1739400792.266849,-0.7080060918151793,0.6785087339860523,1.4207612803872607,-1.8790367442021083,-0.7124406450494406,1.947224622973282,0.18796534618557337,-0.00012514607586631835,-0.0009137606419815128,0.0021683355435377395,0.0004218475361528783,-0.0007897449932898821,-9.893072663600891e-05,0.002290663607297029,0.2411382496356964,-23.61355972290039,19.501754760742188,17.87512969970703,0.8705545663833618,2.3604629039764404,-0.12080229818820953,,,,,,,,,
1739400792.2777512,-0.708004065234726,0.6785090291955447,1.4207529583646854,-1.879034370921117,-0.7124412334242844,1.9472238653131788,0.18796606885172124,0.0006808889857188895,-0.0011580775224273832,0.0004372283571216939,-2.7361278317315806e-05,-0.00017962051582849837,-0.0002552437767845123,0.001950365387729917,0.2411382496356964,-23.63736343383789,19.604904174804688,17.84735870361328,0.8769632577896118,2.3668715953826904,-0.12721098959445953,,,,,,,,,
1739400792.2878594,-0.7080059971205188,0.6785142045724071,1.42075555415172,-1.879036745154895,-0.7124420290210908,1.9472238653131788,0.18796593288116392,0.0006495535730643762,-0.0005034416389893083,-0.0012710753677227136,0.00012542979707678658,0.0002668970309508689,2.0230914115340525e-05,0.0009675727520949255,0.2689092457294464,-23.66513442993164,19.604904174804688,17.87512969970703,0.8833719491958618,2.3668715953826904,-0.12721098959445953,,,,,,,,,
1739400792.299831,-0.7080059283301572,0.6785141269512496,1.4207509108257554,-1.8790328829150769,-0.7124413644065896,1.9472246229732573,0.18795799353990184,-0.0011057741402286038,0.00034682688878373037,-0.0013783373106769957,0.001740780918500547,0.0004439680697355746,0.0004238799905317153,-0.0017201763217317898,0.2689092457294464,-23.66513442993164,19.628707885742188,17.82355499267578,0.8769632577896118,2.3604629039764404,-0.06037749722599983,,,,,,,,,
1739400792.3108106,-0.7080029492559042,0.6785131698848779,1.420750818581495,-1.879036745159882,-0.712443062659057,1.9472238659592012,0.1879656973963706,0.00023929062482020162,0.000327493724074329,-0.0009433312780141261,-0.0005631538510157642,-0.000880734988407653,0.0005056051955247714,0.0015929070655029325,0.2173345386981964,-23.66513442993164,19.628707885742188,17.87512969970703,0.8833719491958618,2.3668715953826904,-0.12721098959445953,,,,,,,,,
1739400792.3217907,-0.7080112552803389,0.6785178364150413,1.420752600785944,-1.8790367338221896,-0.7124412447246821,1.9472238740344912,0.18796606658181242,-0.0017486380094554961,0.0014669237597591048,-0.0005186595672497972,0.00044270398838320185,0.00020322387851821975,0.0004826251182781547,0.002070782624305056,0.3442876636981964,-23.71670913696289,19.604904174804688,17.87512969970703,0.8769632577896118,2.3668715953826904,-0.12721098959445953,,,,,,,,,
1739400792.3318355,-0.7080066308852417,0.6785195489519749,1.4207463541332703,-1.8790346312169146,-0.7124408314288901,1.9472246229733066,0.1879634301129652,0.00023140792589816005,0.0015846287579409047,0.0001757522243776071,0.0005530569291207219,0.0010214101879514278,-0.00013025013360714346,-5.666882209406281e-05,0.2689092457294464,-23.74051284790039,19.656478881835938,17.84735870361328,0.8705545663833618,2.3604629039764404,-0.10706938803195953,,,,,,,,,
1739400792.3427403,-0.7080089894600824,0.6785141530581834,1.4207524409182888,-1.8790401074164187,-0.7124423076686586,1.9472246229732573,0.1879660533016247,-0.00039618218635455,0.0017575649697144603,0.000882307031290635,-0.0007977095041743626,0.0010413408094501267,8.12123907256784e-06,0.0006670326016147455,0.2689092457294464,-23.66513442993164,19.604904174804688,17.92273712158203,0.8833719491958618,2.3604629039764404,-0.12721098959445953,,,,,,,,,
1739400792.3527708,-0.7080030134149965,0.6785178888140083,1.4207470086212413,-1.8790346398567797,-0.7124412314664196,1.9472223499930221,0.18796569690913106,0.0008445656505809546,-0.0005496063972632353,0.00021151363320778013,-5.347297025910141e-05,-0.0011633800258370136,-0.0003063111698618109,-2.0207449869685725e-05,0.2689092457294464,-23.71670913696289,19.680282592773438,17.84735870361328,0.8769632577896118,2.3796889781951904,-0.12721098959445953,,,,,,,,,
1739400792.3628082,-0.7080038222085611,0.6785158741413275,1.4207480230660157,-1.8790385250011814,-0.7124415466845528,1.9472246229732573,0.18796245018514826,0.0006270764685868756,-0.0006786229778848796,-8.169766456564615e-05,-2.9612155941747044e-05,-0.00035510157340810504,0.0003717249573435635,-4.717611684004698e-05,0.2411382496356964,-23.68893814086914,19.656478881835938,17.89893341064453,0.8705545663833618,2.3604629039764404,-0.12080229818820953,,,,,,,,,
1739400792.3738315,-0.708005847310556,0.678517897589441,1.4207487383177153,-1.8790403105139142,-0.7124405135939034,1.947223864828662,0.1879660396298321,0.000176805830335417,0.00048575205166687444,-0.0006579593755650188,-2.8667431170176103e-05,0.0006157343424880316,0.001026709915732559,-0.0006221775619093313,0.2689092457294464,-23.71670913696289,19.656478881835938,17.92273712158203,0.8705545663833618,2.3668715953826904,-0.12721098959445953,,,,,,,,,
1739400792.383846,-0.7080048246653642,0.6785141308037387,1.4207585913593868,-1.8790367990179557,-0.7124398776431691,1.9472238657976872,0.18796129021944058,3.038493730581071e-05,-0.000492444425857003,0.0017541685156509525,0.0007872560205177576,0.0007645704553839982,0.0002439663411200956,-0.000757223986856439,0.2411382496356964,-23.66513442993164,19.553329467773438,17.87512969970703,0.8769632577896118,2.3668715953826904,-0.08692778646945953,,,,,,,,,
1739400792.3948371,-0.7080031621156232,0.6785141269508332,1.4207529187984043,-1.8790385278372044,-0.7124409923291851,1.94722462297326,0.18796363015824388,-1.3675312630454504e-05,-0.00033266100965917547,-0.0002545618596947201,-0.0011177398942648466,-0.0002096955424865725,-1.2280652829348886e-05,-5.137666902014593e-05,0.2173345386981964,-23.66513442993164,19.604904174804688,17.89893341064453,0.8705545663833618,2.3604629039764404,-0.10706938803195953,,,,,,,,,
1739400792.405765,-0.7080040686329311,0.678514369621025,1.4207568263447983,-1.8790385164992085,-0.7124420044953242,1.9472253806333355,0.18796368472216735,-0.0005684508907689608,0.0011887044023035493,0.00037894729476556734,-0.0007985409209701894,6.293267716845158e-05,0.0006147683162304476,0.00033221623628134744,0.2411382496356964,-23.66513442993164,19.577133178710938,17.89893341064453,0.8833719491958618,2.3540542125701904,-0.10706938803195953,,,,,,,,,
1739400792.4157772,-0.7080038236960986,0.6785141269631404,1.4207546806848077,-1.8790328798580078,-0.7124435088571999,1.9472238653131788,0.18795890916545652,-0.00012473022165096064,0.00024286220535831536,-0.0006124769362702942,0.0008108992775963902,-0.0007965992255308443,0.00035657790654336074,-0.0015927711014299254,0.2411382496356964,-23.66513442993164,19.577133178710938,17.82355499267578,0.8961893320083618,2.3668715953826904,-0.06678618490695953,,,,,,,,,
1739400792.4267616,-0.7080060641250744,0.6785121280288119,1.420759327546248,-1.8790339767923139,-0.7124394148714313,1.9472231076531006,0.18796517689946268,-0.00028686443030263484,0.0004285819709643021,0.0004697319984281213,0.0007440522751373605,0.001773508594841663,-0.00011601247797047871,0.0013843624732588489,0.2689092457294464,-23.63736343383789,19.553329467773438,17.84735870361328,0.8705545663833618,2.3732802867889404,-0.12080229818820953,,,,,,,,,
1739400792.436777,-0.7080075687922472,0.6785151212723495,1.4207596423247217,-1.8790346653583647,-0.7124419886186535,1.947223864828662,0.18796681484931047,0.00042325158385758763,0.0007993344606277009,0.0006614686570222076,0.0005146492382827604,0.0016534557500064533,-0.00041682838579341284,0.0020513715945460692,0.2927129566669464,-23.68893814086914,19.553329467773438,17.84735870361328,0.8833719491958618,2.3668715953826904,-0.13361968100070953,,,,,,,,,
1739400792.4467797,-0.7080023526647812,0.6785141298275799,1.4207555417716478,-1.8790375736175025,-0.7124427511963319,1.9472238653131706,0.18796681193520204,0.0018917150568610454,0.000846077963005098,-0.00016009863046843764,-0.0005854806557532899,0.000811111025436416,5.182093870532781e-05,0.0019296313568110458,0.2173345386981964,-23.66513442993164,19.604904174804688,17.89893341064453,0.8897806406021118,2.3668715953826904,-0.13361968100070953,,,,,,,,,
1739400792.4568498,-0.7080062516919731,0.6785158394715913,1.420752600944758,-1.8790344149330964,-0.7124412329328194,1.9472246229732573,0.1879605312594903,0.0011616744037818453,0.0010312510531361528,-1.637347732283065e-05,0.0014206257118290068,0.0007528794342314962,0.0005477649100411264,-0.0015538185734620263,0.2411382496356964,-23.68893814086914,19.604904174804688,17.87512969970703,0.8769632577896118,2.3604629039764404,-0.08051909506320953,,,,,,,,,
1739400792.4668586,-0.7080092488167095,0.6785165414818033,1.4207514884929515,-1.8790346620762257,-0.7124405297444866,1.9472231076531006,0.18795571763288035,-0.001449037533776119,0.001049913626410186,0.0008171878547661784,0.0008086128547929889,0.0001967814117985076,-0.00031382795350503006,-0.0036100846962231767,0.3165166676044464,-23.68893814086914,19.604904174804688,17.84735870361328,0.8705545663833618,2.3732802867889404,-0.04023589566349983,,,,,,,,,
1739400792.477805,-0.7080107179653102,0.6785138885361952,1.4207537968268182,-1.8790364777792952,-0.7124412314613408,1.9472246224887404,0.18796442925934906,-0.002216975422036744,4.545753631435192e-05,0.0008829283129478576,8.384629631367571e-05,0.0011281201481734202,0.00017878532791458127,-0.00031620372929321055,0.2927129566669464,-23.66513442993164,19.628707885742188,17.87512969970703,0.8769632577896118,2.3604629039764404,-0.11347807943820953,,,,,,,,,
1739400792.4898047,-0.7080058203470101,0.6785141004585123,1.4207487383358763,-1.8790411744164695,-0.7124404742915198,1.9472246229732546,0.1879659358651723,0.00039224263649367293,-0.00134040635660139,-0.0008010615268279674,-0.0016822945688926725,5.984704775992435e-05,0.00018692292299674876,0.00117630712555301,0.2689092457294464,-23.66513442993164,19.656478881835938,17.94654083251953,0.8705545663833618,2.3604629039764404,-0.08692778646945953,,,,,,,,,
1739400792.5007622,-0.7080061750491252,0.6785198384422919,1.4207448098748303,-1.879038524055941,-0.7124456819411691,1.9472231076531006,0.18796534513664806,-0.0006664582400203358,0.0013223749757957349,-0.00241979699894426,0.00023131185876846896,-0.0006869012673773355,1.4618662370584028e-05,-0.0008443298523820394,0.2689092457294464,-23.71670913696289,19.680282592773438,17.89893341064453,0.8769632577896118,2.3732802867889404,-0.09425200521945953,,,,,,,,,
1739400792.510859,-0.7080040751840689,0.6785148289949597,1.4207508102234068,-1.8790385278368364,-0.7124464820809568,1.9472246229732573,0.1879629139934932,-0.00023047755998330548,-0.00020608511871766846,0.00021178523988607127,-0.0003911170712192528,-0.0027453984565080267,0.00026992704500941286,-0.0014592245711655596,0.2411382496356964,-23.66513442993164,19.628707885742188,17.89893341064453,0.8897806406021118,2.3604629039764404,-0.10066069662570953,,,,,,,,,
1739400792.5218136,-0.708007613758756,0.6785178372710037,1.4207508532847881,-1.8790360563950974,-0.7124403299631167,1.9472242185258886,0.1879668602313771,3.744877365574031e-05,0.0012523284679497324,0.00020634265974655677,0.0005857982871008273,4.897248904863708e-05,0.0004028809086764415,0.001663641472337402,0.2927129566669464,-23.71670913696289,19.628707885742188,17.87512969970703,0.8961893320083618,2.3668715953826904,-0.10706938803195953,,,,,,,,,
1739400792.5328107,-0.708006817301971,0.6785175993148065,1.4207467514981644,-1.8790403105022553,-0.7124423046199385,1.9472214440648508,0.18796397564236322,0.00015654525273818033,0.0008205554631998391,3.0617723665712703e-07,-0.0005908144797524504,-4.867026521904781e-05,-0.00037022392899103344,0.0002772841837125566,0.2411382496356964,-23.71670913696289,19.656478881835938,17.92273712158203,0.8769632577896118,2.3604629039764404,-0.10066069662570953,,,,,,,,,
1739400792.5428553,-0.7080058203459364,0.6785112660335156,1.4207505796427833,-1.8790368246327411,-0.712444727972419,1.9472238637878483,0.18796129038817222,0.00017284153793095517,-0.0008979676231400165,-0.00019584752645380999,-0.0002254131917902414,-0.001694514302115245,0.0006564333603095468,-0.0005720418117250036,0.2689092457294464,-23.66513442993164,19.628707885742188,17.87512969970703,0.9035135507583618,2.3668715953826904,-0.08692778646945953,,,,,,,,,
1739400792.553851,-0.7080048296984977,0.6785141269346615,1.4207526096149075,-1.8790385193340802,-0.7124420024231068,1.947223120735044,0.18796924166545256,0.0005292244904816124,0.0006700090113975967,-5.8062844283392114e-05,-0.001630611274170877,0.0005656289629955737,-0.00016657288769022496,0.00047787797842931677,0.2411382496356964,-23.66513442993164,19.604904174804688,17.89893341064453,0.8833719491958618,2.3732802867889404,-0.12721098959445953,,,,,,,,,
1739400792.564769,-0.7080075599109974,0.6785141298397425,1.420754680575841,-1.8790385193335835,-0.7124419891211784,1.947223826067396,0.18796686484034236,-0.0007079787655103261,4.792221431389827e-05,0.0002681639591865174,-0.0006216583743199792,0.00015936468664875917,-0.000566802227344403,-0.0002931109932785234,0.2927129566669464,-23.66513442993164,19.577133178710938,17.89893341064453,0.8833719491958618,2.3668715953826904,-0.10706938803195953,,,,,,,,,
1739400792.575792,-0.7080060108529073,0.6785141273788176,1.4207547465894865,-1.8790328817481512,-0.7124419927368095,1.9472246229730357,0.18796564949140415,0.0007963868818757746,-3.1204518728617035e-06,-0.0001459654447456912,0.0011069960144460054,-1.4132594747533238e-05,0.00011075166874857524,0.0005056581680553852,0.2411382496356964,-23.66513442993164,19.604904174804688,17.82355499267578,0.8833719491958618,2.3604629039764404,-0.12080229818820953,,,,,,,,,
1739400792.5858083,-0.708005823327028,0.6785143609542389,1.4207526047468608,-1.8790382869109312,-0.7124409903745959,1.9472246229732573,0.18796681048303607,0.0009978152458535294,0.00012702133201464958,-0.00019376525229855362,-0.0009844962566570008,-0.000917127779684401,0.0003224661942378092,0.001460822828057309,0.2689092457294464,-23.66513442993164,19.604904174804688,17.89893341064453,0.8705545663833618,2.3604629039764404,-0.13361968100070953,,,,,,,,,
1739400792.5967722,-0.7080038588077029,0.6785130650249602,1.4207546809028624,-1.879037838930785,-0.7124437452212462,1.9472231076531006,0.1879630320449895,0.0010550934277301577,0.0003002954198630681,1.5004485175645096e-05,-0.0006508785243297761,0.0004526641868489812,-0.00032514106543667825,-0.000521889776614922,0.2411382496356964,-23.63736343383789,19.577133178710938,17.89893341064453,0.8705545663833618,2.3732802867889404,-0.10066069662570953,,,,,,,,,
1739400792.6067953,-0.7080046347955232,0.6785140474938032,1.4207547603757054,-1.8790357927820935,-0.712440594700882,1.9472246229732573,0.18796117628502707,0.0009715545370210558,-0.00045528862157354907,-0.00012665858974185434,-9.53252097739217e-06,0.0004256814388527904,-8.290237748677579e-05,-0.0003593995804596243,0.2411382496356964,-23.66513442993164,19.577133178710938,17.87512969970703,0.8705545663833618,2.3604629039764404,-0.08692778646945953,,,,,,,,,
1739400792.6178663,-0.7080067637862739,0.6785141519695965,1.4207575415991909,-1.8790385023217173,-0.7124412711981373,1.9472238653131788,0.18796605232876798,0.0006010612640052098,0.00038552179243777463,1.1243250836587748e-05,-0.0005630046481170449,0.00011475540031803975,0.0004847035897078869,0.000794868202704311,0.2411382496356964,-23.66513442993164,19.577133178710938,17.89893341064453,0.8769632577896118,2.3668715953826904,-0.12721098959445953,,,,,,,,,
1739400792.628836,-0.7080086211952887,0.6785158129807307,1.4207508181977448,-1.87903673630654,-0.7124419891213276,1.9472246229732573,0.18795896284163094,-0.0011631191553658812,0.0006951979062594972,-0.0014554985564057506,0.00011399721693958176,0.0008143623620293528,0.0009362922524314527,-0.002632202963888458,0.2927129566669464,-23.68893814086914,19.628707885742188,17.87512969970703,0.8833719491958618,2.3604629039764404,-0.09425200521945953,,,,,,,,,
1739400792.6397998,-0.7080021233088353,0.6785138090592231,1.4207490680205963,-1.8790392416928727,-0.7124437076595339,1.9472230684072438,0.18796336303475505,0.0022048757523837103,-4.713078094590684e-05,-4.089725601745303e-05,-0.0005842804851181621,-0.0004891954528925815,-0.0005847913745521377,-0.0006662116645748105,0.2173345386981964,-23.66513442993164,19.656478881835938,17.89893341064453,0.8705545663833618,2.3732802867889404,-0.11347807943820953,,,,,,,,,
1739400792.6507392,-0.7080098352734269,0.6785158394697481,1.4207527736650847,-1.8790367539942292,-0.7124445710866353,1.947224623619058,0.1879657105674857,-0.0011157306400305512,0.000741049100623607,-0.00010167805748433957,0.0009370420203404885,0.000591125303976079,0.0003751205533018717,0.00027720761268376,0.2927129566669464,-23.68893814086914,19.577133178710938,17.87512969970703,0.8705545663833618,2.3604629039764404,-0.12721098959445953,,,,,,,,,
1739400792.6608713,-0.7080065588253824,0.6785202515073224,1.420750924476501,-1.8790367481034704,-0.712445207841309,1.9472253675513942,0.1879629139336936,-0.0006024113658336086,0.0011047732154561103,-0.00026317173896307213,0.000850269822595692,0.00025240282427794786,0.0003646353836012818,-0.0004411524838353121,0.2689092457294464,-23.74051284790039,19.628707885742188,17.87512969970703,0.8833719491958618,2.3540542125701904,-0.10066069662570953,,,,,,,,,
1739400792.6718035,-0.7080042988173442,0.6785157686691378,1.4207529635496803,-1.8790369835784773,-0.7124444501300126,1.9472246229731833,0.18796937851041487,0.0018116764021336642,0.0003688912018648963,0.0016624490467098798,-0.00033339512467393687,0.0013369344574433704,0.00044533034759208567,0.0013858039519569522,0.2173345386981964,-23.71670913696289,19.628707885742188,17.87512969970703,0.8769632577896118,2.3604629039764404,-0.14735259115695953,,,,,,,,,
1739400792.6827736,-0.7080087346793477,0.678512129068939,1.4207508073647561,-1.8790385278382462,-0.7124420467543706,1.9472231076531006,0.1879726872957643,-2.051022495711302e-05,-0.0008214060144348153,-0.00045059696733297717,0.0004560788787338693,0.0003641548409321384,0.0006865249081321886,0.00221150444617656,0.2689092457294464,-23.63736343383789,19.628707885742188,17.89893341064453,0.8833719491958618,2.3732802867889404,-0.14735259115695953,,,,,,,,,
1739400792.6938355,-0.7080075638450024,0.678514126914473,1.420748729488683,-1.8790403105139197,-0.7124429745829495,1.9472231076531006,0.18796215630342109,-0.0009585638522037676,-0.0007932218677196527,-0.0002165342248554893,-0.0003906535564877602,0.00021476482680719854,-1.5000098693549385e-05,0.0003324358156627257,0.2927129566669464,-23.66513442993164,19.656478881835938,17.92273712158203,0.8641458749771118,2.3732802867889404,-0.09425200521945953,,,,,,,,,
1739400792.7047715,-0.708005820329205,0.6785142363603754,1.4207515303121487,-1.879036413532393,-0.7124427946636923,1.9472214840957898,0.1879652932066989,-0.00018831133691363648,-4.5949924085472954e-05,-0.0012076265173669742,0.0011297988706120974,-0.00028984536509344436,-0.00128913761366224,-1.5040795374779946e-06,0.2689092457294464,-23.63736343383789,19.628707885742188,17.87512969970703,0.8769632577896118,2.3870131969451904,-0.12080229818820953,,,,,,,,,
1739400792.7158508,-0.7080069115448655,0.6785141269627075,1.4207539653240744,-1.8790346593884095,-0.7124427512596729,1.9472253806333355,0.18795926412931946,-0.0009986867088000316,-0.0009470966806335169,7.995730453508657e-05,0.00137670076059229,-0.0006270719287320887,0.00025377689620438343,-0.0018102488132953707,0.2689092457294464,-23.66513442993164,19.577133178710938,17.84735870361328,0.8897806406021118,2.3540542125701904,-0.06678618490695953,,,,,,,,,
1739400792.726775,-0.7080083455957554,0.6785162329815936,1.4207522495975,-1.8790326000567863,-0.7124452077719464,1.9472231076531006,0.18796053709838212,-0.00044636727060182993,0.00028212345467034755,-1.337547734449611e-05,0.0009460785126548121,0.00023052192038367354,-0.0002879394728295916,-0.0011381873304216702,0.2927129566669464,-23.66513442993164,19.628707885742188,17.84735870361328,0.8833719491958618,2.3732802867889404,-0.08051909506320953,,,,,,,,,
1739400792.7378051,-0.7080038586734035,0.6785141588172088,1.420750897715035,-1.8790326018791579,-0.7124416467039915,1.9472231076531006,0.18796331763744545,0.0006747193435965702,0.00022726287112107013,-0.00040010570408864686,0.0004567319872242537,0.00025516171696757966,0.00023184385421982999,-0.00029241928450021,0.2411382496356964,-23.66513442993164,19.628707885742188,17.84735870361328,0.8769632577896118,2.3732802867889404,-0.10706938803195953,,,,,,,,,
1739400792.7487676,-0.7080106900215283,0.6785104037343838,1.4207568264521693,-1.879036807027524,-0.7124419950632712,1.9472246229732573,0.18796054589827127,-0.0006977323560721413,-0.0005914380480812889,0.00015784932684205055,-5.046340436890305e-05,0.0007842979723321312,0.00019891898526061384,-0.0010557846055097662,0.2927129566669464,-23.61355972290039,19.577133178710938,17.84735870361328,0.8833719491958618,2.3604629039764404,-0.08051909506320953,,,,,,,,,
1739400792.7589142,-0.7080081267663386,0.6785158394713267,1.420754707103085,-1.8790385542591441,-0.7124460132417086,1.9472238653131788,0.18795903310288314,-0.0006138595464747088,0.0002607587390774319,-3.9088306746378694e-05,-0.0013226331972713843,-0.002140519948754567,3.161305008517464e-05,-0.001889991820356304,0.2689092457294464,-23.68893814086914,19.577133178710938,17.89893341064453,0.8769632577896118,2.3668715953826904,-0.06678618490695953,,,,,,,,,
1739400792.7697558,-0.7080092466789217,0.6785141268417951,1.4207604035799644,-1.8790367423256078,-0.7124415488373631,1.9472253806333355,0.1879648275822606,-0.00034703688096159534,0.001079894170899761,0.0022823064194465656,-0.0003074099720957371,0.0008784252522465614,0.0004137602216614301,0.0011113334569690866,0.3165166676044464,-23.66513442993164,19.529525756835938,17.87512969970703,0.8705545663833618,2.3540542125701904,-0.12080229818820953,,,,,,,,,
1739400792.779812,-0.7080058217354971,0.6785142350407386,1.4207547100467237,-1.8790367196500268,-0.712440487064629,1.9472238653131788,0.18796442925172788,0.0006937719472049427,-0.00044882847763044064,0.00065595908209813,-0.0002462682978563609,0.0022834572662910006,-0.0007054479108162704,0.0003670299727374742,0.2689092457294464,-23.63736343383789,19.577133178710938,17.87512969970703,0.8705545663833618,2.3668715953826904,-0.11347807943820953,,,,,,,,,
1739400792.790741,-0.7080050324011501,0.6785136368800653,1.4207510599071664,-1.8790339766050979,-0.7124412358762587,1.9472238653131788,0.1879657105195011,0.0007230036849936506,-0.0006082169008248249,0.0005138675515459254,0.0007608582694438129,0.001411038379817894,0.000510514780329284,-0.0005878039528729302,0.2173345386981964,-23.66513442993164,19.628707885742188,17.84735870361328,0.8769632577896118,2.3668715953826904,-0.12721098959445953,,,,,,,,,
1739400792.800744,-0.70800593726146,0.6785134116867748,1.4207547943928704,-1.879038424841201,-0.7124404782161802,1.9472238653131788,0.18796293207884504,0.0002077241436154281,-0.0010606867302459517,0.001196199176431769,-0.0011172446126139148,0.000992032527576311,-0.00023905784174461955,-0.00028539091335942726,0.2689092457294464,-23.66513442993164,19.577133178710938,17.89893341064453,0.8705545663833618,2.3668715953826904,-0.10066069662570953,,,,,,,,,
1739400792.810813,-0.7080075418085724,0.6785104164771142,1.4207470616077826,-1.8790364605959964,-0.7124438196648624,1.9472231076531006,0.18796442779731856,-7.352480251113461e-05,-0.0021766311797243114,-0.0004976741802623788,-0.00023818775075330425,0.00013313705079029956,-0.0003378934090768458,0.00017362423086189475,0.2927129566669464,-23.61355972290039,19.680282592773438,17.89893341064453,0.8897806406021118,2.3732802867889404,-0.11347807943820953,,,,,,,,,
1739400792.820835,-0.7080087342970262,0.6785158394715425,1.4207546815587322,-1.87903746038061,-0.7124421569698179,1.9472246229732573,0.18795946646120815,0.0006256596224943963,0.0008833704889906639,0.0013140535774835605,-0.0004393485001273346,0.0003325853871337509,0.0004559556774986745,-0.0019295509343162918,0.2689092457294464,-23.68893814086914,19.577133178710938,17.87512969970703,0.8833719491958618,2.3604629039764404,-0.08051909506320953,,,,,,,,,
1739400792.8318079,-0.7080090141217458,0.678517872079569,1.4207510563821464,-1.879038525006515,-0.7124412360951639,1.9472238653131788,0.1879684854574477,-4.2570659816928695e-05,0.0009865893378965675,-0.00018064557871311904,0.0007659973351038137,0.0014209394182984566,-0.0004066050267292067,0.001024924164028699,0.2689092457294464,-23.71670913696289,19.628707885742188,17.89893341064453,0.8769632577896118,2.3668715953826904,-0.12080229818820953,,,,,,,,,
1739400792.8427596,-0.7080040922214705,0.6785158394717383,1.4207469556433872,-1.8790341530800505,-0.7124420288575593,1.9472238653131788,0.18796301841360774,0.00032310948613959735,-0.00035583423768000184,-0.0008906463299693508,0.001078687707581032,0.0013761611436247038,-0.0004160554684636423,-0.0010422978270340961,0.2411382496356964,-23.68893814086914,19.680282592773438,17.87512969970703,0.8833719491958618,2.3668715953826904,-0.13361968100070953,,,,,,,,,
1739400792.8527944,-0.7080060634725722,0.6785148289610721,1.4207508181089168,-1.8790378379956174,-0.7124431149886346,1.9472253806333355,0.18796716554482681,-0.0002604746525417867,0.0009756072182809576,1.3378730318669776e-05,-0.0006567631944966509,-0.0022615966977586276,0.0002653102904318302,0.0013196194220395161,0.2689092457294464,-23.66513442993164,19.628707885742188,17.89893341064453,0.8833719491958618,2.3540542125701904,-0.10066069662570953,,,,,,,,,
1739400792.863744,-0.7080092723154646,0.6785141269877982,1.420750814038976,-1.8790347448415876,-0.7124451234559308,1.9472246171590561,0.18796540595703576,-0.0001687191419845242,0.0006674408079519144,-0.00046132840515067126,0.00030411137155569347,-0.00021568279023798212,0.000319241432953149,0.001430615794613994,0.3165166676044464,-23.66513442993164,19.628707885742188,17.84735870361328,0.8705545663833618,2.3604629039764404,-0.12080229818820953,,,,,,,,,
1739400792.8737726,-0.70800800979338,0.6785141270578094,1.4207526007858668,-1.8790402335659304,-0.7124428665597867,1.947223107653002,0.18796387347759824,0.00011944979061380629,7.29234995926683e-05,7.906193993775403e-05,-0.001492335997191384,-0.0003434454687679833,-0.0004740738542492072,-0.001263956415958731,0.2689092457294464,-23.66513442993164,19.604904174804688,17.92273712158203,0.8897806406021118,2.3732802867889404,-0.12080229818820953,,,,,,,,,
1739400792.8841827,-0.7080069925510488,0.6785141269508133,1.420754760048651,-1.8790367412743691,-0.7124474356819325,1.9472231076531006,0.1879652556416592,0.000817281408892396,0.00021327201819083152,0.00012359868855205271,0.0003861144254704045,-0.0005739439321912565,-0.000304528016942564,0.00016116476634847447,0.2411382496356964,-23.66513442993164,19.577133178710938,17.87512969970703,0.8897806406021118,2.3732802867889404,-0.12080229818820953,,,,,,,,,
1739400792.8948624,-0.7080080178053453,0.6785151422496019,1.4207564719745605,-1.8790385278368784,-0.7124420290475265,1.9472238653131788,0.18796129038195583,-0.00016164550098184057,0.0014150240271391151,0.0007122620340908419,-0.0011954791891048604,0.0004179324561256902,-4.832914245893745e-05,0.00024655652026505737,0.2689092457294464,-23.66513442993164,19.553329467773438,17.89893341064453,0.8833719491958618,2.3668715953826904,-0.08692778646945953,,,,,,,,,
1739400792.9057739,-0.7080087433401326,0.6785163936611758,1.4207508275207037,-1.8790346779207217,-0.7124444501120683,1.9472238653131788,0.1879621563334147,-0.00020185712536561261,0.0010705533547351067,-0.002019951745067013,0.0008360504909785767,0.0001242610957064274,-0.00020167897244130468,0.00033069897717810887,0.2689092457294464,-23.71670913696289,19.628707885742188,17.87512969970703,0.8769632577896118,2.3668715953826904,-0.09425200521945953,,,,,,,,,
1739400792.915813,-0.7080058217849764,0.6785140209625484,1.4207564750267268,-1.8790333172398412,-0.7124464827141933,1.9472246229732573,0.18796367159956887,-6.322699283530756e-05,0.00013038853784342968,0.0010342277024048684,0.0008008758403330159,-0.0015458219172138166,-7.448018644702078e-05,1.721763887396272e-05,0.2689092457294464,-23.66513442993164,19.553329467773438,17.84735870361328,0.8897806406021118,2.3604629039764404,-0.10706938803195953,,,,,,,,,
1739400792.9277382,-0.7080059022359216,0.6785165414812051,1.4207526040564904,-1.8790360535530641,-0.7124449284418101,1.9472252628957656,0.18796336299877867,-0.0004926513440767846,0.0016268031157143344,-0.0008228106975318034,0.0001025278808004843,6.167601842774694e-05,0.0003282814185969914,-0.000585675809946142,0.2689092457294464,-23.68893814086914,19.604904174804688,17.87512969970703,0.8769632577896118,2.3540542125701904,-0.11347807943820953,,,,,,,,,
1739400792.9377842,-0.7080106899849109,0.6785118905953421,1.4207554735826604,-1.8790403105100153,-0.7124428665564221,1.9472253806326707,0.1879699014273634,-0.0013733332711641576,-0.00041964003664307067,0.00033081532813232544,-0.0011268014225233965,-0.001615394355622493,0.0005330460074513819,0.001037638016826584,0.2927129566669464,-23.63736343383789,19.604904174804688,17.92273712158203,0.8897806406021118,2.3540542125701904,-0.12080229818820953,,,,,,,,,
1739400792.948728,-0.7080080912364768,0.6785104164878814,1.4207546933469117,-1.879038501977165,-0.7124419898303851,1.9472231076531006,0.18796144836821205,-0.0008521317944736954,-0.0006865448550660909,-2.293469507639097e-05,2.251439961722994e-05,0.001239096221032146,-0.0005346314148232372,-0.00020408373303034224,0.2689092457294464,-23.61355972290039,19.577133178710938,17.89893341064453,0.8833719491958618,2.3732802867889404,-0.08692778646945953,,,,,,,,,
1739400792.9587955,-0.7080085406056689,0.678515848138336,1.4207526011132008,-1.8790364615421102,-0.7124428346542807,1.9472216948022614,0.1879613355857247,-0.0012790745555213865,0.00013952996366005093,0.0006427209470435595,0.0005226207402105337,-0.00204038248598638,-0.001821167166576833,-0.000259903162615951,0.2927129566669464,-23.68893814086914,19.604904174804688,17.89893341064453,0.8769632577896118,2.3732802867889404,-0.08692778646945953,,,,,,,,,
1739400792.9688334,-0.7080076142185361,0.6785141269509583,1.420748738428083,-1.87903851919366,-0.7124444638750428,1.9472232100984912,0.18796066443723008,-0.001018175602291779,-0.0009755285456816874,-0.0003821043650168517,-0.00039701960061676604,3.874749001754992e-05,-0.0010381250552228916,-9.521989147872191e-06,0.2927129566669464,-23.66513442993164,19.656478881835938,17.89893341064453,0.8769632577896118,2.3604629039764404,-0.08051909506320953,,,,,,,,,
1739400792.979854,-0.7080097197603068,0.6785149399399322,1.4207508181089172,-1.879038554327805,-0.7124412469050739,1.9472228013064228,0.18796656460819985,-0.000278692125374873,3.961588594938721e-05,0.00020514340194265852,-0.0011160846672427327,0.0005942168178930992,-0.0005720381834008416,0.0010629016049841986,0.2927129566669464,-23.63736343383789,19.628707885742188,17.89893341064453,0.8769632577896118,2.3668715953826904,-0.12721098959445953,,,,,,,,,
1739400792.9908106,-0.7080058303345331,0.6785138073151502,1.420748735375622,-1.8790364615790365,-0.7124412461783084,1.94722385222522,0.18796860900834608,0.0003611189515771371,0.0004510000125966122,0.00019769380889499182,0.00021192043264395977,0.0017454659627341902,-0.00047420492761543866,0.0027064415050138528,0.2689092457294464,-23.68893814086914,19.656478881835938,17.89893341064453,0.8769632577896118,2.3668715953826904,-0.14735259115695953,,,,,,,,,
1739400793.0017993,-0.7080051057792415,0.6785158741272445,1.4207469556420256,-1.879036708300719,-0.7124440549854483,1.9472231076530266,0.18796686044905117,0.0008500338204731824,-3.658982033762355e-05,-0.0007307190537189448,0.00037822595412604514,-0.0001368796980903463,-0.0003518411908875211,-0.00028190593846225137,0.2173345386981964,-23.68893814086914,19.680282592773438,17.87512969970703,0.8705545663833618,2.3732802867889404,-0.10706938803195953,,,,,,,,,
1739400793.012725,-0.7080088432762194,0.6785143491806703,1.4207564632528105,-1.879038526576949,-0.7124424851653406,1.9472246229732573,0.18796605288896162,-0.0007538926116181305,-0.0005874585835790788,0.00161133750200795,-0.0005362612303125719,-0.000527639923889775,0.00011497161669071651,0.001032932948475163,0.2689092457294464,-23.66513442993164,19.553329467773438,17.89893341064453,0.8833719491958618,2.3604629039764404,-0.12721098959445953,,,,,,,,,
1739400793.0228107,-0.7080059297127745,0.6785159164952999,1.4207555533825507,-1.8790367461410067,-0.7124404739728716,1.9472223320659023,0.18796716573748481,-0.0003176828105884292,0.0006776962450337914,0.001211511859206307,-6.51030736788491e-05,0.0010572289500090034,-0.0005319513955654941,0.002178847114622822,0.2689092457294464,-23.68893814086914,19.604904174804688,17.87512969970703,0.8705545663833618,2.3796889781951904,-0.10066069662570953,,,,,,,,,
1739400793.0337334,-0.7080069916275418,0.6785158394728471,1.4207537056728217,-1.8790403096781447,-0.7124400737687399,1.9472246229729535,0.1879629140114942,-0.0006512966814803602,0.00025103695033463976,0.0006384210848032256,-0.0006350860615628388,0.0024303629093112137,0.00032686884452502724,0.00010923047670449216,0.2411382496356964,-23.68893814086914,19.628707885742188,17.92273712158203,0.8641458749771118,2.3604629039764404,-0.10066069662570953,,,,,,,,,
1739400793.0438206,-0.7080068995709664,0.6785121290099584,1.4207546807374467,-1.879034563015858,-0.7124419891231221,1.9472238653131788,0.18796584652564471,-0.0008649276294812393,0.00037451468465339864,0.0009220522510614711,0.0002313921484481834,-0.00035357799795466193,0.00010317631721047942,0.0005500475482535413,0.2689092457294464,-23.63736343383789,19.577133178710938,17.84735870361328,0.8833719491958618,2.3668715953826904,-0.11347807943820953,,,,,,,,,
1739400793.0558426,-0.7080021189414037,0.6785124410145187,1.4207554223224828,-1.8790385277313442,-0.7124417082981832,1.9472238653131788,0.18795740697590735,0.0025796898771043033,8.650352539106844e-05,-0.0003485817959070728,-0.0006092849118274425,-0.0014248007494448928,0.00034398991598984404,-0.001218449258390193,0.2173345386981964,-23.63736343383789,19.577133178710938,17.89893341064453,0.8769632577896118,2.3668715953826904,-0.05396880581974983,0,0,0,0.000,0,0
1739400793.06676,-0.7080067921204765,0.6785158394721298,1.4207526812413378,-1.879036745148217,-0.7124424659591587,1.9472253806333355,0.18796885742929084,-0.0004375054754363134,0.0010216574479456832,-0.0005625077279113834,0.0004084400182269212,-0.0006240497823043849,-5.766015351143681e-05,0.0027094551045994363,0.2689092457294464,-23.68893814086914,19.604904174804688,17.87512969970703,0.8833719491958618,2.3540542125701904,-0.14094389975070953,0,0,0,0.000,0,0
1739400793.0768137,-0.7080067916434281,0.678514362238201,1.4207529199869324,-1.8790356934139203,-0.7124423482287668,1.9472232253906705,0.18796681000949167,-0.0008096660385769656,0.00021716943178859405,-0.0007382272177593504,-0.0003053973903854412,0.0015826340058197749,4.243460464649205e-05,0.0017500080081007251,0.2689092457294464,-23.66513442993164,19.604904174804688,17.89893341064453,0.8833719491958618,2.3732802867889404,-0.13361968100070953,0,0,0,0.000,0,0
1739400793.0877688,-0.7080087612838836,0.6785121550116665,1.420756410381722,-1.8790367451088883,-0.7124421102947128,1.9472253631913972,0.18796505849012782,-0.0005494644739625069,0.00015207709415650256,0.0007110394082245597,-0.00046064626630683855,0.0008512274728631919,0.0004255586105540719,6.271206228175747e-05,0.2689092457294464,-23.63736343383789,19.553329467773438,17.87512969970703,0.8833719491958618,2.3540542125701904,-0.12080229818820953,0,0,0,0.000,0,0
1739400793.0987275,-0.7080090044618456,0.6785142088040065,1.4207525213127776,-1.8790385240576695,-0.7124419950086658,1.9472246229731587,0.18796372156926006,-0.00032833123371527116,-0.000562557612831992,-8.299124372273994e-05,-0.0021762224105310282,0.0003625869432863613,-0.00039577053085237604,-0.0010105693757132546,0.2689092457294464,-23.66513442993164,19.604904174804688,17.89893341064453,0.8833719491958618,2.3604629039764404,-0.08051909506320953,0,0,0,0.000,0,0
1739400793.1088,-0.7080031215250471,0.6785141181218799,1.4207556382823636,-1.8790385578324609,-0.712444177292756,1.9472224524623396,0.18796295352400325,0.001390889200768346,0.000935092881084595,0.0018588131322810754,-0.0007423583624912584,-0.00012657467283946786,-0.001135456598735091,-0.0008879181065481399,0.2173345386981964,-23.66513442993164,19.577133178710938,17.89893341064453,0.8897806406021118,2.3668715953826904,-0.10066069662570953,0,0,0,0.000,0,0
1739400793.1188047,-0.708007073586717,0.6785167793369822,1.420753527985518,-1.8790385278374084,-0.7124453466283649,1.9472246229493304,0.1879636774326087,0.00013222060306918124,0.0006431267272785431,0.0011808184381940509,-0.00028487825557200184,-0.0005433606686081222,7.659517155013275e-05,-0.001082189689482333,0.2411382496356964,-23.68893814086914,19.604904174804688,17.89893341064453,0.8833719491958618,2.3604629039764404,-0.10706938803195953,0,0,0,0.000,0,0
1739400793.128806,-0.7080061292712183,0.6785141181364104,1.420752525253364,-1.8790403020106505,-0.7124441832363945,1.9472246229732568,0.1879676763743666,0.0008962288564632634,-0.000980958806509209,0.000435078358386077,-0.0011627010844011752,-0.0020119283759865384,0.000432760541276752,0.0006841223858180582,0.2411382496356964,-23.66513442993164,19.604904174804688,17.92273712158203,0.8897806406021118,2.3604629039764404,-0.14094389975070953,0,0,0,0.000,0,0
1739400793.138807,-0.7080108110517623,0.6785179455021755,1.420752591954339,-1.8790367451597376,-0.7124467634038902,1.947223826067322,0.1879700707144902,-0.002089446481565779,0.00033188530688551865,0.0006413359443595411,0.00026659423940279695,-0.0003722896178308437,0.00010051973054513206,0.002596946614461586,0.2927129566669464,-23.68893814086914,19.604904174804688,17.87512969970703,0.8833719491958618,2.3668715953826904,-0.16108550131320953,0,0,0,0.000,0,0
1739400793.1498215,-0.7080061830621571,0.6785148289729608,1.4207508181088668,-1.8790364586731323,-0.7124435452462701,1.9472226323419484,0.18796338636156304,-0.00017810968608973719,-0.00015210919702829677,0.00028164181485856025,0.0008751774820397315,-0.001538882843666283,-0.0015323579231535426,0.0005378113130966425,0.2689092457294464,-23.66513442993164,19.628707885742188,17.89893341064453,0.8833719491958618,2.3732802867889404,-0.10066069662570953,0,0,0,0.000,0,0
1739400793.1607866,-0.7080025928085503,0.6785195504007454,1.4207469556420422,-1.879036745148201,-0.7124412314698093,1.947224622916739,0.18796549285985278,0.001861374609332348,0.001378391110111057,-0.0006796849024649105,0.00034132674176560714,0.00025553415204015653,0.0004053374250966541,0.0009724026116447351,0.1935308277606964,-23.74051284790039,19.680282592773438,17.87512969970703,0.8769632577896118,2.3604629039764404,-0.11347807943820953,0,0,0,0.000,0,0
1739400793.1708117,-0.7080049136411933,0.6785138875510939,1.4207508181089168,-1.8790367442150737,-0.7124404752726663,1.947223865313178,0.18796164471669055,0.0008229894420886779,-0.0008113663592841114,-5.9929075809650185e-05,0.0001339653132158248,0.0012702081485934228,0.0003034933857147676,0.0007669004060899593,0.2411382496356964,-23.66513442993164,19.628707885742188,17.87512969970703,0.8705545663833618,2.3668715953826904,-0.08692778646945953,0,0,0,0.000,0,0
1739400793.182748,-0.708008287756921,0.6785148636268941,1.4207524418402164,-1.8790384163495912,-0.7124423050532449,1.947227039866916,0.18796711576845576,-0.00036549306908773634,-3.15888312718854e-05,0.000677273430521673,-0.0002985642505289116,0.0004768999618562969,0.0007148558266261259,0.0015181628825594966,0.2689092457294464,-23.66513442993164,19.604904174804688,17.89893341064453,0.8769632577896118,2.3668715953826904,-0.12721098959445953,0,0,0,0.000,0,0
1739400793.1927886,-0.7080024469839025,0.6785158391486524,1.4207546815560406,-1.8790367451592522,-0.7124419891271637,1.9472246230450128,0.18796954696087306,0.0009235548358050482,0.00011303712724337978,0.00043161672467311384,-0.0005610948578485859,-0.00010058585889949031,5.3613304704061424e-05,0.0007658193301044501,0.2173345386981964,-23.68893814086914,19.577133178710938,17.87512969970703,0.8833719491958618,2.3604629039764404,-0.12080229818820953,0,0,0,0.000,0,0
1739400793.2028384,-0.708008747404724,0.6785144389553663,1.4207528392045314,-1.879036745054903,-0.7124420479898883,1.9472231076531017,0.1879652952288834,-0.00035186855716853535,0.0004507763922284419,-0.0005256754135626464,0.0003660152420753238,-7.348495706217757e-06,-0.00026184458611073846,-0.0006981094140477252,0.2689092457294464,-23.66513442993164,19.604904174804688,17.87512969970703,0.8833719491958618,2.3732802867889404,-0.12080229818820953,0,0,0,0.000,0,0
1739400793.2137828,-0.7080049151010038,0.6785084272169287,1.4207526011143305,-1.879038502327093,-0.7124444501666832,1.9472238782336253,0.1879652951568791,0.0002845414647429287,-0.001679946227633718,4.7225150170032004e-05,-0.0005040541304259831,0.0005597026601752231,-0.0003158762572955364,0.0002852077028738239,0.2411382496356964,-23.58578872680664,19.604904174804688,17.89893341064453,0.8769632577896118,2.3668715953826904,-0.12080229818820953,0,0,0,0.000,0,0
1739400793.2247756,-0.7080107990640853,0.6785121318989383,1.4207533248719928,-1.8790367423253145,-0.7124417544302344,1.9472238653132516,0.18796424648392862,-0.0006290810545602162,-0.0012730368033267974,0.00028392269791847587,-0.00060444562986388,0.0011305863130012493,-0.00022499310694869745,0.0009821718736157704,0.2927129566669464,-23.63736343383789,19.604904174804688,17.87512969970703,0.8769632577896118,2.3668715953826904,-0.08051909506320953,0,0,0,0.000,0,0
1739400793.2348142,-0.7080038627122164,0.6785141268418441,1.4207532906101477,-1.8790346556069655,-0.7124452099065949,1.9472246229732573,0.18796129044507176,0.0010032073650770074,-0.0005140292675568777,-0.0011112040400241955,0.0009408439733710164,-0.002417745800468134,0.0002725673455842515,-0.001260782352979256,0.2411382496356964,-23.66513442993164,19.628707885742188,17.84735870361328,0.8833719491958618,2.3604629039764404,-0.08692778646945953,0,0,0,0.000,0,0
1739400793.2467911,-0.7080082657555946,0.6785122599384962,1.4207554047121425,-1.8790364586730772,-0.712447210579491,1.9472246229732573,0.18796761962023817,-0.0010792374695062635,-0.0005601870205225085,0.00011155718282726318,0.00038614499502690115,-0.0015093971351809823,-0.000433771680136401,0.0022506107027809585,0.2927129566669464,-23.63736343383789,19.577133178710938,17.89893341064453,0.8897806406021118,2.3604629039764404,-0.11347807943820953,0,0,0,0.000,0,0
1739400793.2567942,-0.7080067930828386,0.678515827700003,1.420750806347423,-1.8790366421408051,-0.7124444508415352,1.947225379179785,0.18796215924508317,-5.67988003732219e-05,0.0010026902675582421,-0.0011053773518249145,0.0006338682115213394,0.0015045613278436975,0.00013089436889269249,-0.0004308665737725448,0.2689092457294464,-23.68893814086914,19.628707885742188,17.87512969970703,0.8769632577896118,2.3540542125701904,-0.09425200521945953,0,0,0,0.000,0,0
1739400793.26777,-0.7080041464644181,0.6785178374599279,1.4207525997563155,-1.87903674421488,-0.7124406519577564,1.94722462313476,0.18796529661497688,0.0005250893619991847,0.0011792021084213297,0.00028011802358963815,0.0011560564938479666,0.0007498558813937667,0.00018541387492615433,0.0005798727544256432,0.2411382496356964,-23.71670913696289,19.604904174804688,17.87512969970703,0.8705545663833618,2.3604629039764404,-0.12080229818820953,0,0,0,0.000,0,0
1739400793.2777934,-0.7080077769843972,0.6785129781215454,1.4207487383190438,-1.879034654032318,-0.712440531201029,1.9472261208508137,0.18796541326240324,0.0010855232511646205,-0.0003089625309810075,0.0002666782742363454,0.0005553052308117353,0.001195894659019511,0.00028424853329705226,0.0007566749128093777,0.2927129566669464,-23.68893814086914,19.656478881835938,17.84735870361328,0.8705545663833618,2.3476455211639404,-0.12080229818820953,0,0,0,0.000,0,0
1739400793.2887454,-0.708008046139787,0.678512128993806,1.4207508181089168,-1.8790385193335675,-0.7124435574779986,1.947223107653002,0.18795981426867386,0.00040058272411111083,-7.859937784771524e-05,-0.0004279005736528775,-0.0010483071728585177,-0.0004801979631383752,-0.00029996290693149515,-0.0016526244152542725,0.2689092457294464,-23.63736343383789,19.628707885742188,17.89893341064453,0.8961893320083618,2.3732802867889404,-0.07411040365695953,0,0,0,0.000,0,0
1739400793.3007534,-0.7080090984305049,0.6785121290099583,1.4207526036203588,-1.8790403104788787,-0.712440343242315,1.9472241520229776,0.1879644555186566,-0.0004833552298775684,-0.0012905002130487286,0.00019976595247185003,-0.0008346848427605046,0.001719922665002985,-0.0003555347111026328,-0.0025396387972238194,0.2689092457294464,-23.63736343383789,19.604904174804688,17.92273712158203,0.8961893320083618,2.3604629039764404,-0.11347807943820953,0,0,0,0.000,0,0
1739400793.310827,-0.7080090895536381,0.6785141265147463,1.4207508171277863,-1.8790367451598813,-0.7124429204807603,1.947223107650442,0.1879660659399386,0.00010069235771381583,0.00028339419548748754,-0.0005851604725963719,0.00011405983799703999,0.000737192082641147,-0.0008215306862772538,1.6382877821083408e-05,0.2689092457294464,-23.66513442993164,19.628707885742188,17.87512969970703,0.8897806406021118,2.3732802867889404,-0.12721098959445953,0,0,0,0.000,0,0
1739400793.3218005,-0.7080068567735233,0.6785158394715403,1.4207487386461046,-1.8790361978012395,-0.7124406462111557,1.9472246229732573,0.18796322068707644,-0.0004318309266858241,0.0007839543260050649,-0.00017547337380575216,0.00039655254670148117,-0.000528572075877438,0.00028945503159403304,-0.0010567000403133202,0.2411382496356964,-23.68893814086914,19.656478881835938,17.89893341064453,0.8705545663833618,2.3604629039764404,-0.09425200521945953,0,0,0,0.000,0,0
1739400793.3327405,-0.7080088553792611,0.6785158394715427,1.4207487382100468,-1.8790400808775123,-0.71244639986579,1.9472238653131788,0.18797044022357057,-0.0011671150214339863,0.0008660166212379238,-0.000441025311649849,-0.0003958679170333127,-0.0006557712953486422,-7.05657141456725e-05,0.0012261708280507711,0.2689092457294464,-23.68893814086914,19.656478881835938,17.92273712158203,0.8833719491958618,2.3668715953826904,-0.12721098959445953,0,0,0,0.000,0,0
1739400793.342856,-0.7080105551282155,0.6785104168102196,1.4207526802587938,-1.8790384516306398,-0.7124405932484569,1.9472257338460452,0.18796293345502527,-0.000980413424527535,-0.0010149859728747885,0.0010898984756731447,-2.5643203891523712e-05,0.0011723252829466508,0.001145125802742035,-0.0007857708939340898,0.2927129566669464,-23.61355972290039,19.604904174804688,17.89893341064453,0.8705545663833618,2.3540542125701904,-0.10066069662570953,0,0,0,0.000,0,0
1739400793.3538547,-0.7080044162683479,0.6785141357246041,1.4207508446003185,-1.8790367448445155,-0.7124419891762857,1.9472231076550945,0.1879622875078546,0.0018188724478534815,0.0003911064493264215,0.00016293612586598547,-6.984919176447309e-05,-0.0005459147533514294,0.00020245943813051187,0.00014937914314221682,0.2173345386981964,-23.66513442993164,19.628707885742188,17.87512969970703,0.8833719491958618,2.3732802867889404,-0.09425200521945953,0,0,0,0.000,0,0
1739400793.3647232,-0.7080046594311499,0.6785104164892768,1.4207529186048466,-1.8790399396405726,-0.7124412491761688,1.9472220480149711,0.18796895648211773,0.0005392811905987957,-0.001162601060599266,0.0004422240346688491,-0.0017158572326059478,0.0016556513923036398,-0.001073508640724042,0.0012290039190258418,0.2173345386981964,-23.61355972290039,19.604904174804688,17.92273712158203,0.8769632577896118,2.3732802867889404,-0.12080229818820953,0,0,0,0.000,0,0
1739400793.3748577,-0.7080061575487588,0.6785179453933085,1.4207546835246128,-1.879036439035919,-0.712443068382461,1.947222349975077,0.18796635816838206,0.0008901275089932219,0.00026021549936947974,-7.707005197979267e-05,9.415536220513943e-05,0.001581561685463789,-0.0005475596752149931,-0.00016863098908583945,0.2689092457294464,-23.68893814086914,19.577133178710938,17.87512969970703,0.8833719491958618,2.3796889781951904,-0.12080229818820953,0,0,0,0.000,0,0
1739400793.3857565,-0.7080047977222957,0.6785122330233665,1.4207533160416896,-1.8790374604138909,-0.7124431076975803,1.947224622973257,0.18795997212028906,0.0007320479211944017,-0.0007902014388148065,0.00015756531500152142,-3.1043425869314315e-05,0.00018532148160785842,0.00019395462722197394,-0.0012277610263825359,0.2411382496356964,-23.63736343383789,19.604904174804688,17.87512969970703,0.8641458749771118,2.3604629039764404,-0.06678618490695953,0,0,0,0.000,0,0
1739400793.3957677,-0.7080086225276233,0.6785121290117199,1.420754677644465,-1.879034574440057,-0.7124441964824476,1.9472250274206258,0.18796022851359026,-0.0013710030472575256,-0.00021509122390017292,0.0012106371683507523,6.464713752140058e-05,-0.0009083989995661206,0.0004949549631023353,-0.0011076845548732154,0.2927129566669464,-23.63736343383789,19.577133178710938,17.87512969970703,0.8897806406021118,2.3540542125701904,-0.08692778646945953,0,0,0,0.000,0,0
1739400793.4058092,-0.7080053790549913,0.6785141269508115,1.4207530708210383,-1.879036643083893,-0.7124415912392617,1.9472242566726135,0.18796529578693702,0.00016547343138953094,0.0012748223994319353,-1.509713139516628e-05,-0.00038646167808654427,-0.0005007231251965257,1.2791447443937079e-05,7.023205494809288e-05,0.2173345386981964,-23.66513442993164,19.628707885742188,17.87512969970703,0.8769632577896118,2.3604629039764404,-0.12080229818820953,0,0,0,0.000,0,0
1739400793.416786,-0.7080080912371093,0.6785158384903962,1.4207508975944931,-1.8790360212966664,-0.7124404752746971,1.947223865311111,0.18796534512791033,0.0001465479448488197,0.00017642001761433625,-0.0004720207752232134,0.00045153183652120704,0.0020948796577480965,8.131162469961282e-05,-0.0008936994851889527,0.2689092457294464,-23.68893814086914,19.628707885742188,17.87512969970703,0.8705545663833618,2.3668715953826904,-0.09425200521945953,0,0,0,0.000,0,0
1739400793.426809,-0.7080070995902531,0.6785121290099417,1.42075280388459,-1.8790323354620777,-0.7124475725498539,1.9472231076531006,0.18796367327367428,-0.00012797785791962893,-0.0011823097034168056,-0.0005281225642814974,0.0020361900092658947,-0.0015753257034426776,-0.0005442569698154882,-0.00024293844544724972,0.2411382496356964,-23.63736343383789,19.604904174804688,17.84735870361328,0.8897806406021118,2.3732802867889404,-0.10706938803195953,0,0,0,0.000,0,0
1739400793.437801,-0.7080061835433036,0.6785141280207859,1.4207508181100632,-1.8790385429420164,-0.7124425064305386,1.9472246229732573,0.18796605427505908,0.0004904320823521022,-0.0001855925831913035,-0.0005885786768240495,-0.0007112932816324761,0.0007456242906772507,0.0007021836325115001,-0.0006911554319806723,0.2689092457294464,-23.66513442993164,19.628707885742188,17.89893341064453,0.8833719491958618,2.3604629039764404,-0.12721098959445953,0,0,0,0.000,0,0
1739400793.4478228,-0.7080040922836163,0.6785178643757708,1.4207537468309688,-1.8790369580689097,-0.712443223790625,1.9472246229732573,0.18796694607967102,0.0021204188619293003,0.0016064450251961437,0.0011419905133155256,-0.00019558656219501687,6.843655095855439e-06,0.000236803267320215,0.00035734124767315066,0.2411382496356964,-23.71670913696289,19.628707885742188,17.87512969970703,0.8897806406021118,2.3604629039764404,-0.13361968100070953,0,0,0,0.000,0,0
1739400793.4587896,-0.7080107257392705,0.6785137717056231,1.4207508841028058,-1.8790385278381023,-0.7124453323862652,1.9472231074915949,0.1879588697284155,-0.0013712786941025138,-0.000326268066679335,-0.00032055952619422566,-3.633390299919117e-05,0.0007882232761869527,-0.00019083699496460132,-0.0028519976167649033,0.2927129566669464,-23.68893814086914,19.656478881835938,17.89893341064453,0.8833719491958618,2.3732802867889404,-0.06678618490695953,0,0,0,0.000,0,0
1739400793.4688628,-0.7080069087120255,0.6785141567680818,1.4207504815460161,-1.8790385278369006,-0.7124412511405718,1.9472246229732546,0.1879605327214327,-0.0006510838167754773,0.0002764960484812343,-0.0006042402464954926,-0.0002906988586168599,0.0002567612863432138,-6.945000214875312e-05,-0.0015956557343282012,0.2689092457294464,-23.66513442993164,19.604904174804688,17.89893341064453,0.8769632577896118,2.3604629039764404,-0.08051909506320953,0,0,0,0.000,0,0
1739400793.4797187,-0.7080061022530645,0.6785158481388409,1.420750826903345,-1.8790420894117081,-0.7124460194558685,1.9472231076531006,0.18796207392596873,3.011141946309895e-05,0.00039793304834174434,-0.0006073156086691498,0.00012960880377814107,-0.0014081723504750137,6.32732074122909e-05,-0.00041131399295053013,0.2411382496356964,-23.68893814086914,19.628707885742188,17.94654083251953,0.8769632577896118,2.3732802867889404,-0.08051909506320953,0,0,0,0.000,0,0
1739400793.489747,-0.7080053849342667,0.6785176288949042,1.4207508181089663,-1.8790382442558848,-0.7124423087868181,1.9472223499930221,0.18796924167415266,0.00038084731251778023,-0.0005359142385212119,-0.000821423226631354,-0.0017519703960065377,-0.0006558123995238079,-0.0012422656515550083,0.001066966604172882,0.2173345386981964,-23.68893814086914,19.628707885742188,17.92273712158203,0.8769632577896118,2.3796889781951904,-0.12721098959445953,0,0,0,0.000,0,0
1739400793.499801,-0.7080067665019939,0.6785141529814955,1.4207536427634297,-1.8790424476378917,-0.7124417083164277,1.9472238653131788,0.187965297317016,0.0008380991316447467,0.00033241114707167695,0.0005581665817949808,-0.0007270550424239,-0.0008448603754072984,-0.00010712224017668981,0.0006669751189050986,0.2411382496356964,-23.66513442993164,19.604904174804688,17.92273712158203,0.8769632577896118,2.3668715953826904,-0.12080229818820953,0,0,0,0.000,0,0
1739400793.510925,-0.7080058337438836,0.6785141273789481,1.420750881148716,-1.8790367457331776,-0.7124441613819603,1.9472246229732573,0.18796090453572334,0.00046103236604658253,0.000981913409546061,-0.00042440437179418493,0.0010355099077439195,-0.00015115816090910048,-0.00030677078751637995,-0.0014043815673551057,0.2689092457294464,-23.66513442993164,19.656478881835938,17.87512969970703,0.8833719491958618,2.3604629039764404,-0.08051909506320953,0,0,0,0.000,0,0
1739400793.5217516,-0.7080071005881979,0.6785127996935219,1.4207514091775404,-1.8790346788655325,-0.7124404799181201,1.9472223504775388,0.18796129184237037,0.00015726397781004402,-0.0006070715872541284,-0.00028748841165286677,0.00023227398802150344,0.0019771675045142986,-0.0002574966041323461,-0.0008692018979701958,0.2411382496356964,-23.63736343383789,19.604904174804688,17.87512969970703,0.8705545663833618,2.3796889781951904,-0.08692778646945953,0,0,0,0.000,0,0
1739400793.531835,-0.7080068544418369,0.6785091988921254,1.420750217452095,-1.8790385627032642,-0.7124445094713046,1.9472246229732653,0.18795892921659607,0.0005253210032626998,-0.0007090040858694388,-0.0015486019864760403,-0.000742306815939562,-0.0003094551302222521,-0.00021260379042667234,-0.0015108536842674443,0.2411382496356964,-23.58578872680664,19.604904174804688,17.89893341064453,0.8769632577896118,2.3604629039764404,-0.05396880581974983,0,0,0,0.000,0,0
1739400793.542753,-0.7080053596595244,0.6785168555233996,1.4207557797595474,-1.8790392896038217,-0.7124467987738474,1.9472253806333355,0.18796242226701676,-4.311480585842217e-05,7.032146879766043e-05,0.0006413203318986189,-9.547300179998372e-05,-0.0016733233125797227,0.0009470740193140871,-0.0002478927455168362,0.2173345386981964,-23.66513442993164,19.604904174804688,17.87512969970703,0.8833719491958618,2.3540542125701904,-0.06037749722599983,0,0,0,0.000,0,0
1739400793.5528128,-0.7080059407090898,0.6785093460343578,1.4207526022569836,-1.8790402850472032,-0.7124451236987885,1.9472238653131788,0.18795989323984777,0.0014294034834657382,-0.0013227145252423928,-0.0004003902160413488,-0.0004799527035753521,-0.001479718799312758,-3.3074769210210964e-05,-0.00138359379269927,0.2689092457294464,-23.63736343383789,19.604904174804688,17.92273712158203,0.8705545663833618,2.3668715953826904,-0.07411040365695953,0,0,0,0.000,0,0
1739400793.5628273,-0.7080068577194115,0.6785122185196929,1.4207509253809498,-1.8790355430840928,-0.7124467768673113,1.9472246229732573,0.18795663569945156,-0.0010354708877239678,0.0010673354558084814,-0.00019437995102343714,0.0004211137892945028,-0.002224670377254833,0.0002706917459452629,-0.0007309112910249603,0.2411382496356964,-23.63736343383789,19.628707885742188,17.89893341064453,0.8833719491958618,2.3604629039764404,-0.04756011441349983,0,0,0,0.000,0,0
1739400793.5747943,-0.7080069926791509,0.6785121290104636,1.420754826171968,-1.8790367327205615,-0.7124459267642259,1.9472253806333355,0.18796057209059774,0.0007418055436934873,0.00012462812749038134,-0.0008924923208958414,0.000235287299765084,-0.0014805783675144247,0.0003207231618355843,0.0002258127171114961,0.2411382496356964,-23.63736343383789,19.604904174804688,17.87512969970703,0.8769632577896118,2.3540542125701904,-0.08051909506320953,0,0,0,0.000,0,0
1739400793.5857966,-0.7080078880569739,0.6785141181561596,1.4207508185491693,-1.8790367442150504,-0.7124435969018654,1.9472238653131788,0.18795851084404436,-0.00025379576088251825,0.00027024777516275694,-0.0007121251836780875,0.00030606400342319244,-0.000688978916549297,0.00019812290461512392,0.00014262657726637324,0.2927129566669464,-23.66513442993164,19.628707885742188,17.87512969970703,0.8833719491958618,2.3668715953826904,-0.06037749722599983,0,0,0,0.000,0,0
