IITGN-Robotics/Franka_IITGN_ROBOTICS/franka_ros/franka_iitgn/data/b_10.csv
time,fr3_joint1_pos,fr3_joint2_pos,fr3_joint3_pos,fr3_joint4_pos,fr3_joint5_pos,fr3_joint6_pos,fr3_joint7_pos,fr3_joint1_vel,fr3_joint2_vel,fr3_joint3_vel,fr3_joint4_vel,fr3_joint5_vel,fr3_joint6_vel,fr3_joint7_vel,fr3_joint1_eff,fr3_joint2_eff,fr3_joint3_eff,fr3_joint4_eff,fr3_joint5_eff,fr3_joint6_eff,fr3_joint7_eff,flexpin1,flexpin2,flexpin3,Force,ContactMic,ContactMic_gt
1739400821.422317,-0.7079163527566299,0.6780809397793899,1.4206748553081485,-1.8790704729836365,-0.7120764705743227,1.9474533051518736,0.18772549697016055,0.0002261507454584944,0.00010416388318430867,-0.0003632997266063982,-0.0007523563995070816,0.00044150779275599876,-0.0005570999278926041,-0.0007464264811840992,0.2689092457294464,-23.71670913696289,19.628707885742188,17.89893341064453,0.9950662851333618,2.3732802867889404,-0.12080229818820953,,,,,,,,,
1739400821.4333546,-0.7079181545441172,0.6780810960946122,1.4206759400566842,-1.8790704759264945,-0.7120787391212378,1.9474526456004702,0.18772716466751965,-0.000813438457177303,0.000519364884019201,-0.00023650329105576073,-0.00021866162429657362,0.0007467156345822067,-0.0002095483758990043,-0.00013134664027422303,0.2927129566669464,-23.68893814086914,19.604904174804688,17.89893341064453,1.0142923593521118,2.3668715953826904,-0.13361968100070953,,,,,,,,,
1739400821.4434004,-0.7079172010348224,0.6780848025371607,1.4206759452880138,-1.879072258603519,-0.7120779816246755,1.9474540579428576,0.18772970397828312,0.0007234941797831923,0.002454495885293161,0.001737739261627066,-0.0012928012798671278,-0.00012427422333158452,7.904811875525332e-05,0.000718778086282847,0.2927129566669464,-23.74051284790039,19.604904174804688,17.92273712158203,1.0078836679458618,2.3668715953826904,-0.16749419271945953,,,,,,,,,
1739400821.4553564,-0.7079159602052753,0.6780767735951018,1.4206741665357134,-1.8790704759264998,-0.7120779814073168,1.94745330079122,0.18773002450006662,0.0006174870508749244,-0.0013039599144794023,9.731482186932638e-05,0.00031366619114676545,7.109101439729647e-05,-0.00023452246481951518,-0.0005375600781190858,0.2927129566669464,-23.63736343383789,19.628707885742188,17.89893341064453,1.0078836679458618,2.3732802867889404,-0.12721098959445953,,,,,,,,,
1739400821.4653914,-0.7079163306276036,0.6780831650092572,1.42067208674588,-1.8790707938179387,-0.7120772238010719,1.9474548161113794,0.18772989711034452,0.0009662938891828297,0.0004002709061699454,-0.0003883689025255859,0.0003571319598545135,0.0002822302161894125,0.001213058762248675,0.000353178165715081,0.2689092457294464,-23.71670913696289,19.656478881835938,17.89893341064453,1.0014749765396118,2.3604629039764404,-0.16108550131320953,,,,,,,,,
1739400821.4763005,-0.7079209884794075,0.6780789463099655,1.4206741659745037,-1.8790686932149367,-0.7120777410287584,1.9474525431311442,0.18773112566971722,-0.000871392453666478,0.00012103367513176612,-3.4067792236426456e-05,0.0010827756537014933,-6.986724927929983e-05,0.0001414671962764221,0.0008315320072231917,0.3165166676044464,-23.68893814086914,19.628707885742188,17.87512969970703,1.0014749765396118,2.3796889781951904,-0.16749419271945953,,,,,,,,,
1739400821.4873476,-0.7079163537270392,0.6780802446448477,1.4206741693701554,-1.879072258603519,-0.7120787391241492,1.9474525431311442,0.18773037289985983,0.0003038678840673439,-0.0003426602786458158,0.0005716068343357734,-0.0005847221640911376,-0.0003382412846331383,-0.0004341295816759896,0.0010755591180351904,0.2689092457294464,-23.68893814086914,19.628707885742188,17.92273712158203,1.0142923593521118,2.3796889781951904,-0.16108550131320953,,,,,,,,,
1739400821.4974072,-0.7079163161641059,0.6780802585224697,1.4206741665357836,-1.879068693249481,-0.7120812530938755,1.9474526608687144,0.1877300605017036,0.0008996433826122022,0.0010679081740731756,-0.000666815783329538,0.0007010053452876883,-0.000326221003292788,0.00013645212028966914,-0.0014181140257526767,0.2689092457294464,-23.71670913696289,19.628707885742188,17.87512969970703,1.0078836679458618,2.3796889781951904,-0.16749419271945953,,,,,,,,,
1739400821.508388,-0.7079162757189995,0.6780763547736127,1.4206759526649364,-1.8790677395751645,-0.712078739145555,1.947453287709492,0.18772713118359355,0.00013144923677621087,2.473331423972011e-05,-0.00017049531700879302,0.0002861672438391198,-0.0005972059846847965,2.0096397631377984e-05,-0.0001422010281272129,0.2689092457294464,-23.66513442993164,19.604904174804688,17.87512969970703,1.0142923593521118,2.3732802867889404,-0.13361968100070953,,,,,,,,,
1739400821.519329,-0.7079173555634471,0.678080884492704,1.4206752352167804,-1.8790708125203561,-0.7120779814611512,1.9474540584512272,0.18773037241388704,-2.096558880879118e-06,-0.00018409091321910294,-0.00021407512481732465,0.00026032142374984033,0.0007447208089140497,0.000513637708760063,-0.00035378915719221484,0.2927129566669464,-23.68893814086914,19.604904174804688,17.87512969970703,1.0078836679458618,2.3668715953826904,-0.16108550131320953,,,,,,,,,
1739400821.5313678,-0.7079163527532214,0.6780812981163296,1.4206780289985796,-1.879068799261596,-0.712078145476127,1.9474537052385912,0.1877295108908992,0.0004846271676538232,0.0007112863689057995,0.00033854467563177213,-0.0009291675536453493,-0.001614583981979422,-0.00031940722152119566,0.00035685321578010604,0.2689092457294464,-23.68893814086914,19.577133178710938,17.87512969970703,1.0078836679458618,2.3668715953826904,-0.15376128256320953,,,,,,,,,
1739400821.5413938,-0.7079197784406749,0.6780793749421639,1.4206763121939312,-1.8790722581317136,-0.7120779860952684,1.947453300573888,0.18772624879781905,-0.0016439103165505524,0.0003201427346702601,-0.0003979367850046983,-0.000621465370021403,-8.016763633561051e-05,-0.0001722048625678088,-0.0012728151706022657,0.3165166676044464,-23.66513442993164,19.628707885742188,17.92273712158203,1.0078836679458618,2.3732802867889404,-0.12721098959445953,,,,,,,,,
1739400821.5523322,-0.7079135460062145,0.6780794898804605,1.4206780281735474,-1.8790704759264973,-0.7120783395796192,1.9474533007912216,0.1877256099784048,0.00013211905081358098,0.0007385680195452716,0.0007798578276234853,0.00033290782987600745,0.00031469749497424395,9.708787727871532e-05,-0.0005957642481259856,0.2689092457294464,-23.66513442993164,19.577133178710938,17.89893341064453,1.0078836679458618,2.3732802867889404,-0.12080229818820953,,,,,,,,,
1739400821.5624373,-0.707911283807958,0.6780903338160976,1.4206667471019268,-1.8790666497620427,-0.7120775275253746,1.9474453477214158,0.18772807145510959,0.000703960635531311,0.0021387468612870356,-0.0009882509655998535,0.0008892418716950053,0.0009261718776652294,-0.0017047559540942058,-0.0009332193483689091,0.1935308277606964,-23.56198501586914,19.450180053710938,17.84735870361328,0.8961893320083618,2.3604629039764404,-0.10066069662570953,,,,,,,,,
1739400821.5733912,-0.7079125846768354,0.6781133468385026,1.4206471001931202,-1.8790687064768565,-0.7120841571505778,1.9474396347480691,0.18774232417532571,0.0006164502728281344,-4.976775327613378e-06,-0.00310664017506481,-7.422697583009028e-05,-0.0009418771826464105,-0.0008526043937506821,0.0026207130382455207,0.1419561207294464,-23.48660659790039,19.450180053710938,17.87512969970703,0.8705545663833618,2.3668715953826904,-0.14094389975070953,,,,,,,,,
1739400821.58434,-0.7079173636364845,0.6781350966783661,1.4206214758393985,-1.8790750775165832,-0.7120849956452482,1.9474301039519986,0.18774558587403176,-0.001548058338691288,0.0008356544373313274,-0.00524593065351113,-0.0009778714884699394,0.0007879044780584419,-0.001559141651900714,0.000175278782622881,0.1935308277606964,-23.51041030883789,19.553329467773438,17.94654083251953,0.8641458749771118,2.3668715953826904,-0.10066069662570953,,,,,,,,,
1739400821.5943587,-0.7079173679304398,0.6781495429875659,1.4206031377452806,-1.879079044032132,-0.7120873339410634,1.9474258568936282,0.18774372265915232,0.0002792494195520173,0.0006912460481604631,-0.0026373770949987044,-0.0006926728894319925,-0.001396048924618325,-1.0365876471740102e-05,-0.0007249658140632751,0.1935308277606964,-23.53818130493164,19.553329467773438,17.97431182861328,0.8705545663833618,2.3668715953826904,-0.08051909506320953,,,,,,,,,
1739400821.6044502,-0.7079211894799732,0.6781621890821241,1.420591363124574,-1.8790761670612788,-0.7120902727163929,1.9474245602174958,0.18775195339898884,-0.00038354114860533175,0.001034554553764729,-0.001682365845483365,0.0011680206642422956,-0.0004887246759846026,-8.144344132465056e-05,0.00022081684107428388,0.2173345386981964,-23.58578872680664,19.553329467773438,17.89893341064453,0.8769632577896118,2.3732802867889404,-0.10066069662570953,,,,,,,,,
1739400821.615391,-0.7079218374236628,0.6781753797763233,1.4205864668213897,-1.879072268106744,-0.7120889709727105,1.947423155168254,0.18775273076159663,-0.0008203024862089637,0.0023708096458331706,-1.966773090108652e-05,8.094328972853455e-06,0.00045909578701680423,-0.0006464120447296356,-0.0005852464051607788,0.2411382496356964,-23.66513442993164,19.529525756835938,17.87512969970703,0.8568216562271118,2.3540542125701904,-0.10706938803195953,,,,,,,,,
1739400821.6254182,-0.7079260559960193,0.6781885173628794,1.4205748524997905,-1.8790682996317927,-0.7120939304339295,1.9474205613052364,0.1877546152378493,-0.0016058260721936658,0.0029353817504701634,-0.00032117454914836483,0.0003718940206529697,-0.0015905942605686004,-0.000798652249209156,-0.00022669061448834946,0.2689092457294464,-23.71670913696289,19.604904174804688,17.82355499267578,0.8705545663833618,2.3668715953826904,-0.08692778646945953,,,,,,,,,
1739400821.6364133,-0.707932558276102,0.6781984163767586,1.4205609852506151,-1.8790680492894813,-0.7120909477676561,1.947420559187391,0.18775673988332675,-0.0003589509877604168,0.0013960496628931847,-0.002089693186315755,0.0007837925695025148,-0.0004047716067586176,-0.0007668593607556075,0.0024200995145537245,0.3165166676044464,-23.76828384399414,19.680282592773438,17.82355499267578,0.8705545663833618,2.3668715953826904,-0.11347807943820953,,,,,,,,,
1739400821.6464543,-0.707935640382546,0.6782023240333473,1.4205465229994356,-1.8790718765790255,-0.7120921621900627,1.9474190453207563,0.1877542663394084,-0.0004259628618090354,0.0005552902128892132,-0.0016133875826582064,0.00021992826356234945,-4.121772086337463e-05,-0.0002790989967232907,-0.000534597478560297,0.3442876636981964,-23.74051284790039,19.755661010742188,17.87512969970703,0.8833719491958618,2.3796889781951904,-0.08692778646945953,,,,,,,,,
1739400821.6573353,-0.7079431430874678,0.6782194496310227,1.4205348265683269,-1.8790801208450896,-0.7120956474374658,1.9474181779699982,0.18775347377845814,-0.0004905590644535021,0.002068655953494291,-0.0012406402879988677,-0.0021694554910643756,-0.0006806021539718473,0.0014637934926152792,-0.0005333739211992297,0.4156987965106964,-23.84366226196289,19.783432006835938,17.94654083251953,0.8769632577896118,2.3870131969451904,-0.07411040365695953,,,,,,,,,
1739400821.667412,-0.7079410005266029,0.6782109661542679,1.420529108746093,-1.8790783652527543,-0.7120911054510141,1.9474150755509176,0.18774885557484658,0.0007007131476499675,6.4013104439766865e-06,0.0008332120526502364,-0.0004810800825038554,0.0007785313103952879,-0.00016017982830586458,-0.001126124463785046,0.3442876636981964,-23.71670913696289,19.731857299804688,17.92273712158203,0.8705545663833618,2.3732802867889404,-0.06678618490695953,,,,,,,,,
1739400821.6783564,-0.7079373145067683,0.6782163306098492,1.4205269096413333,-1.8790764436998595,-0.7120939362510148,1.9474190948972512,0.18775754207724937,0.001613808742596713,-0.0011718298244311595,-0.000688702702884487,-0.0009902825314058034,3.0196267069083828e-05,0.0011162241189308433,-7.40667876322272e-05,0.2927129566669464,-23.71670913696289,19.704086303710938,17.92273712158203,0.8705545663833618,2.3668715953826904,-0.10706938803195953,,,,,,,,,
1739400821.6884823,-0.7079356190296792,0.6782180370795797,1.4205313534638049,-1.8790755129190235,-0.7120907317109472,1.9474157923252855,0.18775758900348535,0.0007082285733503274,6.150004757784979e-05,-0.000132942064926974,0.00020644232550819048,-0.0001183269121709707,-0.00011410382721457478,-0.0018582038513565258,0.2689092457294464,-23.76828384399414,19.628707885742188,17.92273712158203,0.8705545663833618,2.3668715953826904,-0.08051909506320953,,,,,,,,,
1739400821.699427,-0.7079390310620086,0.6782174269327534,1.4205373620288253,-1.8790715753012603,-0.7120916716176218,1.9474173075895123,0.18776225170225747,-0.000520280704432227,0.0005899424386705313,0.0007836369495643348,0.0010792092571440123,-0.0006546973966360047,-0.0004079263091353939,0.0006330648665990363,0.3165166676044464,-23.71670913696289,19.577133178710938,17.89893341064453,0.8705545663833618,2.3540542125701904,-0.13361968100070953,,,,,,,,,
1739400821.7103965,-0.7079311670576746,0.678215423231505,1.4205359315294654,-1.879077623094675,-0.7120914086666099,1.9474157510612058,0.18776469494624218,0.0018353743686463837,0.0011078953450628611,-0.00010011212517192216,-0.0007364543719249859,0.0004550085518599291,-0.00025257940370222324,0.003079477940516242,0.2173345386981964,-23.68893814086914,19.577133178710938,17.92273712158203,0.8641458749771118,2.3668715953826904,-0.12721098959445953,,,,,,,,,
1739400821.7213337,-0.7079335271336696,0.6782077714119152,1.420544062155086,-1.879080120970456,-0.7120961205617605,1.947418971183666,0.1877528196522402,4.774871297082042e-05,-0.0017162296155912595,0.0006174513593490914,-0.0020028671969293914,-0.002113247213561261,7.36032472987291e-05,-0.0030326758442485204,0.2411382496356964,-23.58578872680664,19.529525756835938,17.94654083251953,0.8769632577896118,2.3668715953826904,-0.06678618490695953,,,,,,,,,
1739400821.731349,-0.7079356030211545,0.6782092941407545,1.420545987415652,-1.8790725026418904,-0.7120957673550655,1.9474189313621635,0.1877612132987318,-0.0009554414855799725,-0.0002431083868387538,0.000865985400174049,-0.00012261834601296753,-0.0004243018179922693,0.0006755542601279892,0.0006255154683068585,0.2689092457294464,-23.61355972290039,19.501754760742188,17.89893341064453,0.8769632577896118,2.3403213024139404,-0.10066069662570953,,,,,,,,,
1739400821.7423227,-0.7079335261357077,0.6782033313001281,1.4205431254116312,-1.8790698438411328,-0.7120961205657815,1.9474173075895131,0.18775994524005718,3.218546055169059e-05,-0.0010030243746465047,-0.0017826805317399021,0.0008893270900249934,0.00023808836432425318,-0.00047881578151680554,-0.0001122365470023316,0.2411382496356964,-23.56198501586914,19.501754760742188,17.84735870361328,0.8769632577896118,2.3540542125701904,-0.08692778646945953,,,,,,,,,
1739400821.752408,-0.7079318955575008,0.6782079836163547,1.4205509931075626,-1.879068049433623,-0.7120953614541468,1.947417307589512,0.18776391117567315,0.00014676064563870711,0.001236085608318646,0.0002846129317222732,0.0016051612017269291,-0.0004434102468444935,-0.00022699665138846363,-0.0009855620713769427,0.2173345386981964,-23.58578872680664,19.477951049804688,17.82355499267578,0.8705545663833618,2.3540542125701904,-0.12080229818820953,,,,,,,,,
1739400821.762426,-0.7079336077465145,0.678206286516703,1.42054128517837,-1.879071911900299,-0.7120954036070793,1.947418104495447,0.18776398885718196,7.898786075263674e-05,6.678404397145957e-06,-0.0010485216081877386,-0.0005697370568831289,-6.217452033914138e-05,0.00020842311744555486,0.0009242267377721014,0.2411382496356964,-23.56198501586914,19.529525756835938,17.87512969970703,0.8705545663833618,2.3476455211639404,-0.12080229818820953,,,,,,,,,
1739400821.772428,-0.7079344035370269,0.6782071466391937,1.4205406061531158,-1.879074853377254,-0.7120903666957906,1.9474165499300984,0.18776269561608827,-5.103690299506627e-05,-0.00032530433047615426,-0.0005074894989412651,-0.0009969754457228995,0.0014026394615509416,-0.0008465679867570468,0.00018477665773523368,0.2927129566669464,-23.61355972290039,19.577133178710938,17.87512969970703,0.8641458749771118,2.3604629039764404,-0.07411040365695953,,,,,,,,,
1739400821.7833767,-0.7079336080631645,0.6782116949841623,1.4205405012190422,-1.8790728659182687,-0.7120968778809158,1.9474157922693554,0.18776694808489777,0.0015723971249832686,5.3879113273870485e-05,-0.0004523234837105781,-0.0010921747264530902,-0.0005095318302249147,-0.00017991074686585448,0.001262739140447806,0.2411382496356964,-23.63736343383789,19.577133178710938,17.87512969970703,0.8833719491958618,2.3668715953826904,-0.10706938803195953,,,,,,,,,
1739400821.7933908,-0.7079390270646717,0.6782132558786731,1.420537441153411,-1.879076431053826,-0.7120937002660294,1.947415040423478,0.1877575777541946,-0.000480255807033191,0.0005909435785622044,0.0002445185890961497,-0.0014390312508538775,0.00036615453456055564,-1.8840104763660857e-05,0.0013423189342088404,0.3165166676044464,-23.68893814086914,19.604904174804688,17.92273712158203,0.8568216562271118,2.3732802867889404,-0.06678618490695953,,,,,,,,,
1739400821.8043394,-0.7079390310619126,0.6782174298814267,1.4205338292514484,-1.8790698322248438,-0.7120946052473981,1.9474173075895447,0.18776232710959054,-0.0003161655498915344,0.00019807504648540844,0.000946026270834224,0.0010018455408882807,0.00014493502163872364,0.0003766660467618187,-0.00010738663323603891,0.3165166676044464,-23.71670913696289,19.628707885742188,17.84735870361328,0.8641458749771118,2.3540542125701904,-0.10706938803195953,,,,,,,,,
1739400821.8154397,-0.7079390310619352,0.6782171078596524,1.4205296460521082,-1.8790772687616757,-0.7120953609696301,1.9474149934011276,0.18775914874090605,-0.0006733755707306361,-0.0009077515959996839,-5.271756631782891e-05,-0.0015135244056977463,-0.000302809596844935,-0.0017649441146708415,-0.001957886378380524,0.3165166676044464,-23.71670913696289,19.680282592773438,17.94654083251953,0.8705545663833618,2.3732802867889404,-0.08051909506320953,,,,,,,,,
1739400821.8264189,-0.707935362187419,0.6782130013413608,1.420528842051562,-1.8790776240148248,-0.7120996526948696,1.9474157922692779,0.18776489179753317,0.000846886430546694,-0.001961553592772269,0.00024831196778080485,-0.000625077939036784,-0.0007981159143033882,-0.00021117487485780413,0.0020334060961155575,0.2689092457294464,-23.66513442993164,19.680282592773438,17.92273712158203,0.8769632577896118,2.3668715953826904,-0.10066069662570953,,,,,,,,,
1739400821.8384628,-0.7079336080782433,0.6782219508814398,1.4205293074375072,-1.8790754904937628,-0.7120937394241604,1.9474200125071397,0.1877634933271345,0.000893142980912457,0.0015541238560348924,0.0003135489418140138,6.323269306558808e-05,0.001400919483160802,0.0010768751267236673,-3.785635163478375e-05,0.2411382496356964,-23.74051284790039,19.680282592773438,17.92273712158203,0.8568216562271118,2.3668715953826904,-0.08051909506320953,,,,,,,,,
1739400821.8494313,-0.7079356060204728,0.6782194545333036,1.420534924664991,-1.8790761965007037,-0.7120985549040375,1.9474165362013252,0.18776442456864717,-0.0005383443565655172,-0.000383535329823276,0.001165406148631478,0.0013445626721177591,-0.0012633321430266893,0.0007392855023571448,0.0013633779089109214,0.2689092457294464,-23.74051284790039,19.604904174804688,17.89893341064453,0.8705545663833618,2.3604629039764404,-0.12080229818820953,,,,,,,,,
1739400821.8603973,-0.7079351329265271,0.6782168228422034,1.4205310004790719,-1.8790779806372797,-0.7120985399380748,1.9474157922691229,0.18776312426876385,0.0004492755995263347,-0.0008251999892463181,0.0003978241247996783,0.0004017721662242613,-0.00104630458812996,0.00022432473119141528,-0.00020513449434239416,0.2927129566669464,-23.68893814086914,19.628707885742188,17.92273712158203,0.8705545663833618,2.3668715953826904,-0.11347807943820953,,,,,,,,,
1739400821.8713229,-0.707933339568139,0.6782117216029074,1.4205373577724902,-1.8790748083945847,-0.7120947229911668,1.9474157922693551,0.18776866915756618,0.0003111854591953831,-0.0002683958336105172,0.0009082905102964292,-0.00017225092145387518,-0.0008723966701722995,-0.0005005161764788378,0.001650663329876453,0.2689092457294464,-23.63736343383789,19.577133178710938,17.87512969970703,0.8641458749771118,2.3668715953826904,-0.13361968100070953,,,,,,,,,
1739400821.8813918,-0.7079356028731077,0.6782100080984129,1.4205370441494292,-1.879072693291461,-0.7120994172217273,1.947416548403206,0.18775787398027421,-0.0005097385595358846,-0.0008667097367285306,-0.0003500155911632232,-0.0003264950642268848,-0.0003523839763770331,3.9402177851480125e-05,-0.001866355191870931,0.2689092457294464,-23.61355972290039,19.577133178710938,17.84735870361328,0.8769632577896118,2.3604629039764404,-0.06037749722599983,,,,,,,,,
1739400821.892357,-0.7079373175418704,0.6782154319528528,1.4205429012192266,-1.879078377575633,-0.7120947637570404,1.947415791760604,0.18776244558896948,-0.0002780192005595652,0.0012350028083848586,0.0008473600167066141,-0.001970909339267682,-0.0005997831907741592,1.9600045517881607e-05,0.0005658892449215949,0.2927129566669464,-23.68893814086914,19.501754760742188,17.92273712158203,0.8641458749771118,2.3668715953826904,-0.10706938803195953,,,,,,,,,
1739400821.9033546,-0.7079352821311035,0.678211709933529,1.420537626948678,-1.8790698449144638,-0.7120957162845968,1.9474165499294251,0.18776399015997713,0.0005028630309139865,0.0009428443549247152,-5.979482955132591e-05,0.0013459873099721255,0.0008434827748246017,0.00014990858166366656,9.911592607989874e-05,0.2689092457294464,-23.63736343383789,19.577133178710938,17.84735870361328,0.8705545663833618,2.3604629039764404,-0.12080229818820953,,,,,,,,,
1739400821.9134357,-0.7079341347192555,0.6782078544819637,1.4205409499991801,-1.8790702751459718,-0.7120953633942086,1.9474165438245228,0.18776558494818177,0.00032024589478281667,0.000898195405157262,-0.0013943692755543696,0.0009329057690217375,0.0011375645896464308,-9.936014541724519e-05,0.001336540470215084,0.2927129566669464,-23.61355972290039,19.529525756835938,17.82355499267578,0.8705545663833618,2.3604629039764404,-0.13361968100070953,,,,,,,,,
1739400821.9244058,-0.7079355969716462,0.6782100089583802,1.420541299424633,-1.8790719119128632,-0.712093739350389,1.9474165499293994,0.18776269561611306,0.000780628317994576,0.00040163652088867234,-0.0009116657015033837,-0.00015679387918026712,-0.0003601686526999576,0.0005494896432100873,-0.0006730695344198316,0.2689092457294464,-23.61355972290039,19.553329467773438,17.87512969970703,0.8568216562271118,2.3604629039764404,-0.07411040365695953,,,,,,,,,
1739400821.934417,-0.7079343100897272,0.678207666756312,1.4205423236688375,-1.8790680507416195,-0.7120953759896493,1.9474165499294336,0.1877613296343559,0.000861111273608481,-0.0018246065227543037,0.00021649863540780257,0.00025871153250796715,0.0015070022810744627,0.00026526514018792484,0.0004047495026899809,0.2411382496356964,-23.58578872680664,19.553329467773438,17.82355499267578,0.8705545663833618,2.3604629039764404,-0.09425200521945953,,,,,,,,,
1739400821.9453416,-0.7079394245759488,0.6782102401375962,1.420535648302662,-1.8790736945773252,-0.7120924917856349,1.9474150208732273,0.18776345546921683,-0.000696242235875003,-0.0009577369551016889,-0.001483828090796358,-8.353776899521447e-05,0.0005211795939674155,-0.0006206457421763911,-3.271913928828453e-06,0.2927129566669464,-23.61355972290039,19.628707885742188,17.89893341064453,0.8641458749771118,2.3732802867889404,-0.11347807943820953,,,,,,,,,
1739400821.9554367,-0.7079348775549247,0.6782116156403905,1.4205351753425144,-1.879073942807361,-0.712095537297935,1.9474150346090444,0.1877653773922269,0.0003908165711762503,-0.00034625107224526045,-0.0007437372569045649,6.08215364540563e-06,-0.0004259458273024704,-0.0002585569153927697,0.001023496795110629,0.2689092457294464,-23.63736343383789,19.604904174804688,17.89893341064453,0.8705545663833618,2.3732802867889404,-0.12080229818820953,,,,,,,,,
1739400821.966419,-0.7079354994729972,0.6782139545057463,1.4205335000083201,-1.8790775012975782,-0.7120991976618215,1.9474165499294336,0.18776344021404598,0.0007745934796434691,-0.0006219453090458496,0.0007742810526631511,-0.001562379715335325,-0.000779891504348392,0.0003348844388084708,-0.00017894082271098939,0.2689092457294464,-23.66513442993164,19.628707885742188,17.94654083251953,0.8641458749771118,2.3604629039764404,-0.11347807943820953,,,,,,,,,
1739400821.9773955,-0.7079372375964241,0.6782155100634569,1.420528467514645,-1.8790801212818082,-0.7120962387985036,1.9474165316147007,0.18776511688441652,-0.0002650406822166213,-0.0005732246210851305,-0.0003343851501493052,-0.0011517482732950604,8.062068856281635e-05,0.0007091322516580548,0.0005404220016337871,0.2927129566669464,-23.68893814086914,19.656478881835938,17.94654083251953,0.8769632577896118,2.3604629039764404,-0.09425200521945953,,,,,,,,,
1739400821.9874403,-0.7079336471060731,0.6782191688461523,1.4205310753518212,-1.8790803873295063,-0.712095402155556,1.947413411051656,0.18775860762370525,-0.00020993044747652756,0.0007426686817972467,0.00019188658539581402,-0.0011540889322621084,0.0005770500278466672,-0.0003969724948727365,0.00035224549539608586,0.2411382496356964,-23.74051284790039,19.656478881835938,17.94654083251953,0.8705545663833618,2.3870131969451904,-0.07411040365695953,,,,,,,,,
1739400821.998396,-0.7079373185414243,0.6782174300028763,1.4205274028895023,-1.879077649893544,-0.7120992995362202,1.9474165499294336,0.18776869594310114,-0.0007496810758161065,-0.0003875689912142692,-6.566169959843393e-05,0.00015063307549111765,-0.001342699389000977,-4.272013846869533e-05,0.0011873954136421832,0.2927129566669464,-23.71670913696289,19.680282592773438,17.92273712158203,0.8769632577896118,2.3604629039764404,-0.12080229818820953,,,,,,,,,
1739400822.0084155,-0.707937318541204,0.6782137107108257,1.4205303159462543,-1.8790803818445154,-0.7120961489718162,1.9474157922693551,0.18776321664961584,-0.0011132540463776668,-0.0009527802673786169,0.0001937531496070373,-0.002223615524347528,-0.00025702489963623905,-0.00041730472553789594,0.000806051351822893,0.2927129566669464,-23.66513442993164,19.628707885742188,17.97431182861328,0.8641458749771118,2.3668715953826904,-0.11347807943820953,,,,,,,,,
1739400822.0203228,-0.7079336080796198,0.6782137224656906,1.4205282025508015,-1.8790744200864673,-0.7120950762066128,1.9474157510612058,0.18776738930495335,-0.00020357908528580425,-0.0017887487573718022,-0.0009837885175418047,0.00031350936780527404,0.0004218853467333779,0.00037278445336034707,0.00039586700931841566,0.2411382496356964,-23.66513442993164,19.656478881835938,17.89893341064453,0.8641458749771118,2.3668715953826904,-0.11347807943820953,,,,,,,,,
1739400822.0303242,-0.7079356060204728,0.6782165535826157,1.4205302897535896,-1.879072630111762,-0.7120953761591307,1.9474149932308489,0.18776549300700662,-6.577650063004071e-05,-8.807760998101957e-05,-0.0006562467850979854,0.0013026933765625374,0.0007171633198563024,-2.5501501719448253e-05,0.0001412526428769181,0.2689092457294464,-23.66513442993164,19.628707885742188,17.87512969970703,0.8705545663833618,2.3732802867889404,-0.12080229818820953,,,,,,,,,
1739400822.0404792,-0.707937318541204,0.6782175380723162,1.4205370058666715,-1.8790747664293235,-0.7120988575820207,1.9474154213957764,0.1877638131465921,0.0003014103570549293,0.0011542658523486962,2.7328049812273684e-05,-0.0019518043172460822,-0.0011761916988190643,0.00017338254761480797,2.100059715639635e-05,0.2927129566669464,-23.68893814086914,19.577133178710938,17.89893341064453,0.8641458749771118,2.3668715953826904,-0.08051909506320953,,,,,,,,,
1739400822.0514188,-0.7079352120016793,0.6782126576258598,1.4205365630586981,-1.879069833570044,-0.7120969197423291,1.9474165499273401,0.1877604797175303,0.0003442768362464372,0.00046498002901562837,-0.00039373753201735065,0.0011219725839182752,0.0005145924778669292,7.78353360303657e-05,-0.0007047010946931807,0.2927129566669464,-23.63736343383789,19.577133178710938,17.84735870361328,0.8568216562271118,2.3604629039764404,-0.06037749722599983,,,,,,,,,
1739400822.062423,-0.7079336426000836,0.6782077697925395,1.4205383146545605,-1.8790726928063683,-0.7120981424352498,1.9474169367161667,0.18776570212056934,0.0013607825438673076,-0.0028397907214267283,-0.0002869729702512696,-0.0004131454469490811,-0.0004226100752228307,0.00033107371219549185,-0.0003100816464716068,0.2411382496356964,-23.58578872680664,19.553329467773438,17.84735870361328,0.8641458749771118,2.3540542125701904,-0.10706938803195953,,,,,,,,,
1739400822.0734754,-0.7079356050213518,0.6782100090781968,1.420543788413242,-1.8790680612596686,-0.7120962950676076,1.9474157922672617,0.1877658917714101,0.0007296428288049112,-0.0002516007211183851,0.001855828172840524,0.0009409840080083754,-0.00017445168054695448,3.1009540505925093e-06,0.00037278620071205717,0.2689092457294464,-23.61355972290039,19.529525756835938,17.82355499267578,0.8769632577896118,2.3668715953826904,-0.10066069662570953,,,,,,,,,
1739400822.0843744,-0.707939733072194,0.6782117127699726,1.4205391536505638,-1.8790740920506548,-0.7120953761514832,1.947418060670907,0.18776282072985465,-0.000620964764984369,0.0005276918996180951,-0.00038798486061423636,-0.0012535779509120618,0.0014870609759644177,0.00040475094576805025,-0.0005907897846297548,0.3165166676044464,-23.63736343383789,19.553329467773438,17.89893341064453,0.8705545663833618,2.3476455211639404,-0.10706938803195953,,,,,,,,,
1739400822.09535,-0.7079336080835826,0.6782137185599473,1.4205391447543485,-1.87907262715828,-0.7120937451646621,1.9474157922693294,0.18776291947072674,0.0012768548086843484,-0.0001466296849838768,-0.0005903223610881085,-0.00036542803737283535,0.0016066042830262055,-0.00035112332458054913,0.0004182057064719896,0.2411382496356964,-23.66513442993164,19.553329467773438,17.87512969970703,0.8568216562271118,2.3668715953826904,-0.08051909506320953,,,,,,,,,
1739400822.1053631,-0.7079348789102257,0.6782078628762657,1.4205391535482776,-1.8790754772664497,-0.7120981388283653,1.9474204865039,0.18776771033450848,0.000856102049630191,-0.0007780029224778756,0.00025608099488579956,-0.0006520225251141856,0.0001805606420447757,0.0010530776544872295,-0.0007043988348113283,0.2689092457294464,-23.61355972290039,19.553329467773438,17.92273712158203,0.8641458749771118,2.3540542125701904,-0.11347807943820953,,,,,,,,,
1739400822.1153898,-0.7079373185288903,0.6782130052120371,1.420537364984529,-1.8790758496109128,-0.7120958746172252,1.9474150346631123,0.18776732715665184,-0.0013039737362282866,-9.882034442097113e-05,-8.203482524486488e-06,7.993651231764058e-05,0.0009453839272527032,4.107029493763875e-05,-1.243697114361057e-05,0.2927129566669464,-23.66513442993164,19.577133178710938,17.89893341064453,0.8705545663833618,2.3732802867889404,-0.12080229818820953,,,,,,,,,
1739400822.126423,-0.7079318955588884,0.6782175380805595,1.42053736204099,-1.8790737034441312,-0.7120964744351733,1.9474165499294347,0.18776560408864834,0.001727681842550555,0.0010916092237529093,0.0001685355914581522,0.000679682118565373,0.000319038075043514,0.0006287523525969423,0.0003033092499697356,0.2173345386981964,-23.68893814086914,19.577133178710938,17.89893341064453,0.8769632577896118,2.3604629039764404,-0.09425200521945953,,,,,,,,,
1739400822.1364765,-0.7079343100898804,0.6782195370083752,1.420535046775945,-1.8790765501198234,-0.7120972373808787,1.9474150346092771,0.1877687483531537,-0.00036878159451511335,0.0010026983636678168,0.0006683099725116517,-0.0013285223343836637,-0.0005363622070284544,0.0003145560906143719,0.0008851388557141191,0.2411382496356964,-23.71670913696289,19.604904174804688,17.92273712158203,0.8769632577896118,2.3732802867889404,-0.12080229818820953,,,,,,,,,
1739400822.1473792,-0.7079336859736877,0.6782185002612751,1.4205266580182938,-1.8790785767019216,-0.7121004004720265,1.947415034439696,0.18776560996326166,0.0010854512449246984,0.000582646552100589,-0.0015023647320429974,-0.0001126100277312727,-0.0005104959233775152,-0.00042291918577057596,-0.00010937185889758781,0.2411382496356964,-23.68893814086914,19.680282592773438,17.92273712158203,0.8769632577896118,2.3732802867889404,-0.09425200521945953,,,,,,,,,
1739400822.158328,-0.7079319042261216,0.6782195400454012,1.420535216147895,-1.8790785767497005,-0.7120954023392194,1.9474157859948624,0.18776381506097964,0.0012432758892426629,-0.00012787871944131048,0.0026250815391276076,4.1309422336971826e-06,0.0012514150755224916,-9.351606846832787e-06,-0.0009074295376540184,0.2173345386981964,-23.71670913696289,19.577133178710938,17.92273712158203,0.8705545663833618,2.3668715953826904,-0.08051909506320953,,,,,,,,,
1739400822.1683612,-0.7079319215594153,0.6782195451640266,1.420526422726175,-1.8790750157549683,-0.7120962383060131,1.9474173075894057,0.18776236284574122,0.0013790349341974498,-4.260040407565192e-05,-0.0005515058108499181,0.0006712074587941808,0.0007322352989101279,0.0013746097368357705,0.0001289469243799928,0.2173345386981964,-23.71670913696289,19.680282592773438,17.87512969970703,0.8769632577896118,2.3540542125701904,-0.06678618490695953,,,,,,,,,
1739400822.179418,-0.7079349004108032,0.6782181408343851,1.4205331727251476,-1.879078377867713,-0.7120953629621969,1.9474165499294336,0.18776768257986418,0.0009924957592549668,-0.00012539073524995686,0.0010132949604715286,-0.0006575744340018466,0.0013500467359631072,0.0008835429554194226,-0.00018819846869000815,0.2689092457294464,-23.71670913696289,19.628707885742188,17.92273712158203,0.8705545663833618,2.3604629039764404,-0.12080229818820953,,,,,,,,,
1739400822.1903827,-0.7079373185372207,0.6782146369994526,1.4205343818613645,-1.8790699410340694,-0.7120946198369568,1.9474150330830493,0.18775916406002094,-0.0006111678714165812,-0.0006352416723307658,0.0005801234477631442,0.00046570508180410967,-0.00027141896236512986,-9.208491283888573e-05,-0.0009471651162864719,0.2927129566669464,-23.63736343383789,19.577133178710938,17.84735870361328,0.8641458749771118,2.3732802867889404,-0.06678618490695953,,,,,,,,,
1739400822.2003927,-0.7079373185412039,0.6782147596057171,1.4205361766995812,-1.8790719162627942,-0.7120996029140118,1.9474165499294078,0.18775916401186823,0.00041954516148683346,-0.00024855047566264225,0.00012281161066446367,0.0002429886942654195,-7.181802962610098e-05,0.00017963089374105782,-0.001603190246870041,0.2927129566669464,-23.66513442993164,19.553329467773438,17.87512969970703,0.8705545663833618,2.3604629039764404,-0.06678618490695953,,,,,,,,,
1739400822.2113888,-0.7079356060204728,0.6782117996073017,1.4205369153911924,-1.8790758756658252,-0.7120988952740707,1.9474164904065512,0.18776205574231475,0.00047620422067096987,-0.0006017249417736336,0.0005172928532514224,-0.0008823017251198533,0.0004974283450694661,-0.0006211822081016873,-0.0014980537470831124,0.2689092457294464,-23.63736343383789,19.553329467773438,17.89893341064453,0.8705545663833618,2.3604629039764404,-0.09425200521945953,,,,,,,,,
1739400822.221398,-0.7079356063414651,0.6782087516693694,1.4205414011419273,-1.8790760789090621,-0.7120985478576126,1.947417307588504,0.18776328842874523,0.0006670710260097136,-0.001949808528977471,0.0005075268795310863,-0.0011659913965661605,0.0004492517795608331,0.001031271982899649,-0.0025883013090502323,0.2689092457294464,-23.58578872680664,19.529525756835938,17.89893341064453,0.8705545663833618,2.3540542125701904,-0.04756011441349983,,,,,,,,,
1739400822.2323923,-0.7079318955588904,0.6782137196523212,1.4205409273976528,-1.8790718707419478,-0.7120955002592568,1.9474165499294336,0.1877667231158596,0.0009587337545858285,0.00022337339568670976,-0.00018497677937793613,-6.542946843869448e-05,0.002141887568930037,-0.00010562156070535812,0.00045036515417755217,0.2173345386981964,-23.66513442993164,19.529525756835938,17.87512969970703,0.8705545663833618,2.3604629039764404,-0.10066069662570953,,,,,,,,,
1739400822.2424185,-0.7079356060204728,0.6782145296413388,1.4205392241908192,-1.8790766350710357,-0.7120996570625021,1.9474173075895118,0.1877695065188711,-0.0007443438128598096,0.0007982326048517283,5.20163775269776e-05,-0.00043094036983441883,-0.0009537962124668299,0.0007075765754714488,0.002122739376233725,0.2689092457294464,-23.63736343383789,19.553329467773438,17.89893341064453,0.8769632577896118,2.3540542125701904,-0.12721098959445953,,,,,,,,,
1739400822.2533672,-0.7079356060204728,0.6782093406796104,1.4205391575820285,-1.8790719119179449,-0.7120961603227484,1.9474135511158959,0.18776792243464271,-0.00022678219732719454,-0.0017077134576707832,0.0006169249400851805,0.001293901770420585,0.0019035982073713471,-0.001055968969993177,0.0003653130553646755,0.2689092457294464,-23.56198501586914,19.553329467773438,17.87512969970703,0.8769632577896118,2.3732802867889404,-0.11347807943820953,,,,,,,,,
1739400822.2644198,-0.7079356060204728,0.6782137459140334,1.4205391535484948,-1.8790720043686087,-0.7120979602037654,1.9474149933760045,0.18776789025734292,-0.0007668800768727195,0.0010756698553414721,-0.00034171592241778845,0.0014510402586429085,0.0005776347434621118,-0.00018599235213504696,0.0007199046757320587,0.2689092457294464,-23.66513442993164,19.553329467773438,17.84735870361328,0.8641458749771118,2.3732802867889404,-0.11347807943820953,,,,,,,,,
1739400822.2753544,-0.7079373185041923,0.6782117293335413,1.4205344532362858,-1.8790783387174388,-0.712097049017348,1.9474154213959325,0.18776950211291915,-0.0007239856489756161,-0.0005011596312946258,-0.0010002031173420407,-0.0014215462444262979,-0.0006404506016565992,-0.0003978051472139505,0.0006198789878125862,0.2927129566669464,-23.63736343383789,19.628707885742188,17.92273712158203,0.8833719491958618,2.3668715953826904,-0.12721098959445953,,,,,,,,,
1739400822.2863169,-0.7079356060204721,0.678216132519794,1.420533499590216,-1.8790740482745518,-0.7120961656142614,1.9474157922630744,0.18776950650073587,-0.0002847753259534704,0.00029448812698505716,-0.0002519456990313793,-0.0006676473625810119,-0.00021754480465101993,8.395113497105329e-05,0.0012831950253459569,0.2689092457294464,-23.68893814086914,19.628707885742188,17.89893341064453,0.8504129648208618,2.3668715953826904,-0.12721098959445953,,,,,,,,,
1739400822.2963302,-0.7079336080796198,0.6782167962567339,1.4205282810968254,-1.8790796442644988,-0.7120983894909374,1.9474156686449067,0.18776969662816975,0.0003345547304183943,0.00046527364195213825,-0.0007900029618076083,-0.0013223435404442797,-0.0007716005299137071,-0.0002480972208272491,0.00033466435494311036,0.2411382496356964,-23.66513442993164,19.656478881835938,17.94654083251953,0.8568216562271118,2.3668715953826904,-0.12080229818820953,,,,,,,,,
1739400822.306416,-0.7079336080796198,0.6782156665426007,1.420532541488653,-1.8790745162450535,-0.712097953122254,1.9474165499231528,0.18776337652015637,0.0011144327195942705,-0.00013708948078648318,-0.00016601536544318227,6.782697949287071e-05,-0.0005871660946804181,0.0005395234387138171,-0.0017395456337276562,0.2411382496356964,-23.68893814086914,19.628707885742188,17.89893341064453,0.8833719491958618,2.3604629039764404,-0.07411040365695953,,,,,,,,,
1739400822.317395,-0.7079384140615155,0.678220328029066,1.4205264578155,-1.8790765557108295,-0.7121005181155893,1.9474157922693551,0.18776474552894504,-0.0004231440684483748,0.00014920178380369828,-0.0002516487027153046,-0.00045428385130789114,0.00045270377027802153,0.00019826003817690526,-0.0014258448824314134,0.2689092457294464,-23.71670913696289,19.680282592773438,17.89893341064453,0.8769632577896118,2.3668715953826904,-0.08692778646945953,,,,,,,,,
1739400822.3283117,-0.7079352110545537,0.6782196443312872,1.420530401190928,-1.8790719914256486,-0.7121001755506584,1.9474165438245228,0.18777124853155894,0.0007109640044095772,0.00044416479998577504,-0.00014595236622632376,-0.0004237682021026275,0.0004162465940444632,0.000550296892634016,0.002293032421567739,0.2927129566669464,-23.71670913696289,19.656478881835938,17.87512969970703,0.8833719491958618,2.3604629039764404,-0.14094389975070953,,,,,,,,,
1739400822.3383834,-0.7079356098366905,0.6782185092390006,1.420526134876298,-1.8790754772556837,-0.7120986005044522,1.9474150346091736,0.1877687488427382,-7.764771456492489e-05,0.0009205514064339708,-0.00018484759854227474,-0.0007864336600368846,-0.0008944774924363894,0.0005680470556539773,0.0008725979151062703,0.2689092457294464,-23.68893814086914,19.656478881835938,17.92273712158203,0.8705545663833618,2.3732802867889404,-0.12080229818820953,,,,,,,,,
1739400822.3493176,-0.7079390570623367,0.6782178543944857,1.4205302810206,-1.8790744186633728,-0.7121008869926492,1.9474142631566218,0.18777192726351422,-0.00010418051500154049,0.0006187596644106605,-0.0004187002247737683,-0.0006179396098664044,-0.0005320089745354492,-0.00037972823063958465,0.0011973400991314785,0.3165166676044464,-23.68893814086914,19.628707885742188,17.89893341064453,0.8769632577896118,2.3796889781951904,-0.14735259115695953,,,,,,,,,
1739400822.35934,-0.7079363080311737,0.6782157442144549,1.4205327877953398,-1.8790776584640985,-0.7120988876488689,1.9474157922691218,0.18777432884139358,-0.0001462914313854404,-0.00186831533584825,0.0006370477195072404,-0.0014249154195977584,0.0012850684350328824,-0.00016608729569594856,0.0020669572243648044,0.2689092457294464,-23.68893814086914,19.604904174804688,17.92273712158203,0.8641458749771118,2.3668715953826904,-0.14094389975070953,,,,,,,,,
1739400822.3693852,-0.7079351593946004,0.6782147338928157,1.4205359970735252,-1.8790758404553467,-0.7120985875842281,1.9474157922693551,0.18776561012577944,-0.0002312215698207728,-0.000994578548723096,1.918217054672959e-05,0.00017257221698613795,4.121212874114058e-06,0.0005885061456918144,-0.00015426061921356348,0.2927129566669464,-23.66513442993164,19.553329467773438,17.89893341064453,0.8705545663833618,2.3668715953826904,-0.09425200521945953,,,,,,,,,
1739400822.3793929,-0.7079411370805287,0.6782141513397465,1.4205359568101301,-1.8790719486872336,-0.7120948578485864,1.9474157922693551,0.18776712528342202,-0.0023237489220290825,5.7738657967767735e-05,-0.0008639834276484265,1.3283977328404419e-06,0.0020956620489246728,0.0005075838531785778,0.00028158736929697443,0.3165166676044464,-23.63736343383789,19.553329467773438,17.87512969970703,0.8568216562271118,2.3668715953826904,-0.10706938803195953,,,,,,,,,
1739400822.3903527,-0.707933284336968,0.6782091414743363,1.420539135833654,-1.8790737224861054,-0.7121001291178957,1.9474173075895118,0.1877647967208897,0.0013729295732256188,-0.0004531681186020196,-0.00029370668287854215,-0.00013603945275123447,-0.0009550160970680805,0.0005033104669313512,-0.0004982517478954506,0.2411382496356964,-23.56198501586914,19.553329467773438,17.89893341064453,0.8705545663833618,2.3540542125701904,-0.08692778646945953,,,,,,,,,
1739400822.4003832,-0.7079373175400606,0.6782146379387991,1.4205409175834642,-1.8790747630459224,-0.7120972890008277,1.947417142756914,0.1877623584610354,-0.0007561764264669636,0.0011286708461773396,-6.311263894947681e-05,-0.0008463128484354097,0.0013470662494169839,0.00033481639455070834,-0.0016981725651223213,0.2927129566669464,-23.63736343383789,19.529525756835938,17.89893341064453,0.8568216562271118,2.3540542125701904,-0.06678618490695953,,,,,,,,,
1739400822.41131,-0.7079335001534971,0.6782081156176045,1.4205391447177933,-1.8790758407986894,-0.71210013125864,1.9474173075867205,0.1877678844060601,0.0012605716724935574,-0.000488950957017408,0.0005806280664422844,7.696004081303654e-05,-0.0017617739856642537,0.0006014552609923578,-0.0011641517662327244,0.2411382496356964,-23.58578872680664,19.553329467773438,17.89893341064453,0.8705545663833618,2.3540542125701904,-0.11347807943820953,,,,,,,,,
1739400822.4213166,-0.7079373532077681,0.6782102430835693,1.4205350404166626,-1.8790773405428327,-0.7121007709864466,1.9474157922693551,0.18776403906081962,-0.0005778334655277603,-0.001732165706112849,-5.844774066469656e-05,-0.0004871800330364956,-0.00015527512504111903,0.00044634397881096065,-0.0025603271280331156,0.2927129566669464,-23.61355972290039,19.604904174804688,17.94654083251953,0.8769632577896118,2.3668715953826904,-0.08051909506320953,,,,,,,,,
1739400822.4313931,-0.7079363070320047,0.6782177766784242,1.4205327843142328,-1.8790747287070055,-0.712099070185602,1.9474165499294336,0.18777113005901266,4.55624325442242e-05,0.001767396455231373,9.401651506040442e-06,-0.0003116028137481285,0.0012544445307787091,-0.0001659320009360504,0.0019844666597393047,0.2689092457294464,-23.71670913696289,19.628707885742188,17.89893341064453,0.8705545663833618,2.3604629039764404,-0.14094389975070953,,,,,,,,,
1739400822.441423,-0.7079334205287027,0.6782154320677457,1.42053278299802,-1.8790746482691472,-0.71209735679429,1.9474157922693551,0.18776561435116926,0.0005305840692665545,-0.00028973767805789096,-3.4084158269698543e-06,-0.0010347381072782656,0.0011266030203793955,-0.0002194467239541753,-0.0005145520287933657,0.2689092457294464,-23.68893814086914,19.628707885742188,17.89893341064453,0.8769632577896118,2.3668715953826904,-0.09425200521945953,,,,,,,,,
1739400822.4514241,-0.7079391098780058,0.6782161369610666,1.4205282398765404,-1.8790746482677851,-0.7120985060470953,1.9474157922693551,0.18776410926736253,-0.0015503800041909795,-0.0005209485628200943,-0.0010198974087680206,-0.0006741476120425255,0.0008996526329721371,0.00010909273829399479,-0.002631242889424869,0.3165166676044464,-23.68893814086914,19.656478881835938,17.89893341064453,0.8568216562271118,2.3668715953826904,-0.08051909506320953,,,,,,,,,
1739400822.4633584,-0.7079344045367931,0.6782205760526899,1.4205283085146354,-1.8790737210736548,-0.7121000745908102,1.9474105841291338,0.18777038409764676,0.0008763015634942636,0.00046836207395060605,-0.0006863015503695534,0.00015809619230594765,-0.0001096917350194398,-0.0022221470490838184,-0.0005790962245165216,0.2927129566669464,-23.71670913696289,19.656478881835938,17.89893341064453,0.8705545663833618,2.3732802867889404,-0.13361968100070953,,,,,,,,,
1739400822.473361,-0.7079373185247543,0.6782184869637911,1.4205302809601927,-1.8790737034077851,-0.71209775006157,1.9474150345841539,0.1877678892822612,-0.0001671854659025646,0.001093169821385437,0.00012618766268952477,-0.000768057683144519,-0.0009126910721775525,-0.0006779842306902744,-0.00041284791038019445,0.2927129566669464,-23.68893814086914,19.628707885742188,17.89893341064453,0.8504129648208618,2.3732802867889404,-0.11347807943820953,,,,,,,,,
1739400822.4833665,-0.7079373185412037,0.6782201826973924,1.420530204393828,-1.8790728655747648,-0.7120979549541607,1.9474173075895116,0.18776398640606104,0.0005587145445033136,0.0025357165235689455,0.0015665685010728197,-0.0010124432438118574,0.001228582379236171,0.0007548133311057577,-0.0019424782857665377,0.2927129566669464,-23.74051284790039,19.628707885742188,17.87512969970703,0.8641458749771118,2.3540542125701904,-0.08051909506320953,,,,,,,,,
1739400822.4943247,-0.7079360103954594,0.6782168755794269,1.4205281756231536,-1.8790722970826728,-0.7120993736111924,1.9474157922693551,0.18776716328156542,-0.0005397548178941772,-0.001088109496412968,-0.0004573720619222176,0.00020364726755280342,-0.00029310914200853666,-6.2546921053462e-05,-4.79898684448164e-05,0.2689092457294464,-23.66513442993164,19.656478881835938,17.84735870361328,0.8641458749771118,2.3668715953826904,-0.09425200521945953,,,,,,,,,
1739400822.505394,-0.7079351330444102,0.6782161752930356,1.4205345790186992,-1.8790740126195173,-0.712100129341212,1.9474165360238032,0.1877627242935509,0.0006786619068379472,-0.0001833704572977307,0.0008212928189003945,-0.0007414623691300244,-0.0005301892100658234,0.0005720234715887042,-0.0020871879396654833,0.2927129566669464,-23.66513442993164,19.577133178710938,17.89893341064453,0.8705545663833618,2.3604629039764404,-0.06037749722599983,,,,,,,,,
1739400822.5164611,-0.707939031049598,0.6782168781553566,1.4205320645838724,-1.8790720192831187,-0.7120993648978884,1.9474142754228922,0.18777353231334676,-0.0012160278491842747,0.0009185841839471272,0.00045888640685438545,0.0002435493447792861,-0.00010917954418481233,4.787063537514582e-05,0.0024633799530595036,0.3165166676044464,-23.66513442993164,19.604904174804688,17.87512969970703,0.8641458749771118,2.3796889781951904,-0.12080229818820953,,,,,,,,,
1739400822.5283418,-0.7079356060204728,0.6782147650416637,1.4205303073092244,-1.8790736945775197,-0.7120993736191844,1.9474157922693525,0.1877761527706708,0.0004217048946771407,0.0001797764169772241,8.034278781111665e-06,0.0005269729399687823,0.0008830542599404992,0.000750012835754396,0.0016827061825924103,0.2689092457294464,-23.63736343383789,19.628707885742188,17.89893341064453,0.8641458749771118,2.3668715953826904,-0.14735259115695953,,,,,,,,,
1739400822.5384393,-0.7079319175620055,0.6782139099649566,1.4205359522433076,-1.8790737741591939,-0.7120984684761117,1.9474165499294336,0.18776474425262338,0.0010467715515715752,-0.0012443523104829048,-3.85591416584787e-05,0.001052076822702323,0.00027880872232860976,1.3272638458148679e-05,-0.0013098093500298119,0.2173345386981964,-23.63736343383789,19.553329467773438,17.89893341064453,0.8568216562271118,2.3604629039764404,-0.08692778646945953,,,,,,,,,
1739400822.5493839,-0.7079335990859018,0.6782140444334168,1.4205384176704434,-1.8790719207674047,-0.7121009289760565,1.9474146796493195,0.18776400412008895,0.0003223578960344171,0.0015330806439034835,-4.5620722088252636e-05,0.0002097563045048224,0.00018441109661912307,-0.0017116866437766856,-0.0010981454587625933,0.2411382496356964,-23.66513442993164,19.553329467773438,17.87512969970703,0.8504129648208618,2.3668715953826904,-0.08051909506320953,,,,,,,,,
1739400822.5603824,-0.7079318925608904,0.6782100211007733,1.4205419475426004,-1.8790744186997617,-0.7121007832085348,1.9474139697231236,0.18776510452438602,0.0010511765532235184,-0.0011976254686571525,-0.00018226160282414354,-0.0009465814725048041,0.0007476594536119358,6.259269747040341e-05,-0.0010922706783426553,0.2173345386981964,-23.61355972290039,19.501754760742188,17.89893341064453,0.8833719491958618,2.3540542125701904,-0.08692778646945953,,,,,,,,,
1739400822.571312,-0.7079334175188666,0.6782124651347295,1.4205370881497534,-1.8790719123767905,-0.7120997785462122,1.9474160713261854,0.18777551796496086,0.0004817905072747857,0.001038940965623607,-0.0006339061574083001,2.726335286122322e-05,0.0003822894800272553,-0.0004966154511436673,0.0013418929934519565,0.2689092457294464,-23.61355972290039,19.577133178710938,17.87512969970703,0.8705545663833618,2.3540542125701904,-0.14094389975070953,,,,,,,,,
1739400822.5814342,-0.70793513477908,0.6782182431404395,1.4205373610551555,-1.8790737328420362,-0.7120993212854184,1.947415667097743,0.18777079819656758,-6.592937226476253e-05,0.0016296229005163024,0.0006324203735663062,-0.0006949161485049325,-0.00028429174035743827,-0.00013982209903689555,0.0008949293824034852,0.2927129566669464,-23.68893814086914,19.577133178710938,17.89893341064453,0.8641458749771118,2.3668715953826904,-0.10706938803195953,,,,,,,,,
1739400822.59238,-0.7079337870895016,0.6782128290488532,1.4205323947371769,-1.8790719120095312,-0.7120993736189054,1.947411727049011,0.1877770289700833,0.0003633972535247999,0.0005885746463025244,-0.0006706214085467985,0.0007795920048492744,0.00020259783147666115,-0.0012737136488956483,0.0015296617851807048,0.2411382496356964,-23.61355972290039,19.604904174804688,17.87512969970703,0.8641458749771118,2.3604629039764404,-0.15376128256320953,,,,,,,,,
1739400822.6024423,-0.7079356060235044,0.6782166325944398,1.4205352546210686,-1.8790757954728263,-0.7120993736192008,1.9474164903248752,0.18777230171812243,3.86164938021393e-05,0.000587259199436954,0.0003898148996858299,-0.0010555601680997157,-0.0008420145807699487,5.391287364628983e-05,0.0013927862857640986,0.2689092457294464,-23.66513442993164,19.604904174804688,17.92273712158203,0.8641458749771118,2.3604629039764404,-0.14735259115695953,,,,,,,,,
1739400822.6133919,-0.7079357921115419,0.6782167915970021,1.4205352782173268,-1.879071915972036,-0.7120993736192008,1.9474173075891756,0.1877733698485453,0.00019657087738604432,-0.0012967416895978225,0.0012577383007899238,-0.0006507256050681432,0.0008730925111321594,0.001418142300355155,0.0004263936082363839,0.2411382496356964,-23.66513442993164,19.604904174804688,17.87512969970703,0.8641458749771118,2.3540542125701904,-0.12080229818820953,,,,,,,,,
1739400822.6234202,-0.7079377120882416,0.6782185126774447,1.4205324270719484,-1.8790758671626007,-0.7120994128650574,1.9474165499294336,0.18777196671584612,-0.0006889349611102837,0.0006738927691876993,0.0008789139925520589,-0.00093473699506211,6.0887136948330024e-06,0.0006703544820674757,-0.0010893252419152206,0.2689092457294464,-23.68893814086914,19.628707885742188,17.89893341064453,0.8641458749771118,2.3604629039764404,-0.12080229818820953,,,,,,,,,
1739400822.634349,-0.7079356060323615,0.6782144575199371,1.4205282012545237,-1.8790794057471711,-0.7120951437343712,1.947415036547344,0.18776236302932295,0.00035474493261465373,-0.0003782904011499374,-7.261264851466501e-05,-0.0008036021521923598,0.0019501434890680821,0.0005991836892616211,-0.0015879753319353012,0.2689092457294464,-23.66513442993164,19.656478881835938,17.94654083251953,0.8641458749771118,2.3732802867889404,-0.06678618490695953,,,,,,,,,
1739400822.6443946,-0.7079380219424317,0.678215757025624,1.4205303440661832,-1.8790779409493272,-0.7121001312076457,1.9474124544092806,0.18776398835613667,-0.0008101630445082476,0.00022208091210950556,0.0002822638938778348,-0.0010325279218130383,0.00041753251904501256,-0.00042809788298300074,-0.0020279950271573613,0.2927129566669464,-23.68893814086914,19.656478881835938,17.92273712158203,0.8705545663833618,2.3668715953826904,-0.08051909506320953,,,,,,,,,
1739400822.6544423,-0.7079376837492194,0.6782178630494116,1.420533071273927,-1.8790743769088678,-0.7121016465994346,1.9474157922128283,0.1877684007162995,-0.0001937430902984162,0.0003075376133607078,0.0004911091406924743,0.001017116604039841,-0.0009149610613935303,1.777082602858352e-05,0.0011838669326003821,0.2689092457294464,-23.68893814086914,19.604904174804688,17.87512969970703,0.8833719491958618,2.3668715953826904,-0.11347807943820953,,,,,,,,,
1739400822.6663215,-0.7079356055880612,0.6782147725524246,1.4205350335724953,-1.8790761939412008,-0.7121001312792792,1.9474146637359315,0.1877679611399415,-9.012218335056757e-05,0.0002843046726442261,0.002008671540774086,-0.0003367286341403983,-0.0007658256805244614,4.57934904893061e-05,-9.982477828500273e-05,0.2689092457294464,-23.66513442993164,19.604904174804688,17.92273712158203,0.8705545663833618,2.3732802867889404,-0.10066069662570953,,,,,,,,,
1739400822.6773183,-0.7079356060204719,0.678214801630829,1.420533198812742,-1.8790708346458798,-0.7121010241195304,1.947415751060508,0.18776912181563876,-0.00046524810456506963,-0.0003917313785712707,-0.0004647562077947249,0.0008857309356936823,-0.0009963715623897687,-0.0006332528823480664,0.0009169462093853449,0.2689092457294464,-23.63736343383789,19.553329467773438,17.89893341064453,0.8769632577896118,2.3668715953826904,-0.12080229818820953,,,,,,,,,
1739400822.6873715,-0.707937318541204,0.6782131554986952,1.4205373223673403,-1.8790750231761673,-0.7120993736214901,1.9474120992790118,0.18776283723622325,0.00025895467344479205,0.0007184960053343912,0.0011838643073554356,-0.0013615153793091579,-0.00016033548146336907,-0.000618770248761572,-0.002240025063830009,0.2927129566669464,-23.61355972290039,19.577133178710938,17.87512969970703,0.8641458749771118,2.3604629039764404,-0.06678618490695953,,,,,,,,,
1739400822.6973755,-0.7079336080796198,0.6782167627088658,1.42053617642233,-1.8790737328947178,-0.7121008884548408,1.947416549345319,0.1877672832560279,0.001291476461112983,0.0002818023729595807,-0.0008277813190438725,-0.00014415349660261434,-0.0003003550015157072,-0.0005161147566970129,-0.0015931800647252488,0.2411382496356964,-23.66513442993164,19.553329467773438,17.89893341064453,0.8769632577896118,2.3604629039764404,-0.10706938803195953,,,,,,,,,
1739400822.7083755,-0.707937318541204,0.6782131381657925,1.420535124029209,-1.8790758364201603,-0.7121001313331117,1.947416426304982,0.18777332261813398,-0.0006596653776499895,-0.0005175695201363247,-0.0009505382759650413,0.0006906311918484148,-0.00013872093584962308,-0.000443757039878152,0.0013238482623526286,0.2927129566669464,-23.61355972290039,19.577133178710938,17.89893341064453,0.8705545663833618,2.3604629039764404,-0.14735259115695953,,,,,,,,,
1739400822.719397,-0.7079328795784058,0.6782177535806762,1.4205370147024752,-1.8790744098451457,-0.7120993736192011,1.9474124496602858,0.1877687507990118,0.0009754668261577061,0.0013582528593241202,-2.635486129612646e-05,-0.0006987360239720061,0.0009630044678239726,-0.001446752137860985,-0.0003314726920780625,0.2411382496356964,-23.71670913696289,19.577133178710938,17.89893341064453,0.8641458749771118,2.3668715953826904,-0.12080229818820953,,,,,,,,,
1739400822.7303123,-0.7079356142390133,0.6782125309664845,1.420539038715847,-1.8790705498775924,-0.712099373673036,1.9474116967303006,0.18777266137184329,0.00037204721082933936,-1.7265731017982887e-05,0.0006865813963952351,0.000626988907862716,-0.0008384476009449352,-0.0011366896527324499,0.000753257439738135,0.2689092457294464,-23.63736343383789,19.553329467773438,17.84735870361328,0.8641458749771118,2.3732802867889404,-0.11347807943820953,,,,,,,,,
1739400822.740382,-0.7079373185413431,0.6782109274748737,1.4205381910418478,-1.8790737063632303,-0.7121001312792801,1.9474165498729064,0.1877718892617573,-0.0002733016038937356,-0.0014650979939585705,0.0007643051164150736,-2.549720571173495e-05,-1.6586266252027753e-05,0.00039571389268221744,-0.0011416791209902682,0.2927129566669464,-23.58578872680664,19.553329467773438,17.89893341064453,0.8705545663833618,2.3604629039764404,-0.14735259115695953,,,,,,,,,
1739400822.75141,-0.7079351330375622,0.6782140705421635,1.4205350428352086,-1.8790757156731157,-0.7120993692585501,1.9474143087759732,0.1877647593424675,9.623426807827762e-05,0.000803529542919484,-0.0004649386868077901,0.00011458115700432013,-3.690061531052396e-05,4.6783453715383246e-05,-0.0003671493099771739,0.2927129566669464,-23.66513442993164,19.604904174804688,17.92273712158203,0.8641458749771118,2.3668715953826904,-0.08692778646945953,,,,,,,,,
1739400822.7623947,-0.7079319215551562,0.6782138095742127,1.4205390387536958,-1.8790754772547855,-0.7121005371801897,1.9474120582383496,0.18776358627888823,0.0012937943196506666,-9.881894112296301e-05,0.0013303771073085316,6.441942083507818e-06,0.0008479406642611226,-0.0019684162518890224,-0.0003635661923033298,0.2173345386981964,-23.66513442993164,19.553329467773438,17.92273712158203,0.8769632577896118,2.3604629039764404,-0.07411040365695953,,,,,,,,,
1739400822.7744148,-0.7079373445417307,0.6782185909837256,1.4205320764090803,-1.8790776233849364,-0.7121008890988774,1.9474142764151003,0.1877702706244174,-0.0012027635699740015,0.00039058515915374925,-0.00027488734468124104,-0.0007192426146690446,-0.001460096592737863,0.0001611679579669924,-0.0005800210357474341,0.2927129566669464,-23.68893814086914,19.604904174804688,17.92273712158203,0.8769632577896118,2.3796889781951904,-0.09425200521945953,,,,,,,,,
1739400822.785415,-0.7079356060205216,0.6782201945639841,1.420530519341851,-1.879074755200632,-0.7120983160806443,1.9474165499294327,0.18777154831829176,-0.00039890469474315564,0.001123568400655658,-0.0011835791658626159,6.17879408512e-05,0.0006199615862754484,0.0005349476273409613,-0.0006498893572453433,0.2689092457294464,-23.74051284790039,19.628707885742188,17.89893341064453,0.8641458749771118,2.3604629039764404,-0.10706938803195953,,,,,,,,,
1739400822.7963398,-0.7079336080796198,0.6782203200454207,1.4205261379291803,-1.8790746484029766,-0.71210013563396,1.947415028504366,0.1877682461742945,0.0008509933794030197,0.001287198187373535,-0.002232350974416785,-0.0005831837290133798,4.250380281302512e-05,-0.0001693044112568594,0.0009414407887765575,0.2411382496356964,-23.71670913696289,19.656478881835938,17.89893341064453,0.8705545663833618,2.3732802867889404,-0.10706938803195953,,,,,,,,,
1739400822.8073187,-0.7079356839105777,0.6782186702583965,1.420533459790996,-1.8790755568415973,-0.7121001312793037,1.9474173070807348,0.1877695255213918,0.00023929263239282143,0.0008172034557437222,1.2090495806931157e-05,0.0007377451262643944,0.00022159204105200042,0.000909206716574992,-6.36492628942921e-05,0.2689092457294464,-23.68893814086914,19.628707885742188,17.92273712158203,0.8705545663833618,2.3540542125701904,-0.12721098959445953,,,,,,,,,
1739400822.8173783,-0.7079373075137105,0.6782175094496737,1.420526456883934,-1.879075478236831,-0.7120993736192008,1.94741491098482,0.187764341826565,-0.000269160549212962,-0.00020193555768446099,-0.0008292001327571052,0.0004787137257605571,0.000524421530324699,-0.0005344880070890286,-0.0018524758260588209,0.2927129566669464,-23.71670913696289,19.680282592773438,17.92273712158203,0.8641458749771118,2.3732802867889404,-0.08051909506320953,,,,,,,,,
1739400822.8273787,-0.7079375525444375,0.6782118385498472,1.4205331154922332,-1.8790740243515465,-0.7120956074705134,1.9474100896292466,0.18776914562811564,-0.0011516581019907195,-0.000824411896140981,-0.00021152355781577095,-0.0017672579233996115,0.00040383902678220836,-0.0009062920445709085,0.0006230955891085597,0.2927129566669464,-23.63736343383789,19.628707885742188,17.89893341064453,0.8641458749771118,2.3732802867889404,-0.08692778646945953,,,,,,,,,
1739400822.8374026,-0.7079356320248157,0.6782148796319682,1.4205361649697894,-1.8790698586069812,-0.7121012420882872,1.9474134109682226,0.18776992050103763,4.346635502200364e-05,-0.00018271207201719044,0.0007252014539582322,0.0027505360009192218,9.274677070922078e-05,-3.815345009838594e-05,0.0011119315201899849,0.2689092457294464,-23.63736343383789,19.553329467773438,17.84735870361328,0.8769632577896118,2.3870131969451904,-0.12721098959445953,,,,,,,,,
1739400822.8483121,-0.7079356060206196,0.6782185092549938,1.4205342276835604,-1.8790746571911179,-0.7120993736211944,1.9474150346092765,0.18776952015440662,0.0005395145402794582,0.0005865515708301164,-0.00017123458368747718,0.000148377803186394,0.0002745245630453229,0.0005082042106422452,-0.0012011421592644338,0.2689092457294464,-23.68893814086914,19.604904174804688,17.89893341064453,0.8641458749771118,2.3732802867889404,-0.12721098959445953,,,,,,,,,
1739400822.8583205,-0.707936542355146,0.6782176290926006,1.4205359525947436,-1.8790737300239069,-0.7120993737807064,1.9474165436549418,0.18777040740608258,-0.0003847309717106946,0.0003521586476617766,0.0015561340875683827,-0.00036285573511000686,-1.548131497900899e-06,0.00023902769160112202,0.0006058950196512215,0.2689092457294464,-23.68893814086914,19.553329467773438,17.89893341064453,0.8641458749771118,2.3604629039764404,-0.09425200521945953,,,,,,,,,
1739400822.8693037,-0.7079359555864232,0.6782185649952397,1.420536607157939,-1.8790719120095154,-0.7121008870012914,1.9474157373251206,0.18777430028680564,-0.001148946961642074,0.001370247686102701,-0.00023480222131643067,0.0011186535114106233,-0.0006173649731974872,-0.0007498729583178577,0.0027554291523519178,0.2689092457294464,-23.68893814086914,19.577133178710938,17.87512969970703,0.8769632577896118,2.3668715953826904,-0.12721098959445953,,,,,,,,,
1739400822.8794465,-0.707935614693186,0.6782182791030452,1.420537720668658,-1.879074060719968,-0.7121037813054196,1.9474165478935328,0.18776349513089977,-3.254704232666839e-05,0.0014555002542903173,0.0008557188454837584,-0.0005650221646296225,-0.0015264071970538286,0.00027616536403059883,-0.0018877829130411398,0.2689092457294464,-23.68893814086914,19.529525756835938,17.87512969970703,0.8705545663833618,2.3604629039764404,-0.06678618490695953,,,,,,,,,
1739400822.8903794,-0.7079336076355284,0.678211062093189,1.420539035792605,-1.879074408864039,-0.7121016516267134,1.947413904549614,0.18776750035050907,0.0005086987953055841,-0.0012376782868155055,0.001505474423773486,-8.112414196357176e-05,-0.0013778634858377073,-0.0007169178697910403,0.00016775652988698458,0.2411382496356964,-23.61355972290039,19.553329467773438,17.89893341064453,0.8833719491958618,2.3796889781951904,-0.07411040365695953,,,,,,,,,
1739400822.9013999,-0.7079336079315705,0.6782167992903185,1.4205342228805367,-1.8790741381255491,-0.7121008889393858,1.9474142767209885,0.1877657813323518,0.0006486698563415922,0.0005022164017984224,-0.0004074000046576197,-0.0007672817042251285,-0.0005150957144056268,-0.000231859669245563,-0.0011436848280663562,0.2411382496356964,-23.66513442993164,19.577133178710938,17.87512969970703,0.8769632577896118,2.3796889781951904,-0.09425200521945953,,,,,,,,,
1739400822.9114087,-0.7079373188621938,0.6782148796821436,1.4205320639286618,-1.8790760789098264,-0.7120993736192008,1.9474157922693514,0.187762441803908,-0.001198329230523186,6.967947446019065e-05,-0.0011838266464580874,-0.0011950809705360632,0.0002546762045329046,-0.0005296289175077409,-0.0025124280094653245,0.2927129566669464,-23.63736343383789,19.604904174804688,17.89893341064453,0.8641458749771118,2.3668715953826904,-0.05396880581974983,,,,,,,,,
1739400822.9223773,-0.7079326921226162,0.6782148803254656,1.4205331423822638,-1.8790747848558198,-0.7121002490168491,1.9474169367161667,0.18777666680559177,0.0012147149033178352,0.000252326309840401,6.430693511648802e-05,-5.3566124332908506e-05,-0.0005137093175480421,-0.0008350443974183971,0.00040164682468536803,0.2689092457294464,-23.63736343383789,19.628707885742188,17.87512969970703,0.8705545663833618,2.3540542125701904,-0.14735259115695953,,,,,,,,,
1739400822.9324062,-0.7079373300475813,0.678214854646078,1.4205305203714322,-1.879073695607118,-0.7121001327348233,1.947415751054925,0.18777354555167808,-0.0003838805062896343,-0.0008206636554471379,-0.0006123780926767327,0.0005838608574715853,0.00035421595699992533,0.0015951255073174513,0.0012644501403921706,0.2927129566669464,-23.63736343383789,19.628707885742188,17.89893341064453,0.8705545663833618,2.3668715953826904,-0.12080229818820953,,,,,,,,,
1739400822.9443405,-0.7079336081153506,0.6782168786235085,1.420530006137584,-1.879071938391258,-0.7121001371473236,1.947414267567592,0.1877703085783668,0.0008773216004926193,-0.0005128427093645045,-0.0008935043035419887,0.0017598946166135626,0.0002888324975405249,-0.0005938270780131167,0.0008955432177071951,0.2411382496356964,-23.66513442993164,19.604904174804688,17.87512969970703,0.8705545663833618,2.3668715953826904,-0.12080229818820953,,,,,,,,,
1739400822.955391,-0.7079356029855137,0.678218590680058,1.4205318350256193,-1.8790727340768196,-0.7121002882268266,1.9474092907602432,0.1877693710513837,0.0002998962248366584,-3.924636378057966e-05,0.00035406614292021635,-0.00013028625575015659,-0.0004761675568389359,-0.00238617072765581,0.00047979350823274035,0.2689092457294464,-23.68893814086914,19.604904174804688,17.87512969970703,0.8705545663833618,2.3796889781951904,-0.08692778646945953,,,,,,,,,
1739400822.9663692,-0.7079356060204557,0.6782205890488984,1.420530360721866,-1.879072706960586,-0.7121004311048084,1.9474116967210224,0.18777313845097804,-0.0003741307601587506,0.0008452651073223936,-0.00025379525725707243,-0.0004424918562136894,-0.0007387658431755794,-0.0006354823575913599,0.0007009756291670084,0.2689092457294464,-23.71670913696289,19.628707885742188,17.87512969970703,0.8641458749771118,2.3732802867889404,-0.12080229818820953,,,,,,,,,
1739400822.9764438,-0.7079368455582934,0.6782168776243395,1.4205303822232265,-1.879075922774293,-0.7121012378093251,1.9474150298044854,0.1877738302865316,-0.0009160208861196497,-5.5542176914390036e-05,-0.000416915239344807,-0.0005454931992596424,-0.0004811569639844106,-0.0003610996684437238,-0.0005627678496878725,0.3165166676044464,-23.66513442993164,19.656478881835938,17.89893341064453,0.8769632577896118,2.3732802867889404,-0.12721098959445953,,,,,,,,,
1739400822.9873676,-0.707937318491855,0.6782166445838909,1.4205321435578426,-1.8790754894040598,-0.7120993736211702,1.9474137824513778,0.18777430450952165,-0.00018181348268792898,-0.0004032390783924124,-0.00022964480639806962,-0.00026088734743893327,0.0003536363550850781,-0.0003263468936672219,0.00107736568910865,0.2927129566669464,-23.66513442993164,19.604904174804688,17.92273712158203,0.8641458749771118,2.3796889781951904,-0.12721098959445953,,,,,,,,,
1739400822.997369,-0.7079373448625755,0.6782186027708444,1.4205320900925742,-1.8790719123365698,-0.7121023882704615,1.9474154030729025,0.18777352897546923,-0.0007206904982889155,0.0004230604488719685,-5.196939332062045e-05,0.0004859228146691541,-0.0015102796628915205,0.00042857839981540316,0.0014749346127218357,0.2927129566669464,-23.68893814086914,19.604904174804688,17.87512969970703,0.8897806406021118,2.3668715953826904,-0.12080229818820953,,,,,,,,,
1739400823.0094194,-0.7079373145797552,0.6782159425737014,1.4205333793177604,-1.879075844705183,-0.7121001312791889,1.9474164257940458,0.1877710471612006,-0.0004207596100426899,0.0006543736754241776,-0.0014982917240566162,9.480146903232848e-05,0.00023582277982889661,0.0009813858504766997,0.0013979994366603446,0.2927129566669464,-23.66513442993164,19.604904174804688,17.89893341064453,0.8705545663833618,2.3604629039764404,-0.10066069662570953,,,,,,,,,
1739400823.0203123,-0.7079359391199724,0.6782184871047664,1.4205327847453584,-1.8790765644830822,-0.7121001313331143,1.9474160301366448,0.1877682061975007,0.0006030062564001099,0.0008518569497432275,-0.0003135213610112122,-0.002593451850943655,-7.218980021718021e-05,-0.00046883591015778764,-0.0006578324657512983,0.2411382496356964,-23.68893814086914,19.604904174804688,17.89893341064453,0.8705545663833618,2.3540542125701904,-0.10706938803195953,,,,,,,,,
1739400823.0303397,-0.7079357100614693,0.6782166445821349,1.4205372560348317,-1.879073810401197,-0.7121001356399308,1.9474156228364403,0.18776488797980062,-0.00045110849704880845,-0.0007653900356238193,0.0008463007448147025,-0.00030697779792761526,-5.871132923091498e-05,0.0001251271968212797,-0.0006112799579731428,0.2689092457294464,-23.66513442993164,19.577133178710938,17.89893341064453,0.8705545663833618,2.3668715953826904,-0.04756011441349983,,,,,,,,,
1739400823.041445,-0.7079356060210601,0.6782127746143605,1.420539144717361,-1.8790719119009527,-0.7121025539871637,1.9474159999777418,0.18777242203168418,8.568652223237724e-05,-0.0004252278994975742,0.002230913727421434,-0.0002234627287766682,-0.0008423808908701793,-0.0005982120875945553,-0.0008845331022987366,0.2689092457294464,-23.63736343383789,19.553329467773438,17.87512969970703,0.8641458749771118,2.3604629039764404,-0.12080229818820953,,,,,,,,,
1739400823.0523963,-0.7079335271350404,0.6782148025977689,1.420535281924036,-1.8790737063510747,-0.7121008497652893,1.9474173075864074,0.18776948470327842,0.00024757953762602854,0.0004248834144804605,0.0003306483426039564,-0.0007674549379487628,-0.0006032083504271021,0.0003096203470230112,-0.0008184019028272124,0.2411382496356964,-23.63736343383789,19.604904174804688,17.89893341064453,0.8769632577896118,2.3540542125701904,-0.08692778646945953,,,,,,,,,
1739400823.0623972,-0.7079336080782489,0.678218591106726,1.4205362836950046,-1.8790737063512741,-0.7121005938679942,1.9474148925005146,0.18776439894928848,-0.0004311618027503206,0.0009269260797659029,-0.000164829274508926,-0.00011515601721067435,-0.00021624345920033945,0.0001866017735477134,-0.0014841783350875823,0.2411382496356964,-23.68893814086914,19.553329467773438,17.89893341064453,0.8769632577896118,2.3732802867889404,-0.08051909506320953,,,,,,,,,
1739400823.0743794,-0.707931422575978,0.6782127746156814,1.420536316013694,-1.8790680533580761,-0.712100888991527,1.9474143082664295,0.18776861342681367,0.0008741813317913746,-0.00034073980028495864,-3.725871159565224e-05,0.0029172560706107603,0.000661100444673411,-0.0002537425150439892,-0.0015190197667318624,0.2411382496356964,-23.63736343383789,19.577133178710938,17.82355499267578,0.8769632577896118,2.3668715953826904,-0.08051909506320953,,,,,,,,,
1739400823.0853221,-0.7079356146831537,0.678218487066899,1.4205282114213484,-1.879072866555769,-0.7121011909712438,1.9474161790344537,0.18777539659099024,8.404865077113119e-05,0.0005323380710276601,-0.0019052499777940587,0.0007363909665718732,-0.0001621896733960807,0.0007060440558663935,0.0018813656818759009,0.2689092457294464,-23.68893814086914,19.656478881835938,17.87512969970703,0.8705545663833618,2.3604629039764404,-0.14094389975070953,,,,,,,,,
1739400823.0963323,-0.7079336860808088,0.6782185911074604,1.4205310326268157,-1.87907555982138,-0.7121033101996491,1.9474157907410337,0.18777359511506356,0.0009265487179411103,0.0003230533727230505,-0.001439169453162478,-0.0004902809204988813,-0.00016936252400773106,0.0007882928955213886,0.0014027772044883742,0.2411382496356964,-23.68893814086914,19.628707885742188,17.92273712158203,0.8705545663833618,2.3668715953826904,-0.12080229818820953,,,,,,,,,
1739400823.1065006,-0.7079356030264882,0.6782166445838963,1.4205268511141143,-1.8790778741992262,-0.7121001319253017,1.947416549929356,0.1877671610249911,-5.159975901869063e-05,-0.000969199072433518,-0.0008969127881210159,0.000307761163952168,0.0005468326302318876,0.0010687424641458408,-0.00048687615181524995,0.2689092457294464,-23.66513442993164,19.656478881835938,17.92273712158203,0.8705545663833618,2.3604629039764404,-0.06678618490695953,,,,,,,,,
1739400823.117412,-0.7079370757074603,0.6782168784323244,1.4205303605025834,-1.8790767943988569,-0.7121008889393586,1.9474157922693551,0.18777350777477997,0.0003200791172134636,-0.0003093981226986782,-0.00033756378580666326,-0.0008656509202734936,0.0013783736027857417,2.0913906872208643e-05,-0.00030641639767923156,0.2927129566669464,-23.66513442993164,19.628707885742188,17.89893341064453,0.8769632577896118,2.3668715953826904,-0.12080229818820953,,,,,,,,,
1739400823.1274784,-0.7079356060163603,0.6782205630485181,1.4205320636016145,-1.8790698586538923,-0.7121010066769274,1.947414645251618,0.18776763200768276,-3.904011068524242e-05,0.0006850866486769361,0.0008421821906177474,0.0008456785087443244,2.195436629622027e-05,0.0005008392234199247,-0.0024235838306323784,0.2689092457294464,-23.71670913696289,19.604904174804688,17.84735870361328,0.8769632577896118,2.3732802867889404,-0.07411040365695953,,,,,,,,,
1739400823.1383643,-0.7079356098723809,0.678218591107901,1.420532063600267,-1.8790698586015462,-0.7121008889400221,1.947412412633631,0.18777429882194555,0.00041463249177996084,0.0005730097270274029,1.0706739591645172e-05,0.0015184698081048076,0.00032112198600103804,-0.00035866570071438526,0.0015044971867912316,0.2689092457294464,-23.68893814086914,19.604904174804688,17.84735870361328,0.8769632577896118,2.3668715953826904,-0.12721098959445953,,,,,,,,,
1739400823.1493058,-0.7079373185412692,0.6782168785873165,1.4205282011333924,-1.8790737251023215,-0.7120993737807064,1.9474150340433,0.18776877125352956,-6.529674511752826e-05,0.0005124542723310239,-0.002123872088189074,0.0006373071567982912,-8.329460928513627e-05,2.9770399231486664e-05,-0.0008487176448838343,0.2927129566669464,-23.66513442993164,19.656478881835938,17.89893341064453,0.8641458749771118,2.3732802867889404,-0.08051909506320953,,,,,,,,,
1739400823.1602998,-0.7079373273149948,0.678214070510608,1.4205359261761576,-1.8790719148802493,-0.7121019878771796,1.9474165498729037,0.18776948228055404,-0.0002278776089675547,-0.0011294342842767492,0.0005089173865557504,0.000704940460228746,-0.0016988953375890207,0.00034950332312995555,-8.09407572638746e-05,0.2927129566669464,-23.66513442993164,19.553329467773438,17.87512969970703,0.8769632577896118,2.3604629039764404,-0.11347807943820953,,,,,,,,,
1739400823.1704187,-0.7079351417044051,0.6782166441400548,1.420534381808702,-1.8790719123363808,-0.7121001313393178,1.947414679649319,0.18776699800195207,-3.835589352516042e-05,5.724154560338677e-05,0.0003639027620486413,0.0011962158218597396,0.000781977123193677,-0.0008636986392144283,-0.0007960406810637352,0.2927129566669464,-23.66513442993164,19.577133178710938,17.87512969970703,0.8705545663833618,2.3668715953826904,-0.06678618490695953,0,0,0,0.000,0,0
1739400823.181285,-0.7079358409500051,0.6782089591856296,1.4205349675571495,-1.8790739452057263,-0.7120993742652242,1.9474124406543558,0.1877708571936971,-0.0007518919657298913,-0.0012819581294153987,0.0015240937997769268,-0.0005439527354025619,0.000670528317699245,0.0005710494354648105,0.0002817925791973666,0.2689092457294464,-23.58578872680664,19.577133178710938,17.89893341064453,0.8641458749771118,2.3668715953826904,-0.10706938803195953,0,0,0,0.000,0,0
1739400823.191326,-0.7079351328908415,0.6782148796710052,1.420534858650512,-1.87907762400411,-0.7121001303102493,1.9474149796461577,0.1877749421760225,-0.0003034005116356284,2.519350404533893e-05,-0.0001227823600009161,-0.0007290862553092721,0.0008099510905039558,0.0005545290236567033,-0.0008852806913295144,0.2927129566669464,-23.63736343383789,19.577133178710938,17.92273712158203,0.8705545663833618,2.3732802867889404,-0.13361968100070953,0,0,0,0.000,0,0
1739400823.2013626,-0.7079377119032055,0.6782148806464469,1.4205366453255963,-1.879072946173993,-0.7121001312792627,1.947413968202246,0.1877724549807627,9.305606655101247e-05,0.0009345052563576251,5.043271050944072e-05,6.312550884700503e-05,0.0008897070996688054,0.0007210040915262954,-0.0004026921647498067,0.2689092457294464,-23.63736343383789,19.577133178710938,17.87512969970703,0.8705545663833618,2.3540542125701904,-0.10706938803195953,0,0,0,0.000,0,0
1739400823.2113976,-0.7079356061631336,0.6782148777575323,1.4205321464950014,-1.8790720161598808,-0.7120993736192008,1.9474150328569155,0.18777269595863338,-6.471670642874846e-05,0.00011617550619975214,-0.0013762392841647239,0.0010257635871431597,-0.00044388995257337455,2.218137896840605e-05,0.0002745925088679585,0.2689092457294464,-23.63736343383789,19.604904174804688,17.84735870361328,0.8641458749771118,2.3732802867889404,-0.10706938803195953,0,0,0,0.000,0,0
1739400823.2223763,-0.7079373445415847,0.6782148806464471,1.4205362836409698,-1.8790748642185326,-0.7120992931894206,1.9474164079902423,0.1877687840966739,4.22025287466332e-05,0.0006354976022176545,-0.0007748016054616325,-0.001298192259797262,1.9044211012051246e-05,3.715591850667917e-05,9.667536115518915e-05,0.2927129566669464,-23.63736343383789,19.553329467773438,17.87512969970703,0.8641458749771118,2.3604629039764404,-0.08051909506320953,0,0,0,0.000,0,0
1739400823.2333238,-0.7079356843427519,0.6782148806107976,1.4205330530702767,-1.879077246211972,-0.71210009246365,1.947415020872426,0.18777434284359165,-0.0002818890932631879,-0.00047440304428392503,-0.0001196174929870568,-0.0015562844770805324,-0.000706240741370819,0.00030634868406788157,-3.511928314556788e-05,0.2689092457294464,-23.63736343383789,19.604904174804688,17.94654083251953,0.8705545663833618,2.3732802867889404,-0.14094389975070953,0,0,0,0.000,0,0
1739400823.2433572,-0.7079373188635227,0.6782131681257317,1.4205330530486762,-1.8790754772541045,-0.7121025656148837,1.9474165360235705,0.187770231131493,-0.0011091098980876121,-0.0012123631202366186,0.000554943059898243,-0.00047126329313783305,0.00045459795986133,0.000625178047393546,-0.000570200566735183,0.2927129566669464,-23.61355972290039,19.604904174804688,17.92273712158203,0.8641458749771118,2.3604629039764404,-0.09425200521945953,0,0,0,0.000,0,0
1739400823.2533762,-0.7079336080796252,0.6782185911080477,1.4205291855670528,-1.8790746483606504,-0.712101549998376,1.9474157856554661,0.18777040797165623,0.0009358625438072288,0.00047663064377381184,-0.001219766596450439,-0.00023194938913559824,-0.000363057168233063,0.0006222650879703814,-0.0004759123183673002,0.2411382496356964,-23.68893814086914,19.656478881835938,17.89893341064453,0.8705545663833618,2.3668715953826904,-0.09425200521945953,0,0,0,0.000,0,0
1739400823.264384,-0.7079373285989642,0.6782185882191166,1.4205292460598826,-1.8790744363293925,-0.7121004049151343,1.947415293136314,0.18776906829204487,-0.0003039849461308551,0.0007681101602882596,5.079091551796791e-05,0.0005745961988031947,-0.0003102503101850378,0.00012765873214069597,-0.0008216632294626178,0.2927129566669464,-23.68893814086914,19.656478881835938,17.89893341064453,0.8769632577896118,2.3668715953826904,-0.08692778646945953,0,0,0,0.000,0,0
1739400823.2754,-0.7079377120513116,0.6782168785873002,1.4205302838725857,-1.8790754776945893,-0.7121019399072882,1.9474161783749473,0.18776847597639335,-0.00040918327664686257,-0.0004886088634871431,-0.00026359278194884296,0.0001282910845961518,-0.0009049109829739142,0.000421365947842081,0.00018832873896541856,0.2689092457294464,-23.66513442993164,19.628707885742188,17.92273712158203,0.8769632577896118,2.3604629039764404,-0.08692778646945953,0,0,0,0.000,0,0
1739400823.2863617,-0.7079336082341716,0.6782141439690293,1.4205305988147032,-1.8790739715876585,-0.7121005357325805,1.9474180103032936,0.18776978615556705,0.0005728687467901723,-0.001336011718636349,0.0007738143738971586,-0.0005878464237776982,0.0007903255630591014,0.000633914244677319,0.00013847043478864123,0.2411382496356964,-23.63736343383789,19.628707885742188,17.89893341064453,0.8769632577896118,2.3476455211639404,-0.10706938803195953,0,0,0,0.000,0,0
1739400823.297303,-0.7079356060204737,0.6782168785831579,1.4205349243100747,-1.879072176811395,-0.7121005357246538,1.9474150161246528,0.1877671603062506,0.00019570061557726295,0.00045376041472295893,0.0013197577543591645,-0.0003414891512050032,0.0004947682718985733,-0.0008371690586795526,-6.569800218733809e-05,0.2689092457294464,-23.66513442993164,19.604904174804688,17.87512969970703,0.8769632577896118,2.3732802867889404,-0.06678618490695953,0,0,0,0.000,0,0
1739400823.3083372,-0.707933420516831,0.6782168525869365,1.4205282724461807,-1.8790754773648486,-0.7121008889373636,1.9474171778600482,0.18777192394335232,0.00030678741270235654,-0.00010869329991774132,-0.0007788278838529951,0.00023532749812196516,-0.0003926682872727843,0.00025076344087937585,-1.6456451841681454e-05,0.2689092457294464,-23.66513442993164,19.656478881835938,17.92273712158203,0.8769632577896118,2.3540542125701904,-0.10706938803195953,0,0,0,0.000,0,0
1739400823.3193295,-0.707935606115133,0.6782094841549545,1.420530308831815,-1.8790722299370934,-0.7121001312792792,1.947413969728672,0.1877664033087405,0.0004764941735587391,-0.002334062074708391,-0.000233270345574623,0.00048521080553579423,0.00012047481000997427,0.0004965819086496573,-0.0006158142901045564,0.2689092457294464,-23.56198501586914,19.628707885742188,17.87512969970703,0.8705545663833618,2.3540542125701904,-0.06037749722599983,0,0,0,0.000,0,0
1739400823.3294144,-0.7079318955588901,0.678218589824527,1.4205324266909323,-1.879071911905685,-0.7121008887778519,1.9474116921139595,0.1877686851835784,0.0015116687286312511,0.0009059104960147527,-0.00025889787069533594,0.0009096361318061169,-0.000605340300847321,-0.0008607465030461461,-0.0006814250863286644,0.2173345386981964,-23.68893814086914,19.628707885742188,17.87512969970703,0.8769632577896118,2.3732802867889404,-0.10706938803195953,0,0,0,0.000,0,0
1739400823.3403702,-0.7079352581495602,0.6782145385174412,1.4205348586579727,-1.8790719207669555,-0.7121033101936662,1.9474146484547858,0.18777413498623963,0.00040987072746173853,-0.00020375229727669122,0.0006924799804018376,0.0010288911293012853,-0.001476656355562288,-0.00021357245506007305,0.0005974072819106063,0.2689092457294464,-23.66513442993164,19.577133178710938,17.87512969970703,0.8705545663833618,2.3732802867889404,-0.12721098959445953,0,0,0,0.000,0,0
1739400823.3514032,-0.7079365434275151,0.6782168785741067,1.42054020772812,-1.8790698703752036,-0.7121016466173808,1.9474157922671755,0.18777430321112176,0.00039151834170277565,-0.0010525698486814619,0.001528069423107335,0.0015172888142943406,-8.172793033777451e-05,0.0006097119214613507,0.0017540607289593334,0.2927129566669464,-23.66513442993164,19.529525756835938,17.84735870361328,0.8833719491958618,2.3668715953826904,-0.12721098959445953,0,0,0,0.000,0,0
1739400823.3623705,-0.7079356840172373,0.6782148796834863,1.4205320754244695,-1.879072150755159,-0.7121052457139616,1.9474171824388358,0.1877726811173956,-0.00011821210267155008,6.504850985327186e-05,-0.0008375733466257005,-0.0003368638139123059,-0.0013915733351709929,0.001765311412416257,0.0006944062392843072,0.2689092457294464,-23.63736343383789,19.604904174804688,17.87512969970703,0.8769632577896118,2.3540542125701904,-0.11347807943820953,0,0,0,0.000,0,0
1739400823.3723729,-0.7079356060217936,0.6782185911080314,1.420537360678437,-1.8790722681695093,-0.712099508873156,1.9474156669469787,0.1877645195363875,0.00037178461691813474,0.000841350154318778,0.0008224468445919073,0.001222455393179666,-0.0002797797575299222,-0.0010876734767744467,-0.0012501130041812165,0.2689092457294464,-23.68893814086914,19.577133178710938,17.87512969970703,0.8641458749771118,2.3668715953826904,-0.08051909506320953,0,0,0,0.000,0,0
1739400823.3833215,-0.7079335811337591,0.6782148806464634,1.4205363729363287,-1.8790728961011818,-0.7121033101405955,1.9474156686441995,0.18776802657016878,0.0014256592538841079,-0.0016021719908213237,0.00028419496929795693,0.000716475307127122,-0.0010903618798982894,0.0003346916983759043,-0.0020415692525453813,0.2411382496356964,-23.63736343383789,19.577133178710938,17.87512969970703,0.8705545663833618,2.3668715953826904,-0.07411040365695953,0,0,0,0.000,0,0
1739400823.3933861,-0.7079356008780825,0.6782196529282224,1.4205320676716264,-1.8790737299152565,-0.7121001313331135,1.9474109329820866,0.18777268111739795,-2.6641779075771877e-05,0.0003676123246508934,-0.00047132421121512906,-1.1180828318126178e-05,0.0014825264727291027,-0.00013968771027894871,0.0010915021134565942,0.2689092457294464,-23.71670913696289,19.604904174804688,17.89893341064453,0.8705545663833618,2.3796889781951904,-0.11347807943820953,0,0,0,0.000,0,0
1739400823.4043183,-0.7079351343215026,0.6782131581696852,1.4205303206051925,-1.8790765556004665,-0.7121016866363566,1.9474173075141081,0.18777069190352821,3.4332288607822004e-05,-0.0017658415655660575,-5.3231903411126715e-05,-8.172346469206875e-05,0.001756467765506565,0.0011824827745128995,-0.0008590935712098306,0.2927129566669464,-23.61355972290039,19.628707885742188,17.89893341064453,0.8568216562271118,2.3540542125701904,-0.10066069662570953,0,0,0,0.000,0,0
1739400823.4154007,-0.7079336080426298,0.6782128561210035,1.4205351778461657,-1.8790762191584953,-0.712100890769754,1.9474157373251548,0.1877724208406077,0.0012348010707914985,-0.0016125017989665061,0.0015299904172887463,0.0002604533485750308,0.00035397330547876234,-0.0006162480787968013,0.0008106366441460288,0.2411382496356964,-23.61355972290039,19.577133178710938,17.92273712158203,0.8769632577896118,2.3668715953826904,-0.14735259115695953,0,0,0,0.000,0,0
1739400823.4263296,-0.7079378247314568,0.6782148806458763,1.4205282364566099,-1.8790719943301069,-0.7121001308127108,1.9474173014656553,0.18776934163353184,-0.0008778419860205717,-0.000994587672774791,-0.001150268027926067,0.0003948700306264107,0.0006735638380958134,0.0010542901054039118,-0.001767757216766166,0.2689092457294464,-23.63736343383789,19.656478881835938,17.87512969970703,0.8705545663833618,2.3540542125701904,-0.09425200521945953,0,0,0,0.000,0,0
1739400823.436338,-0.7079377121958262,0.6782148806464634,1.4205266568755506,-1.879079761856113,-0.7120982006041444,1.9474143067409002,0.18777506280276246,-0.00040880081105568075,-0.0004306347375909734,-0.002033276181269106,-0.002664581598574068,0.0006501750607256769,-0.000466643036276131,0.0008745028353125642,0.2689092457294464,-23.63736343383789,19.680282592773438,17.94654083251953,0.8641458749771118,2.3668715953826904,-0.13361968100070953,0,0,0,0.000,0,0
1739400823.44739,-0.707935606068028,0.6782131681257323,1.4205341433914682,-1.8790774984003973,-0.7121002509482943,1.9474146036959208,0.18777354685212388,2.8362274530454505e-05,-0.0003097430199224534,0.00031333150384083757,-0.0006559025430574937,0.0002003449427629701,-0.0020085381140799016,0.0013926725276755846,0.2689092457294464,-23.61355972290039,19.577133178710938,17.94654083251953,0.8705545663833618,2.3732802867889404,-0.12080229818820953,0,0,0,0.000,0,0
1739400823.4582937,-0.7079318993354277,0.6782131681257323,1.4205282011333924,-1.879071911901645,-0.7120985069315799,1.9474149109823962,0.18777040813716792,0.0010317264434888788,-0.0017161187599126868,-0.0012234466690288228,0.0007194290371793572,0.0006087002871709879,2.7209608738649864e-05,0.0014744088121050605,0.2173345386981964,-23.61355972290039,19.656478881835938,17.87512969970703,0.8833719491958618,2.3732802867889404,-0.09425200521945953,0,0,0,0.000,0,0
1739400823.4683707,-0.7079336080796838,0.6782100481891455,1.420534222862982,-1.8790707857847597,-0.7121024042063436,1.9474165361912903,0.18776952907622202,0.0011417617313694954,-0.0029769113213717743,0.0012101258338813965,0.0001910164231619726,0.00011555084227897862,0.0010836379648097268,-0.00031842540464371795,0.2411382496356964,-23.61355972290039,19.577133178710938,17.84735870361328,0.8897806406021118,2.3604629039764404,-0.08692778646945953,0,0,0,0.000,0,0
1739400823.4784026,-0.7079365420341537,0.6782185130540712,1.4205319837290267,-1.8790738006662975,-0.7121015446146342,1.9474131706913633,0.18777354701441332,-0.00037874186061817653,0.0011790320615144528,0.00022995493995346336,0.0009686201827043317,-0.0013002707564753787,-0.00111933094136501,0.0005659215875375404,0.2689092457294464,-23.68893814086914,19.604904174804688,17.89893341064453,0.8705545663833618,2.3604629039764404,-0.12080229818820953,0,0,0,0.000,0,0
1739400823.489398,-0.7079356060614224,0.6782145686414626,1.4205341522199892,-1.8790758069201317,-0.7121019138617648,1.947414665668086,0.1877687825755065,-0.0003652456925110297,0.0005349474148783065,0.00025993476478968375,0.00024074293382627928,0.00021235015705241316,-0.0011149589945830065,-0.0018363604050751015,0.2689092457294464,-23.63736343383789,19.577133178710938,17.92273712158203,0.8769632577896118,2.3668715953826904,-0.08051909506320953,0,0,0,0.000,0,0
1739400823.5003395,-0.7079356055763326,0.6782185911062865,1.4205320636366556,-1.879075487067662,-0.7121033101456177,1.947416177523501,0.1877719190694094,-0.0004143258045822348,0.0011461354307971373,-0.0011429084658998517,-0.0004192245130997013,-0.0011472571346141582,0.0003622596525538377,0.0011149850535566515,0.2689092457294464,-23.68893814086914,19.604904174804688,17.92273712158203,0.8705545663833618,2.3604629039764404,-0.10706938803195953,0,0,0,0.000,0,0
1739400823.5104432,-0.7079314307986234,0.6782148806464634,1.4205349285478024,-1.8790707989758944,-0.7121015954186114,1.9474111586355745,0.18776680348948893,0.0012622345056315359,0.00013636117698620167,-0.00011990416475036797,-0.00015311996253147343,0.0004796435649607721,-0.0024657324607482494,-0.0002528074213605917,0.2411382496356964,-23.63736343383789,19.604904174804688,17.84735870361328,0.8769632577896118,2.3668715953826904,-0.06678618490695953,0,0,0,0.000,0,0
1739400823.5213962,-0.7079376310943847,0.6782168005861764,1.4205348596431788,-1.8790709020378986,-0.7120990216486885,1.9474123580067348,0.18776838123426096,7.338077869283177e-05,-0.0006419097448285442,-0.0006871058925261254,5.831815090242198e-05,0.0012148641395406702,-0.0009028245260327701,-0.0005865919074734658,0.2689092457294464,-23.66513442993164,19.577133178710938,17.84735870361328,0.8641458749771118,2.3540542125701904,-0.07411040365695953,0,0,0,0.000,0,0
1739400823.532304,-0.7079336081267172,0.678213168125292,1.420539025512713,-1.8790719383972918,-0.7121009281832272,1.9474141510357315,0.18777144940309168,0.0006662449019562825,-0.0001136778825933263,0.0008970501945899666,0.0001715210884794402,-0.00015099379464044533,-0.00039904199602144115,-0.0006528637564198378,0.2411382496356964,-23.61355972290039,19.553329467773438,17.87512969970703,0.8769632577896118,2.3796889781951904,-0.10706938803195953,0,0,0,0.000,0,0
1739400823.5423117,-0.7079401265822475,0.6782186702599151,1.4205332332453031,-1.8790722562831397,-0.7121008903935723,1.947417529371934,0.18777430466668643,-0.001364135928212991,0.0004977246474102827,0.0006819235318724803,0.0009809955502713935,-6.995848362422819e-05,0.0007967443067763084,0.0017039659264229865,0.2927129566669464,-23.68893814086914,19.628707885742188,17.87512969970703,0.8769632577896118,2.3476455211639404,-0.12721098959445953,0,0,0,0.000,0,0
1739400823.5533602,-0.7079356060680272,0.678216878588657,1.420530360773154,-1.8790737064659233,-0.7121008889393822,1.9474173055454664,0.18776866610642823,-0.00036932915499165764,0.0008835957729756553,-0.0013332098263144846,-5.027443463289787e-05,-0.0005966649649823434,-0.0007427069411786323,0.00017543567002636712,0.2689092457294464,-23.66513442993164,19.628707885742188,17.89893341064453,0.8769632577896118,2.3540542125701904,-0.08051909506320953,0,0,0,0.000,0,0
1739400823.5634477,-0.7079340102564642,0.6782185911080478,1.4205321430735773,-1.879075024205814,-0.7121000920334225,1.9474164202000628,0.187764218116294,0.0012982356585072782,0.0018013689638529285,9.612709610639823e-06,-0.0007792181240250372,0.0013919768260584149,0.00013222333601978803,-0.003768228622718488,0.2173345386981964,-23.68893814086914,19.604904174804688,17.87512969970703,0.8705545663833618,2.3604629039764404,-0.05396880581974983,0,0,0,0.000,0,0
1739400823.5744278,-0.7079336080915574,0.6782131681990828,1.420532093035108,-1.8790726626402312,-0.7121001312790576,1.9474144942673914,0.18777430466665582,0.0003691075872905687,-0.0010642575145123085,0.0006893912529822358,0.0006952209913550793,0.0005178427255545652,-0.002011091491840099,0.0017092175976762055,0.2411382496356964,-23.61355972290039,19.604904174804688,17.87512969970703,0.8705545663833618,2.3732802867889404,-0.12721098959445953,0,0,0,0.000,0,0
1739400823.5853052,-0.7079357141104019,0.6782147725565348,1.4205302819045602,-1.879072150323116,-0.7121001313331143,1.9474133817015644,0.18777248221186116,-0.0006696534510767444,-0.0009142503036796081,0.0001869712230844581,0.0016080128758193947,0.0003838938607257358,-0.001186899714752096,0.0002875196617184181,0.2411382496356964,-23.66513442993164,19.628707885742188,17.87512969970703,0.8705545663833618,2.3732802867889404,-0.12080229818820953,0,0,0,0.000,0,0
1739400823.5963292,-0.7079336081152856,0.6782185910723819,1.4205309876757328,-1.879074660465494,-0.7120993736192017,1.9474165476968903,0.18776796699661172,0.0012047193024991474,0.00036719325108775067,-0.000837396495200819,2.5188298398445713e-05,0.0007019803086574807,0.0013978124530749367,-0.0004859193274105956,0.2411382496356964,-23.68893814086914,19.628707885742188,17.89893341064453,0.8641458749771118,2.3604629039764404,-0.10066069662570953,0,0,0,0.000,0,0
1739400823.6063445,-0.7079356089094041,0.6782131681257322,1.420526418460363,-1.879074812501606,-0.7120993692585501,1.9474147268807278,0.18776912250854957,0.00026484401717745794,-0.0011098669627828141,-0.0012461021996123967,-0.00025041951184811195,0.0006119164309826819,0.0004015596176779853,-0.0001227771466511678,0.2689092457294464,-23.61355972290039,19.680282592773438,17.87512969970703,0.8641458749771118,2.3476455211639404,-0.11347807943820953,0,0,0,0.000,0,0
1739400823.6173108,-0.7079373185412202,0.6782141500191335,1.4205263929465664,-1.8790747733030095,-0.7121008889393329,1.9474180650046373,0.1877726412296445,-0.00045619739633627173,-0.00011347843543267611,-0.0015137742521930822,0.00022557423814390085,-0.00014322863600295074,0.001869687714696628,-0.00024561220944625806,0.2927129566669464,-23.66513442993164,19.680282592773438,17.87512969970703,0.8769632577896118,2.3476455211639404,-0.08051909506320953,0,0,0,0.000,0,0
1739400823.6273375,-0.7079371017078461,0.6782131677585315,1.4205302809228157,-1.8790719238315303,-0.7121019998121456,1.9474172648551304,0.1877710473891301,-0.0003230456300108124,-0.0006924334903395224,-0.0003411076000952493,0.0004441159800199191,-0.0008620134568472608,0.00046521940199271804,-7.786937174852073e-05,0.2927129566669464,-23.61355972290039,19.628707885742188,17.87512969970703,0.8833719491958618,2.3540542125701904,-0.10066069662570953,0,0,0,0.000,0,0
1739400823.637409,-0.7079413710851211,0.6782149159677158,1.4205314543083425,-1.8790698674323205,-0.7120993721835956,1.9474161790539173,0.1877711657912314,-0.002154715227557293,-3.39575200330464e-05,-0.0005800593474166172,0.001388810128962412,-0.00011089033563554832,0.0006108340490959133,-0.001145213657306461,0.3165166676044464,-23.63736343383789,19.604904174804688,17.84735870361328,0.8641458749771118,2.3604629039764404,-0.10066069662570953,0,0,0,0.000,0,0
1739400823.6484458,-0.707937318520484,0.6782168786237217,1.4205341434253147,-1.8790764310377361,-0.7121040678537428,1.947416549928736,0.1877687840923131,-0.0011538056427558045,0.0004704875867026535,0.001701825356686864,-0.0013663857475762137,-0.0013343072465893807,0.0010053661165588346,4.2336418812281536e-05,0.2927129566669464,-23.66513442993164,19.577133178710938,17.92273712158203,0.8769632577896118,2.3604629039764404,-0.08051909506320953,0,0,0,0.000,0,0
1739400823.6593044,-0.7079373532083773,0.6782090641540974,1.4205320649084623,-1.8790765569138463,-0.7121019487569374,1.9474157002455748,0.1877719628258227,-0.000536105927053081,-0.0025249279729563662,-0.00016421393252434536,-0.0003853374825877284,-0.0002660239357730836,-0.0001480421355037813,-0.0008344036061679828,0.2927129566669464,-23.58578872680664,19.604904174804688,17.89893341064453,0.8769632577896118,2.3540542125701904,-0.10706938803195953,0,0,0,0.000,0,0
1739400823.6693256,-0.7079390383968945,0.6782185910723819,1.4205359260671637,-1.8790712068315485,-0.7121001443791795,1.947411600345593,0.1877783138243589,-0.0004940411385874427,0.0009532560946145362,-6.175020097098135e-05,0.00023326087550069836,-0.00033032540258110427,-0.001777519356476464,0.004078161525042086,0.3165166676044464,-23.68893814086914,19.553329467773438,17.87512969970703,0.8705545663833618,2.3604629039764404,-0.16108550131320953,0,0,0,0.000,0,0
1739400823.6812906,-0.7079389260604677,0.6782161765770557,1.4205341467696266,-1.879074409829075,-0.7121019485775607,1.947414679621379,0.18777490372018468,-0.000778752486343819,0.0010575396877124579,-5.339728464301836e-05,-0.0005348901341929737,-0.0005398218789878611,-0.000302609754471586,0.0015949247908255701,0.3165166676044464,-23.66513442993164,19.577133178710938,17.89893341064453,0.8769632577896118,2.3668715953826904,-0.13361968100070953,0,0,0,0.000,0,0
1739400823.6913102,-0.7079336084000194,0.6782131681217695,1.4205313525222305,-1.8790721503229155,-0.7121001315006016,1.9474172524129238,0.18777105491046492,0.0012272726119567977,-0.0008673368878417103,-0.0004171974688918393,-0.00019547702785804955,0.0008967913357518705,0.000836149320044578,-0.00013665989905628018,0.2411382496356964,-23.61355972290039,19.628707885742188,17.87512969970703,0.8705545663833618,2.3540542125701904,-0.12721098959445953,0,0,0,0.000,0,0
1739400823.7013876,-0.7079357150733843,0.6782168785873165,1.4205331772856156,-1.8790744098370928,-0.7120997268319144,1.9474143041963565,0.18777045602304723,0.0008397678640412684,0.0008725762949846516,-0.0007648277834078486,-4.114685299767807e-05,-0.00025319192632869663,-0.0002459148696756893,0.0004904727830711216,0.2411382496356964,-23.66513442993164,19.628707885742188,17.89893341064453,0.8641458749771118,2.3668715953826904,-0.09425200521945953,0,0,0,0.000,0,0
1739400823.7123406,-0.7079348776619384,0.6782207368752596,1.4205350972225053,-1.879071914855851,-0.7121013446273665,1.9474139158591295,0.1877693418771121,0.0005370802116110902,0.0014675872415244235,0.00046108355157021034,0.00024162566615558111,-0.00031892891383597836,-0.0005397347373948765,-0.0007318513267710257,0.2689092457294464,-23.68893814086914,19.577133178710938,17.87512969970703,0.8897806406021118,2.3732802867889404,-0.09425200521945953,0,0,0,0.000,0,0
1739400823.7223666,-0.7079356060163612,0.6782157827944644,1.4205341556053288,-1.8790698324375088,-0.7121051289394434,1.947416488874008,0.18777842608626025,0.0001571148186043927,6.298546670930867e-05,-0.0014862092287235254,0.0005755748881733252,-0.0011881917461107677,0.0005769139344861199,0.0025121072023845874,0.2689092457294464,-23.68893814086914,19.577133178710938,17.84735870361328,0.8769632577896118,2.3604629039764404,-0.16108550131320953,0,0,0,0.000,0,0
