IITGN-Robotics/Franka_IITGN_ROBOTICS/franka_ros/franka_iitgn/data/b_11.csv
time,fr3_joint1_pos,fr3_joint2_pos,fr3_joint3_pos,fr3_joint4_pos,fr3_joint5_pos,fr3_joint6_pos,fr3_joint7_pos,fr3_joint1_vel,fr3_joint2_vel,fr3_joint3_vel,fr3_joint4_vel,fr3_joint5_vel,fr3_joint6_vel,fr3_joint7_vel,fr3_joint1_eff,fr3_joint2_eff,fr3_joint3_eff,fr3_joint4_eff,fr3_joint5_eff,fr3_joint6_eff,fr3_joint7_eff,flexpin1,flexpin2,flexpin3,Force,ContactMic,ContactMic_gt
1739400920.6290672,-0.7078338718536583,0.6778959945700412,1.4202739272814384,-1.879079382349111,-0.7117856262740871,1.9476077151889428,0.18758784818238794,-0.0005610587716712266,0.00055741488114331,-0.0011022619786174984,0.0012737348998179362,0.0013234857212249171,3.866105691188405e-05,-0.0010039191203936768,0.3165166676044464,-23.63736343383789,19.553329467773438,17.87512969970703,0.9227396249771118,2.3604629039764404,-0.08692778646945953,,,,,,,,,
1739400920.639965,-0.7078257721175221,0.6779102010137362,1.420257627355194,-1.87908156784864,-0.7117837495834474,1.9476046324441703,0.18759616239711213,4.5489062520706234e-05,0.002185128836977845,-0.002419457479826835,-7.145653499498011e-05,0.00023170757787473124,0.0011365946488938131,0.0008735343308510293,0.1935308277606964,-23.53818130493164,19.450180053710938,17.87512969970703,0.8705545663833618,2.3476455211639404,-0.12080229818820953,,,,,,,,,
1739400920.6500332,-0.7078307024598808,0.6779240416792183,1.4202461271427422,-1.8790858190281352,-0.7117831535087981,1.947601438316359,0.18759809423730542,-0.0005511893258819926,0.0021519071391579987,-0.0014028362987813766,-0.0010847048343376456,-0.00019714409197421102,-0.00016292493279498416,0.0013122837967767806,0.1935308277606964,-23.51041030883789,19.426376342773438,17.92273712158203,0.8641458749771118,2.3403213024139404,-0.10706938803195953,,,,,,,,,
1739400920.6600397,-0.7078299969451171,0.6779393262603711,1.4202255664264183,-1.8790846578053295,-0.7117856642115317,1.9475953638697785,0.18759505548205058,-0.0007642134013597569,0.002113615083576846,-0.0018461257908746868,0.0009578113463483248,0.0006346401862737416,0.00018585139456144066,-0.00018550163601191373,0.1935308277606964,-23.51041030883789,19.477951049804688,17.87512969970703,0.8568216562271118,2.3604629039764404,-0.06037749722599983,,,,,,,,,
1739400920.6710017,-0.7078344854443407,0.6779500892185572,1.4202039425984874,-1.8790928763482695,-0.7117853399989738,1.9475928195391985,0.18759359301784362,-0.0002882872371319798,-0.0002632048787389386,-0.0007710367934881901,-0.0008081284876594241,-0.0009114817068960905,0.0014445130546715524,-0.0023171796961462174,0.2411382496356964,-23.51041030883789,19.553329467773438,17.94654083251953,0.8440042734146118,2.3668715953826904,-0.05396880581974983,,,,,,,,,
1739400920.6825185,-0.7078318154357243,0.6779654587087399,1.420194074053813,-1.8790874036617669,-0.7117885181423362,1.9475896900626564,0.18760337268507024,0.0013144047408725128,0.0025357465470056384,0.00020372809030725557,0.0011921640100780043,-0.0001274820492697583,0.0006516181097324832,0.0003239882728669416,0.2173345386981964,-23.56198501586914,19.553329467773438,17.89893341064453,0.8705545663833618,2.3540542125701904,-0.10066069662570953,,,,,,,,,
1739400920.6930115,-0.707837878120098,0.6779832109147617,1.420184748763998,-1.879088236905337,-0.7117861369790038,1.947585732379517,0.18760099961747623,-0.000613122739498013,0.0030236172083231935,-0.00045560553108284837,-0.0017352416261941636,0.0004699785816104676,-0.0007957859089074092,-0.0009849557246059102,0.2927129566669464,-23.68893814086914,19.553329467773438,17.92273712158203,0.8504129648208618,2.3476455211639404,-0.08051909506320953,,,,,,,,,
1739400920.7030118,-0.7078399086413063,0.6779895808859301,1.4201811871903922,-1.87908261693889,-0.7117914579865839,1.9475870568563518,0.18760233479345234,-0.0017821390814464677,0.0016186268042241406,0.0006199005828660873,-0.000677061204125915,-0.002153974962357534,-0.0007695315530839545,-0.0003312598201763606,0.3165166676044464,-23.66513442993164,19.553329467773438,17.84735870361328,0.8641458749771118,2.3668715953826904,-0.06037749722599983,,,,,,,,,
1739400920.7149975,-0.7078421449334452,0.6780022125907655,1.4201601810455742,-1.8790825875045916,-0.7117881181850559,1.94758785378193,0.1876026546829031,-0.0003323543847860297,0.0009435041576650285,-0.0017349300877041313,0.0001902690727693246,2.668855041142214e-05,-0.0004209963354464823,-0.0004183800921639456,0.3442876636981964,-23.71670913696289,19.680282592773438,17.84735870361328,0.8641458749771118,2.3604629039764404,-0.05396880581974983,,,,,,,,,
1739400920.7259963,-0.7078419987067386,0.6780112436260086,1.4201483802771673,-1.87908800211525,-0.7117877620087076,1.9475835198900435,0.18760819591035902,0.0003338715223053729,-0.00010987842515034046,-0.00037957020315282624,7.294026619946109e-05,-0.00016611694831332737,-0.000709545106279474,0.0015136280634744947,0.3442876636981964,-23.74051284790039,19.731857299804688,17.92273712158203,0.8641458749771118,2.3668715953826904,-0.10066069662570953,,,,,,,,,
1739400920.7360053,-0.7078431270265291,0.6780156891275411,1.420144745124739,-1.8790882444181718,-0.7117861369790291,1.9475826826027804,0.18761055811381994,0.0007050551557034628,-0.00039880132923874516,-0.0005086651314300228,-0.0002156837826679686,0.0011834299311845686,-0.0013006916381376231,0.0005547835436947521,0.3165166676044464,-23.71670913696289,19.656478881835938,17.92273712158203,0.8504129648208618,2.3732802867889404,-0.12080229818820953,,,,,,,,,
1739400920.7479942,-0.7078431531888707,0.6780182694333446,1.4201380402110362,-1.8790846674033637,-0.7117869343755124,1.947587234635837,0.18759871053239036,0.00024021070713596272,1.4682820643142002e-06,3.163805096994968e-06,0.00016276536779281372,-0.0002311677405268755,0.0011936161822409873,-0.003486138532037976,0.3165166676044464,-23.71670913696289,19.704086303710938,17.87512969970703,0.8568216562271118,2.3732802867889404,-0.020094294100999832,,,,,,,,,
1739400920.7589276,-0.7078434392288645,0.6780194292272026,1.4201383867747315,-1.879087168170477,-0.7117874966271412,1.947584158216463,0.1876107999729583,-0.00010725490259466585,0.00018089709150594314,-0.00027771397294694357,-0.0001542942873841828,0.0012655295764408734,-0.00025234240097370803,0.0012692715643427698,0.3165166676044464,-23.68893814086914,19.656478881835938,17.89893341064453,0.8568216562271118,2.3604629039764404,-0.11347807943820953,,,,,,,,,
1739400920.7690432,-0.707843232190416,0.6780177230923274,1.4201415334952947,-1.8790882298179503,-0.7117870536427083,1.9475823408923347,0.18761203970604368,-0.0003471152228794002,0.00012269651005282505,-0.0005191597980463869,-0.00014353959910860098,8.895653976587217e-05,-0.0006287249438077895,0.0017331433803289072,0.3165166676044464,-23.66513442993164,19.604904174804688,17.92273712158203,0.8568216562271118,2.3668715953826904,-0.09425200521945953,,,,,,,,,
1739400920.7809727,-0.7078375911902466,0.6780145108347736,1.420139783192067,-1.8790900156523709,-0.7117881181650813,1.9475833956793147,0.18760896548392622,0.0002131819014519044,-0.0009456799177196826,-0.001268297879388966,-0.00012520108110379482,-0.0005732765205289874,-0.00023021933986251794,-0.0005769510757271704,0.2689092457294464,-23.63736343383789,19.628707885742188,17.94654083251953,0.8641458749771118,2.3668715953826904,-0.09425200521945953,,,,,,,,,
1739400920.7910094,-0.7078359125923198,0.6780187729962912,1.4201446469008725,-1.8790911065351898,-0.7117912039996851,1.9475830473177267,0.18761355502867566,0.0013032263294503379,0.00034737916591405754,-0.0004023937969789945,-0.0005906483575805194,-0.0006479637160729304,-2.109098023156549e-05,0.0011657300752533812,0.2173345386981964,-23.66513442993164,19.577133178710938,17.92273712158203,0.8568216562271118,2.3668715953826904,-0.10706938803195953,,,,,,,,,
1739400920.8019671,-0.7078377042048366,0.6780120785160596,1.4201531648507135,-1.879088562689233,-0.7117904704486545,1.9475856328053103,0.18760881167767116,5.476539453903891e-05,-0.0010115739665799647,0.0016646815278466348,0.0005615897228923065,-0.001548755249666593,0.0005561280930641456,-0.00040988552022591424,0.2411382496356964,-23.61355972290039,19.501754760742188,17.92273712158203,0.8504129648208618,2.3476455211639404,-0.06678618490695953,,,,,,,,,
1739400920.811991,-0.7078414146677603,0.6780135762785295,1.4201539069800784,-1.879084667732209,-0.7117878798245753,1.9475849098208489,0.18761281103731853,-0.0015343993819070425,0.001219415937472765,0.0012649831244306786,0.001805285640975289,0.0005758813584886943,-0.0010382384360299699,0.0011427582365874215,0.2927129566669464,-23.63736343383789,19.477951049804688,17.87512969970703,0.8641458749771118,2.3540542125701904,-0.10066069662570953,,,,,,,,,
1739400920.8239768,-0.7078377042418419,0.6780103091152633,1.420153880113205,-1.8790805252006801,-0.7117901329135021,1.9475872970679755,0.18760501385214662,-0.00018907738568977247,-0.0011575015754422026,-0.00016011587978460737,0.00232734356132888,-0.0011494246544822154,0.00021840059977393082,-0.0019733019614464452,0.2411382496356964,-23.56198501586914,19.501754760742188,17.82355499267578,0.8568216562271118,2.3339126110076904,-0.06037749722599983,,,,,,,,,
1739400920.8349426,-0.7078377042061763,0.678014359875897,1.4201511130220272,-1.8790808087504134,-0.7117883258229349,1.947585673510699,0.18760668413374723,0.0006558322992981757,0.0015623170090887043,-0.0009984530377337064,0.00018962619326694295,0.0008287552981457385,0.0008834244595599734,-0.0019197434049493178,0.2411382496356964,-23.61355972290039,19.529525756835938,17.82355499267578,0.8568216562271118,2.3476455211639404,-0.04756011441349983,,,,,,,,,
1739400920.8450103,-0.7078414643223311,0.6780118236786326,1.4201475388337914,-1.87908456525512,-0.7117893710253532,1.9475849158506204,0.18760774168174482,9.474867145519209e-05,0.0014453556415737572,-0.0016392967215303686,-0.0007973906438938766,-0.0007835215036890521,-0.0008977530129793354,-0.0020372405988666187,0.2689092457294464,-23.61355972290039,19.577133178710938,17.87512969970703,0.8504129648208618,2.3540542125701904,-0.06678618490695953,,,,,,,,,
1739400920.8550322,-0.7078378092005159,0.678015776931004,1.4201454678741041,-1.879088232646591,-0.7117873827626726,1.9475833874485116,0.18760837446314643,0.0005033012817403458,0.0021762450665000132,8.677540045030408e-05,-0.0013989742341396752,0.00035772397336539046,3.243876043373382e-05,0.0010387489154958772,0.2411382496356964,-23.66513442993164,19.604904174804688,17.92273712158203,0.8504129648208618,2.3668715953826904,-0.06037749722599983,,,,,,,,,
1739400920.8670032,-0.7078377042063737,0.678016532216655,1.4201452029162698,-1.879086476462253,-0.7117952033374835,1.9475806753600116,0.18761139088150702,0.0010219896605747744,0.00045849559095371403,0.00030619012119741237,-0.0006167766119442537,-0.0024328463737068595,-0.0005873256837880066,-0.0011360136123539813,0.2411382496356964,-23.63736343383789,19.604904174804688,17.89893341064453,0.8504129648208618,2.3540542125701904,-0.08692778646945953,,,,,,,,,
1739400920.8779275,-0.7078414150244184,0.6780165867268146,1.4201415961031618,-1.8790864502984983,-0.7117892504583276,1.9475795664013775,0.18761467175176372,-0.0004660792042121373,0.00011864465209833537,0.00028020183898433003,0.0001502904053459895,-8.868303331212822e-05,-0.0016384471460227136,0.0012757458047333516,0.2927129566669464,-23.66513442993164,19.656478881835938,17.89893341064453,0.8641458749771118,2.3604629039764404,-0.08692778646945953,,,,,,,,,
1739400920.8889942,-0.7078414159517318,0.6780197919923014,1.4201390768476574,-1.8790903685380498,-0.7117917224329415,1.947583400504543,0.18761270313552073,0.00017282911731378824,-0.00031612313771667115,-0.0005267650709753008,-0.0024611123948213463,0.00014367621798017235,-2.122166764101049e-05,0.00023392700063590538,0.2927129566669464,-23.68893814086914,19.656478881835938,17.94654083251953,0.8568216562271118,2.3668715953826904,-0.09425200521945953,,,,,,,,,
1739400920.8999276,-0.7078397020016766,0.6780187753766646,1.4201383867699728,-1.8790882329760326,-0.7117873884585116,1.9475822896576758,0.1876149708676287,0.0006505965675614156,-0.00013171516646558407,0.00030512660604354767,0.0006531949796504161,0.0013516587754105994,-0.0005274110780460218,0.0008979916954286565,0.2689092457294464,-23.66513442993164,19.656478881835938,17.92273712158203,0.8504129648208618,2.3732802867889404,-0.10706938803195953,,,,,,,,,
1739400920.9099357,-0.707837704527166,0.6780186478404961,1.4201383867565616,-1.8790905814468257,-0.7117900329175711,1.9475826428644039,0.1876185456428967,0.001236843054560862,-0.0002547223856658715,0.0009265744087068448,-0.0009784843173962386,0.0004396651532700502,0.0004689468515581316,0.0016793964541185757,0.2411382496356964,-23.66513442993164,19.656478881835938,17.94654083251953,0.8440042734146118,2.3732802867889404,-0.12080229818820953,,,,,,,,,
1739400920.9200442,-0.707837783491291,0.6780205248706732,1.4201395086204658,-1.8790902576780901,-0.7117916696304498,1.9475819871951079,0.18761664287493166,0.0007570193017323868,0.00017290159446580226,-1.917251844018298e-05,0.00022549340715802217,-0.0006556906365989287,-0.0004268722634598914,0.0014248263227077964,0.2411382496356964,-23.68893814086914,19.628707885742188,17.94654083251953,0.8568216562271118,2.3668715953826904,-0.10066069662570953,,,,,,,,,
1739400920.9319623,-0.7078377042066236,0.6780176118315805,1.4201429049713663,-1.879093221713194,-0.7117909644643586,1.9475848765967856,0.18762012059864508,0.00074089548364619,-0.0010393620878414954,-0.00018270045689365003,-0.0008763313174158374,0.0011769882677705884,-0.00015162369456225584,0.002804700945046713,0.2411382496356964,-23.68893814086914,19.553329467773438,17.94654083251953,0.8504129648208618,2.3540542125701904,-0.12080229818820953,,,,,,,,,
1739400920.9429767,-0.7078397018556462,0.6780168227291187,1.4201443249615873,-1.879089265849934,-0.7117902072951499,1.94758554263712,0.187614649080654,-0.0004626277181585147,-0.0009133829338165862,0.0004808531200408906,0.00034689311911422567,-0.0013355514307913444,0.0005180126682753361,-0.0002999861651509253,0.2689092457294464,-23.63736343383789,19.577133178710938,17.92273712158203,0.8440042734146118,2.3476455211639404,-0.11347807943820953,,,,,,,,,
1739400920.954996,-0.7078400529071712,0.6780169188414004,1.4201436093968955,-1.8790867982802217,-0.7117902072951526,1.9475853202439077,0.18761107623758874,-0.000184951989548228,-0.0001430440435357999,0.001085889677380696,-9.832800204611231e-05,-0.0006987792235267539,0.00025824433170214625,-0.002180263768290372,0.2411382496356964,-23.63736343383789,19.577133178710938,17.89893341064453,0.8440042734146118,2.3476455211639404,-0.07411040365695953,,,,,,,,,
1739400920.9659324,-0.7078355584522227,0.6780120963293407,1.4201478940362184,-1.8790866883918451,-0.7117913649874407,1.9475829945034342,0.18761537710536583,0.0007038108540758795,-0.0009058101125842873,0.0016478544669448459,0.00023534883252861324,8.213604717699209e-05,-0.0012520787022874671,-0.0008637468220363802,0.2411382496356964,-23.56198501586914,19.529525756835938,17.89893341064453,0.8568216562271118,2.3668715953826904,-0.08051909506320953,,,,,,,,,
1739400920.9759336,-0.7078403450812079,0.6780113914335386,1.4201461116903085,-1.8790825878328201,-0.7117874480308964,1.9475865394056393,0.1876129942883158,-0.00010530890798903859,0.00037427622713698575,-0.00010574744384275769,0.0007479529657064773,0.0011650290124142863,-7.117308597232887e-05,-0.0013393848223364141,0.3165166676044464,-23.56198501586914,19.553329467773438,17.84735870361328,0.8568216562271118,2.3403213024139404,-0.06037749722599983,,,,,,,,,
1739400920.9859354,-0.7078431531417563,0.6780167334672956,1.4201461656533632,-1.8790808311124454,-0.7117917210711993,1.947579801900455,0.18761888450873226,-0.00045042134346646935,-0.0004775512215135751,-0.0009105996777585486,0.0013707826337523712,7.290206551523315e-05,-0.0022815158808989137,0.00035717330537325784,0.3165166676044464,-23.63736343383789,19.553329467773438,17.82355499267578,0.8568216562271118,2.3604629039764404,-0.07411040365695953,,,,,,,,,
1739400920.9959972,-0.7078397021474686,0.6780150749082465,1.4201460970830444,-1.8790877667362544,-0.7117917224517588,1.9475849157768463,0.18761375526543553,0.00046826732226462717,-9.316103411977805e-05,-0.0005480455002278941,-0.0005613385608206831,0.00036509290699777904,0.0005957256437443348,-0.00041575941182753445,0.2689092457294464,-23.61355972290039,19.553329467773438,17.87512969970703,0.8568216562271118,2.3540542125701904,-0.06678618490695953,,,,,,,,,
1739400921.006009,-0.7078377042061762,0.6780185685183033,1.420146354032733,-1.8790846665069412,-0.7117909649552226,1.9475856735106951,0.18761538297599345,0.0018186366873089608,0.0008899758449703668,0.0008535764763682437,-0.0002850086436401277,0.00010125300253808434,0.0010651023124452997,-0.0010216858187343451,0.2411382496356964,-23.66513442993164,19.553329467773438,17.87512969970703,0.8504129648208618,2.3476455211639404,-0.08051909506320953,,,,,,,,,
1739400921.0170124,-0.7078397024680215,0.6780129074288668,1.420144342786136,-1.879082561994617,-0.7117917221247362,1.947582745285868,0.18762478633822294,0.0006761827386574503,-0.00033311561583393364,-0.001778950061339768,0.0014066605769214285,-0.00029950037798571495,-8.829421961747703e-05,0.003411565137075863,0.2689092457294464,-23.61355972290039,19.577133178710938,17.84735870361328,0.8568216562271118,2.3604629039764404,-0.12080229818820953,,,,,,,,,
1739400921.028004,-0.7078435206985442,0.678016814399487,1.4201461103458541,-1.8790864588014735,-0.7117902073489851,1.947584874658721,0.1876244046298474,-0.0004906302000728375,5.50959433520442e-05,0.001213306787665229,-0.0006245580953567392,0.0002468509676447505,0.00025348451350039417,0.002358570941285752,0.2927129566669464,-23.63736343383789,19.553329467773438,17.89893341064453,0.8440042734146118,2.3540542125701904,-0.12080229818820953,,,,,,,,,
1739400921.0389912,-0.7078377099414188,0.6780168144118748,1.4201383863568273,-1.8790882355918082,-0.7117925885125421,1.947582340892102,0.18761336451649885,0.0003834432917848499,0.00036673227678219166,-0.00044420545551998266,5.8352207412857193e-05,-0.0008839442908776454,0.00012019391349622332,-0.0008497707571245435,0.2411382496356964,-23.63736343383789,19.656478881835938,17.92273712158203,0.8641458749771118,2.3668715953826904,-0.06037749722599983,,,,,,,,,
1739400921.048998,-0.707835991685542,0.6780207588768794,1.42014046654641,-1.879087412475984,-0.7117898920716251,1.9475849143791253,0.18761781890419443,0.0013597392075541536,0.000581348732772056,0.000393484147626865,0.00047439936996517636,0.0006016509116215887,0.0022569218813146973,-0.0014482698723313012,0.2173345386981964,-23.68893814086914,19.628707885742188,17.89893341064453,0.8504129648208618,2.3540542125701904,-0.07411040365695953,,,,,,,,,
1739400921.05993,-0.7078418081778112,0.6780195146853019,1.4201397146612134,-1.879088596070994,-0.7117925889910021,1.9475841056473844,0.18762120583907418,-0.0006349955894691808,0.00017269736247825268,-0.0002987317022946913,0.0006205090271128826,-0.0007055057208250683,0.0003309432954298157,0.00131527580564679,0.2689092457294464,-23.66513442993164,19.628707885742188,17.89893341064453,0.8641458749771118,2.3604629039764404,-0.12080229818820953,,,,,,,,,
1739400921.0700421,-0.7078397026106847,0.6780226697562092,1.4201394732864616,-1.8790866885352397,-0.711789369861732,1.947583450186566,0.18761894309511143,-0.0004593309512781275,0.0009809553181404018,-0.00014951703710446127,0.00041842802057018633,0.0002577352609462937,0.0002933536565747878,0.0006474690104842215,0.2689092457294464,-23.68893814086914,19.628707885742188,17.89893341064453,0.8641458749771118,2.3540542125701904,-0.10066069662570953,,,,,,,,,
1739400921.0809956,-0.7078379386375887,0.678020602922373,1.4201391223042008,-1.8790867943550387,-0.7117917225426318,1.947583803354503,0.18761541662319867,-0.00043575547356720836,0.00018237890809984008,0.0006797973222603562,0.0006610779302152161,-2.356970269635933e-06,-0.0008479063238354641,-0.0021041166060826724,0.2411382496356964,-23.68893814086914,19.604904174804688,17.89893341064453,0.8568216562271118,2.3604629039764404,-0.08051909506320953,,,,,,,,,
1739400921.0910532,-0.7078387997304578,0.6780198295831306,1.4201392700829132,-1.8790882327631675,-0.7117917226153081,1.9475847966534912,0.18761261317109768,-2.5979788526457864e-05,-0.0008947182584508073,0.00039764268258264354,0.0006795422050930242,-0.0003463975843415723,7.717716441089361e-05,0.0005846540457726274,0.2173345386981964,-23.63736343383789,19.604904174804688,17.92273712158203,0.8568216562271118,2.3540542125701904,-0.05396880581974983,,,,,,,,,
1739400921.1020117,-0.7078414406839918,0.6780172426417856,1.4201421657728344,-1.8790847596310611,-0.7117917167284309,1.947585086826046,0.18761857591008685,-0.0006464062073806529,-0.002092474105139637,0.0003374526670073592,0.0020705767114838035,-0.0009262480976156979,-2.3226682986314312e-05,-0.0007890992581802336,0.2927129566669464,-23.61355972290039,19.604904174804688,17.87512969970703,0.8568216562271118,2.3403213024139404,-0.08051909506320953,,,,,,,,,
1739400921.1139462,-0.7078414146679072,0.6780175438612328,1.4201429326300963,-1.879089637716527,-0.7117917226152761,1.947584874658497,0.18761424064354734,-0.0006118853394700452,0.00033598725449413447,0.00019351879517966089,-0.0013070134976827033,0.0009111476112384169,0.0015721921558346883,-0.00045849974062501587,0.2927129566669464,-23.63736343383789,19.553329467773438,17.89893341064453,0.8568216562271118,2.3540542125701904,-0.06678618490695953,,,,,,,,,
1739400921.1239872,-0.7078400401519694,0.6780196266381714,1.4201443289594535,-1.8790846673482657,-0.7117925971793352,1.9475848722434155,0.18762169272468499,0.0006352487157295187,0.0024021797126673856,0.00026532696348388065,1.7858649258129292e-05,-2.6656679297430382e-05,0.000704731211522266,0.0009406690783919943,0.2689092457294464,-23.63736343383789,19.577133178710938,17.87512969970703,0.8641458749771118,2.3540542125701904,-0.12080229818820953,,,,,,,,,
1739400921.13494,-0.7078397830377363,0.6780172459469775,1.4201460750608441,-1.8790835029140316,-0.7117929417252679,1.9475840404349452,0.1876221467380292,0.0005583043019167723,0.0010613592176772066,-7.572801209310045e-05,-0.0003091733364915157,-0.0010729287692167497,0.000530736868696004,-0.0004341917182293319,0.2689092457294464,-23.61355972290039,19.553329467773438,17.84735870361328,0.8641458749771118,2.3604629039764404,-0.10066069662570953,,,,,,,,,
1739400921.1450012,-0.707839702148399,0.6780113915728666,1.42014611168969,-1.879082584370569,-0.7117917221307178,1.9475809787896434,0.18762249897941385,0.0002360780934349156,-0.0014334349307295654,-0.0003114487137162288,0.0006903815073410703,-5.7259236129567534e-05,0.00010502206616459602,0.0022652038156723816,0.2689092457294464,-23.56198501586914,19.553329467773438,17.84735870361328,0.8568216562271118,2.3604629039764404,-0.10066069662570953,,,,,,,,,
1739400921.1561098,-0.7078375033437015,0.6780101909084127,1.4201528355071829,-1.8790846672942634,-0.7117952035077456,1.9475853022990866,0.1876205140756217,0.00053827389484089,-0.0018512267993908487,0.0015440581754414878,0.0004151112159233906,-0.000701733556042542,0.0007138790969283739,0.0008724198990097904,0.2411382496356964,-23.58578872680664,19.501754760742188,17.87512969970703,0.8504129648208618,2.3476455211639404,-0.12080229818820953,,,,,,,,,
1739400921.166999,-0.7078387485785763,0.6780151106484903,1.4201499705758005,-1.879090015325338,-0.7117909648694686,1.9475847587035928,0.18761495446013668,0.0007484580788467011,0.0001903314786416135,0.00045642397312423117,-0.0007173040513284071,0.001197937445400948,0.0009524465971345555,-0.0020071837188283714,0.2689092457294464,-23.61355972290039,19.501754760742188,17.94654083251953,0.8504129648208618,2.3540542125701904,-0.06037749722599983,,,,,,,,,
1739400921.1780293,-0.7078377054847625,0.6780151088440085,1.4201461410156664,-1.8790871652270371,-0.711794130624142,1.9475826276012462,0.1876217191843987,0.0013002770433387652,0.00040958698047823244,-0.00010822534834235271,-0.0004225055240189923,-0.0007323987306545475,0.0002700128678351677,0.0005789957839798051,0.2411382496356964,-23.61355972290039,19.553329467773438,17.89893341064453,0.8504129648208618,2.3604629039764404,-0.10706938803195953,,,,,,,,,
1739400921.1880574,-0.7078359916854665,0.6780151018912615,1.4201443378441057,-1.8790864514006242,-0.7117909650088419,1.9475786759817268,0.18762091343053974,0.0011620451008663945,-0.0011551930762549192,0.0012504799565032283,-0.0001608478387063063,0.00025451908477126627,-0.001995371032340573,0.001380165915701137,0.2173345386981964,-23.61355972290039,19.577133178710938,17.89893341064453,0.8504129648208618,2.3668715953826904,-0.08692778646945953,,,,,,,,,
1739400921.199026,-0.7078431271884916,0.6780172079219258,1.4201450442690784,-1.8790921610925582,-0.7117933461181123,1.9475819691381444,0.18762071297683655,-0.0015386742835921368,-0.000966008586070312,0.0015095774876832048,-0.0007159819636585322,-0.0016904345185894038,-0.0005782733987832671,0.0006608681118932984,0.3165166676044464,-23.61355972290039,19.577133178710938,17.94654083251953,0.8705545663833618,2.3476455211639404,-0.11347807943820953,,,,,,,,,
1739400921.209931,-0.7078359927910852,0.6780190473310138,1.4201382403292364,-1.8790903784276438,-0.7117917744525447,1.9475847973922817,0.18761799008853605,0.0014762011966547878,7.952793262788518e-05,0.0007487778430810592,-0.001167723994314203,-0.0010995891394938227,0.0008157589260974077,-0.00019517951867798746,0.2173345386981964,-23.66513442993164,19.628707885742188,17.92273712158203,0.8568216562271118,2.3540542125701904,-0.07411040365695953,,,,,,,,,
1739400921.2200036,-0.7078431647446147,0.6780189204466363,1.4201402269999737,-1.8790872006936634,-0.711791723100704,1.9475830966123397,0.18761707689422594,-0.00025102008833360683,-0.0010126704850658762,9.39271284035558e-05,5.872234553856362e-05,4.292378378801769e-05,0.001785002138032348,-0.002121344557116405,0.3165166676044464,-23.63736343383789,19.628707885742188,17.89893341064453,0.8568216562271118,2.3604629039764404,-0.06678618490695953,,,,,,,,,
1739400921.2300808,-0.7078434856988999,0.6780212302363067,1.4201412572803525,-1.8790866884025925,-0.7117917240688678,1.9475802659254056,0.18761662685948635,-0.0005656547103025016,-0.0018287671203856236,0.0010596477047278598,0.00010141774055900151,0.0013544164015497425,-0.00015169972365862894,-0.0010364760913833823,0.2927129566669464,-23.68893814086914,19.604904174804688,17.89893341064453,0.8568216562271118,2.3540542125701904,-0.05396880581974983,,,,,,,,,
1739400921.240946,-0.7078397015342318,0.6780197394051107,1.420136352464395,-1.8790875283185762,-0.7117925899661003,1.9475845218584196,0.18761817730510577,-0.0007332569562701555,-0.00012617007285181962,0.00016695154160372848,-0.0005503528699620138,-0.0009734034554383688,0.0007122319782326966,-0.0017416332372975599,0.2689092457294464,-23.63736343383789,19.680282592773438,17.87512969970703,0.8641458749771118,2.3540542125701904,-0.06678618490695953,,,,,,,,,
1739400921.2510386,-0.7078416499551395,0.6780188616210894,1.4201421568823953,-1.8790864500197515,-0.711791318329471,1.947579509084161,0.18761904466094398,-0.000930547137832535,-0.0017696681447077827,0.0011584331070300332,0.0005141982331492195,0.0007682212699100294,-3.666562771741834e-05,-0.00014551974365898215,0.2927129566669464,-23.66513442993164,19.604904174804688,17.89893341064453,0.8504129648208618,2.3604629039764404,-0.07411040365695953,,,,,,,,,
1739400921.2620103,-0.707841414671745,0.6780207602686805,1.4201352863323227,-1.8790846938942514,-0.7117914359114951,1.947580188664982,0.18761501607681258,-8.415264604010193e-06,-0.0004990124319797833,-0.0004910804502097248,0.0008324051681542303,-0.0007488649207383496,-0.0007034885724412516,-0.0016387267282218815,0.2927129566669464,-23.68893814086914,19.656478881835938,17.87512969970703,0.8504129648208618,2.3540542125701904,-0.07411040365695953,,,,,,,,,
1739400921.2729979,-0.7078414927758979,0.6780210263809303,1.4201421342664482,-1.8790847860131474,-0.7117925885152004,1.9475787557108852,0.1876249376550314,-3.576539925319376e-05,-0.00022849313032542962,-0.0016787313963008508,-0.00042812121756462566,0.0002014069218219983,-0.0007607170267995144,0.001963538657402907,0.2927129566669464,-23.66513442993164,19.604904174804688,17.87512969970703,0.8641458749771118,2.3668715953826904,-0.12080229818820953,,,,,,,,,
1739400921.283969,-0.7078398061486962,0.6780198689792054,1.4201443201827573,-1.879085382166666,-0.7117938094947485,1.9475801612610808,0.18762331352667916,-0.00018957016638784782,-0.00017424837024019687,-0.0004315634959639517,0.000938979383563328,-0.0015974678510484626,0.0003821741261033436,0.00010010605226861444,0.2689092457294464,-23.63736343383789,19.577133178710938,17.87512969970703,0.8641458749771118,2.3540542125701904,-0.10706938803195953,,,,,,,,,
1739400921.2939951,-0.7078397021487904,0.6780170571338178,1.4201443294492069,-1.8790866884019854,-0.7117925885332193,1.9475843918459903,0.1876249508568723,0.00012167372847810448,0.0007038321772061743,-0.0008487545762999236,-0.0005295543708403553,-0.0002248537723141419,-0.00011381827953752796,0.0008989438358655655,0.2689092457294464,-23.63736343383789,19.577133178710938,17.89893341064453,0.8641458749771118,2.3540542125701904,-0.12080229818820953,,,,,,,,,
1739400921.3040457,-0.7078378082076963,0.6780151115250246,1.42014800033115,-1.8790864499753377,-0.7117941445156417,1.9475851120127157,0.1876233185512393,0.0004981742863316296,-0.001135623067356684,0.00034804837979374414,-0.00013154252048965215,-0.0006084706897997494,0.00046585546153271243,0.0010628560999273017,0.2411382496356964,-23.61355972290039,19.529525756835938,17.89893341064453,0.8504129648208618,2.3403213024139404,-0.10706938803195953,,,,,,,,,
1739400921.315043,-0.7078396933184726,0.6780132180097341,1.4201481327877032,-1.8790854573576925,-0.7117937394760967,1.9475833314566793,0.18762224937403832,1.615371938644552e-05,-0.0006121652212866022,0.0001413641481587786,0.0005431094486203001,-0.0001636287874473227,0.0012715367343102057,0.0008262793972176201,0.2689092457294464,-23.58578872680664,19.529525756835938,17.84735870361328,0.8440042734146118,2.3540542125701904,-0.10706938803195953,,,,,,,,,
1739400921.3250718,-0.7078366936956558,0.6780168173014498,1.4201482574588682,-1.8790900154868935,-0.7117929431987411,1.9475815625012591,0.18762179885057176,0.001124060426933799,0.00043674924857817,0.00012289408378356878,-0.0010248984034892136,-0.0005016264310645476,0.0005854582801996726,-0.0005888317213072788,0.2173345386981964,-23.63736343383789,19.553329467773438,17.94654083251953,0.8641458749771118,2.3540542125701904,-0.09425200521945953,,,,,,,,,
1739400921.336954,-0.7078340407500975,0.6780097167859414,1.4201457938473232,-1.8790847467671417,-0.7117933461746224,1.9475805575497014,0.1876181958341269,0.0012185457387189173,-0.0014091342424010168,-0.0007522881274178,0.0010540000774272374,-0.00045349813313351565,-0.0005221624522532041,-0.0011956843287118913,0.1935308277606964,-23.53818130493164,19.553329467773438,17.87512969970703,0.8705545663833618,2.3540542125701904,-0.06678618490695953,,,,,,,,,
1739400921.3469903,-0.7078397021456833,0.6780169184136088,1.4201461116885161,-1.879087514660965,-0.7117917226153094,1.9475795211791493,0.1876177939177991,-0.00032676402771240605,0.00042345700199331753,0.0008685045628368527,-0.00018325587742618575,-0.0005823349327263267,0.0005147643912111588,-0.001854715456368187,0.2689092457294464,-23.63736343383789,19.553329467773438,17.89893341064453,0.8568216562271118,2.3604629039764404,-0.06037749722599983,,,,,,,,,
1739400921.3589997,-0.7078392510763886,0.6780212563890374,1.4201439758005816,-1.87908466733663,-0.7117916828788795,1.9475836303641214,0.1876185473540554,-7.33651524621811e-05,-5.6151061697857406e-05,0.0001689973962458334,0.0007631609240825545,0.000969140556041357,-0.0002897689407064284,-0.0007915779260526197,0.2927129566669464,-23.66513442993164,19.577133178710938,17.87512969970703,0.8568216562271118,2.3604629039764404,-0.06678618490695953,,,,,,,,,
1739400921.3690066,-0.7078404031639298,0.6780206293524316,1.420142001972545,-1.879086460255168,-0.7117909093051891,1.9475818256327104,0.18762199590882395,-0.00016799371196411382,0.0013486475702203088,0.0002489764364963753,0.00012419963223753454,0.002603210649279651,-0.0015803961896369016,0.0012478018776328065,0.2689092457294464,-23.68893814086914,19.604904174804688,17.89893341064453,0.8440042734146118,2.3668715953826904,-0.08692778646945953,,,,,,,,,
1739400921.3799338,-0.7078431272003634,0.6780212302024101,1.4201420005531402,-1.879090628608041,-0.7117927968008297,1.9475793913265922,0.18762494212632894,-0.0004738572139492609,0.0004078512893325802,0.001135854247562609,-0.0008885665033456982,0.00025584145839675716,-0.0015558369297144858,0.001629662742683991,0.3165166676044464,-23.68893814086914,19.604904174804688,17.92273712158203,0.8568216562271118,2.3604629039764404,-0.12080229818820953,,,,,,,,,
1739400921.390032,-0.7078414146677604,0.6780217016088158,1.4201383511068377,-1.8790865297847337,-0.7117909649612948,1.9475793900343095,0.1876249362714399,-0.0004143395990294075,0.00021571340997658016,0.0008849601643082328,0.0006650668442247808,0.0008707858203633198,-0.000649290448808481,0.0003707800573428512,0.2927129566669464,-23.66513442993164,19.656478881835938,17.89893341064453,0.8504129648208618,2.3604629039764404,-0.12080229818820953,,,,,,,,,
1739400921.400931,-0.7078397281474091,0.6780256817519648,1.4201375659503608,-1.8790825875048758,-0.7117920759895248,1.9475839990267916,0.18762497563990677,0.000466788148650419,0.0004527767753634205,-0.0009901320399163017,0.0013208993076245339,0.0005213130944448251,0.0005553348799346249,-0.00036109327107466195,0.2689092457294464,-23.71670913696289,19.628707885742188,17.84735870361328,0.8568216562271118,2.3604629039764404,-0.12080229818820953,,,,,,,,,
1739400921.410948,-0.7078442487096235,0.6780193962913021,1.4201401482788072,-1.8790893111032654,-0.7117925885185262,1.9475836676953917,0.18762505600220208,-0.001191114236890266,0.00024020009063681038,-0.00011541159099950362,-0.0007293779472524062,0.0005166235776180382,0.0026092097211139645,6.20839020037667e-05,0.2927129566669464,-23.66513442993164,19.628707885742188,17.89893341064453,0.8641458749771118,2.3604629039764404,-0.12080229818820953,,,,,,,,,
1739400921.4209607,-0.7078414148227525,0.6780218932471538,1.420141123493544,-1.8790847468155942,-0.7117944570454083,1.9475786327158449,0.18762017383863983,4.6385738079813166e-05,0.0005249414271483925,-0.0007274348676071715,0.0004777300059843181,-0.00048063717505998865,-0.0012842327088345151,0.0011290465281670093,0.2927129566669464,-23.66513442993164,19.577133178710938,17.87512969970703,0.8769632577896118,2.3668715953826904,-0.08051909506320953,,,,,,,,,
1739400921.4309645,-0.7078397021470317,0.6780217370731649,1.4201442481779507,-1.8790823579175107,-0.7117902087546846,1.947577874498813,0.18761941763916878,-3.102058975934711e-05,0.00037567512653759107,0.0009452385076782002,0.0016652410790610203,0.0017918047897285594,0.0001007461169728178,-0.0004251488484302407,0.2689092457294464,-23.66513442993164,19.577133178710938,17.84735870361328,0.8440042734146118,2.3732802867889404,-0.07411040365695953,,,,,,,,,
1739400921.4409783,-0.7078397294313785,0.6780162514367709,1.4201420106944715,-1.879084667290393,-0.7117926277584232,1.9475801474790386,0.1876221531730821,-0.0008140089340606907,-0.0013350257425859633,-0.00035800179847405396,-0.0003243648876021136,0.0002998708270636858,-0.0010443173567379854,0.00022359896794601672,0.2689092457294464,-23.58578872680664,19.604904174804688,17.87512969970703,0.8641458749771118,2.3540542125701904,-0.09425200521945953,,,,,,,,,
1739400921.4510148,-0.7078397031104682,0.6780145495125597,1.4201421697465366,-1.879088232648319,-0.7117909823984986,1.9475801872094118,0.18762407232884887,6.833680034519011e-05,0.0006390206603108943,-0.00021240593521239172,3.858302272370998e-05,0.0008200730885621154,-3.9330913918811145e-06,0.00048143419184767684,0.2689092457294464,-23.56198501586914,19.604904174804688,17.92273712158203,0.8504129648208618,2.3540542125701904,-0.11347807943820953,,,,,,,,,
1739400921.4610262,-0.7078442239927888,0.6780116525568166,1.4201460851980112,-1.8790883134293739,-0.7117929418870527,1.9475812583524996,0.18762331417674763,-0.0012872618403915862,-0.0020466190977117956,-0.000397351074703702,0.00010949110682539621,-0.0008480935992646295,0.0012983606351721166,0.0009142047195476498,0.2927129566669464,-23.56198501586914,19.553329467773438,17.92273712158203,0.8641458749771118,2.3476455211639404,-0.10706938803195953,,,,,,,,,
1739400921.471997,-0.7078377042220348,0.6780161589429189,1.4201439662499977,-1.879086463053708,-0.7117909707714268,1.9475801474810326,0.18762168038315286,0.0007453422638008469,0.0010119914571085026,-0.0007764285342024987,-2.2646107175905588e-05,0.0006205994556206433,-0.0005609633231125673,-0.0016926200092668869,0.2411382496356964,-23.58578872680664,19.553329467773438,17.89893341064453,0.8504129648208618,2.3540542125701904,-0.09425200521945953,,,,,,,,,
1739400921.4829562,-0.7078414493705997,0.6780175472637469,1.4201461116781993,-1.8790846761246727,-0.7117925885664099,1.9475801475328738,0.18762300552110953,-0.0003136645725347296,0.0011516431117166914,-1.4400175187643063e-05,4.5453042862899834e-06,4.4802393433822775e-05,0.00044370285302995605,0.0005322741285625679,0.2927129566669464,-23.61355972290039,19.553329467773438,17.87512969970703,0.8641458749771118,2.3540542125701904,-0.11347807943820953,,,,,,,,,
1739400921.4939299,-0.7078472324446838,0.6780189551512429,1.4201401486549778,-1.8790864807140373,-0.711791594911714,1.9475793898189613,0.18762484953017897,-0.0021660522680673052,-0.0001828558005729736,-0.001830101914042672,-0.00048046989189062675,0.0023839947229724965,0.0007584278382536268,0.00021907371425346642,0.3442876636981964,-23.63736343383789,19.628707885742188,17.89893341064453,0.8375955820083618,2.3604629039764404,-0.10706938803195953,,,,,,,,,
1739400921.503995,-0.707839702158925,0.6780188243485268,1.420142246278202,-1.879082587504599,-0.7117902116679136,1.947580905139117,0.18761855255866086,0.0007325551764923076,-0.0006300439368693977,0.0001801545545998416,0.0014235742116626066,0.00033861554001588955,-0.0005114260985517346,-0.001446406317394852,0.2689092457294464,-23.66513442993164,19.604904174804688,17.84735870361328,0.8440042734146118,2.3476455211639404,-0.06678618490695953,,,,,,,,,
1739400921.5140927,-0.7078414156307375,0.6780199618490279,1.4201443290132414,-1.8790875283172304,-0.7117938196696743,1.9475793898189604,0.18762124262306196,-0.00016862445501690515,0.0005196210448915864,0.0003032178425671423,-0.0007745030010504745,-0.0008203691505740761,-0.001371412706015083,-0.00035384044499129155,0.2927129566669464,-23.63736343383789,19.577133178710938,17.87512969970703,0.8641458749771118,2.3604629039764404,-0.08051909506320953,,,,,,,,,
1739400921.5250514,-0.707843361191928,0.6780219713987043,1.4201422462799966,-1.879089053916321,-0.7117909699827538,1.9475798455009876,0.1876211433345365,-0.0012678287282485794,0.0006589556517383092,0.000530853853097161,-0.0014947993319775433,0.0001783822781733103,-0.00019895749157224996,-0.00011626165609398892,0.3165166676044464,-23.66513442993164,19.604904174804688,17.92273712158203,0.8504129648208618,2.3476455211639404,-0.06037749722599983,,,,,,,,,
1739400921.5359478,-0.7078435187194011,0.6780219710779086,1.4201390310631745,-1.8790856562945044,-0.7117929940530888,1.9475793898129785,0.18763030152752846,-9.635910143072e-05,9.480251547544112e-05,0.00044037960498045697,-0.0005197882215349974,-0.001528322842653065,-0.0003399082062751649,0.0025252877368355173,0.2927129566669464,-23.66513442993164,19.604904174804688,17.87512969970703,0.8641458749771118,2.3604629039764404,-0.12721098959445953,,,,,,,,,
1739400921.5469224,-0.7078431534166955,0.6780239955766343,1.4201372480046162,-1.8790864500094997,-0.7117917226699076,1.9475786379730828,0.18761871507499966,-0.00015872817747017876,0.0005862521544681181,5.0535405763334706e-05,-0.0004269504981189769,-0.00018925369189473257,-0.00038642096496586275,-0.00154825444042055,0.3165166676044464,-23.66513442993164,19.628707885742188,17.89893341064453,0.8568216562271118,2.3668715953826904,-0.06678618490695953,,,,,,,,,
1739400921.5569627,-0.7078397021483617,0.6780218675002198,1.4201372478956042,-1.8790864777704503,-0.7117920763125387,1.9475808658935556,0.18762495669755186,0.0007777356322648878,-0.00038770507215196584,0.0004282550156312624,-0.0007501915214862336,-0.0015120940073766063,2.4700291957172933e-05,0.0010686598609214598,0.2689092457294464,-23.66513442993164,19.628707885742188,17.89893341064453,0.8568216562271118,2.3476455211639404,-0.12080229818820953,,,,,,,,,
1739400921.5670428,-0.707841834213857,0.6780236839190457,1.420139030572618,-1.879091332417053,-0.7117917625630201,1.9475762109043506,0.1876233200092167,0.00042438841493755235,6.000835552412117e-05,6.797041294810051e-05,-0.000894101279315338,-0.00043078196110971854,-0.000304859329452783,0.000566716665540021,0.2689092457294464,-23.68893814086914,19.604904174804688,17.92273712158203,0.8568216562271118,2.3604629039764404,-0.10706938803195953,,,,,,,,,
1739400921.5780141,-0.7078407023129897,0.6780221054535442,1.4201411090058265,-1.8790885505935948,-0.7117917245536018,1.9475786321409367,0.1876233492950701,4.0111563650748806e-05,-0.0006640679052079697,0.0002625295338386721,-9.02871191028923e-05,7.741138554049663e-05,-0.0002855566918135898,0.0003806247694777455,0.2927129566669464,-23.63736343383789,19.577133178710938,17.92273712158203,0.8568216562271118,2.3668715953826904,-0.09425200521945953,,,,,,,,,
1739400921.5889978,-0.7078397050319389,0.6780219714109361,1.4201411773209687,-1.8790825904496593,-0.7117901275218133,1.9475786365195324,0.18762174065321233,5.349693536242154e-06,0.000418868501676531,0.00047100492338055666,0.0016020108764822354,0.0006486886367549956,-0.00045891768935905474,-0.0011751811957766449,0.2689092457294464,-23.66513442993164,19.604904174804688,17.84735870361328,0.8705545663833618,2.3668715953826904,-0.06678618490695953,,,,,,,,,
1739400921.6000154,-0.7078404041573061,0.6780161849953237,1.4201434958685781,-1.8790903784155475,-0.711792899482266,1.9475790878409338,0.18762680738870768,0.0002651923555801668,-0.00042295143440848897,-0.00016587071767753907,-0.00036165553150786073,-0.0003942829117927596,-0.0003499411224478586,0.0014304943359373316,0.2689092457294464,-23.58578872680664,19.577133178710938,17.92273712158203,0.8568216562271118,2.3540542125701904,-0.13361968100070953,,,,,,,,,
1739400921.610927,-0.7078377045311314,0.6780219713984607,1.420144077508057,-1.8790864503468003,-0.7117949736545583,1.9475793898129785,0.18762495539517163,0.0007650850318902399,0.0009072694897986856,-0.00011206177972938625,-8.179424381382609e-05,-0.0033135357342649976,-8.890152653337596e-05,0.00047251124053110074,0.2411382496356964,-23.66513442993164,19.577133178710938,17.89893341064453,0.8440042734146118,2.3604629039764404,-0.12080229818820953,,,,,,,,,
1739400921.6209543,-0.7078377052761561,0.6780182493815923,1.4201432495729394,-1.8790875286442854,-0.7117964733827489,1.9475809065926672,0.18762245570265165,0.00036554746948849146,0.0008994973506403381,-0.00010794741018544976,0.0002533838909570777,-0.001994811358294037,7.949668077224107e-05,-0.0011525762100116292,0.2411382496356964,-23.61355972290039,19.553329467773438,17.87512969970703,0.8568216562271118,2.3476455211639404,-0.10066069662570953,,,,,,,,,
1739400921.631036,-0.7078414265444952,0.6780170873086719,1.420143250291842,-1.8790865294926167,-0.71179597885239,1.9475809051391415,0.18762259734154618,-0.0013936624485538995,-0.00046136612303964813,-0.0006484864383884912,0.0005010388944141125,-0.0021579353346841347,0.00022876470858069695,0.00016510117180580018,0.2927129566669464,-23.63736343383789,19.553329467773438,17.89893341064453,0.8568216562271118,2.3476455211639404,-0.10066069662570953,,,,,,,,,
1739400921.6410384,-0.7078397801483703,0.6780198954080306,1.4201461116418523,-1.8790864499726465,-0.7117909653483031,1.947580905139117,0.1876277409465355,0.00030944035761539,0.00037074360466327516,0.0008005305628850366,7.836671253074189e-05,0.0005414764463884708,0.00015430034295208132,0.0025026463430906937,0.2689092457294464,-23.63736343383789,19.553329467773438,17.89893341064453,0.8504129648208618,2.3476455211639404,-0.10706938803195953,,,,,,,,,
1739400921.6530387,-0.7078377090558216,0.6780161849592172,1.420140023983364,-1.879085621004936,-0.7117917618611682,1.9475817319519984,0.18762812714756905,0.001191368333738374,-9.170248506400675e-05,-0.0016302085342357068,-0.0002052199821536202,8.270536104292497e-05,0.00018959580349758761,0.0010055076335202336,0.2411382496356964,-23.58578872680664,19.604904174804688,17.87512969970703,0.8568216562271118,2.3403213024139404,-0.12080229818820953,,,,,,,,,
1739400921.6640027,-0.7078418110667514,0.6780192714476404,1.4201354168221727,-1.8790844381438794,-0.7117941453232431,1.94757787449873,0.18762383477929107,-0.00025180742991107256,0.0004990768095281124,-0.0026265090442996047,0.001149525482386217,0.0006288802081272265,-0.0007205624883786163,0.00035519852395405195,0.2689092457294464,-23.63736343383789,19.656478881835938,17.87512969970703,0.8504129648208618,2.3732802867889404,-0.10066069662570953,,,,,,,,,
1739400921.6750095,-0.7078377042418909,0.6780162839335693,1.4201398640062024,-1.8790864529108584,-0.7117917226691692,1.9475786445948118,0.18762331419838676,0.0007311217884000666,-0.0008873546789655312,-0.0003082786516611373,0.00013798283305047955,2.0176784448531833e-05,-0.00010405974454270666,-0.00011809054687126899,0.2411382496356964,-23.61355972290039,19.604904174804688,17.89893341064453,0.8568216562271118,2.3668715953826904,-0.10706938803195953,,,,,,,,,
1739400921.6859412,-0.7078377042061762,0.6780182609335967,1.4201372748241854,-1.8790846674033028,-0.7117909668932981,1.9475793898189837,0.18762056914628164,0.0006077975794789777,0.00020325145126927802,-0.0008747467817505809,0.0002433035034104283,-0.0003828505108622124,-0.00010237681841428862,-0.0013635785199801287,0.2411382496356964,-23.61355972290039,19.628707885742188,17.87512969970703,0.8504129648208618,2.3604629039764404,-0.08051909506320953,,,,,,,,,
1739400921.6969929,-0.7078417645494175,0.6780199734580479,1.420140375245748,-1.879086476462255,-0.7117909651167694,1.9475778744988037,0.18762280500471754,-0.0008180628070907464,-0.0002541838986801803,0.0004913174222261279,-0.0005909023460032399,0.001704430991649567,-6.4200939531807e-05,0.00026945525247445664,0.2927129566669464,-23.63736343383789,19.628707885742188,17.89893341064453,0.8504129648208618,2.3732802867889404,-0.06678618490695953,,,,,,,,,
1739400921.7070105,-0.707840638162685,0.6780189293544381,1.4201390306992883,-1.8790846676214794,-0.711793469724392,1.9475808026697994,0.18762494359043017,-0.0008371851602563422,-0.0008565421553984431,0.00033858701276372443,0.0017329218919470337,-0.0014172466984829668,0.001114835799117788,0.002089150144894455,0.2689092457294464,-23.66513442993164,19.604904174804688,17.87512969970703,0.8705545663833618,2.3604629039764404,-0.12080229818820953,,,,,,,,,
1739400921.7171123,-0.7078398102528097,0.678023683868115,1.4201382015699173,-1.8790882326483245,-0.7117909198185318,1.947579389842887,0.18762493822018006,0.0009076644069936216,0.0003606215014689068,0.000582367087030479,-0.0004843705878528143,0.0008670441142764879,0.0003192194397146133,0.00040282151794074415,0.2411382496356964,-23.68893814086914,19.628707885742188,17.92273712158203,0.8504129648208618,2.3604629039764404,-0.12080229818820953,,,,,,,,,
1739400921.7280047,-0.7078398102488469,0.6780198654751162,1.4201372744282743,-1.8790868496909592,-0.7117932682234829,1.9475778744988037,0.18762064788328423,0.0010474274748262457,-0.00023586173824603754,-0.00046809439895637126,7.556560862680194e-05,-0.000798867260802836,-0.0007287873835435176,9.65848769767443e-05,0.2411382496356964,-23.66513442993164,19.628707885742188,17.87512969970703,0.8568216562271118,2.3732802867889404,-0.08051909506320953,,,,,,,,,
1739400921.7380078,-0.7078424287182473,0.6780219684743058,1.4201418238743997,-1.8790864529516982,-0.711794940801729,1.9475793898189604,0.18762123825677363,-0.0009622720398344635,0.0003840866511212142,-0.00015864242263928432,0.0012998487651263914,-0.0002996290255966335,-0.00011571525952703792,-0.00019282220598746953,0.2927129566669464,-23.66513442993164,19.577133178710938,17.89893341064453,0.8568216562271118,2.3604629039764404,-0.08051909506320953,,,,,,,,,
1739400921.7489424,-0.7078362266575665,0.6780219795306905,1.4201372479359653,-1.8790874046267796,-0.7117905619795795,1.9475778744988037,0.18762888570671687,0.0012915154105690206,9.171969531285599e-05,-0.0023434986213091875,-0.0003347901737510272,0.0009974247661849254,-0.00037202409582656173,0.0007074131195554293,0.2173345386981964,-23.66513442993164,19.628707885742188,17.89893341064453,0.8440042734146118,2.3732802867889404,-0.12721098959445953,,,,,,,,,
1739400921.7599208,-0.7078401570526816,0.6780199734580938,1.4201412222495038,-1.8790893083105702,-0.7117900880878654,1.947580905139117,0.1876206477392806,-0.0008148355217991125,-0.0002980669009248015,0.0010902348175714687,-0.0009525873254770192,0.002340952231333111,0.00045383798272708494,-0.0005986907861230354,0.2411382496356964,-23.63736343383789,19.577133178710938,17.89893341064453,0.8440042734146118,2.3476455211639404,-0.08051909506320953,,,,,,,,,
1739400921.7699752,-0.7078397051844968,0.6780217373954808,1.4201431347304545,-1.8790829084967258,-0.7117929940510417,1.9475793898189604,0.18762048059669284,-0.0012983349804696989,0.0013232341341883553,0.00026344632343793125,0.0013987002691762428,-0.00036768425457076785,-0.0001611007759577359,-0.0015829192866804991,0.2689092457294464,-23.66513442993164,19.553329467773438,17.84735870361328,0.8641458749771118,2.3604629039764404,-0.07411040365695953,,,,,,,,,
1739400921.7800574,-0.7078397368142539,0.6780182262661806,1.4201397487758876,-1.8790865323930348,-0.7117917240757274,1.9475801474790386,0.18762179455788375,-0.0004752930483813087,0.0005094232060685843,-0.0007909885596101437,0.0001620937173104539,0.0006089906911413208,-0.00022620975433228506,-0.0015506301545941087,0.2689092457294464,-23.61355972290039,19.604904174804688,17.89893341064453,0.8568216562271118,2.3540542125701904,-0.06678618490695953,,,,,,,,,
1739400921.7910218,-0.7078397031102018,0.6780162620332909,1.4201431445440782,-1.8790826143228927,-0.7117920758280274,1.947578632158882,0.1876213262291139,0.00020585161901828637,-0.0006448614716602771,0.000541015785833018,0.0004739756604567136,0.0005522783195989796,-0.000522606159356352,-0.000879683884809234,0.2689092457294464,-23.58578872680664,19.553329467773438,17.84735870361328,0.8568216562271118,2.3668715953826904,-0.08692778646945953,,,,,,,,,
1739400921.8019547,-0.7078414407751432,0.6780144686226789,1.420143295813027,-1.879082617994139,-0.711791879654565,1.947580905139117,0.18762652559910112,-0.0006544727696659673,-0.00046670285769270065,-0.0008649516662503727,0.00044806107998260125,0.00014619828651593186,0.00017977284706437836,0.002716677508166998,0.2927129566669464,-23.56198501586914,19.577133178710938,17.84735870361328,0.8568216562271118,2.3476455211639404,-0.12080229818820953,,,,,,,,,
1739400921.8119802,-0.707836927699568,0.6780240773212994,1.4201421743982643,-1.8790868130620093,-0.7117966559091898,1.947582317989956,0.18762787569192071,0.0016763703085946578,0.0016180614486898245,0.000553053023173357,-0.00010101347626818047,-0.002481540176434252,0.0018763162397136444,0.002585385925409574,0.2173345386981964,-23.66513442993164,19.577133178710938,17.87512969970703,0.8705545663833618,2.3476455211639404,-0.13361968100070953,,,,,,,,,
1739400921.822,-0.7078414406839918,0.6780199734937119,1.4201388978953249,-1.879086812992853,-0.7117910100713393,1.947579389842887,0.18762901565705978,-0.0002438433767712953,0.001653491524200336,-0.0006904146096840865,-0.00038567206544681224,-0.0003344143857220627,-0.0005607659235650079,-5.4992128680251775e-05,0.2927129566669464,-23.63736343383789,19.577133178710938,17.87512969970703,0.8504129648208618,2.3604629039764404,-0.12721098959445953,,,,,,,,,
1739400921.83202,-0.7078397021474697,0.6780182349369374,1.4201373362703242,-1.879085621004935,-0.7117910043633573,1.9475817710363499,0.1876271712020692,-0.00011999097054900097,0.000710443836956304,-0.0011991720323836766,0.0011638948014059498,3.8265153218718136e-05,0.0009424890756719201,0.004308060809871649,0.2689092457294464,-23.61355972290039,19.628707885742188,17.87512969970703,0.8504129648208618,2.3403213024139404,-0.12721098959445953,,,,,,,,,
1739400921.8429236,-0.7078400141872553,0.6780219713987542,1.4201411192296287,-1.879086452920123,-0.7117926279739617,1.947578632158882,0.18762443405418322,-0.00022188566889441464,0.0011101544326906827,2.9370568422080047e-05,0.0002154265252485097,-8.932584348183886e-05,-0.0004143517789429898,1.5881133773092354e-05,0.2689092457294464,-23.66513442993164,19.577133178710938,17.89893341064453,0.8641458749771118,2.3668715953826904,-0.10706938803195953,,,,,,,,,
1739400921.852947,-0.707838414995512,0.678021945398521,1.4201390305727681,-1.8790864499713498,-0.7117957824476174,1.947580905139117,0.1876288905799903,0.000754047917118516,0.00038586045927668295,0.00014174627885271888,0.0010264432935419066,0.000148596323142578,0.0007016624350145808,0.0013680286310765852,0.2411382496356964,-23.66513442993164,19.604904174804688,17.89893341064453,0.8641458749771118,2.3476455211639404,-0.12721098959445953,,,,,,,,,
1739400921.8639743,-0.7078400413009517,0.678016154906388,1.4201394024931286,-1.8790871652270373,-0.7117933527047086,1.947578632158882,0.18762994721015924,0.00013899347509890603,-0.0022771372227592193,-1.7646708875919227e-05,-0.0009212880122028474,-0.00041049989351774524,-9.416996057126523e-05,0.0015680961006282145,0.2411382496356964,-23.61355972290039,19.628707885742188,17.89893341064453,0.8705545663833618,2.3668715953826904,-0.12721098959445953,,,,,,,,,
1739400921.875005,-0.7078384062296298,0.6780220823658726,1.4201374863263407,-1.8790882298179337,-0.7117952549577848,1.9475801474790386,0.18762174061445824,0.0007279221516509836,0.0005659668628171174,0.0005175771369731691,0.00015771140944230785,-0.0012495858572730751,0.0001610517644737271,-0.0026900732957293736,0.2411382496356964,-23.63736343383789,19.628707885742188,17.92273712158203,0.8568216562271118,2.3540542125701904,-0.06678618490695953,,,,,,,,,
1739400921.8850234,-0.7078435226182159,0.6780197392763473,1.4201390295591705,-1.879089346642521,-0.7117903252540487,1.947580905139117,0.18762412785623017,-0.0008629506830528505,-0.0015685998347882018,0.0002881007818303786,-0.0016845565341405294,0.0006893571806362474,0.00039220792806123614,-0.0006720943705453981,0.2927129566669464,-23.63736343383789,19.604904174804688,17.89893341064453,0.8440042734146118,2.3476455211639404,-0.08692778646945953,,,,,,,,,
1739400921.8959763,-0.7078377302541214,0.6780182493802704,1.4201390423463693,-1.8790882327010094,-0.7117917226159752,1.947578632158882,0.18762454576083526,0.00039273946106716483,-0.0015753592032491332,-0.0006117028578306543,-0.0005280044426487833,0.00017279370840250291,-0.0010290901414558983,-0.00013896283998907414,0.2411382496356964,-23.61355972290039,19.604904174804688,17.92273712158203,0.8568216562271118,2.3668715953826904,-0.08051909506320953,,,,,,,,,
1739400921.9060397,-0.7078377822077574,0.6780182350437385,1.4201390305728174,-1.879082668285481,-0.7117917400579123,1.947575908926521,0.18761953727680009,0.0005445240770301138,-0.0016206528550718685,0.0009703236870252079,0.0012826864256423398,0.0008318844250260705,-0.0013302109728884149,-0.0016409741224663024,0.2411382496356964,-23.61355972290039,19.604904174804688,17.84735870361328,0.8568216562271118,2.3540542125701904,-0.07411040365695953,,,,,,,,,
1739400921.9169383,-0.7078388777289487,0.6780219713984625,1.4201373263509733,-1.8790864765726374,-0.7117960793902088,1.9475801474072583,0.1876231578584807,0.0007470639164721044,-0.00037528197036338273,-0.0006234128186782808,0.00033875932295547405,-0.0009320206503005709,-0.0004637830684564161,-0.0009904312736152157,0.2173345386981964,-23.66513442993164,19.628707885742188,17.89893341064453,0.8568216562271118,2.3540542125701904,-0.06678618490695953,,,,,,,,,
1739400921.927916,-0.7078359916908755,0.6780199734580479,1.4201397458285028,-1.879087165263426,-0.7117930614090866,1.9475778744988035,0.1876210354848226,0.0016278761239760895,0.0009650659915808867,-0.0007125567579527939,6.0075021108889074e-05,-0.0019009068137419904,-0.00042008505541701283,-0.00051775950709609,0.2173345386981964,-23.63736343383789,19.604904174804688,17.89893341064453,0.8641458749771118,2.3732802867889404,-0.06037749722599983,,,,,,,,,
1739400921.9380178,-0.7078396757630734,0.6780162716632571,1.4201382947249188,-1.8790882326604326,-0.7117927841995142,1.947580905139117,0.1876237887597658,0.000366062910915484,-0.0013065104383926493,-0.0021076637866389034,-0.0010921531221628666,-0.0005088715841061809,0.0003215117890495747,-1.6651363712351812e-05,0.2689092457294464,-23.58578872680664,19.604904174804688,17.92273712158203,0.8568216562271118,2.3476455211639404,-0.10706938803195953,,,,,,,,,
1739400921.9489858,-0.70783840621599,0.6780199692852942,1.420145038794243,-1.8790889479040565,-0.7117910061571326,1.9475801474790386,0.18762017530730896,0.001337794148771054,6.717613165070001e-05,0.0016667879904816371,-0.0017654929547441303,0.0008937867595795142,9.005278388256918e-05,-0.0009097000852703906,0.2411382496356964,-23.63736343383789,19.553329467773438,17.92273712158203,0.8504129648208618,2.3540542125701904,-0.08051909506320953,,,,,,,,,
1739400921.959992,-0.7078414493362547,0.6780203668373164,1.4201397491028809,-1.8790846672956267,-0.7117918420218479,1.9475801518396894,0.18762940915595644,8.08484038737366e-05,-0.0009161400848427502,-0.0006740998691581099,0.0008484025841292888,0.0007875858696170005,0.0007314346667297299,0.002498174816362226,0.2927129566669464,-23.61355972290039,19.604904174804688,17.87512969970703,0.8568216562271118,2.3540542125701904,-0.12721098959445953,,,,,,,,,
1739400921.9709876,-0.7078377042063718,0.6780184169871506,1.4201439718255437,-1.879084679068038,-0.711794496291939,1.9475793898189848,0.18762966348710364,0.0009268144944937998,-0.0008284442351885274,-6.0244091610344434e-05,0.0009720746979942957,4.357025437876842e-05,0.00027722518765329826,0.001767736719723751,0.2411382496356964,-23.61355972290039,19.577133178710938,17.87512969970703,0.8769632577896118,2.3604629039764404,-0.12080229818820953,,,,,,,,,
1739400921.980997,-0.7078414266514746,0.6780247533352091,1.4201419047259785,-1.8790864499714992,-0.7117909664154276,1.9475793898189604,0.1876253331191834,0.00011507667975738345,0.0010589043714884765,2.019526155447798e-05,0.0002708261440149659,0.00045123839033874106,3.123999940590692e-05,-0.0001841146137464329,0.2927129566669464,-23.66513442993164,19.604904174804688,17.89893341064453,0.8504129648208618,2.3604629039764404,-0.12080229818820953,,,,,,,,,
1739400921.9919848,-0.7078427441915598,0.6780199734737521,1.420139034549767,-1.8790864499713,-0.7117941502221802,1.9475801479635553,0.1876178336690688,-0.00021099185469569519,0.0003084645945416398,-0.0011417763059395148,-0.000290390985730753,0.0007027251690963239,0.000337406829201323,-0.001432439053843044,0.2689092457294464,-23.63736343383789,19.604904174804688,17.89893341064453,0.8504129648208618,2.3540542125701904,-0.06037749722599983,,,,,,,,,
1739400922.0029552,-0.7078377798056218,0.6780199646842572,1.4201414299497432,-1.8790853914893522,-0.711792627937885,1.9475808920571676,0.1876237909190682,0.0014994656577881301,0.0003697575815591484,0.0001316726616634211,-0.0008842192319963464,0.0001470330241825946,0.00022533897163347176,0.0005784966277096704,0.2173345386981964,-23.63736343383789,19.577133178710938,17.87512969970703,0.8641458749771118,2.3476455211639404,-0.10706938803195953,,,,,,,,,
1739400922.0139334,-0.7078392689308304,0.6780212693884917,1.420139039408348,-1.8790882326605833,-0.7117959611684944,1.9475786321586603,0.18762513673851325,0.000584961172009167,0.0002048601073502011,0.0005881004241394744,-9.472544672738455e-05,-0.0014747542560989662,-0.0001743617621931532,0.001281867083704758,0.2927129566669464,-23.66513442993164,19.604904174804688,17.92273712158203,0.8568216562271118,2.3668715953826904,-0.11347807943820953,,,,,,,,,
1739400922.024975,-0.7078435553616782,0.6780219742865112,1.420141451060843,-1.8790884710668982,-0.7117927050196535,1.947580905139117,0.18762969461205298,-0.00092692450695638,-0.00047712386231411414,0.0019085421850963812,-0.0007277243699955327,-0.0010681345401322255,0.0006834388229910082,0.0017056387274879284,0.2927129566669464,-23.66513442993164,19.604904174804688,17.92273712158203,0.8641458749771118,2.3476455211639404,-0.13361968100070953,,,,,,,,,
1739400922.0360298,-0.7078399363051969,0.6780237609578116,1.4201360901268116,-1.879084668603822,-0.7117959611684844,1.9475801474790386,0.18763006553193456,0.0008565585249033151,0.0011123210632813284,-4.0351224973891154e-05,0.00035249235475909866,-0.0007624091684588321,7.91466737467203e-05,0.0021846226996185204,0.2689092457294464,-23.68893814086914,19.604904174804688,17.87512969970703,0.8568216562271118,2.3540542125701904,-0.12721098959445953,,,,,,,,,
1739400922.0469308,-0.7078397063212515,0.6780236876649778,1.4201390070085051,-1.8790856209686047,-0.7117909654636745,1.9475808026697994,0.18762509528672278,0.00016280063274955528,0.0009023399363619746,-0.0004945031454333902,-0.0006225304483956544,0.0005910464321870709,0.00026799590651604136,0.0023296111655309037,0.2689092457294464,-23.68893814086914,19.604904174804688,17.87512969970703,0.8504129648208618,2.3604629039764404,-0.12080229818820953,,,,,,,,,
1739400922.0569565,-0.7078414531869125,0.6780199738861011,1.4201372743861531,-1.8790846627317483,-0.7117917227768236,1.9475786714286654,0.18762407783386645,-0.0001858938904240095,-0.00017804597663599456,-0.0005257036598412748,0.0002191822206887888,0.0004741257695659914,-0.00010901744345082542,0.00014849308481102504,0.2927129566669464,-23.63736343383789,19.628707885742188,17.87512969970703,0.8568216562271118,2.3668715953826904,-0.11347807943820953,,,,,,,,,
1739400922.0669725,-0.7078397024686738,0.6780199993514378,1.4201382810432237,-1.8790868925342754,-0.7117909649552338,1.947577874337963,0.18762500082801295,0.00047447541890745953,-0.0007506615305529372,0.00011828828757760596,5.351534443699609e-05,0.0016988198182629425,-0.0007073381796513989,0.0003407922261199564,0.2689092457294464,-23.63736343383789,19.628707885742188,17.87512969970703,0.8504129648208618,2.3732802867889404,-0.09425200521945953,,,,,,,,,
1739400922.0769794,-0.7078342881525048,0.6780182783783395,1.420137256743413,-1.8790864462297538,-0.7117917751046238,1.947580147479036,0.1876320885885387,0.0019080200262157345,-2.077132974120932e-05,-0.0005555628585555742,-0.0005304304492862713,0.0012834572582253513,-0.00013935726586088824,0.004536535562721284,0.1935308277606964,-23.61355972290039,19.628707885742188,17.89893341064453,0.8568216562271118,2.3540542125701904,-0.14094389975070953,,,,,,,,,
1739400922.0869863,-0.7078397801483214,0.6780199773102514,1.4201388851225516,-1.8790862461538118,-0.7117917415123515,1.9475786319973762,0.18762397386343316,0.00022486754768382997,0.00015607208993135364,-0.00044223576206112446,0.0001221423177795246,0.0003899611519434559,-9.436443851994702e-05,-0.00022747097367923364,0.2689092457294464,-23.63736343383789,19.577133178710938,17.92273712158203,0.8568216562271118,2.3668715953826904,-0.10066069662570953,,,,,,,,,
1739400922.0979075,-0.7078397021483501,0.6780199734581132,1.4201411759629834,-1.8790864499376585,-0.7117910100156086,1.9475809051391144,0.18762640022492122,0.0002880934482561708,0.0012967914386786074,-0.0005410130168661207,0.0003510894983356608,0.0008444989511261753,0.0006942451260545436,0.0033206279041597827,0.2689092457294464,-23.63736343383789,19.604904174804688,17.89893341064453,0.8504129648208618,2.3476455211639404,-0.12080229818820953,,,,,,,,,
1739400922.1079957,-0.7078418082134771,0.6780196585645565,1.4201439363736312,-1.8790864499712996,-0.7117914884489147,1.9475801455409716,0.18762281667104422,0.0005801485440662924,-0.0006051206555344707,-0.0001758108701612655,-0.0007465211245589202,-0.0005975383189497533,-6.18540537669165e-05,-0.0009159544522210862,0.2689092457294464,-23.63736343383789,19.553329467773438,17.89893341064453,0.8504129648208618,2.3540542125701904,-0.06678618490695953,,,,,,,,,
1739400922.1190147,-0.7078397108257113,0.678019970603005,1.420147175719808,-1.879086452914739,-0.7117909611890496,1.9475786321588708,0.18762407391285535,0.00010197894886091138,0.0007109135275128873,0.0006129157338124729,0.0007634269638702657,0.0016924086077554621,-0.0005998961249724142,-0.0003668035271381127,0.2689092457294464,-23.63736343383789,19.529525756835938,17.89893341064453,0.8504129648208618,2.3668715953826904,-0.11347807943820953,,,,,,,,,
1739400922.1299934,-0.7078423506814903,0.6780225986179289,1.4201430083201396,-1.8790885960655772,-0.7117909649552098,1.947579390303477,0.18762191696209415,-0.0008415729712682621,0.0008479620443910823,0.0005286470763523989,-0.00025452707732102355,0.0013800579636696262,-0.00026592780900226026,-0.000994516807296412,0.2927129566669464,-23.66513442993164,19.553329467773438,17.89893341064453,0.8504129648208618,2.3604629039764404,-0.09425200521945953,,,,,,,,,
1739400922.140989,-0.7078399361557332,0.6780219710814493,1.4201393605655133,-1.8790864617935104,-0.7117945642312623,1.9475801479635582,0.18761945717037046,-0.000553093273520404,0.0006227421496575961,0.00016926953645705943,0.0005068280486561002,-0.0006436387120375321,0.00011320836704903779,-0.0012102390316005528,0.2689092457294464,-23.66513442993164,19.604904174804688,17.89893341064453,0.8440042734146118,2.3540542125701904,-0.07411040365695953,,,,,,,,,
1739400922.1529095,-0.7078397021483501,0.6780236839196304,1.420139057210789,-1.8790896553767078,-0.7117934317787101,1.9475786321588846,0.1876264076536147,0.0008098892695035706,0.001210461763505482,-0.0009210376642097466,-0.0007904309139316499,-0.001317605387130967,-0.0005559563967447873,0.0021649220733389344,0.2689092457294464,-23.68893814086914,19.604904174804688,17.89893341064453,0.8440042734146118,2.3668715953826904,-0.12080229818820953,,,,,,,,,
1739400922.1629999,-0.7078414233345537,0.6780182609373168,1.420141837428457,-1.8790903464621789,-0.7117909844079385,1.9475793898189604,0.1876250052104869,-0.0007569724903176005,-0.0018579689167549872,0.0012109051166426452,-0.0015245695911723029,0.0007672005087224521,0.00016780879718389857,5.516179389100369e-06,0.2927129566669464,-23.61355972290039,19.577133178710938,17.94654083251953,0.8504129648208618,2.3604629039764404,-0.09425200521945953,,,,,,,,,
1739400922.1739395,-0.7078414233702685,0.6780236839196322,1.4201372483357682,-1.8790882414805061,-0.7117909794908434,1.9475781731974044,0.18762130200921326,0.0003629990065592017,0.0007362347489536921,-0.00034941954545664086,-0.0006747152877233219,-0.0004968386230115544,-0.0011382993624587715,-0.0014730227453402793,0.2927129566669464,-23.68893814086914,19.628707885742188,17.92273712158203,0.8504129648208618,2.3604629039764404,-0.05396880581974983,,,,,,,,,
1739400922.1840174,-0.7078419154963996,0.678021971398901,1.4201390310086905,-1.879090025573017,-0.7117903642788255,1.9475793883448065,0.1876187238691249,-0.00020173817533160885,0.0001636124852973979,-0.0003816406043268264,-0.001234560291266618,0.00017670689264823663,-3.819813607990131e-05,-0.0009310935551500584,0.2689092457294464,-23.66513442993164,19.604904174804688,17.94654083251953,0.8440042734146118,2.3604629039764404,-0.06678618490695953,,,,,,,,,
1739400922.1949835,-0.7078420421937258,0.6780236850252725,1.420135168105746,-1.879088471066956,-0.7117949015305836,1.947579389818952,0.18762206015856875,-0.0006558525452288544,0.001029933904932423,-0.0010477120927051323,-0.0005370631538865272,-0.00017792262915350334,0.0002126735608167685,0.0009833966192307891,0.2689092457294464,-23.68893814086914,19.656478881835938,17.92273712158203,0.8568216562271118,2.3604629039764404,-0.11347807943820953,,,,,,,,,
1739400922.2069747,-0.7078400150544256,0.6780238919226786,1.420139030572618,-1.8790864778808105,-0.7117909651885169,1.9475793723763575,0.18762372529332216,0.00031287390787522446,0.0003718070484256924,0.0007214760867986952,8.103975497760033e-05,0.0015736335381294425,-0.0003116005017882723,-0.0011308429257150799,0.2689092457294464,-23.68893814086914,19.604904174804688,17.89893341064453,0.8504129648208618,2.3604629039764404,-0.10706938803195953,,,,,,,,,
1739400922.2179465,-0.707837712909224,0.678018260973374,1.420139030572618,-1.8790868131826746,-0.7117909605400726,1.9475801474790058,0.18762337943151142,0.001765109019766569,-0.0007449009858277604,0.0005757018392729869,0.00012720059052584345,-0.00015042618288321682,0.0003974479028173951,-0.0011811313903077728,0.2411382496356964,-23.61355972290039,19.604904174804688,17.87512969970703,0.8504129648208618,2.3540542125701904,-0.08051909506320953,,,,,,,,,
1739400922.2290094,-0.7078376011313434,0.6780206758962987,1.4201390306089567,-1.8790864499834135,-0.7117909780909936,1.9475801474790386,0.18762814560984004,0.0008684091375835701,0.0005665107508805062,-0.00038079034275112196,0.0005404856869083061,0.0012534370552059779,2.2122495763623475e-05,0.001283325267718125,0.2411382496356964,-23.63736343383789,19.604904174804688,17.89893341064453,0.8504129648208618,2.3540542125701904,-0.12080229818820953,,,,,,,,,
1739400922.2399077,-0.7078377822067343,0.6780198652294209,1.4201428930394926,-1.879087909917167,-0.711791438936802,1.9475778744988037,0.18762124312718753,0.0008299003442781613,0.0005047056332509681,0.0022554340084088185,1.3395106472680368e-05,-1.1143326468486276e-06,-0.0002652628221614822,-0.0022050531188192567,0.2411382496356964,-23.66513442993164,19.553329467773438,17.89893341064453,0.8440042734146118,2.3732802867889404,-0.08051909506320953,,,,,,,,,
1739400922.250073,-0.7078452341862135,0.6780206750403118,1.4201412270825582,-1.879087165628259,-0.7117920889725452,1.947579789905678,0.18762585729665718,-0.0009877003793962572,0.00013942443006984437,0.0004088301792832907,0.00018063590276223195,0.0020762572247110403,-0.00042783223311684034,0.0009097085822767439,0.3165166676044464,-23.63736343383789,19.577133178710938,17.89893341064453,0.8568216562271118,2.3540542125701904,-0.12721098959445953,,,,,,,,,
1739400922.2609584,-0.707842510239591,0.6780202073082364,1.4201411100235313,-1.8790865182168306,-0.7117960795521083,1.9475793893337707,0.18762179950492838,-0.0001794299178589009,0.00010169908706216927,-0.0009808637684175063,-0.0007199952358867203,-0.0009339886900627521,-0.00014348896323252848,-0.0011136365561455305,0.2689092457294464,-23.63736343383789,19.577133178710938,17.89893341064453,0.8568216562271118,2.3604629039764404,-0.09425200521945953,,,,,,,,,
1739400922.2729192,-0.7078359917012967,0.6780199779532609,1.4201428930394906,-1.879086450008024,-0.7117918404313095,1.9475809051391142,0.1876233201711236,0.00270721795629767,0.0006362931346604565,-0.0017530839276969383,0.0010004427488161816,-0.0006131228523272049,-0.00010863601299257279,-0.0008902930947025094,0.2173345386981964,-23.63736343383789,19.553329467773438,17.89893341064453,0.8568216562271118,2.3476455211639404,-0.10706938803195953,,,,,,,,,
1739400922.2829819,-0.7078406342361246,0.6780194309544941,1.420143850747411,-1.8790847468761576,-0.7117918534368267,1.9475793898189604,0.18761958110767546,-0.0006617758725526087,0.0001841668813096599,0.0007855293003057893,0.0011540412958936546,-0.00021900584646454162,0.00014625942521983144,-0.0012341750155551836,0.2689092457294464,-23.61355972290039,19.553329467773438,17.87512969970703,0.8568216562271118,2.3604629039764404,-0.07411040365695953,,,,,,,,,
1739400922.2939785,-0.7078418341834529,0.6780241033296704,1.420139061320612,-1.8790929057831292,-0.7117920682544414,1.9475801474790386,0.1876228581383449,0.0006282322093220422,0.0017395929617014224,-0.0010019210282202298,-0.001700655481567327,0.0005370474078703081,0.0006958357969022474,-0.0006356623847718239,0.2689092457294464,-23.66513442993164,19.604904174804688,17.94654083251953,0.8504129648208618,2.3540542125701904,-0.06678618490695953,,,,,,,,,
1739400922.3059075,-0.7078398885631024,0.6780182599783513,1.420144915116295,-1.8790868130790448,-0.7117946153064916,1.9475819647772463,0.18762442761951295,0.0003980264839690306,-0.0016439275784780262,0.0014041989729543073,-0.00045639010240920485,-0.001053496709156203,0.0011527199517643587,0.00048805168992588615,0.2411382496356964,-23.61355972290039,19.529525756835938,17.87512969970703,0.8504129648208618,2.3476455211639404,-0.11347807943820953,,,,,,,,,
1739400922.3159618,-0.7078425362364485,0.6780182609373113,1.4201372478969503,-1.879082587879926,-0.7117917247893235,1.947579389824942,0.18762335370925792,-0.0007928400974006212,-0.00022675965757913306,-0.0002923127791240305,0.0015320663827463757,-0.00048530805105317227,0.0008286307722431602,0.00046726973297735907,0.2689092457294464,-23.61355972290039,19.628707885742188,17.84735870361328,0.8568216562271118,2.3604629039764404,-0.10706938803195953,,,,,,,,,
1739400922.3260272,-0.7078442227567987,0.6780236839196322,1.420137430715881,-1.879086555935119,-0.7117911395428029,1.9475818101207005,0.18762662802598706,-0.00010514334591695806,0.0007930514750959099,-0.0002659458633848379,0.0007379517662197542,-0.0005240804340989286,0.000647416916611611,0.0017297938479786412,0.2927129566669464,-23.68893814086914,19.628707885742188,17.89893341064453,0.8504129648208618,2.3403213024139404,-0.13361968100070953,,,,,,,,,
1739400922.3370144,-0.7078431657234249,0.6780219715058985,1.42013903057365,-1.879084617256412,-0.7117927585789062,1.94757938400498,0.18761943076301457,-0.0015071548358234787,-0.0005320998310293043,-5.809273085898459e-05,0.0014786578029172275,0.001129932325438458,0.0006639667583271499,-0.0015411569585478094,0.3165166676044464,-23.66513442993164,19.604904174804688,17.87512969970703,0.8641458749771118,2.3604629039764404,-0.07411040365695953,,,,,,,,,
1739400922.347975,-0.7078377043138262,0.6780236835986417,1.420139030572618,-1.8790856297980678,-0.7117931936110384,1.9475809109532196,0.18762180468917522,0.0019711618943942617,0.0010722277844507455,-6.298876018360144e-05,-4.3981209790506484e-05,0.0004176964195413711,-3.227009078238805e-05,-0.0007836535408745733,0.2411382496356964,-23.68893814086914,19.604904174804688,17.87512969970703,0.8568216562271118,2.3476455211639404,-0.09425200521945953,,,,,,,,,
1739400922.358026,-0.707840433153599,0.6780236925864238,1.4201411089291114,-1.8790882325487737,-0.7117925885746809,1.9475793898189933,0.18762513478634904,0.00017051330642927633,0.0016775008586541822,0.0004160389347437455,-0.00020203541356910587,0.0005720208239527696,8.573749659477012e-05,-0.0005293591985635574,0.2689092457294464,-23.68893814086914,19.577133178710938,17.92273712158203,0.8641458749771118,2.3604629039764404,-0.11347807943820953,,,,,,,,,
1739400922.3689675,-0.7078398106690745,0.678017558927105,1.4201390305726098,-1.8790893139376879,-0.7117950585131243,1.9475793898189604,0.18762408998797026,0.0003612765901286329,-0.0029073678522185623,0.0009078044274526678,-2.6466145250194712e-05,-0.0004971060101688232,0.00011109515602490214,-0.0009564894302965432,0.2411382496356964,-23.61355972290039,19.604904174804688,17.89893341064453,0.8568216562271118,2.3604629039764404,-0.11347807943820953,0,0,0,0.000,0,0
1739400922.3799546,-0.7078377042180671,0.6780256818565223,1.4201350846719591,-1.879088837443746,-0.7117930599661696,1.947578981010941,0.18762272759962736,0.000218999560372338,0.0015773299600343232,-0.0014981483686273443,-0.001367713352244187,0.00017182998205280743,5.7336101265455935e-06,-0.00028884697772216147,0.2411382496356964,-23.71670913696289,19.656478881835938,17.89893341064453,0.8641458749771118,2.3668715953826904,-0.10066069662570953,0,0,0,0.000,0,0
1739400922.3909206,-0.7078431271884916,0.6780201413370449,1.4201381433752402,-1.8790893497448404,-0.7117909649578924,1.9475793898209295,0.18762193591825188,5.1638087653148854e-05,4.294216031445179e-05,0.00013468835115150818,-0.000973206279002299,-0.0001047654425532696,-6.04175376227508e-05,-0.0005515714624746694,0.3165166676044464,-23.63736343383789,19.577133178710938,17.89893341064453,0.8504129648208618,2.3604629039764404,-0.09425200521945953,0,0,0,0.000,0,0
1739400922.401027,-0.7078417526727007,0.6780183504970244,1.4201411101991734,-1.879085011725781,-0.7117968272265648,1.9475797942663289,0.18762845923974367,-0.0014045168674288017,-0.0005704130791396854,8.925319409388018e-05,0.000436926531752145,-0.0007034023426733687,-0.00033156670378302507,0.0016429180540744662,0.2927129566669464,-23.61355972290039,19.577133178710938,17.87512969970703,0.8641458749771118,2.3540542125701904,-0.11347807943820953,0,0,0,0.000,0,0
1739400922.411986,-0.7078397021489372,0.6780237620639411,1.4201390305726171,-1.8790874125142172,-0.7117949015536251,1.9475825687313544,0.18762791522030733,-0.0003724506528177118,0.0009892966578291167,-0.0007730633440065462,-0.0002978917899868988,-0.000991054426601703,0.00040197280232485874,0.0028210747553131105,0.2689092457294464,-23.68893814086914,19.604904174804688,17.89893341064453,0.8568216562271118,2.3604629039764404,-0.13361968100070953,0,0,0,0.000,0,0
1739400922.4220567,-0.7078397108138225,0.6780199734593713,1.4201373276955074,-1.879084750708027,-0.711792588727883,1.9475840841073402,0.187625095394822,0.0005583866587051043,0.0004121423260160474,-5.2177526773981246e-05,0.00034265477107350785,0.0007008055751616528,0.0011057318702818151,0.0009110476151935718,0.2689092457294464,-23.63736343383789,19.628707885742188,17.87512969970703,0.8641458749771118,2.3476455211639404,-0.12080229818820953,0,0,0,0.000,0,0
1739400922.432983,-0.7078384386101474,0.678019973458048,1.4201411103629238,-1.879082596335214,-0.7117933854723132,1.9475786321768271,0.18761902416485046,0.0007589212240501374,0.00013501630529171957,-0.0007876608101023878,0.001270820434227222,-0.0003441522162285946,-0.00014262961731177832,-0.002810892576274159,0.2173345386981964,-23.63736343383789,19.577133178710938,17.84735870361328,0.8705545663833618,2.3668715953826904,-0.06678618490695953,0,0,0,0.000,0,0
1739400922.4439406,-0.707840413836539,0.6780168648571124,1.4201413487810526,-1.8790864499713498,-0.7117926015947159,1.9475793898189604,0.18762590872819682,-0.00025157038658283986,-0.00040442009017181544,-0.0001133845253466524,0.000427500802345039,0.0007827617575144073,0.0001783576208335061,0.0015280500116447299,0.2689092457294464,-23.58578872680664,19.577133178710938,17.89893341064453,0.8641458749771118,2.3604629039764404,-0.10066069662570953,0,0,0,0.000,0,0
1739400922.4539454,-0.7078377042182287,0.6780220754106137,1.4201439718255253,-1.8790901330629082,-0.7117932939033469,1.9475801460254882,0.1876265037300459,0.0005561239410393194,0.0011989777850085876,0.000824995942276425,-0.002189717953624764,0.00012517456359339627,-8.180615624423306e-05,0.0003992476670955854,0.2411382496356964,-23.66513442993164,19.577133178710938,17.94654083251953,0.8568216562271118,2.3540542125701904,-0.10706938803195953,0,0,0,0.000,0,0
1739400922.4640076,-0.7078418052343721,0.6780200774613295,1.4201420729155667,-1.8790808048294,-0.7117929432054118,1.9475793898189357,0.18762130482697614,-0.00020371626407480374,0.001250985344636805,0.0005994956971203979,0.001309446300568916,-0.00030775400251182374,-0.0001444567407239397,-0.0008666360578704089,0.2689092457294464,-23.63736343383789,19.577133178710938,17.82355499267578,0.8641458749771118,2.3604629039764404,-0.08692778646945953,0,0,0,0.000,0,0
1739400922.474989,-0.7078397021589011,0.6780199731376427,1.420137963302125,-1.8790871662081836,-0.7117963201967398,1.947578632158882,0.1876310593868131,0.0005666492535438164,-0.0002685080768369414,-0.0003684782584419297,0.0001162184115365806,-0.0017186207143419041,-0.00040842229255389986,0.002830399538331971,0.2689092457294464,-23.63736343383789,19.628707885742188,17.89893341064453,0.8568216562271118,2.3668715953826904,-0.13361968100070953,0,0,0,0.000,0,0
1739400922.4859424,-0.7078377418692782,0.6780202074614664,1.4201392812050577,-1.8790864882400533,-0.7117917624254715,1.9475801474790386,0.18762438722821104,0.00038384878060907836,-0.0010549165115992948,0.00046242541653723367,-0.0005806280232585196,-0.0008988939720250535,0.0001328005542897733,-0.00010689119850317095,0.2411382496356964,-23.63736343383789,19.604904174804688,17.89893341064453,0.8568216562271118,2.3540542125701904,-0.11347807943820953,0,0,0,0.000,0,0
1739400922.4959674,-0.7078377417629185,0.6780199734620108,1.4201401089227925,-1.8790865569169073,-0.7117917400585865,1.9475759087650153,0.18762646378615175,0.0004465433961514388,-0.0008333673654824221,3.4699512022920876e-05,0.000269433551942094,0.0011832564791694079,-0.001093660750435475,0.00024241219241733322,0.2411382496356964,-23.63736343383789,19.628707885742188,17.89893341064453,0.8568216562271118,2.3540542125701904,-0.09425200521945953,0,0,0,0.000,0,0
1739400922.5079927,-0.7078423508243166,0.6780219713989011,1.4201390305887687,-1.8790857095994273,-0.711791859249131,1.9475795075326026,0.18762247418955208,-0.0017514880628247214,0.0001588956243030476,0.00046594878314628593,-0.0006240506113969069,-0.0006910989655599724,0.00018785480785551173,-0.0003572141505949523,0.2927129566669464,-23.66513442993164,19.604904174804688,17.87512969970703,0.8568216562271118,2.3604629039764404,-0.08692778646945953,0,0,0,0.000,0,0
1739400922.5189035,-0.7078420914763218,0.6780199747420174,1.4201393454116014,-1.8790882339987367,-0.7117930987094495,1.9475769685653148,0.18762777448263956,-5.0930570947830845e-05,-0.0004192776034746507,0.00015185115215948634,0.0001596778238264772,-0.0014356154518307294,-0.00029696605887092795,-0.0010867276513529568,0.2927129566669464,-23.63736343383789,19.604904174804688,17.92273712158203,0.8641458749771118,2.3540542125701904,-0.11347807943820953,0,0,0,0.000,0,0
1739400922.5290277,-0.7078397025788395,0.6780199734580551,1.4201397458301326,-1.8790849149792506,-0.7117914239734239,1.9475793898010152,0.18763047277439762,-0.0001305190535537947,-0.0002675630876038069,0.00040183640015080245,0.0008191945000658337,0.00035686432807665203,0.0007515767192534834,0.002140486994653563,0.2689092457294464,-23.63736343383789,19.604904174804688,17.87512969970703,0.8440042734146118,2.3604629039764404,-0.12721098959445953,0,0,0,0.000,0,0
1739400922.5410106,-0.7078398111999377,0.6780199733153847,1.4201390307220105,-1.879088232976766,-0.7117957232224632,1.9475793854583094,0.1876217989411287,5.64495996954376e-05,-0.00043773138237822057,0.0006216357019351845,-0.0007325699876475396,-0.0004559330136103654,0.00013011830499402835,-0.0014168042433236076,0.2411382496356964,-23.63736343383789,19.604904174804688,17.92273712158203,0.8568216562271118,2.3604629039764404,-0.06678618490695953,0,0,0,0.000,0,0
1739400922.5519042,-0.7078414146836136,0.6780182647892247,1.4201390570635715,-1.8790847686292476,-0.711795032536198,1.9475793896574465,0.18762403229248417,0.00041482082753650925,-0.0006330722979703558,-0.0008538614043965509,0.0008061896385250976,0.0014317936039097844,0.00028058306853331975,0.0013219687241152098,0.2927129566669464,-23.61355972290039,19.604904174804688,17.84735870361328,0.8568216562271118,2.3604629039764404,-0.10066069662570953,0,0,0,0.000,0,0
1739400922.5619757,-0.7078397063199299,0.6780199696062049,1.420143256130134,-1.8790846676582673,-0.7117963333327435,1.9475786452408312,0.18762034608310763,-1.693174698709599e-06,-0.0006574490403356466,0.0008528967725895856,0.0009064682614934343,-0.00030830166976933475,0.00014109946318686725,-0.0009002461531760347,0.2689092457294464,-23.63736343383789,19.577133178710938,17.87512969970703,0.8568216562271118,2.3668715953826904,-0.08051909506320953,0,0,0,0.000,0,0
1739400922.5720036,-0.7078377043132442,0.6780200033102709,1.4201411103988122,-1.8790847771826857,-0.7117948383843193,1.9475801474792602,0.18761926384254668,0.0006889669770289545,0.0013915044857728798,-0.0004901168269709394,0.00015502418908309608,0.00015901969862123943,0.00026466457345870496,-0.0011096948208917687,0.2411382496356964,-23.63736343383789,19.577133178710938,17.87512969970703,0.8440042734146118,2.3540542125701904,-0.06037749722599983,0,0,0,0.000,0,0
1739400922.5829787,-0.7078418168446063,0.6780221574904756,1.4201389609112232,-1.8790846672961419,-0.7117955965292595,1.9475801474790386,0.18761947064144818,5.729681049000286e-05,0.00047166495652165366,-0.0011402350471560307,6.524691568367546e-05,-0.0016602360665287192,-0.0004998546924737112,-0.001118453364042086,0.2689092457294464,-23.63736343383789,19.604904174804688,17.87512969970703,0.8504129648208618,2.3540542125701904,-0.07411040365695953,0,0,0,0.000,0,0
1739400922.5939753,-0.7078406191416493,0.6780199643673744,1.4201388851343837,-1.8790864538958856,-0.7117939153823256,1.9475793941796111,0.1876263550721523,-0.0008413657160769521,0.0004891743329486309,0.0005131892943363792,0.0007004182034002862,-0.0003908656961725546,-0.00036416600390805126,0.001097467573417796,0.2411382496356964,-23.63736343383789,19.577133178710938,17.89893341064453,0.8440042734146118,2.3604629039764404,-0.12080229818820953,0,0,0,0.000,0,0
1739400922.6039982,-0.7078398066259036,0.6780223163810274,1.4201429043233496,-1.8790864499713662,-0.7117963275252855,1.9475793898190341,0.18761994695080664,-3.779374688449869e-05,0.0011192234844461658,0.00020318650226462063,0.0008878847321622628,-0.0009534015913329812,-3.562869023385238e-05,-0.002051086925639195,0.2689092457294464,-23.63736343383789,19.553329467773438,17.89893341064453,0.8568216562271118,2.3604629039764404,-0.07411040365695953,0,0,0,0.000,0,0
1739400922.6140335,-0.7078414146695297,0.6780182609769945,1.4201402485527237,-1.8790864499713,-0.7117922349890029,1.9475793898189604,0.18762408934289265,-0.0003327810599784082,-0.0009814037217009048,-0.0015428378268112597,-0.0012283564668946333,-4.255926219482958e-05,1.31929856106726e-05,-0.0019100892525549462,0.2927129566669464,-23.61355972290039,19.577133178710938,17.89893341064453,0.8568216562271118,2.3604629039764404,-0.11347807943820953,0,0,0,0.000,0,0
1739400922.6249466,-0.7078377070951073,0.6780182638262482,1.4201370067776327,-1.8790844378513747,-0.7117955581769008,1.947579390303477,0.18761973933147322,0.0010958314923947047,-0.0010487978343497277,-0.0005033005409951253,0.0012434746330377625,-0.00028831403863855705,-8.98979991765866e-05,-0.002045068367520957,0.2411382496356964,-23.61355972290039,19.604904174804688,17.87512969970703,0.8504129648208618,2.3604629039764404,-0.06678618490695953,0,0,0,0.000,0,0
1739400922.634997,-0.7078421516662357,0.6780219713989499,1.4201390333687303,-1.8790867237072644,-0.711792080427962,1.9475801474790466,0.18762227275678645,-0.0006158880381199641,0.0005102675948504753,0.00036850954983021276,-0.0004583060625790804,0.0003604868537051931,0.00027975788497301625,-0.000867494030559937,0.2927129566669464,-23.66513442993164,19.604904174804688,17.89893341064453,0.8568216562271118,2.3540542125701904,-0.09425200521945953,0,0,0,0.000,0,0
1739400922.6459906,-0.7078379382220775,0.6780219713989011,1.4201390305726653,-1.879086811212852,-0.7117931369257583,1.947578632158882,0.18762336464182375,0.000628627147206862,-9.78103424707829e-05,0.0005539747274573721,0.0005538631684159312,0.0010477737630572976,-0.00029580166979155034,-0.0017981822256828686,0.2411382496356964,-23.66513442993164,19.604904174804688,17.87512969970703,0.8568216562271118,2.3668715953826904,-0.08051909506320953,0,0,0,0.000,0,0
1739400922.6569889,-0.7078414185201088,0.678019969570474,1.4201390213775666,-1.8790868928775486,-0.7117925949754264,1.9475801474790386,0.187628303737796,-0.0009362347172026842,-0.001225805739266424,-0.0004602723535471382,0.0006081152362879718,0.0006922581437519726,2.7430226174945458e-05,0.0012785655012431366,0.2927129566669464,-23.63736343383789,19.604904174804688,17.87512969970703,0.8641458749771118,2.3540542125701904,-0.12080229818820953,0,0,0,0.000,0,0
1739400922.6679757,-0.707843120371984,0.6780199721383907,1.4201369182303512,-1.8790907051861896,-0.7117953726415192,1.9475801474790386,0.1876260944703589,-0.0017277073771877595,-0.00033535135882144967,-0.001460085906127112,-0.00104797447666211,0.0012554088896435845,0.0003254644221004695,-5.089294775818652e-05,0.2927129566669464,-23.63736343383789,19.628707885742188,17.92273712158203,0.8568216562271118,2.3540542125701904,-0.09425200521945953,0,0,0,0.000,0,0
1739400922.6789482,-0.7078394637380788,0.6780219713988935,1.4201372478937377,-1.8790906172841326,-0.7117933999581197,1.9475812071171679,0.18762832436110505,0.00043301853416804245,0.0007098743926971555,-0.000245946202478019,-0.00026210740041743313,-0.0007263010759395879,0.0005903428007429591,-0.00034371112844675976,0.2689092457294464,-23.66513442993164,19.628707885742188,17.92273712158203,0.8440042734146118,2.3540542125701904,-0.11347807943820953,0,0,0,0.000,0,0
1739400922.688979,-0.707841518665243,0.6780236925864256,1.420139030572618,-1.8790864588420015,-0.7117917291296008,1.9475778745167487,0.1876251496253725,-0.0008513217244230908,0.0014444813921248242,1.9866708298652127e-05,-0.000309607300211834,0.001022984513958364,-0.00030346357403419167,-0.0007230370223618267,0.2927129566669464,-23.68893814086914,19.604904174804688,17.89893341064453,0.8568216562271118,2.3732802867889404,-0.09425200521945953,0,0,0,0.000,0,0
1739400922.7009392,-0.7078418438085486,0.6780236839196812,1.4201428930394926,-1.879090378560936,-0.7117929539877452,1.9475793898189604,0.18762455211626383,-8.039390377034649e-05,0.0012751265718091139,0.0010015760557280599,-0.0007315809222601329,-0.0014166994554964578,2.161951403305474e-05,0.0005567320847641118,0.2689092457294464,-23.68893814086914,19.553329467773438,17.92273712158203,0.8568216562271118,2.3604629039764404,-0.10706938803195953,0,0,0,0.000,0,0
1739400922.7109802,-0.7078397801959248,0.678019974421025,1.4201411221362303,-1.8790893232525236,-0.7117920932775732,1.9475792715968736,0.18762681042777687,3.940494816119115e-05,0.0004931090948738878,9.938981867052205e-05,-0.0011128497294057456,-0.0012844442990525898,-0.00035481240063101114,0.00011083673205650711,0.2689092457294464,-23.63736343383789,19.577133178710938,17.89893341064453,0.8568216562271118,2.3604629039764404,-0.10066069662570953,0,0,0,0.000,0,0
1739400922.7210064,-0.7078425105103859,0.6780182609373331,1.4201392807651534,-1.8790823857639718,-0.711795595972592,1.9475793898169582,0.18762646190872748,-0.00021818198384531564,-0.0011167876254269972,0.0004720334653093201,-0.0005266926989031421,0.0010631115580333132,-0.0003896231803817838,-0.0005035935322958071,0.2689092457294464,-23.61355972290039,19.604904174804688,17.84735870361328,0.8504129648208618,2.3604629039764404,-0.09425200521945953,0,0,0,0.000,0,0
1739400922.7310622,-0.7078416490397328,0.67801998469278,1.420137247899836,-1.8790864502949323,-0.7117973549437308,1.9475793898189604,0.18762286064654563,-0.00014943507073888608,-3.624908904261082e-05,-0.0007852861739983405,0.0007162529232162487,-0.000989263308639668,0.0006497280879717631,-6.71332349385836e-05,0.2927129566669464,-23.63736343383789,19.628707885742188,17.89893341064453,0.8641458749771118,2.3604629039764404,-0.06678618490695953,0,0,0,0.000,0,0
1739400922.741927,-0.7078397024693445,0.6780219717199567,1.42014288746755,-1.8790865598960391,-0.7117964457653172,1.9475801474790386,0.18762960289861558,-0.0007544628342692564,0.00046125727673144404,0.00017256839582794763,0.000705037643798261,-0.0026440008179114483,0.0006912680277356067,0.0020382180727471096,0.2689092457294464,-23.66513442993164,19.553329467773438,17.89893341064453,0.8568216562271118,2.3540542125701904,-0.12080229818820953,0,0,0,0.000,0,0
1739400922.752897,-0.707844460564137,0.6780198954569133,1.420141110362379,-1.8790846712207283,-0.7117932988282798,1.9475793898189604,0.1876273139036925,-0.0006645485438694558,-0.0005208974826167554,0.0004600837164898563,0.0015990441487590537,-0.001346880408073856,0.0003731100576373371,0.0007857164248842966,0.2927129566669464,-23.63736343383789,19.577133178710938,17.87512969970703,0.8568216562271118,2.3604629039764404,-0.11347807943820953,0,0,0,0.000,0,0
1739400922.762922,-0.7078404043171472,0.6780182610438739,1.4201429264644896,-1.879086449971322,-0.7117958088350921,1.9475793835202426,0.18762205227102338,0.0008528550062165397,7.189835689843822e-05,-0.0003315838785216431,0.0007087014181098094,-0.0004624612646853917,-0.0015149831063125722,-0.0005552342267096638,0.2689092457294464,-23.61355972290039,19.577133178710938,17.89893341064453,0.8641458749771118,2.3604629039764404,-0.06037749722599983,0,0,0,0.000,0,0
1739400922.7730067,-0.7078381063949116,0.6780162642804349,1.4201403686465386,-1.879084702615552,-0.7117914555022227,1.9475793898188536,0.18761756335181368,0.0008094715187394567,-0.0006680149170361933,-0.0010139019709824266,0.00016390077737560863,0.0006499487125976272,-9.935278626511112e-05,-0.0025604878190827376,0.2173345386981964,-23.58578872680664,19.577133178710938,17.87512969970703,0.8504129648208618,2.3604629039764404,-0.05396880581974983,0,0,0,0.000,0,0
1739400922.783014,-0.7078418123865245,0.6780199734580696,1.4201390570510102,-1.879086822001425,-0.7117925349593097,1.9475783258201802,0.18762175636659445,-0.00022794077528600387,-0.0006738004650927629,-0.0003920454062377908,0.0008187432332091235,-0.0014065628758302441,-0.0009949128188503466,-0.001294328703310207,0.2689092457294464,-23.63736343383789,19.604904174804688,17.87512969970703,0.8504129648208618,2.3604629039764404,-0.08051909506320953,0,0,0,0.000,0,0
1739400922.7930334,-0.7078397034667355,0.6780182522705235,1.420142893039941,-1.8790889492487417,-0.7117912713205209,1.9475793898009415,0.1876193338548743,0.0002600929664222667,-0.0009011679932974467,0.0008227166920902781,-0.0010174740798778858,0.0036410793016920795,-8.573912114794212e-05,-0.0012843317934034745,0.2689092457294464,-23.61355972290039,19.553329467773438,17.92273712158203,0.8440042734146118,2.3604629039764404,-0.06037749722599983,0,0,0,0.000,0,0
1739400922.803901,-0.707841752672723,0.6780222847942814,1.4201372508390382,-1.879088232769471,-0.7117927972914773,1.94757938981896,0.18761865439284933,-0.000891027526648738,0.0018850713212961783,-0.0007467099209763623,0.000956974466775404,0.0003020902014481142,0.00030587140451071755,-0.002686621970925318,0.2927129566669464,-23.66513442993164,19.628707885742188,17.92273712158203,0.8568216562271118,2.3604629039764404,-0.04023589566349983,0,0,0,0.000,0,0
1739400922.8149035,-0.7078417266729566,0.6780183699908126,1.4201350856894501,-1.8790872044728941,-0.7117917749630855,1.947578632158882,0.18762615705739846,-0.0007257482732734691,-0.0014279169901950115,-0.0012758177108053177,-0.0006605557915338404,0.0024706174661747486,-0.0001996474769543591,-0.0004313812320661109,0.2927129566669464,-23.58578872680664,19.656478881835938,17.89893341064453,0.8568216562271118,2.3668715953826904,-0.10066069662570953,0,0,0,0.000,0,0
1739400922.8249786,-0.7078418081830951,0.6780241565364797,1.420139029553737,-1.8790871652398147,-0.7117952606816113,1.9475793898189604,0.18762646400379632,-0.0011943568102640158,0.001395405530990653,-0.0003397783849267631,-0.0008147625167127448,-0.0012854189042527547,0.0005174385161806427,0.001473110683129026,0.2689092457294464,-23.66513442993164,19.604904174804688,17.89893341064453,0.8504129648208618,2.3604629039764404,-0.09425200521945953,0,0,0,0.000,0,0
1739400922.835954,-0.7078445617242749,0.6780225475436714,1.420141028055185,-1.8790865294481973,-0.7117911018285444,1.947578632158882,0.18762618555558738,-0.001388349309400769,-0.0001007705520202422,0.0010028485978887407,-0.00021841948826350428,-5.3169312509476005e-05,0.00040487677430121123,0.0012305346769275198,0.2927129566669464,-23.63736343383789,19.577133178710938,17.89893341064453,0.8504129648208618,2.3668715953826904,-0.12721098959445953,0,0,0,0.000,0,0
1739400922.845962,-0.7078397803084623,0.6780199731806479,1.420139267972318,-1.8790864499726458,-0.7117914554500042,1.9475751498128924,0.18761681016421153,-0.0006809819541506261,-0.0004744891311912002,-0.0006291068473607929,0.0005902782510472407,-0.00023131795277133544,-0.0019610725101230006,-0.00045516862693472347,0.2689092457294464,-23.63736343383789,19.604904174804688,17.89893341064453,0.8504129648208618,2.3604629039764404,-0.04756011441349983,0,0,0,0.000,0,0
1739400922.8579667,-0.7078377042422831,0.6780240860964748,1.420139021378907,-1.879089296211034,-0.711796315083163,1.9475777262007938,0.18762742464272417,0.0013609478918104167,0.0011236990536005868,0.0003278965392256032,-0.0011361167858709856,0.0002234691404353371,6.0890581872048125e-05,0.0005960973020013927,0.2411382496356964,-23.66513442993164,19.604904174804688,17.92273712158203,0.8568216562271118,2.3476455211639404,-0.11347807943820953,0,0,0,0.000,0,0
1739400922.868942,-0.7078386402317457,0.6780182493855715,1.4201428930017905,-1.8790874040836827,-0.7117963333571116,1.9475801474730567,0.18762414510584666,0.0010763231469223286,-0.0006379460996976589,0.0013325850189614826,-0.0009760673699982923,-0.0005747180639926512,0.0002996532262183443,0.0006438255454018458,0.2411382496356964,-23.61355972290039,19.553329467773438,17.89893341064453,0.8568216562271118,2.3540542125701904,-0.10066069662570953,0,0,0,0.000,0,0
1739400922.8789701,-0.7078454615223702,0.6780182609367299,1.420139019670989,-1.8790885859095026,-0.7117907371062089,1.9475809051391166,0.1876228624303983,-0.0005867350250884539,-0.0009614058557397411,-0.0010061375191701763,-7.876523800463825e-05,0.0005536965451020695,0.0007508791190527768,-0.0007882299894117281,0.3442876636981964,-23.61355972290039,19.604904174804688,17.92273712158203,0.8440042734146118,2.3476455211639404,-0.06678618490695953,0,0,0,0.000,0,0
1739400922.8899274,-0.7078400141522224,0.6780184949407371,1.4201379631513156,-1.8790847472402092,-0.7117960803778889,1.9475801474790386,0.18762141194187695,-0.0008118925904460888,-0.0004622062710326856,-0.0007337527140006333,0.0008488903172634522,-0.00012362779016894103,-7.41701107532622e-05,-0.001630492829529096,0.2689092457294464,-23.61355972290039,19.628707885742188,17.87512969970703,0.8568216562271118,2.3540542125701904,-0.08692778646945953,0,0,0,0.000,0,0
1739400922.8999379,-0.7078414493402175,0.6780199734620108,1.4201414137530368,-1.8790864499726538,-0.7117964342914781,1.9475801474790386,0.18762698177374695,4.007305925776423e-05,0.00012987260378580782,-0.001129971031925556,0.00045420474617417344,-8.731967399043098e-05,0.0004570684346231886,0.0009582886705534989,0.2927129566669464,-23.63736343383789,19.604904174804688,17.89893341064453,0.8568216562271118,2.3540542125701904,-0.10706938803195953,0,0,0,0.000,0,0
1739400922.9100337,-0.7078398458676958,0.6780220060660744,1.420141076825822,-1.8790865294441597,-0.7117925020836561,1.9475801474790386,0.1876285002881364,-0.00040254605479038874,0.0005412197981961089,0.0002691853614249183,-0.00042516542741057235,-0.000582084192133379,0.0004117412681008474,0.0010340412185274718,0.2411382496356964,-23.66513442993164,19.577133178710938,17.89893341064453,0.8504129648208618,2.3540542125701904,-0.11347807943820953,0,0,0,0.000,0,0
1739400922.9209228,-0.7078417528274537,0.6780227814992864,1.4201411115574254,-1.8790864882364586,-0.7117914552948578,1.9475793896574547,0.18762583470352018,-0.0002345924048071335,0.0014958769905422296,-0.0005180344933787104,-3.0447926218568817e-05,0.001935138731465227,0.00010346317505226838,0.00028502314671960557,0.2927129566669464,-23.63736343383789,19.577133178710938,17.89893341064453,0.8504129648208618,2.3604629039764404,-0.08692778646945953,0,0,0,0.000,0,0
1739400922.9310126,-0.7078414147804846,0.6780219704834785,1.4201429205116123,-1.8790825875050734,-0.7117922518774085,1.947579350573101,0.18762694610641104,5.593675998772767e-05,0.0008968427500509635,0.00034436327411947455,0.0009610436589861098,-0.00016006849166884257,-5.090821208621806e-05,0.0009418846039043044,0.2927129566669464,-23.66513442993164,19.553329467773438,17.84735870361328,0.8568216562271118,2.3604629039764404,-0.10066069662570953,0,0,0,0.000,0,0
