IITGN-Robotics/Franka_IITGN_ROBOTICS/franka_ros/franka_iitgn/data/b_12.csv
time,fr3_joint1_pos,fr3_joint2_pos,fr3_joint3_pos,fr3_joint4_pos,fr3_joint5_pos,fr3_joint6_pos,fr3_joint7_pos,fr3_joint1_vel,fr3_joint2_vel,fr3_joint3_vel,fr3_joint4_vel,fr3_joint5_vel,fr3_joint6_vel,fr3_joint7_vel,fr3_joint1_eff,fr3_joint2_eff,fr3_joint3_eff,fr3_joint4_eff,fr3_joint5_eff,fr3_joint6_eff,fr3_joint7_eff,flexpin1,flexpin2,flexpin3,Force,ContactMic,ContactMic_gt
1739400951.746504,-0.7077351564786102,0.6771722706035251,1.4200367486114844,-1.879168925881664,-0.711135734035288,1.9479661108416766,0.1872055190377602,8.326159733775118e-05,0.002719568811657469,-0.0005770938039242877,0.001078925366049215,0.0008020076767361743,-0.0007962700171711844,0.0021900556088819464,0.1935308277606964,-23.51041030883789,19.450180053710938,17.84735870361328,0.9163309335708618,2.3476455211639404,-0.15376128256320953,,,,,,,,,
1739400951.756573,-0.7077365700521999,0.6771930678340062,1.4200225151447734,-1.8791702207344256,-0.7111334349407213,1.9479550366299794,0.1872031016674144,-0.00047574180408767715,0.001863680705350541,-0.0016933509110954178,0.00165684246688815,0.0010771848390523468,-0.003029789098023355,-0.0002831159345800525,0.1697271168231964,-23.45883560180664,19.426376342773438,17.82355499267578,0.8833719491958618,2.3604629039764404,-0.08051909506320953,,,,,,,,,
1739400951.7676096,-0.7077365829690603,0.6772256290205328,1.42000820973315,-1.8791759492188667,-0.711141434088961,1.947950153736514,0.18721027952815655,-0.0005101242876026167,0.0027907175575009255,-0.0006512927555750752,-0.000150138836906087,-0.0011451900818553228,-0.001995092529533504,0.0004311642169629701,0.1697271168231964,-23.58578872680664,19.402572631835938,17.89893341064453,0.8833719491958618,2.3476455211639404,-0.10066069662570953,,,,,,,,,
1739400951.7785382,-0.7077343174915915,0.6772394516110508,1.4199795421823715,-1.8791800105557457,-0.7111429176594355,1.9479421977109312,0.1872158411925637,0.002240920184009442,0.0007279342108570535,-0.0017399870175714507,-0.0003319034612385833,-0.00018882944706555553,-4.779967586456007e-05,0.0021845688805511984,0.1419561207294464,-23.51041030883789,19.501754760742188,17.92273712158203,0.8833719491958618,2.3732802867889404,-0.10706938803195953,,,,,,,,,
1739400951.7894907,-0.7077408030618565,0.6772542452331044,1.4199636782616565,-1.8791860088845143,-0.7111421497000643,1.9479368286626975,0.1872248305285138,-0.001117914665075569,0.0008869713853687948,-0.0022176556606414008,-0.0015612032247535484,0.0018661385329783256,-0.0005166570171152047,0.002097810492814065,0.2173345386981964,-23.53818130493164,19.529525756835938,18.02191925048828,0.8769632577896118,2.3796889781951904,-0.13361968100070953,,,,,,,,,
1739400951.7994912,-0.7077418356580412,0.6772747476266895,1.419954345158089,-1.879176214716328,-0.7111429105214233,1.9479402466165021,0.1872172525310532,0.00027182762270542806,0.0028472450401947746,-0.0003173992688519383,0.0010914667133649673,0.0007718883785821035,0.00044215358868913935,-0.001582712501655972,0.2411382496356964,-23.68893814086914,19.553329467773438,17.89893341064453,0.8833719491958618,2.3403213024139404,-0.06037749722599983,,,,,,,,,
1739400951.8095074,-0.7077487286220544,0.6772781372822467,1.4199372854219383,-1.8791713984291807,-0.7111476139193795,1.9479392059138978,0.1872186802554433,-0.00039830651973794747,0.001105325697793748,-0.004189386079764107,0.0009450974760384676,0.0002209610145970363,0.00023092337774165286,-0.0009385260745939268,0.2927129566669464,-23.63736343383789,19.656478881835938,17.84735870361328,0.8833719491958618,2.3540542125701904,-0.06037749722599983,,,,,,,,,
1739400951.8196034,-0.7077508357968951,0.6772934055162019,1.4199324451315976,-1.8791741934586206,-0.7111469786006988,1.9479386182049525,0.18722391659249665,-0.0008286079377491221,0.0016182315051497197,-0.0016168411782380003,-0.0015156031751902594,-0.0018441577074449305,3.252822460782416e-05,0.0007720559755363197,0.2927129566669464,-23.71670913696289,19.604904174804688,17.87512969970703,0.8769632577896118,2.3540542125701904,-0.09425200521945953,,,,,,,,,
1739400951.8305647,-0.7077555180449934,0.677307762571877,1.4199201626553393,-1.879172046395326,-0.7111450220362799,1.9479352682461992,0.1872222979314923,0.00023802737502999214,0.0031552884884966242,-0.0006449910247909088,-2.58253448808159e-05,0.001037165615895316,-0.0005888476998722044,-0.0015202781165711003,0.3442876636981964,-23.79208755493164,19.680282592773438,17.87512969970703,0.8705545663833618,2.3540542125701904,-0.08051909506320953,,,,,,,,,
1739400951.8406007,-0.707757581399466,0.6773140193426117,1.419902682408001,-1.8791777591033614,-0.7111462185375395,1.947932001908513,0.18721789238017816,-0.0001541893409425144,0.0009561217944809694,-0.0015012887749505344,0.0005854989125690929,-0.00018880853565475186,-0.0013894798395349191,-0.001413271921675696,0.3680913746356964,-23.81985855102539,19.731857299804688,17.92273712158203,0.8705545663833618,2.3796889781951904,-0.04023589566349983,,,,,,,,,
1739400951.8525035,-0.7077589551925126,0.6773184582011967,1.4198923153416685,-1.8791834040776831,-0.7111485306606962,1.9479327648969451,0.18723037924956712,0.0005548620558840073,0.00039128249848162134,0.0003358291380358268,-0.0006846200568540227,0.00024744019390223246,0.0005820591355406007,0.0016344218036797942,0.3442876636981964,-23.79208755493164,19.755661010742188,17.99811553955078,0.8897806406021118,2.3732802867889404,-0.12080229818820953,,,,,,,,,
1739400951.8625045,-0.7077615295959955,0.6773179202407276,1.4198897706897529,-1.87917598007234,-0.7111493974593446,1.947934038929186,0.18723107114524784,-0.00044763218261622287,-0.00024063137968879364,-0.0012089195484819622,0.002064791024038244,-0.0010468669040076177,-0.000787855312692801,0.0024700478733507497,0.3680913746356964,-23.74051284790039,19.704086303710938,17.89893341064453,0.8705545663833618,2.3604629039764404,-0.12721098959445953,,,,,,,,,
1739400951.8734994,-0.7077589939703826,0.6773210404470551,1.4198965338049196,-1.8791742213789204,-0.7111459320139458,1.9479356589022034,0.18722698304923613,-0.00014515097638195026,0.0012237601836219707,0.0013677589893684198,0.0009596599216462001,-0.00017058451966431136,0.0007369328467620511,0.00025400502629580664,0.3165166676044464,-23.74051284790039,19.628707885742188,17.87512969970703,0.8641458749771118,2.3476455211639404,-0.10706938803195953,,,,,,,,,
1739400951.883543,-0.7077541822724925,0.6773173688783851,1.4199011668410846,-1.8791703339477706,-0.7111462621587797,1.9479333859224113,0.18722942591305922,-5.974570792677169e-05,0.0014018607936399123,0.0010929394844202674,0.002087126133894791,0.0002853331380599393,5.940916414355624e-05,0.0015570209590325542,0.2689092457294464,-23.68893814086914,19.577133178710938,17.82355499267578,0.8705545663833618,2.3668715953826904,-0.10066069662570953,,,,,,,,,
1739400951.8945665,-0.7077522623367426,0.6773126183665927,1.4199030310090943,-1.8791802490107308,-0.7111516703846549,1.9479341552110394,0.1872267400348568,0.00035594715383114434,-0.000666819803275875,0.0013470415064357377,-0.0007548406215905315,-0.0009129436374337369,0.000841868330603754,-0.0012862930563015754,0.2411382496356964,-23.63736343383789,19.553329467773438,17.92273712158203,0.8897806406021118,2.3604629039764404,-0.08051909506320953,,,,,,,,,
1739400951.9045742,-0.7077514604626368,0.6773114743796663,1.419900973353059,-1.8791742288060618,-0.7111478574341661,1.9479317354103454,0.18723149728261732,-0.00013137376525229093,0.0001000845346764064,-0.00032342765720608474,0.0013948987620614698,-0.0005788822455882706,-0.0002991339427803573,0.0012355186570598541,0.2411382496356964,-23.63736343383789,19.553329467773438,17.87512969970703,0.8833719491958618,2.3540542125701904,-0.12721098959445953,,,,,,,,,
1739400951.915534,-0.7077514562852097,0.6773099208375261,1.4199068975347542,-1.8791807269018959,-0.7111473294177795,1.9479338033801734,0.18723099361181555,-0.0003356147564852212,0.0005554070568280533,-0.00044514823565270826,-0.0008245609341141109,6.570832707585917e-05,-0.00042064616208864,0.0013759670296212387,0.2411382496356964,-23.58578872680664,19.501754760742188,17.92273712158203,0.8769632577896118,2.3604629039764404,-0.11347807943820953,,,,,,,,,
1739400951.925564,-0.7077534542260392,0.6773088960625798,1.4199089656060673,-1.879180897989999,-0.7111498171922478,1.9479356719668715,0.18723114854455514,-0.0010932985648806344,0.0009763708674211675,0.00010284515200320474,-0.0012489801892116308,0.0005198429249075823,0.00012124208119397318,0.0005627205361609765,0.2689092457294464,-23.58578872680664,19.477951049804688,17.92273712158203,0.8641458749771118,2.3476455211639404,-0.12080229818820953,,,,,,,,,
1739400951.935565,-0.707749743764455,0.6773070229606832,1.4199092592440714,-1.8791741946149556,-0.7111465808565672,1.9479349143247415,0.18723019695044732,0.0003737573514539592,0.0005599365019323222,-0.0008183628679989439,-0.0006102780856264353,0.0018018143752724215,-0.0003668558495580724,-0.0009473192325374106,0.2173345386981964,-23.58578872680664,19.477951049804688,17.87512969970703,0.8769632577896118,2.3540542125701904,-0.10706938803195953,,,,,,,,,
1739400951.946498,-0.7077535623159682,0.6773004299150271,1.4199102445873233,-1.87917419347074,-0.7111477339160539,1.9479349142709066,0.1872278944339797,-0.0001003822162718342,-0.002035529858643888,-0.00011186224223791946,-4.5266302678189014e-05,-0.00018988090792526865,0.00014949806165682174,5.734330132455543e-05,0.2411382496356964,-23.51041030883789,19.501754760742188,17.87512969970703,0.8833719491958618,2.3540542125701904,-0.08692778646945953,,,,,,,,,
1739400951.9565654,-0.7077536403527741,0.6773050763731195,1.4199081684106338,-1.8791741937977824,-0.711147864845479,1.9479341566646626,0.18722872112611405,-0.0005811861739111948,-0.0005144778005769244,-0.0007282274292609891,-0.00036219994794865556,0.00018944185155903947,-0.00010680863611465212,-0.0006556369612838394,0.2411382496356964,-23.56198501586914,19.529525756835938,17.87512969970703,0.8833719491958618,2.3604629039764404,-0.09425200521945953,,,,,,,,,
1739400951.967598,-0.7077550858391785,0.677312506299925,1.4199081389763024,-1.879175976147758,-0.7111486092643169,1.9479341565031578,0.18723261766299587,-0.0012386015189532838,0.0006970559329025886,0.0003558894375121231,-0.0004405927769172128,0.00026752545230046576,0.0005915939555683735,0.000834189408188317,0.2927129566669464,-23.66513442993164,19.529525756835938,17.89893341064453,0.8897806406021118,2.3604629039764404,-0.12721098959445953,,,,,,,,,
1739400951.9785295,-0.7077534452320448,0.6773112013934527,1.4199036712958417,-1.8791769381073051,-0.7111504577968902,1.9479309646144876,0.18722548713366194,-0.00018318249736837494,-0.0005323301425571522,-0.0006500915209315057,-0.00015558087019928605,-0.0007083415399183411,-0.0013156154069247934,-0.0007371060759538274,0.2689092457294464,-23.63736343383789,19.577133178710938,17.89893341064453,0.8705545663833618,2.3604629039764404,-0.06678618490695953,,,,,,,,,
1739400951.988595,-0.7077551667463134,0.6773168851032403,1.4198994483551797,-1.879176295396259,-0.7111474777310589,1.9479341565024906,0.1872361118015782,-0.0005472828735258917,0.0011534096882510425,-5.739114698473358e-05,-0.00045700857852083867,0.00013512410922757745,0.0001978593240649529,0.0012321608235461789,0.2927129566669464,-23.71670913696289,19.604904174804688,17.89893341064453,0.8769632577896118,2.3604629039764404,-0.12080229818820953,,,,,,,,,
1739400951.9995403,-0.7077568792675016,0.6773200296909869,1.4198919920797617,-1.8791760556333257,-0.7111516917376547,1.9479330912123327,0.1872289620528427,-0.0004605958614680814,-0.000299353101328508,-0.0014006160711234246,0.00020972423121055873,0.0004014402660801377,-0.0003447507169295357,3.704070760473751e-07,0.3165166676044464,-23.74051284790039,19.704086303710938,17.89893341064453,0.8769632577896118,2.3604629039764404,-0.09425200521945953,,,,,,,,,
1739400952.0105243,-0.7077534542260392,0.6773130490668218,1.4198922596512493,-1.8791797799208185,-0.7111489708997003,1.9479349141572215,0.18722947927291936,-0.00011083646815932194,-0.0007831402983305391,-0.00047501936296729405,-0.001483415796359,0.002149402018863832,0.0009999864759721872,-0.00015655831801570549,0.2689092457294464,-23.66513442993164,19.656478881835938,17.94654083251953,0.8568216562271118,2.3540542125701904,-0.10066069662570953,,,,,,,,,
1739400952.02149,-0.7077514562851862,0.6773173428345092,1.4198934162069365,-1.8791846010373492,-0.711152837999493,1.9479338034519509,0.1872331315596371,0.0010546879471014761,-0.0002790494296170968,-0.000342719354096754,-0.00026210193005249784,-0.0020742438134177723,0.0019730864993977044,0.0009608244876653339,0.2411382496356964,-23.68893814086914,19.680282592773438,17.97431182861328,0.8833719491958618,2.3604629039764404,-0.12721098959445953,,,,,,,,,
1739400952.0315735,-0.7077534632138248,0.6773173689152356,1.4198961227567386,-1.879179647809473,-0.7111509471335626,1.9479287542635324,0.18722320119594524,0.0002919851076041427,-3.8646049258420404e-05,0.0011821052986762974,0.0008896014758694652,1.9123158853180487e-05,-0.00012764201590800112,-0.0027961266023691714,0.2689092457294464,-23.68893814086914,19.604904174804688,17.94654083251953,0.8705545663833618,2.3668715953826904,-0.04756011441349983,,,,,,,,,
1739400952.0415947,-0.7077514562853383,0.6773193669289137,1.4198981621702202,-1.879180583590101,-0.7111493231594652,1.9479295859615444,0.18722798645655364,0.0010059656110135776,0.0006636724946502324,-0.00014511098848136615,-0.000394924571439818,-0.0005037840635954533,1.1014610223170768e-05,-0.002748906860757582,0.2411382496356964,-23.71670913696289,19.577133178710938,17.94654083251953,0.8833719491958618,2.3870131969451904,-0.08692778646945953,,,,,,,,,
1739400952.05355,-0.7077514562851862,0.6773158130149898,1.4199011379744995,-1.8791770211835843,-0.7111502271382789,1.9479294014477035,0.18722547401156941,0.0006218579940817505,-0.001371593277132204,0.0011307685515399026,0.0020381361894683814,0.0006854851364186526,-0.0010601638713015047,-0.001031407877955665,0.2411382496356964,-23.63736343383789,19.577133178710938,17.89893341064453,0.8641458749771118,2.3604629039764404,-0.06678618490695953,,,,,,,,,
1739400952.0645223,-0.7077536882294594,0.677312025198005,1.4199031965894051,-1.8791764581160961,-0.7111498749319886,1.9479309775259868,0.1872321595355461,-5.108490362949747e-05,6.477340581281332e-05,0.0005939997390161004,0.00013973928257801708,0.0021593042308369163,-0.0006669184356108101,-0.00011875339676281692,0.2689092457294464,-23.61355972290039,19.553329467773438,17.87512969970703,0.8705545663833618,2.3604629039764404,-0.08692778646945953,,,,,,,,,
1739400952.0745597,-0.7077553198095742,0.6773135804176624,1.4199047350387044,-1.8791745481390068,-0.711151693682864,1.9479300977766316,0.18723303002395922,-0.0008661078328485354,-1.4698584234046558e-05,0.00030116511075374357,-0.00023628841823371104,-0.0005016968424628655,-0.0013091348246114824,-0.0005338816955601656,0.2927129566669464,-23.63736343383789,19.529525756835938,17.87512969970703,0.8769632577896118,2.3668715953826904,-0.09425200521945953,,,,,,,,,
1739400952.0855067,-0.7077557912648862,0.6773098398646255,1.4199009747055362,-1.879181690545497,-0.7111499272768846,1.9479312119148529,0.18722745211962072,-0.0007368249595031153,-0.0004996303553625864,-0.0016533213569698466,-0.0014849755083130105,-0.00022943693470685355,-0.00044463346424353397,-0.000831845365427921,0.2689092457294464,-23.61355972290039,19.553329467773438,17.94654083251953,0.8705545663833618,2.3540542125701904,-0.08051909506320953,,,,,,,,,
1739400952.0956337,-0.7077534552378747,0.6773082344246126,1.419907156541265,-1.879172352474976,-0.7111502292498159,1.947929446602614,0.18723332934807876,-0.000378138964672968,-0.00022460560333561601,-0.0008361394576067988,0.0001878059669963149,-0.0001521372710963379,-0.0009631970864412027,0.0007346066112205629,0.2689092457294464,-23.56198501586914,19.501754760742188,17.84735870361328,0.8641458749771118,2.3604629039764404,-0.09425200521945953,,,,,,,,,
1739400952.1065044,-0.7077514562851919,0.6773097580128924,1.4199071447213822,-1.8791742950977575,-0.7111502292557975,1.9479303223714202,0.18722872746986488,0.0007216615066410158,0.00048540557043921274,-0.001178392902327071,0.0004338708792323466,-6.91240308586056e-05,-0.001354906906526471,-0.00025223471166358353,0.2411382496356964,-23.61355972290039,19.501754760742188,17.84735870361328,0.8641458749771118,2.3540542125701904,-0.09425200521945953,,,,,,,,,
1739400952.1165633,-0.7077543902397201,0.6773099479188233,1.419907131338865,-1.8791759850150125,-0.7111541663147806,1.9479319860759807,0.18723413026300995,0.00023744928541466243,-0.0008274718031696223,-0.0007325226036129819,-0.0006732116800368139,-0.00020759446206348667,-0.0002466884176790347,0.0006328949280938235,0.2689092457294464,-23.58578872680664,19.529525756835938,17.89893341064453,0.8705545663833618,2.3668715953826904,-0.10066069662570953,,,,,,,,,
1739400952.127534,-0.7077534570832423,0.677308235435144,1.4199015025365636,-1.8791759761478024,-0.7111517444323964,1.9479323372050719,0.18723585244066396,0.0005655982518993272,-0.001240062922454102,-0.0015967163857165951,0.000788144839311747,-0.0002460553453977886,-0.0010135550947317287,0.001802602794439639,0.2689092457294464,-23.56198501586914,19.577133178710938,17.89893341064453,0.8769632577896118,2.3668715953826904,-0.12721098959445953,,,,,,,,,
1739400952.1385748,-0.7077534452322131,0.6773099479558753,1.4198995223597788,-1.8791744333065241,-0.7111508124898455,1.9479321809234849,0.18723581301016326,0.00018279161806240173,-0.0011892990281652136,0.0003698053284188847,0.00028273076141375206,0.00010631735643551491,-0.00017373552199054232,0.000298768519003313,0.2689092457294464,-23.58578872680664,19.604904174804688,17.87512969970703,0.8705545663833618,2.3668715953826904,-0.12721098959445953,,,,,,,,,
1739400952.1495664,-0.7077568792674508,0.6773156565036677,1.41990157520299,-1.879180861356448,-0.7111502297393296,1.9479326851804215,0.18723035894342221,-0.0010106347206175897,-0.00014498185979685922,6.598774179700294e-05,-0.0016117287654824506,0.00035706132400298204,7.126212940667244e-05,0.00045066495786733583,0.3165166676044464,-23.66513442993164,19.577133178710938,17.92273712158203,0.8641458749771118,2.3604629039764404,-0.10706938803195953,,,,,,,,,
1739400952.1604953,-0.7077534551890162,0.6773136849084136,1.4198991716346652,-1.879180871511121,-0.7111506337031688,1.9479306358720385,0.1872352634014817,0.0008384103176002303,7.099407828806549e-05,0.00035087342354305114,-0.00021573497677911406,0.0003073502794703661,-0.00012069236502893063,0.0016317334077442973,0.2689092457294464,-23.63736343383789,19.604904174804688,17.92273712158203,0.8705545663833618,2.3540542125701904,-0.11347807943820953,,,,,,,,,
1739400952.170553,-0.7077534532267723,0.6773158395072884,1.419896813047999,-1.8791770097801181,-0.7111509868979308,1.9479308074675286,0.18722594810782325,-0.0008393075143707384,-0.00033245064042720907,0.0002974556302572297,0.0008343858361048457,0.00035661957989233453,0.0009042989752762378,-0.0014874110408523906,0.2689092457294464,-23.63736343383789,19.628707885742188,17.89893341064453,0.8705545663833618,2.3604629039764404,-0.06678618490695953,,,,,,,,,
1739400952.1815326,-0.7077534542260373,0.6773174575254871,1.4198954470538967,-1.8791826548768322,-0.7111478081629934,1.9479294333558093,0.1872254931829381,0.000342894862383892,0.00037478625945560717,0.0003306517557290893,-0.0010845278892741028,0.0013739957550496402,-0.00148102690527394,-0.0028392221990750704,0.2689092457294464,-23.68893814086914,19.656478881835938,17.97431182861328,0.8705545663833618,2.3604629039764404,-0.06678618490695953,,,,,,,,,
1739400952.19256,-0.707751452287923,0.6773220330164457,1.4198961960535104,-1.8791791908369804,-0.7111509868620434,1.9479310523725926,0.18723492430376087,0.000988489809228191,0.0011994588008053643,0.0011481963924378734,0.0009701818878464336,-0.0005171547918176986,0.0005093806603343594,0.0008110021345798417,0.2411382496356964,-23.74051284790039,19.604904174804688,17.89893341064453,0.8705545663833618,2.3732802867889404,-0.13361968100070953,,,,,,,,,
1739400952.2026134,-0.7077541562362772,0.6773159742551349,1.4198960851312972,-1.8791848281686845,-0.7111509869158755,1.9479310911511172,0.18722820642929677,0.0003807206013262845,-0.0009588451126241052,0.0011762209172398877,-0.001748137696351909,0.0002575024144258938,-0.0006857900321304451,-0.000615705274396286,0.2689092457294464,-23.66513442993164,19.604904174804688,17.97431182861328,0.8705545663833618,2.3732802867889404,-0.08051909506320953,,,,,,,,,
1739400952.2126155,-0.707755166758659,0.6773180841401647,1.4198960913109864,-1.8791770677389599,-0.7111517445759542,1.947930947435751,0.18722869176815032,-0.0004934486352324063,0.00010253276842147875,-0.00029521440490184667,0.0009555079960060007,-0.00023923699696759532,-0.00023814550648388515,-0.0016917739058246468,0.2927129566669464,-23.68893814086914,19.604904174804688,17.87512969970703,0.8769632577896118,2.3476455211639404,-0.08051909506320953,,,,,,,,,
1739400952.22356,-0.7077551667467704,0.6773164805253398,1.4199003016447358,-1.8791769371787228,-0.7111556810965853,1.9479303029906685,0.187239024421044,-0.0004025462257310388,0.00022898706919817057,0.0013893851188584627,0.0005970876430860378,-0.0006506109398242005,-0.00099259269234674,0.0026228000198638755,0.2927129566669464,-23.66513442993164,19.553329467773438,17.89893341064453,0.8833719491958618,2.3540542125701904,-0.14094389975070953,,,,,,,,,
1739400952.234514,-0.7077534542260392,0.6773110098877,1.4199021699002141,-1.879176692928484,-0.711151744593899,1.9479303160194248,0.18722838764735567,0.0002019958470668901,-0.0016715564268670676,-0.0003823111041775944,-0.00019671163809978934,-0.0011997358333716557,0.00039168347698130394,-0.0007586330511469195,0.2689092457294464,-23.61355972290039,19.553329467773438,17.87512969970703,0.8769632577896118,2.3540542125701904,-0.05396880581974983,,,,,,,,,
1739400952.2445276,-0.7077568792675016,0.6773156959153667,1.419906698182537,-1.8791730688147341,-0.7111509874003928,1.9479321115283221,0.18722857193676343,-0.000600469814475586,0.0024860156865952237,0.001608878929047932,0.0006019306260331363,0.0005054603161012256,0.0009174888285479088,-0.000755441569101611,0.3165166676044464,-23.66513442993164,19.477951049804688,17.84735870361328,0.8705545663833618,2.3732802867889404,-0.08051909506320953,,,,,,,,,
1739400952.2555938,-0.7077551667467704,0.6773099479560986,1.4199050374090918,-1.8791749747092188,-0.7111524629901786,1.9479306171427067,0.1872354050061046,-0.0005702193080205148,-0.0007352540245991209,-0.0014481744296969512,-0.00038487000495117623,-4.495774109901233e-05,0.0007658057190752025,-0.0011029234457071019,0.2927129566669464,-23.58578872680664,19.529525756835938,17.84735870361328,0.8833719491958618,2.3540542125701904,-0.11347807943820953,,,,,,,,,
1739400952.265639,-0.7077579747878131,0.6773134245230555,1.4199090040403417,-1.879176242522948,-0.7111517445752895,1.9479301459611391,0.18723738343232182,-0.0008033681314541086,0.0007197951528726489,0.0008974087916698226,0.0006490366224059754,0.0004386389296490519,-0.002538531317648559,0.0007160505617640055,0.2927129566669464,-23.63736343383789,19.477951049804688,17.89893341064453,0.8769632577896118,2.3540542125701904,-0.12721098959445953,,,,,,,,,
1739400952.276599,-0.7077506797939873,0.6773099476335627,1.419907153338071,-1.8791787164251772,-0.7111525027205492,1.9479325672074694,0.18723025728347306,0.000663225226765519,0.00017430250946619133,-0.0007242987456941303,-0.0007599077532271074,-0.0006083075700509438,-9.981674608837703e-05,-0.001561687866908396,0.2173345386981964,-23.58578872680664,19.501754760742188,17.92273712158203,0.8833719491958618,2.3604629039764404,-0.06678618490695953,,,,,,,,,
1739400952.2875898,-0.7077534555152925,0.6773098398659445,1.419903290975791,-1.8791770676173793,-0.7111509869158785,1.9479312099698847,0.18723664133153728,0.00010914220524682284,-0.0004360356641644233,-0.0006865089469581236,-0.0007608928648681953,0.0003830202541751123,8.776143805153694e-05,0.0012440874890199813,0.2689092457294464,-23.61355972290039,19.553329467773438,17.87512969970703,0.8705545663833618,2.3540542125701904,-0.12080229818820953,,,,,,,,,
1739400952.2985744,-0.7077514562851934,0.677313550315642,1.419903282367544,-1.8791802577912378,-0.7111541658302638,1.947932167180593,0.1872354228521515,0.0012830866782035015,0.000599353302721146,-0.00022029445115540527,-0.0004905289285136068,-0.0006787756700126393,0.00030990895145955585,-0.00043915390077606037,0.2411382496356964,-23.66513442993164,19.553329467773438,17.94654083251953,0.8705545663833618,2.3668715953826904,-0.12080229818820953,,,,,,,,,
1739400952.3094907,-0.7077508057851123,0.6773099479439867,1.4199014172741773,-1.879175226767308,-0.7111517445938992,1.9479322196838649,0.1872301377130901,0.0006835659698276777,-0.001989050037773463,-4.038312459855029e-05,-6.343034344521439e-06,2.2377391599300695e-05,0.0018199386289727661,-0.002321648532809765,0.2411382496356964,-23.58578872680664,19.577133178710938,17.87512969970703,0.8769632577896118,2.3668715953826904,-0.06678618490695953,,,,,,,,,
1739400952.319563,-0.7077514532762225,0.6773156563583125,1.419897154977232,-1.8791806103147854,-0.7111541701909149,1.9479330398335857,0.1872305528624623,0.0006634228180034579,0.0004389025235206458,0.00025409531682307225,-0.0007723587776982274,-0.0016639626831785057,0.0005200653257353461,-0.0010842787255823634,0.2411382496356964,-23.66513442993164,19.604904174804688,17.94654083251953,0.8705545663833618,2.3604629039764404,-0.09425200521945953,,,,,,,,,
1739400952.3306823,-0.7077534542259882,0.677319721013753,1.4198954338274683,-1.879178793298243,-0.7111517491520195,1.947929388516426,0.18723112735671424,5.6978205992534454e-05,0.0006699044673881513,-0.0012396149307636163,0.0009687683488411934,0.00034645340899446534,-0.0001669293705663509,-0.002251196021986363,0.2689092457294464,-23.71670913696289,19.656478881835938,17.92273712158203,0.8769632577896118,2.3604629039764404,-0.07411040365695953,,,,,,,,,
1739400952.3415816,-0.7077551754135637,0.6773173688797103,1.4198933321557574,-1.8791787522192949,-0.7111525022360411,1.9479293941072826,0.18723902449305768,-0.00012578401673156724,-0.0008178415850869746,0.00035149570302828084,-5.488177831157242e-06,-0.00040628817427510453,0.0002037099060127863,0.0019525524306683664,0.2927129566669464,-23.68893814086914,19.656478881835938,17.92273712158203,0.8833719491958618,2.3604629039764404,-0.14094389975070953,,,,,,,,,
1739400952.3525562,-0.7077534554730458,0.67732411940433,1.4198944815625112,-1.8791791947860086,-0.7111517465140211,1.947929390231181,0.18723471442892986,0.0005899763525381559,0.0017775374885248573,-0.0010476275938806788,0.00035698493153337113,0.00024396506867567207,-0.0004515098254993049,0.0007579040137428094,0.2689092457294464,-23.76828384399414,19.656478881835938,17.89893341064453,0.8769632577896118,2.3604629039764404,-0.11347807943820953,,,,,,,,,
1739400952.362564,-0.7077551666357564,0.6773196847289841,1.419889757309942,-1.879177066430964,-0.711151744575987,1.9479286437149879,0.18723530493842785,0.00011835720512764934,0.00016280073572584619,-0.002651450890476516,0.0010769003964378214,-0.0006285493327932331,-0.0003501883108867769,-0.0012032782348679793,0.2927129566669464,-23.71670913696289,19.656478881835938,17.87512969970703,0.8769632577896118,2.3668715953826904,-0.11347807943820953,,,,,,,,,
1739400952.3745034,-0.7077571132709212,0.6773174777880906,1.4198960820642985,-1.8791791854938973,-0.7111517445759542,1.9479271159589422,0.18723294709908328,-0.0006614211599132875,-0.0003469307551966648,0.00038931549189423573,7.130874541978841e-05,0.0002326142156443119,-0.00037743858394721633,-0.0003695227249154036,0.3165166676044464,-23.68893814086914,19.604904174804688,17.89893341064453,0.8769632577896118,2.3796889781951904,-0.08051909506320953,,,,,,,,,
1739400952.384592,-0.7077534542273601,0.6773148863931522,1.4199003872211793,-1.8791729085729467,-0.7111525017515158,1.9479278734574448,0.1872409551446503,0.0006414663975849242,-0.0008798013298796439,-0.00030202479755815675,0.0015660941170264784,0.00043654872959721086,-0.0011953172819142962,0.0019400524472060682,0.2689092457294464,-23.61355972290039,19.577133178710938,17.84735870361328,0.8833719491958618,2.3732802867889404,-0.12721098959445953,,,,,,,,,
1739400952.3955867,-0.7077568909302235,0.6773122108591987,1.4199029125618823,-1.8791791943124843,-0.711151744737457,1.9479286307945112,0.1872326385751962,-0.0003133243910147205,-0.0014856744260628094,0.00045966446476993183,-0.001996794581194719,-0.0025504677275545308,-0.0010624342497375465,-0.0005270612979820991,0.3165166676044464,-23.61355972290039,19.553329467773438,17.89893341064453,0.8769632577896118,2.3668715953826904,-0.08692778646945953,,,,,,,,,
1739400952.4066594,-0.7077552457110851,0.6773157627626778,1.4199014162504295,-1.8791722210073858,-0.7111517445759569,1.9479301459531622,0.1872295171755544,-0.0007957641918622519,0.0009544769691089813,-0.0001605240051298089,0.001133249386157848,-0.0003092571838546618,0.0006488245419938985,-0.0015335637360343285,0.2927129566669464,-23.66513442993164,19.577133178710938,17.84735870361328,0.8769632577896118,2.3540542125701904,-0.06037749722599983,,,,,,,,,
1739400952.4175014,-0.707755166746919,0.6773119472051239,1.419905061991902,-1.8791770224255344,-0.711152502397538,1.9479330425183998,0.1872343088406069,-0.0004556721333584556,0.0011005487806815273,-2.2168082256827253e-05,-0.0006762546715664844,-0.0008514253111876445,0.0014187523714535885,-0.000173106231747312,0.2927129566669464,-23.61355972290039,19.529525756835938,17.89893341064453,0.8833719491958618,2.3604629039764404,-0.07411040365695953,,,,,,,,,
1739400952.4275513,-0.7077515346073185,0.6773121693441052,1.4199072213636352,-1.8791782367622514,-0.7111517450604791,1.9479308013295742,0.18723345458901353,-0.00039816338544999385,0.0014644771527045966,0.00029144968365142203,-1.2109129363658568e-05,0.0007356997589222411,0.0001587023965791644,0.0015582164513012612,0.2411382496356964,-23.58578872680664,19.501754760742188,17.89893341064453,0.8769632577896118,2.3604629039764404,-0.12080229818820953,,,,,,,,,
1739400952.4384832,-0.7077500557694574,0.6773136584299994,1.4199071313392988,-1.879174920512989,-0.7111509851393172,1.9479286306948145,0.1872381585778172,0.0008512205447978947,0.00044844108552085217,-0.00030411782369323007,0.00010013601391515858,0.0011642129407902402,-0.0013233370481151644,0.001464423635468093,0.2173345386981964,-23.63736343383789,19.529525756835938,17.87512969970703,0.8705545663833618,2.3668715953826904,-0.13361968100070953,,,,,,,,,
1739400952.4486005,-0.7077537662358833,0.6773119458967286,1.419907144869363,-1.8791770928797218,-0.7111532732262661,1.9479293882930824,0.18723558032616194,-0.00025719813774700286,0.0005543350725411198,-3.778851030254829e-06,0.0004984311325999665,-0.0014324528928310965,-5.204899234870547e-05,0.0004506195525819551,0.2689092457294464,-23.61355972290039,19.501754760742188,17.87512969970703,0.8769632577896118,2.3604629039764404,-0.12080229818820953,,,,,,,,,
1739400952.4595797,-0.7077535293724823,0.6773159275362803,1.4199032823674955,-1.8791780015004407,-0.7111528044323007,1.9479286306509478,0.18723275697239056,-0.0002648731609213051,0.0022169651464804445,1.1820738595734939e-05,0.0019845932619267804,-0.0007944253581270552,-0.0010540171182960609,-0.00013458660446109854,0.2689092457294464,-23.66513442993164,19.553329467773438,17.92273712158203,0.8769632577896118,2.3668715953826904,-0.08692778646945953,,,,,,,,,
1739400952.4715261,-0.7077551657478788,0.6773156681336004,1.4199033588969159,-1.8791743125178686,-0.7111526199795853,1.947932908431377,0.1872335031032845,-4.690511074486632e-05,0.0005560627070964221,0.00039412854636498265,0.0024340903995064013,0.0005856853449785911,0.000640057091227609,-0.0008151225797655774,0.2927129566669464,-23.66513442993164,19.553329467773438,17.87512969970703,0.8833719491958618,2.3668715953826904,-0.09425200521945953,,,,,,,,,
1739400952.4815505,-0.707753454855894,0.6773173688792433,1.419896123249959,-1.8791773322691507,-0.7111502292577915,1.9479286481480507,0.18723924539329873,-0.0009663755258299529,0.00037304138916828463,-0.001813385350962643,0.001270020295594153,-1.7743078215990186e-05,0.000206144744142939,0.00156214851958875,0.2689092457294464,-23.68893814086914,19.604904174804688,17.87512969970703,0.8641458749771118,2.3668715953826904,-0.10706938803195953,,,,,,,,,
1739400952.491593,-0.7077514562851898,0.6773174483882423,1.4198983484324401,-1.8791731865640329,-0.7111525022898677,1.9479286698789582,0.18723021729088482,0.000808264612343944,0.0006502272666505193,6.242819503466399e-05,0.0014228010702981326,-5.2839546227630754e-05,-0.0016028219333399023,-0.002417205172209254,0.2411382496356964,-23.68893814086914,19.604904174804688,17.84735870361328,0.8833719491958618,2.3668715953826904,-0.06678618490695953,,,,,,,,,
1739400952.5025105,-0.7077572726665173,0.6773156593022007,1.4198965352811117,-1.8791773855821463,-0.7111535770556869,1.9479286306870593,0.18723474916965094,-0.0005681920786373638,-0.0012728784132901533,-0.0007019706979039134,0.0015013414014351102,-0.0006055614016519427,-0.0001614570222450613,0.0011493937962891848,0.2927129566669464,-23.66513442993164,19.628707885742188,17.87512969970703,0.8833719491958618,2.3668715953826904,-0.10066069662570953,,,,,,,,,
1739400952.513484,-0.7077537662662634,0.6773188441030682,1.4198922240206067,-1.8791752663538899,-0.7111532600758186,1.9479293882930822,0.18723426645442573,0.00015082676625976805,-0.0007774032059915324,-0.00064361325709139,0.0007662719664770249,-0.0003231783474811371,-0.00035621119137065245,0.00012086095237179599,0.2689092457294464,-23.66513442993164,19.656478881835938,17.87512969970703,0.8897806406021118,2.3604629039764404,-0.10066069662570953,,,,,,,,,
1739400952.5236158,-0.7077569832707832,0.6773177132794308,1.4198985571458975,-1.8791763406975521,-0.7111541658302649,1.9479286437687902,0.18723458067127205,-0.001237767154245545,0.0005691179158024953,0.0012481510364755134,0.0007517760185829864,0.0003942746987386081,0.00041625144205296245,-0.00029412905171540655,0.3165166676044464,-23.68893814086914,19.604904174804688,17.87512969970703,0.8705545663833618,2.3668715953826904,-0.12721098959445953,,,,,,,,,
1739400952.5345693,-0.7077551667473575,0.6773164541776481,1.419896085106941,-1.879177013558684,-0.7111525545817865,1.9479278734575154,0.18723426225903786,-0.0003799739335537547,0.0002485227740846962,0.00032435633030315135,0.000848299183673177,-0.00024729593856771115,7.070705015294867e-06,0.0005349900497473366,0.2927129566669464,-23.66513442993164,19.604904174804688,17.89893341064453,0.8833719491958618,2.3732802867889404,-0.10066069662570953,,,,,,,,,
1739400952.5445862,-0.7077551754135637,0.6773163804849012,1.4198999536649104,-1.879177399909927,-0.7111534285105988,1.9479286306330275,0.18723501534408243,4.51146419047295e-05,0.0004416627597654299,0.0015076291264055888,0.0003946949424261781,-0.0011039674770320185,-0.0006123245712568459,-0.0008452777281993697,0.2927129566669464,-23.66513442993164,19.553329467773438,17.87512969970703,0.8897806406021118,2.3668715953826904,-0.10706938803195953,,,,,,,,,
1739400952.5555468,-0.7077534545470477,0.6773136705196279,1.4198999720925587,-1.8791774121215283,-0.7111525027926469,1.947933626845599,0.1872326404511326,0.0007698049132744561,-0.0007890205991509965,-0.00023556682022569936,0.0010761287551781925,-0.0007741667631209219,0.0010136092081375666,-0.0009239503091723645,0.2689092457294464,-23.63736343383789,19.553329467773438,17.87512969970703,0.8833719491958618,2.3604629039764404,-0.08692778646945953,,,,,,,,,
1739400952.5665169,-0.7077514562851915,0.6773156684593233,1.419904094018602,-1.879179182915797,-0.7111517460295138,1.947928630704783,0.18723192033205885,0.0002976369939542578,0.0004930497980413315,-0.0006268370482243237,-0.00015009073123937617,0.0003427335240676176,0.00031034885616723705,-0.001321542635601416,0.2411382496356964,-23.66513442993164,19.501754760742188,17.89893341064453,0.8769632577896118,2.3668715953826904,-0.08051909506320953,,,,,,,,,
1739400952.5775673,-0.7077534628928325,0.6773099479559436,1.4199050650272926,-1.8791774031458115,-0.711151783821819,1.9479300435376776,0.18723807812075494,0.0007081197661637071,-0.0009284647684254946,-7.301446581222353e-05,-0.0001346422353464162,0.0003877477558439308,-1.4717729201573502e-05,0.0023887342168525884,0.2689092457294464,-23.58578872680664,19.529525756835938,17.87512969970703,0.8769632577896118,2.3668715953826904,-0.12080229818820953,,,,,,,,,
1739400952.58849,-0.7077572727775687,0.6773101868105195,1.4199050659893222,-1.8791752659061445,-0.711151744576028,1.9479286306536066,0.1872350211296814,-0.0011401449985193844,8.659594706976012e-05,-0.0006498726769495571,0.0003799799761844042,0.0011732879066290297,-0.0005845771320134579,0.00021547523307433643,0.2927129566669464,-23.58578872680664,19.529525756835938,17.87512969970703,0.8769632577896118,2.3668715953826904,-0.10706938803195953,,,,,,,,,
1739400952.5985882,-0.7077535582632251,0.6773136701952616,1.419904919834861,-1.8791744441172964,-0.7111517445759542,1.9479301459531597,0.18723041524816875,-0.0007497381160324447,0.0012814330934632595,-0.0011115990328650317,0.001339710030748167,-0.0007776134529361865,-0.0003813542027785834,-0.0005577540500193759,0.2689092457294464,-23.63736343383789,19.529525756835938,17.87512969970703,0.8769632577896118,2.3540542125701904,-0.06678618490695953,,,,,,,,,
1739400952.6085892,-0.7077490152650029,0.6773099392892815,1.419907144831911,-1.8791788184671456,-0.7111543369768432,1.9479293882930813,0.18723223480575435,0.0019707056502847797,-0.0004933836801819817,0.0006686540172579752,-0.001822283664069019,-0.0011916659424051697,-0.00021109952348129362,-0.0006429215740781948,0.2173345386981964,-23.58578872680664,19.501754760742188,17.92273712158203,0.8897806406021118,2.3604629039764404,-0.08051909506320953,,,,,,,,,
1739400952.619575,-0.7077551657433422,0.6773156573394101,1.419899419900621,-1.879176214899362,-0.7111503166782837,1.9479293882930813,0.18723452069003105,-0.00033934139140061076,0.001017591740968971,-0.001018976368550242,0.001522049842978844,-0.0002096556461034322,-0.000676526511600558,-0.00031652913891004044,0.2927129566669464,-23.66513442993164,19.604904174804688,17.89893341064453,0.8897806406021118,2.3604629039764404,-0.12080229818820953,,,,,,,,,
1739400952.6295934,-0.7077542342374229,0.6773119468778914,1.4199014996904764,-1.8791769690719686,-0.7111532601692784,1.947929388777598,0.18723496954936547,0.00021137768075525754,-0.001201564309476489,-0.0001816013871691366,0.00038608221694296787,0.00022336324900865763,-0.0007685399763106037,0.0012142203276960624,0.2689092457294464,-23.61355972290039,19.577133178710938,17.89893341064453,0.8897806406021118,2.3604629039764404,-0.13361968100070953,,,,,,,,,
1739400952.640538,-0.7077535437873069,0.6773193668199023,1.41989619345514,-1.8791791025219042,-0.7111510263232396,1.9479286306330055,0.18723978370627242,0.0001191685982330672,0.000434159498627886,-0.0016930287190733762,2.6159741779102513e-05,0.0016082060351291583,-0.000246977248934716,0.0009976395567484666,0.2689092457294464,-23.71670913696289,19.604904174804688,17.89893341064453,0.8705545663833618,2.3668715953826904,-0.14735259115695953,,,,,,,,,
1739400952.651571,-0.7077534542265448,0.6773136624510615,1.4198961096639806,-1.8791742999245986,-0.711155437675002,1.9479293882930813,0.1872366432756695,0.0005870861100203555,-0.002490506423874504,-0.0006899330209983634,0.0014545620434823956,-0.0006856343456189876,-0.0007637939055824606,0.00036906389258204694,0.2689092457294464,-23.63736343383789,19.604904174804688,17.87512969970703,0.8961893320083618,2.3604629039764404,-0.12080229818820953,,,,,,,,,
1739400952.6615808,-0.7077568792675016,0.6773203296516481,1.419898307281053,-1.879178747931178,-0.7111549367578498,1.947930903613238,0.18723501923231914,-0.0011777170339878752,0.001369534328568448,0.00044489886886025186,-6.653071855214978e-05,-0.0005944462833431615,0.0011555447810564635,-8.607113465924069e-05,0.3165166676044464,-23.71670913696289,19.604904174804688,17.92273712158203,0.8769632577896118,2.3476455211639404,-0.10706938803195953,,,,,,,,,
1739400952.6735516,-0.7077514649519795,0.6773178329825638,1.419896088304687,-1.8791784500958546,-0.7111549627542187,1.9479310518873127,0.18723984205826094,0.0013639389544188247,-0.00043503995955857915,0.0005345297937907935,0.001131544791315396,-0.00028414925039312554,-2.164455717947668e-05,0.0025193216466946893,0.2411382496356964,-23.66513442993164,19.604904174804688,17.89893341064453,0.8769632577896118,2.3732802867889404,-0.12080229818820953,,,,,,,,,
1739400952.6835911,-0.7077546937639088,0.6773160096196482,1.4198962010863139,-1.8791765894805856,-0.7111520465721719,1.9479301459711045,0.18723664394377793,-0.0004022767995678881,5.791362085584551e-05,-8.344171679871174e-05,0.0012286306643644555,-5.6897194565410096e-05,0.0005504411531459793,0.0016782123734605356,0.3165166676044464,-23.66513442993164,19.604904174804688,17.87512969970703,0.8705545663833618,2.3540542125701904,-0.12080229818820953,,,,,,,,,
1739400952.694567,-0.7077534543563652,0.677314887521033,1.4198946290293621,-1.8791791593273004,-0.7111517489425867,1.9479262093786933,0.18723821125067885,0.00016186499743954216,-0.0008487315567893816,-0.0010837455981163805,-0.0004056772044869864,0.0010981176912662066,-0.00043982469380298583,0.001321184280744594,0.2689092457294464,-23.61355972290039,19.628707885742188,17.89893341064453,0.8769632577896118,2.3604629039764404,-0.13361968100070953,,,,,,,,,
1739400952.7045674,-0.7077534542260457,0.6773166386356239,1.4198983164547003,-1.879179433215347,-0.7111521036030868,1.9479301453071372,0.1872311231834794,-3.983191907780295e-05,0.0012152761804187647,-0.0005468182609926436,-0.0009981278798380558,-0.0002772118106763905,6.04420868546441e-05,-0.0018208684004498753,0.2689092457294464,-23.63736343383789,19.604904174804688,17.89893341064453,0.8769632577896118,2.3540542125701904,-0.07411040365695953,,,,,,,,,
1739400952.7155628,-0.7077515352493032,0.677313086648868,1.4199071051001257,-1.8791825216254618,-0.711148265137741,1.94792938829308,0.18723815818201545,0.0007368932706010536,7.24335606772015e-05,0.000949000992889352,-9.731414234562382e-05,0.0014532256985700974,-0.0002272071385177588,0.0008528026182891425,0.2411382496356964,-23.58578872680664,19.501754760742188,17.94654083251953,0.8833719491958618,2.3604629039764404,-0.13361968100070953,,,,,,,,,
1739400952.7255707,-0.7077534551903535,0.6773122638413213,1.419900275358977,-1.879176321016678,-0.7111567016324432,1.9479301459531593,0.1872366437631987,-0.000624844046265473,-0.00031084200291280376,-0.0016687245428564281,0.0008139909031596095,-0.0011422179251553244,0.001207946950555091,-9.313716204386463e-05,0.2689092457294464,-23.61355972290039,19.553329467773438,17.89893341064453,0.8833719491958618,2.3540542125701904,-0.12080229818820953,,,,,,,,,
1739400952.7364857,-0.7077514601370998,0.6773158925259825,1.4199049906246097,-1.8791809508593973,-0.7111519015830864,1.947929388293081,0.18723897621520572,0.0012267828363566624,0.0015319701943711471,0.0005403339124900527,-0.0012054055002812135,-0.00036026219574548056,0.00043966033159364753,0.0011267504104062224,0.2411382496356964,-23.63736343383789,19.529525756835938,17.92273712158203,0.8769632577896118,2.3604629039764404,-0.11347807943820953,,,,,,,,,
1739400952.7465498,-0.7077514562853818,0.6773099480693798,1.4199050650407337,-1.8791809764930907,-0.7111525022440093,1.947929388293081,0.18723902465556758,9.130119708657937e-05,-0.0010570104788948551,0.00046153704115690095,-0.00043962218800615706,0.0012692483970632685,2.704826431271591e-05,0.0008423609738163086,0.2411382496356964,-23.58578872680664,19.529525756835938,17.92273712158203,0.8833719491958618,2.3604629039764404,-0.14094389975070953,,,,,,,,,
1739400952.7565749,-0.707753454261705,0.6773099748102168,1.4199071444575235,-1.8791752260408283,-0.7111517387617532,1.947927873080595,0.18722555316953265,-0.0005539674112830245,4.929349339670121e-05,0.0009076734958186805,0.0004697086441510796,0.0010618834075534402,-0.0005673886105568959,-0.0030634014883391862,0.2689092457294464,-23.58578872680664,19.501754760742188,17.84735870361328,0.8769632577896118,2.3732802867889404,-0.05396880581974983,,,,,,,,,
1739400952.7675674,-0.7077512687223976,0.6773161251287173,1.4199047353793166,-1.8791766927292544,-0.7111525022359997,1.9479286306330035,0.18723306235164755,0.0006275332712685609,0.0011674782250520647,0.0004393222348394579,-0.000298561835183241,-0.00015225092129394867,-0.0006739677585044945,-0.0002978919698922482,0.2689092457294464,-23.63736343383789,19.529525756835938,17.89893341064453,0.8833719491958618,2.3668715953826904,-0.11347807943820953,,,,,,,,,
1739400952.7775803,-0.7077572727405407,0.6773099540480522,1.4198999857099546,-1.8791770194455768,-0.711152228608186,1.9479289154047346,0.18723816066253313,-0.0014328844568972268,-0.0022757111262121116,-0.000733424712051489,-0.0002970349890101578,-0.0004575163729889884,-0.0011764032249661296,0.0009239815383549701,0.2927129566669464,-23.58578872680664,19.553329467773438,17.89893341064453,0.8769632577896118,2.3604629039764404,-0.13361968100070953,,,,,,,,,
1739400952.788552,-0.7077554003179386,0.677313896836073,1.4198994177743633,-1.8791759883998027,-0.7111517452247088,1.947929388936434,0.1872384803603328,-0.00037088024753255617,-7.671083161201879e-05,-0.00015336629778178713,0.0015651150008813698,-0.0005738356820957672,-0.0002860197367370616,0.0007424581802179412,0.2927129566669464,-23.63736343383789,19.604904174804688,17.89893341064453,0.8769632577896118,2.3604629039764404,-0.12721098959445953,,,,,,,,,
1739400952.7995467,-0.7077530188005516,0.6773186321767384,1.4198971087018826,-1.879180181420697,-0.7111533822096759,1.9479293882930848,0.1872326385070543,-0.0007167039025415035,0.001743379997139324,-0.0007757579745927051,-0.00027994259892596886,-0.0008108182575915803,0.0002750564863736877,-0.0020953326659281634,0.2927129566669464,-23.66513442993164,19.604904174804688,17.92273712158203,0.8897806406021118,2.3604629039764404,-0.08692778646945953,,,,,,,,,
1739400952.8095686,-0.7077535320797684,0.6773158952633526,1.419894550021395,-1.8791769695450173,-0.7111520977907354,1.9479302636907294,0.18723385981848265,0.0009076746778267683,-0.0002815078439140197,-0.001555842167129316,0.0005838196256704216,0.0004274615249906117,0.0003143331894357871,-0.00047719596634085686,0.2689092457294464,-23.66513442993164,19.628707885742188,17.89893341064453,0.8769632577896118,2.3540542125701904,-0.09425200521945953,,,,,,,,,
1739400952.8204777,-0.7077534551894556,0.6773203359761709,1.4198976238281287,-1.879179871499643,-0.7111517271353451,1.9479309040984194,0.1872410274446274,0.0002497588791675652,0.0022021473455239218,0.0011976577176273618,-1.4004448310582637e-05,0.0011400467523940553,0.0010357441319384058,0.0014208949186949658,0.2689092457294464,-23.68893814086914,19.628707885742188,17.94654083251953,0.8769632577896118,2.3476455211639404,-0.12080229818820953,,,,,,,,,
1739400952.830549,-0.7077534542260554,0.6773222280021104,1.4198924958206363,-1.87918244221225,-0.7111525414815938,1.947928630633011,0.1872350217427762,0.00028593088055886643,0.0014101903557678706,-0.0007015951160321014,-0.0011136258882125042,-0.000297609049622401,0.00017136585891740292,-0.0008007893178103554,0.2689092457294464,-23.71670913696289,19.656478881835938,17.94654083251953,0.8833719491958618,2.3668715953826904,-0.10706938803195953,,,,,,,,,
1739400952.841505,-0.7077534272445127,0.6773167288038355,1.4199003911419408,-1.8791774032894388,-0.711152502236254,1.9479286306330028,0.18723572377787467,0.0014531944677396123,0.0007820536260911296,0.0009657621835228673,0.0006132450097996276,0.0006390314433045098,-0.00025116485984089224,-0.0013562035604098336,0.2689092457294464,-23.66513442993164,19.577133178710938,17.87512969970703,0.8833719491958618,2.3668715953826904,-0.07411040365695953,,,,,,,,,
1739400952.8525534,-0.7077551670673058,0.677318848045766,1.4198960912356335,-1.8791808940779944,-0.7111478472473445,1.947930903613238,0.1872339480050692,0.00034021338559788453,0.0005042534006805205,-0.0015497521265884148,-0.0009936412083399434,0.0008719902538583857,0.0009059282681064808,-0.0013224867623520215,0.2927129566669464,-23.66513442993164,19.604904174804688,17.92273712158203,0.8705545663833618,2.3476455211639404,-0.08692778646945953,,,,,,,,,
1739400952.8635724,-0.7077555602568218,0.6773168672083109,1.4199000558655046,-1.8791809745198802,-0.7111517445700463,1.9479271153128461,0.1872370586577212,1.0711266879394675e-05,0.0006054146216724078,0.001025364890415519,-9.447992808867448e-05,0.0016609086090909819,-0.00124744548849467,0.0005285421845904653,0.2689092457294464,-23.63736343383789,19.553329467773438,17.92273712158203,0.8769632577896118,2.3796889781951904,-0.09425200521945953,,,,,,,,,
1739400952.8735862,-0.7077515607503618,0.6773157633576131,1.4198984090811515,-1.8791769308576733,-0.7111559831284714,1.9479286306330028,0.18723664479848737,3.933549433153029e-05,0.0011354801392057705,-0.001154624177245525,0.0013178226398516376,-3.457358739819647e-06,-0.0005264351499781824,0.0001814365419163965,0.2411382496356964,-23.66513442993164,19.577133178710938,17.89893341064453,0.8769632577896118,2.3668715953826904,-0.12080229818820953,,,,,,,,,
1739400952.884506,-0.7077534542266288,0.6773164520686601,1.4199018106195869,-1.879179191842351,-0.7111567410278175,1.9479278729729246,0.18723583750025913,0.000766541808919656,0.0005278008284823845,-7.424173703190909e-05,-0.0006036488889643255,-0.0007459766317009909,-0.000505504291209096,-0.0005405187766063962,0.2689092457294464,-23.66513442993164,19.529525756835938,17.89893341064453,0.8833719491958618,2.3732802867889404,-0.08692778646945953,,,,,,,,,
1739400952.894544,-0.7077534542260392,0.6773143854873801,1.419898906633754,-1.8791753313503992,-0.7111543260483109,1.9479293882930813,0.187235380176615,0.0001788326039531185,0.00023927818357354145,-0.0011759749841744947,0.0013425120541600572,-0.00031144928433781945,0.00010030567154406018,-0.0002940977730970348,0.2689092457294464,-23.63736343383789,19.577133178710938,17.84735870361328,0.8897806406021118,2.3604629039764404,-0.10706938803195953,,,,,,,,,
1739400952.9065511,-0.7077514562851862,0.6773149138660051,1.4199049825102823,-1.879178875925983,-0.7111524630639623,1.9479301459531595,0.18722874196453382,0.0007515595141820891,0.0013857598729092359,0.0006164180443314999,-0.00036088307831145725,0.0013490098534983824,0.00029378986503556816,-0.0027549621440958023,0.2411382496356964,-23.61355972290039,19.529525756835938,17.89893341064453,0.8833719491958618,2.3540542125701904,-0.05396880581974983,,,,,,,,,
1739400952.9165509,-0.7077578932823226,0.677309952224264,1.4199032691397224,-1.8791790883605535,-0.711150973995208,1.9479278729729246,0.18723112903134398,-0.0010857726533383422,-0.0007930810113267945,0.0004485175753970716,-0.0009878186832808233,0.0013835484746304943,-0.0009835376607797888,-0.0009052769562979307,0.3165166676044464,-23.58578872680664,19.553329467773438,17.89893341064453,0.8705545663833618,2.3732802867889404,-0.07411040365695953,,,,,,,,,
1739400952.9265869,-0.7077568879514674,0.67731471838271,1.4199032453986435,-1.8791742330963446,-0.7111532598958921,1.9479285128954327,0.18723686699600808,-0.0012223645179783818,0.00023941167552786935,0.0009714979484973479,0.0004971028302218988,0.0004999633077632557,-0.000785093843408994,0.0014598627921200093,0.3165166676044464,-23.63736343383789,19.553329467773438,17.87512969970703,0.8897806406021118,2.3668715953826904,-0.09425200521945953,,,,,,,,,
1739400952.9375827,-0.7077558716460112,0.6773136672537609,1.4199032457378207,-1.8791766689033649,-0.71115298642977,1.9479293839317657,0.18723668294830093,-0.0013666471605180794,-0.0001640072498782448,0.0002482499424106335,0.0002865578970127089,-0.0013829800486199896,-0.00017250142902821823,0.001727543992792019,0.2927129566669464,-23.63736343383789,19.553329467773438,17.87512969970703,0.8833719491958618,2.3604629039764404,-0.12080229818820953,,,,,,,,,
1739400952.9495635,-0.7077551671787393,0.6773130148012905,1.4198991610194436,-1.879178947109413,-0.7111515890488112,1.9479286306329782,0.18723577743282396,-0.0008118515456111554,-0.00033917250491702453,-0.0005632448601223568,-0.000685454419676631,0.0007084157269458271,0.00041636518196538116,-8.062924351497482e-05,0.2927129566669464,-23.61355972290039,19.577133178710938,17.89893341064453,0.8769632577896118,2.3668715953826904,-0.11347807943820953,,,,,,,,,
1739400952.9604747,-0.7077534543330374,0.677321118588496,1.419895528550353,-1.8791791678710859,-0.7111568590821242,1.9479286305612225,0.18723426213050065,-0.0006064338776904172,0.00102380023931034,-0.00010442353062034841,-0.0002632940476278317,-0.001088079157077545,-0.0006240759160498496,0.001397083898621374,0.2689092457294464,-23.74051284790039,19.656478881835938,17.89893341064453,0.8833719491958618,2.3668715953826904,-0.10066069662570953,,,,,,,,,
1739400952.9704778,-0.7077551667467722,0.677315669222897,1.419893761189769,-1.879179860864493,-0.7111506352304999,1.9479301459531582,0.18723775814419913,-0.00020538307831413687,-0.0003476211009575345,-0.0008541492016451832,-0.0008831566015341011,0.0009438247297884275,0.0002486954494249422,-0.0005747769420101116,0.2927129566669464,-23.66513442993164,19.680282592773438,17.94654083251953,0.8705545663833618,2.3540542125701904,-0.12721098959445953,,,,,,,,,
1739400952.9804857,-0.7077534551890162,0.677315933150836,1.4198991726514942,-1.879177399971646,-0.7111578516553821,1.947929388293081,0.18723239423179414,0.0008864276677944282,-0.0008811934783657687,0.0006733688433772231,-5.595389759495786e-06,-0.0011342264667023594,0.00017822279291866694,-0.0007847605242624041,0.2689092457294464,-23.66513442993164,19.604904174804688,17.87512969970703,0.8897806406021118,2.3604629039764404,-0.08051909506320953,,,,,,,,,
1739400952.9905467,-0.7077534542260554,0.6773188353864044,1.4198960953201605,-1.8791809509844304,-0.7111560229366067,1.9479278729729244,0.18723577738712266,-0.0004808709474744462,0.0012290561776106053,-0.00091126650844004,-0.000427656408811321,-0.000821138801320849,-0.00024139756124045767,-0.000763967286261026,0.2689092457294464,-23.66513442993164,19.604904174804688,17.92273712158203,0.8769632577896118,2.3732802867889404,-0.11347807943820953,,,,,,,,,
1739400953.0005505,-0.7077554018201652,0.6773188471002948,1.4198961767799134,-1.879176332794026,-0.7111532993759275,1.9479286306330026,0.1872331278084095,6.96367321112313e-05,0.001036509842781414,0.0002102509123576658,0.00011481520344564368,5.775834665423441e-05,-8.699612909332616e-05,-0.0008401893322614461,0.2927129566669464,-23.66513442993164,19.604904174804688,17.89893341064453,0.8897806406021118,2.3668715953826904,-0.12721098959445953,,,,,,,,,
1739400953.010594,-0.7077514563961645,0.6773204948655609,1.4198999724333077,-1.8791760835348166,-0.711151026162401,1.9479309210558409,0.1872350196459842,-0.0001373968520711836,0.00017067362980269934,0.00020031329043252973,0.00013107275831651826,8.237342730512071e-06,0.0008949859124323643,-0.00046935417671754257,0.2411382496356964,-23.68893814086914,19.553329467773438,17.89893341064453,0.8705545663833618,2.3476455211639404,-0.10706938803195953,,,,,,,,,
1739400953.0225632,-0.7077514826065592,0.6773156604095608,1.419903956494577,-1.879179194781007,-0.7111517445761757,1.9479293882931796,0.1872396403446244,0.0007667141737219075,-8.506992610163696e-05,0.0017530019795615275,0.00035823463887440653,0.0005013954248668092,0.00018992823679132642,0.0026769136820024462,0.2411382496356964,-23.66513442993164,19.529525756835938,17.89893341064453,0.8769632577896118,2.3604629039764404,-0.10706938803195953,,,,,,,,,
1739400953.0335042,-0.7077535582276088,0.6773156563583203,1.4199017308224775,-1.879177173702972,-0.7111517489366049,1.9479278729729246,0.1872362907900423,-0.0006158511848779985,-0.0010317830357023739,0.000545432573551867,0.00037995382603406503,0.0004988619314016986,-0.0003387879775425559,2.423273579491919e-05,0.2689092457294464,-23.66513442993164,19.529525756835938,17.87512969970703,0.8769632577896118,2.3732802867889404,-0.11347807943820953,,,,,,,,,
1739400953.0435524,-0.7077551667485317,0.6773163848050184,1.419898172457498,-1.8791777726112917,-0.7111519065661277,1.947930903613238,0.18724019959994248,1.166765194327696e-05,9.59630487893389e-05,-0.0014900222582318998,-0.0006987795478029432,0.0004502739167532959,0.0009457265681135521,0.0014578417110179495,0.2927129566669464,-23.66513442993164,19.577133178710938,17.92273712158203,0.8769632577896118,2.3476455211639404,-0.12080229818820953,,,,,,,,,
1739400953.053592,-0.7077533559297038,0.6773157623344619,1.4199032716840811,-1.8791809760041032,-0.7111510381532778,1.9479278729729246,0.18723701338252596,0.0008401455662378022,0.0004969163823062065,0.0006707656265162024,-0.0005492964307571163,0.0006800473031643656,-0.00045559628416972584,0.0008264653465661132,0.2689092457294464,-23.66513442993164,19.553329467773438,17.92273712158203,0.8769632577896118,2.3732802867889404,-0.12080229818820953,,,,,,,,,
1739400953.0645807,-0.7077536882277947,0.6773136686667834,1.4199010540747874,-1.8791783643126123,-0.7111517445639909,1.9479301459531595,0.18723534148912152,0.0003374878020737397,-0.00048509466667071694,-0.0009137438776663881,-0.0004224450130283411,0.0013402808190184883,-0.00018562202925186604,-9.622683692494854e-05,0.2689092457294464,-23.63736343383789,19.553329467773438,17.89893341064453,0.8769632577896118,2.3540542125701904,-0.10066069662570953,,,,,,,,,
1739400953.075543,-0.7077551927951452,0.6773165999428858,1.4199086798688916,-1.8791744593659059,-0.711150986431359,1.9479293882930813,0.18723613377735276,-0.0001235373688244462,0.0005320023926766873,0.0007338744860950531,-0.0003063610694659549,0.001405324005130264,1.0706381140427232e-05,-0.0009721575540680198,0.2927129566669464,-23.63736343383789,19.477951049804688,17.87512969970703,0.8705545663833618,2.3604629039764404,-0.11347807943820953,,,,,,,,,
1739400953.0855527,-0.7077554007506317,0.6773129151014687,1.4199050372290594,-1.8791752263178776,-0.7111510263232299,1.947930144499609,0.18723519524057786,-0.00022218419550578468,0.0005519314646658096,-0.0004158813110123164,0.00039832057491400743,0.0006033452942089401,0.00027595434542490734,-0.0005571705790039485,0.2927129566669464,-23.58578872680664,19.529525756835938,17.84735870361328,0.8705545663833618,2.3540542125701904,-0.10706938803195953,,,,,,,,,
1739400953.0965238,-0.7077551667480914,0.6773146390718826,1.4199014996903192,-1.8791778515061706,-0.7111540459066162,1.9479286306329946,0.1872391006485066,0.00041503241310219326,0.0018377220603330948,-0.0006074994847255629,-0.00012047354754948412,-0.00044777038576103597,0.00033588033268586485,0.0011462992909150658,0.2927129566669464,-23.63736343383789,19.577133178710938,17.92273712158203,0.8833719491958618,2.3668715953826904,-0.11347807943820953,,,,,,,,,
1739400953.107534,-0.7077514563921836,0.6773144015142198,1.4198994185062894,-1.8791763307781968,-0.7111528044381383,1.947927113374779,0.1872302573023318,0.0015125572784442706,0.0011386270750635534,-0.0005095022939379664,0.0005122914902672534,0.0010629805887663935,-0.0010625705123499913,-0.0028264644156201875,0.2411382496356964,-23.63736343383789,19.604904174804688,17.89893341064453,0.8769632577896118,2.3796889781951904,-0.06678618490695953,,,,,,,,,
1739400953.1175573,-0.7077534571149721,0.6773119488527521,1.4198994107432308,-1.8791770588603391,-0.711151744593903,1.947930141592476,0.18723717707451554,-6.554916545392297e-05,-0.002215112708383913,0.000686656674720717,0.000844342107356858,0.0009028610199369837,0.00023773684952700387,0.0009645957114201491,0.2689092457294464,-23.61355972290039,19.604904174804688,17.87512969970703,0.8769632577896118,2.3540542125701904,-0.09425200521945953,,,,,,,,,
1739400953.1275725,-0.707753454226088,0.6773172637326041,1.419896219091375,-1.8791773724336471,-0.7111532729780633,1.9479286306329289,0.1872366770455467,0.0005938753721189842,0.00014481034450511215,-4.2276631005756544e-05,0.0007470896709690597,-0.001228314834686918,-9.790105992177897e-06,0.00029046692230369324,0.2689092457294464,-23.71670913696289,19.628707885742188,17.87512969970703,0.8897806406021118,2.3668715953826904,-0.08051909506320953,,,,,,,,,
1739400953.1385367,-0.7077551577529283,0.6773177225159467,1.4198960831065202,-1.8791749131414057,-0.7111556811504944,1.9479286306330026,0.18723852864562357,-0.00012982043790404842,0.0015540223714600725,6.827968548205327e-05,0.0005761813370858504,-0.0012362374262227054,-7.39839277867117e-05,-0.0014349241193142548,0.2927129566669464,-23.68893814086914,19.604904174804688,17.87512969970703,0.8833719491958618,2.3668715953826904,-0.10066069662570953,,,,,,,,,
1739400953.1495051,-0.7077551667467196,0.6773166898345339,1.41989682378721,-1.8791762188220285,-0.711151106124941,1.9479286306330026,0.18724295655003437,-0.0012421704883845384,0.0008731929471033984,9.225926364943933e-05,0.0008666044483525391,0.0007089459192482976,0.00027022968561018205,0.0028261449197821567,0.2927129566669464,-23.66513442993164,19.604904174804688,17.89893341064453,0.8705545663833618,2.3668715953826904,-0.13361968100070953,,,,,,,,,
1739400953.159544,-0.7077554007501906,0.6773168373493496,1.419894299049007,-1.8791743092501203,-0.7111535618761806,1.9479340815585926,0.18724040442404163,-0.0004318845008745066,0.000323005859202775,-6.300754834352902e-05,0.0001548746085267315,-0.0005141613612741738,0.0012188053098085559,0.0004530421276723044,0.2927129566669464,-23.63736343383789,19.628707885742188,17.87512969970703,0.8833719491958618,2.3476455211639404,-0.11347807943820953,,,,,,,,,
1739400953.1704793,-0.707751456289149,0.6773187602143271,1.4198999475598382,-1.879178160508684,-0.7111511051559076,1.9479286308483272,0.18723868587281345,0.0016175243026250415,0.0010330101546601569,0.0019714062269130432,-0.000351391827704931,0.00024606359769199706,-0.0002484452164760513,0.0012405432770147091,0.2411382496356964,-23.66513442993164,19.553329467773438,17.89893341064453,0.8705545663833618,2.3668715953826904,-0.13361968100070953,,,,,,,,,
1739400953.181492,-0.7077514575691556,0.6773151261731718,1.4198999445074052,-1.8791807125602185,-0.7111575158918987,1.9479251497405652,0.18723440003647704,0.00037800068843882973,-0.0006597312111960369,0.001055411854766963,-0.0005006634346433123,-0.001830127642724277,-0.0009952785415798318,-0.0021617839618390394,0.2411382496356964,-23.61355972290039,19.553329467773438,17.92273712158203,0.8897806406021118,2.3604629039764404,-0.10066069662570953,,,,,,,,,
1739400953.1935706,-0.7077534556170084,0.6773139882339946,1.4198981893024687,-1.8791742066066954,-0.7111509869418293,1.9479290863070546,0.18724061311705995,-0.0005225984387053929,0.0004703843936347898,0.00010734211453191649,0.0018507932050164594,0.0013412162384827332,-0.00029104076135992807,0.0004907148176882828,0.2689092457294464,-23.63736343383789,19.577133178710938,17.87512969970703,0.8705545663833618,2.3540542125701904,-0.12721098959445953,,,,,,,,,
1739400953.2045753,-0.7077552447479131,0.6773188383621156,1.4199019744333556,-1.8791771379032658,-0.7111526262723202,1.9479317695084764,0.18722955669079788,0.0003047055022926007,0.0013820457729787723,-0.00015995205455519022,-5.347657674162619e-05,-0.0007093911016790395,0.0010355535084861256,-0.0024029026300759026,0.2927129566669464,-23.66513442993164,19.529525756835938,17.87512969970703,0.8833719491958618,2.3403213024139404,-0.06037749722599983,,,,,,,,,
1739400953.214582,-0.707751456289149,0.6773144840503068,1.4199000574608036,-1.87917813220307,-0.7111582691969605,1.9479294013750332,0.18723629661672958,0.001051330034503322,6.082419271593513e-05,0.0008011561857618474,0.0007326376251351407,-0.0008542569500630515,-4.9630035613933146e-05,-0.0010235346129467383,0.2411382496356964,-23.63736343383789,19.553329467773438,17.89893341064453,0.8961893320083618,2.3604629039764404,-0.11347807943820953,,,,,,,,,
1739400953.224603,-0.7077551667467704,0.6773159223993059,1.419902253521043,-1.8791762147238575,-0.7111528063914919,1.9479301459532332,0.1872311246463703,0.00046631735397473706,0.000701371665933777,7.769126232040488e-05,0.00026276569252318,-0.0005709449833572869,0.00046752568689007856,-0.0027939816070661865,0.2927129566669464,-23.63736343383789,19.553329467773438,17.89893341064453,0.8769632577896118,2.3540542125701904,-0.07411040365695953,,,,,,,,,
1739400953.2355194,-0.7077534272445127,0.677316557754238,1.419903242566712,-1.8791788640990668,-0.7111510266522432,1.9479286306330028,0.18723077261862223,0.000656770990967639,0.0007490202426013864,0.0008943822812591551,0.0001419298802740862,0.0018466167847605245,-0.0006611440329756201,-0.0003999674386797413,0.2689092457294464,-23.63736343383789,19.553329467773438,17.89893341064453,0.8705545663833618,2.3668715953826904,-0.06678618490695953,,,,,,,,,
1739400953.246551,-0.7077582087910811,0.6773103901580569,1.4199050375721902,-1.87918176719423,-0.7111526332172846,1.9479293882930813,0.18723572962573723,-0.0013961764011743171,-0.0018968911046257752,0.0004385996910881485,-0.0016958183069441808,0.00020438897647646756,-0.0010002360202077151,-0.0008715134866758696,0.2927129566669464,-23.56198501586914,19.529525756835938,17.94654083251953,0.8833719491958618,2.3604629039764404,-0.10066069662570953,,,,,,,,,
1739400953.2574804,-0.707753454384554,0.6773141009668135,1.419902293371443,-1.8791800237844571,-0.711151783824029,1.9479278729729246,0.18723427540935444,1.6782999302200413e-05,-0.00026989803314102115,-0.00017266428610876174,-0.0020747626543109843,-0.00034241040482988074,-0.0008501282946665829,-0.0024834883835978374,0.2689092457294464,-23.61355972290039,19.553329467773438,17.92273712158203,0.8769632577896118,2.3732802867889404,-0.10066069662570953,,,,,,,,,
1739400953.2675838,-0.7077555526539469,0.6773161310639485,1.4199022017926597,-1.8791809391691567,-0.7111517577119632,1.9479293882930813,0.18723723173379983,-0.0003243378747195699,-3.973525538544158e-06,0.0004372293926982291,0.0006957178831131507,0.0002931281258302088,0.00022399053940220956,-0.00032178492927866095,0.2689092457294464,-23.63736343383789,19.553329467773438,17.92273712158203,0.8769632577896118,2.3604629039764404,-0.09425200521945953,,,,,,,,,
1739400953.2785203,-0.707755168149583,0.677314807951121,1.4199003139049327,-1.87918025829505,-0.7111532598423498,1.9479295845223645,0.18723833629991712,6.064292185309633e-05,-0.000528415540744447,0.0003546030376443147,-6.257006805485338e-05,-0.0008693235921255174,-0.0001784778262760813,0.00044392088793087574,0.2927129566669464,-23.61355972290039,19.553329467773438,17.92273712158203,0.8897806406021118,2.3604629039764404,-0.13361968100070953,,,,,,,,,
1739400953.2886446,-0.7077551667467942,0.6773185266961138,1.4198963415054882,-1.8791791859560731,-0.7111517445759533,1.9479278729762477,0.18724128275668414,-0.0002198983093275148,0.00018781381975858938,-0.0008124462334719395,-0.0004177657630253791,0.00028849106015843345,-0.00035554269465259904,0.00010819641311864527,0.2927129566669464,-23.66513442993164,19.604904174804688,17.89893341064453,0.8769632577896118,2.3732802867889404,-0.12080229818820953,,,,,,,,,
1739400953.2994742,-0.7077535623159682,0.6773163726438058,1.4198965286779008,-1.8791791918549812,-0.7111535662348125,1.9479278729729246,0.1872412652806255,0.0007223820000722924,-0.0012368198579277127,-0.0003877520753142992,-0.0004282849029224178,0.0010218237279043575,-0.00048372603961244003,0.0013061518580163847,0.2411382496356964,-23.66513442993164,19.628707885742188,17.89893341064453,0.8833719491958618,2.3732802867889404,-0.12080229818820953,,,,,,,,,
1739400953.30955,-0.7077534542379278,0.6773129795203519,1.4198981618429536,-1.8791807389116386,-0.7111526768834091,1.9479293880777404,0.1872346951607428,0.00041823422545075883,-0.001864439395731619,0.0008700919921792944,-0.00032235493996562076,-0.00042512533216785496,0.0005112023339680646,-0.0011387670225315328,0.2689092457294464,-23.61355972290039,19.577133178710938,17.92273712158203,0.8833719491958618,2.3604629039764404,-0.06678618490695953,,,,,,,,,
1739400953.3205407,-0.7077542904336065,0.6773136706331164,1.419899944507388,-1.8791791944701748,-0.7111517625040598,1.9479301459531582,0.1872327254328853,-0.00036919996882777675,-0.0010862563262985026,0.0001659375313705359,-0.0003937908509197644,0.0009945845992246748,0.0007357252193147383,0.0005037719361272671,0.2411382496356964,-23.63736343383789,19.553329467773438,17.89893341064453,0.8769632577896118,2.3540542125701904,-0.04756011441349983,,,,,,,,,
1739400953.3314905,-0.7077551754295626,0.6773142103827257,1.419898161830369,-1.8791752574876812,-0.7111526331094911,1.947929388293081,0.18723203931976434,-0.0004972907344864373,-0.001862140244672589,0.00011512777558979852,0.0016971391410112685,-0.0018081417908726919,-6.471175907221555e-05,-0.0012430040291918905,0.2927129566669464,-23.61355972290039,19.577133178710938,17.87512969970703,0.8833719491958618,2.3604629039764404,-0.08051909506320953,,,,,,,,,
1739400953.3415556,-0.7077552447480575,0.6773151380404342,1.4198983347526848,-1.8791751868449909,-0.7111511048171677,1.947928591387146,0.18723438112154842,0.00024611385441655195,-0.0015457331548321903,0.0004203738534839194,0.0009068892750370396,0.00015900812327558996,-0.0005787150202367788,0.000275981363108709,0.2927129566669464,-23.61355972290039,19.604904174804688,17.87512969970703,0.8705545663833618,2.3668715953826904,-0.07411040365695953,,,,,,,,,
1739400953.3515754,-0.7077535658360921,0.6773167975949688,1.419900387560806,-1.8791791112544234,-0.7111517843083243,1.9479309036125734,0.18723912018631902,0.00042190219997528437,-0.0006302941666171978,0.00010898295913265959,-0.000614269165965341,0.0006707123167080202,0.0006330734995621523,0.0006640518174216637,0.2411382496356964,-23.63736343383789,19.577133178710938,17.89893341064453,0.8769632577896118,2.3476455211639404,-0.11347807943820953,,,,,,,,,
1739400953.3625755,-0.707753462904741,0.6773103054742791,1.4198981662520356,-1.8791784529423918,-0.7111572402926496,1.9479301459531593,0.18723874723526637,0.0009527412335395041,-0.0017505742766338326,-0.0006919039667873524,-0.0008694131706968044,-0.0005737655385126567,7.666058186501612e-05,0.0015605844206236829,0.2689092457294464,-23.58578872680664,19.577133178710938,17.89893341064453,0.8961893320083618,2.3540542125701904,-0.10706938803195953,,,,,,,,,
1739400953.3734758,-0.707751457283878,0.6773168760346411,1.4198985189676894,-1.8791757431873097,-0.7111517576760988,1.947929388293081,0.18723973977939581,0.0011907837917316463,0.0005082245395157507,-0.0011027379887192457,0.0004667872496382909,0.0014267658214137187,-0.00021625247826307335,6.957304569120653e-05,0.2411382496356964,-23.63736343383789,19.577133178710938,17.87512969970703,0.8769632577896118,2.3604629039764404,-0.13361968100070953,,,,,,,,,
1739400953.3835168,-0.7077514562852031,0.6773144928824689,1.4198999455309214,-1.8791728411726818,-0.7111549365725163,1.947928643714955,0.18723700522332715,0.0016069709394160997,0.0013654560497330555,-0.0002871781660013221,0.002746907663905961,-0.0003316456985398718,-0.0007462132496256646,0.00037249548289475606,0.2411382496356964,-23.63736343383789,19.553329467773438,17.84735870361328,0.8769632577896118,2.3668715953826904,-0.12080229818820953,,,,,,,,,
1739400953.3935711,-0.7077497441924447,0.6773144924060449,1.4199017271844245,-1.8791788312301243,-0.7111567408426066,1.9479301459533809,0.18723590600317147,0.0014289452970424746,0.00012009019618059144,0.0006412595395639713,-0.001375838108669272,-0.001359374659334257,0.00043473837651538923,0.0009750531576031532,0.2173345386981964,-23.63736343383789,19.529525756835938,17.92273712158203,0.8833719491958618,2.3540542125701904,-0.07411040365695953,,,,,,,,,
1739400953.4045866,-0.7077588772083572,0.6773164103558719,1.4198991518434414,-1.8791773767881648,-0.7111506854462687,1.947930903613238,0.18724334221837727,-0.0013575050256992463,0.00010520340590996065,-0.0006825603295731993,0.001016821981879054,0.00099867786822325,0.0006632040200264019,0.0022008349718941724,0.3442876636981964,-23.66513442993164,19.577133178710938,17.87512969970703,0.8769632577896118,2.3476455211639404,-0.14094389975070953,,,,,,,,,
1739400953.416618,-0.7077514822855662,0.6773119854738903,1.4199031987697193,-1.8791760953568424,-0.7111567409440767,1.9479293878085644,0.18724053459584244,0.001249652666101701,-0.0013146114904430675,0.0015852678885332522,0.0011713647315710284,-0.0008946596525868723,-0.00045313292450773423,0.001035408435579551,0.2411382496356964,-23.61355972290039,19.553329467773438,17.89893341064453,0.8833719491958618,2.3604629039764404,-0.11347807943820953,,,,,,,,,
1739400953.4266212,-0.7077561027605981,0.6773136716086514,1.4198984176395697,-1.879175319559296,-0.711155430430956,1.947928630633,0.18723407927739824,-0.000933369817826083,-0.0007303607520539266,-0.0010937817366059998,-8.518080502518304e-05,-0.0002046356066617576,-0.00013660105727060425,-0.0024442691286895566,0.2927129566669464,-23.63736343383789,19.604904174804688,17.84735870361328,0.8961893320083618,2.3668715953826904,-0.08692778646945953,,,,,,,,,
1739400953.4385567,-0.707753454231323,0.677316531250579,1.4198992469349627,-1.8791806143853245,-0.7111525042359104,1.9479301459531593,0.1872373970022545,0.0008930343480594364,-0.0008903572904511922,-0.0011618320910725879,-0.0011685560741102855,0.0010894160605173131,0.000574184878273362,-1.0226745045761637e-05,0.2689092457294464,-23.63736343383789,19.577133178710938,17.94654083251953,0.8833719491958618,2.3540542125701904,-0.08692778646945953,,,,,,,,,
1739400953.4485757,-0.707755872073952,0.6773168740865473,1.4198984186949732,-1.8791784785495735,-0.7111509919763954,1.9479286306330026,0.18723743597040976,-0.0006779386913588641,0.0009204060955996702,-8.156731207238562e-05,-0.0006923801127196169,0.0010770234614487922,0.0005899117801898594,5.038013838765359e-05,0.2927129566669464,-23.63736343383789,19.577133178710938,17.89893341064453,0.8705545663833618,2.3668715953826904,-0.08692778646945953,,,,,,,,,
1739400953.459637,-0.7077552447518921,0.6773186009422147,1.4198901928536423,-1.879178084070765,-0.7111556857264406,1.9479278729729244,0.18723348001549342,0.0009903944061249535,0.0016062010519644738,-0.0023797592119686444,-0.000301583150227028,-0.00010490252705364844,0.00020411107250912255,-2.2767666833651808e-05,0.2927129566669464,-23.66513442993164,19.656478881835938,17.92273712158203,0.8833719491958618,2.3732802867889404,-0.08051909506320953,,,,,,,,,
1739400953.4704783,-0.7077534545474718,0.6773186097710022,1.4198945476951506,-1.879179194745898,-0.7111525024693441,1.9479286306330026,0.18723753908251034,0.0010304886672529688,0.00059819810980533,-0.00028182800950519505,-0.0009207390458604801,0.0008320898163720697,0.0002616155860138116,-0.00046360438566899674,0.2689092457294464,-23.66513442993164,19.628707885742188,17.89893341064453,0.8833719491958618,2.3668715953826904,-0.12721098959445953,,,,,,,,,
1739400953.4805043,-0.7077534542260555,0.6773164103558579,1.4198963659314932,-1.8791780778608784,-0.7111549239748708,1.947929388293081,0.18723444483176033,0.00023737095645055036,0.00035445447633630507,0.001099861157908074,-0.000263071177609431,0.00024794922886205487,6.3819192591320265e-06,-0.00205450556503414,0.2689092457294464,-23.66513442993164,19.604904174804688,17.92273712158203,0.8769632577896118,2.3604629039764404,-0.07411040365695953,,,,,,,,,
1739400953.4915535,-0.7077551754492295,0.6773167203948502,1.4198960820410478,-1.8791752526959118,-0.7111543360810759,1.9479293882392459,0.18723423203894432,0.0006447559250660955,0.0006902243299069783,-0.0013002804353513247,0.0009630013934029916,-0.0019180160296231896,-3.216229429532998e-05,8.00286056191902e-05,0.2927129566669464,-23.66513442993164,19.604904174804688,17.84735870361328,0.8705545663833618,2.3604629039764404,-0.08692778646945953,0,0,0,0.000,0,0
1739400953.501695,-0.7077534927452681,0.6773129303316521,1.41989808642745,-1.8791770490300097,-0.7111531574835117,1.9479286306330017,0.18723192084655751,0.0008241022750058606,-0.0010519867644071625,-0.0004148950065252,0.0005392832139538238,-0.0006260428115981558,0.00039130323574737666,-0.0017010835612624369,0.2689092457294464,-23.61355972290039,19.577133178710938,17.89893341064453,0.8769632577896118,2.3668715953826904,-0.08051909506320953,0,0,0,0.000,0,0
1739400953.5125148,-0.707751457569373,0.6773176898648341,1.4199024964027718,-1.8791784970460006,-0.7111542226882049,1.9479278729729244,0.18724334430429884,0.0012747957772884424,0.00018071845739247162,0.0016359343853401694,0.0002918339916166957,0.00030823000216041914,-1.4877955570564245e-06,0.0017112053333356186,0.2411382496356964,-23.68893814086914,19.529525756835938,17.89893341064453,0.8705545663833618,2.3732802867889404,-0.14094389975070953,0,0,0,0.000,0,0
1739400953.5225618,-0.7077572727775742,0.6773161588200286,1.4199020599150853,-1.8791774078581003,-0.7111509913313246,1.9479286306330026,0.18723926637116461,-0.0011762110383669677,-0.0004516915770035369,0.0013517715719914257,0.00047300640246935644,0.001873287661755556,-8.85967403413816e-05,-4.446991988101153e-05,0.2927129566669464,-23.63736343383789,19.529525756835938,17.87512969970703,0.8705545663833618,2.3668715953826904,-0.13361968100070953,0,0,0,0.000,0,0
1739400953.533546,-0.7077572757140379,0.6773168677978401,1.4198990581501816,-1.879176940124082,-0.7111517576579313,1.9479309036132377,0.18723898562568714,-0.0006126864054516849,0.00017955426893674148,-0.0004740491650003033,-0.0005250519092200343,0.0001627569222206157,0.0007276439444535016,0.0013434207119346136,0.2927129566669464,-23.63736343383789,19.604904174804688,17.89893341064453,0.8769632577896118,2.3476455211639404,-0.12721098959445953,0,0,0,0.000,0,0
1739400953.5455124,-0.7077568792794068,0.6773120618354775,1.419901887164412,-1.879174502123745,-0.7111552810637766,1.947929388293081,0.1872429482172123,-0.00011709957681306808,6.627639337423793e-05,0.0007315521916316419,0.0009885061762956362,-0.0008961538867055034,-0.0001449167621556228,0.00033147016100061616,0.3165166676044464,-23.61355972290039,19.529525756835938,17.84735870361328,0.8769632577896118,2.3604629039764404,-0.10706938803195953,0,0,0,0.000,0,0
1739400953.5565317,-0.7077523962577726,0.6773167972504177,1.419905060579186,-1.8791760684284615,-0.7111535714769294,1.9479293824788801,0.1872373760893896,-0.0001315053888261056,0.0005304704432871371,3.0525581098269706e-05,0.0002841901849382064,-8.097661664681116e-05,-0.0007913502725661607,0.00025360068572329345,0.2411382496356964,-23.63736343383789,19.529525756835938,17.89893341064453,0.8641458749771118,2.3604629039764404,-0.11347807943820953,0,0,0,0.000,0,0
1739400953.5665934,-0.7077514649678981,0.6773151556068606,1.419900961370688,-1.879179908518132,-0.7111510005389456,1.947930145953061,0.18723330303665875,0.0010252256531977236,0.00045102444386514295,0.00017649457288829325,6.574883421137947e-05,4.3665131858560606e-05,0.0007218581517977452,-0.001562515947117826,0.2411382496356964,-23.61355972290039,19.553329467773438,17.92273712158203,0.8705545663833618,2.3540542125701904,-0.08051909506320953,0,0,0,0.000,0,0
1739400953.5775294,-0.7077534633209693,0.6773146475764199,1.4199010569750636,-1.8791778386610853,-0.7111533781184283,1.9479286306330026,0.18723031597556924,-0.000247985956253744,-0.0005127909477920095,0.001697425913744769,-0.0004892833280543787,-0.00017800355855426283,-0.0005634978262029173,-0.003066574382933747,0.2689092457294464,-23.63736343383789,19.553329467773438,17.92273712158203,0.8897806406021118,2.3668715953826904,-0.06678618490695953,0,0,0,0.000,0,0
1739400953.587606,-0.7077562635511027,0.6773178418130301,1.4198968604606348,-1.8791802356748413,-0.7111532598967782,1.9479249807683352,0.187231814990109,-0.0004594316873422496,0.0007216787764655888,-0.0007649509577409122,-0.0009315008533851993,-0.0005355592141186854,-0.0013823000085217611,-0.002941588041707678,0.2689092457294464,-23.66513442993164,19.604904174804688,17.92273712158203,0.8897806406021118,2.3668715953826904,-0.06678618490695953,0,0,0,0.000,0,0
1739400953.5985208,-0.7077551754294225,0.6773149256870696,1.4199012514096463,-1.879179185964065,-0.7111549380796799,1.947927519739611,0.18723661909135894,-0.0004711865726799069,2.813842043885358e-05,0.0011120265079674879,-0.00010100114668892216,-0.0004495415712559003,-0.00028744948444494006,0.00034614577121777553,0.2927129566669464,-23.61355972290039,19.577133178710938,17.89893341064453,0.8769632577896118,2.3732802867889404,-0.10706938803195953,0,0,0,0.000,0,0
1739400953.609621,-0.7077568792675506,0.6773188395411561,1.419898163355195,-1.8791827572091193,-0.7111533139108381,1.9479299922471893,0.18724132247053313,-0.0013404636480486292,0.0006537394680746222,0.0002140796555097955,-0.001779955026363991,-0.00010357363051387053,-0.0005320139686412437,0.0011678636515309391,0.3165166676044464,-23.66513442993164,19.577133178710938,17.94654083251953,0.8897806406021118,2.3732802867889404,-0.12080229818820953,0,0,0,0.000,0,0
1739400953.620536,-0.7077514678409106,0.6773140041623548,1.4198985037053955,-1.8791789563799746,-0.7111510455427074,1.947930146018958,0.18723551335696895,0.0005577372843414558,-0.0012716622989635779,9.472894857873903e-05,0.0006652570640944006,0.00018721691276789304,0.0007776841665408944,-0.0009110519633289014,0.2411382496356964,-23.63736343383789,19.577133178710938,17.89893341064453,0.8705545663833618,2.3540542125701904,-0.10706938803195953,0,0,0,0.000,0,0
1739400953.6314988,-0.7077514822856315,0.6773184414193834,1.4198942997422705,-1.8791782368712735,-0.7111523999823867,1.947928630633003,0.18723977210944942,0.0016569569342496588,0.00040950343874549596,-0.0009257100268500253,0.0008139594346955378,0.00020903425433649217,0.00012866879674307697,0.002434755421974657,0.2411382496356964,-23.68893814086914,19.628707885742188,17.89893341064453,0.8705545663833618,2.3668715953826904,-0.12080229818820953,0,0,0,0.000,0,0
1739400953.6415787,-0.707756111427685,0.6773188749727859,1.4198960824927356,-1.879177328598867,-0.7111563814251693,1.9479301454686426,0.18724295674145142,-0.0015612082055187861,0.001305110674569653,-6.805589058684914e-05,0.0018062532027754417,-0.0012940478265823703,-0.0006837506089451194,0.0021477066307055,0.2927129566669464,-23.66513442993164,19.604904174804688,17.87512969970703,0.8769632577896118,2.3540542125701904,-0.13361968100070953,0,0,0,0.000,0,0
1739400953.6526139,-0.7077534542670377,0.6773188720293523,1.4199017285787412,-1.879177094229641,-0.7111525042541098,1.9479293840939333,0.1872421576683202,0.0006290477111366897,-0.00015026874564585285,0.0008812405259911611,-8.95373656020019e-05,-0.001165464005880544,0.00018532231030602426,0.0018823198736212686,0.2689092457294464,-23.66513442993164,19.529525756835938,17.87512969970703,0.8833719491958618,2.3604629039764404,-0.12721098959445953,0,0,0,0.000,0,0
1739400953.6635535,-0.7077534542260394,0.6773175834936801,1.4199000548856948,-1.8791753323299012,-0.7111564954241919,1.9479293882930575,0.18723555212041113,0.00021314883140024317,0.0008136919927706294,-0.0003183250302721026,-9.716281962632691e-05,-0.0018825436268044252,0.00034633239107012374,-0.00023304657194521189,0.2689092457294464,-23.63736343383789,19.553329467773438,17.84735870361328,0.8769632577896118,2.3604629039764404,-0.07411040365695953,0,0,0,0.000,0,0
1739400953.6746018,-0.7077514572481632,0.6773152087031228,1.41989819879962,-1.8791773764732316,-0.7111550472842726,1.9479300282155894,0.1872332313181997,0.0012498443909000003,0.0002591696706995755,-0.00044595658908587953,0.0009088165306208977,-0.00045499071364461644,0.00011214848975532208,-0.0027521844960169952,0.2411382496356964,-23.61355972290039,19.577133178710938,17.87512969970703,0.8769632577896118,2.3540542125701904,-0.06037749722599983,0,0,0,0.000,0,0
1739400953.686488,-0.7077551667467757,0.677316797595667,1.4199029511762806,-1.8791774915942099,-0.7111536524271563,1.9479285128947683,0.187234581557737,0.0006170441140834242,0.00021280790714814558,0.0016869732908116532,0.0001174864883647489,5.821570516455264e-05,-7.333907252867462e-05,-0.004153977446569733,0.2927129566669464,-23.63736343383789,19.553329467773438,17.87512969970703,0.8897806406021118,2.3668715953826904,-0.06678618490695953,0,0,0,0.000,0,0
1739400953.6974652,-0.7077537662305995,0.6773161528609436,1.4199025282470596,-1.8791788680769632,-0.7111532729788017,1.9479293882928597,0.18723980451096164,6.179330946799609e-05,0.00110655256351882,0.0004720636504836834,-0.0004223398958648742,-0.001013345765400014,0.0001507241078465791,6.979244295138493e-05,0.2689092457294464,-23.63736343383789,19.553329467773438,17.89893341064453,0.8897806406021118,2.3604629039764404,-0.10706938803195953,0,0,0,0.000,0,0
1739400953.7075264,-0.7077534543383205,0.6773129922771166,1.4198961187137356,-1.8791752663488064,-0.7111532729782847,1.9479309036132377,0.18723717640586796,0.0002508137213950115,-4.8378984788895176e-05,-0.0012369542684302218,0.00020338777925617009,0.0005831682635153049,0.0002821697440625139,0.0007973561865104947,0.2689092457294464,-23.61355972290039,19.604904174804688,17.87512969970703,0.8897806406021118,2.3476455211639404,-0.12080229818820953,0,0,0,0.000,0,0
1739400953.7175503,-0.7077555689236165,0.6773185469423911,1.4199050239500401,-1.8791770476868244,-0.7111543631409691,1.9479309036132377,0.18724215515836656,-0.00020634852280616628,0.0014455770670097705,0.0012654916424618286,0.0011521164561505955,8.8883063252033e-05,0.0007050063074946297,0.0017942958625198663,0.2689092457294464,-23.66513442993164,19.529525756835938,17.89893341064453,0.8897806406021118,2.3476455211639404,-0.12721098959445953,0,0,0,0.000,0,0
1739400953.7275753,-0.7077543941990659,0.6773129392908072,1.4199035527554336,-1.8791752259317493,-0.711153531778007,1.947929388293081,0.18723505545524333,-0.00048678329943957976,0.00016433854309011293,-6.433987802630125e-05,-8.333455360158638e-05,0.0001691242869327897,-9.185998799460688e-06,-0.0010233959052480227,0.2689092457294464,-23.61355972290039,19.577133178710938,17.84735870361328,0.8641458749771118,2.3604629039764404,-0.06678618490695953,0,0,0,0.000,0,0
1739400953.7385428,-0.7077549239148011,0.6773147220304955,1.4199032819065815,-1.8791774032910333,-0.7111537377599559,1.9479286306330026,0.18724219764700856,0.00024385685360151622,0.0006621090643673024,0.0006416900679656222,0.0008144909598433632,-0.0016744603045920016,5.236289617839584e-05,0.0008232564385186499,0.2927129566669464,-23.63736343383789,19.553329467773438,17.87512969970703,0.8833719491958618,2.3668715953826904,-0.12721098959445953,0,0,0,0.000,0,0
1739400953.7485483,-0.7077551667426579,0.6773146253007568,1.4198960957765556,-1.8791809686451222,-0.7111525029029786,1.9479301459531593,0.18724142828582596,0.0003008303824368855,-0.0004151214059762604,-0.0008986743908959607,-0.0017716867251093013,-0.00018379015453516036,8.401804070408872e-05,0.0004315302836596467,0.2927129566669464,-23.63736343383789,19.604904174804688,17.92273712158203,0.8833719491958618,2.3540542125701904,-0.12080229818820953,0,0,0,0.000,0,0
1739400953.759571,-0.707753725928227,0.6773161617998288,1.4199022523145748,-1.8791791949802141,-0.7111525068120278,1.9479286306330026,0.1872377402848896,-7.024329120258586e-05,-0.0006856948731498042,0.0010872735693214,-0.0005619413297030479,-0.00040715213367612245,-0.00016529659761307111,-0.0013257755438461883,0.2689092457294464,-23.63736343383789,19.553329467773438,17.89893341064453,0.8833719491958618,2.3668715953826904,-0.08051909506320953,0,0,0,0.000,0,0
1739400953.7704673,-0.7077540433723172,0.6773151380525553,1.4198999852575072,-1.8791808978937143,-0.711155225468419,1.9479278729729244,0.18723429617867932,0.0005778697899427119,0.0005380116040735105,0.0002857964252740181,0.000520901757031742,-0.00019441740696303958,-0.000562031268226028,-0.00036238284169022063,0.3165166676044464,-23.61355972290039,19.553329467773438,17.92273712158203,0.8705545663833618,2.3732802867889404,-0.06037749722599983,0,0,0,0.000,0,0
1739400953.780482,-0.7077536072368539,0.6773196586179182,1.4198984487618775,-1.879182508868762,-0.7111517433556898,1.9479286306330026,0.1872362036584057,0.0001763466362097046,0.0006328509372902548,0.0007658301056925023,0.00023194737968767467,0.0016553698290970122,-0.0008185476602927146,-0.0015821243917858376,0.2689092457294464,-23.63736343383789,19.577133178710938,17.94654083251953,0.8769632577896118,2.3668715953826904,-0.08051909506320953,0,0,0,0.000,0,0
1739400953.7905173,-0.7077543423299603,0.6773168505154137,1.4198981629657672,-1.879180897998474,-0.7111525429354187,1.9479285128954327,0.18724382265890405,-0.001861371675343354,0.000405377916965606,0.0009722226826933123,-0.0011275541655006546,-0.00022343590346917815,-0.0003439217915422429,0.0006125155187254051,0.2411382496356964,-23.63736343383789,19.577133178710938,17.92273712158203,0.8833719491958618,2.3668715953826904,-0.14094389975070953,0,0,0,0.000,0,0
1739400953.801565,-0.7077537921688198,0.6773103054742781,1.4199038070873358,-1.8791770559640564,-0.711155382452509,1.9479286306310089,0.1872414419355959,0.0003783984960411907,-0.0013948832399272614,-3.029685163576882e-05,0.000619303398532826,-0.0005406406868960186,0.0003103703081993368,0.0009999428178150034,0.2689092457294464,-23.58578872680664,19.501754760742188,17.87512969970703,0.8705545663833618,2.3668715953826904,-0.12080229818820953,0,0,0,0.000,0,0
1739400953.8125238,-0.707754468241496,0.6773151644331463,1.4198983072805853,-1.8791791947979,-0.7111525024058091,1.9479286306330026,0.18723824266696312,-0.0009264350954601506,0.0005835271643864645,-0.0003080160680718736,-0.0004245914451431157,0.00015931156207336664,-0.00016665239296817177,0.0007631966676860425,0.2689092457294464,-23.61355972290039,19.604904174804688,17.89893341064453,0.8833719491958618,2.3668715953826904,-0.12080229818820953,0,0,0,0.000,0,0
1739400953.8225749,-0.7077551680479123,0.6773151614950889,1.4198960819691817,-1.8791831545734679,-0.711152843459943,1.9479286306330026,0.18723505540330462,-0.0004364052946550973,-7.20345015552805e-05,-0.0015734821200519863,-0.002802420779762868,0.00021362410383189785,-0.0008546538124079222,-0.0019283833829802756,0.2927129566669464,-23.61355972290039,19.604904174804688,17.94654083251953,0.8769632577896118,2.3668715953826904,-0.06678618490695953,0,0,0,0.000,0,0
1739400953.8334634,-0.7077537692265501,0.6773151557171768,1.4198981618303677,-1.8791770898761413,-0.7111535662534223,1.9479301110679534,0.1872383025720968,1.739010645881756e-05,-0.0004037202217995529,0.00014221487533242657,0.00213368692574658,-0.0007763766617480476,0.0002528998969022161,-0.0007175976649530097,0.2689092457294464,-23.61355972290039,19.577133178710938,17.87512969970703,0.8833719491958618,2.3540542125701904,-0.09425200521945953,0,0,0,0.000,0,0
1739400953.8435452,-0.7077551677115256,0.6773137399229003,1.4198999445450726,-1.8791790858531603,-0.7111532729840695,1.9479286299867835,0.18723505106957147,-0.0006055813909120642,-0.0011311698516739686,0.0001788215095510698,0.00024791587768224424,1.4482698090959945e-05,-0.00031535611016831217,-0.0022641713593456315,0.2927129566669464,-23.61355972290039,19.553329467773438,17.89893341064453,0.8897806406021118,2.3668715953826904,-0.06678618490695953,0,0,0,0.000,0,0
1739400953.8535695,-0.7077536573236626,0.6773128133698573,1.419899169542742,-1.8791750274978503,-0.711153617469693,1.9479293708504672,0.18723108585144665,0.0008275043097420626,-0.001927999852889178,0.000702083419463841,-0.00027646930892988775,0.0009542589648224432,-0.00046082081015369296,-0.0032612127875962533,0.2411382496356964,-23.58578872680664,19.604904174804688,17.87512969970703,0.8897806406021118,2.3604629039764404,-0.06037749722599983,0,0,0,0.000,0,0
1739400953.8645055,-0.7077521584505351,0.6773168737957953,1.41989616462498,-1.8791769692179885,-0.7111513426773044,1.9479318095472924,0.18723592133657713,0.0011135082393294135,0.0014523352611588805,-0.00133362892091096,-7.834216295559332e-05,0.0005420753959603176,0.0003993966985011747,-0.002231159121996065,0.2411382496356964,-23.63736343383789,19.604904174804688,17.89893341064453,0.8641458749771118,2.3668715953826904,-0.07411040365695953,0,0,0,0.000,0,0
1739400953.8755345,-0.7077514566101423,0.6773123030885135,1.4199019744337702,-1.8791721934863923,-0.7111559850728238,1.947928630704783,0.18723505545747618,0.0007179995512370086,-0.0009408211497026985,0.0006188007446965038,4.6250494363688074e-05,-0.002301553940333165,-8.762323562680322e-05,-0.000516401733911215,0.2411382496356964,-23.61355972290039,19.529525756835938,17.84735870361328,0.8769632577896118,2.3668715953826904,-0.06678618490695953,0,0,0,0.000,0,0
1739400953.8864906,-0.7077544170876322,0.6773120647628161,1.419900058467123,-1.8791759854509245,-0.7111572573073417,1.9479315588039992,0.1872414540848535,-0.00018995905144564957,-0.001194420247628523,2.1461686579154603e-05,0.001081138814828435,-0.001022198185326606,0.001609698426614892,0.0010986353576716065,0.2411382496356964,-23.61355972290039,19.553329467773438,17.89893341064453,0.8833719491958618,2.3540542125701904,-0.12080229818820953,0,0,0,0.000,0,0
1739400953.8965147,-0.7077568793176431,0.6773188656902526,1.4198991823699265,-1.8791791060049772,-0.711153320466454,1.9479309041216812,0.18724057555254675,-0.0012527840579466057,-0.0002458183129760393,0.0008026967727599643,-0.00021055653038002008,-0.0002487884200371653,0.0008374295570686844,0.00086670649754982,0.3165166676044464,-23.66513442993164,19.577133178710938,17.89893341064453,0.8769632577896118,2.3476455211639404,-0.11347807943820953,0,0,0,0.000,0,0
1739400953.9084775,-0.7077535722667313,0.6773147223616789,1.4199021742000075,-1.8791788274199028,-0.7111550922232337,1.9479293882930842,0.18723667901478702,-0.0009544423785481425,0.000528629534463555,7.310661455316061e-05,-0.0005844686506560848,-0.00021116269400980013,0.00031175731087204985,-0.0006833485699810857,0.2411382496356964,-23.63736343383789,19.553329467773438,17.92273712158203,0.8961893320083618,2.3604629039764404,-0.08051909506320953,0,0,0,0.000,0,0
1739400953.918493,-0.7077534629047773,0.6773181593051647,1.4198961949939544,-1.879176951885726,-0.7111520978485657,1.9479286306330028,0.187240571540624,0.00038974561410164187,5.3280529389128676e-05,0.0003297916010204809,0.0005580149898388437,0.0009334012142129543,-0.00026828160748353666,0.0003473151577332442,0.2689092457294464,-23.66513442993164,19.604904174804688,17.89893341064453,0.8769632577896118,2.3668715953826904,-0.12080229818820953,0,0,0,0.000,0,0
1739400953.9285765,-0.7077551677098944,0.6773161613643545,1.4198981618322817,-1.879177409140128,-0.7111510043644615,1.9479286306330028,0.18724127030654578,-0.0002632332743838445,-9.591294095631181e-05,-0.0002300698881587548,0.0006548986281257776,0.0010267882482706246,-0.0008150726581689197,-1.153496213994324e-05,0.2927129566669464,-23.63736343383789,19.577133178710938,17.87512969970703,0.8705545663833618,2.3668715953826904,-0.12080229818820953,0,0,0,0.000,0,0
1739400953.9395378,-0.7077552420709609,0.6773188748597353,1.419896906203503,-1.8791802617474314,-0.7111542230033387,1.9479301459531595,0.1872429572547866,0.0003245274475844812,0.000195697982188071,0.0003511452854430018,-0.0009205556100569728,-0.0003512502256195494,0.0007575845574144448,0.0010809446638263215,0.2927129566669464,-23.66513442993164,19.604904174804688,17.92273712158203,0.8705545663833618,2.3540542125701904,-0.13361968100070953,0,0,0,0.000,0,0
1739400953.949556,-0.7077535632802209,0.6773168770682748,1.4199021701005787,-1.8791807387178405,-0.7111517447922632,1.9479278734574412,0.1872414414495734,0.0003823681590052954,-9.329254928664847e-05,0.0024846647321882286,-0.0016012198391838002,0.0012389928774060573,-0.0001338420957359578,0.0003820425516244387,0.2411382496356964,-23.63736343383789,19.553329467773438,17.92273712158203,0.8769632577896118,2.3732802867889404,-0.12080229818820953,0,0,0,0.000,0,0
1739400953.9605024,-0.7077517172995234,0.6773168770682774,1.4198960820907616,-1.8791809774742416,-0.7111532611881567,1.9479286306330055,0.18723429795984864,4.6405790904696567e-05,0.00010724946399026875,-0.00028232779520622256,-0.00039985676504638906,-0.0005600254776274736,0.00013109750492567573,-0.00019697636983868633,0.2411382496356964,-23.63736343383789,19.604904174804688,17.92273712158203,0.8897806406021118,2.3668715953826904,-0.06037749722599983,0,0,0,0.000,0,0
1739400953.972478,-0.7077572989893631,0.6773142107642136,1.4198972081560528,-1.8791752397180312,-0.711157210198559,1.9479301459531595,0.18723733862070757,-0.0002798274158532425,-0.001146146202127882,-0.0011278662079946343,0.0006788334294951354,-0.0007232135139405012,0.00028413525617913853,-0.0011065519848661035,0.2927129566669464,-23.61355972290039,19.577133178710938,17.87512969970703,0.8961893320083618,2.3540542125701904,-0.07411040365695953,0,0,0,0.000,0,0
1739400953.9825394,-0.7077521843078635,0.6773146959380716,1.419898189297085,-1.8791774091658489,-0.7111510001773562,1.9479286306330028,0.18723596056869413,0.0006434699150235414,-1.2400733242767098e-05,-0.0002647779311618487,-0.00033617171556500603,0.0009270019016590519,-0.0001528603968988294,-0.001283245257448977,0.2411382496356964,-23.63736343383789,19.577133178710938,17.87512969970703,0.8705545663833618,2.3668715953826904,-0.07411040365695953,0,0,0,0.000,0,0
1739400953.993591,-0.7077551667590994,0.6773178418250168,1.4199006862545438,-1.8791809760583278,-0.7111517988420546,1.9479286306330028,0.18723698430487126,-0.0011243071136307937,0.0003163597144699064,0.0009742417431166433,-0.0007719637695989972,-0.00011343628099190733,-0.0010763588582133555,-0.0007703887766648536,0.2927129566669464,-23.66513442993164,19.553329467773438,17.92273712158203,0.8769632577896118,2.3668715953826904,-0.07411040365695953,0,0,0,0.000,0,0
1739400954.0045514,-0.7077576605628718,0.6773188396859153,1.4199003872351363,-1.879179114998659,-0.711154923974961,1.9479293882930813,0.1872430097490861,-0.0020829192143472074,0.0010461427900070523,-0.00013791596009031656,-0.0006291166904055951,0.0008317024931723587,-0.0001312090460141039,0.0020026036641220026,0.3165166676044464,-23.66513442993164,19.577133178710938,17.89893341064453,0.8769632577896118,2.3604629039764404,-0.13361968100070953,0,0,0,0.000,0,0
1739400954.0155263,-0.7077551670721732,0.6773205875296623,1.4199017273477081,-1.8791745246071985,-0.7111536530724826,1.9479301459531595,0.18723631504000718,-0.00022150669026688144,0.0010677758241661522,0.0005279164319804291,0.0019108079124009138,-0.0007891980517615235,0.000630788904381794,-0.0007349371887002422,0.2927129566669464,-23.68893814086914,19.529525756835938,17.87512969970703,0.8897806406021118,2.3540542125701904,-0.07411040365695953,0,0,0,0.000,0,0
1739400954.0255373,-0.707759618882672,0.6773188750091305,1.4198999731100295,-1.879179194422621,-0.7111517639632826,1.9479278729729246,0.1872366790214541,-0.0011687597589161813,0.0006738129655793054,-0.0001993177199847501,-0.0012926560293044882,0.0001503935523632648,-0.0012124901390677722,-0.0024742443270348944,0.3165166676044464,-23.66513442993164,19.553329467773438,17.89893341064453,0.8769632577896118,2.3732802867889404,-0.08051909506320953,0,0,0,0.000,0,0
1739400954.036533,-0.7077551783488905,0.6773167985765641,1.4199017285415385,-1.8791791681985943,-0.7111560239897123,1.9479286306330028,0.18724144144956528,-0.001617016863142722,0.00036843043404884894,0.00027704957592855465,-0.0009324803850915839,-0.0008913699792741446,-3.1747204661034965e-05,-0.001018675578305597,0.2927129566669464,-23.63736343383789,19.529525756835938,17.89893341064453,0.8769632577896118,2.3668715953826904,-0.12080229818820953,0,0,0,0.000,0,0
1739400954.047502,-0.7077537392490948,0.6773165560878966,1.4198968512593062,-1.8791774031821673,-0.7111535749641665,1.947930903613238,0.18723981350434962,0.0006394426931391826,-0.0001432954396095181,-1.5607404630225432e-05,0.00016831743170496666,0.0002966423510693235,0.00031594697053673393,0.0006384874538553423,0.2689092457294464,-23.63736343383789,19.604904174804688,17.87512969970703,0.8833719491958618,2.3476455211639404,-0.10706938803195953,0,0,0,0.000,0,0
1739400954.057552,-0.7077551667515972,0.6773165680017205,1.4198981314708543,-1.8791809745319987,-0.7111528218363588,1.9479278729729246,0.1872382937825868,0.00019139855214162356,-0.000396815598976263,-0.00043635741447738406,-0.0011602869438272095,-0.00021352465865621283,-0.00030077984433948715,-0.0004437575130857914,0.2927129566669464,-23.63736343383789,19.553329467773438,17.92273712158203,0.8769632577896118,2.3732802867889404,-0.09425200521945953,0,0,0,0.000,0,0
