IITGN-Robotics/Franka_IITGN_ROBOTICS/franka_ros/franka_iitgn/data/b_13.csv
time,fr3_joint1_pos,fr3_joint2_pos,fr3_joint3_pos,fr3_joint4_pos,fr3_joint5_pos,fr3_joint6_pos,fr3_joint7_pos,fr3_joint1_vel,fr3_joint2_vel,fr3_joint3_vel,fr3_joint4_vel,fr3_joint5_vel,fr3_joint6_vel,fr3_joint7_vel,fr3_joint1_eff,fr3_joint2_eff,fr3_joint3_eff,fr3_joint4_eff,fr3_joint5_eff,fr3_joint6_eff,fr3_joint7_eff,flexpin1,flexpin2,flexpin3,Force,ContactMic,ContactMic_gt
1739400987.1740189,-0.7076940962524262,0.6770338698861402,1.4195942497277065,-1.8792217134916267,-0.7107714967488842,1.9481170661192002,0.18701917603612037,0.00046895094145253934,-0.0020126967031700825,-0.0015430256793773172,0.0004451132086665164,-0.0002953992386209082,-0.0008771241351352617,0.002016332477291077,0.2927129566669464,-23.61355972290039,19.628707885742188,17.82355499267578,0.8641458749771118,2.3540542125701904,-0.10706938803195953,,,,,,,,,
1739400987.1840775,-0.7077002262332597,0.6770416822614994,1.4195919747337695,-1.8792253372034833,-0.7107715569926345,1.948116426196667,0.1870209186770016,-0.0009755877310381489,-0.0004165484115258235,9.749375817396158e-05,0.0005354305240045576,-0.00043832784717934563,0.0005902216834048863,0.0009216809207390172,0.3442876636981964,-23.63736343383789,19.604904174804688,17.87512969970703,0.8705545663833618,2.3604629039764404,-0.12080229818820953,,,,,,,,,
1739400987.1960654,-0.7076975077637897,0.6770452450184745,1.419586496547815,-1.8792306833771872,-0.7107706354416993,1.9481149108771747,0.18702091900304435,-0.0004047456047246643,0.0003683528294377035,-0.000277768209405826,8.275415792132872e-05,-9.810449041072083e-06,9.041758894582069e-05,0.0005649872889376795,0.2927129566669464,-23.63736343383789,19.604904174804688,17.94654083251953,0.8568216562271118,2.3732802867889404,-0.12080229818820953,,,,,,,,,
1739400987.20707,-0.7076982676696283,0.6770452495445921,1.4195850034439026,-1.8792317286251585,-0.7107714882609424,1.9481163084597615,0.1870170329179581,-0.0005424478374865959,-0.0001563121531709112,0.0007271087656295565,-0.0009593342483331514,0.0007430725429056881,0.0002953817589061369,0.0007203527080017097,0.3165166676044464,-23.63736343383789,19.577133178710938,17.94654083251953,0.8641458749771118,2.3604629039764404,-0.08692778646945953,,,,,,,,,
1739400987.218005,-0.7076993011748144,0.6770472594954298,1.4195878138037739,-1.879227437810093,-0.7107715015063453,1.9481178237792538,0.18701976950213473,-0.0016995079626990072,0.0004101261547208171,0.0009896603444748565,-5.604604932149353e-05,0.0007170522861470697,0.0005004062646649519,0.0015152208077993134,0.3165166676044464,-23.66513442993164,19.529525756835938,17.89893341064453,0.8641458749771118,2.3476455211639404,-0.10706938803195953,,,,,,,,,
1739400987.229065,-0.7076897814918109,0.6770449143196601,1.4195867842068752,-1.8792290188029204,-0.7107713070759052,1.9481178237792538,0.18701646533374372,0.001605005628404826,-0.0009858618899957778,0.0008206016999085392,-0.0013118903802400946,-0.0007368701630263913,0.000506655793384885,-0.00037543421332044763,0.2173345386981964,-23.63736343383789,19.553329467773438,17.92273712158203,0.8641458749771118,2.3476455211639404,-0.07411040365695953,,,,,,,,,
1739400987.241002,-0.7076930151602023,0.6770454928118056,1.419589907527208,-1.879228525101788,-0.7107721411035319,1.9481159552463871,0.1870188938575089,0.0008284423829661245,0.0011088730668199344,0.0013875492566616833,-0.0006600702421957793,-0.0015607306664950273,-0.0008823888164965015,-0.0004408224087677993,0.2689092457294464,-23.63736343383789,19.553329467773438,17.87512969970703,0.8705545663833618,2.3604629039764404,-0.10066069662570953,,,,,,,,,
1739400987.252106,-0.7076929241808176,0.6770461948240359,1.4195871534238615,-1.8792307176626302,-0.7107722591658319,1.9481162696957632,0.18702245942127133,0.0009350430548300144,0.0027456337059521795,0.0006290123467529774,-0.000756395414998008,3.66191944735687e-05,-0.0007681206025741015,0.0005742236505019711,0.2411382496356964,-23.63736343383789,19.577133178710938,17.94654083251953,0.8705545663833618,2.3604629039764404,-0.09425200521945953,,,,,,,,,
1739400987.2631023,-0.7076938693662203,0.6770399406859792,1.419588564396924,-1.8792320093354515,-0.7107730210782105,1.9481170661191023,0.18701773407707098,-0.0007418355847462162,-3.286464472252999e-05,0.00034791948192625306,0.00024243891662111385,-0.00016609551349567589,-3.2903752860898765e-05,8.274209603618098e-05,0.2411382496356964,-23.56198501586914,19.529525756835938,17.92273712158203,0.8769632577896118,2.3540542125701904,-0.06678618490695953,,,,,,,,,
1739400987.2741015,-0.7076938781981835,0.6770381232007668,1.419592426847632,-1.8792321172778155,-0.7107713458312624,1.948117064665625,0.18701758057833862,-0.00023453104056907892,-0.0013140294197403004,0.0014151094817250673,0.0005797907261581151,0.0009014546122555715,-0.0005475220900826592,-0.0019155440761646908,0.2411382496356964,-23.53818130493164,19.477951049804688,17.92273712158203,0.8641458749771118,2.3540542125701904,-0.08051909506320953,,,,,,,,,
1739400987.2860773,-0.707695837717008,0.6770415227124755,1.4195914255611743,-1.8792300175348788,-0.7107722591662048,1.9481186896764833,0.18701490679761615,-0.0004873149710735541,-0.0005450480638278018,0.0007935640942594464,0.0007752395865099814,0.00021031666327899797,0.0003095998392761354,-0.0019963764944870843,0.2689092457294464,-23.58578872680664,19.529525756835938,17.89893341064453,0.8705545663833618,2.3403213024139404,-0.06678618490695953,,,,,,,,,
1739400987.298074,-0.7076921655685133,0.6770405377299332,1.4195909634240822,-1.8792254311024819,-0.7107754776537911,1.948116308459097,0.18701851176898193,0.0005896194569394154,-0.0005268364965502832,0.0010686309969270644,0.0013600635030257904,-0.0003510771495648827,-6.865742440135479e-05,-0.0005655448762141215,0.2173345386981964,-23.56198501586914,19.501754760742188,17.84735870361328,0.8705545663833618,2.3604629039764404,-0.08692778646945953,,,,,,,,,
1739400987.3099985,-0.7076975885145621,0.677045258703357,1.4195865432857597,-1.8792272351591521,-0.7107730166691079,1.948116308459097,0.18702409377562823,-0.0008551181189049762,0.000879662289828127,9.36330768384182e-05,0.00048713267187890677,-0.0006821675250210091,0.00017453784906075725,0.0018040839620800057,0.2927129566669464,-23.63736343383789,19.553329467773438,17.89893341064453,0.8769632577896118,2.3604629039764404,-0.10706938803195953,,,,,,,,,
1739400987.321089,-0.7076958761391853,0.67704704422469,1.419582839762658,-1.8792302291300687,-0.710772259002973,1.9481167129064654,0.18702413181015937,0.00011421460341751795,0.0007573880504160071,6.219453069967291e-05,0.00012216273659920303,-0.000397609996026136,-0.0009481472974433424,0.0003677009508809355,0.2689092457294464,-23.66513442993164,19.604904174804688,17.89893341064453,0.8705545663833618,2.3540542125701904,-0.10706938803195953,,,,,,,,,
1739400987.3330631,-0.7076980232145933,0.6770472549830195,1.4195846592107477,-1.8792253651739754,-0.710772259002973,1.9481155507983539,0.1870193313469445,-0.0005958244015416907,-0.0006838876221477077,5.093942939782041e-05,0.0024687967759646095,3.4711203184823594e-05,4.745458387712942e-06,-0.0016024069679673166,0.2689092457294464,-23.66513442993164,19.577133178710938,17.87512969970703,0.8705545663833618,2.3668715953826904,-0.06678618490695953,,,,,,,,,
1739400987.3440661,-0.7076961145698856,0.6770460676384044,1.4195820877678658,-1.8792274627690866,-0.7107762353138692,1.948113129544709,0.18702723265911853,-0.0005826996005936021,0.0009861327420533088,-0.0010756674111382356,-0.0008260895800958085,-0.001027978652726144,-0.0006950563047281543,0.0009431207843491353,0.2689092457294464,-23.63736343383789,19.604904174804688,17.89893341064453,0.8769632577896118,2.3604629039764404,-0.13361968100070953,,,,,,,,,
1739400987.3540704,-0.7076975886612633,0.6770495968243211,1.4195760794946652,-1.8792278707824182,-0.7107757943672075,1.94811868798965,0.18702647499904018,-0.0006959360350459689,0.0011481006235104017,-0.0020668519317875085,0.0001253181303840475,-0.00026351711720473973,0.0007627439052243087,0.00030875724279931906,0.2927129566669464,-23.66513442993164,19.656478881835938,17.89893341064453,0.8641458749771118,2.3403213024139404,-0.12721098959445953,,,,,,,,,
1739400987.3640707,-0.7076958761391862,0.6770479677598289,1.4195797035417481,-1.8792289094597525,-0.7107730217868916,1.9481163084590114,0.18702309623426142,-0.0010151797790578401,0.00011133451241002363,-0.0005285585357677155,4.45586498404668e-05,-0.00030827054672955836,0.0008613051457852035,0.0006639195863961243,0.2689092457294464,-23.66513442993164,19.604904174804688,17.92273712158203,0.8769632577896118,2.3604629039764404,-0.09425200521945953,,,,,,,,,
1739400987.3740778,-0.7076978623997674,0.677045531228552,1.4195818816745454,-1.8792356595476407,-0.7107758502744127,1.948116308459097,0.18702497040562702,-0.0007867774518961089,9.651242703580677e-05,-0.0008905777250078838,-0.0025943305281852687,-0.0013461039862724248,7.907186506863156e-05,0.0005382723160797932,0.2927129566669464,-23.63736343383789,19.604904174804688,17.97431182861328,0.8641458749771118,2.3604629039764404,-0.11347807943820953,,,,,,,,,
1739400987.3850608,-0.707695840822551,0.6770487726098628,1.4195858267036552,-1.8792296987483055,-0.7107730173907985,1.9481155507990184,0.1870217125662767,-0.0005471595198416686,0.0018463251421946356,0.0005751603923828055,0.00022901830518976533,-0.00020707232230485022,-0.00018968370243449252,-0.0016609275000945478,0.2689092457294464,-23.63736343383789,19.553329467773438,17.92273712158203,0.8769632577896118,2.3668715953826904,-0.08692778646945953,,,,,,,,,
1739400987.3959918,-0.7076938781981338,0.6770463671175434,1.4195866636337284,-1.879227367565882,-0.7107706370809104,1.9481159160005306,0.18702257829897942,-0.0008398368242687826,-0.0002290676381002081,-0.0007973259591984494,0.001040419896987076,6.330834674799505e-05,4.733462291636716e-05,-0.0012182469575301755,0.2411382496356964,-23.61355972290039,19.553329467773438,17.89893341064453,0.8568216562271118,2.3604629039764404,-0.09425200521945953,,,,,,,,,
1739400987.4060931,-0.7076938781983332,0.6770466936660275,1.4195885643787576,-1.879225334587244,-0.7107737919837929,1.9481177060350374,0.18701785551829714,-0.0003070975607174244,0.0005154102327328075,0.00044426073624087754,0.0017384556653544496,-7.141404725082042e-05,-0.0002585733869335829,-0.0018692490953199701,0.2411382496356964,-23.61355972290039,19.529525756835938,17.87512969970703,0.8833719491958618,2.3476455211639404,-0.05396880581974983,,,,,,,,,
1739400987.418069,-0.7076917058311517,0.6770483875749068,1.4195885347888968,-1.8792296201766394,-0.7107718012982032,1.9481152424502481,0.18702878595943662,0.0009429324450559309,0.0012633832349699177,0.0006335138627633136,-0.00192359976582036,0.0015044068772269205,0.00045948458302745636,0.0026119262862079077,0.2411382496356964,-23.63736343383789,19.529525756835938,17.89893341064453,0.8705545663833618,2.3604629039764404,-0.13361968100070953,,,,,,,,,
1739400987.428108,-0.7076938791672165,0.6770466965605143,1.419582137967264,-1.8792278444489987,-0.71077484725866,1.9481133650467235,0.18702333764714776,0.0007126529435548062,0.001689313313195951,-0.0010665720399338924,-0.00040864861554361283,-0.0017041810711593453,-0.0009920359543605511,-0.0001945743902044288,0.2411382496356964,-23.61355972290039,19.577133178710938,17.89893341064453,0.8833719491958618,2.3732802867889404,-0.10066069662570953,,,,,,,,,
1739400987.4390712,-0.7076960238201955,0.6770408539252261,1.4195867815422323,-1.879226086145261,-0.710772259499603,1.9481145271192342,0.1870245033194415,-0.000309274841289624,-0.001121830854667048,0.00019737448576969297,0.0006823598287298725,0.0001190539005067875,-0.0005021083278362612,0.00039478296178376183,0.2411382496356964,-23.56198501586914,19.553329467773438,17.87512969970703,0.8705545663833618,2.3476455211639404,-0.10706938803195953,,,,,,,,,
1739400987.4490967,-0.7076975888052699,0.6770459684067911,1.4195878491250173,-1.87923176097272,-0.7107754776537993,1.9481162539758863,0.1870193898592059,-0.0006626473058462411,-0.00029571788513773343,9.186871549347092e-05,-0.0006645887952875947,-0.00021986784888219143,0.0013047718831218258,-0.001275318180738361,0.2927129566669464,-23.61355972290039,19.529525756835938,17.92273712158203,0.8705545663833618,2.3604629039764404,-0.06678618490695953,,,,,,,,,
1739400987.4600635,-0.7076958764662374,0.6770459682165735,1.4195867790752348,-1.8792253700617443,-0.7107742518688936,1.948115498470287,0.1870218256132315,-0.00043778189408563543,-5.737884205092526e-05,0.0002491490020544529,0.0009557252866618481,-0.0010572274579983023,-0.0010136785628243098,-0.002288912602329261,0.2689092457294464,-23.61355972290039,19.553329467773438,17.87512969970703,0.8833719491958618,2.3668715953826904,-0.06037749722599983,,,,,,,,,
1739400987.4710042,-0.7076958800637724,0.6770467049407647,1.4195840188614444,-1.8792271211846716,-0.7107762486147525,1.9481138866663368,0.18701937102470748,-0.0005946080394592957,0.0011240289978162689,0.0005287562187652133,-0.0012971689738293483,-0.00067979377442112,1.4094226822620884e-07,-0.001745300234276451,0.2689092457294464,-23.61355972290039,19.577133178710938,17.89893341064453,0.8769632577896118,2.3540542125701904,-0.06678618490695953,,,,,,,,,
1739400987.481078,-0.7076938654434962,0.677045765361884,1.4195829188932156,-1.8792284339196212,-0.7107769930286809,1.9481170266579686,0.1870233361222447,0.00165291191984271,-0.0005449498355324753,-0.001288217609347733,0.000476571516572715,-0.0003111698559525239,0.0007384211502136655,-0.0023875304473808096,0.2411382496356964,-23.61355972290039,19.604904174804688,17.87512969970703,0.8833719491958618,2.3540542125701904,-0.10066069662570953,,,,,,,,,
1739400987.4921205,-0.7076958761391141,0.6770504156837567,1.4195849694833083,-1.8792313764771058,-0.710771995858858,1.9481170135758028,0.1870218271290472,0.00020208453429177787,0.0010561489067914002,0.0007035038059557283,-0.0006970917215712079,0.000816344405018721,0.000893860026095457,-0.0017956551036049065,0.2689092457294464,-23.66513442993164,19.577133178710938,17.92273712158203,0.8641458749771118,2.3540542125701904,-0.06037749722599983,,,,,,,,,
1739400987.5030107,-0.7076961145577653,0.6770467018035595,1.4195867812675063,-1.8792314005001665,-0.7107730129592897,1.9481118976874965,0.18702254919462866,0.000499817287831272,-0.00031430578299773915,0.0010166885184050185,-0.0005896755697378049,0.0010987374318628678,-0.0007930725637045289,0.0001073133592627767,0.2689092457294464,-23.61355972290039,19.553329467773438,17.94654083251953,0.8769632577896118,2.3604629039764404,-0.08051909506320953,,,,,,,,,
1739400987.5130694,-0.7076958761432238,0.6770477157378904,1.4195860571816106,-1.8792321089520787,-0.71077201791642,1.948112472825701,0.1870238071018393,0.00022853276010691514,0.0005220863329236351,0.00029945461397035795,8.379833380173061e-05,-0.0019369170779245058,-0.0006175198621473392,-0.00014127169535731903,0.2689092457294464,-23.63736343383789,19.553329467773438,17.92273712158203,0.8641458749771118,2.3540542125701904,-0.09425200521945953,,,,,,,,,
1739400987.5230935,-0.7076938781983332,0.6770441092659957,1.4195839271664976,-1.8792300967289857,-0.7107736901772934,1.9481126055428102,0.18702593522947747,0.0004968842026298712,-0.000759545451942794,-0.0012779301063174891,0.00014108297524420782,-0.0006043909385886486,0.00028994998180849113,-0.00024071178653669722,0.2411382496356964,-23.58578872680664,19.577133178710938,17.89893341064453,0.8705545663833618,2.3604629039764404,-0.09425200521945953,,,,,,,,,
1739400987.5340323,-0.7076921660046508,0.6770505237756154,1.419583927608782,-1.8792261304549192,-0.710775256589072,1.9481158963836167,0.1870253391442647,0.0008230989002055533,0.0006391251739078711,-0.00018347070785655116,0.0009068851816118581,-0.0005577359470787175,0.0007630794441086647,-0.0005079879019245209,0.2173345386981964,-23.63736343383789,19.577133178710938,17.87512969970703,0.8833719491958618,2.3604629039764404,-0.08051909506320953,,,,,,,,,
1739400987.5441134,-0.7076939547277591,0.6770488114009232,1.4195866629668772,-1.879233897844346,-0.7107726210711028,1.9481145266358004,0.18701905950361392,0.0005771278758480191,0.00028309488432593194,0.0005024385376422685,-0.001586916569518503,5.628476922197269e-05,0.0004012450334096589,-0.002506088675341213,0.2411382496356964,-23.61355972290039,19.553329467773438,17.94654083251953,0.8705545663833618,2.3476455211639404,-0.05396880581974983,,,,,,,,,
1739400987.555012,-0.7076958761396182,0.6770484052770628,1.4195882863886025,-1.8792320386789132,-0.7107730181368148,1.9481170471505744,0.18701906725228756,0.00029224690896068723,-0.0005754615616147867,0.0013949748374416553,-0.0007436684921900134,-0.0004170019112084616,0.000660798539173193,-0.002644641344981237,0.2689092457294464,-23.63736343383789,19.529525756835938,17.92273712158203,0.8769632577896118,2.3540542125701904,-0.06037749722599983,,,,,,,,,
1739400987.5650759,-0.7076938781983332,0.6770467178529658,1.4195838819753057,-1.8792336347187504,-0.7107730166630762,1.948111675509625,0.18702173799465405,-0.00020833297607138874,5.902345710790012e-05,-0.0010202960861418757,-0.0006636125411676496,0.0011058424264462732,-0.0001666240497262633,-0.001000112886401785,0.2411382496356964,-23.61355972290039,19.553329467773438,17.94654083251953,0.8769632577896118,2.3604629039764404,-0.04756011441349983,,,,,,,,,
1739400987.5750842,-0.7076975886599174,0.6770447076078311,1.4195867819816799,-1.8792303345981327,-0.7107733935867995,1.9481135268447616,0.18702412805613483,-0.000543447541136517,5.025030613064232e-05,0.00019931420588453,-0.0014480945216552256,-1.66074754096244e-05,0.001196323563738059,-0.0014971815077489373,0.2927129566669464,-23.58578872680664,19.553329467773438,17.89893341064453,0.8769632577896118,2.3476455211639404,-0.06678618490695953,,,,,,,,,
1739400987.5860062,-0.7076958761391862,0.6770468133174087,1.4195818956242678,-1.8792288996644912,-0.7107756160520714,1.9481140521809226,0.18702575307807984,0.0007541923350196922,4.882475349822518e-05,-0.001479976207502963,-0.00012315906602754093,-0.0005977783235182341,0.00010510950950488255,-0.00010721888615973412,0.2689092457294464,-23.58578872680664,19.577133178710938,17.92273712158203,0.8705545663833618,2.3403213024139404,-0.08051909506320953,,,,,,,,,
1739400987.5960958,-0.7076985423342338,0.6770447073222907,1.4195849067463995,-1.8792281854014177,-0.7107715072866251,1.9481130612240891,0.1870263922647367,-0.0016164377853446481,-0.00011590948196664295,-0.00015757379919931452,0.0007077348753182431,0.0015037935236550048,0.0010993568964766636,2.6689116362167502e-05,0.2927129566669464,-23.58578872680664,19.577133178710938,17.89893341064453,0.8641458749771118,2.3476455211639404,-0.08692778646945953,,,,,,,,,
1739400987.6079974,-0.7076983039210382,0.677048427698972,1.4195849989898592,-1.8792299867922682,-0.710773539777649,1.9481123021082767,0.18703051551219746,-0.0014373228679579212,-0.0004936298984077392,-0.00020815079413700257,-0.0005345773844119436,-2.66095955605321e-05,-0.00044545564207543165,0.001646593207130464,0.2927129566669464,-23.63736343383789,19.577133178710938,17.89893341064453,0.8769632577896118,2.3540542125701904,-0.12080229818820953,,,,,,,,,
1739400987.6180348,-0.7076961175052422,0.6770447072866811,1.4195859476929455,-1.8792311557542036,-0.7107773214459048,1.9481162488575867,0.1870288919555555,0.00010737339060624504,-0.0007087249525118853,-0.0004339780153526365,-0.0010536978065637387,-0.0015504031312758052,-0.00019633991869573328,0.00027054544299085745,0.2689092457294464,-23.58578872680664,19.553329467773438,17.92273712158203,0.8769632577896118,2.3476455211639404,-0.10706938803195953,,,,,,,,,
1739400987.6290066,-0.707694593455433,0.6770484177482091,1.419588561287255,-1.8792279499390128,-0.710772263660465,1.9481130604862071,0.18702964961563384,0.00029174175511481387,0.0002839058926864044,0.0015238763737163814,0.0001319262114079797,0.0010635423906822266,0.0007992053384222301,0.000338191111370884,0.2411382496356964,-23.63736343383789,19.529525756835938,17.89893341064453,0.8705545663833618,2.3476455211639404,-0.11347807943820953,,,,,,,,,
1739400987.6390777,-0.7076921653626661,0.6770466272263379,1.4195828839155402,-1.8792253385216922,-0.710777112183316,1.9481130612219586,0.18703233943381223,0.0010934943894677742,-0.00042575673513463834,-0.0006056676486170072,0.0011123351058280697,-0.000492016817893789,0.00037216762055536715,0.002636288440489471,0.2173345386981964,-23.61355972290039,19.604904174804688,17.87512969970703,0.8833719491958618,2.3476455211639404,-0.12721098959445953,,,,,,,,,
1739400987.6490963,-0.7076983039156494,0.6770484187098652,1.419585461014045,-1.8792254523206418,-0.7107738927894935,1.9481132056199117,0.18702670088358322,-0.00018359063686758219,0.00030256153954725363,0.0006425442812355829,0.000441613694590008,-4.113557725127069e-05,-0.0012975201487143183,-0.001001546409489171,0.2927129566669464,-23.63736343383789,19.529525756835938,17.87512969970703,0.8833719491958618,2.3732802867889404,-0.08051909506320953,,,,,,,,,
1739400987.6600869,-0.7076958761432238,0.6770495123055491,1.4195849180827904,-1.879229979373797,-0.7107758327779415,1.9481134106302396,0.18702511454684984,0.00025902942746100694,0.000244845561910013,4.4755938374024915e-05,0.0003016526941399922,0.00028527750607730356,-0.000620091364819966,-0.0012083610727644319,0.2689092457294464,-23.61355972290039,19.577133178710938,17.89893341064453,0.8641458749771118,2.3476455211639404,-0.07411040365695953,,,,,,,,,
1739400987.672007,-0.707693953782946,0.6770445260262871,1.4195853497812538,-1.8792303001151507,-0.7107764076930407,1.9481108216752985,0.18702505532425817,-4.644644056975929e-06,-0.0007909003514514239,0.001533422591754236,-0.0003566194201188581,-0.00032103286196309645,-0.0009735266525856203,-0.001450080185087,0.2411382496356964,-23.61355972290039,19.529525756835938,17.89893341064453,0.8769632577896118,2.3668715953826904,-0.04756011441349983,,,,,,,,,
1739400987.6820717,-0.7076921656780286,0.6770484206248385,1.4195842559536866,-1.8792321064505106,-0.7107734265863506,1.9481140069404557,0.18702497502207469,0.001023229006676038,-0.00014186444913679932,-0.0005770579288748474,-0.0003835226321541221,-0.001358431309534854,3.6548184776893076e-05,0.0008678835363772219,0.2173345386981964,-23.63736343383789,19.577133178710938,17.92273712158203,0.8705545663833618,2.3668715953826904,-0.10066069662570953,,,,,,,,,
1739400987.693029,-0.7076941166169123,0.6770474163682039,1.4195836724102122,-1.8792295139281057,-0.7107722766701995,1.9481130560718964,0.18703143111968337,-2.518224547778448e-06,0.00038768734863980366,0.0002695927558894156,0.0003403485750585974,0.000999904129322563,0.0006566126508755358,0.0017597864523914127,0.2411382496356964,-23.61355972290039,19.553329467773438,17.89893341064453,0.8705545663833618,2.3476455211639404,-0.12721098959445953,,,,,,,,,
1739400987.7040324,-0.7076965913962693,0.6770467081204234,1.41957981636194,-1.879232911792245,-0.71077302107831,1.9481107838809906,0.18703203083391454,-0.0007722102377446334,-0.0012121964843312353,-0.0006785825665106272,0.00022458800196472207,0.000533453249099053,-0.00034289785067304686,0.0013321600347224807,0.2689092457294464,-23.61355972290039,19.604904174804688,17.94654083251953,0.8769632577896118,2.3668715953826904,-0.13361968100070953,,,,,,,,,
1739400987.715069,-0.7076958761432238,0.6770484303739244,1.4195817813577012,-1.879227224253902,-0.7107765683615817,1.9481134478662463,0.18702749494631357,-0.0008004251305686742,-0.0002965024976822153,-0.00047724537787192147,0.0006843891501602351,-0.0017690603689177347,-0.00030693708182305936,0.0002059919599618808,0.2689092457294464,-23.63736343383789,19.577133178710938,17.89893341064453,0.8705545663833618,2.3476455211639404,-0.09425200521945953,,,,,,,,,
1739400987.727102,-0.7076904531568707,0.6770505241000547,1.419583900015553,-1.8792302958843023,-0.710774579871651,1.9481124285693308,0.18702813445866004,0.0021013678369170715,-0.0005249270629688726,-0.0010697472188583006,-0.0004328787798256689,-0.0016504703557673377,0.0008625495915014974,6.709492108874143e-05,0.1935308277606964,-23.63736343383789,19.577133178710938,17.89893341064453,0.8769632577896118,2.3540542125701904,-0.10066069662570953,,,,,,,,,
1739400987.7381713,-0.7077007346355625,0.677046715225797,1.4195835720042196,-1.8792296172753706,-0.7107762419181778,1.9481122977483318,0.18702813445799307,-0.0010681959551859708,-0.0006771558175431076,0.00017736809424262056,-0.0008247845645526556,-0.0005335393777324902,-0.0010869682148843562,0.00010413254492177383,0.3165166676044464,-23.61355972290039,19.553329467773438,17.89893341064453,0.8769632577896118,2.3540542125701904,-0.10066069662570953,,,,,,,,,
1739400987.7490692,-0.7076975886680092,0.6770490447624153,1.4195835552698184,-1.8792253342700653,-0.7107784382753332,1.9481118420655659,0.18702428748535124,-0.0005000203263083395,0.0006899434803339963,0.0002779166749958548,0.001135414899423939,-0.0010555831394160956,0.0005207849275436869,-0.0013198531580566855,0.2927129566669464,-23.61355972290039,19.577133178710938,17.87512969970703,0.8833719491958618,2.3668715953826904,-0.06678618490695953,,,,,,,,,
1739400987.7591038,-0.7076915298947244,0.6770447082628087,1.4195817834747149,-1.8792254177987513,-0.7107747732199797,1.9481130554136534,0.1870251138923312,0.0005004612872977381,-0.0008797771312072172,-0.0008256732580854799,0.000969025660434621,0.0018877699922967965,7.051714424456894e-05,-0.0010389535806605665,0.2173345386981964,-23.58578872680664,19.577133178710938,17.87512969970703,0.8641458749771118,2.3476455211639404,-0.07411040365695953,,,,,,,,,
1739400987.7710404,-0.7076938899685011,0.677044796843495,1.4195826528556292,-1.8792284457987565,-0.7107781238181701,1.9481122977475933,0.18702964961630264,0.00041811426900153695,-0.0003072482972916507,-0.00041619055942838983,-0.00035776611581410237,-0.0009340491559688286,-0.000240309463107644,-0.0012638515367867642,0.2411382496356964,-23.58578872680664,19.604904174804688,17.87512969970703,0.8833719491958618,2.3540542125701904,-0.11347807943820953,,,,,,,,,
1739400987.781133,-0.7076921656776684,0.6770447159539238,1.4195835670305104,-1.879230709231591,-0.7107721116595063,1.9481130558921884,0.1870297095207694,0.0009084033727089056,-0.0009237011304992582,-0.0004895086929939116,-0.0007564125328372802,0.0015084906544169847,0.0004196520710228952,0.0005156123535502917,0.2173345386981964,-23.58578872680664,19.553329467773438,17.94654083251953,0.8568216562271118,2.3476455211639404,-0.08692778646945953,,,,,,,,,
1739400987.7920032,-0.7076883072806425,0.6770466763382157,1.4195818111185112,-1.879228548491762,-0.7107727890484035,1.9481115400875177,0.18702738981717046,0.0022635351174493694,-0.00047747251402821317,-0.001248046823073994,0.0006887766543859299,-0.0005302267284093283,-0.000573638157928591,-1.4011212915358926e-05,0.1935308277606964,-23.61355972290039,19.577133178710938,17.87512969970703,0.8705545663833618,2.3604629039764404,-0.09425200521945953,,,,,,,,,
1739400987.802054,-0.707695877520057,0.6770447361754468,1.419583252793141,-1.87923139875336,-0.7107754822414505,1.9481122977475933,0.18703051551308947,-0.00015671542284902617,-0.000683672477349544,-0.001177597377091858,-0.0011426071880219265,0.000286681277742593,-0.000292188093139853,-0.00028228845146479687,0.2689092457294464,-23.58578872680664,19.553329467773438,17.92273712158203,0.8705545663833618,2.3540542125701904,-0.12080229818820953,,,,,,,,,
1739400987.813022,-0.7076938781983565,0.6770463117179163,1.419585345724685,-1.8792339008166246,-0.7107763140841756,1.948111540087515,0.18703051551286626,-0.0009360067028698517,0.0002920951418037858,0.0006822145591585927,-0.0011005299943971224,-0.0007394319779511898,-0.0007838258392181147,0.000104533137492307,0.2411382496356964,-23.63736343383789,19.529525756835938,17.94654083251953,0.8641458749771118,2.3604629039764404,-0.12080229818820953,,,,,,,,,
1739400987.8240178,-0.7076939587976943,0.6770449422609479,1.4195799048098552,-1.8792338214528528,-0.7107727378296494,1.9481122977475933,0.18702889873634562,0.0007023557970354175,-0.001348787463379748,-0.0004613918931478312,-0.001252986490417123,-0.0016185703014050382,-0.0007882156276694357,-0.0004910738057695898,0.2411382496356964,-23.58578872680664,19.604904174804688,17.94654083251953,0.8705545663833618,2.3540542125701904,-0.08051909506320953,,,,,,,,,
1739400987.8340447,-0.7076958761405511,0.6770493537658693,1.4195779208559245,-1.8792321149889726,-0.7107740321826636,1.9481122977475933,0.1870305142660183,0.0004822648653330411,-0.0002820283911374572,-0.0009848863127563437,-0.0005088945727401344,-0.00033489452374859,-1.9051800829475993e-05,0.0008579504370705576,0.2689092457294464,-23.63736343383789,19.628707885742188,17.92273712158203,0.8568216562271118,2.3540542125701904,-0.12080229818820953,,,,,,,,,
1739400987.8441112,-0.7076980219063981,0.677050727709474,1.4195794621675164,-1.8792300932405672,-0.710771560432728,1.94811229823211,0.18702812942000627,-0.0004451159894320528,0.0011735838236083985,-0.0010930663519469982,-0.0005359274845863235,0.0013822101085905149,-0.00026284502767318405,-0.0003475577075536486,0.2689092457294464,-23.66513442993164,19.604904174804688,17.89893341064453,0.8641458749771118,2.3540542125701904,-0.10066069662570953,,,,,,,,,
1739400987.8550904,-0.7076938517558317,0.677051236490758,1.4195835630515743,-1.879228445851425,-0.7107770471613413,1.948112297747596,0.18702651073813892,-0.00017274167263716937,0.0008888399934404571,0.0012772595203584015,0.0003679257499412658,-0.0010462011092751706,-6.410939527700486e-05,0.0004180976151533333,0.2411382496356964,-23.63736343383789,19.553329467773438,17.87512969970703,0.8705545663833618,2.3540542125701904,-0.08692778646945953,,,,,,,,,
1739400987.8660927,-0.7076958761387383,0.6770485077807991,1.4195797123598026,-1.8792290059535457,-0.7107762889279197,1.9481130555691772,0.1870261554803922,0.0005446070526052934,-0.00018717796530169992,-0.00013952225564212801,0.00017410003632785978,0.00025071828200983414,0.00011166521421419176,0.0003011710818902403,0.2689092457294464,-23.63736343383789,19.604904174804688,17.92273712158203,0.8641458749771118,2.3476455211639404,-0.08692778646945953,,,,,,,,,
1739400987.8770812,-0.7076983752281241,0.6770471641978764,1.419577245757735,-1.8792314358197684,-0.7107711717238647,1.9481122977475935,0.1870352296330146,-0.0017813629775588686,-0.0006600477396600502,-0.0008592367703540698,-0.00017330557084415743,7.277714713356493e-05,0.0006013640159960928,0.002125064930676408,0.2689092457294464,-23.58578872680664,19.604904174804688,17.94654083251953,0.8568216562271118,2.3540542125701904,-0.13361968100070953,,,,,,,,,
1739400987.8879905,-0.7076975886740248,0.6770485227265756,1.419581408441533,-1.8792274730933725,-0.7107752563567806,1.9481130554076718,0.18702651075622376,-0.0003910738481451658,0.000573103749486849,0.00010628107048951714,0.0003013805692506543,-0.0003314599459455488,-0.0002754237718677413,-0.0005815388329350611,0.2927129566669464,-23.63736343383789,19.553329467773438,17.89893341064453,0.8641458749771118,2.3476455211639404,-0.08692778646945953,,,,,,,,,
1739400987.8980036,-0.7076958761391864,0.6770481928413498,1.4195835596369275,-1.8792311635568673,-0.7107776812602292,1.9481122977475933,0.18703325215054487,0.0006981310686996818,-0.00032952045951409624,-6.177238089306259e-05,-0.0017208710265331274,-0.0008465965300663051,-0.0003656729823624141,0.0020279423350361894,0.2689092457294464,-23.63736343383789,19.553329467773438,17.92273712158203,0.8769632577896118,2.3540542125701904,-0.14094389975070953,,,,,,,,,
1739400987.9080746,-0.7076958761391862,0.6770495165816328,1.4195852368226294,-1.8792273681447924,-0.7107737093798957,1.9481122977475933,0.18702737582884293,-0.0001672706517675498,7.321194017447785e-05,-0.0006163866432210979,0.0004911822474547395,0.0010423111569763137,-0.00021349435840968507,-0.00042853128677697294,0.2689092457294464,-23.61355972290039,19.529525756835938,17.89893341064453,0.8705545663833618,2.3540542125701904,-0.09425200521945953,,,,,,,,,
1739400987.9200213,-0.7076941166169123,0.6770450568631599,1.4195856646019098,-1.8792293464260938,-0.7107763293000547,1.9481122977475933,0.18703051551286168,0.0005966251765548906,0.00016404066906919995,0.00043172357103743724,0.00017288411769651748,-0.00015869348348524891,0.00012034530527340008,0.0006738466398533675,0.2411382496356964,-23.58578872680664,19.529525756835938,17.89893341064453,0.8641458749771118,2.3540542125701904,-0.12080229818820953,,,,,,,,,
1739400987.9300904,-0.7076978270825341,0.6770504513251328,1.4195875063062497,-1.8792332747091143,-0.7107754629313154,1.9481122977475933,0.18702342500354205,0.00013440965007340856,0.0014229659017640096,0.0013326503763341298,-0.0013013892265256793,-0.00012410318802030525,0.0004000291097267725,-0.0015755591238097982,0.2927129566669464,-23.66513442993164,19.501754760742188,17.97431182861328,0.8568216562271118,2.3540542125701904,-0.06037749722599983,,,,,,,,,
1739400987.9400918,-0.7076968452954574,0.6770429947660949,1.4195853458394116,-1.879230084031642,-0.7107797372956746,1.948111540087515,0.18702737663569882,-0.0001773967294393782,-0.0013972436481398689,0.0008782936750645804,0.0003557010986377947,-0.001213506286905797,-0.00022364304664083108,-0.0011439326064517632,0.2411382496356964,-23.56198501586914,19.529525756835938,17.89893341064453,0.8568216562271118,2.3604629039764404,-0.09425200521945953,,,,,,,,,
1739400987.951003,-0.7076980219231473,0.6770467351867636,1.419582734050218,-1.8792311554277037,-0.7107762835564149,1.9481146789649824,0.1870273283033803,-0.000942072356388917,-9.675863867241e-05,0.00038040929664966106,-0.00018291201036670795,0.0012222437516264675,0.0011546139666266492,0.00026303059857826815,0.2689092457294464,-23.61355972290039,19.577133178710938,17.92273712158203,0.8641458749771118,2.3339126110076904,-0.06678618490695953,,,,,,,,,
1739400987.9610724,-0.7076939587613563,0.6770469771095171,1.4195807020784226,-1.8792300853425343,-0.7107770855051552,1.9481130554076718,0.18703127333545957,3.030673424001863e-05,0.0015016634379125169,-0.0012249377913719668,-0.00047629271199221823,-0.00020847470471145515,0.00027643420092721534,0.000580384196564499,0.2411382496356964,-23.61355972290039,19.553329467773438,17.89893341064453,0.8705545663833618,2.3476455211639404,-0.12721098959445953,,,,,,,,,
1739400987.9728518,-0.7076962028610942,0.6770484178557181,1.4195797007017914,-1.8792299371718528,-0.7107754634218862,1.9481122978014285,0.18702761649017763,-0.0005696531728839672,-0.0008705406372676097,-0.000791188709821747,0.0002599823614926769,8.22056187126561e-05,-0.0005074650373477979,-0.0005465890578431044,0.2689092457294464,-23.63736343383789,19.604904174804688,17.92273712158203,0.8568216562271118,2.3540542125701904,-0.08692778646945953,,,,,,,,,
1739400987.983093,-0.707699539601072,0.6770513394562088,1.419579709416364,-1.8792317738297635,-0.7107743904837749,1.9481115400875153,0.1870321039081149,-0.0007040247989725587,0.00016132259884757346,-0.0005262527338065425,0.0009186056697222716,8.006854353850693e-05,-0.00010368777744656882,0.0009788045303840405,0.3165166676044464,-23.63736343383789,19.604904174804688,17.92273712158203,0.8568216562271118,2.3604629039764404,-0.10706938803195953,,,,,,,,,
1739400987.9940028,-0.7076975896451014,0.6770531802581881,1.4195817803760507,-1.8792300971593754,-0.7107759672579236,1.948111540087515,0.18702591174711575,0.00046807045050152477,0.002131048652434152,0.0006275936712103832,0.00024201774457765574,-0.00014459119950954187,-3.5635934073458914e-05,-0.00029752244821712383,0.2927129566669464,-23.68893814086914,19.577133178710938,17.89893341064453,0.8641458749771118,2.3604629039764404,-0.08051909506320953,,,,,,,,,
1739400988.0040936,-0.7076959556120513,0.6770514301734776,1.419582765380884,-1.8792261683925828,-0.7107764485263671,1.948111540087515,0.18702854237151975,-0.00024032229059574902,0.000696492861280283,0.00026193940306097857,0.0014284508270207981,0.00019486361929075223,0.00015086133058359348,9.451221027241601e-05,0.2689092457294464,-23.66513442993164,19.553329467773438,17.87512969970703,0.8641458749771118,2.3604629039764404,-0.10066069662570953,,,,,,,,,
1739400988.015066,-0.7076942229082226,0.6770497472776678,1.4195794611818173,-1.879232117229861,-0.7107766849853702,1.9481130554076718,0.1870288919578591,0.000549413492062114,0.0014531204995037784,-0.0006445033637361256,-0.0005964770518515532,-0.0007569673978688275,0.00023611267684750073,-0.0004084613998820832,0.2411382496356964,-23.61355972290039,19.604904174804688,17.92273712158203,0.8641458749771118,2.3476455211639404,-0.10706938803195953,,,,,,,,,
1739400988.0259864,-0.7076968298154485,0.6770506406730433,1.41957969662377,-1.8792299417510012,-0.7107763291576048,1.9481139213049041,0.1870320435091924,-0.00028610407250506957,-0.0008995302575744114,-0.0006480844962918216,-0.0010220618245016988,-0.0009892267269601077,0.00038897001606999027,0.0026444996215856708,0.2689092457294464,-23.63736343383789,19.604904174804688,17.92273712158203,0.8641458749771118,2.3403213024139404,-0.13361968100070953,,,,,,,,,
1739400988.0359929,-0.7076921656937525,0.6770488463910687,1.4195816920726565,-1.8792272055808448,-0.7107756564677224,1.948111540087515,0.18702819420082736,0.0008763848922365529,-0.00019734406364753745,-0.0012032561372575825,0.0006472196865264006,0.0019564292792511474,-0.00014984414533327433,-0.0012644112774921135,0.2173345386981964,-23.61355972290039,19.577133178710938,17.89893341064453,0.8705545663833618,2.3604629039764404,-0.07411040365695953,,,,,,,,,
1739400988.046088,-0.7076939577802094,0.677051494924096,1.4195843969598596,-1.8792285224382228,-0.7107778451056256,1.948115477146498,0.1870288920097272,0.00011440863106318395,5.628733737099304e-05,-5.33940309862869e-05,0.0005447218746703148,-0.0015666729667856692,0.000722364629547726,-0.001091451643316222,0.2411382496356964,-23.63736343383789,19.529525756835938,17.87512969970703,0.8769632577896118,2.3540542125701904,-0.10706938803195953,,,,,,,,,
1739400988.0570927,-0.7076938783086971,0.677044116205776,1.4195874519946805,-1.8792310851131147,-0.7107754632583725,1.9481115401413585,0.1870305551665254,0.0006488417458893475,-0.0006007572025502125,0.001668159566521867,-2.1997661423615042e-06,0.0004906722371342726,-0.0008373712150893194,0.001643296915175726,0.2411382496356964,-23.56198501586914,19.501754760742188,17.92273712158203,0.8568216562271118,2.3604629039764404,-0.12080229818820953,,,,,,,,,
1739400988.068111,-0.7076946023207272,0.6770478663289639,1.419581780375951,-1.8792302295816918,-0.7107778446392778,1.9481139213049041,0.18702606167895203,0.00012835257678738509,0.0009180456429005086,-0.0008778009378439172,0.00022339515507056212,-0.00041396246366507783,0.000918077410534337,-0.001446262134367679,0.2411382496356964,-23.58578872680664,19.577133178710938,17.89893341064453,0.8769632577896118,2.3403213024139404,-0.07411040365695953,,,,,,,,,
1739400988.0790384,-0.7076921647005432,0.677047830238992,1.4195835630529203,-1.8792300615162902,-0.7107767717556722,1.9481130554076718,0.18702801137726488,0.0013608907532692866,0.0004334378459993225,-7.404287219453181e-05,7.86167793882857e-05,-0.0003376549736245245,-0.0002841051407412832,-0.0012746378128132394,0.2173345386981964,-23.58578872680664,19.553329467773438,17.89893341064453,0.8769632577896118,2.3476455211639404,-0.07411040365695953,,,,,,,,,
1739400988.0900102,-0.7076938785253765,0.6770496182863128,1.4195818598487608,-1.87923358304484,-0.7107754634158325,1.9481122803049904,0.18702308816597688,0.0005370449101587604,0.0007346540655372215,-0.0001855830657584135,-0.0006455941395207683,0.0006181930916419858,-0.00019147841007530688,-0.003010508016972568,0.2411382496356964,-23.61355972290039,19.577133178710938,17.94654083251953,0.8568216562271118,2.3540542125701904,-0.05396880581974983,,,,,,,,,
1739400988.100111,-0.7077021622036034,0.6770526733098439,1.4195835502993628,-1.8792290187048786,-0.7107763293191214,1.9481065438746237,0.18703395415827434,-0.0012060945840999344,0.0012051422129659632,-0.0003266978207783544,-0.00022465287177279397,-0.00019570827120645568,-0.0018484828476905326,0.0007058103729752015,0.3165166676044464,-23.61355972290039,19.553329467773438,17.92273712158203,0.8641458749771118,2.3668715953826904,-0.11347807943820953,,,,,,,,,
1739400988.1119907,-0.7076939050688246,0.6770477880265227,1.4195845167271648,-1.879224291574868,-0.7107748987531387,1.9481122977236665,0.1870313916706736,0.0010421194081079355,-0.0005878120312861142,-5.985172092744194e-05,0.0016256617300547279,0.0017218801298420315,0.00036378792282563006,0.0005987381012681816,0.2411382496356964,-23.58578872680664,19.553329467773438,17.84735870361328,0.8641458749771118,2.3540542125701904,-0.12721098959445953,,,,,,,,,
1739400988.1220863,-0.7076939164631951,0.67704773085108,1.4195817538539925,-1.879228199681744,-0.710772037776622,1.948113921304904,0.1870305754186707,0.0008620098697340334,-0.0007636206994863397,-0.0002587929180212921,0.0007317427646302623,0.0008308649938451257,0.0008959772461777822,0.0006980951265074683,0.2411382496356964,-23.61355972290039,19.577133178710938,17.87512969970703,0.8641458749771118,2.3403213024139404,-0.09425200521945953,,,,,,,,,
1739400988.1340866,-0.7076938781985491,0.6770520497652496,1.4195817799396864,-1.8792285489438503,-0.710776328695306,1.9481100247673584,0.1870309309105199,0.000735180617616124,0.00024093860196188518,-0.0003059440517626879,-0.0004657621152998468,-0.0005815666968492298,-0.0001008221738097063,0.0015487332196148843,0.2411382496356964,-23.61355972290039,19.577133178710938,17.87512969970703,0.8641458749771118,2.3732802867889404,-0.09425200521945953,,,,,,,,,
1739400988.1450596,-0.7076939576711928,0.6770498641707661,1.4195779296827828,-1.8792318533512669,-0.7107753441399207,1.9481115386339647,0.18702799233158723,0.0014665787305378354,-0.0005792020431482548,-0.0004741553092790556,-0.0017806992077468605,-0.0006149031643254692,-0.0010696633506599561,0.0012828986603278863,0.2411382496356964,-23.61355972290039,19.628707885742188,17.92273712158203,0.8568216562271118,2.3604629039764404,-0.06037749722599983,,,,,,,,,
1739400988.155082,-0.7076975886612632,0.6770535744142412,1.419581780594133,-1.8792300163796674,-0.7107774050321429,1.9481130554076471,0.187028252847155,-0.0005406915327119983,0.00043324405219235244,0.0004390792313950275,9.132642231873135e-05,-0.001432593976605255,0.00034407840060190895,-0.0011395561670395039,0.2927129566669464,-23.66513442993164,19.577133178710938,17.89893341064453,0.8705545663833618,2.3476455211639404,-0.10066069662570953,,,,,,,,,
1739400988.1650865,-0.7076967402024288,0.6770498642736457,1.4195817538849516,-1.8792320387825412,-0.7107762321910125,1.9481088168551541,0.1870317470686712,-0.0004903722237492342,-6.810115185889173e-05,-0.0007459947957844939,-0.0013692697456493402,0.0007273863475783418,-0.0008539748701648377,0.0009364361234944796,0.2411382496356964,-23.61355972290039,19.577133178710938,17.92273712158203,0.8641458749771118,2.3476455211639404,-0.12721098959445953,,,,,,,,,
1739400988.1760747,-0.7076922490912033,0.6770494667690287,1.4195814967584186,-1.8792338743374077,-0.7107754634213407,1.9481122919094656,0.18703286156462637,0.0016771369204999003,0.000538681724031967,0.0005139367459430269,-0.001989524920514871,0.0011755436686449055,-0.00039267913381758575,0.00024677517755678586,0.2173345386981964,-23.63736343383789,19.553329467773438,17.94654083251953,0.8568216562271118,2.3540542125701904,-0.11347807943820953,,,,,,,,,
1739400988.1880288,-0.7076925188907826,0.6770478287647823,1.4195835617330608,-1.8792271478025928,-0.7107754677825397,1.948111540087482,0.18703523158393734,0.0011391245829089737,-0.0014901640356114678,0.0007248561715218289,0.0018008341179914,0.00046548544813484403,1.7123712862720532e-05,0.001733169852142074,0.2173345386981964,-23.58578872680664,19.553329467773438,17.89893341064453,0.8568216562271118,2.3604629039764404,-0.13361968100070953,,,,,,,,,
1739400988.1990526,-0.7076938793254992,0.6770477883315872,1.4195839292319048,-1.8792300175409953,-0.710778200777266,1.948111540087515,0.18702889634948308,0.0007592621178118227,-0.0008907292087745242,0.0006361673892759762,0.00040516718856996266,-0.0011010406288303987,-0.0002269419584176104,-0.0005727812536713375,0.2411382496356964,-23.58578872680664,19.577133178710938,17.89893341064453,0.8769632577896118,2.3604629039764404,-0.10706938803195953,,,,,,,,,
1739400988.209122,-0.707692165677621,0.6770498642723302,1.4195817805213085,-1.8792338976619516,-0.710777086985231,1.9481122977475933,0.18703133307815453,0.00050554267694143,0.0006887975248300519,-0.00021447417933822692,-0.0018512575856343026,-0.0003811886624288162,-0.0003533413921948563,0.0008804101425275504,0.2173345386981964,-23.61355972290039,19.577133178710938,17.94654083251953,0.8705545663833618,2.3540542125701904,-0.10066069662570953,,,,,,,,,
1739400988.220031,-0.7076961145577653,0.6770498912551774,1.4195779972728708,-1.8792321182607883,-0.7107750881333849,1.9481122977475933,0.18702751273267668,-0.0002652425198754187,9.442812256879967e-05,-0.0009544273823321422,-0.0017250954698909563,0.0009791918818204024,8.598992559817714e-05,0.00011663931637035996,0.2689092457294464,-23.61355972290039,19.628707885742188,17.92273712158203,0.8568216562271118,2.3540542125701904,-0.09425200521945953,,,,,,,,,
1739400988.2310462,-0.7076958231586256,0.6770452139109642,1.4195845167276846,-1.8792293553095016,-0.7107781174563462,1.9481114223499452,0.18702663506290418,0.001234124656519109,-0.001503302394133565,0.0013765288544588792,-0.00034386135444214354,0.0012557052787638596,-0.0003151476602382156,-0.00042388121286528646,0.2689092457294464,-23.56198501586914,19.553329467773438,17.89893341064453,0.8641458749771118,2.3604629039764404,-0.08692778646945953,,,,,,,,,
1739400988.2410514,-0.7076938870277537,0.6770497862565936,1.4195835633961196,-1.8792302998098505,-0.7107770737640055,1.9481115400855211,0.18702655458895595,0.0010607031071239482,0.0015066349723186902,-0.0004054205628116673,0.0008274868505572931,0.000208125034458462,7.465821344899345e-05,0.0005076505703754952,0.2411382496356964,-23.61355972290039,19.553329467773438,17.89893341064453,0.8705545663833618,2.3604629039764404,-0.07411040365695953,,,,,,,,,
1739400988.2520576,-0.7076938825590338,0.6770498642732107,1.4195814611762692,-1.8792321169160706,-0.710777086924617,1.948111540087515,0.1870352823334568,9.487673822350466e-05,-0.000390413342349299,-0.0013365467735170678,-0.00132523909940964,0.00029041951456466305,-0.0005388182561459134,0.0009816888909285847,0.2411382496356964,-23.61355972290039,19.577133178710938,17.92273712158203,0.8705545663833618,2.3604629039764404,-0.13361968100070953,,,,,,,,,
1739400988.2629871,-0.7076960337770338,0.6770496293442655,1.4195818745641553,-1.8792264037600448,-0.7107754627677911,1.9481130554076718,0.18703109028385373,0.0004611231143623088,-0.0007034468434867855,0.00036001767307721226,0.00131345776996576,0.0007987634086550669,7.798703239773579e-05,7.326490639833418e-05,0.2411382496356964,-23.61355972290039,19.577133178710938,17.87512969970703,0.8568216562271118,2.3476455211639404,-0.09425200521945953,,,,,,,,,
1739400988.2731519,-0.7076989789967237,0.6770513477630535,1.4195853452954694,-1.879228204563395,-0.7107767717556611,1.9481107693454842,0.18702499613096069,-0.000377197250034973,0.00018610438514400586,0.0010229620634663972,0.001103696599804191,-0.00023673770747970752,-0.000474928286845527,-0.00017666511822176452,0.2689092457294464,-23.61355972290039,19.529525756835938,17.87512969970703,0.8769632577896118,2.3668715953826904,-0.07411040365695953,,,,,,,,,
1739400988.2850258,-0.7076980219239137,0.6770518194938312,1.4195835630529177,-1.8792320003759153,-0.7107778446332217,1.9481130556229387,0.18703138594962845,0.0005159398491988454,0.0008265984734271144,0.000467045597884941,-0.00020192417460833368,-0.00014634200022430445,0.0006160460615947237,0.0004746944903495715,0.2689092457294464,-23.63736343383789,19.553329467773438,17.92273712158203,0.8769632577896118,2.3476455211639404,-0.10066069662570953,,,,,,,,,
1739400988.2950795,-0.7076939580466934,0.6770527783909119,1.4195817803759012,-1.8792272347243821,-0.7107770868156753,1.9481124169387147,0.18703327603252817,0.00016864772219960384,0.0012606236888256408,-0.0004954198065583442,7.28948668172741e-05,-0.0009063879735515419,0.00040680478512466144,0.0006506677771744529,0.2411382496356964,-23.61355972290039,19.577133178710938,17.89893341064453,0.8705545663833618,2.3540542125701904,-0.10706938803195953,,,,,,,,,
1739400988.3061311,-0.7076976681341293,0.677051498842593,1.4195817793947547,-1.8792300852299217,-0.7107778446392754,1.9481122977496117,0.18703174714090826,0.0006345516177765744,-0.0006658347935591505,-0.0006470424514426356,0.0005633272150619214,-0.0001439033520740836,3.444901838519962e-06,0.0008662852500357761,0.2927129566669464,-23.63736343383789,19.577133178710938,17.89893341064453,0.8769632577896118,2.3540542125701904,-0.12721098959445953,,,,,,,,,
1739400988.3170822,-0.7076958761393356,0.6770500518006273,1.4195796344996712,-1.8792296531844732,-0.7107770868338448,1.9481115402669658,0.187027332905282,0.0006898293729233008,0.0008256426070283212,-0.001130035717112351,-0.0005002643946426091,0.00021163505364294843,-3.54731417651896e-05,0.0007933742707192195,0.2689092457294464,-23.58578872680664,19.577133178710938,17.92273712158203,0.8705545663833618,2.3604629039764404,-0.08051909506320953,,,,,,,,,
1739400988.327994,-0.707695982102999,0.6770535747475723,1.4195828477487307,-1.8792284469290403,-0.7107801466297893,1.9481104789958363,0.1870249954269279,-0.00043735478428325925,0.002374178788068287,0.0002777671448902255,0.0007844108488117144,0.00019119810552513508,-0.0006631201163896712,-0.00219853918734109,0.2689092457294464,-23.66513442993164,19.553329467773438,17.87512969970703,0.8705545663833618,2.3604629039764404,-0.07411040365695953,,,,,,,,,
1739400988.338032,-0.707696977641656,0.6770508747841216,1.4195817852695196,-1.8792302266747407,-0.7107746260402757,1.9481115400695455,0.18703134689185466,-0.0008285988833883226,0.0002824913482800188,0.00029157040834301413,0.0008754055042700936,0.00018244532207031317,-0.00021551383065622655,-0.0010645339257891841,0.2411382496356964,-23.63736343383789,19.577133178710938,17.89893341064453,0.8769632577896118,2.3604629039764404,-0.10066069662570953,,,,,,,,,
1739400988.3490934,-0.7076921657300913,0.6770498613728313,1.4195817671850155,-1.8792318705740003,-0.7107774028023178,1.9481122846656407,0.18703494296322024,0.0018183387304380955,-0.00018667710918091399,-0.0005003290476912811,-0.0007511378104720209,-0.00103914220150106,0.0001289952849755685,0.0016742754829514766,0.2173345386981964,-23.61355972290039,19.577133178710938,17.92273712158203,0.8641458749771118,2.3540542125701904,-0.12080229818820953,,,,,,,,,
1739400988.3601277,-0.7076958880219595,0.6770498643846807,1.4195807019209299,-1.8792302548022666,-0.7107770871447441,1.9481139213048795,0.1870351540241213,-0.0006370951626820818,-9.226832727347932e-05,-4.165458289956484e-05,-0.00019755159449687352,0.00026497349563200923,8.864315098660442e-05,0.001988497022042501,0.2689092457294464,-23.61355972290039,19.553329467773438,17.89893341064453,0.8705545663833618,2.3403213024139404,-0.12080229818820953,,,,,,,,,
1739400988.3710754,-0.7076997648427352,0.6770478663327986,1.4195817715294323,-1.879228075021989,-0.7107738742152614,1.9481121800100234,0.18703208405578176,-0.0007613303602428945,-0.00023155114082036598,-0.0017926623099350158,0.0002623187717056574,0.00019775311738729975,0.0001445179796555178,0.0004070143872346912,0.2927129566669464,-23.58578872680664,19.577133178710938,17.89893341064453,0.8705545663833618,2.3540542125701904,-0.13361968100070953,,,,,,,,,
1739400988.3820212,-0.7076941961383953,0.677046155074502,1.4195835659963094,-1.879228934973007,-0.710778917504748,1.9481107824267718,0.1870316256530824,0.0003096832262823523,-0.0009927094389637183,0.0006802094261010166,1.29200509642436e-05,-0.000861982239491131,-0.0007665794907365419,0.0007048062206557158,0.2411382496356964,-23.56198501586914,19.553329467773438,17.92273712158203,0.8769632577896118,2.3668715953826904,-0.12080229818820953,,,,,,,,,
1739400988.393076,-0.7076998438085801,0.677049630270238,1.4195816744484435,-1.8792321143182513,-0.710775476673422,1.948111540087515,0.18702965027196058,-0.001137712165641416,0.00010938171799462873,-0.0008709823040063897,-0.0007470313515349678,-7.183146320532561e-05,-0.0007664730061176417,0.0005312369223131521,0.2927129566669464,-23.61355972290039,19.577133178710938,17.92273712158203,0.8568216562271118,2.3604629039764404,-0.11347807943820953,,,,,,,,,
1739400988.4039793,-0.7076959557701312,0.6770498633093531,1.4195789840215152,-1.8792289360759082,-0.710777844639353,1.948111540087515,0.18703127902348804,9.189231556571868e-05,1.0974531950411658e-05,-0.0016761822192731522,0.001157092632340564,-0.0009283587537550942,-0.0004744204216401707,0.00010897734400534841,0.2689092457294464,-23.61355972290039,19.604904174804688,17.92273712158203,0.8769632577896118,2.3604629039764404,-0.12721098959445953,,,,,,,,,
1739400988.4140573,-0.7076926890502254,0.6770498642736347,1.4195835659842244,-1.8792273566603617,-0.7107763293191215,1.9481122977475933,0.18702587593952172,0.0015832014295782545,-1.0538528962707931e-05,0.00027418955622261613,-0.0007253851309977087,0.0005363180838257646,-1.9793874483805442e-06,-0.0033599026727606706,0.2411382496356964,-23.61355972290039,19.553329467773438,17.89893341064453,0.8641458749771118,2.3540542125701904,-0.08051909506320953,,,,,,,,,
1739400988.4250903,-0.707699301137597,0.677047866332798,1.419581462484479,-1.8792285132807083,-0.7107762101098319,1.9481130554076718,0.1870325061900704,0.00019582642859421206,0.0010690998796923405,-0.0007291996530328911,-0.0004022655684331975,-5.096097150013475e-05,0.00032541797320554625,0.0007825604787228217,0.3165166676044464,-23.58578872680664,19.577133178710938,17.87512969970703,0.8641458749771118,2.3476455211639404,-0.13361968100070953,,,,,,,,,
1739400988.436095,-0.7076980346613012,0.6770515766873847,1.419583483578266,-1.879232091733291,-0.7107803056293447,1.9481091188332051,0.1870303196524505,-0.0002907483427304766,0.0007153580928843809,0.0010606446208213255,-0.0019377430993904213,-0.0009287902615904804,-0.00023784616419323006,0.0006545788364844658,0.2689092457294464,-23.63736343383789,19.553329467773438,17.92273712158203,0.8705545663833618,2.3540542125701904,-0.10706938803195953,,,,,,,,,
1739400988.4470553,-0.7076958761877098,0.6770518745723189,1.419579700585597,-1.8792296457716884,-0.710777086942861,1.9481122977296481,0.18703287037835303,0.00030141155276173007,0.0007482761508822867,-0.0006843010695345591,0.0006443795590922586,-0.00017763196963186995,-6.1336326197946e-05,0.001766246150098353,0.2689092457294464,-23.63736343383789,19.604904174804688,17.92273712158203,0.8705545663833618,2.3540542125701904,-0.12721098959445953,,,,,,,,,
1739400988.4580572,-0.707694197397968,0.677049864278694,1.4195779179090267,-1.8792275184095255,-0.7107763291555964,1.9481107824274362,0.18703168119706148,0.0008255789194768653,-0.00013616023770889578,-0.001301776965969147,0.0010722524990300875,-0.0008614670574405933,-6.342038524082027e-05,-0.0010203344072716393,0.2411382496356964,-23.61355972290039,19.628707885742188,17.87512969970703,0.8641458749771118,2.3668715953826904,-0.09425200521945953,,,,,,,,,
1739400988.4689884,-0.707694628775942,0.6770537652959713,1.4195795857919151,-1.8792290188173317,-0.710775466365328,1.9481130554076718,0.1870338332645437,-0.0003623804862868089,0.0007790929352796056,-0.00011813253722893214,0.000690046537042147,0.0006852668464859559,0.0006020411576214817,0.001037557953260864,0.2411382496356964,-23.63736343383789,19.604904174804688,17.92273712158203,0.8568216562271118,2.3476455211639404,-0.12080229818820953,,,,,,,,,
1739400988.4790695,-0.7076960239782562,0.6770471328014088,1.4195794621655224,-1.8792330697453057,-0.7107770913944085,1.9481121800100234,0.18703332299820216,-0.0003732607850649547,-0.0011960420013363711,-0.0006721322158316069,-0.0008334887135881972,-0.000818778321572121,0.00036659532845289384,0.001515887818265926,0.2411382496356964,-23.58578872680664,19.604904174804688,17.94654083251953,0.8705545663833618,2.3540542125701904,-0.11347807943820953,,,,,,,,,
1739400988.4900203,-0.7076961156963797,0.6770498642695102,1.419582484596628,-1.8792292186414064,-0.7107776856935837,1.9481115400868503,0.18702938047245304,-0.0012793627649139313,-0.000687608410810814,0.00013244760825317824,0.0006742400674989743,0.0006282242935429693,0.0002547327545761111,0.001025316123797799,0.2689092457294464,-23.61355972290039,19.529525756835938,17.92273712158203,0.8769632577896118,2.3604629039764404,-0.07411040365695953,,,,,,,,,
1739400988.5000799,-0.707693957784266,0.677051577793698,1.4195768395146429,-1.879228551876517,-0.7107763118193186,1.9481122977475933,0.18703214986825892,0.001098193134756193,-0.0003942302314965439,-0.0018682716010802935,0.0001763450790461607,0.0007697250934926126,0.00031376615050895566,-0.0012163263476902984,0.2411382496356964,-23.63736343383789,19.604904174804688,17.87512969970703,0.8641458749771118,2.3540542125701904,-0.13361968100070953,,,,,,,,,
1739400988.5110638,-0.7076948408124328,0.6770478663328036,1.4195766011283666,-1.8792264070305347,-0.7107731106682048,1.948111540087515,0.18702966911810495,0.0002595100700634229,-0.00034937580751587494,-0.0006406581571868256,0.0017219883850706792,0.0016240327058377403,-0.0013692251210356825,-0.0010507720119499978,0.2411382496356964,-23.58578872680664,19.604904174804688,17.87512969970703,0.8641458749771118,2.3604629039764404,-0.11347807943820953,,,,,,,,,
1739400988.5220196,-0.7077000523603408,0.6770515681275888,1.4195835617272285,-1.8792289422777444,-0.7107795478427537,1.9481122976937582,0.1870297226845939,-0.0012643443795660604,0.00028164915745136605,0.0012132680908776452,0.0005184826327350895,-0.0007182381470398517,0.0001074890266197196,-0.0009354215039703731,0.2927129566669464,-23.63736343383789,19.553329467773438,17.92273712158203,0.8641458749771118,2.3540542125701904,-0.08692778646945953,,,,,,,,,
1739400988.5329816,-0.7076980526907087,0.6770515507938554,1.4195818055586367,-1.8792278345447901,-0.7107770889959986,1.9481146789649815,0.18703633558454635,-0.0009002590441791226,-4.998634189543841e-05,-0.0002407759902748904,0.0010746531439537177,2.3682147005243503e-05,0.0007637366513457223,0.003094182164685091,0.2689092457294464,-23.63736343383789,19.577133178710938,17.87512969970703,0.8705545663833618,2.3339126110076904,-0.13361968100070953,,,,,,,,,
1739400988.5430279,-0.707697598520007,0.6770534787644336,1.4195835630167237,-1.8792295099995313,-0.7107763293191328,1.948111535080842,0.18703523402783112,-0.00020615548242219396,0.0003231142731495943,-0.0005551977940729154,0.00033407801343445485,-1.0429734483696985e-05,-0.0006750899178902996,0.0018964576236566593,0.2927129566669464,-23.66513442993164,19.553329467773438,17.89893341064453,0.8641458749771118,2.3604629039764404,-0.13361968100070953,,,,,,,,,
1739400988.5530503,-0.7076975916035236,0.6770478663311726,1.4195796346086886,-1.8792277306920906,-0.7107763293191215,1.948113055407587,0.1870331752549517,-0.0004492721639980408,-0.0008410746994399388,-0.0009851163520359465,0.000555914043341326,-0.00021440595677094893,0.0004337894175693974,0.0006349287979348598,0.2927129566669464,-23.58578872680664,19.577133178710938,17.87512969970703,0.8641458749771118,2.3476455211639404,-0.10706938803195953,,,,,,,,,
1739400988.563064,-0.7076941283907191,0.6770497602721309,1.4195835630165814,-1.8792261598767357,-0.7107772459249192,1.9481122977475933,0.18702739052171127,-0.0008689749890654693,-0.0005566866698217932,0.0007589432499907163,0.0018710637278145145,-0.0013379781998522668,3.645668788511118e-05,1.7673688496308907e-05,0.2411382496356964,-23.61355972290039,19.553329467773438,17.87512969970703,0.8705545663833618,2.3540542125701904,-0.09425200521945953,,,,,,,,,
1739400988.5730824,-0.7076962628244262,0.6770520497755316,1.4195835512791626,-1.8792300873132182,-0.7107772459276109,1.9481130554076718,0.18703057753093186,0.00028852599710406975,0.00097893660621136,0.0003294864590282724,5.9731405791989625e-05,-0.0008806207172241775,0.0005979817453227233,-0.0005927752364045442,0.2411382496356964,-23.61355972290039,19.553329467773438,17.89893341064453,0.8705545663833618,2.3476455211639404,-0.09425200521945953,,,,,,,,,
1739400988.5840046,-0.7076958775967815,0.6770498643106627,1.419581855183376,-1.8792279474692064,-0.7107778446419699,1.9481107809738862,0.18703245206319488,0.0005062981139714799,0.0004894178469446784,-0.0007306314289187521,0.0011427696805701658,0.0017626282599552785,-0.0008915497730852449,-0.0006799035691635823,0.2689092457294464,-23.61355972290039,19.604904174804688,17.89893341064453,0.8769632577896118,2.3668715953826904,-0.10706938803195953,,,,,,,,,
1739400988.5940177,-0.7076980222334551,0.6770538175689734,1.4195788846979414,-1.879232946268882,-0.7107752549637959,1.9481130510470128,0.18702754778378314,-0.000964270101071572,0.001444128102502081,-0.001225626340894835,-0.0008477179740593642,0.0022176834375429917,0.0004499183211010096,3.883526828606481e-05,0.2689092457294464,-23.66513442993164,19.577133178710938,17.94654083251953,0.8641458749771118,2.3476455211639404,-0.09425200521945953,,,,,,,,,
1739400988.6050527,-0.7076939578165534,0.6770523052997085,1.4195835619137191,-1.8792321153012,-0.7107786022811622,1.9481115400874411,0.18702793388485664,0.0008980489076783487,0.0005204047066871951,0.0004080827156484685,-0.0006793904337134989,-0.0005215473919176674,0.00010813845825140652,-0.0016010352426469657,0.2411382496356964,-23.63736343383789,19.553329467773438,17.92273712158203,0.8833719491958618,2.3604629039764404,-0.08692778646945953,,,,,,,,,
1739400988.6150863,-0.7076969787304735,0.6770498636478917,1.4195850160647372,-1.8792321181517737,-0.7107747062523838,1.9481119445348836,0.18703791960435298,-0.00019896647373389623,3.3466387596831544e-05,0.00045356213694942784,8.594875302503227e-05,0.0009091572062480197,0.00015046712451189786,0.0019197601262112528,0.2411382496356964,-23.61355972290039,19.529525756835938,17.92273712158203,0.8504129648208618,2.3540542125701904,-0.14735259115695953,,,,,,,,,
1739400988.6251097,-0.707699093697841,0.6770498642736404,1.4195817803703181,-1.8792285253256509,-0.7107767266834283,1.9481130554016899,0.18703215084131936,-0.0025331472335515205,0.00018538034092523682,0.00025371206087439213,0.00035954436612386267,1.660134247841532e-05,0.0011067319167435488,0.0001183765513766671,0.2689092457294464,-23.61355972290039,19.577133178710938,17.87512969970703,0.8641458749771118,2.3476455211639404,-0.13361968100070953,,,,,,,,,
1739400988.6360385,-0.7076939050344984,0.677046930319117,1.4195835631619365,-1.879231160661749,-0.7107770869814429,1.9481146789649824,0.18703678943520408,0.000686084736864469,-0.001279356898134694,0.00031089132620765614,-0.0008221816709210079,0.0005553587812062995,0.0011457890337074389,0.003124883791506712,0.2411382496356964,-23.58578872680664,19.553329467773438,17.92273712158203,0.8705545663833618,2.3339126110076904,-0.13361968100070953,,,,,,,,,
1739400988.6470475,-0.7076993024889953,0.677051568122305,1.4195775548188343,-1.8792303089784124,-0.7107760140955939,1.9481107804893696,0.18703571675409336,-0.00044269814406350933,0.00012858485956065638,-0.0003155293627449849,-0.0003309556503024363,0.0020042778805790355,-0.0004740416752900488,0.0016539966443982305,0.3165166676044464,-23.63736343383789,19.604904174804688,17.89893341064453,0.8705545663833618,2.3668715953826904,-0.13361968100070953,,,,,,,,,
1739400988.6570897,-0.707696619194094,0.6770515767942353,1.4195832186341895,-1.8792296173841605,-0.7107803056118482,1.9481122977475605,0.18703651167655802,-0.00027081627203820864,-0.00027532888182368897,-0.00035866746673587793,0.00023996951320822907,0.0004949562594058306,0.0002882204233602308,0.0010431212902472448,0.2689092457294464,-23.63736343383789,19.553329467773438,17.89893341064453,0.8705545663833618,2.3540542125701904,-0.16749419271945953,,,,,,,,,
1739400988.6680717,-0.7076967421689162,0.6770515768313939,1.4195813035367988,-1.8792296075690926,-0.7107754634400583,1.9481111868748053,0.18703226690709807,-0.0006316411532712189,4.1979959365369304e-05,5.43772842439419e-05,-0.000794148728830265,0.00026515938253375874,-0.00030801875106887286,0.00025409288879197625,0.2411382496356964,-23.63736343383789,19.577133178710938,17.89893341064453,0.8568216562271118,2.3604629039764404,-0.10706938803195953,,,,,,,,,
1739400988.6789932,-0.7076983835500366,0.6770515797923298,1.4195814143395773,-1.879230255961463,-0.7107768105714386,1.9481122977455994,0.18703642070705967,-0.0013070650348754658,0.0006623078707436134,0.00036624456174621747,0.000452229069748332,-0.001164427272977921,-0.0001983751300511724,0.0014879353278768111,0.2927129566669464,-23.63736343383789,19.553329467773438,17.89893341064453,0.8641458749771118,2.3540542125701904,-0.13361968100070953,,,,,,,,,
1739400988.6890209,-0.7076965943518242,0.677053574735286,1.4195828443812901,-1.8792303316578536,-0.7107774022108775,1.948111540087515,0.18703042692110844,-0.0010094157696559445,0.0013150274006072076,-0.00012413688756917333,0.00045900927905002893,-0.00018145082353671893,-0.0003937199181282474,-0.00026759373862378236,0.2689092457294464,-23.66513442993164,19.553329467773438,17.89893341064453,0.8641458749771118,2.3604629039764404,-0.08051909506320953,,,,,,,,,
1739400988.6990464,-0.7076962623962871,0.6770515767943822,1.4195860596653107,-1.8792295045527065,-0.7107778446574476,1.9481130554076718,0.1870307818738437,0.00036316804680122195,0.0002556555359385551,0.0010899665921467452,0.000158276291394948,0.0007340866200511878,0.0008245072991778567,0.0002108897651412297,0.2411382496356964,-23.63736343383789,19.529525756835938,17.89893341064453,0.8769632577896118,2.3476455211639404,-0.08692778646945953,,,,,,,,,
1739400988.710013,-0.7076941962485859,0.677047866332798,1.4195817813610776,-1.8792303355790965,-0.7107762101098319,1.9481114223499452,0.18703479964887335,3.169179641515006e-05,7.309428073119632e-05,5.396778185140608e-06,-0.0004984689688405578,0.0005233603373695261,-0.00014158870307159232,0.0009653039751564781,0.2411382496356964,-23.58578872680664,19.577133178710938,17.89893341064453,0.8641458749771118,2.3604629039764404,-0.12080229818820953,,,,,,,,,
1739400988.7200747,-0.7076978627429749,0.677047866332798,1.4195833246343912,-1.8792277199134613,-0.7107770869731433,1.9481122977416114,0.18703275692707355,-0.0009297088079195656,-0.0010228699312206768,0.0005228448906092558,0.0016985996556689107,0.00035152954534511916,0.00027950744437982544,0.0006487178968567017,0.2927129566669464,-23.58578872680664,19.553329467773438,17.87512969970703,0.8705545663833618,2.3540542125701904,-0.10066069662570953,,,,,,,,,
1739400988.7310693,-0.7076968302500833,0.677047866332798,1.4195835666136698,-1.8792303355822202,-0.7107785625629266,1.9481122977475933,0.18702655626911993,0.0009766214505275027,-6.98091643606677e-05,0.0007196706419266582,-0.0006181686639363398,0.0002212175667121735,0.0002774377662117528,-0.001289617671613559,0.2689092457294464,-23.58578872680664,19.553329467773438,17.89893341064453,0.8833719491958618,2.3540542125701904,-0.08692778646945953,,,,,,,,,
1739400988.7420466,-0.7076958775617835,0.677047758242869,1.419581091611137,-1.8792296503505215,-0.7107778446390538,1.948113016161815,0.1870339675309058,-2.9181876951462162e-05,-0.0009071788603684942,-0.00018903456722207265,-3.544725483859768e-05,-0.0008277486031120604,-0.0005510094011671458,0.00014044008365140102,0.2689092457294464,-23.61355972290039,19.577133178710938,17.92273712158203,0.8769632577896118,2.3476455211639404,-0.11347807943820953,,,,,,,,,
1739400988.7539806,-0.7076958765752592,0.6770499721878682,1.419583563049032,-1.87922973068158,-0.7107763160736448,1.9481122977473717,0.18703244764545737,-0.0005283641441764875,0.00017101037536596686,0.0002565846769295986,-0.00015439476888448643,1.3158730482295189e-05,0.0001425058713321322,-0.0011976360522199551,0.2689092457294464,-23.61355972290039,19.553329467773438,17.92273712158203,0.8641458749771118,2.3540542125701904,-0.10706938803195953,,,,,,,,,
1739400988.764975,-0.7077006884284953,0.6770515766875878,1.4195817800488524,-1.8792318003648751,-0.7107775267478144,1.9481115394414927,0.18703677001164704,-0.0018240422313746552,0.0004951102544226641,0.000546256950974853,-0.0006589420597242767,-0.0006432709312063333,1.8964042916472544e-05,0.0004596497896881751,0.2927129566669464,-23.63736343383789,19.577133178710938,17.92273712158203,0.8769632577896118,2.3604629039764404,-0.13361968100070953,,,,,,,,,
1739400988.775078,-0.7077004615091184,0.677051576584423,1.4195797005860402,-1.8792284734285254,-0.7107763307854575,1.9481122977475822,0.1870327948181836,-0.0010606006659347133,-0.00022736389528294133,-0.0007703729138375022,-0.0003244774224086791,-0.0003312270000900056,-0.0006741063775021028,0.0003709359307176986,0.2927129566669464,-23.63736343383789,19.604904174804688,17.87512969970703,0.8641458749771118,2.3540542125701904,-0.10066069662570953,,,,,,,,,
1739400988.7860222,-0.7076981013954751,0.6770508356086018,1.4195776251343268,-1.879228460642218,-0.7107763028281765,1.948111540087515,0.18703669130177975,0.00044926936797330815,-0.0007255810855983996,-0.0008948205585276306,0.0006105113877901385,-8.140162314166261e-05,-0.0003830417802048442,0.0010938538559144193,0.2689092457294464,-23.61355972290039,19.604904174804688,17.87512969970703,0.8641458749771118,2.3604629039764404,-0.13361968100070953,,,,,,,,,
1739400988.7960348,-0.7077002853081887,0.6770489552579462,1.4195797005508979,-1.8792285352445706,-0.7107770869787512,1.9481115270055627,0.18703288663782158,-0.0008613330363863931,-0.001035798498013176,0.0005657125503365852,-7.322779763526495e-05,0.0009005389006433127,-0.0003988579864894484,6.569185318876643e-05,0.3165166676044464,-23.61355972290039,19.604904174804688,17.87512969970703,0.8705545663833618,2.3604629039764404,-0.10066069662570953,,,,,,,,,
1739400988.8060863,-0.7076959647860787,0.6770498682555199,1.4195816744120875,-1.8792294041484907,-0.7107738678378087,1.9481122979088772,0.1870242939039164,0.0004140972925385385,-4.648605425772639e-06,0.0006541620871949002,0.0012883785977362912,0.0008373065620959623,0.0006323674640282025,-0.002746710119283891,0.2689092457294464,-23.61355972290039,19.577133178710938,17.89893341064453,0.8705545663833618,2.3540542125701904,-0.06678618490695953,,,,,,,,,
1739400988.8172956,-0.7076963802312107,0.6770519005727219,1.4195772091276484,-1.87922640709796,-0.7107770869610277,1.9481122977475942,0.18702790535176997,-0.0005140037790023132,0.0008157788243631163,-0.0006630020919867371,0.0015222453665509317,0.0008533446397286089,3.463708499589482e-05,-0.0020914622636203015,0.2411382496356964,-23.63736343383789,19.604904174804688,17.87512969970703,0.8705545663833618,2.3540542125701904,-0.09425200521945953,,,,,,,,,
1739400988.8279924,-0.7076960240079172,0.6770478662312838,1.4195797005438526,-1.879229653148605,-0.7107771002246761,1.9481139213049041,0.18703143898391245,0.0008261334605239724,-0.0008840297763916284,7.16195047697132e-05,-0.0006905022767420448,0.0012237403463816773,0.00038818863546207346,-0.0005115039579483117,0.2411382496356964,-23.58578872680664,19.604904174804688,17.92273712158203,0.8705545663833618,2.3403213024139404,-0.07411040365695953,,,,,,,,,
1739400988.839074,-0.707695992063856,0.6770515739054509,1.4195806637531478,-1.8792272006709947,-0.7107764485284359,1.9481139198513537,0.1870308935897422,-0.00015014350081003826,0.00016134030784778464,-1.716262364322412e-05,0.002204201707057777,0.00014293438399868013,0.0009846912706058981,0.0006400372076534197,0.2689092457294464,-23.63736343383789,19.553329467773438,17.89893341064453,0.8641458749771118,2.3403213024139404,-0.11347807943820953,,,,,,,,,
1739400988.8490791,-0.707698773466516,0.6770539015114511,1.4195834834219443,-1.8792303350946324,-0.7107810632921149,1.948110024282817,0.18702710306392553,-0.0016934248060045815,0.0015653427175550073,0.0016540638358982598,0.0012667685088475855,-0.00027399199516098136,-0.00020993286628555216,-0.0021924197810876227,0.2689092457294464,-23.66513442993164,19.553329467773438,17.89893341064453,0.8769632577896118,2.3732802867889404,-0.06037749722599983,,,,,,,,,
1739400988.8600347,-0.7076959687466923,0.6770487687551842,1.419581858867165,-1.8792300971652056,-0.7107770870518773,1.9481122977475906,0.1870305497833345,0.00016370144926970717,-0.00030335261102810236,-0.00011103359513280634,0.000363476096088167,-0.0004654550108263658,0.0005779755372104089,-0.0004269320714933478,0.2689092457294464,-23.63736343383789,19.577133178710938,17.89893341064453,0.8705545663833618,2.3540542125701904,-0.08051909506320953,,,,,,,,,
1739400988.8701158,-0.7076968451866636,0.6770515767468278,1.419583311880767,-1.87923187983819,-0.7107770869792011,1.948111540087515,0.18703444713945344,-0.0011206409754895858,-0.00024642075399565374,0.00042485178905550904,-1.314461300503956e-05,0.0014002348109081913,0.00025965427167726755,0.0014433477623305257,0.2411382496356964,-23.63736343383789,19.553329467773438,17.92273712158203,0.8705545663833618,2.3604629039764404,-0.11347807943820953,,,,,,,,,
1739400988.88102,-0.7076990858492493,0.6770452177983856,1.4195814175750006,-1.8792321179324118,-0.7107779638485677,1.9481130554076718,0.18703518204962283,-0.00014881673822772496,-0.0011894412460039425,-0.0010997557865765498,-0.0008706895663565872,0.0008949332513140135,9.418491500284696e-05,0.00038148959496382787,0.2689092457294464,-23.56198501586914,19.553329467773438,17.92273712158203,0.8769632577896118,2.3476455211639404,-0.12080229818820953,,,,,,,,,
1739400988.8910637,-0.7076949203392,0.6770535660525905,1.4195834742773439,-1.879227227311936,-0.7107770869812187,1.9481107824274366,0.18703389200338452,-0.00044310708503391495,0.0009421453295748686,0.000339254228751614,0.001700340267139434,0.0005962316840708605,-0.0009453086442673608,0.0005226220179128521,0.2411382496356964,-23.66513442993164,19.553329467773438,17.89893341064453,0.8705545663833618,2.3668715953826904,-0.12080229818820953,,,,,,,,,
1739400988.9019773,-0.7076959027813773,0.677049864273602,1.4195810520013716,-1.8792317974083823,-0.7107763160736448,1.9481122977475933,0.18703207540499903,-0.0009299087036265711,-0.0001475982112986231,-0.0011173048243268498,-0.0009538776093121386,0.0006158350386476647,-0.00015039200979881484,0.0011877071262294011,0.2689092457294464,-23.61355972290039,19.577133178710938,17.92273712158203,0.8641458749771118,2.3540542125701904,-0.12080229818820953,,,,,,,,,
1739400988.9120107,-0.7076945947627168,0.6770500518364397,1.4195810620553733,-1.8792285793922883,-0.7107792723190929,1.948111108383092,0.18703557984667024,0.00022686293482934608,-0.0005108035337117687,6.581427701608054e-06,0.00010464378231114855,-0.0001850636548145328,-0.0010490712491018146,0.002064959063517187,0.2411382496356964,-23.58578872680664,19.577133178710938,17.87512969970703,0.8705545663833618,2.3604629039764404,-0.12721098959445953,,,,,,,,,
1739400988.923051,-0.7076968569628973,0.6770485948463492,1.4195795187930185,-1.8792336615382499,-0.7107770832304748,1.9481130554052346,0.1870355096597266,-0.0004961242538648296,0.00015666902428817717,0.00011192873693858922,-0.0019032850055084108,0.00018507496235344191,0.0003423398785824661,0.00047809709566528193,0.2411382496356964,-23.58578872680664,19.577133178710938,17.94654083251953,0.8705545663833618,2.3476455211639404,-0.11347807943820953,,,,,,,,,
1739400988.9340374,-0.7076993041409031,0.6770477582469815,1.4195813031989275,-1.8792280720776542,-0.7107778990928831,1.9481076035130485,0.1870377458856901,-0.0002524344963824043,-0.000634793437642936,0.0003698211829892689,0.00029659398925992685,-0.00026039626827183897,-0.0013274363251120345,0.0023623221903777613,0.3165166676044464,-23.61355972290039,19.577133178710938,17.89893341064453,0.8769632577896118,2.3668715953826904,-0.14094389975070953,,,,,,,,,
1739400988.9440641,-0.707697828059693,0.6770523051529329,1.4195817800407713,-1.8792263677463512,-0.7107761333058056,1.9481122975322525,0.18703357165689358,0.0005454457093135993,0.0002347358757430421,0.0005006697281557689,0.0012589140523873194,0.0012030588731041258,0.00017445703205752725,0.00017230712257896696,0.2927129566669464,-23.63736343383789,19.577133178710938,17.87512969970703,0.8705545663833618,2.3540542125701904,-0.10706938803195953,0,0,0,0.000,0,0
1739400988.9550135,-0.7076978538978499,0.6770498761625547,1.4195817682750933,-1.8792253621699495,-0.7107763293137379,1.9481107824274353,0.18702983308238863,-0.0009978539872542583,-0.0002462154168526779,-0.00011259833121994108,0.0006191803422951464,-0.0006294138571579566,-0.0005661956332606914,0.0007894877138905851,0.2927129566669464,-23.61355972290039,19.577133178710938,17.87512969970703,0.8641458749771118,2.3668715953826904,-0.07411040365695953,0,0,0,0.000,0,0
1739400988.966128,-0.7076990554911365,0.6770515807917125,1.4195807472286568,-1.8792317419616336,-0.7107763293191215,1.9481107824274366,0.18703369012968288,-2.6702346722072185e-05,0.0015599955536388993,0.0006979380174895172,0.0006859422998620713,0.0003733174641650811,0.00015921726006769727,0.0013214756711070526,0.2689092457294464,-23.63736343383789,19.577133178710938,17.94654083251953,0.8641458749771118,2.3668715953826904,-0.10706938803195953,0,0,0,0.000,0,0
1739400988.9770613,-0.7076963696740798,0.6770461539231244,1.4195789090995905,-1.8792295820511524,-0.7107796771452553,1.9481122977475933,0.1870336901836316,-0.0005310283832032507,-0.0008040118436127619,-0.0005462164704239492,0.0005269655004261644,-0.0005249257917993985,0.00048647407987745294,0.0008479566460990476,0.2411382496356964,-23.56198501586914,19.577133178710938,17.89893341064453,0.8833719491958618,2.3540542125701904,-0.10706938803195953,0,0,0,0.000,0,0
1739400988.9880505,-0.7076949126958979,0.6770519094595461,1.419576517371398,-1.8792278676607412,-0.7107770871609268,1.9481091188332051,0.18702978920401028,0.0003372717324142463,0.0010244136761754631,-0.002171089381605108,0.0013451120903236473,0.0005628051970732394,-0.00017918419174782745,-0.001421356895138605,0.2411382496356964,-23.63736343383789,19.604904174804688,17.89893341064453,0.8705545663833618,2.3540542125701904,-0.07411040365695953,0,0,0,0.000,0,0
1739400988.9980624,-0.707693985185471,0.6770499751995821,1.4195806985961588,-1.8792272361283278,-0.7107770870337089,1.948110625426065,0.18703048988419727,0.0006984569538612979,0.00036945676603074296,0.00018887515107469575,0.0007148194458163316,-0.00011389778895248706,-0.0008508039773810738,0.00040526618211079426,0.2411382496356964,-23.61355972290039,19.553329467773438,17.89893341064453,0.8705545663833618,2.3668715953826904,-0.10706938803195953,0,0,0,0.000,0,0
1739400989.0080879,-0.7077000876416509,0.6770457633018419,1.4195829575710528,-1.8792303350952329,-0.7107778446392791,1.9481115400848563,0.18703121079887736,-0.0016324319492733923,-0.0013524888253725982,0.0015181204867676175,0.0002364995751303063,-0.000752659054489522,-0.000623495747408063,-0.001118341958455256,0.2927129566669464,-23.58578872680664,19.529525756835938,17.89893341064453,0.8769632577896118,2.3604629039764404,-0.06037749722599983,0,0,0,0.000,0,0
1739400989.0180967,-0.7076948348584092,0.6770478677406391,1.4195834560675171,-1.8792330763387628,-0.7107781649320623,1.9481130554076718,0.18702857232588818,0.00016424463168454898,-0.00043495757609827307,0.00017775364769181365,-0.00018582812270721328,-0.0014587446748567817,0.00065379427799814,-0.0021815990892993216,0.2411382496356964,-23.58578872680664,19.553329467773438,17.94654083251953,0.8705545663833618,2.3476455211639404,-0.06678618490695953,0,0,0,0.000,0,0
1739400989.0291412,-0.7076980572330694,0.6770459198086545,1.4195793961895062,-1.879233181607493,-0.7107758254710016,1.9481130554076718,0.1870336852520041,-0.0017090094222834058,-0.0018901702462507729,-0.0006689802859677432,-0.0008007777076827412,-0.0003829651023729471,0.00034298963979918995,2.584665292801536e-05,0.2689092457294464,-23.56198501586914,19.577133178710938,17.94654083251953,0.8568216562271118,2.3476455211639404,-0.10706938803195953,0,0,0,0.000,0,0
1739400989.039989,-0.7076967667420331,0.6770501081053839,1.4195835630031228,-1.879223255933754,-0.7107774446091122,1.9481107824274366,0.18702430723089444,-0.000775366029851896,0.0005267531806870085,0.00044518982820816787,0.0014526498063818628,0.0017122215831478277,-0.0006599597826604541,-0.0018602592078296987,0.2411382496356964,-23.61355972290039,19.553329467773438,17.84735870361328,0.8705545663833618,2.3668715953826904,-0.06678618490695953,0,0,0,0.000,0,0
1739400989.05002,-0.7077005674693543,0.6770515395755122,1.4195834716972864,-1.8792283144337063,-0.7107778446453347,1.9481107824274366,0.1870368464802986,-0.002035269855895331,0.00023681539611011137,0.0006301027242766849,0.0005572083083103535,0.0004702647076527055,-0.00018136444863997038,0.0016282695575312316,0.2927129566669464,-23.63736343383789,19.553329467773438,17.87512969970703,0.8769632577896118,2.3668715953826904,-0.13361968100070953,0,0,0,0.000,0,0
1739400989.0600827,-0.7076939845396413,0.6770459467895427,1.4195806104547584,-1.8792335564423788,-0.7107779638485677,1.948111540087515,0.18702826518641777,0.0008542590738406477,-0.001024330370496196,-0.0006131389478309676,-0.0006730370972885188,-0.001009383934481598,0.00021772759687701366,-0.0017857550246786094,0.2411382496356964,-23.56198501586914,19.553329467773438,17.94654083251953,0.8769632577896118,2.3604629039764404,-0.09425200521945953,0,0,0,0.000,0,0
1739400989.0710466,-0.7076938518169965,0.6770508396046975,1.4195816742864045,-1.879232082937591,-0.7107776406219795,1.948111540087515,0.18703444776746833,0.000125960875407457,-6.808129622487368e-05,-0.0006324103361326507,-0.0005628073122631417,-0.00013572561978162764,-0.0005237437013418018,0.0014870048887677195,0.2411382496356964,-23.61355972290039,19.577133178710938,17.92273712158203,0.8641458749771118,2.3604629039764404,-0.11347807943820953,0,0,0,0.000,0,0
1739400989.0820897,-0.7076990681717162,0.6770461538545842,1.4195810296892777,-1.8792296160398776,-0.7107754634292913,1.9481118267973137,0.18703295288337374,-0.001555484616590873,-0.0007495609670445243,-0.0002842748022194937,-0.0006814495343547431,0.0007277998228138866,-0.0009004923225375138,0.0007913985065481745,0.2689092457294464,-23.56198501586914,19.577133178710938,17.89893341064453,0.8568216562271118,2.3540542125701904,-0.07411040365695953,0,0,0,0.000,0,0
1739400989.0930755,-0.7076921779054431,0.6770522926110311,1.4195814355168677,-1.879229619342842,-0.7107770869791998,1.9481115400848565,0.18703217043923273,0.001758753787782599,0.0010151275070897294,-8.977245605801018e-05,-0.00013371400346267532,0.0006441380336051744,-0.0001134590957850422,0.0002851003301201679,0.2173345386981964,-23.61355972290039,19.577133178710938,17.89893341064453,0.8705545663833618,2.3604629039764404,-0.09425200521945953,0,0,0,0.000,0,0
1739400989.104045,-0.7076965923761389,0.6770515771411955,1.4195817803739543,-1.8792254366952057,-0.7107778446392782,1.9481126511756437,0.18702841873023254,-0.00048523223652133045,0.00026022849220994694,-8.601387459077948e-05,0.002051933536637916,0.0006685765466209349,0.0005622017595269614,-0.0011487099916194115,0.2689092457294464,-23.63736343383789,19.577133178710938,17.84735870361328,0.8769632577896118,2.3540542125701904,-0.08051909506320953,0,0,0,0.000,0,0
1739400989.1149697,-0.7076975889990956,0.677047948276699,1.4195807903991673,-1.8792302551122295,-0.710775463421889,1.9481115400935003,0.187032170222769,0.0002570784674182341,-0.0001382525564482962,-0.00020377898232931376,0.0004178302202355002,0.0001055543357647411,0.0003293226670966398,-4.513910100905141e-05,0.2927129566669464,-23.58578872680664,19.577133178710938,17.89893341064453,0.8568216562271118,2.3604629039764404,-0.09425200521945953,0,0,0,0.000,0,0
1739400989.1251154,-0.707695915494061,0.6770536676720667,1.4195853192333976,-1.8792336497638888,-0.7107771272062029,1.948111540087515,0.18703617226863364,0.0002895428529552374,0.00044231313975971623,0.000440663044957309,-0.0010786467994139055,-0.0021200259248854722,0.0003508692718799059,0.001178515655984513,0.2689092457294464,-23.66513442993164,19.529525756835938,17.94654083251953,0.8705545663833618,2.3604629039764404,-0.12721098959445953,0,0,0,0.000,0,0
1739400989.136075,-0.707693132543109,0.6770488466621166,1.4195796302115502,-1.8792310493185378,-0.7107770869794269,1.9481115399260094,0.187034447790108,0.0011314841942474336,-0.0009069891220625751,0.0006727252759699509,0.00014124465498577398,0.00018859923605656572,0.00021650340141036518,0.002097754332554779,0.2173345386981964,-23.58578872680664,19.577133178710938,17.92273712158203,0.8705545663833618,2.3604629039764404,-0.11347807943820953,0,0,0,0.000,0,0
1739400989.1460774,-0.707696054833523,0.6770509165697842,1.419581700430563,-1.8792275634570135,-0.710775463421889,1.9481122977475906,0.18703119043864114,0.0008464258374247483,0.0004366458186147136,0.00029833722218565076,0.0010720600938329025,0.0004257785062816748,3.104166459329694e-05,0.0001274159896561803,0.2411382496356964,-23.61355972290039,19.577133178710938,17.87512969970703,0.8568216562271118,2.3540542125701904,-0.08692778646945953,0,0,0,0.000,0,0
1739400989.1570568,-0.7076942226293511,0.6770498642795912,1.4195818373771336,-1.8792303090509102,-0.7107752562719911,1.948111540087515,0.18703607134618022,-6.198140824406059e-05,-0.0006593746396091324,0.00040727264953462224,-0.00021334856133615397,0.0012227810409901614,-0.00039613895083094055,0.0014777327002514235,0.2411382496356964,-23.61355972290039,19.604904174804688,17.89893341064453,0.8641458749771118,2.3604629039764404,-0.12721098959445953,0,0,0,0.000,0,0
1739400989.1689732,-0.7076960367223928,0.677052160701346,1.419579591654517,-1.8792302291837597,-0.7107787144195186,1.9481100247673584,0.1870321754593632,-0.00024539859334449704,0.0016086195480521676,-0.0001739362616493096,-0.0010312862817668021,0.001043950321099726,-0.0007656778607730398,0.00011002533992504,0.2411382496356964,-23.61355972290039,19.604904174804688,17.89893341064453,0.8769632577896118,2.3732802867889404,-0.09425200521945953,0,0,0,0.000,0,0
1739400989.1789925,-0.7076958802213117,0.6770478663457614,1.4195804273083596,-1.8792285534149105,-0.7107763293240313,1.9481130554076718,0.1870314610434586,-0.0012014001597313595,-0.00035421316890498075,-0.0003119773685698801,0.0003471178752811491,0.0008282479475023035,0.0006545324083037915,-0.0007254789547342319,0.2689092457294464,-23.58578872680664,19.553329467773438,17.87512969970703,0.8641458749771118,2.3476455211639404,-0.09425200521945953,0,0,0,0.000,0,0
1739400989.1889944,-0.7076980582088845,0.6770498642736513,1.419577197519418,-1.879226233717196,-0.7107763288285484,1.948111540087515,0.18703130889998318,-0.00011433407949809507,-0.00032621435706741434,-0.0010939963993249267,0.001392805488647559,-0.0004518940174324454,0.0005017013457262867,-0.000784769825355052,0.2689092457294464,-23.61355972290039,19.604904174804688,17.84735870361328,0.8641458749771118,2.3604629039764404,-0.08692778646945953,0,0,0,0.000,0,0
1739400989.1990445,-0.7076962654735331,0.6770498633106741,1.4195793136224053,-1.879228902712898,-0.7107770869791915,1.9481107824274366,0.18703253022959226,0.00112347419899865,8.600374058787447e-05,-0.0007703034760043687,0.0013252476390323963,0.0010601223662657958,-0.00020714543593430644,-0.0011543154077754629,0.2411382496356964,-23.61355972290039,19.577133178710938,17.92273712158203,0.8705545663833618,2.3668715953826904,-0.09425200521945953,0,0,0,0.000,0,0
1739400989.2099764,-0.7076962072714085,0.6770516037759032,1.4195832451112178,-1.8792302442826803,-0.7107763307908411,1.9481139213049041,0.1870310471826715,0.001466749164092025,0.00014560305346748032,-0.0008673685038838716,0.00018482245199311596,6.663393141693782e-05,-0.00022571796919992838,0.00020619586869461586,0.2689092457294464,-23.63736343383789,19.553329467773438,17.89893341064453,0.8641458749771118,2.3403213024139404,-0.12080229818820953,0,0,0,0.000,0,0
1739400989.2200813,-0.7076925222754238,0.6770479472778342,1.419581540861775,-1.8792331966051905,-0.7107774450976666,1.9481122977475933,0.1870304341689441,0.0005502661979125224,-0.0003955751238067809,-0.0009090388759388183,-0.0014551940291453243,-0.0018117106469439195,0.0005972198609666664,-0.00025367790557245313,0.2173345386981964,-23.58578872680664,19.577133178710938,17.89893341064453,0.8705545663833618,2.3540542125701904,-0.08051909506320953,0,0,0,0.000,0,0
1739400989.23104,-0.7077007277127029,0.6770461537055262,1.4195813250565932,-1.8792302168812218,-0.7107785625649482,1.948111540087515,0.18702735263124362,-0.001223116216635697,-0.002570666949616755,0.0008871437630969915,-0.0010432259864431481,-0.0002395651724225929,-0.001030744151481063,0.0001516105759316705,0.2927129566669464,-23.56198501586914,19.553329467773438,17.89893341064453,0.8833719491958618,2.3604629039764404,-0.08051909506320953,0,0,0,0.000,0,0
1739400989.2420177,-0.707699094788656,0.6770478666659014,1.4195795511733431,-1.8792302556728526,-0.7107787278854248,1.9481122977475933,0.18702979938828498,-0.00221483784903997,-0.0013158395508011994,-0.0005719868829067202,0.00039078839406365604,-0.002078418699505468,0.00020979408710688162,-0.0013921251362042138,0.2689092457294464,-23.58578872680664,19.577133178710938,17.89893341064453,0.8833719491958618,2.3540542125701904,-0.07411040365695953,0,0,0,0.000,0,0
1739400989.252043,-0.7076997740545429,0.677051576794384,1.419583242096442,-1.8792338744100827,-0.7107762895834006,1.9481130554076718,0.18703024265123594,-0.001349545220340215,-0.00019645007963481082,0.000472360669715785,7.809207958969555e-05,0.0007104501211849853,0.0006908780706607444,-0.0008951171445599187,0.2927129566669464,-23.63736343383789,19.553329467773438,17.94654083251953,0.8641458749771118,2.3476455211639404,-0.08692778646945953,0,0,0,0.000,0,0
1739400989.263003,-0.7076946318648069,0.6770485948340119,1.4195807117930024,-1.8792289274631961,-0.710775463421216,1.948111540087515,0.18703363020626718,-7.328418349696968e-05,-0.0007577797375775952,0.0005200890278444606,-1.1879813020695485e-05,0.0004231009590618633,0.00017274206557102447,0.0006064507229927988,0.2411382496356964,-23.58578872680664,19.577133178710938,17.92273712158203,0.8568216562271118,2.3604629039764404,-0.13361968100070953,0,0,0,0.000,0,0
1739400989.2750306,-0.7076983436353333,0.6770518229605437,1.4195825696583326,-1.879225450358329,-0.7107770869791998,1.9481122977475933,0.18702634610807872,-0.00046376576893002587,0.001216367934122873,-0.00016317048750521824,0.0016196167679670803,-0.0008869510128725805,0.00024235753564805752,-0.002399947470406723,0.2927129566669464,-23.63736343383789,19.553329467773438,17.87512969970703,0.8705545663833618,2.3540542125701904,-0.05396880581974983,0,0,0,0.000,0,0
1739400989.285061,-0.7076987764122539,0.6770545031255223,1.419578812402385,-1.879233821302097,-0.7107763293191215,1.9481122977475933,0.18703018290256357,-0.00022123367241015746,0.0014939700685368945,2.6249606841414818e-05,-0.0004378684081982289,0.00033174543598000675,0.0006008900747748084,-0.0012110610443794832,0.2689092457294464,-23.63736343383789,19.577133178710938,17.94654083251953,0.8641458749771118,2.3540542125701904,-0.11347807943820953,0,0,0,0.000,0,0
1739400989.2960045,-0.7076922760184378,0.6770469304466714,1.419580737945588,-1.8792311641499757,-0.7107763293191215,1.948111534273314,0.18703369010538454,0.001080465028515235,-0.001668337010260678,0.00012043599427078049,-0.0007581967094625406,0.0005306592093827724,-0.0004629290381145053,0.0006141035047113277,0.2173345386981964,-23.58578872680664,19.577133178710938,17.92273712158203,0.8641458749771118,2.3604629039764404,-0.10706938803195953,0,0,0,0.000,0,0
1739400989.3060756,-0.7076959825409328,0.6770515767785329,1.4195747790949718,-1.8792321139930142,-0.7107763824645523,1.9481107423904174,0.1870281505332443,-0.0007093915515047153,0.00028712539421612817,-0.0009710107257687321,0.0009811066233999372,0.00048504057026307196,-0.0004758015514876264,-0.0011350358723082841,0.2689092457294464,-23.63736343383789,19.628707885742188,17.92273712158203,0.8641458749771118,2.3403213024139404,-0.06037749722599983,0,0,0,0.000,0,0
1739400989.3169725,-0.7076949497198364,0.6770498613847199,1.4195767999361335,-1.8792335082386886,-0.7107778446395782,1.9481122975681426,0.18703055119771078,0.0001415843685026683,-0.00030318860114855045,-0.000677436989824835,-0.001846058262746995,-0.00015760314991227598,0.00033244280969410496,-0.0012685688858000092,0.2411382496356964,-23.61355972290039,19.604904174804688,17.97431182861328,0.8769632577896118,2.3540542125701904,-0.08051909506320953,0,0,0,0.000,0,0
1739400989.327074,-0.7076965944655252,0.6770543062343477,1.4195810253891192,-1.8792314042713927,-0.7107763670932584,1.9481130554076687,0.18703445233995716,-0.0002480500722918642,0.0019343817723611965,0.0007871746744226738,-0.0007038680874076476,0.0009179080695093731,0.0004905408783437242,0.0007845048209294492,0.2689092457294464,-23.66513442993164,19.577133178710938,17.92273712158203,0.8641458749771118,2.3476455211639404,-0.11347807943820953,0,0,0,0.000,0,0
1739400989.3380063,-0.7076952681029632,0.6770515767985116,1.419580594608346,-1.8792303316188326,-0.7107772612964263,1.948110011685406,0.18703293246940728,0.0022474251017595677,0.0006029648260642919,0.001184911398758019,0.0007381868937318406,-0.001066469895648068,-0.0009306532024565091,-0.00024876940831813124,0.2173345386981964,-23.63736343383789,19.553329467773438,17.89893341064453,0.8705545663833618,2.3732802867889404,-0.10066069662570953,0,0,0,0.000,0,0
1739400989.3480444,-0.7076983673224764,0.677054490799238,1.419576481939465,-1.8792292681624387,-0.7107789181799338,1.9481130554074502,0.18703130891207087,-0.00037943427529932137,0.0013894296340583798,-0.0016056839261411036,-0.0008731572423387434,-0.0018003494549705891,0.0005349521427677043,1.6943525346747987e-05,0.2689092457294464,-23.63736343383789,19.604904174804688,17.87512969970703,0.8769632577896118,2.3476455211639404,-0.08692778646945953,0,0,0,0.000,0,0
1739400989.3589623,-0.7076994174341792,0.6770498668929577,1.4195828349877715,-1.8792256918959322,-0.710776329337302,1.9481115386339647,0.1870321149041677,-0.0015149318449581696,-0.00019771368969019452,0.001737089399270964,0.0009258015044000823,0.0011882349177420113,-0.0002773318004067446,1.749029245680134e-05,0.3165166676044464,-23.61355972290039,19.553329467773438,17.87512969970703,0.8641458749771118,2.3604629039764404,-0.12080229818820953,0,0,0,0.000,0,0
1739400989.3690922,-0.7076983438684338,0.6770498299395977,1.4195786415390512,-1.8792331091365175,-0.7107774022027274,1.9481112381094556,0.18703531415625843,-0.0006930152113147526,-0.0009662095067894878,-0.0005052880128404741,-0.0005746713463456027,-0.00019624704164071112,-0.0001233837560736195,0.0014486137422869815,0.2689092457294464,-23.61355972290039,19.577133178710938,17.94654083251953,0.8641458749771118,2.3540542125701904,-0.12080229818820953,0,0,0,0.000,0,0
1739400989.3800843,-0.7076953567430649,0.6770497862723172,1.4195785627066804,-1.8792300585689796,-0.7107770467582533,1.9481122972570948,0.18703055125199516,-8.43205146304635e-05,-5.895465721079095e-05,-0.00016167796164140314,-3.732024006814199e-05,0.0009847062890293759,-0.0004863208792560827,-0.00012764287993052327,0.2173345386981964,-23.61355972290039,19.577133178710938,17.89893341064453,0.8705545663833618,2.3540542125701904,-0.08051909506320953,0,0,0,0.000,0,0
1739400989.3910074,-0.7076990858141755,0.677047947276937,1.4195821272244822,-1.8792272004923756,-0.7107770870334809,1.9481083611192889,0.18702734661884984,-0.0015153966973197157,-0.0011461481403893137,0.0005085602348341049,0.0001767780298080903,0.00023213362104132935,-0.0004167698250718789,-0.0028557562875163147,0.2689092457294464,-23.58578872680664,19.529525756835938,17.89893341064453,0.8705545663833618,2.3604629039764404,-0.08051909506320953,0,0,0,0.000,0,0
1739400989.4010322,-0.7076942240519888,0.6770510351672935,1.419580609638691,-1.8792300701879272,-0.7107789599272278,1.9481130552461634,0.18703444762672605,0.00041643025033154246,-5.710573215247954e-05,0.00034342072953838835,-0.00017409908376122367,-0.0007749065627063103,6.952255979592233e-05,0.00040458995285182567,0.2411382496356964,-23.58578872680664,19.553329467773438,17.89893341064453,0.8833719491958618,2.3476455211639404,-0.11347807943820953,0,0,0,0.000,0,0
1739400989.411129,-0.7076981410631318,0.6770497862903991,1.4195786451240258,-1.8792328776871179,-0.7107778843777268,1.9481122977475924,0.18703294612064006,-0.0011384316345744092,-0.0006414290770624803,0.00011818690613289948,-0.0003346516411205022,-0.00015525102021364767,0.0004377064548286105,-0.00010552504855657134,0.2689092457294464,-23.61355972290039,19.577133178710938,17.97431182861328,0.8769632577896118,2.3540542125701904,-0.10066069662570953,0,0,0,0.000,0,0
1739400989.4220402,-0.7076963697052566,0.6770501880515282,1.4195818028585512,-1.8792303223389635,-0.7107781731085067,1.9481115357268641,0.18703416402325596,-2.104758255454119e-05,0.0008335011610726397,0.0011402144576001792,-0.0001946128943343784,0.0007563292667700458,0.00013100134391421745,0.0007912674619760507,0.2411382496356964,-23.61355972290039,19.553329467773438,17.89893341064453,0.8705545663833618,2.3604629039764404,-0.10706938803195953,0,0,0,0.000,0,0
1739400989.432982,-0.707694657258482,0.6770507803394814,1.4195795158436977,-1.8792292641718265,-0.7107764750254955,1.9481115400874904,0.187035309301541,0.0005414768711161924,-0.00022131273760967206,0.00034026249378104603,0.0008008018896816687,-0.00026609025202015005,-0.0001796190754695302,8.676621404619912e-05,0.2173345386981964,-23.58578872680664,19.577133178710938,17.89893341064453,0.8641458749771118,2.3604629039764404,-0.12080229818820953,0,0,0,0.000,0,0
1739400989.4430609,-0.7076950297705759,0.6770498734155401,1.4195765249135976,-1.8792317197949095,-0.7107770869866025,1.948112284665641,0.18703190127899677,0.0005075619765997812,-0.0006707874603427428,-0.0010034429262885084,-0.0010341732677058126,0.00026922985551334035,3.605295052667808e-05,-0.0016300856092998704,0.2173345386981964,-23.61355972290039,19.577133178710938,17.94654083251953,0.8705545663833618,2.3540542125701904,-0.08692778646945953,0,0,0,0.000,0,0
1739400989.4540646,-0.7076949418135549,0.6770519275542776,1.4195768538805793,-1.879225683041189,-0.7107795479699394,1.9481083612268881,0.1870321748126472,-0.0002702464155074366,0.0011040592358128863,-0.0013914859091979433,0.0010442196014132374,-0.000993720757279152,-0.0007103429705346775,-0.00024024785991151482,0.2411382496356964,-23.63736343383789,19.628707885742188,17.87512969970703,0.8641458749771118,2.3604629039764404,-0.09425200521945953,0,0,0,0.000,0,0
1739400989.4640691,-0.7076950276877018,0.6770461538140468,1.4195785646806853,-1.8792295836823836,-0.7107772062066587,1.948110781924975,0.18704014626296006,0.0005739464503405989,-0.0017370555927547055,-0.0006753207362242633,0.0007767345374107492,0.0007448059466317609,-0.00018453609887504488,0.002155899665866841,0.2173345386981964,-23.56198501586914,19.577133178710938,17.89893341064453,0.8705545663833618,2.3668715953826904,-0.13361968100070953,0,0,0,0.000,0,0
1739400989.4750414,-0.7076990938068444,0.6770498643846862,1.4195786411979596,-1.87922561109852,-0.7107771267163027,1.9481115008416556,0.18703559158005834,-0.0014092915315208714,-0.0012017231044532352,-0.0014313711480420572,0.0026932551021000583,-0.001274971088145615,-0.0002446451771282754,0.0013457152280667295,0.2689092457294464,-23.61355972290039,19.577133178710938,17.87512969970703,0.8705545663833618,2.3604629039764404,-0.08692778646945953,0,0,0,0.000,0,0
1739400989.4859807,-0.7076981145157125,0.6770528532658701,1.4195785362157252,-1.8792317463236896,-0.7107809786451627,1.9481122977473717,0.1870289276646859,-0.0006874643452901169,-0.00040762155267313994,-0.0002694261284731841,-0.001960911146547176,-0.0025530856820109157,6.821237385691391e-05,-0.001228637466989818,0.2689092457294464,-23.63736343383789,19.577133178710938,17.94654083251953,0.8641458749771118,2.3540542125701904,-0.06678618490695953,0,0,0,0.000,0,0
