IITGN-Robotics/Franka_IITGN_ROBOTICS/franka_ros/franka_iitgn/data/b_14.csv
time,fr3_joint1_pos,fr3_joint2_pos,fr3_joint3_pos,fr3_joint4_pos,fr3_joint5_pos,fr3_joint6_pos,fr3_joint7_pos,fr3_joint1_vel,fr3_joint2_vel,fr3_joint3_vel,fr3_joint4_vel,fr3_joint5_vel,fr3_joint6_vel,fr3_joint7_vel,fr3_joint1_eff,fr3_joint2_eff,fr3_joint3_eff,fr3_joint4_eff,fr3_joint5_eff,fr3_joint6_eff,fr3_joint7_eff,flexpin1,flexpin2,flexpin3,Force,ContactMic,ContactMic_gt
1739401016.2256637,-0.707577886408206,0.6763046141643503,1.4194813168418905,-1.8792881325208983,-0.7102994435008055,1.9484565317708102,0.18670678985486797,-0.0008950453976273676,0.000997836640156362,-0.0006148632874531417,-0.00044464950166064584,0.00020122910833715748,0.0009598212893149881,0.0012121014668848192,0.3165166676044464,-23.66513442993164,19.553329467773438,17.94654083251953,1.0472513437271118,2.3604629039764404,-0.18031157553195953,,,,,,,,,
1739401016.2366462,-0.707577883521293,0.6763053812382828,1.4194841426146507,-1.8792863244744278,-0.7102994454390968,1.9484510798768517,0.18670659849059668,-0.001669796400204232,0.000509910165438911,-7.257165684590108e-05,0.00037031824727259304,0.0007645835913963198,-0.0008980560849392353,0.0018197568443795178,0.3165166676044464,-23.68893814086914,19.553329467773438,17.92273712158203,1.0472513437271118,2.3796889781951904,-0.14735259115695953,,,,,,,,,
1739401016.2475836,-0.7075761739984591,0.6763074872399493,1.4194876429777354,-1.8792878349413351,-0.7103011221153133,1.948454545447203,0.18670527475746068,-1.0751840575864562e-05,0.0006123563958284297,0.002814054405008058,0.0007386951230110132,-0.0005610473264783471,-0.0008919654576457805,0.00026139947296260966,0.2927129566669464,-23.68893814086914,19.501754760742188,17.94654083251953,1.0344339609146118,2.3732802867889404,-0.16749419271945953,,,,,,,,,
1739401016.2576478,-0.7075739884948681,0.6763037670813,1.4194844723219682,-1.8792881128151557,-0.7102947246041641,1.9484557741034199,0.18670528765554004,0.0006945318744875068,-0.0003129525381781695,0.0013618351498773473,-0.0004592043250204722,0.00317799885775054,0.0009402302570491112,9.681651815209328e-05,0.2927129566669464,-23.63736343383789,19.553329467773438,17.94654083251953,1.0344339609146118,2.3668715953826904,-0.16749419271945953,,,,,,,,,
1739401016.268677,-0.7075711445221329,0.6763047123283834,1.4194764954562722,-1.879286358487499,-0.7102959413002365,1.9484522932189576,0.1867059998283926,0.0011638664748956286,0.00038576439425405543,-0.0005179822028726637,0.0002003260604188883,0.0005157763763903676,-0.0003533309722270578,0.0006940179906495922,0.1935308277606964,-23.53818130493164,19.553329467773438,17.92273712158203,0.9813333749771118,2.3604629039764404,-0.13361968100070953,,,,,,,,,
1739401016.2796052,-0.7075704493729218,0.6763367789974625,1.4194705234332738,-1.8792807960870066,-0.7102963977466351,1.9484446151508414,0.18670613776941078,0.0012188061015597222,0.003850176768179693,-0.001022419412605504,0.0010227519723750315,0.0005266534851030653,-0.001873187231793723,1.2661809675916774e-05,0.1697271168231964,-23.58578872680664,19.374801635742188,17.84735870361328,0.9035135507583618,2.3403213024139404,-0.09425200521945953,,,,,,,,,
1739401016.291629,-0.7075761356657596,0.6763606868106877,1.4194521662011688,-1.8792891216933845,-0.7102999537442619,1.9484342648292954,0.1867085549434023,-0.0014471967747652923,0.001961299240469021,-0.0014353555957500787,-0.0016012881216387513,-0.00024576869234576307,-0.00043801110093594805,-0.0016573308390561577,0.2173345386981964,-23.51041030883789,19.402572631835938,17.94654083251953,0.8897806406021118,2.3476455211639404,-0.07411040365695953,,,,,,,,,
1739401016.3016353,-0.7075717013646134,0.6763766603350959,1.4194288514654594,-1.8792955839426109,-0.7103034469926289,1.9484279411652472,0.18671416760323917,0.0005969251166121464,0.00037027537973123104,-0.003149221214275402,-0.0009698698949000544,5.403992757634736e-05,-0.0007329271657810334,-0.0007410816111146623,0.1419561207294464,-23.51041030883789,19.529525756835938,17.97431182861328,0.8833719491958618,2.3604629039764404,-0.08051909506320953,,,,,,,,,
1739401016.3125997,-0.707578841233892,0.6763924491831291,1.4194169676509019,-1.8792977231705643,-0.7103028595834314,1.9484172288814794,0.18672269329941762,-0.0007223246283995849,0.0011012435471985903,-0.0015836827110641137,-0.0017037045244123398,6.83135676775905e-05,-0.0023544212123469675,0.0010179908235656095,0.2411382496356964,-23.58578872680664,19.477951049804688,18.02191925048828,0.8769632577896118,2.3796889781951904,-0.11347807943820953,,,,,,,,,
1739401016.3236725,-0.7075761182027148,0.6764043814857355,1.419405711054809,-1.8792917085705951,-0.7103024551868707,1.9484196849215278,0.18672682111150346,7.014523353720566e-05,0.0018429880258111152,-0.001962662568478185,0.0005228714393272111,0.0002107323653912433,-0.0016724834584924961,0.003485576124025379,0.1935308277606964,-23.61355972290039,19.529525756835938,17.94654083251953,0.8705545663833618,2.3604629039764404,-0.13361968100070953,,,,,,,,,
1739401016.333695,-0.7075801326262766,0.6764114468186581,1.4193952039147886,-1.8792839422479122,-0.7103032260984082,1.9484197983763252,0.18672489675477028,-0.00021368089752953328,0.00012656106899473923,-0.002238577044227895,0.002347981835769337,0.0004205169470942325,-0.0007488500771159436,0.0008809422869350207,0.2411382496356964,-23.61355972290039,19.553329467773438,17.84735870361328,0.8769632577896118,2.3476455211639404,-0.10066069662570953,,,,,,,,,
1739401016.3446143,-0.7075894213087601,0.6764239134171008,1.419384909663913,-1.879286012159852,-0.7103040109035624,1.948419781071224,0.18672839508509465,-0.0005539809033243695,0.0006341437044533922,-0.0016742146829363432,0.00045956542476595244,-0.0008433612515572038,0.000778701765604859,-0.0001239991867604204,0.3442876636981964,-23.66513442993164,19.604904174804688,17.87512969970703,0.8833719491958618,2.3476455211639404,-0.12080229818820953,,,,,,,,,
1739401016.355633,-0.707590390249169,0.676432140397548,1.4193699682137717,-1.8792839323215318,-0.7103029325212689,1.9484181478519618,0.1867292888886397,0.0005695260465067027,0.0012108916177144028,-0.0014625116123443997,0.0008490419871434421,0.0001315812611085814,-0.00019196785506416848,8.10236832795569e-05,0.3165166676044464,-23.68893814086914,19.680282592773438,17.84735870361328,0.8705545663833618,2.3604629039764404,-0.12721098959445953,,,,,,,,,
1739401016.3676183,-0.7075946584920155,0.6764453871230514,1.41935435033302,-1.879293532073555,-0.7103050985234073,1.9484182655893074,0.1867276497319311,-0.0006859478986683408,0.0011224828127342976,-0.002351822391331297,0.00027154940464434543,0.0008412689281521719,0.0002122858576413512,0.0005519209612453039,0.3680913746356964,-23.74051284790039,19.755661010742188,17.94654083251953,0.8833719491958618,2.3604629039764404,-0.11347807943820953,,,,,,,,,
1739401016.3785965,-0.7075936734863449,0.6764556548105746,1.4193494063379475,-1.8792945397150114,-0.7103099299916704,1.9484121541434944,0.1867296447384644,0.00033656119991685947,0.0003365064219420803,-0.00048781304654579307,-0.0005865795953515337,8.60670176379498e-05,-0.0002626409910772723,0.0011094839922653305,0.3442876636981964,-23.76828384399414,19.704086303710938,17.94654083251953,0.9035135507583618,2.3732802867889404,-0.09425200521945953,,,,,,,,,
1739401016.388621,-0.7075938512956639,0.6764532062973634,1.419350461651943,-1.8792961882189418,-0.7103091969862348,1.9484162204590587,0.18672482406006002,-0.0004194504435279244,0.0002090104254983496,0.0009054644992567947,-0.0008189687595410661,-0.0008282370090975693,-0.0003699932623513942,-0.0003475046099986668,0.3165166676044464,-23.71670913696289,19.604904174804688,17.99811553955078,0.8897806406021118,2.3732802867889404,-0.08051909506320953,,,,,,,,,
1739401016.3986576,-0.7075904341052099,0.6764513133886787,1.419351718671031,-1.8792900515505313,-0.710306592650966,1.9484145569278568,0.1867235134877242,0.0010511365753421507,-3.9454981091350676e-05,0.001075764651015742,0.0009929729907650537,0.0011632001296049525,-0.0005093993060596347,-0.0005857897137758357,0.2689092457294464,-23.68893814086914,19.577133178710938,17.89893341064453,0.8769632577896118,2.3604629039764404,-0.07411040365695953,,,,,,,,,
1739401016.40869,-0.7075921480433016,0.6764478372532857,1.419351742095457,-1.8792906460919625,-0.7103055778679511,1.9484157200626553,0.18673137479515417,-0.0006438255310155103,-0.0008759797548279963,-0.00019701046111262374,-0.0011737257305987872,-6.455154554616472e-05,0.00033183212952562894,-0.000715610159777052,0.2927129566669464,-23.63736343383789,19.577133178710938,17.92273712158203,0.8833719491958618,2.3540542125701904,-0.11347807943820953,,,,,,,,,
1739401016.420666,-0.7075921480433096,0.6764476144859204,1.419353580697954,-1.879289907899763,-0.7103079990577472,1.9484142548862962,0.18673156965355275,-1.1565202701956052e-05,-0.0007979448964438617,-0.00014525724781781074,0.0011480281096083885,-0.000318155850186812,-0.00044141597100164504,-0.0006787837066033828,0.2927129566669464,-23.63736343383789,19.553329467773438,17.92273712158203,0.8769632577896118,2.3540542125701904,-0.10706938803195953,,,,,,,,,
1739401016.430687,-0.7075904355225784,0.6764476848176525,1.4193574265081692,-1.8792966494094427,-0.7103094236398051,1.948414255362542,0.18673411948329163,-0.001207399763721954,-0.0006138138029403643,-0.0023816862619401285,-0.0009791553093853743,0.0013055979625191424,-0.00019265100008250395,0.0002575879664384487,0.2689092457294464,-23.63736343383789,19.529525756835938,17.97431182861328,0.8897806406021118,2.3540542125701904,-0.10066069662570953,,,,,,,,,
1739401016.441586,-0.7075904325791392,0.6764442860134678,1.4193616375480393,-1.8792945666924004,-0.7103042261311449,1.948414254878028,0.1867333531834795,-0.0008551643972666762,-0.0022582168164853606,0.00031637299558635824,0.0004133214245969762,0.0014145204398100558,0.000216246868110234,0.0011075815927052439,0.2689092457294464,-23.56198501586914,19.477951049804688,17.94654083251953,0.8769632577896118,2.3540542125701904,-0.12080229818820953,,,,,,,,,
1739401016.451628,-0.707591821212487,0.6764438926099529,1.4193644415268574,-1.8792902714742954,-0.7103068062673197,1.948415012538104,0.1867296517367752,-0.0010164315788836985,-0.00010961882441201784,8.181760988330202e-05,0.0011091699668468278,0.0008707960343331583,-1.610725544947799e-05,-0.00025784137166395734,0.2927129566669464,-23.58578872680664,19.450180053710938,17.89893341064453,0.8705545663833618,2.3476455211639404,-0.08051909506320953,,,,,,,,,
1739401016.4625883,-0.7075904355207334,0.6764443899788607,1.419364670727557,-1.8792902880044422,-0.7103072825122905,1.9484153145161547,0.18672618197822521,-0.00015829930857769463,0.0010914538857127597,0.0008705975910917067,-0.00025258102082793046,0.0009390226850778117,0.0007708709206783918,-0.001755340256075055,0.2689092457294464,-23.56198501586914,19.450180053710938,17.89893341064453,0.8705545663833618,2.3540542125701904,-0.06037749722599983,,,,,,,,,
1739401016.4726698,-0.7075882897553665,0.6764439878394428,1.419362355866269,-1.8792870348577377,-0.7103112594799653,1.9484156721074601,0.18672855087640272,0.00021713240565465367,0.0008337799259288943,-0.00021987248216238312,-0.0002422805885254649,-0.0010633330315985984,0.0011573368107637616,-0.0014571215339769955,0.2689092457294464,-23.58578872680664,19.477951049804688,17.84735870361328,0.8769632577896118,2.3540542125701904,-0.08051909506320953,,,,,,,,,
1739401016.4836524,-0.7075859734907266,0.676446514417801,1.4193614004370194,-1.8792878301271867,-0.7103077261143735,1.9484143769842461,0.18673680504683013,0.0009753288187884306,0.00027926656967383113,0.0004222145476304673,9.932318727582778e-05,0.0004423096433636106,-0.0002674946483421367,0.003388874793244393,0.2173345386981964,-23.61355972290039,19.501754760742188,17.89893341064453,0.8833719491958618,2.3540542125701904,-0.14735259115695953,,,,,,,,,
1739401016.4936728,-0.7075904355098505,0.6764476029394408,1.4193584943905693,-1.8792867656324326,-0.7103087969993565,1.9484130927726462,0.18673650070735082,6.615272540184432e-05,0.0009256907879043795,0.0002867124852079767,0.000966207686152774,-0.0007260805985645134,9.998208483182236e-05,0.001821176079264182,0.2689092457294464,-23.63736343383789,19.529525756835938,17.87512969970703,0.8833719491958618,2.3668715953826904,-0.12080229818820953,,,,,,,,,
1739401016.5036874,-0.7075904348624241,0.6764465924184029,1.4193549250979527,-1.8792927128950825,-0.7103087984892116,1.948416677591867,0.18673052750790084,0.000191986234356567,-0.0007732441722146208,-0.0011432813504035663,6.514287331541816e-05,6.60031954571655e-05,0.0010738099871022235,0.001951429523033821,0.2689092457294464,-23.61355972290039,19.577133178710938,17.92273712158203,0.8833719491958618,2.3604629039764404,-0.09425200521945953,,,,,,,,,
1739401016.5146546,-0.7075921483642907,0.6764503032128679,1.419352744336452,-1.8792902935373745,-0.7103074023783698,1.948412739773234,0.18673093064146992,-0.00041400097387085005,0.00042777841970154345,0.00025082018082078067,0.0002145629310650635,0.0006733126470775981,-0.0002991368815378336,0.0004223243891639446,0.2927129566669464,-23.66513442993164,19.577133178710938,17.92273712158203,0.8705545663833618,2.3668715953826904,-0.10066069662570953,,,,,,,,,
1739401016.5246713,-0.7075938337460407,0.676452746919674,1.4193481750684598,-1.8792909999797527,-0.7103023531845405,1.9484119818977916,0.18672984383796268,-0.0004392976420315094,0.0006067565065994669,0.0014217742046798163,-0.0006565351134472271,0.0008098990552017457,-0.0001767863096700489,-0.0015310758594637634,0.3165166676044464,-23.66513442993164,19.628707885742188,17.89893341064453,0.8641458749771118,2.3732802867889404,-0.12721098959445953,,,,,,,,,
1739401016.5365944,-0.70759000216693,0.6764559686929388,1.4193467178665236,-1.8792888276629613,-0.7103096753350518,1.9484142548780254,0.18673315550871622,0.0003981129590835939,0.0008212572331711641,-0.0005275735206712658,0.0009317600552513777,0.0007217281735526331,0.000459408788528507,-0.00045476952498387446,0.2927129566669464,-23.74051284790039,19.656478881835938,17.89893341064453,0.8897806406021118,2.3540542125701904,-0.08051909506320953,,,,,,,,,
1739401016.5466309,-0.7075884287392942,0.6764527324763874,1.4193436979013694,-1.8792881418293537,-0.7103088005067106,1.948411224237712,0.1867361675163718,0.00048559702397801607,0.0007521882469856719,-0.00060399501876247,0.0012151760228465052,-0.0002198688150775311,-0.0008107483158411705,0.0023564114537112987,0.2411382496356964,-23.66513442993164,19.656478881835938,17.89893341064453,0.8833719491958618,2.3796889781951904,-0.14094389975070953,,,,,,,,,
1739401016.556643,-0.7075884375815756,0.6764544377689925,1.4193496502787502,-1.8792963036865322,-0.7103083562162447,1.948411224237712,0.1867324960966957,0.0001998852595229351,-0.00016048476223998187,0.00030366884465802017,-0.0010737636905191411,0.0008232981597541989,-0.00027883092173069187,-0.0016865516499934802,0.2411382496356964,-23.68893814086914,19.604904174804688,17.97431182861328,0.8705545663833618,2.3796889781951904,-0.08692778646945953,,,,,,,,,
1739401016.5666618,-0.7075928206191778,0.6764564703768965,1.4193534890195088,-1.8792927957831835,-0.710308798507409,1.9484119818977905,0.18673446435789806,-0.001420820867151219,0.0010115544897731008,0.0006507320135625777,0.001110935150496592,0.0006350474123791215,-0.0004941749774110747,0.0008858557654470184,0.2927129566669464,-23.71670913696289,19.553329467773438,17.92273712158203,0.8833719491958618,2.3732802867889404,-0.09425200521945953,,,,,,,,,
1739401016.5776665,-0.7075904355263751,0.6764508612343586,1.419349626657212,-1.8792944725023943,-0.7103072979407846,1.9484127395578688,0.1867358068832687,-0.00011196544869964932,-0.00019566210471046262,-0.001096353104609605,0.0005249238122713752,0.0003386720792811061,-4.909404857349718e-05,3.6935340715503375e-06,0.2689092457294464,-23.63736343383789,19.604904174804688,17.94654083251953,0.8705545663833618,2.3668715953826904,-0.11347807943820953,,,,,,,,,
1739401016.58769,-0.7075884375817255,0.6764497779572101,1.4193552712923638,-1.8792926898235807,-0.7103089574352064,1.9484127395578688,0.18673099443428604,0.0008446744692084051,-0.0003129725881670766,0.00038984224242746336,0.0002861212194441796,7.408117703220245e-05,-0.0005946138460313367,-0.0008084012821540182,0.2411382496356964,-23.61355972290039,19.529525756835938,17.92273712158203,0.8833719491958618,2.3668715953826904,-0.07411040365695953,,,,,,,,,
1739401016.599584,-0.7075910579146244,0.6764507589475642,1.4193542084497623,-1.879292557370011,-0.7103080364148969,1.9484152621883457,0.18673442967988235,-0.0005379952915450081,0.00042685638887131236,-9.25618898242733e-05,-0.0012362955149513876,0.0009134872576851754,0.0008937217104662573,0.001525144276337788,0.2689092457294464,-23.63736343383789,19.553329467773438,17.92273712158203,0.8769632577896118,2.3540542125701904,-0.12721098959445953,,,,,,,,,
1739401016.6097283,-0.7075958583993911,0.6764451049892936,1.419359453580692,-1.8792892293436416,-0.7103103319605774,1.9484134972236333,0.1867328592459,-0.0007199765568001931,-0.00041133904317478936,0.0009391907007160586,0.0008283723733051457,0.00013229829745716365,0.00021420535340605868,-0.0004716031482778362,0.3442876636981964,-23.56198501586914,19.477951049804688,17.87512969970703,0.8961893320083618,2.3604629039764404,-0.11347807943820953,,,,,,,,,
1739401016.6206331,-0.707592148043309,0.676443232924962,1.4193574403320068,-1.8792927071589558,-0.7103079216199714,1.948416676132335,0.18673945224504185,-0.0010946714517697839,-0.00040679620681234444,-0.001133438214197688,-0.0009560820357511582,-0.0009003458114059837,0.0005781729070545932,0.0013501192793266992,0.2927129566669464,-23.56198501586914,19.501754760742188,17.92273712158203,0.8769632577896118,2.3604629039764404,-0.13361968100070953,,,,,,,,,
1739401016.6306963,-0.7075912917363508,0.6764449454470135,1.4193623485051428,-1.8792905576836958,-0.7103095905479039,1.948412739611704,0.18673015464211837,-0.0006072562656291162,-0.0007807724362929753,0.0013146302511056792,-0.0003051033044190635,-0.0007692090395153814,-0.0003868253097511886,-0.0005263182331299645,0.2689092457294464,-23.58578872680664,19.477951049804688,17.92273712158203,0.8769632577896118,2.3668715953826904,-0.06678618490695953,,,,,,,,,
1739401016.6416647,-0.7075900911450198,0.6764470515015732,1.4193577650213103,-1.8792885128114178,-0.7103088029131439,1.9484127396117041,0.1867309851431526,0.00012539119958179695,0.000305457104926849,-0.000729936369793571,-0.0017236361933654271,0.00020184652724583065,-0.00028006128459542363,-0.0013203260033539683,0.2689092457294464,-23.58578872680664,19.529525756835938,17.89893341064453,0.8833719491958618,2.3668715953826904,-0.10066069662570953,,,,,,,,,
1739401016.6525836,-0.7075903295924874,0.6764463490395457,1.41935670777081,-1.8792860152042306,-0.7103087984892618,1.948412739557869,0.18673117771307118,0.0007406903805999165,-0.0009158010400029241,-0.0001910776151745387,0.0017336592975595224,0.0007676364109760491,-0.0002254192607034018,-0.0019469313221133575,0.2689092457294464,-23.58578872680664,19.553329467773438,17.87512969970703,0.8833719491958618,2.3668715953826904,-0.06678618490695953,,,,,,,,,
1739401016.6626627,-0.7075904355207845,0.6764490484794417,1.4193556172191528,-1.879289952438443,-0.7103112594799764,1.9484127395578688,0.18673221538701604,0.00039613080573567785,-0.0005993371737295276,1.155332336815322e-05,0.00029916120603388694,0.0009716693530007471,-0.0006093943692801391,0.0006661163328108271,0.2689092457294464,-23.61355972290039,19.529525756835938,17.89893341064453,0.8769632577896118,2.3668715953826904,-0.10706938803195953,,,,,,,,,
1739401016.6736052,-0.7075921480433096,0.6764507619750407,1.41935465036067,-1.8792900201860083,-0.7103072876024084,1.9484134930726371,0.18673336641714997,-0.00160544118468288,-0.001115374543841938,1.6533971255963865e-05,0.0004098762854112115,0.000706380904608556,-0.0005229044206162337,-0.0004856560650876715,0.2927129566669464,-23.63736343383789,19.577133178710938,17.89893341064453,0.8705545663833618,2.3604629039764404,-0.09425200521945953,,,,,,,,,
1739401016.6836526,-0.7075901999929305,0.6764527599158994,1.4193528439951826,-1.8792945774682457,-0.7103092753264701,1.9484134972178768,0.186738038809245,-0.0004349753273489348,-0.0006675385250484308,-8.878568685961153e-05,-0.000924254289846594,0.0007830497152286056,-0.00017673303161177352,0.0013139454008950634,0.2689092457294464,-23.66513442993164,19.604904174804688,17.94654083251953,0.8833719491958618,2.3604629039764404,-0.14735259115695953,,,,,,,,,
1739401016.693681,-0.7075921480393209,0.6764507619750463,1.4193517105351559,-1.8792966582560457,-0.7103102608355624,1.9484127395578685,0.18673884819527758,-0.0011632277588111749,-0.0010430645637218424,0.0002980959660932481,-0.000591387624275125,0.00042447413864734414,0.00010587214526921577,0.001260303892713752,0.2927129566669464,-23.63736343383789,19.577133178710938,17.97431182861328,0.8961893320083618,2.3668715953826904,-0.12721098959445953,,,,,,,,,
1739401016.7037024,-0.7075904384115095,0.6764527599158994,1.419347843980263,-1.8792945745416216,-0.7103099905812352,1.948413497217947,0.18673675486216526,-0.000937746568977124,-0.0005946120009190194,-0.0006104133380229387,0.0005534774915181704,-0.0009748422866742031,-0.00035056904368375806,0.000973345486203291,0.2689092457294464,-23.66513442993164,19.628707885742188,17.94654083251953,0.8833719491958618,2.3604629039764404,-0.11347807943820953,,,,,,,,,
1739401016.7145793,-0.7075921480433259,0.6764544997512623,1.4193516299176476,-1.8792965786741644,-0.710308160699275,1.948413497217947,0.18673241609597152,-0.0008398906374356671,0.00031855296471617147,8.439778429199279e-05,-0.0006090359785140989,0.0006297767139532305,-8.853638018791311e-05,-0.00020255435365760784,0.2927129566669464,-23.68893814086914,19.577133178710938,17.97431182861328,0.8769632577896118,2.3604629039764404,-0.07411040365695953,,,,,,,,,
1739401016.7245991,-0.7075904233127563,0.6764508429200882,1.4193496384296735,-1.8792944725010465,-0.7103132489714101,1.9484127395578685,0.18673493712822523,-1.0860367702857489e-05,-0.0007633398360088847,2.7777828531877548e-05,-0.00043393035778517325,-0.0005924180284315952,-9.044879278383169e-05,-0.0005675894196695761,0.2689092457294464,-23.63736343383789,19.604904174804688,17.94654083251953,0.8833719491958618,2.3668715953826904,-0.09425200521945953,,,,,,,,,
1739401016.7357311,-0.7075901842398729,0.6764526071915344,1.4193516957757861,-1.8792944986645042,-0.7103072832444495,1.9484127395578685,0.18673805527074358,0.000520061772418645,0.00019324638395431078,-5.232332339105369e-05,0.0007567316782120053,0.0005069261277462084,-9.273358474049684e-05,0.00075562315649711,0.2689092457294464,-23.66513442993164,19.577133178710938,17.94654083251953,0.8705545663833618,2.3668715953826904,-0.12080229818820953,,,,,,,,,
1739401016.746645,-0.7075921467346417,0.6764500600138471,1.419355255121597,-1.8792910205978026,-0.7103093194961533,1.948413497217947,0.18673753329279205,-0.00040351474011395835,0.000647412445053663,0.0005400936062830483,0.0007536120280797181,-0.0007656833116638769,0.00024143081987502299,0.00024171948996036747,0.2927129566669464,-23.63736343383789,19.529525756835938,17.89893341064453,0.8833719491958618,2.3604629039764404,-0.10706938803195953,,,,,,,,,
1739401016.756695,-0.7075914162473597,0.6764490584362695,1.419353490432,-1.8792910101688565,-0.7103106311675617,1.9484127395578685,0.18673961046373527,0.00044112746337232676,-0.000660810889097107,-0.00041470838869746025,0.0006414658824030291,-0.0012808670721176864,0.00029954120192589946,0.002390526970430677,0.2927129566669464,-23.61355972290039,19.553329467773438,17.89893341064453,0.8897806406021118,2.3668715953826904,-0.13361968100070953,,,,,,,,,
1739401016.7676558,-0.707592149314886,0.6764492370172559,1.4193534979544271,-1.8792892304351003,-0.7103072831872856,1.9484142548780252,0.18672700496529782,-0.0008547086822771029,-0.001025029917645583,-0.0007968693228507774,0.0006121050464402385,0.0004853418560550257,0.00024164335610565423,-0.0026026465042111894,0.2927129566669464,-23.58578872680664,19.553329467773438,17.87512969970703,0.8705545663833618,2.3540542125701904,-0.05396880581974983,,,,,,,,,
1739401016.7796118,-0.707592182722374,0.6764469434276454,1.4193559903394612,-1.8792910118039738,-0.7103083560526862,1.9484157606977661,0.18673398788253667,-0.0010045670482716497,-0.0001411785149858486,-0.00023960363394731214,-0.0009024218622077076,0.00035274807395576843,0.0006447505785434124,-0.00021743324457764834,0.2927129566669464,-23.61355972290039,19.529525756835938,17.89893341064453,0.8705545663833618,2.3403213024139404,-0.11347807943820953,,,,,,,,,
1739401016.7896504,-0.7075923820469256,0.6764470515769427,1.419358451809713,-1.8792862634483807,-0.7103080423069346,1.9484134972172824,0.1867333311604265,-0.0004743333600868366,0.0008721496433043807,0.0008330443305011089,0.0016591354839742146,9.403189687741135e-05,0.00036995247563910416,-0.0001072232678527589,0.2927129566669464,-23.58578872680664,19.529525756835938,17.87512969970703,0.8769632577896118,2.3604629039764404,-0.08051909506320953,,,,,,,,,
1739401016.8005755,-0.7075922260484125,0.6764490354457258,1.4193603043504466,-1.8792927151759196,-0.7103112568120902,1.9484127395578685,0.1867317078379058,-0.0008051068967266612,8.16617978001547e-05,0.001144144430806438,-0.0010629693739861437,0.0002223955947860607,-0.0002925174390572317,-0.0009788955620422227,0.2927129566669464,-23.61355972290039,19.501754760742188,17.92273712158203,0.8705545663833618,2.3668715953826904,-0.06678618490695953,,,,,,,,,
1739401016.8106506,-0.7075874570898474,0.676448655587527,1.4193535816955676,-1.879288867344502,-0.7103074423552634,1.948413497217947,0.18673192875104414,0.0012883194355552763,-0.0007605891840562514,-0.002317381024974345,0.00043979649538176133,0.00013540830476092358,-0.0002931473069551019,-0.002752093968440035,0.2411382496356964,-23.63736343383789,19.553329467773438,17.89893341064453,0.8705545663833618,2.3604629039764404,-0.08051909506320953,,,,,,,,,
1739401016.8206584,-0.7075855765089621,0.6764453273299907,1.4193519713613036,-1.8792899225564168,-0.7103087984973244,1.9484150125381037,0.18673384325627668,0.0022161884736781835,-0.0004862080715809221,-0.0008428991725233883,-4.315035153170598e-05,0.001118006719464652,0.00025662770091595087,-0.0011190243596714386,0.2411382496356964,-23.56198501586914,19.577133178710938,17.92273712158203,0.8833719491958618,2.3476455211639404,-0.12080229818820953,,,,,,,,,
1739401016.8326983,-0.7075904384061259,0.6764470515134401,1.4193499753038505,-1.8792924392575865,-0.7103080806200965,1.9484132105081484,0.18673495427800552,-0.0008352351554784352,-0.0006619658278533593,-0.0005270102036600316,0.0011965798068811285,-9.024993937582062e-05,2.1299012342954093e-05,-0.0012188954896174375,0.2689092457294464,-23.58578872680664,19.604904174804688,17.89893341064453,0.8769632577896118,2.3668715953826904,-0.09425200521945953,,,,,,,,,
1739401016.8446863,-0.7075864867850837,0.6764470515134621,1.4193518090545467,-1.8792967211351954,-0.7103121895493582,1.9484127395587547,0.1867317091515628,0.0014011869415875232,-0.0025651199425017947,-0.000445870599236915,-0.001585328621565434,-0.0005940075888664114,-0.00019244729442721784,-0.0020579176922317856,0.2173345386981964,-23.58578872680664,19.604904174804688,17.94654083251953,0.8833719491958618,2.3668715953826904,-0.06678618490695953,,,,,,,,,
1739401016.8556495,-0.7075884375803804,0.6764544994181569,1.4193506285223807,-1.879291717818741,-0.7103056620528406,1.9484127395578688,0.18673722922836591,0.0006704699141892203,-0.00012046253825776567,1.8939939469417126e-05,0.0015100917867337813,0.001250361261310874,-0.00011022845936756553,-0.0006787131426456984,0.2411382496356964,-23.68893814086914,19.628707885742188,17.94654083251953,0.8897806406021118,2.3668715953826904,-0.11347807943820953,,,,,,,,,
1739401016.8666477,-0.7075867251679916,0.6764555516978406,1.4193475602736005,-1.879292795736701,-0.7103087985217627,1.9484127395578688,0.18672938612824277,0.0004325185606700626,0.0003533554364391978,-0.0001861919887235496,-0.00011943067948516894,0.001029146818001337,5.7464721705874605e-05,-0.0023069398017956473,0.2173345386981964,-23.68893814086914,19.604904174804688,17.92273712158203,0.8833719491958618,2.3668715953826904,-0.07411040365695953,,,,,,,,,
1739401016.877582,-0.7075897202668413,0.6764549458657123,1.4193475633024115,-1.8792929101472535,-0.7103113910899891,1.948413497200002,0.18673722922236533,0.0008280907325482851,-0.0007749283805079566,-0.0006316458894253286,-0.00035737944074630545,-0.0009040312022485724,0.0007514315900601628,-0.0004792239022728638,0.2689092457294464,-23.66513442993164,19.604904174804688,17.92273712158203,0.8961893320083618,2.3604629039764404,-0.11347807943820953,,,,,,,,,
1739401016.8876345,-0.7075939895545124,0.6764549454565604,1.4193476115225663,-1.8792944691248266,-0.7103087985074807,1.9484134841359946,0.18673647221834733,-0.0013292763762387987,-0.00073358666849292,-0.0006936435511450302,0.0003379761460446856,0.000404950565138516,0.00043295328904758386,0.0006209836817785679,0.3165166676044464,-23.66513442993164,19.628707885742188,17.94654083251953,0.8833719491958618,2.3604629039764404,-0.10706938803195953,,,,,,,,,
1739401016.8977222,-0.7075921480454941,0.67645367701623,1.4193533870809232,-1.8792925573687573,-0.7103095561493155,1.9484134972177256,0.1867349694118562,0.00029750875641915825,0.00025993364961658433,0.00012206639978578487,0.0004957091059919381,0.0009710685501686104,0.00015448825588477497,-0.001100938957549531,0.2927129566669464,-23.63736343383789,19.553329467773438,17.92273712158203,0.8897806406021118,2.3604629039764404,-0.09425200521945953,,,,,,,,,
1739401016.9086814,-0.7075885157255288,0.676450762324607,1.4193534861491168,-1.8792927130444945,-0.7103112589894032,1.948413497217947,0.18673647156836176,0.0011167746130898454,-0.0014496323172035945,2.5715955792624673e-05,-0.0010236075516752343,0.0003716099084652627,0.000582945459769558,-0.00011001199651530358,0.2411382496356964,-23.63736343383789,19.553329467773438,17.92273712158203,0.8769632577896118,2.3604629039764404,-0.10706938803195953,,,,,,,,,
1739401016.9196508,-0.7075921740441308,0.6764499655183197,1.4193517179058723,-1.8792909332027772,-0.7103100345308678,1.9484127395578685,0.18674119463456568,-0.000548864327782144,0.00013854716979235058,0.0006709097236197003,0.00028077425081291126,-0.0007980053899795371,0.00024203582112515632,0.0004905177447799376,0.2927129566669464,-23.58578872680664,19.577133178710938,17.89893341064453,0.8897806406021118,2.3668715953826904,-0.14735259115695953,,,,,,,,,
1739401016.9296532,-0.70759214804375,0.676449049503664,1.4193525167421641,-1.8792928208615767,-0.7103103535539248,1.9484131440052372,0.18673333269015333,3.0275516776238383e-05,-0.0007000573857586091,-0.0011614907489276688,-0.0002415359314838451,0.0015121669214802152,1.4289537493634424e-05,-0.0008363445249951645,0.2927129566669464,-23.61355972290039,19.529525756835938,17.92273712158203,0.8961893320083618,2.3604629039764404,-0.08051909506320953,,,,,,,,,
1739401016.940622,-0.7075921392129919,0.6764454199743221,1.419357355827044,-1.8792892215686352,-0.7103087985439693,1.9484119814112797,0.18673722874233492,0.00028123746751327803,-0.0006565131842346792,-7.206534034327321e-05,0.0012832808022710898,-8.546504634674443e-05,-0.0001565507540065234,-0.00018466752784346727,0.2927129566669464,-23.56198501586914,19.501754760742188,17.87512969970703,0.8833719491958618,2.3732802867889404,-0.11347807943820953,,,,,,,,,
1739401016.951606,-0.7075891655923163,0.6764507649734508,1.419358141690736,-1.879292759159672,-0.7103091687114722,1.9484142548780226,0.18673647173079969,-0.00045687663529456397,0.0018090735085200108,-0.0011850755813881382,-0.0006903085336969244,8.880609305097714e-05,0.00042558147655296545,0.0006585563601657044,0.2411382496356964,-23.63736343383789,19.529525756835938,17.92273712158203,0.8769632577896118,2.3540542125701904,-0.10706938803195953,,,,,,,,,
1739401016.9616275,-0.7075904356419048,0.6764487374498056,1.4193591637509753,-1.8792910131115488,-0.7103099130906663,1.9484134970564415,0.1867409521868889,0.00015059740686567763,-0.0005377938011946081,-0.0005382113300431033,-0.00046617064215882326,0.00020759777872620587,-0.0005930264972445669,0.0019616975823665045,0.2689092457294464,-23.61355972290039,19.477951049804688,17.89893341064453,0.8833719491958618,2.3604629039764404,-0.14094389975070953,,,,,,,,,
1739401016.9716642,-0.7075884375817275,0.6764487674239448,1.4193577648946487,-1.8792945784662072,-0.7103072853137733,1.9484134972179443,0.1867351585700044,-0.0003069858868863512,-0.000626704846556754,0.00048733423990842827,-0.0014119101774305322,0.0001822043249659342,-0.0003153359432411281,-0.0004971101767910687,0.2411382496356964,-23.61355972290039,19.529525756835938,17.94654083251953,0.8705545663833618,2.3604629039764404,-0.08692778646945953,,,,,,,,,
1739401016.9826329,-0.7075914327875724,0.6764527599143073,1.4193563511422564,-1.8792907742211862,-0.7103109936497927,1.9484139010192931,0.1867340903569285,-0.0003515472127297117,0.0011194208877764594,0.0008512112876337685,0.0014945777473351954,-0.0012831744868673494,0.00033674770911902146,-0.0010278335615515417,0.2927129566669464,-23.66513442993164,19.553329467773438,17.89893341064453,0.8641458749771118,2.3540542125701904,-0.08692778646945953,,,,,,,,,
1739401016.9936192,-0.7075921480311967,0.6764469434235331,1.4193496296491204,-1.8792945691957788,-0.7103080541503035,1.9484150125321111,0.186739610445755,-0.0010029331816842103,-0.000658332109984449,-0.0012720446220158717,-0.00024333413013317886,0.0012601586367845165,0.0013505712005709282,0.0013225243911206663,0.2927129566669464,-23.61355972290039,19.604904174804688,17.94654083251953,0.8769632577896118,2.3476455211639404,-0.13361968100070953,,,,,,,,,
1739401017.0036585,-0.7075903560497186,0.6764510044759032,1.419353489269459,-1.8792944636720244,-0.710308041319807,1.9484127395578685,0.18673850320074506,-0.0012690422988394616,2.1289000562181668e-05,0.000621222511190825,-0.00017241515057984073,0.0015583897613223414,-0.0007257600858338119,0.00143182500424396,0.2689092457294464,-23.63736343383789,19.553329467773438,17.94654083251953,0.8769632577896118,2.3668715953826904,-0.12080229818820953,,,,,,,,,
1739401017.0146136,-0.7075884626005104,0.6764557140057907,1.4193450889210582,-1.8792966582554147,-0.7103138653443773,1.9484169781103857,0.1867404763452909,0.0004465119891146975,0.0015547012245413119,-0.0006499206919757535,-0.0015866754133889952,-0.0009722999545006273,0.0016199460538843578,0.0012681575992036388,0.2411382496356964,-23.66513442993164,19.628707885742188,17.97431182861328,0.8897806406021118,2.3668715953826904,-0.14094389975070953,,,,,,,,,
1739401017.0246503,-0.7075918978513972,0.6764564714268271,1.4193467827394992,-1.8792899081662693,-0.7103132286018063,1.9484142549498056,0.1867357533993524,0.00024005018294431338,4.5627654833616384e-05,0.0006836231520724147,0.00018717339333970567,-0.0016084110120536748,0.0012030221824130922,0.00029569232789877385,0.2927129566669464,-23.71670913696289,19.604904174804688,17.92273712158203,0.8833719491958618,2.3540542125701904,-0.10066069662570953,,,,,,,,,
1739401017.0356114,-0.7075894857344237,0.6764564793713316,1.4193478094961565,-1.8792944861858045,-0.7103095568284209,1.9484142490638248,0.18673967620165308,0.0008031847802920514,-0.00018496974237745635,0.00010539421763360675,-0.0011636997212876037,0.00033906661790461827,0.0011311860022040232,0.0025297057603376775,0.2689092457294464,-23.71670913696289,19.628707885742188,17.94654083251953,0.8897806406021118,2.3540542125701904,-0.10706938803195953,,,,,,,,,
1739401017.0456858,-0.7075921480272249,0.6764527866876209,1.4193465357708586,-1.879288276759271,-0.710310235541699,1.9484134967333318,0.18673475491379263,0.0005980970908174458,-0.0016964972841026302,-0.0018583484332828216,0.000833739296915506,-0.0006519988504680775,-0.00038135139769000586,-0.00012461515708813244,0.2927129566669464,-23.66513442993164,19.604904174804688,17.87512969970703,0.8833719491958618,2.3604629039764404,-0.08051909506320953,,,,,,,,,
1739401017.0567303,-0.7075914327875722,0.6764564735236288,1.4193486338101313,-1.879290252543278,-0.7103065829141794,1.9484127395578659,0.18673571391623758,0.0005895361809812709,0.0007576399843872589,-0.0010571625897459293,-0.0003087922901708575,0.001202716461124085,0.0003435815279798747,0.00025957954212952206,0.2927129566669464,-23.71670913696289,19.577133178710938,17.92273712158203,0.8641458749771118,2.3668715953826904,-0.10066069662570953,,,,,,,,,
1739401017.0676606,-0.7075904441853341,0.676451493511237,1.4193534886868275,-1.8792907707546476,-0.7103110235175747,1.9484103182497239,0.18673809512559822,0.0003847159375260899,-0.0003901478128115648,-4.919572688199926e-05,0.0007470232258009066,-0.0020024833409505675,1.6658599456468855e-05,0.0003795791394536832,0.2689092457294464,-23.63736343383789,19.553329467773438,17.89893341064453,0.8705545663833618,2.3604629039764404,-0.12080229818820953,,,,,,,,,
1739401017.0776615,-0.7075914327877191,0.6764514778040835,1.4193534881792722,-1.8792917144957144,-0.7103085348482014,1.94841349134991,0.18673663392076525,6.215604767989243e-05,-0.00032250051739662476,-0.00015478261659090416,-0.0012363067550332611,-0.0004152861238511734,0.0007162780464267398,0.0008132743466917414,0.2927129566669464,-23.61355972290039,19.553329467773438,17.94654083251953,0.8705545663833618,2.3604629039764404,-0.10706938803195953,,,,,,,,,
1739401017.0888176,-0.7075884386833281,0.6764537123020838,1.4193591342679757,-1.8792906952045632,-0.7103088558933679,1.948414959725745,0.1867309015033194,0.0008478249908831856,0.0007704981550611028,-3.176155797161373e-05,0.000560698695560976,0.00035239430448001907,0.00036060014284551714,-0.0014737222085368243,0.2411382496356964,-23.63736343383789,19.477951049804688,17.89893341064453,0.8833719491958618,2.3476455211639404,-0.08692778646945953,,,,,,,,,
1739401017.0995796,-0.7075884375817317,0.6764491304525608,1.419355272128155,-1.8792909326563683,-0.7103091580797224,1.9484116286847823,0.1867368400022077,0.0008529194473268605,7.834738312255678e-05,-0.0011612053300822974,-0.00043706165497467983,0.0025120352986753745,-4.887855127544275e-05,0.0015453761421037491,0.2411382496356964,-23.61355972290039,19.529525756835938,17.89893341064453,0.8833719491958618,2.3732802867889404,-0.07411040365695953,,,,,,,,,
1739401017.1096535,-0.7075904355225785,0.6764490491346945,1.4193573780819206,-1.8792943400462656,-0.7103142452176516,1.948414255033549,0.1867381346889691,-0.00020133048762531962,0.000763911553163871,0.0004833652909931355,-0.0014930760786195751,-0.0021767698622904594,0.0008365414553103228,0.00024729547233337426,0.2689092457294464,-23.61355972290039,19.501754760742188,17.94654083251953,0.8897806406021118,2.3540542125701904,-0.12080229818820953,,,,,,,,,
1739401017.1206381,-0.7075850086156773,0.6764486829257889,1.4193573517001277,-1.8792892216034864,-0.7103072839041559,1.9484120843671089,0.18673647156851078,0.0016347610910061954,0.0001964606737467539,0.0005002290541072907,-0.00011241012955432784,0.0008498794897984713,-0.0010927855229441487,-0.0006472100491374832,0.1935308277606964,-23.63736343383789,19.501754760742188,17.87512969970703,0.8705545663833618,2.3604629039764404,-0.10706938803195953,,,,,,,,,
1739401017.131655,-0.7075884375817033,0.6764470513947283,1.4193598848449898,-1.879288866036712,-0.7103117893535533,1.9484129870138351,0.18673524148620976,0.0007288994858022968,3.824776410024715e-05,0.0012451913317454342,0.0007825871400926443,0.0010987677339833496,-0.0009936777561445477,-0.0025267855951883215,0.2411382496356964,-23.58578872680664,19.477951049804688,17.89893341064453,0.8769632577896118,2.3604629039764404,-0.10066069662570953,,,,,,,,,
1739401017.1416965,-0.7075914356765035,0.6764490584481553,1.4193534921892539,-1.8792899769851927,-0.7103112727889346,1.9484127003033715,0.18673488600112054,-0.0008532945572026433,-0.0005054572482335175,-0.0001545035672576759,0.00024519341960701916,0.000576534689010283,9.550086038186186e-05,-2.2920001680137424e-05,0.2927129566669464,-23.61355972290039,19.553329467773438,17.89893341064453,0.8769632577896118,2.3668715953826904,-0.08051909506320953,,,,,,,,,
1739401017.1526132,-0.7075904090195612,0.6764514904764125,1.4193517064471202,-1.8792927927191858,-0.710311266075686,1.9484134448894734,0.18673490794241768,-0.0004300069709486137,-0.0002228452686374092,-0.0007808812895729359,0.0002830989548480538,0.0009339463465682091,0.00018909031001467191,-0.0011571194467871926,0.2689092457294464,-23.63736343383789,19.577133178710938,17.92273712158203,0.8769632577896118,2.3604629039764404,-0.06678618490695953,,,,,,,,,
1739401017.164572,-0.7075939400124006,0.6764510058094708,1.419351017682284,-1.879292473973158,-0.7103119872816408,1.9484131952397976,0.18673345165781388,-0.00078786254880296,-0.0011244311076548524,-0.00031597081891943503,-0.0006159891752253816,-0.0004095088656837149,0.00020537366184560514,0.00030277131535910945,0.3165166676044464,-23.63736343383789,19.577133178710938,17.92273712158203,0.8705545663833618,2.3540542125701904,-0.08051909506320953,,,,,,,,,
1739401017.1746922,-0.7075903559411509,0.6764528423053113,1.4193534888052632,-1.8792878214410609,-0.7103113121128556,1.9484134970504599,0.1867388527863481,0.0008208043800620906,0.0001206465199877727,0.00013528056844445263,0.0023209015819004525,-0.0007219063826396418,5.095771297967651e-05,0.0011005655180644826,0.2689092457294464,-23.66513442993164,19.553329467773438,17.89893341064453,0.8641458749771118,2.3604629039764404,-0.12721098959445953,,,,,,,,,
1739401017.1855788,-0.7075921480428604,0.6764507709693535,1.4193435831543428,-1.8792945694725174,-0.7103113057844028,1.9484127395040325,0.1867372292283658,0.00021194358436586787,-0.0022688752726241516,-0.002824981079707179,-0.0017147367994102102,0.0002720507841573583,0.00030662027205552325,-0.0011509150325457298,0.2927129566669464,-23.63736343383789,19.656478881835938,17.94654083251953,0.8769632577896118,2.3668715953826904,-0.11347807943820953,,,,,,,,,
1739401017.1956177,-0.707593084163988,0.6764508790061815,1.41934663346961,-1.8792927692980825,-0.7103098832108543,1.9484081477926407,0.18673961044575488,-0.001080074085984003,-0.0018882410480638738,-0.0017717725042692173,-0.0005758979114191856,-0.0007280027810397449,-0.0009027310525393597,0.0007471668884176548,0.2927129566669464,-23.63736343383789,19.604904174804688,17.92273712158203,0.8641458749771118,2.3668715953826904,-0.13361968100070953,,,,,,,,,
1739401017.2065957,-0.7075904441946562,0.6764511127355507,1.4193507102879621,-1.8792906588521445,-0.7103084111793642,1.948412739531948,0.18673619218983287,0.0001556424679550251,-0.0013763771800314381,7.661126666462428e-05,-0.0007125710088398248,0.0012456786465973705,0.0005465230840392059,0.0010145556365695116,0.2689092457294464,-23.63736343383789,19.577133178710938,17.92273712158203,0.8705545663833618,2.3668715953826904,-0.10066069662570953,,,,,,,,,
1739401017.2166295,-0.7075921392134324,0.6764560376895246,1.419349550077182,-1.8792927956806205,-0.7103095302667269,1.9484126944978097,0.1867331440026798,0.00039074910532036644,0.0006895178822326357,0.0006190576083836212,-0.000568851783868484,-0.0009188061243875638,-0.0012344467639833615,-0.0005726887376961143,0.2927129566669464,-23.66513442993164,19.604904174804688,17.92273712158203,0.8769632577896118,2.3668715953826904,-0.06678618490695953,,,,,,,,,
1739401017.227605,-0.7075904355225618,0.6764533077196936,1.4193534887040287,-1.8792927928457486,-0.7103085171815335,1.9484150124662387,0.18673722923106575,-0.00019972352997480518,0.0006074886919222755,0.0015631322102133299,-0.0008345926250365364,0.0008679400216701364,0.0010442520030354667,-0.001209705702870304,0.2689092457294464,-23.63736343383789,19.553329467773438,17.92273712158203,0.8705545663833618,2.3476455211639404,-0.11347807943820953,,,,,,,,,
1739401017.2386887,-0.7075886686417064,0.6764500824813781,1.4193573430876858,-1.87929101016868,-0.7103134615720017,1.9484131952398949,0.18673333269082007,-0.00010639362549295429,-0.0014140624726623108,0.0013898174239402937,-0.0002240820041922272,-0.0002558245946380095,0.000114195534845514,-0.001840814428758664,0.2411382496356964,-23.58578872680664,19.501754760742188,17.89893341064453,0.8833719491958618,2.3540542125701904,-0.08051909506320953,,,,,,,,,
1739401017.2496417,-0.7075904355230133,0.6764490887664396,1.4193571107134442,-1.8792907363804225,-0.7103084005007719,1.9484134579700965,0.1867368265025458,2.997348829060487e-05,-0.001299947217168773,-0.00034960861131773385,0.0008841596374225436,0.0022541208162214937,0.0004994203181034295,0.0009118532275242384,0.2689092457294464,-23.61355972290039,19.501754760742188,17.89893341064453,0.8769632577896118,2.3604629039764404,-0.10706938803195953,,,,,,,,,
1739401017.260608,-0.7075921741506871,0.6764512899393897,1.4193552714848108,-1.8792927163147661,-0.7103142814674763,1.9484142548778038,0.18674123416758423,-0.0015455385335986708,-0.0001749874836373567,-0.00047890249258524344,-3.484519974536308e-05,-0.002462723010873567,0.0008272247729936128,0.0015381924359149765,0.2927129566669464,-23.61355972290039,19.529525756835938,17.92273712158203,0.8769632577896118,2.3540542125701904,-0.14735259115695953,,,,,,,,,
1739401017.272642,-0.7075877223618013,0.6764475335028624,1.4193573528991552,-1.8792899799282055,-0.7103085709014844,1.9484134971641118,0.18673965448731883,0.0009762876323142626,-0.0007034601021636845,0.0005848127458264101,0.0007342570223825215,0.0007830312688383901,-0.00018407259907339985,0.001100447684466252,0.2411382496356964,-23.56198501586914,19.501754760742188,17.89893341064453,0.8769632577896118,2.3604629039764404,-0.13361968100070953,,,,,,,,,
1739401017.2836063,-0.707590470188406,0.6764493732367618,1.4193534901052363,-1.879290567603733,-0.7103128641641067,1.9484126872300596,0.18673659004180007,3.7327799627661805e-05,8.9421957874048e-06,2.2452223963178306e-05,0.00048252971718346137,-0.00019034738895106797,-1.733409431974435e-05,-0.0005659411193890799,0.2689092457294464,-23.61355972290039,19.553329467773438,17.92273712158203,0.8769632577896118,2.3668715953826904,-0.10706938803195953,,,,,,,,,
1739401017.294573,-0.7075921480435053,0.6764508439207692,1.41935351530011,-1.8792907468455244,-0.7103132506863601,1.9484149732919518,0.18673513176499176,0.0005792798525658383,-8.541884556559636e-05,-0.0005265630428637533,0.000698061980168074,-0.000508066185104078,0.0002466081004769036,-0.00023104651660448385,0.2927129566669464,-23.63736343383789,19.553329467773438,17.89893341064453,0.8833719491958618,2.3476455211639404,-0.09425200521945953,,,,,,,,,
1739401017.3046618,-0.707590446751254,0.6764472946816931,1.4193534636147238,-1.8792927946945162,-0.7103078176422264,1.9484099988822403,0.18674287527748298,3.445441469400203e-05,-0.000643712929508383,0.0003458861005504605,-1.745664292435422e-05,0.0012485706572165074,-0.0009312367765263575,0.0013844898288562454,0.2689092457294464,-23.58578872680664,19.553329467773438,17.92273712158203,0.8705545663833618,2.3540542125701904,-0.16108550131320953,,,,,,,,,
1739401017.314721,-0.7075902751053296,0.6764510327937445,1.4193563766375576,-1.8792907472214717,-0.7103078195381722,1.9484134971458715,0.18673974793373882,-0.0005856779899902158,-0.00029960825015788674,0.0015054760619973167,-0.00048547473113748227,0.0017101001697703668,0.0005817303968197931,0.0005854743807624862,0.2689092457294464,-23.63736343383789,19.553329467773438,17.89893341064453,0.8705545663833618,2.3604629039764404,-0.13361968100070953,,,,,,,,,
1739401017.324795,-0.7075881991604297,0.6764530148570482,1.4193517339680681,-1.8792925563849598,-0.7103120914496999,1.9484131440052361,0.18673759838667897,0.0002604644874343163,0.0003343644279607472,0.0005398578956823943,-0.00033594055688658764,0.002196102063374245,0.0009614239973569476,-0.00012677424947580478,0.2411382496356964,-23.66513442993164,19.577133178710938,17.92273712158203,0.8705545663833618,2.3604629039764404,-0.08051909506320953,,,,,,,,,
1739401017.3356225,-0.7075942539273908,0.6764538123079048,1.4193474838335953,-1.8792927162786381,-0.7103113534306092,1.9484142548760315,0.18673333276907167,-0.0006819002740364661,-0.0005289100274590347,-0.0005335195327661956,0.00020975902129995085,-0.0004591125937511974,3.9400568136518146e-05,-0.0018772185357236884,0.2927129566669464,-23.66513442993164,19.604904174804688,17.92273712158203,0.8641458749771118,2.3540542125701904,-0.08051909506320953,,,,,,,,,
1739401017.3465765,-0.707586725072882,0.6764548053627776,1.4193510911901501,-1.8792938619018258,-0.7103136395474156,1.9484124375798177,0.18673809512559864,0.0005250590672368074,0.0003528084102347493,0.0010315443215368504,-0.001013763510932193,-0.0010026524483787193,-0.0012685944906402767,0.0013430504749902404,0.2173345386981964,-23.68893814086914,19.553329467773438,17.94654083251953,0.8833719491958618,2.3604629039764404,-0.12080229818820953,,,,,,,,,
1739401017.356603,-0.70759213021915,0.6764548321959546,1.4193514001837984,-1.8792924748331588,-0.7103120979000519,1.9484127330797,0.1867380951255982,-0.0009569799359703725,0.000509034439114856,0.0006028681343321258,0.00015428752052670921,-0.00024689294579742505,0.0007969762028665166,-0.00024112222318816855,0.2927129566669464,-23.68893814086914,19.577133178710938,17.92273712158203,0.8705545663833618,2.3668715953826904,-0.12080229818820953,,,,,,,,,
1739401017.3666484,-0.7075884404703546,0.6764556739268476,1.4193531801667958,-1.8792927957837526,-0.7103120714086528,1.9484119818976806,0.1867354303043647,0.0003491765175315983,-0.0002831337198849875,0.0003070606301861631,-0.00016219105662120727,-0.0004362720975634964,-3.9459098175667184e-05,-0.00019623052277895748,0.2411382496356964,-23.66513442993164,19.553329467773438,17.92273712158203,0.8705545663833618,2.3732802867889404,-0.09425200521945953,,,,,,,,,
1739401017.3775957,-0.7075904330071453,0.6764507740202971,1.4193489365259624,-1.8792927948080416,-0.7103117944498354,1.9484142548780252,0.18673440047117035,0.00034366976860331744,-0.0003163930771438833,-0.0010618737404192074,5.3370264119192567e-05,-0.00025725839942802024,0.00042567150992888083,-0.0008856477606697269,0.2689092457294464,-23.63736343383789,19.604904174804688,17.92273712158203,0.8769632577896118,2.3540542125701904,-0.08051909506320953,,,,,,,,,
1739401017.3876092,-0.7075905440404547,0.6764553088641543,1.4193474578920313,-1.8792945129248992,-0.7103096486646535,1.948413497217947,0.18673515809248392,-4.308833861560327e-05,0.0008516506470780774,-0.001210303657690571,-0.00120348677384718,-0.0002825279360713296,-1.2849617788964586e-05,-0.0001409461800918945,0.2411382496356964,-23.68893814086914,19.604904174804688,17.97431182861328,0.8769632577896118,2.3604629039764404,-0.08692778646945953,,,,,,,,,
1739401017.3976424,-0.7075911375685122,0.6764491578387262,1.4193571879433287,-1.8792945695995582,-0.7103085757447085,1.9484140978945987,0.18673495691627304,2.250202407992494e-05,0.0003488348196631623,0.0012306740682520912,-0.0010484157966851252,-0.00019754786980813961,0.0006660578836133748,-0.0019436752038083992,0.2689092457294464,-23.61355972290039,19.529525756835938,17.94654083251953,0.8769632577896118,2.3540542125701904,-0.09425200521945953,,,,,,,,,
1739401017.4076664,-0.7075914327994616,0.676449049900291,1.4193514115244932,-1.879292795789038,-0.7103121066574447,1.9484142548753667,0.18673996732869033,0.0001898406135664158,-0.0015503891184207945,-0.001094271685189592,-0.0007379845790233337,-0.0005949842904173935,0.00045508081329014125,0.0010666202823364957,0.2927129566669464,-23.61355972290039,19.553329467773438,17.92273712158203,0.8705545663833618,2.3540542125701904,-0.13361968100070953,,,,,,,,,
1739401017.4186842,-0.7075884375776879,0.6764515277840523,1.4193534889723878,-1.879288989073132,-0.7103119919359921,1.9484142548780252,0.18673758486735628,0.0007438850014725542,0.0007968898016769769,-0.0007301924640682896,0.0005598550531979013,-0.001129824611455652,0.0006090468636409795,0.0007888766940008508,0.2411382496356964,-23.63736343383789,19.553329467773438,17.87512969970703,0.8705545663833618,2.3540542125701904,-0.11347807943820953,,,,,,,,,
1739401017.4296527,-0.7075905135237185,0.6764499925041672,1.4193534636142795,-1.8792906952193678,-0.7103104874237989,1.9484150125381037,0.18674047634499488,-0.0005055604714577096,-0.0014704158562589614,-0.0010359944935121714,-0.0006287097127200957,0.0001162118929884904,-0.00015676335307336796,0.0004321896395476009,0.2689092457294464,-23.58578872680664,19.553329467773438,17.89893341064453,0.8568216562271118,2.3476455211639404,-0.14094389975070953,,,,,,,,,
1739401017.440594,-0.7075884337645776,0.6764500337969743,1.4193592138497129,-1.8792944901612352,-0.7103135867290329,1.9484127395578685,0.1867396748254997,0.001208714994257892,0.00045562964746908105,0.001299230319425297,-0.0015039161973830159,-0.0002486966250325506,0.001326020233916914,0.0003857282783285271,0.2411382496356964,-23.61355972290039,19.477951049804688,17.94654083251953,0.8833719491958618,2.3668715953826904,-0.12080229818820953,,,,,,,,,
1739401017.4506173,-0.7075922260443851,0.6764507890842777,1.419353489125435,-1.8792888672344454,-0.7103136264647907,1.9484127259913997,0.18673718968888348,-0.00042139723895864584,-0.0003353364145021919,-0.0007121493794016908,0.0008791298699350993,-0.0010736006105749292,-0.00039058544897107894,-0.0009528756183427624,0.2927129566669464,-23.63736343383789,19.553329467773438,17.89893341064453,0.8833719491958618,2.3668715953826904,-0.07411040365695953,,,,,,,,,
1739401017.4606175,-0.7075905135250394,0.6764491613781431,1.4193552718011064,-1.8792882639695898,-0.7103114707322253,1.948409560643251,0.18673345124239943,0.0007514962143256481,-0.000784606014044381,0.000885067619777459,0.001860548663323712,0.0007672688849988049,-0.0005067224552422922,-0.0008657976071965836,0.2689092457294464,-23.61355972290039,19.529525756835938,17.87512969970703,0.8641458749771118,2.3668715953826904,-0.08051909506320953,,,,,,,,,
1739401017.4707196,-0.7075942801827902,0.676451742638841,1.4193517064470682,-1.8792888630769555,-0.7103113476003357,1.9484134971641118,0.1867371750825169,-0.0005570125262743675,2.5178526261807642e-05,0.00015911933777258008,0.0018209426718687094,-0.0005788338162365253,0.0013406204939617314,0.0006340940167122596,0.2927129566669464,-23.63736343383789,19.577133178710938,17.89893341064453,0.8641458749771118,2.3604629039764404,-0.10066069662570953,,,,,,,,,
1739401017.481596,-0.7075938865764569,0.6764512722712824,1.4193517036126453,-1.879290692119799,-0.7103152900596618,1.9484127395578683,0.1867367803940118,-0.0019177670091807633,-0.0008174952386873634,0.0007547894882470058,0.0018515413238521581,-0.0017697521405543562,-0.0004223050671038137,1.2228803556129438e-05,0.3165166676044464,-23.61355972290039,19.577133178710938,17.89893341064453,0.8705545663833618,2.3668715953826904,-0.10066069662570953,,,,,,,,,
1739401017.4915993,-0.7075904368069883,0.6764507633451109,1.4193517064470202,-1.8792888660313258,-0.7103152899500058,1.9484127395578685,0.18673543015991076,-3.520830990540745e-05,-0.0009381137014739043,0.00035285753688922767,0.0008270545937862687,0.0005678656416020363,0.001176288715841306,-0.001266323400073798,0.2689092457294464,-23.63736343383789,19.577133178710938,17.89893341064453,0.8705545663833618,2.3668715953826904,-0.09425200521945953,,,,,,,,,
1739401017.5016344,-0.7075904104226137,0.6764527702421858,1.4193513989646642,-1.8792927957528271,-0.7103104763344199,1.9484142548780252,0.18674372096284392,0.00025267954626744465,0.0005993438657598395,-0.0006294548391018926,-0.0005398042813698992,-3.392647721417116e-05,0.0013129771795011072,0.0022199211320827667,0.2689092457294464,-23.66513442993164,19.577133178710938,17.92273712158203,0.8568216562271118,2.3540542125701904,-0.14094389975070953,,,,,,,,,
1739401017.5125778,-0.7075904369134035,0.676453596380289,1.4193517031560021,-1.879294578466207,-0.7103121111452435,1.9484119818439551,0.18673810901186022,0.0002625009337051715,0.0002967305368213344,-8.27410471735367e-05,-0.00043025458627046266,9.286366960548843e-05,0.001190105952803263,-0.0006408669449111929,0.2689092457294464,-23.66513442993164,19.577133178710938,17.94654083251953,0.8705545663833618,2.3732802867889404,-0.12080229818820953,,,,,,,,,
1739401017.522661,-0.7075904359505918,0.6764512349721226,1.4193514228296793,-1.8792892216048325,-0.7103102806016227,1.9484098037467712,0.18673724239231537,0.0003018727384517103,-0.0005325800737832548,0.0006717596069655577,0.0008669473861379398,0.00038377554222973425,-0.0006802324745705913,-0.0010696999865155775,0.2689092457294464,-23.61355972290039,19.553329467773438,17.87512969970703,0.8641458749771118,2.3604629039764404,-0.11347807943820953,,,,,,,,,
1739401017.5336015,-0.7075921480433168,0.6764560395983313,1.419352798959588,-1.8792927953529737,-0.7103109825937141,1.9484123856365871,0.18674296719315372,-0.0006242115370094333,0.0020025684598720854,0.0005551403642693762,-0.00020479638403034925,0.0006569230265914345,0.0006253907655263528,0.0032719903737211623,0.2927129566669464,-23.66513442993164,19.553329467773438,17.92273712158203,0.8641458749771118,2.3668715953826904,-0.13361968100070953,,,,,,,,,
1739401017.544628,-0.7075921740436897,0.6764537699711067,1.419353259172934,-1.8792892304351494,-0.7103109958566621,1.948415012052921,0.18673409100727467,-0.0010298288674281347,0.00025765223756709716,-0.0010459948225889706,0.00012300196956728255,0.0005023608781224147,0.0017271899153940482,-0.0012710206942282633,0.2927129566669464,-23.63736343383789,19.553329467773438,17.87512969970703,0.8641458749771118,2.3476455211639404,-0.08692778646945953,,,,,,,,,
1739401017.5546343,-0.70759214804375,0.6764491575423967,1.4193534995292278,-1.8792945516482054,-0.7103124246155305,1.9484134579720822,0.18674149443436247,0.0006782393420712273,-0.0011230741051616775,0.0002442801688423805,-0.00038775679555670136,-0.00037673695250942,0.000716452472865163,0.0001012675777846118,0.2927129566669464,-23.61355972290039,19.553329467773438,17.94654083251953,0.8705545663833618,2.3604629039764404,-0.11347807943820953,,,,,,,,,
1739401017.5656166,-0.7075949561913498,0.6764559297474289,1.4193534891242634,-1.8792910131117149,-0.710312868810694,1.9484134972172824,0.1867380956853748,-0.0005233426667677207,0.0020736210157073966,0.00035380106122703077,9.490063054397936e-05,0.0007542514989365293,0.0017767795767119885,-0.0015481223876436837,0.2927129566669464,-23.66513442993164,19.553329467773438,17.89893341064453,0.8769632577896118,2.3604629039764404,-0.12080229818820953,,,,,,,,,
1739401017.5756288,-0.7075967680791395,0.6764490495092206,1.4193574175683183,-1.8792891911529548,-0.7103119521995875,1.9484088662068633,0.18673961645881276,-0.0019901400339775994,-0.00033300716287643084,0.0014146480943282985,0.00144729669886092,0.0007573246663785731,-0.0023717617974810252,-0.0002294976929556726,0.3442876636981964,-23.61355972290039,19.529525756835938,17.87512969970703,0.8705545663833618,2.3604629039764404,-0.13361968100070953,,,,,,,,,
1739401017.5866039,-0.7075897215559451,0.676453083805252,1.4193534891362003,-1.8792888673447352,-0.7103128688044881,1.948415876471127,0.18673700552969086,0.00015407308632286673,0.0025756545188286473,-0.0001498042569489733,-0.0011090136759678718,-0.0003756171973659292,0.0007682477503461836,-0.0008921691447712318,0.2689092457294464,-23.66513442993164,19.553329467773438,17.89893341064453,0.8769632577896118,2.3403213024139404,-0.08051909506320953,,,,,,,,,
1739401017.5975764,-0.7075921480392793,0.6764516073980364,1.4193559866369292,-1.879286328977566,-0.710313625811366,1.9484124369337843,0.18673684079917718,-0.00016934043477010168,0.0025104900224634345,4.888108693710028e-05,0.0010243654741392385,0.00034029327666780024,-0.001353828320558502,-4.279873504860394e-05,0.2927129566669464,-23.63736343383789,19.529525756835938,17.84735870361328,0.8833719491958618,2.3604629039764404,-0.07411040365695953,,,,,,,,,
1739401017.608589,-0.7075904355225784,0.6764514782501525,1.4193518128590519,-1.8792862624533264,-0.7103124643580057,1.9484122762177845,0.18674423244439076,-0.0007477353730972283,-2.0643401396451347e-05,-0.00019883334447239553,0.0014025580765922867,-0.0003342205042474088,-0.0010203136674240734,0.0027381821570870886,0.2689092457294464,-23.61355972290039,19.577133178710938,17.87512969970703,0.8705545663833618,2.3604629039764404,-0.13361968100070953,,,,,,,,,
1739401017.618671,-0.7075905436125075,0.6764527952751067,1.4193534125952676,-1.879292557026806,-0.7103128641741878,1.9484130914551951,0.18673678068271304,-9.52025911643247e-06,0.0014167393215811712,-0.0006035795268105679,-0.001761322405809439,-0.00039396136739522526,-0.0012022766635606528,-0.0008882147939803862,0.2411382496356964,-23.66513442993164,19.553329467773438,17.92273712158203,0.8769632577896118,2.3604629039764404,-0.10066069662570953,,,,,,,,,
1739401017.6286864,-0.7075904356652417,0.6764510417840673,1.4193534891227912,-1.8792927571933857,-0.7103128688053069,1.9484124375729461,0.1867420530489803,0.0003685314068717612,-8.914873800677468e-05,-0.0001272225271220427,-0.0006574475420008667,-0.00028178092677680767,-0.0008478774049953586,0.0014890998815503941,0.2689092457294464,-23.63736343383789,19.553329467773438,17.92273712158203,0.8769632577896118,2.3604629039764404,-0.12721098959445953,,,,,,,,,
1739401017.6396594,-0.7075921480433104,0.6764502367786178,1.4193517859199278,-1.8792943282736532,-0.710312111145307,1.9484130262616857,0.1867392103908979,-0.00036988474773500094,-0.0001277831408301761,-0.00027811065678152704,-0.0008424931169262486,-0.0007094312048391683,0.0003787442730982234,-0.0005356089312644707,0.2927129566669464,-23.58578872680664,19.577133178710938,17.94654083251953,0.8705545663833618,2.3604629039764404,-0.12721098959445953,,,,,,,,,
1739401017.6506577,-0.7075894857001702,0.676452796020284,1.4193544429078686,-1.8792906372656604,-0.7103136127294138,1.9484127335795034,0.18673789915617442,-0.0006475479633260613,-0.000725540811380477,0.0015747673135507723,-0.00010611982070214418,-0.00154766228074237,0.00036953062405085946,0.0010439835902179189,0.2689092457294464,-23.66513442993164,19.553329467773438,17.92273712158203,0.8833719491958618,2.3668715953826904,-0.10706938803195953,,,,,,,,,
1739401017.6615944,-0.7075904602094014,0.6764490524524663,1.4193475603332517,-1.879289230313949,-0.7103100107507604,1.9484103182496901,0.18673542569693802,0.0002613938193546777,-0.0014999372773416527,-0.0012631338259266097,0.0015249793924458214,0.0004383551985078864,0.0016631142660824428,-0.00035140365065256896,0.2689092457294464,-23.61355972290039,19.604904174804688,17.87512969970703,0.8568216562271118,2.3604629039764404,-0.06678618490695953,,,,,,,,,
1739401017.6716359,-0.7075900022765158,0.6764527719077397,1.4193509806948132,-1.8792945784662052,-0.7103121503830884,1.948412980669257,0.1867369981798044,6.032327419957297e-05,-0.0012367598095173028,-0.000253877179679621,-0.0013930129749408447,-0.0008447738807679,5.9093594614885756e-05,0.0013556066477368775,0.2927129566669464,-23.66513442993164,19.577133178710938,17.94654083251953,0.8705545663833618,2.3604629039764404,-0.10706938803195953,,,,,,,,,
1739401017.6826582,-0.7075921489941738,0.6764538491701826,1.4193507848005955,-1.8792945784298685,-0.7103121111455285,1.9484138973017489,0.18674103651778928,-0.001287971927509936,0.001107603559605507,-5.4829180504186305e-06,-0.0007841049477001317,0.0004883793120287713,0.00024697455765229225,0.0002601799835174311,0.2927129566669464,-23.66513442993164,19.577133178710938,17.94654083251953,0.8705545663833618,2.3540542125701904,-0.13361968100070953,,,,,,,,,
1739401017.6946306,-0.707590117631145,0.6764493743861439,1.4193514387463617,-1.8792888660367617,-0.7103113529946554,1.948408685243814,0.18674224848488186,0.0004227694693320264,-0.0014615483167008125,9.973113099389914e-06,0.0008324608139771604,0.00020434509865370818,-0.00021450168930924643,0.001371043776597116,0.2689092457294464,-23.61355972290039,19.577133178710938,17.89893341064453,0.8641458749771118,2.3732802867889404,-0.14735259115695953,,,,,,,,,
1739401017.7047036,-0.7075910072023947,0.6764537030742978,1.4193531561303654,-1.8792944988358722,-0.7103128681512849,1.9484126826354584,0.18674127366245064,-8.97431353876504e-05,-0.0009564018183825723,-0.0011290018752784063,0.0010742048062820785,0.0007861961547187595,0.0009381569577629335,0.0006865805911633947,0.2411382496356964,-23.63736343383789,19.553329467773438,17.94654083251953,0.8769632577896118,2.3668715953826904,-0.14735259115695953,,,,,,,,,
1739401017.714765,-0.7075921480868265,0.6764470515632698,1.419355194846132,-1.8792927162059636,-0.710312071408866,1.948408461274014,0.18673446348599343,-0.0007180059298480892,-0.0014405115812135606,-0.00011953597779980189,-0.0009954221763212759,-0.0004093639914960699,-0.0013239448142007564,0.0002978040343519095,0.2927129566669464,-23.58578872680664,19.529525756835938,17.92273712158203,0.8705545663833618,2.3668715953826904,-0.08692778646945953,,,,,,,,,
1739401017.7256436,-0.7075938605640412,0.676454562412064,1.4193534632989102,-1.8792906411912091,-0.7103135130701508,1.948413497193796,0.18674047634509364,-0.0006503500049137176,0.00022885409127367364,4.4490179129934846e-05,-0.0007044504816888517,-4.0211011601421116e-05,0.0009730062600959704,0.0011527859844631008,0.3165166676044464,-23.68893814086914,19.553329467773438,17.92273712158203,0.8833719491958618,2.3604629039764404,-0.14094389975070953,,,,,,,,,
1739401017.736597,-0.7075897202668412,0.6764473766247083,1.4193552718009605,-1.879288521496852,-0.7103117959211392,1.9484124375798175,0.18673886600356263,0.0001451062335609747,-0.000719226937846868,0.00048295787311644146,0.00020920314821872178,-0.00018519021984891813,-0.0010843818417250945,0.0012552925762077283,0.2689092457294464,-23.58578872680664,19.529525756835938,17.89893341064453,0.8769632577896118,2.3604629039764404,-0.12721098959445953,,,,,,,,,
1739401017.7485983,-0.7075884376133535,0.6764491703733615,1.4193534979544051,-1.8792906372530076,-0.7103125154776028,1.9484127395518869,0.18673126446264007,0.000995100307389855,0.0005312848386272242,-0.00038225045804580766,-0.0005915502501969549,0.0006993850860580588,-0.00012227358452285915,-0.0022102498573256042,0.2411382496356964,-23.61355972290039,19.553329467773438,17.92273712158203,0.8769632577896118,2.3668715953826904,-0.05396880581974983,,,,,,,,,
1739401017.758667,-0.7075925416960239,0.6764537599231112,1.4193559869169219,-1.879288069660736,-0.7103112342739445,1.9484105688316105,0.1867333341594988,-0.001344746296006504,0.0005953892219234186,0.000477412867263193,0.0007074966443559234,9.046783540441616e-05,-0.0016388184199532842,-0.00167452897771772,0.2689092457294464,-23.63736343383789,19.529525756835938,17.89893341064453,0.8641458749771118,2.3732802867889404,-0.08051909506320953,,,,,,,,,
1739401017.769578,-0.7075885145402581,0.6764491424446192,1.4193535007969025,-1.8792944860764733,-0.7103113534845557,1.9484131251011072,0.186742518621195,0.0007689206405431287,-0.0004019992290085631,-0.00035528425311739107,-0.0014264385287374526,7.324882109534448e-05,-0.0018255533992046651,0.0016549012653101366,0.2411382496356964,-23.61355972290039,19.553329467773438,17.94654083251953,0.8641458749771118,2.3604629039764404,-0.12080229818820953,,,,,,,,,
1739401017.7796357,-0.7075904470796062,0.6764519905533071,1.4193517063422871,-1.879292557260028,-0.710312111145307,1.9484131439989354,0.18674427063808519,7.669236456158812e-05,0.001061482368370043,-0.0002916835155032285,-0.0005101481950170593,-0.0006385345276389001,-0.0006659340327257256,0.0026550808489352934,0.2689092457294464,-23.61355972290039,19.577133178710938,17.92273712158203,0.8705545663833618,2.3604629039764404,-0.13361968100070953,,,,,,,,,
1739401017.7905998,-0.7075921480433749,0.6764492460275485,1.4193534891240867,-1.8792909207740431,-0.7103127495415876,1.9484101947497943,0.18673573359883014,-0.0006877102207655056,-7.837404283509927e-05,0.0006836198515227604,-0.00019007968557099346,0.00024380801616796856,-0.0017088492409320665,-0.0004699687170901418,0.2927129566669464,-23.58578872680664,19.553329467773438,17.89893341064453,0.8769632577896118,2.3604629039764404,-0.10066069662570953,,,,,,,,,
1739401017.8015687,-0.7075921480433097,0.6764539458323306,1.4193573515909619,-1.8792918420042917,-0.7103135867270141,1.9484103124334307,0.18673885327355497,-0.0008866073280503745,0.0006227817031384599,0.0019332252127403937,-0.00037978792352998776,-0.0004710281088240847,-0.00026934135669683275,0.0004979800391074292,0.2927129566669464,-23.63736343383789,19.501754760742188,17.92273712158203,0.8833719491958618,2.3604629039764404,-0.12721098959445953,,,,,,,,,
1739401017.8125618,-0.707590434541432,0.6764490494603062,1.4193534806208183,-1.8792906411898638,-0.7103168097404277,1.9484134965659319,0.1867366894560541,-0.00022436410197529673,-0.002284129511739624,0.0013069189417589226,0.0009726970121312938,-0.0014954790989862088,0.0004120251039194357,-0.0013111544564663367,0.2689092457294464,-23.61355972290039,19.553329467773438,17.92273712158203,0.8833719491958618,2.3604629039764404,-0.08051909506320953,,,,,,,,,
1739401017.822684,-0.7075921567100864,0.6764518532278935,1.4193510091788712,-1.879292432662507,-0.7103128629724159,1.9484093891245406,0.1867390114571566,-0.0005325499395016893,-0.0006846302267843207,0.000135362548028615,-9.729505677291965e-06,0.0001381382214152073,-0.0016074795298569567,0.0007170324422902506,0.2927129566669464,-23.63736343383789,19.577133178710938,17.94654083251953,0.8769632577896118,2.3668715953826904,-0.12721098959445953,,,,,,,,,
1739401017.833635,-0.707590315243684,0.6764545098986272,1.419351706443132,-1.879292557358496,-0.710312990903573,1.9484141306074836,0.18673344985674079,-0.00013250821008246926,0.0006107650210486722,0.0007743325323695003,0.0003232212743664317,-0.0006464202209603387,0.00020679178536858191,-0.0012858486135195752,0.2927129566669464,-23.68893814086914,19.577133178710938,17.92273712158203,0.8769632577896118,2.3540542125701904,-0.05396880581974983,,,,,,,,,
1739401017.8436723,-0.7075921479032548,0.6764556749207052,1.4193457632455304,-1.879290774689552,-0.7103117959238471,1.9484127351951133,0.18673583406193014,-0.0008491337473175977,0.0006864774804071464,-0.0014845345225598457,0.0012775411369413921,-0.00014954167175635085,0.0015277192799843028,-0.0012148757222604615,0.2927129566669464,-23.66513442993164,19.656478881835938,17.89893341064453,0.8769632577896118,2.3668715953826904,-0.10066069662570953,,,,,,,,,
1739401017.8536766,-0.7075885502500365,0.676456695408463,1.4193531289773178,-1.8792892304311124,-0.710312868787216,1.9484138991185416,0.1867404763450221,0.0006184895727281458,0.0015265546064796142,0.0013619194974240389,0.001137317020256633,0.0003366249466083493,-0.0007521940893644735,0.00031617280468954783,0.2411382496356964,-23.68893814086914,19.529525756835938,17.87512969970703,0.8769632577896118,2.3476455211639404,-0.14094389975070953,,,,,,,,,
1739401017.8655977,-0.7075921480439457,0.6764537973908138,1.4193507226801698,-1.8792974394891564,-0.7103128688053852,1.9484126827016182,0.18673966748851734,-0.0005148205572702496,0.001580569008442423,-0.00033173496319553356,-0.0022315446527489745,0.00011497969327687818,-7.020194393670339e-05,-1.3645983989008176e-05,0.2927129566669464,-23.63736343383789,19.553329467773438,17.94654083251953,0.8769632577896118,2.3668715953826904,-0.13361968100070953,,,,,,,,,
1739401017.8765984,-0.7075921480789754,0.6764499938379769,1.4193489485483033,-1.879296655305894,-0.710313613219987,1.9484110366638385,0.18673174862475989,-0.001036836484561471,-0.00039274022823683073,-0.0008086252505348016,-0.0018129744916753616,0.0004974170276726186,-0.0006090693749830924,-0.0020308124434388663,0.2927129566669464,-23.58578872680664,19.577133178710938,17.97431182861328,0.8833719491958618,2.3540542125701904,-0.06678618490695953,,,,,,,,,
1739401017.8866656,-0.7075884111977703,0.6764507934478047,1.419351706400363,-1.879290611496186,-0.7103136264652393,1.9484119622143865,0.18674443278633734,0.0010579740845128105,-0.0001024593132938956,0.0003494249147540828,-6.33036379160156e-05,-0.0005238977968650695,-0.0010149088773895884,0.0019069108500380525,0.2411382496356964,-23.63736343383789,19.577133178710938,17.89893341064453,0.8833719491958618,2.3604629039764404,-0.14735259115695953,,,,,,,,,
1739401017.8976033,-0.7075884350661271,0.6764493013190847,1.419357351171047,-1.8792920805311837,-0.7103136264654637,1.9484134965632596,0.186735474038955,0.0021907193398646658,0.0009936111199767266,0.0006363039389137169,7.045333588165056e-05,-0.00040035149217937664,0.000385587628693414,-0.0013248313417577556,0.2411382496356964,-23.61355972290039,19.501754760742188,17.92273712158203,0.8833719491958618,2.3604629039764404,-0.09425200521945953,,,,,,,,,
1739401017.9076335,-0.7075928500534425,0.6764481127996315,1.4193534878643224,-1.879291010132391,-0.7103128688053854,1.9484127221152325,0.18673414937014726,-0.0004551445716459957,-0.0011645343447613888,0.0002606816244903552,0.00022796882574855585,-0.00016903748089006396,0.0007408654950045343,-0.0011529704755154466,0.2927129566669464,-23.58578872680664,19.553329467773438,17.89893341064453,0.8769632577896118,2.3668715953826904,-0.08692778646945953,,,,,,,,,
1739401017.9176376,-0.7075897118684761,0.6764492923310558,1.4193588085933826,-1.8792919706450353,-0.7103134668656467,1.9484131433591165,0.18673738930596687,0.00038144537967613174,-0.0011487240396643443,0.0010565081602566147,0.00025081319847225286,-0.0007124826154830495,0.0005412914449199061,0.0013543334297975934,0.2689092457294464,-23.61355972290039,19.501754760742188,17.92273712158203,0.8833719491958618,2.3604629039764404,-0.11347807943820953,,,,,,,,,
1739401017.9276395,-0.7075921508954753,0.676451517470126,1.4193580669207226,-1.8792892303932285,-0.7103136264573552,1.9484122293437542,0.18673916773268334,-0.0003239950097428606,0.0008555144197634445,0.002133918294683572,-0.0006257732940766877,0.0004991584774022748,-0.0011496825772899556,3.9245075062872565e-05,0.2927129566669464,-23.63736343383789,19.501754760742188,17.87512969970703,0.8833719491958618,2.3668715953826904,-0.12080229818820953,,,,,,,,,
1739401017.9385808,-0.7075904701897572,0.6764492771939364,1.419351741769685,-1.879292792833636,-0.7103128643902265,1.9484103139419484,0.18673333269283832,-4.572593240829456e-06,-0.00016152731375088211,0.00016877940494926507,0.00016181525764710888,0.00026554452661719575,0.0001255175457619428,-0.0026946283070849292,0.2689092457294464,-23.58578872680664,19.577133178710938,17.92273712158203,0.8769632577896118,2.3604629039764404,-0.08051909506320953,,,,,,,,,
1739401017.949598,-0.7075904090318209,0.6764490624949961,1.4193517064472676,-1.8792910131121523,-0.7103129078876926,1.9484134966616256,0.18674077659044627,-1.3309594568987473e-05,-0.0012308786368326633,-0.0005955817001609995,-0.0006159408933147936,-0.0002300743694348194,-0.00028893533251214703,0.00044764110763275853,0.2689092457294464,-23.61355972290039,19.577133178710938,17.89893341064453,0.8769632577896118,2.3604629039764404,-0.10706938803195953,,,,,,,,,
1739401017.9606757,-0.7075883463346601,0.6764530311748407,1.4193534012569748,-1.879292795789188,-0.7103120941313557,1.9484131265626248,0.18674387572464637,0.0006585824019532039,0.00020106428699658086,0.0003050015607030552,-0.000990361081823985,0.00040689521287232003,0.000636835550566715,0.002565193119382009,0.2411382496356964,-23.66513442993164,19.553329467773438,17.92273712158203,0.8705545663833618,2.3604629039764404,-0.13361968100070953,,,,,,,,,
1739401017.9715843,-0.7075921215521846,0.6764501047323042,1.4193482488488822,-1.879294551975254,-0.7103121111991102,1.9484126959506638,0.18673258143102395,0.0002943053359459169,-0.0014232609742786265,-0.0010403290537402206,-0.001008735647688844,-0.0004737245847017686,-0.00046920859737626123,-0.002053330598074072,0.2927129566669464,-23.61355972290039,19.604904174804688,17.94654083251953,0.8705545663833618,2.3668715953826904,-0.07411040365695953,0,0,0,0.000,0,0
1739401017.981653,-0.7075928761604992,0.6764568061654617,1.419345769159239,-1.8792881985957206,-0.7103128948057663,1.9484137446811505,0.18673883383861611,-0.0010348711999597334,0.0018760634560678572,-8.107537662857843e-05,0.0023988285657666796,-0.0008713781188857501,0.0010526535156515102,0.0004061885564563266,0.2927129566669464,-23.71670913696289,19.628707885742188,17.87512969970703,0.8769632577896118,2.3540542125701904,-0.08692778646945953,0,0,0,0.000,0,0
1739401017.9925628,-0.7075905399561986,0.6764553001785436,1.4193510172506572,-1.879288864395693,-0.7103136279191606,1.9484127381014382,0.18673902394074104,0.0005126262154940037,0.0007100973323244254,0.0003956688702161217,0.0012577268843933136,-0.00023627279159865435,0.00021524181269319244,0.0006574340117324622,0.2689092457294464,-23.66513442993164,19.577133178710938,17.89893341064453,0.8833719491958618,2.3668715953826904,-0.12721098959445953,0,0,0,0.000,0,0
1739401018.0026135,-0.7075925415551291,0.6764548276808974,1.4193506282348214,-1.8792888673085684,-0.7103125535818824,1.9484086459999512,0.1867364847349004,0.00020472670882519387,0.00023358730620177,0.0017179195848310107,0.0005152113511791887,-2.2258993776490396e-05,-0.00020370676528437404,-5.2025568764698944e-05,0.2689092457294464,-23.68893814086914,19.553329467773438,17.89893341064453,0.8833719491958618,2.3732802867889404,-0.10706938803195953,0,0,0,0.000,0,0
1739401018.0135639,-0.7075921480551982,0.6764510899006789,1.4193496391917584,-1.8792906500098632,-0.7103120581573441,1.9484083309211413,0.1867388530024375,-0.0006107876807043819,-0.00031018060565062613,0.0002464537902376188,-5.83973060889168e-05,0.0018796383087577178,-0.0008208723756319351,-0.00014734880032282965,0.2927129566669464,-23.63736343383789,19.577133178710938,17.92273712158203,0.8705545663833618,2.3668715953826904,-0.12721098959445953,0,0,0,0.000,0,0
1739401018.0246284,-0.7075886715851459,0.6764548361931331,1.4193509835292204,-1.879291717297903,-0.7103136249928467,1.9484103180673928,0.18673734818934418,0.0005577602954857357,0.0005428849599552242,-7.317160254893828e-05,-3.6912864528345886e-05,0.0003162466682102925,-0.0003096891428449157,-0.0005603892573381553,0.2411382496356964,-23.68893814086914,19.577133178710938,17.94654083251953,0.8833719491958618,2.3604629039764404,-0.11347807943820953,0,0,0,0.000,0,0
1739401018.0366266,-0.7075884379031582,0.6764528769845786,1.4193516299162874,-1.8792945075154586,-0.7103121503911609,1.9484112743552935,0.18673337256138878,0.0008964782405931128,-0.0005382478520119141,-0.0006670669802900452,-0.001662231424247567,0.0010800948030512626,-0.0027707056140637747,-0.0005534615903104272,0.2411382496356964,-23.66513442993164,19.577133178710938,17.94654083251953,0.8705545663833618,2.3668715953826904,-0.08051909506320953,0,0,0,0.000,0,0
1739401018.046668,-0.7075904355225803,0.676449059929286,1.4193552688262798,-1.8792899053314458,-0.7103121111455285,1.9484154073152797,0.18673257941887156,-0.0008491857238069292,-0.001197262227252843,0.0004491212811173263,-0.00010063559096622969,0.0006116530679191446,0.0011263459007858345,-0.002829195756953436,0.2689092457294464,-23.61355972290039,19.529525756835938,17.92273712158203,0.8705545663833618,2.3403213024139404,-0.07411040365695953,0,0,0,0.000,0,0
1739401018.0575762,-0.7075919096603963,0.6764539308054885,1.4193552718010896,-1.8792945666761336,-0.710316052080424,1.9484103183008996,0.1867433240758797,-0.00026823356839487115,0.0016469138159692213,0.00010248704239138132,-0.0005443198353088668,-0.0005631622961553384,0.0005599863298227084,0.00137212442938028,0.2927129566669464,-23.63736343383789,19.529525756835938,17.94654083251953,0.8769632577896118,2.3604629039764404,-0.13361968100070953,0,0,0,0.000,0,0
1739401018.0675929,-0.7075921509282037,0.6764518502836104,1.4193573515909619,-1.8792887525506268,-0.7103128688592943,1.9484101569056467,0.18673845499668285,-0.0008786624473508099,0.001014907639392889,0.0010673061761345296,0.0015976559211684708,-0.0005039995525138159,-8.87420151441241e-05,-0.0001593222210332685,0.2927129566669464,-23.63736343383789,19.501754760742188,17.89893341064453,0.8769632577896118,2.3604629039764404,-0.12080229818820953,0,0,0,0.000,0,0
1739401018.0776625,-0.7075884472115447,0.6764492370355344,1.4193535950879002,-1.879291974531355,-0.7103121111453079,1.9484099469456555,0.18673796778702362,0.0009289455502097872,-0.0013942035263777147,-5.4094077423662886e-05,0.0002824468164694216,-0.0017417783605044583,0.0002706342153970435,-0.0005285513215803502,0.2411382496356964,-23.58578872680664,19.553329467773438,17.92273712158203,0.8705545663833618,2.3604629039764404,-0.08051909506320953,0,0,0,0.000,0,0
1739401018.0876853,-0.7075922524729826,0.6764499685532771,1.4193534891258819,-1.8792902860687668,-0.7103128702589355,1.9484110700893122,0.18673531174691574,-0.0017046411424867021,-0.0010341795048546135,0.0004093599211868328,0.0011402842047542007,-0.00038045251155242367,0.0001940721383245225,-0.00010926797235240532,0.2927129566669464,-23.58578872680664,19.553329467773438,17.89893341064453,0.8769632577896118,2.3540542125701904,-0.09425200521945953,0,0,0,0.000,0,0
1739401018.0986297,-0.7075897199403819,0.6764508432691976,1.4193527248110291,-1.8792907716006915,-0.7103122303364353,1.9484149597078,0.1867380692551883,0.000958688926867105,-0.0008852625079639726,-0.0005793600147693059,-0.0005567494497086752,-0.0011727961012244022,0.00038972142081416476,0.0005034132425973772,0.2689092457294464,-23.63736343383789,19.553329467773438,17.89893341064453,0.8705545663833618,2.3476455211639404,-0.10706938803195953,0,0,0,0.000,0,0
1739401018.1096716,-0.7075949561873104,0.676452234385245,1.4193552728869545,-1.8792909862928038,-0.7103135074183525,1.9484108138517275,0.1867360695000323,-0.0010904791407553385,0.0011158147794945823,0.00018224485736957402,0.0002955684688002152,0.0012828055544211376,-0.0008723122958400329,0.0010772706989628953,0.2927129566669464,-23.61355972290039,19.529525756835938,17.89893341064453,0.8833719491958618,2.3796889781951904,-0.10066069662570953,0,0,0,0.000,0,0
1739401018.1205971,-0.7075911947058376,0.6764508520424818,1.419355549858616,-1.8792965698437176,-0.7103136264647916,1.9484120707983223,0.18674108532549336,-0.0006562498373766336,-0.0006904423608404156,0.0003403819888232395,-0.0020230094537269454,-0.00047515335581955695,0.0007438112901214546,0.00213240167964677,0.2927129566669464,-23.63736343383789,19.553329467773438,17.97431182861328,0.8833719491958618,2.3604629039764404,-0.13361968100070953,0,0,0,0.000,0,0
1739401018.130636,-0.7075913753720227,0.6764567483243594,1.419351715207306,-1.879291004280354,-0.7103110630054065,1.948411203131102,0.186737229740888,-0.001325706264122855,0.0003096789402958267,0.0003087215081331021,-5.911022326621202e-06,0.0003663739713901466,-0.0007387101777473616,-0.0010022095244846332,0.2689092457294464,-23.68893814086914,19.577133178710938,17.89893341064453,0.8769632577896118,2.3668715953826904,-0.11347807943820953,0,0,0,0.000,0,0
1739401018.1406481,-0.707592541569277,0.6764576297579069,1.4193534631945142,-1.8792869787039757,-0.7103128740984317,1.9484095599714388,0.18673340592263404,-0.0004210067464076372,0.0020486907012475567,0.0008636084229487484,0.0024874077882598763,0.0009555132898967906,-0.0001941149358390357,-0.0022975113649666167,0.2689092457294464,-23.68893814086914,19.553329467773438,17.87512969970703,0.8769632577896118,2.3668715953826904,-0.05396880581974983,0,0,0,0.000,0,0
1739401018.1515837,-0.7075904355701329,0.6764533116916006,1.4193534890189623,-1.8792924512850688,-0.710312150552699,1.948412424318411,0.1867338482065096,8.238731117513176e-05,8.015404946927615e-05,0.0010957639165190983,0.00010394909717232248,0.00028043093343398714,0.0011469201753334798,-0.0005454435046447935,0.2689092457294464,-23.63736343383789,19.553329467773438,17.92273712158203,0.8705545663833618,2.3604629039764404,-0.08051909506320953,0,0,0,0.000,0,0
1739401018.1615922,-0.707590435413563,0.6764549828815455,1.4193509921724754,-1.879294578460373,-0.7103121111459744,1.9484127393781934,0.18673458180496685,0.0007849287948615748,-3.140771700114943e-05,0.0010424077791397048,-0.0008092927253298601,-5.7583152531193616e-05,0.0017376122863702965,-0.002615600749933564,0.2689092457294464,-23.66513442993164,19.577133178710938,17.94654083251953,0.8705545663833618,2.3668715953826904,-0.08692778646945953,0,0,0,0.000,0,0
1739401018.1726372,-0.7075911375328385,0.6764522167797675,1.4193534806167862,-1.8792906500219762,-0.7103139290895369,1.948407579901622,0.18674069057734283,-0.0010740988212166297,-0.0002832043766531853,0.00010128214345635867,-0.0006358491017548888,-0.0005948512486101895,-0.0005564434916185957,0.0010460312147873999,0.2689092457294464,-23.61355972290039,19.553329467773438,17.92273712158203,0.8769632577896118,2.3732802867889404,-0.13361968100070953,0,0,0,0.000,0,0
1739401018.1836562,-0.7075928513415026,0.6764491677245638,1.4193489380377355,-1.8792943390543688,-0.7103128683207974,1.9484142020408504,0.18673487431413893,-0.001219605405198367,-0.002203052080711103,-0.0002793355907780283,-0.002571849081567705,-0.00011439557979712328,0.001344327737969548,-0.000487866601171009,0.2927129566669464,-23.61355972290039,19.604904174804688,17.94654083251953,0.8769632577896118,2.3540542125701904,-0.08051909506320953,0,0,0,0.000,0,0
1739401018.19463,-0.7075886725520929,0.676457669692664,1.4193534887002854,-1.879292477896398,-0.7103143443891095,1.9484081461772875,0.1867338243073757,0.00034484028978604494,0.0017290578354100727,-0.0010592922813517404,-0.0005105995941012953,-2.639028737164373e-05,-0.00016659552595072155,-0.0002137567431785641,0.2411382496356964,-23.68893814086914,19.553329467773438,17.92273712158203,0.8897806406021118,2.3668715953826904,-0.08051909506320953,0,0,0,0.000,0,0
1739401018.2055879,-0.7075905135276978,0.6764523007268797,1.4193534626694657,-1.8792892294486203,-0.7103092162055941,1.9484123289328876,0.18673349131377856,-0.00023430313193447465,-1.965547235333124e-05,0.0002878759979283043,4.836656612692918e-05,0.0011771782468282283,0.0013246514658977824,-0.0029846699471608555,0.2689092457294464,-23.61355972290039,19.553329467773438,17.87512969970703,0.8833719491958618,2.3668715953826904,-0.08051909506320953,0,0,0,0.000,0,0
1739401018.2156126,-0.7075867289133427,0.6764508743979207,1.4193496401525665,-1.8792870719130292,-0.7103143839371215,1.948409403603901,0.18674029348198298,0.0015461291375643855,-0.0003556574387521549,-0.001374658136338424,0.0019345142637877902,-0.0003825038534254057,0.000379105998654425,0.0009268235663804445,0.2173345386981964,-23.63736343383789,19.577133178710938,17.87512969970703,0.8897806406021118,2.3668715953826904,-0.12721098959445953,0,0,0,0.000,0,0
1739401018.2266037,-0.7075884636891246,0.67645327562502,1.4193532319860431,-1.8792892215926476,-0.7103128688053842,1.9484118160007757,0.18673682405625758,0.0004940213331402587,0.001254821701455838,-0.0004977124405866905,0.0007141558011707987,-0.0005383675979325471,0.0004983645377000683,-0.0013774621549637667,0.2411382496356964,-23.63736343383789,19.529525756835938,17.87512969970703,0.8769632577896118,2.3476455211639404,-0.10066069662570953,0,0,0,0.000,0,0
1739401018.2366672,-0.7075887495867279,0.6764515192143336,1.4193516979092546,-1.8792892216046826,-0.7103136264654637,1.9484110565288337,0.1867433401836397,0.00044483963730599784,0.00018422260904205775,-0.0006344427665151261,0.00036591961972437276,0.00011627585108285826,0.0013353405843556567,0.0006611337918842735,0.2411382496356964,-23.63736343383789,19.577133178710938,17.87512969970703,0.8833719491958618,2.3540542125701904,-0.13361968100070953,0,0,0,0.000,0,0
1739401018.248666,-0.7075884466782699,0.6764556863979713,1.4193545830362742,-1.8792887515696302,-0.7103121117913294,1.9484131931222686,0.18674240706379483,0.0003572760832027901,0.0010955769687384315,0.0007312589038748579,0.0003102735205684327,0.0017104974076116134,0.0005710464493558843,0.0004303064975130159,0.2411382496356964,-23.66513442993164,19.529525756835938,17.89893341064453,0.8705545663833618,2.3540542125701904,-0.12721098959445953,0,0,0,0.000,0,0
1739401018.2595868,-0.707588438687417,0.6764498154278855,1.4193510176783959,-1.879292442236663,-0.7103127495960994,1.9484098456783947,0.1867375395285407,0.0005902082268117049,0.0001245443628294883,-0.0009152101124036243,0.00026443957756248915,0.0009153448207849354,0.0012593221267836836,5.0030554423523645e-05,0.2411382496356964,-23.61355972290039,19.577133178710938,17.92273712158203,0.8769632577896118,2.3604629039764404,-0.10706938803195953,0,0,0,0.000,0,0
1739401018.2696972,-0.707588358108872,0.6764530038643122,1.4193507337461269,-1.8792963400355793,-0.7103128692892291,1.9484123686666022,0.1867401243241907,0.0008571075332082067,-0.0009676280625282756,-0.0015719889771707949,-0.0012028612118160122,0.0005259189617760273,0.0008242274377846106,0.0006008847953485198,0.2411382496356964,-23.66513442993164,19.553329467773438,17.97431182861328,0.8769632577896118,2.3668715953826904,-0.13361968100070953,0,0,0,0.000,0,0
1739401018.2806764,-0.7075882017727327,0.6764528000009433,1.419353489108533,-1.879291013074034,-0.7103153680608378,1.9484105501487043,0.18673643074956114,0.0011795695488369413,0.00015798480868596434,-0.00022046938635673338,0.001235414247360906,-0.0005875539049208028,0.0008299364825331227,0.000707793261866216,0.2689092457294464,-23.66513442993164,19.553329467773438,17.89893341064453,0.8705545663833618,2.3732802867889404,-0.09425200521945953,0,0,0,0.000,0,0
1739401018.2916656,-0.7075914582985806,0.676454031107352,1.419348933798262,-1.879292432698995,-0.7103128644086119,1.9484087333873568,0.186740716422776,-0.0006005344305484413,0.0018335533920297222,-0.0012278683867470285,-0.0003066976006901758,-6.730421123359056e-05,-0.0003314173874995871,0.000978602750833362,0.2689092457294464,-23.63736343383789,19.604904174804688,17.94654083251953,0.8769632577896118,2.3604629039764404,-0.13361968100070953,0,0,0,0.000,0,0
1739401018.3025954,-0.707590435528352,0.6764510138210807,1.4193517148535602,-1.8792907737003306,-0.7103128681512628,1.9484111675971383,0.18674089967471072,0.0002937626500271226,-0.0014655862838001245,0.000709752709468321,0.0003982435132313872,0.0006069860662266993,-0.0007804485659029128,0.0019028755039193265,0.2689092457294464,-23.63736343383789,19.577133178710938,17.89893341064453,0.8769632577896118,2.3668715953826904,-0.10706938803195953,0,0,0,0.000,0,0
1739401018.3136194,-0.7075885155828655,0.6764480599725667,1.4193523440886533,-1.8792943400462767,-0.7103132220180914,1.9484140828657057,0.18673933860697642,-0.00027607116832189746,-0.0013586773077619216,-8.140852855890361e-05,2.9843885771614848e-05,0.00015278436246333446,0.00019994464921097282,0.00012197215456268907,0.2411382496356964,-23.58578872680664,19.577133178710938,17.94654083251953,0.8769632577896118,2.3540542125701904,-0.12080229818820953,0,0,0,0.000,0,0
1739401018.324664,-0.7075881994854597,0.6764491707217098,1.419349410575253,-1.879289933781055,-0.7103113534912103,1.9484097546955002,0.18674182632837594,0.0011766431103090954,-0.001380703990884843,-0.000628285566906208,0.0013503951569912168,0.0011737218303229068,-0.0008610672910546246,0.00041427052706948317,0.2411382496356964,-23.61355972290039,19.577133178710938,17.92273712158203,0.8641458749771118,2.3796889781951904,-0.12080229818820953,0,0,0,0.000,0,0
1739401018.3356636,-0.7075904090311772,0.6764508519136959,1.4193525704401215,-1.8792889466549634,-0.7103121171210136,1.9484134444028562,0.1867359323447124,0.0008491484894786413,0.00011872511350571443,-0.0002289624577461799,0.0006087247771856883,0.0010482359649853015,0.0008523529160270947,-0.0032762685617265417,0.2689092457294464,-23.63736343383789,19.553329467773438,17.89893341064453,0.8705545663833618,2.3604629039764404,-0.07411040365695953,0,0,0,0.000,0,0
1739401018.3466067,-0.7075904355224288,0.6764478161385991,1.4193493340298482,-1.879294578454542,-0.7103128817238469,1.948410438227131,0.1867441642063273,0.0005754736215542632,-0.001275134862318591,-0.00047997912462245884,-0.001551143401839154,0.00012020204441709655,-0.0006428561588814509,0.002134962623527724,0.2689092457294464,-23.58578872680664,19.577133178710938,17.94654083251953,0.8769632577896118,2.3732802867889404,-0.14094389975070953,0,0,0,0.000,0,0
1739401018.357559,-0.7075904355225784,0.6764456937541541,1.4193514200182584,-1.879292080497112,-0.7103139284435875,1.9484123331637369,0.18674526129273789,-5.361877795291962e-05,-0.0018774730540846206,-0.00034399353248943374,-0.00011669972360530822,-0.0001164161780235929,0.0011873779646227468,0.0015651819361091242,0.2689092457294464,-23.56198501586914,19.553329467773438,17.92273712158203,0.8769632577896118,2.3403213024139404,-0.14094389975070953,0,0,0,0.000,0,0
1739401018.3696609,-0.7075921480433096,0.6764498633805263,1.4193513878601716,-1.8792910098376432,-0.7103128702649172,1.9484112685450066,0.18673351716406328,-0.00043482499442577837,-0.0007094225280771409,-0.00043805098329262446,0.0003144923736154554,-0.0004108436765239013,0.00047433714997798036,-0.0034367456764708426,0.2927129566669464,-23.61355972290039,19.553329467773438,17.89893341064453,0.8769632577896118,2.3668715953826904,-0.05396880581974983,0,0,0,0.000,0,0
1739401018.3796754,-0.7075932435636212,0.6764508583500222,1.4193532594889713,-1.8792891508532557,-0.710313604171645,1.948411482245066,0.18674113370881748,-0.0006815892417276969,-0.0006631321831150007,-3.0429840838618733e-05,0.00018869006307999155,-0.0005667852734064862,0.00030023691853117273,0.0008898474917484333,0.2689092457294464,-23.63736343383789,19.553329467773438,17.87512969970703,0.8833719491958618,2.3403213024139404,-0.10706938803195953,0,0,0,0.000,0,0
1739401018.3907077,-0.70759051353957,0.6764502483622432,1.419353489122791,-1.8792892039437477,-0.7103136264653378,1.9484150122979462,0.18673980856912384,-0.00026761218726896355,-1.6037211117488504e-06,0.0003347874773539286,0.0012590597124305166,-0.00017512946640142204,0.00246827222636692,-0.0005421897858834364,0.2689092457294464,-23.58578872680664,19.553329467773438,17.87512969970703,0.8833719491958618,2.3476455211639404,-0.10706938803195953,0,0,0,0.000,0,0
1739401018.4015906,-0.7075904354140026,0.6764540117680551,1.4193534891240873,-1.8792885481451735,-0.7103128688053854,1.9484134951183731,0.18674020347307585,0.00014334713270862203,0.0013059703736723722,9.558636137776331e-06,0.0011983129397759467,-0.0007281353714361753,-0.00036857437084898936,0.0025524031556716227,0.2689092457294464,-23.63736343383789,19.553329467773438,17.89893341064453,0.8769632577896118,2.3604629039764404,-0.10706938803195953,0,0,0,0.000,0,0
1739401018.411625,-0.7075904279762283,0.6764512753187295,1.4193534904322824,-1.8792892037934361,-0.7103128290689554,1.9484098473532439,0.18673812889648717,0.0002549672123023816,-0.001157590437892202,-0.000933096087796818,0.000605396241110155,0.0008722346694991345,0.0002671651767036986,0.0003177810780457928,0.2689092457294464,-23.61355972290039,19.553329467773438,17.87512969970703,0.8769632577896118,2.3604629039764404,-0.08051909506320953,0,0,0,0.000,0,0
1739401018.4226656,-0.7075884375816829,0.6764517348030311,1.4193534891240946,-1.8792927953529728,-0.7103088924942648,1.9484088865359632,0.1867370586991343,7.283553376522561e-06,-0.00033279914548576644,0.0005545718903262082,-0.0005445160123675792,0.00038933349156992556,-0.0012577514426285624,0.0010276806724802282,0.2411382496356964,-23.63736343383789,19.553329467773438,17.92273712158203,0.8705545663833618,2.3604629039764404,-0.08051909506320953,0,0,0,0.000,0,0
1739401018.4335673,-0.7075907042863584,0.6764515269382724,1.4193552714861704,-1.8792892304351476,-0.7103125535636883,1.9484084464981073,0.18674039360263137,-0.0009459860498399609,-8.911107139067485e-06,0.000960824188244355,0.0001155829276923906,0.0006915079840923842,-0.0006163917288647678,0.0015689471720320067,0.2927129566669464,-23.63736343383789,19.529525756835938,17.87512969970703,0.8833719491958618,2.3668715953826904,-0.10066069662570953,0,0,0,0.000,0,0
1739401018.4445646,-0.7075923823232334,0.6764574138714713,1.4193517064470664,-1.8792914790246789,-0.7103128673276091,1.9484099986433299,0.18673801239062587,-0.0010172874866363397,-0.00014804136699508104,0.00017752671077714857,0.00022543189314645697,0.0006901005681445785,-6.699763371616903e-05,-0.0011970252851844201,0.2927129566669464,-23.68893814086914,19.577133178710938,17.94654083251953,0.8769632577896118,2.3540542125701904,-0.08051909506320953,0,0,0,0.000,0,0
1739401018.4556127,-0.7075875757875661,0.6764503297632206,1.4193517061321321,-1.8792910130596796,-0.7103135072561491,1.948413025711071,0.1867379724106001,0.0011992869791860703,-0.0008664351695186924,0.00044147461638794846,0.00042427268151465304,0.0004154574527266448,0.001331411378145644,-0.0006759455560523984,0.2689092457294464,-23.58578872680664,19.577133178710938,17.89893341064453,0.8833719491958618,2.3604629039764404,-0.08051909506320953,0,0,0,0.000,0,0
1739401018.4656236,-0.7075921741022573,0.6764528422484172,1.4193496263422714,-1.879292781071991,-0.7103121096715685,1.948410014379456,0.18674126973950841,-0.0009711468118626825,-0.00021804539215043413,3.6736151672278465e-05,-9.750192963157062e-05,-0.0005357237177853975,-0.0005849400384604735,0.0007256778901163486,0.2927129566669464,-23.66513442993164,19.604904174804688,17.92273712158203,0.8705545663833618,2.3540542125701904,-0.10706938803195953,0,0,0,0.000,0,0
1739401018.4766212,-0.7075904342144322,0.6764540282327057,1.4193517035659875,-1.8792927957891603,-0.7103131751440843,1.9484097887187737,0.18674126535428706,0.0007519888182706147,0.00034603306304022363,0.0008887881685940797,7.67199513875479e-05,-0.0010052910740509723,5.246757512451562e-05,0.0005571632994299427,0.2689092457294464,-23.63736343383789,19.577133178710938,17.92273712158203,0.8705545663833618,2.3604629039764404,-0.10706938803195953,0,0,0,0.000,0,0
1739401018.4866216,-0.707588437472687,0.6764552976781554,1.4193496146428604,-1.879292795789188,-0.7103120979178492,1.9484105657046973,0.18673974125824647,0.0004516356937330427,0.0006743879685365264,0.00011224248539632337,-0.0009912902714963984,0.0006067988169566054,0.001902005772333812,0.000629262438792274,0.2411382496356964,-23.66513442993164,19.577133178710938,17.92273712158203,0.8705545663833618,2.3540542125701904,-0.09425200521945953,0,0,0,0.000,0,0
1739401018.4985662,-0.7075884375817248,0.6764540367472294,1.419351697931991,-1.8792910097326647,-0.7103128819410981,1.948408279038466,0.18673497453099314,0.00046149436589298416,0.0006981598358313896,0.00043398036552505216,0.0010923230848283207,1.4875069731491356e-05,-0.0004225888946173509,-0.0014696987211204376,0.2411382496356964,-23.63736343383789,19.577133178710938,17.89893341064453,0.8769632577896118,2.3732802867889404,-0.09425200521945953,0,0,0,0.000,0,0
1739401018.5095663,-0.7075966686526381,0.6764494007138102,1.4193495498128403,-1.879289616390277,-0.7103182824928184,1.9484144847308913,0.18674253779799027,-0.0017517159927783943,-0.0012552242744658896,-0.0004950027407460769,-0.00017141614106708138,-0.0011364919626215516,0.0011979424445249492,0.0007067538695725658,0.3165166676044464,-23.61355972290039,19.604904174804688,17.92273712158203,0.8897806406021118,2.3476455211639404,-0.12080229818820953,0,0,0,0.000,0,0
1739401018.5195792,-0.7075923820942851,0.6764556873619493,1.4193517064457668,-1.8792944988304878,-0.7103121097396066,1.9484134384209764,0.18674289313096715,-0.0007154471660122215,0.0005779344541096566,-0.0012474231081126598,-0.0010233803448060433,0.00036927469941876114,-0.0003905289166237168,0.0011874645444507658,0.2927129566669464,-23.66513442993164,19.577133178710938,17.94654083251953,0.8705545663833618,2.3604629039764404,-0.12080229818820953,0,0,0,0.000,0,0
1739401018.529623,-0.7075904730826466,0.6764523277038368,1.4193534888091512,-1.8792870584161827,-0.7103136264654398,1.9484084428623458,0.18673861070440995,0.0003043687910680255,0.0007625407658209588,-0.00018811995012014005,0.001739366046134349,-0.00014422157962365445,-0.0005954038325794474,-0.0002854394884419676,0.2689092457294464,-23.61355972290039,19.553329467773438,17.84735870361328,0.8833719491958618,2.3668715953826904,-0.12080229818820953,0,0,0,0.000,0,0
