IITGN-Robotics/Franka_IITGN_ROBOTICS/franka_ros/franka_iitgn/data/b_15.csv
time,fr3_joint1_pos,fr3_joint2_pos,fr3_joint3_pos,fr3_joint4_pos,fr3_joint5_pos,fr3_joint6_pos,fr3_joint7_pos,fr3_joint1_vel,fr3_joint2_vel,fr3_joint3_vel,fr3_joint4_vel,fr3_joint5_vel,fr3_joint6_vel,fr3_joint7_vel,fr3_joint1_eff,fr3_joint2_eff,fr3_joint3_eff,fr3_joint4_eff,fr3_joint5_eff,fr3_joint6_eff,fr3_joint7_eff,flexpin1,flexpin2,flexpin3,Force,ContactMic,ContactMic_gt
1739401053.6160755,-0.7074962440098126,0.6759604409216251,1.4192576448548397,-1.8793311811804234,-0.7099236666075923,1.9486477010675733,0.1864919673696206,-0.000792293091638785,0.0005131113895065593,0.0003674123593733873,-0.00023166673335403532,0.0012868801002710018,-4.4874838930734836e-05,-0.0004228350618879226,0.2927129566669464,-23.63736343383789,19.553329467773438,17.92273712158203,1.0408426523208618,2.3668715953826904,-0.14735259115695953,,,,,,,,,
1739401053.626111,-0.7074935831167443,0.6759628098260195,1.4192576448552885,-1.879335043647298,-0.709928702556689,1.9486477010675733,0.18648897047216542,4.254386588178221e-05,0.001614330451766875,-0.0004426061132086508,-0.0012800395521161312,-0.0011042830472742155,0.00019054821126733633,-0.001335083338508333,0.2689092457294464,-23.66513442993164,19.553329467773438,17.97431182861328,1.0472513437271118,2.3668715953826904,-0.16108550131320953,,,,,,,,,
1739401053.6371465,-0.7074902084533556,0.6759810655738722,1.4192466633241467,-1.879330472924749,-0.7099207168620097,1.948644670051036,0.18649390386604187,0.001620848726819492,0.002975169533350084,-0.0017417730985687784,-0.00025070313567749204,0.0002559438439412665,-0.0007975255780013741,-0.00038147914047269787,0.1697271168231964,-23.56198501586914,19.450180053710938,17.87512969970703,0.9227396249771118,2.3476455211639404,-0.13361968100070953,,,,,,,,,
1739401053.6480913,-0.707491474252254,0.6760049661137102,1.4192302304574456,-1.8793297419396207,-0.7099214092055783,1.94863225235211,0.18649869787043308,0.0010824995137416276,0.000596075585663396,-0.0026131761265406634,0.00029490363749611493,0.0005627603479729565,8.061012054625866e-05,0.0020050646910884005,0.1419561207294464,-23.45883560180664,19.426376342773438,17.89893341064453,0.8897806406021118,2.3476455211639404,-0.13361968100070953,,,,,,,,,
1739401053.6590917,-0.7074938334416062,0.6760278720380513,1.419215764599766,-1.879336063147319,-0.7099269059510454,1.9486259526670344,0.1864953982811576,0.00010382814104479215,0.002414572625720797,-0.0023375433853262653,-0.001305356357562036,3.509889296527199e-05,-7.784760272088419e-05,-0.00045074720957982944,0.1697271168231964,-23.51041030883789,19.477951049804688,17.94654083251953,0.8705545663833618,2.3476455211639404,-0.06678618490695953,,,,,,,,,
1739401053.6691396,-0.7074955469314322,0.6760352359488434,1.4192008436955954,-1.8793399522567977,-0.7099296018865703,1.9486189883267822,0.1865031891584582,-0.00048309585268978814,0.0003417475920532069,-0.0019768916263031362,-0.00020863906428686928,0.000924136676192236,0.00010651692885136187,0.0010117867313919483,0.1935308277606964,-23.45883560180664,19.501754760742188,17.99811553955078,0.8833719491958618,2.3668715953826904,-0.12080229818820953,,,,,,,,,
1739401053.6801043,-0.7074965119414272,0.6760517613083817,1.419190908252807,-1.8793370474253146,-0.709929358897614,1.9486164100835062,0.18650696853865967,0.0004108059483516119,0.00010186434220787902,-0.001853463456573989,-0.000993570180294182,-0.00024567306440334883,0.0005240222576793108,0.00019783098086887003,0.1935308277606964,-23.51041030883789,19.477951049804688,17.94654083251953,0.8769632577896118,2.3476455211639404,-0.11347807943820953,,,,,,,,,
1739401053.6901717,-0.7075003873249391,0.6760640347802324,1.4191817875768926,-1.8793343867114474,-0.7099293667064688,1.948615599368975,0.18649944095980983,6.119826526413692e-05,0.00027050363210666937,-0.0026228294527140023,0.0004308810415235841,-0.0008441820966407508,8.384732623797561e-05,-0.0011174216120703824,0.2173345386981964,-23.56198501586914,19.529525756835938,17.92273712158203,0.8769632577896118,2.3540542125701904,-0.06037749722599983,,,,,,,,,
1739401053.7010896,-0.7075079465126206,0.6760758075723821,1.4191713786055742,-1.8793268528016378,-0.7099278572007109,1.948613178113767,0.18650956713668682,-0.00040986731284370175,0.00162508678977688,-0.001870585433915539,0.0001897910339045309,0.0011496812744944628,-0.0008867220087390797,0.00017338943406576204,0.2927129566669464,-23.63736343383789,19.553329467773438,17.82355499267578,0.8641458749771118,2.3476455211639404,-0.10706938803195953,,,,,,,,,
1739401053.7111065,-0.7075120037174402,0.6760869965099927,1.4191551222096166,-1.879328953369497,-0.7099301694268354,1.948610900719046,0.18650355374046212,-0.001578337031538982,0.0019529957766831903,-0.0025801382037837417,-0.0005182002048524392,-0.00040841631576045727,-0.00018157730991380527,-0.001479599220762622,0.3442876636981964,-23.68893814086914,19.656478881835938,17.84735870361328,0.8833719491958618,2.3668715953826904,-0.07411040365695953,,,,,,,,,
1739401053.7212107,-0.7075114538193084,0.6760909463159148,1.4191419597303885,-1.879334958774544,-0.7099257357388495,1.9486093157031807,0.18650715807557186,-4.089344906603345e-05,-0.00020868159841662225,-0.0019443214132128395,-0.0007803966912597623,0.0013992513947178955,-0.0009042649889279792,2.8259577174872988e-05,0.3165166676044464,-23.66513442993164,19.704086303710938,17.89893341064453,0.8769632577896118,2.3668715953826904,-0.11347807943820953,,,,,,,,,
1739401053.732167,-0.7075159188508038,0.6760993060963995,1.4191334485569826,-1.8793382500476772,-0.7099333097208594,1.948608558662282,0.18650929132515945,-0.0007664533136305344,5.177574974176357e-05,0.0005319031788063707,-0.0013219470307773817,-0.0014566731045507525,8.611827576713888e-05,0.0007959683475953622,0.3442876636981964,-23.71670913696289,19.680282592773438,17.97431182861328,0.8833719491958618,2.3732802867889404,-0.09425200521945953,,,,,,,,,
1739401053.7431326,-0.7075140100628463,0.6761049427724665,1.4191254621728955,-1.8793390404248498,-0.7099319163758961,1.9486091949953324,0.18650634892275927,-0.00023467896565004028,0.0015871388248513394,-0.0002833731087036715,6.507358670673259e-05,-0.00046731504065412725,0.0003026956518387055,-0.0011971013065180621,0.3165166676044464,-23.71670913696289,19.656478881835938,17.94654083251953,0.8705545663833618,2.3668715953826904,-0.06678618490695953,,,,,,,,,
1739401053.7540762,-0.707514169154424,0.6761012710044463,1.419122367018029,-1.8793372598716807,-0.7099297451867526,1.9486107907688104,0.18651241775442812,0.00022416041937388265,-0.0004854539681595502,0.0004127870563974121,-0.0003390801005062182,-0.0001285168316408701,0.001082768995404698,0.0013460215391289114,0.3165166676044464,-23.66513442993164,19.656478881835938,17.92273712158203,0.8769632577896118,2.3540542125701904,-0.12080229818820953,,,,,,,,,
1739401053.7640908,-0.7075122191998499,0.6761015892170923,1.4191259272043613,-1.8793327630139351,-0.7099283300954016,1.9486108295059243,0.18650914020763992,0.000635597360811545,-0.0016260859541787382,0.00034248570326494076,0.00035090437871372355,0.002262862955713121,0.0007573245997198886,0.00019367147534450526,0.2927129566669464,-23.66513442993164,19.604904174804688,17.89893341064453,0.8641458749771118,2.3540542125701904,-0.08692778646945953,,,,,,,,,
1739401053.7751694,-0.7075153187463735,0.6761079487793887,1.4191327826916165,-1.8793354387722794,-0.7099305013288169,1.9486095503853513,0.1865134289669344,-0.0006660652514255006,0.0007559535602941545,0.0018727131036699713,-0.0007751814886769214,0.0008268293694260343,0.0007562207466109641,0.00031065606712765123,0.2927129566669464,-23.71670913696289,19.553329467773438,17.89893341064453,0.8833719491958618,2.3604629039764404,-0.12721098959445953,,,,,,,,,
1739401053.785199,-0.7075085208525365,0.6761024919978643,1.4191347397140208,-1.8793370297447918,-0.7099300807414227,1.9486061244341846,0.18650715088129244,0.0010949687748778366,0.0006929616889648474,0.0008255678090683402,0.0002318125890434464,-0.0011616244047374386,-0.00149616029830851,-0.0008263867115680559,0.2411382496356964,-23.63736343383789,19.529525756835938,17.94654083251953,0.8705545663833618,2.3540542125701904,-0.07411040365695953,,,,,,,,,
1739401053.7961125,-0.7075085107329336,0.6760987814650229,1.4191341029200257,-1.879338212124094,-0.7099328710795582,1.9486100686746375,0.18650642225720118,-0.0005303653070055825,-0.0004143950418890723,-0.00029993491348515467,0.00046228499329631237,0.001066378449033285,0.0007300768747153031,0.0005296983597507595,0.2411382496356964,-23.58578872680664,19.529525756835938,17.94654083251953,0.8705545663833618,2.3604629039764404,-0.09425200521945953,,,,,,,,,
1739401053.8061771,-0.7075126515702133,0.6760966358068257,1.419139688661002,-1.879332537663245,-0.7099301434965161,1.9486083282827276,0.18651389215495598,-0.0015489170342670158,0.0006621263127953353,0.00021292651958118537,0.002469670175466168,0.0009786233057723225,0.000514222306998838,0.0010727735032834012,0.2689092457294464,-23.58578872680664,19.501754760742188,17.89893341064453,0.8833719491958618,2.3476455211639404,-0.10706938803195953,,,,,,,,,
1739401053.8171282,-0.7075105057060481,0.6760949203305441,1.4191428083622897,-1.879331548733849,-0.7099323083320723,1.9486079532538219,0.18651034527248592,-0.00043429954820666157,0.0009895632821918673,4.977899166634225e-05,0.0014290509340551675,4.9187473766589086e-05,0.0010711924560975407,0.0008556856596802162,0.2689092457294464,-23.56198501586914,19.426376342773438,17.87512969970703,0.8705545663833618,2.3476455211639404,-0.12721098959445953,,,,,,,,,
1739401053.8281121,-0.7075067953777056,0.6760944013925807,1.4191399947926966,-1.8793348821354285,-0.7099336176083261,1.9486072090558084,0.1865079133978989,0.0009698078967784748,0.0002430409828909988,0.00023806190026620438,-0.0006136380859991897,-0.0007498417386864101,5.1068702438852805e-05,-0.0025471731051545142,0.2173345386981964,-23.53818130493164,19.501754760742188,17.89893341064453,0.8769632577896118,2.3540542125701904,-0.08051909506320953,,,,,,,,,
1739401053.8381362,-0.7075085077530842,0.6760979472563616,1.4191438920338169,-1.879331433616483,-0.7099329591472706,1.9486093244918323,0.18651192318315782,-0.00017707068326190797,0.000458807271306348,0.002470221612546865,0.00010001029713870317,0.0004142901435214208,-0.0012044748951207758,0.0009303271513648644,0.2411382496356964,-23.58578872680664,19.450180053710938,17.87512969970703,0.8769632577896118,2.3540542125701904,-0.11347807943820953,,,,,,,,,
1739401053.8490996,-0.7075104792029814,0.6760958141465024,1.4191399296521416,-1.8793342809530558,-0.7099306593473502,1.9486040744351183,0.18650995045123145,0.0010556160978659258,0.0005879404605966471,0.0014049387386419765,0.0008013175837475136,0.0015844562921501386,-0.0013530539057337683,-0.0005626214988342385,0.2689092457294464,-23.58578872680664,19.501754760742188,17.92273712158203,0.8833719491958618,2.3732802867889404,-0.06037749722599983,,,,,,,,,
1739401053.8591413,-0.7075067955589506,0.6760979063408838,1.4191330826411164,-1.8793345985133962,-0.709927481804928,1.9486063642333362,0.18651279159142478,0.00021604384134032322,-0.0023414767326633587,-0.0008738905835603073,0.0005306970787372874,0.0023786906261933287,-0.0012420442546887997,0.0005200045594343041,0.2173345386981964,-23.61355972290039,19.553329467773438,17.92273712158203,0.8568216562271118,2.3540542125701904,-0.12080229818820953,,,,,,,,,
1739401053.870136,-0.7075106574448811,0.6761002663432678,1.4191322266163082,-1.879337380174291,-0.7099356038068464,1.9486108110509117,0.18651754703377146,0.0011929161607493895,-7.156619084835883e-05,0.0006032162357628556,-0.0003915133986149068,-0.00027421838850705444,-0.00047367957601677894,0.0018628323581096845,0.2411382496356964,-23.63736343383789,19.577133178710938,17.92273712158203,0.8897806406021118,2.3540542125701904,-0.12080229818820953,,,,,,,,,
1739401053.881088,-0.7075108265409478,0.6761010931421327,1.419126980393602,-1.8793374685295097,-0.7099336699419069,1.9486095348242012,0.18651642008052385,-1.7809268367023298e-06,-0.001878650453611865,-0.001634958539212855,-0.0009262183502349002,-0.000518793840107794,-0.0005150816495869174,0.002412240852195789,0.2689092457294464,-23.61355972290039,19.604904174804688,17.92273712158203,0.8769632577896118,2.3604629039764404,-0.14735259115695953,,,,,,,,,
1739401053.8920982,-0.7075116089245527,0.676106635745459,1.4191291984934027,-1.8793346441662055,-0.709934140889824,1.9486051924570054,0.18651461642188072,6.857872725839974e-05,-0.0005068170395048705,0.00021090203202171789,0.0015782609986602744,0.0002846851566998355,-0.000584385947965496,0.0005760868884717779,0.2927129566669464,-23.66513442993164,19.604904174804688,17.89893341064453,0.8769632577896118,2.3604629039764404,-0.12721098959445953,,,,,,,,,
1739401053.9021304,-0.7075139320126371,0.6761055215974252,1.4191244210304215,-1.8793389626956698,-0.7099316610116461,1.9486063140984895,0.18651278962266787,-0.0007592197339024087,0.0007015359976682228,-0.001002997921364433,-0.0015633544157199466,0.0013741645017634125,0.0019977736021889875,-0.0016413638466001334,0.3165166676044464,-23.66513442993164,19.628707885742188,17.94654083251953,0.8833719491958618,2.3604629039764404,-0.12080229818820953,,,,,,,,,
1739401053.9121726,-0.7075126518972188,0.6761091787925152,1.4191258749302302,-1.8793391730043958,-0.7099348985342848,1.9486044287640087,0.18651175685265373,-0.000677086457750081,0.0012093321319824487,-0.0002786591164251255,0.00035769162923196334,-0.0002780041004329232,-0.0013169814821067573,-0.0002075001424649733,0.2689092457294464,-23.68893814086914,19.604904174804688,17.94654083251953,0.8833719491958618,2.3668715953826904,-0.08051909506320953,,,,,,,,,
1739401053.9232333,-0.70751050570605,0.6761039981643423,1.419125870820749,-1.87934028044966,-0.7099341408924824,1.948606451167941,0.1865120082157209,0.00025124243413088894,-0.0011351703050091913,-0.0002780535412855619,-0.0009396089192438419,-0.0006289086209680782,0.0006243771493437752,0.0007110593663412058,0.2689092457294464,-23.61355972290039,19.604904174804688,17.99811553955078,0.8769632577896118,2.3604629039764404,-0.07411040365695953,,,,,,,,,
1739401053.9351678,-0.7075105066750811,0.6761057877064351,1.4191311926575016,-1.8793382503628366,-0.7099341236113851,1.9486093134486477,0.18651116609195847,0.0002209181545843668,-0.0001389268395667174,-7.211367824311033e-05,0.0005901372069432264,-0.0006752833470588192,0.001446564716212949,-0.00031823077964996673,0.2689092457294464,-23.63736343383789,19.577133178710938,17.97431182861328,0.8769632577896118,2.3668715953826904,-0.10706938803195953,,,,,,,,,
1739401053.946149,-0.7075085166924174,0.6761039981658553,1.4191322944724922,-1.8793350013341585,-0.7099344428166657,1.9486069289973715,0.1865080271335692,0.0003107591812181921,-0.001377833757329832,-0.0008430345032881976,0.0011836852617644463,-0.0006557427271996459,0.00017912562555904936,-0.0005705344840370811,0.2411382496356964,-23.61355972290039,19.529525756835938,17.89893341064453,0.8705545663833618,2.3732802867889404,-0.08051909506320953,,,,,,,,,
1739401053.9580882,-0.707512651461197,0.6761019992437108,1.4191369203728275,-1.879334992469319,-0.7099333832383855,1.948604428113861,0.18651093263795188,-0.0004644856426771391,-0.0003160342738398386,0.001137872245518078,0.000855927320503935,0.00040025049214254384,-0.000895168831229104,0.00034229925191464156,0.2689092457294464,-23.58578872680664,19.501754760742188,17.89893341064453,0.8705545663833618,2.3668715953826904,-0.10066069662570953,,,,,,,,,
1739401053.9680974,-0.7075129346090175,0.6761018870656663,1.4191369332753458,-1.8793367002884505,-0.7099326255723258,1.9486062718846275,0.18651359988624283,-0.0007166444151167862,0.0002333358809981138,0.0007467199358901062,0.0004209927370064625,-0.00047729912260657895,0.0006890909854681778,0.00019086794832592056,0.2927129566669464,-23.61355972290039,19.501754760742188,17.92273712158203,0.8641458749771118,2.3604629039764404,-0.12721098959445953,,,,,,,,,
1739401053.9791234,-0.7075085461308522,0.676098336389511,1.4191389336700388,-1.879335715283045,-0.7099326255723258,1.9486055658489148,0.18650802908404623,-0.0003223440164856266,-0.0012629897047195448,0.0002634793651125309,-0.0009310300628836723,1.9445234922506403e-06,0.00025592594167134924,-0.002055980259414492,0.2411382496356964,-23.53818130493164,19.477951049804688,17.89893341064453,0.8641458749771118,2.3604629039764404,-0.08051909506320953,,,,,,,,,
1739401053.9891386,-0.7075085086258618,0.6761039981616663,1.4191387162952827,-1.8793325386624866,-0.7099326255723258,1.9486053069396205,0.18651230989120687,9.263125811607509e-05,0.001136826656395082,-0.0006824336505216575,0.0006506251105360078,0.0009404779257278804,2.964989070500544e-06,-0.0015698824362728853,0.2411382496356964,-23.61355972290039,19.477951049804688,17.89893341064453,0.8641458749771118,2.3604629039764404,-0.08051909506320953,,,,,,,,,
1739401054.0001414,-0.7075095673912158,0.6761039942411247,1.4191387163265943,-1.8793307283864347,-0.7099287916286826,1.94861082558159,0.1865111718857525,-0.00042048505207546125,0.0008477469501249439,-0.0003156657794907926,0.0007352142363606602,0.001872917817461301,-0.00023229462660216335,0.00048267316296746567,0.2411382496356964,-23.61355972290039,19.477951049804688,17.87512969970703,0.8705545663833618,2.3403213024139404,-0.10706938803195953,,,,,,,,,
1739401054.0110953,-0.7075125360030701,0.6761039893353705,1.4191351630918385,-1.879331826311632,-0.7099344472052644,1.948605943434018,0.18650747422506395,-0.0001001826427030811,0.0013088728199606627,-0.0006012088205939303,0.0002785470360315244,-0.00016042943309736127,-1.6470745271577097e-05,-0.002535906396965688,0.2927129566669464,-23.61355972290039,19.553329467773438,17.84735870361328,0.8705545663833618,2.3540542125701904,-0.06678618490695953,,,,,,,,,
1739401054.0211296,-0.7075121956644436,0.6761010426255066,1.4191348539310087,-1.8793307991545192,-0.709934140946538,1.9486044340550233,0.18650966975952854,-6.0451906087418306e-05,-0.0007650971529032127,-0.0004068310723113127,0.0008789576373128648,-0.00010473430267985223,-0.00030399176870004143,-0.0008327011857993611,0.2927129566669464,-23.58578872680664,19.529525756835938,17.87512969970703,0.8769632577896118,2.3668715953826904,-0.09425200521945953,,,,,,,,,
1739401054.0311415,-0.7075108237306011,0.6761094211426202,1.419129063117564,-1.879335352143328,-0.7099358044867141,1.9486059434156566,0.1865123996776363,9.402390048612595e-05,0.0025838707627850593,-0.0009369682034701221,-0.00035202086255917354,8.463812294913741e-05,2.0908969045088026e-05,0.00014266854493440634,0.2689092457294464,-23.68893814086914,19.577133178710938,17.92273712158203,0.8641458749771118,2.3540542125701904,-0.11347807943820953,,,,,,,,,
1739401054.0421207,-0.7075108929218145,0.676107942594376,1.4191330711351455,-1.879343144368204,-0.7099333876109999,1.9486051857555449,0.18650782677690886,0.0006147737393807073,0.0007188986520025068,0.0005860692630402496,-0.001996047625580937,0.00032425102941847645,-0.00011699150988166742,-0.00038304461538532004,0.2411382496356964,-23.66513442993164,19.553329467773438,17.99811553955078,0.8705545663833618,2.3604629039764404,-0.06678618490695953,,,,,,,,,
1739401054.0521421,-0.7075127608448568,0.6761039977336076,1.4191288068243535,-1.8793385007166943,-0.7099369803222094,1.9486051872454337,0.1865072885118469,-0.0003123550484194099,-0.0015272143679923782,-0.0003971763090131243,0.000625395784505491,-0.0002358479052413506,0.0001134194971074525,-0.0016994577574672648,0.2689092457294464,-23.61355972290039,19.577133178710938,17.97431182861328,0.8769632577896118,2.3604629039764404,-0.07411040365695953,,,,,,,,,
1739401054.062171,-0.70751122531588,0.6761077073190774,1.4191302047228995,-1.8793371360372217,-0.7099357653851152,1.948604428095542,0.18650927623995284,-0.0010501128637070024,-0.00032042226217937695,-0.00029657448183246035,0.0008244260656699391,0.0010638236553312252,6.244409491321117e-05,0.0007476273040982753,0.2689092457294464,-23.66513442993164,19.577133178710938,17.94654083251953,0.8641458749771118,2.3668715953826904,-0.08692778646945953,,,,,,,,,
1739401054.0731416,-0.7075106219429697,0.6761077086272922,1.4191281004741414,-1.879341630810271,-0.70993419198799,1.9486061877210805,0.18650921696092762,-0.00042737935426923697,-0.0006427776355844049,0.0004634664850884343,-0.0010501594603885378,0.0006502571490673739,0.0005909918459083734,-0.001399679329338478,0.2689092457294464,-23.66513442993164,19.604904174804688,17.94654083251953,0.8769632577896118,2.3540542125701904,-0.08051909506320953,,,,,,,,,
1739401054.0832047,-0.7075078052581538,0.6761017618062782,1.4191266709735137,-1.8793409990958347,-0.709935361877285,1.948605943428035,0.18651656174694334,0.0007066251084432725,-0.0018158592090842,0.0005611713555713823,-0.0008562039365170979,-0.0018073956965039338,0.0005592867677017364,0.0013572069271384473,0.2411382496356964,-23.58578872680664,19.628707885742188,17.99811553955078,0.8769632577896118,2.3540542125701904,-0.11347807943820953,,,,,,,,,
1739401054.0941043,-0.7075105053655639,0.6761087527304558,1.4191258721822329,-1.8793392544736525,-0.7099326653767769,1.9486055902029131,0.1865128310906266,-6.153527799726354e-05,0.0003844366233587801,-0.0005198469511755596,-0.00047865568382801443,0.00035911758731564696,2.3841827152461085e-05,-0.0002910370629747124,0.2689092457294464,-23.63736343383789,19.604904174804688,17.94654083251953,0.8641458749771118,2.3540542125701904,-0.12080229818820953,,,,,,,,,
1739401054.1041536,-0.7075151865096176,0.6761059450623713,1.4191317646832402,-1.8793327639986706,-0.7099333832330783,1.9486044280894845,0.18650844105995884,-0.0015900679227391933,0.0005532503757097058,0.000865934812771481,0.0011082895705981242,0.0005915683115243536,0.00026317541993858124,-0.00035556023300253913,0.2927129566669464,-23.63736343383789,19.529525756835938,17.89893341064453,0.8705545663833618,2.3668715953826904,-0.08051909506320953,,,,,,,,,
1739401054.1150656,-0.7075105057442029,0.6761077215779551,1.4191279506147934,-1.8793374992227672,-0.7099341423460327,1.9486051843019943,0.18650804469219817,-0.0005107162026743746,0.0005410299155719934,-0.0017420415388996492,-0.001111368802257613,0.0009647273484639529,-0.0001914987160718843,-0.0017225828771956306,0.2689092457294464,-23.66513442993164,19.577133178710938,17.92273712158203,0.8769632577896118,2.3604629039764404,-0.08051909506320953,,,,,,,,,
1739401054.125119,-0.7075105146332689,0.6761049602155103,1.4191359075184709,-1.8793308256468853,-0.7099355404998721,1.9486036704353797,0.18651908932999053,0.0003416371994053443,-0.00034345482690893714,-0.0002810875712624233,0.00039826620184317763,0.0004116290300517196,-0.0006310488572526608,0.0021183498085443836,0.2689092457294464,-23.61355972290039,19.501754760742188,17.87512969970703,0.8769632577896118,2.3732802867889404,-0.13361968100070953,,,,,,,,,
1739401054.1351378,-0.7075105851669458,0.6761041062719317,1.4191368511809064,-1.8793347537114287,-0.7099361995037334,1.9486059434156229,0.18651742343936134,0.0001587683902362663,0.00020270578229493618,0.0011871533358135615,-0.000517892309922787,-0.0019333372124433435,-0.00019418826525816787,0.0024799079329289138,0.2689092457294464,-23.58578872680664,19.501754760742188,17.89893341064453,0.8833719491958618,2.3540542125701904,-0.12080229818820953,,,,,,,,,
1739401054.1451705,-0.7075122182160117,0.6761049345360497,1.4191331385183656,-1.879329598456959,-0.7099348985745926,1.9486084441427924,0.18651122648219198,-2.299914010206526e-05,0.0008027404534878193,-0.0013487416556082865,0.00043933825554267,0.0005070492385098652,0.00011496872521450275,-0.0008909137145597649,0.2927129566669464,-23.61355972290039,19.553329467773438,17.84735870361328,0.8833719491958618,2.3604629039764404,-0.08051909506320953,,,,,,,,,
1739401054.1560988,-0.70751154178455,0.6761063863180322,1.419136453065797,-1.879336452885553,-0.7099326299329767,1.9486059434340166,0.18651124806880426,-0.0007380370283567158,0.0016101188328357437,-0.000514280102961646,-0.0005186632196285273,0.0016968473430477812,-0.0001252076445579204,0.0001873580175015435,0.2689092457294464,-23.63736343383789,19.477951049804688,17.92273712158203,0.8641458749771118,2.3540542125701904,-0.09425200521945953,,,,,,,,,
1739401054.1661308,-0.7075085180181572,0.676102322082606,1.4191369335762545,-1.879331757282195,-0.7099349116345869,1.9486067010757018,0.1865146661712026,0.000753430635301869,0.00015278845101543675,-0.0009858895463328641,0.0012913415529051627,0.0004137247822166792,-0.00028959281383171196,-4.5519377525518167e-07,0.2411382496356964,-23.58578872680664,19.501754760742188,17.87512969970703,0.8833719491958618,2.3476455211639404,-0.12721098959445953,,,,,,,,,
1739401054.1770937,-0.7075151885809903,0.6761063382017296,1.4191376223793661,-1.879338146474213,-0.7099333853320506,1.948605943415623,0.1865129490018716,-0.0012695966802164992,0.0005527383938813736,0.0005111135921301801,-0.0009813564053270008,-0.001006766163030893,-6.324528818687272e-05,0.0018635049823737223,0.2927129566669464,-23.61355972290039,19.501754760742188,17.97431182861328,0.8705545663833618,2.3540542125701904,-0.12080229818820953,,,,,,,,,
1739401054.1880748,-0.7075129703504995,0.6761022342414871,1.41913326755046,-1.8793382885390617,-0.7099356520673411,1.948605943415623,0.18651082442922934,-0.0008881321816070591,0.00029703895549520874,-0.0007109607587864847,-0.00039152942121872786,-9.191175169724147e-05,-0.0002445594066183962,0.0005718842547674428,0.2689092457294464,-23.58578872680664,19.553329467773438,17.94654083251953,0.8897806406021118,2.3540542125701904,-0.09425200521945953,,,,,,,,,
1739401054.1981544,-0.7075099330893444,0.67610785138836,1.4191298974489435,-1.8793382487857893,-0.7099346685311516,1.948605943415623,0.18651704154605958,-0.0005735698031398041,0.0022396340894324162,-0.0006768347287863531,-0.0004438233836990455,-0.0008359568884764722,0.00013917624653249328,0.0006638717566219239,0.2173345386981964,-23.63736343383789,19.604904174804688,17.94654083251953,0.8769632577896118,2.3540542125701904,-0.15376128256320953,,,,,,,,,
1739401054.210169,-0.7075068070601594,0.6761080206796051,1.419131248792655,-1.8793390431983286,-0.7099337597048964,1.9486051857555449,0.1865148108841191,0.00011493458186473946,0.0009405440706276439,1.472616754460324e-05,-6.593825427629439e-05,-6.82050171656735e-05,6.468870141965793e-05,-0.0009334161935823225,0.2173345386981964,-23.66513442993164,19.577133178710938,17.94654083251953,0.8705545663833618,2.3604629039764404,-0.10066069662570953,,,,,,,,,
1739401054.2201772,-0.7075105096185871,0.6761057107238689,1.419124119855104,-1.8793392775877902,-0.709939451773914,1.9486066339276549,0.18651585140602764,-0.0007719477529720966,-0.001939240205058165,-0.0005697170674352997,0.0006228605234882286,-0.0017932566878217967,0.000984495024825518,0.0009404735339844102,0.2689092457294464,-23.63736343383789,19.628707885742188,17.94654083251953,0.8833719491958618,2.3604629039764404,-0.13361968100070953,,,,,,,,,
1739401054.2311664,-0.7075088550789351,0.6761077172940881,1.419126313421642,-1.8793392554588109,-0.7099341453326715,1.9486051857637197,0.18651467551585377,0.0010212116977953247,-0.00016629112526885816,-0.0007697051852832618,-0.0005424944119423013,0.00017803819039793734,0.0005701667892808224,0.0006417832972505005,0.2411382496356964,-23.66513442993164,19.628707885742188,17.94654083251953,0.8769632577896118,2.3604629039764404,-0.10066069662570953,,,,,,,,,
1739401054.2421684,-0.7075127613878446,0.6761078258477214,1.4191258058734162,-1.8793413617394947,-0.7099355537433466,1.948605943415623,0.18651084125209036,-0.00047799228248481934,-0.000950285488871053,0.0004466272542888542,-0.001279230709226367,-0.00037842939302550066,-2.3237330180295548e-05,-0.0006078702293688829,0.2689092457294464,-23.63736343383789,19.577133178710938,17.97431182861328,0.8769632577896118,2.3540542125701904,-0.07411040365695953,,,,,,,,,
1739401054.2530572,-0.7075085080928639,0.6761086010561282,1.4191297332754933,-1.8793354780318163,-0.7099359598675568,1.9486044280954664,0.1865124654923564,0.0017024865478345542,-0.000526429581868086,0.0008889699737871123,0.0006775965045480461,-0.00042208855368999786,-0.0006097569269361148,0.001259758238270954,0.2411382496356964,-23.63736343383789,19.553329467773438,17.89893341064453,0.8833719491958618,2.3668715953826904,-0.08051909506320953,,,,,,,,,
1739401054.2631063,-0.7075144006113497,0.6761049718914419,1.4191280320457338,-1.879335475229692,-0.7099327452659362,1.9486044280954664,0.18651479649344224,-0.0007746368830964469,-0.0002222732777869815,0.00015477219645580818,0.00012391956175846527,0.0002902843635523663,-0.0003148698696555913,-0.0006278795331182185,0.2927129566669464,-23.61355972290039,19.577133178710938,17.89893341064453,0.8641458749771118,2.3668715953826904,-0.10066069662570953,,,,,,,,,
1739401054.2741382,-0.7075171096984435,0.6761051476673039,1.4191299930859407,-1.8793328551353736,-0.7099333848481356,1.948605943415623,0.1865155687836488,-0.0011460906113740375,0.000642506432237287,0.000681995418881366,0.000914942717105157,-0.0002831970970564916,0.0001547781563498197,-0.000660183380173951,0.3165166676044464,-23.58578872680664,19.553329467773438,17.89893341064453,0.8705545663833618,2.3540542125701904,-0.10706938803195953,,,,,,,,,
1739401054.2841647,-0.7075122448684713,0.6761020265995319,1.4191318732193685,-1.8793339216604505,-0.7099392940885321,1.9486067413027044,0.18651584521727002,6.346998875735168e-05,-0.0011945203886944704,1.8503806422425577e-05,0.0007778341394384298,-0.0007541087112516529,-0.0009324885099268271,0.001792234909316579,0.2927129566669464,-23.58578872680664,19.529525756835938,17.87512969970703,0.8833719491958618,2.3476455211639404,-0.10706938803195953,,,,,,,,,
1739401054.2961524,-0.7075140190387249,0.6761023490720339,1.419134849398799,-1.8793318501678824,-0.7099356954833088,1.9486066616685662,0.18650787084219908,-0.0006106010807416026,-0.0013515302176043348,-0.0014820997149864058,0.0012806106467408336,-0.0011203060571615192,0.0003568135551245863,-0.002755880034814453,0.3165166676044464,-23.56198501586914,19.529525756835938,17.84735870361328,0.8897806406021118,2.3476455211639404,-0.06678618490695953,,,,,,,,,
1739401054.3071723,-0.7075085077653608,0.6761009156494658,1.4191347438986353,-1.8793353712322047,-0.7099337509986353,1.948605943415549,0.1865190892423662,0.002013265568629457,0.00016225957504682653,-0.001258694143825901,0.00033062354493171,0.0004585599404017495,4.352487713086302e-05,0.0008951317516175105,0.2411382496356964,-23.53818130493164,19.529525756835938,17.89893341064453,0.8705545663833618,2.3540542125701904,-0.13361968100070953,,,,,,,,,
1739401054.3191292,-0.7075106535202936,0.67610270224833,1.4191369647145535,-1.8793385665467468,-0.709935958677283,1.9486075669729337,0.18651768089362844,0.00048798409353688094,0.00013810239888858547,-0.0003826821112886854,-0.0017578999515316422,0.00015227915606457355,0.00015779956207393478,0.0009542977304011454,0.2411382496356964,-23.58578872680664,19.501754760742188,17.94654083251953,0.8833719491958618,2.3403213024139404,-0.13361968100070953,,,,,,,,,
1739401054.3301067,-0.7075106539725092,0.6761066592201449,1.4191348623280544,-1.8793329713037352,-0.7099341801403339,1.9486059434156229,0.18651368528223586,0.0003381097387357628,0.001228022483659048,-0.0005397569208987721,0.0009749825971180565,0.0003992924180117497,-6.892665751791335e-05,-0.0006599364974634603,0.2411382496356964,-23.63736343383789,19.529525756835938,17.87512969970703,0.8769632577896118,2.3540542125701904,-0.12721098959445953,,,,,,,,,
1739401054.3411639,-0.707511574525777,0.6761040072765571,1.4191348348560402,-1.8793374638261806,-0.7099358044873785,1.9486051857555446,0.18651438888072913,-0.0003114399591650392,-0.00015564320667401895,-0.0008405730385391074,0.0002322128085844874,0.001111672259983308,0.0005910291785637701,0.00029098532848856285,0.2689092457294464,-23.61355972290039,19.529525756835938,17.92273712158203,0.8641458749771118,2.3604629039764404,-0.12080229818820953,,,,,,,,,
1739401054.352144,-0.7075100035871645,0.676105012323246,1.4191312884705816,-1.87933896405815,-0.7099373198248156,1.9486044280954662,0.18651444445882173,0.000665912496592943,0.0006004821759923137,-0.0014505790752697093,0.00034417044559794275,-0.0002059771102869096,-0.0004200600341320546,0.0003412840372835784,0.2173345386981964,-23.61355972290039,19.577133178710938,17.94654083251953,0.8769632577896118,2.3668715953826904,-0.09425200521945953,,,,,,,,,
1739401054.3630857,-0.7075075106515928,0.6761101276275223,1.4191348171952607,-1.879341358795607,-0.7099330311367712,1.9486044285920958,0.1865191015997651,0.001074445431392864,0.001376664226239696,9.03112460076506e-05,-0.001520494177454111,0.00030537091832802984,-0.0002881093250481973,0.000495560574312431,0.2173345386981964,-23.66513442993164,19.529525756835938,17.97431182861328,0.8641458749771118,2.3668715953826904,-0.13361968100070953,,,,,,,,,
1739401054.3751209,-0.7075136319575036,0.6761105176806355,1.4191274133415697,-1.8793327496089718,-0.7099342978781985,1.9486059434156258,0.1865140758928675,-0.0007548611555456693,-0.0001266259557625171,0.00036851909155971986,0.0008493751095772016,0.000867941403543394,0.00012408151912536675,-0.0008282959992022966,0.2689092457294464,-23.66513442993164,19.628707885742188,17.89893341064453,0.8769632577896118,2.3540542125701904,-0.09425200521945953,,,,,,,,,
1739401054.385126,-0.7075153219254765,0.6761087576461384,1.4191242075474044,-1.8793361824915118,-0.7099402611145399,1.9486066952615004,0.18651194283377523,-0.0006891528305392181,0.0013093228046389752,-0.0017140803463760936,0.0004421616688584433,-0.0009109417101002149,0.00021745622427324162,-0.0010651860745158062,0.2927129566669464,-23.66513442993164,19.628707885742188,17.94654083251953,0.8897806406021118,2.3476455211639404,-0.07411040365695953,,,,,,,,,
1739401054.396065,-0.7075085167099362,0.6761104741515057,1.419124829928756,-1.8793371783113788,-0.7099354139264066,1.9486044280954335,0.18651266001383926,0.00048788655599207615,0.0012654748936597438,-0.0006188338528679504,0.0006693511833727188,-0.002038379395132837,-0.00022071434563757743,-0.0018328708552163566,0.2411382496356964,-23.68893814086914,19.628707885742188,17.92273712158203,0.8568216562271118,2.3668715953826904,-0.07411040365695953,,,,,,,,,
1739401054.4060678,-0.7075122447057708,0.6761071541802889,1.419127953675599,-1.8793371096861882,-0.7099370724048135,1.948605941477556,0.18651471947746096,-0.0003769832586158465,-0.0015398240574667143,-0.00019887414164725125,-0.0006017728114840629,1.9538793588964943e-05,8.826790135306334e-05,-0.001841896615242493,0.2927129566669464,-23.61355972290039,19.577133178710938,17.94654083251953,0.8705545663833618,2.3540542125701904,-0.10066069662570953,,,,,,,,,
1739401054.4161463,-0.7075088639096793,0.6761108676734163,1.4191262977284849,-1.8793392523695924,-0.7099344841169336,1.9486059434155902,0.186514448694021,0.0009315964435089605,0.00025606219752517774,-0.0006075507433510657,0.00022068859865688643,-0.0010430305397764522,0.0001900439671292084,6.535548648763765e-05,0.2411382496356964,-23.66513442993164,19.604904174804688,17.94654083251953,0.8705545663833618,2.3540542125701904,-0.09425200521945953,,,,,,,,,
1739401054.4271328,-0.7075130516823874,0.6761088697326146,1.4191279506129912,-1.879337499236264,-0.7099341969201914,1.9486051857555446,0.186516521481383,-0.0009158858629997075,0.0015383763066350534,0.0009386143272112692,-0.0002929608128840708,0.0006623626774858596,8.225109087186165e-05,0.0006518730476490601,0.2927129566669464,-23.63736343383789,19.577133178710938,17.92273712158203,0.8641458749771118,2.3604629039764404,-0.12080229818820953,,,,,,,,,
1739401054.4381664,-0.7075112240431711,0.6761087917314745,1.4191315159646196,-1.8793374989457208,-0.7099344448174708,1.9486051857555446,0.18651551511963277,-0.00030067000301000257,0.0007013610302232088,1.7345587125078906e-05,-0.0010494318441279945,0.0010040927036089361,0.0001469959715329883,0.0005687325363570403,0.2689092457294464,-23.63736343383789,19.529525756835938,17.92273712158203,0.8705545663833618,2.3604629039764404,-0.09425200521945953,,,,,,,,,
1739401054.4492617,-0.7075088269648809,0.6761034120818049,1.4191364054131945,-1.8793334913556734,-0.7099380321885856,1.9486035221613134,0.1865187315885428,0.00034049627646613257,-0.0009258925180208187,0.00179862523158287,0.00023822317024820483,-0.0012110069459438414,0.0002933263822256787,0.00034246531533393444,0.2411382496356964,-23.56198501586914,19.477951049804688,17.89893341064453,0.8705545663833618,2.3476455211639404,-0.14094389975070953,,,,,,,,,
1739401054.4601016,-0.7075105854944438,0.676105081269825,1.41913871593553,-1.879333561654872,-0.7099327885581518,1.9486051855701123,0.1865136428707994,0.00022114359369763026,-0.0002876407615478349,0.00034769522115098736,0.0004650474643439252,0.001502051292817502,-9.562501985414373e-05,-0.0006401732501009629,0.2689092457294464,-23.58578872680664,19.477951049804688,17.89893341064453,0.8641458749771118,2.3604629039764404,-0.06037749722599983,,,,,,,,,
1739401054.4701996,-0.7075105979230492,0.6761071572105626,1.419137372662049,-1.8793374066814637,-0.7099363177048779,1.9486065775239274,0.1865205243101918,0.0006930811679040047,0.0010087616060266802,0.0013371880528316028,-0.0006757584177850775,-0.0010518196763854484,2.3723695585597086e-05,0.0035333544293752192,0.2689092457294464,-23.61355972290039,19.477951049804688,17.92273712158203,0.8833719491958618,2.3476455211639404,-0.13361968100070953,,,,,,,,,
1739401054.4820912,-0.7075126529152175,0.6761108561177432,1.4191330619450717,-1.8793374902965743,-0.7099352398383149,1.9486059414768584,0.18651835851989568,-0.001559007998647043,0.0025774469481822737,-0.0020354583872540222,-0.0010101263004465959,0.00040964115332103537,3.361084058672173e-05,0.0010946206066364485,0.2689092457294464,-23.66513442993164,19.553329467773438,17.92273712158203,0.8769632577896118,2.3540542125701904,-0.12721098959445953,,,,,,,,,
1739401054.4931374,-0.7075133681462165,0.6761022462654253,1.4191369421177993,-1.879335610631887,-0.7099373248197471,1.9486051857555338,0.1865112149139512,-0.0007829578733958839,-0.0006922274774472728,0.0013813678905825522,-0.0004932053313877543,0.0017095970200520256,-0.0002903832572827223,-0.00029903551098042313,0.2689092457294464,-23.58578872680664,19.501754760742188,17.89893341064453,0.8769632577896118,2.3604629039764404,-0.06678618490695953,,,,,,,,,
1739401054.5042136,-0.7075106247935377,0.6761060612105463,1.419134853824743,-1.8793316153830486,-0.7099334399986351,1.9486059434156229,0.18651456661594987,-0.0013102719660147966,0.00016603754782372698,0.00012463781007026177,0.000976454695172411,-8.803132625516581e-05,0.00044184440648505915,-5.744284227672449e-05,0.2689092457294464,-23.63736343383789,19.529525756835938,17.84735870361328,0.8705545663833618,2.3540542125701904,-0.09425200521945953,,,,,,,,,
1739401054.5151205,-0.707508507753754,0.6761067594774121,1.4191282196852457,-1.8793392819484411,-0.7099356956203219,1.9486059434156229,0.18651759408100105,0.0018600759714239902,0.0009469579735298767,-0.0011367750366817675,-0.0011954239159999783,-0.0014018774618908656,0.0008327583257495504,0.00043493384511904097,0.2411382496356964,-23.63736343383789,19.604904174804688,17.94654083251953,0.8897806406021118,2.3540542125701904,-0.12080229818820953,,,,,,,,,
1739401054.526052,-0.7075122271903386,0.6761051591521204,1.419133040579885,-1.87933534467524,-0.7099380794590735,1.9486044280954662,0.18651448830179157,7.350586355643705e-05,-0.0007540094332198056,0.001389484985340042,-0.0004620626507588773,-0.0007085765125109593,8.22314421081912e-05,-0.000263522840660078,0.2927129566669464,-23.58578872680664,19.553329467773438,17.92273712158203,0.8833719491958618,2.3668715953826904,-0.09425200521945953,,,,,,,,,
1739401054.5361829,-0.7075150793467834,0.6761087846471351,1.4191327401253473,-1.8793392729739664,-0.7099334226936354,1.948603670435388,0.18651834540299783,-0.0010882226626852147,0.00018547173400693988,0.0010952287983357072,-0.0007251776638734157,0.0008087684004017918,-0.00010429149252530028,0.0017754166625568537,0.2927129566669464,-23.66513442993164,19.553329467773438,17.94654083251953,0.8705545663833618,2.3732802867889404,-0.12721098959445953,,,,,,,,,
1739401054.5471275,-0.7075091833588782,0.6761107549577297,1.4191267347202954,-1.8793316812065097,-0.7099350730326484,1.9486051857555446,0.18651835856604437,0.0011094503388132297,-5.6123918253678435e-05,0.0012341785127408622,0.002282300924424145,0.0005763181429611648,0.00042810483369693566,0.00210447078061427,0.2173345386981964,-23.66513442993164,19.604904174804688,17.87512969970703,0.8833719491958618,2.3604629039764404,-0.12721098959445953,,,,,,,,,
1739401054.558088,-0.7075114523323123,0.6761108686358084,1.4191240881485834,-1.8793367830231693,-0.7099353708123163,1.9486051857555446,0.1865144488648585,0.00011130701916754797,0.0005467330643427005,-0.0014066935959827576,-0.00047798902261551163,-0.00036034373087574025,0.00029856151468648503,-0.0010801413838686955,0.2411382496356964,-23.66513442993164,19.628707885742188,17.92273712158203,0.8769632577896118,2.3604629039764404,-0.09425200521945953,,,,,,,,,
1739401054.568186,-0.7075088258034034,0.6761108676734839,1.4191317628864677,-1.879339246616388,-0.7099341932411202,1.9486051857555446,0.18652072223181426,0.0014624992678541338,0.0007804563403397222,0.0015141141869209525,-0.0011649282156471108,0.00016694721713803344,2.848456140968554e-05,0.0018945322500345716,0.2411382496356964,-23.66513442993164,19.529525756835938,17.94654083251953,0.8769632577896118,2.3604629039764404,-0.14735259115695953,,,,,,,,,
1739401054.57908,-0.707512575462773,0.6761080595254275,1.4191288113179286,-1.8793374992725702,-0.7099353105535983,1.9486044280954662,0.18651169914144552,0.00016891850086221596,-0.0005939042487291192,-0.0001702595967016386,0.00036053598697488874,7.668071971901163e-05,-0.00027402567401333495,-0.0020271758809591776,0.2927129566669464,-23.66513442993164,19.604904174804688,17.92273712158203,0.8833719491958618,2.3668715953826904,-0.10706938803195953,,,,,,,,,
1739401054.5900538,-0.7075168185823983,0.6761051727051527,1.4191299806993487,-1.8793374982916233,-0.7099342978828863,1.9486043888496096,0.18651448828369857,-0.0012666328041209829,-0.0004676626752271889,-2.5437559718842476e-05,-0.0004884187905939459,0.000869774297883486,-0.0003005325462987162,0.0005127309128844578,0.3165166676044464,-23.58578872680664,19.553329467773438,17.92273712158203,0.8769632577896118,2.3668715953826904,-0.09425200521945953,,,,,,,,,
1739401054.6001298,-0.7075095806348202,0.6761070791038217,1.4191297698821246,-1.8793392023679074,-0.7099388699921765,1.9486059434154015,0.1865151099586465,-0.001123353752793174,0.00027578641515108954,-0.0010807671606802717,-0.0009672824743098903,-0.00037278651375448807,9.655741163811233e-05,0.0007797419334510365,0.2411382496356964,-23.61355972290039,19.553329467773438,17.94654083251953,0.8769632577896118,2.3540542125701904,-0.08692778646945953,,,,,,,,,
1739401054.6110883,-0.7075160884277775,0.6761088684482043,1.4191336231904423,-1.879335712343667,-0.7099383815712683,1.9486039571451865,0.18651764035155752,-0.000989985500151316,0.0016119491263319238,-0.0006172224874240698,0.0001531298532412713,1.1294889111651034e-05,-0.0005662697219078709,0.001323407099367028,0.3165166676044464,-23.63736343383789,19.501754760742188,17.89893341064453,0.8769632577896118,2.3668715953826904,-0.12080229818820953,,,,,,,,,
1739401054.621126,-0.7075060721438775,0.6761088572138478,1.4191386204798084,-1.879333903175928,-0.7099350300720485,1.9486067010517747,0.18651758774492444,0.0030040516126248586,0.00032776689245776996,0.0014381935976847627,0.0010093637003283037,-0.0006606211687749294,0.0006195769014391551,0.0007838116630685268,0.1935308277606964,-23.63736343383789,19.477951049804688,17.87512969970703,0.8833719491958618,2.3476455211639404,-0.12080229818820953,,,,,,,,,
1739401054.6311703,-0.7075106901916839,0.6761044571537016,1.4191387149344137,-1.8793371260438902,-0.7099337396924142,1.9486059434156229,0.18651206764739514,0.0005093569332145112,-0.0002580483184496571,0.0017505705573410816,-0.000937469644556002,0.0020045915695872177,0.0005717045783341958,-0.0013157836470113228,0.2411382496356964,-23.58578872680664,19.477951049804688,17.94654083251953,0.8641458749771118,2.3540542125701904,-0.07411040365695953,,,,,,,,,
1739401054.6421354,-0.7075144699943494,0.6761073912113402,1.4191347069048024,-1.8793390346887218,-0.7099344493908812,1.9486041261174154,0.18651444886478422,-0.0009987196667574152,0.0012714446186473621,0.0006087802040785939,-0.0012983709693546283,0.0006554819322200549,-0.0003146600922532544,0.0007888258233678675,0.2927129566669464,-23.61355972290039,19.501754760742188,17.94654083251953,0.8705545663833618,2.3604629039764404,-0.09425200521945953,,,,,,,,,
1739401054.6531522,-0.7075127664133436,0.6761051592723514,1.4191347349305894,-1.8793374992713738,-0.7099376730255987,1.9486048325368532,0.18651764764738715,-0.0005482685992615813,-0.0002518683363121946,-0.0003088713460912779,-0.0006905924246793974,-0.0005150434686458621,-0.00019515833604454743,0.0006248231220732344,0.2689092457294464,-23.58578872680664,19.529525756835938,17.92273712158203,0.8769632577896118,2.3604629039764404,-0.09425200521945953,,,,,,,,,
1739401054.6640704,-0.7075136977393754,0.6761088580698927,1.4191300909329672,-1.879337498291623,-0.7099393137044545,1.9486065833361377,0.18651922160806694,-0.0005013881332803267,0.0011593558512729496,-0.00020685459735302183,-0.0003637423717653003,-0.00028971956572622246,0.00031181991388791875,0.0015304803637784573,0.2689092457294464,-23.63736343383789,19.553329467773438,17.92273712158203,0.8833719491958618,2.3476455211639404,-0.13361968100070953,,,,,,,,,
1739401054.675108,-0.7075116380642331,0.6761108416730218,1.4191290357040094,-1.8793339073914341,-0.7099388542096096,1.9486067010750368,0.18651916296821303,-0.0004156899697607947,0.0008240178935147247,-0.00028475389608777554,0.0016784605079417383,-0.0010794258539903803,0.0009511056629738905,7.059560021155221e-05,0.2411382496356964,-23.66513442993164,19.577133178710938,17.87512969970703,0.8897806406021118,2.3476455211639404,-0.10706938803195953,,,,,,,,,
1739401054.6851645,-0.7075117224778178,0.6761089477333143,1.4191312789360095,-1.8793339339182824,-0.7099357243473755,1.9486051857555446,0.18651282536164515,0.00027054391157029255,0.0008339596588109456,0.0003342109939835227,-5.910026216533347e-05,-0.000163169859104745,0.00017963238619190326,-0.0014078418748264122,0.2411382496356964,-23.63736343383789,19.577133178710938,17.87512969970703,0.8769632577896118,2.3604629039764404,-0.08051909506320953,,,,,,,,,
1739401054.6971138,-0.7075137154780738,0.6761092596317578,1.4191297347007203,-1.8793335325638283,-0.7099357170344046,1.9486051857555446,0.18651838500181683,0.00022372076955185332,0.0002419722969953547,0.0008450648951342924,0.00017933790945285784,-0.001621653707854083,-0.00010082364614493142,0.0004745187663398955,0.2689092457294464,-23.63736343383789,19.553329467773438,17.89893341064453,0.8769632577896118,2.3604629039764404,-0.12721098959445953,,,,,,,,,
1739401054.7071366,-0.7075153309016208,0.676110274718314,1.419127951062805,-1.879335477183696,-0.709939151649478,1.9486051857555446,0.18651444886500773,-0.0006746177496291618,0.0002594657988805421,0.0002477839327459426,0.0016659748357532229,-0.00019973269828669137,-0.0006509498726634326,-0.0006482711359436271,0.2927129566669464,-23.63736343383789,19.577133178710938,17.89893341064453,0.8833719491958618,2.3604629039764404,-0.09425200521945953,,,,,,,,,
1739401054.7181816,-0.7075092986268329,0.6761088350733724,1.4191286926964362,-1.879333649827643,-0.709936532118813,1.9486044280954662,0.18651438895964867,0.0003026911605124111,-0.0001928988273061027,-0.0005281356171458909,0.0003815506629603917,4.3413775593228055e-05,-0.0003943467228721504,0.00021326199272121216,0.2173345386981964,-23.63736343383789,19.577133178710938,17.89893341064453,0.8961893320083618,2.3668715953826904,-0.12080229818820953,,,,,,,,,
1739401054.7291136,-0.7075096958786756,0.6761108679942645,1.4191297455016116,-1.879337260479136,-0.7099383794456673,1.948605185271028,0.18651346442189318,-0.0001710556413919205,-0.0007277624006425448,0.0005444051228912451,0.001004661198712303,0.0012663088734793657,-0.00020104590870189418,-0.0015139618309498496,0.2173345386981964,-23.66513442993164,19.553329467773438,17.92273712158203,0.8769632577896118,2.3604629039764404,-0.08692778646945953,,,,,,,,,
1739401054.740052,-0.707507868005145,0.6761088696969506,1.41912981604313,-1.8793392819484407,-0.709934951604154,1.9486036704353853,0.1865130478765339,0.0013543142065499678,0.00022411422833237496,0.00028588408524287355,-0.001005654547199167,-0.0007427202548566709,-0.00036883755118658287,-0.0008810012702132725,0.2173345386981964,-23.63736343383789,19.553329467773438,17.94654083251953,0.8833719491958618,2.3732802867889404,-0.09425200521945953,,,,,,,,,
1739401054.751167,-0.7075123373876148,0.6761108676734671,1.4191337415452543,-1.8793357165957505,-0.7099356692954898,1.9486051857555446,0.18651056205268368,0.0005834683655906344,3.9524466919947784e-05,0.0013778349501375512,-0.00036517644142183847,0.001085545717876561,-0.001058174510685579,-0.0024727848380387087,0.2927129566669464,-23.66513442993164,19.529525756835938,17.89893341064453,0.8897806406021118,2.3604629039764404,-0.06037749722599983,,,,,,,,,
1739401054.762152,-0.7075117224371429,0.6761088697326146,1.4191320684202584,-1.8793357165957505,-0.7099394946784633,1.9486075669729337,0.1865135216000033,-0.00011445370139617707,0.0005519777444889266,-0.0010461004684729832,-0.0004597711090884339,-0.0010307348247573943,0.0006053806054075559,-0.00039700948505019823,0.2411382496356964,-23.63736343383789,19.553329467773438,17.89893341064453,0.8833719491958618,2.3403213024139404,-0.11347807943820953,,,,,,,,,
1739401054.772193,-0.7075113815853752,0.6761051592710304,1.419130101091509,-1.8793357165957505,-0.7099389965489403,1.9486051857555446,0.18651261615937814,0.00233398885727467,6.068148611001567e-05,-0.001197592164721317,-0.00038638947049114816,0.00048003427577684977,0.00014747798134041634,-0.0011476872321327372,0.2411382496356964,-23.58578872680664,19.553329467773438,17.89893341064453,0.8897806406021118,2.3604629039764404,-0.10706938803195953,,,,,,,,,
1739401054.7831469,-0.707512766743904,0.6761085612324048,1.4191384676692917,-1.8793374989457208,-0.7099349138396694,1.9486059434156229,0.1865104391961753,0.0005429297205708142,0.000593799718781176,0.003724579241005162,-0.001586435624843294,0.00016006166369889432,0.0007644756467022573,-0.003225360886154209,0.2689092457294464,-23.61355972290039,19.477951049804688,17.92273712158203,0.8705545663833618,2.3540542125701904,-0.06037749722599983,,,,,,,,,
1739401054.794047,-0.7075117263984938,0.676105237315762,1.4191315436048966,-1.8793357044949428,-0.7099399143159724,1.9486059434156229,0.18651358150488925,-0.0004280295876127022,0.0001915350854428164,-0.00025984612221168055,-1.9713455099111532e-05,-0.0005429411686618078,0.00047569623900554876,-0.0004946020362744915,0.2411382496356964,-23.58578872680664,19.529525756835938,17.89893341064453,0.8897806406021118,2.3540542125701904,-0.08692778646945953,,,,,,,,,
1739401054.8051558,-0.707510825057093,0.6761051705070842,1.4191312884146297,-1.8793374861906125,-0.7099341414491106,1.9486050680179747,0.1865144490272744,0.0011905241809563884,-0.0005558106406106052,0.000670843145843577,-0.0010284326913939427,0.0007496195639656224,-0.00047582978934734567,0.00027173334265771397,0.2689092457294464,-23.58578872680664,19.577133178710938,17.92273712158203,0.8769632577896118,2.3604629039764404,-0.09425200521945953,,,,,,,,,
1739401054.8161097,-0.7075117250781359,0.6761085477773127,1.4191346793950257,-1.8793353943072977,-0.7099385680132403,1.9486051857553233,0.18651520652486284,0.0009459514849434504,6.0705603383818586e-05,0.0010867504171249698,0.000808484644797377,-0.00039038111441391186,-0.0004909951409271524,0.0007412045921426389,0.2411382496356964,-23.63736343383789,19.501754760742188,17.89893341064453,0.8833719491958618,2.3604629039764404,-0.10066069662570953,,,,,,,,,
1739401054.8271465,-0.7075132822679316,0.6761041487551075,1.419132298881284,-1.8793374625288293,-0.7099359714962906,1.9486059434156229,0.18651206325949032,-0.0006714784144830776,-0.0009709619954812784,-0.0005400200667923534,-0.0010413158880740534,-0.00015785482065889143,0.000643730892597251,0.0007281408402552451,0.2927129566669464,-23.56198501586914,19.529525756835938,17.92273712158203,0.8833719491958618,2.3540542125701904,-0.07411040365695953,,,,,,,,,
1739401054.8371882,-0.7075133711198799,0.6761111016808508,1.4191330619759184,-1.8793356062710795,-0.709939349689871,1.9486059434156229,0.18651357857962225,-0.00027463181837009734,0.0011227407807336632,-0.000632678950772172,0.0005731113470467043,-0.0008129314947826272,6.491716999378942e-05,-0.0015848060412093756,0.2689092457294464,-23.66513442993164,19.553329467773438,17.89893341064453,0.8897806406021118,2.3540542125701904,-0.08692778646945953,,,,,,,,,
1739401054.8481421,-0.7075134506029085,0.6761087616440066,1.4191312050368527,-1.8793364308036997,-0.7099341978171326,1.9486051857555446,0.18650922406836998,-0.00027555109891306574,0.00044794154092785024,0.00041837761759602076,0.0002506142498690029,-0.00024541840648605826,0.0003508964626223621,-0.0017822865197610128,0.2689092457294464,-23.66513442993164,19.577133178710938,17.92273712158203,0.8769632577896118,2.3604629039764404,-0.07411040365695953,,,,,,,,,
1739401054.8600562,-0.707507152531625,0.6761108678399081,1.4191330701297515,-1.8793346647347422,-0.7099368853078353,1.9486052041308424,0.18651898598138975,0.0011880304910142413,0.00012164944494498753,0.000655313443073231,-0.0004890493425545655,-0.0012934264721110654,0.0009894879934876965,0.00101104739690244,0.2173345386981964,-23.66513442993164,19.553329467773438,17.92273712158203,0.8961893320083618,2.3604629039764404,-0.13361968100070953,,,,,,,,,
1739401054.8701532,-0.7075115782343394,0.6761125801941998,1.4191302038314895,-1.8793374992567686,-0.7099382539952122,1.9486045305648876,0.18651818743709606,-0.00016386538125013822,0.0013822931384924921,-0.00036631936428705835,0.0011944846847317528,-0.0005518537346064477,-0.0010121658942687183,-1.88252424954677e-05,0.2689092457294464,-23.68893814086914,19.577133178710938,17.92273712158203,0.8833719491958618,2.3540542125701904,-0.12721098959445953,,,,,,,,,
1739401054.8801625,-0.707509580600343,0.6761071312115035,1.4191297377348613,-1.8793329801353986,-0.7099342782290526,1.9486036311656048,0.18651768137857627,0.00027170767318007,-0.0013895083410434572,0.00018904030149807864,0.002406510004231063,-0.0010612790537818343,-0.0009065676725993131,0.000279587391067413,0.2411382496356964,-23.61355972290039,19.553329467773438,17.87512969970703,0.8769632577896118,2.3732802867889404,-0.13361968100070953,,,,,,,,,
1739401054.8910863,-0.7075106208332829,0.6761087616422453,1.4191279506106567,-1.8793392816065875,-0.7099379812986748,1.9486044222806003,0.1865176276968635,-0.0009646552764732578,0.00024395287275484452,-0.0005579690874436496,-0.0009527193114544719,-0.0005712582527281829,-0.0005590089857961955,0.0006678032078548425,0.2689092457294464,-23.66513442993164,19.577133178710938,17.94654083251953,0.8705545663833618,2.3668715953826904,-0.12080229818820953,,,,,,,,,
1739401054.9011376,-0.7075115742720479,0.6761071832003749,1.4191297622670855,-1.8793385666940494,-0.7099366035181776,1.948605185755512,0.18651668235410154,0.0007614558812278608,-0.0003601952465387208,-0.0009909464160623377,-0.00011311910496337454,0.0014958995855682358,0.00033728198579933684,6.980615965325088e-05,0.2689092457294464,-23.61355972290039,19.553329467773438,17.94654083251953,0.8705545663833618,2.3604629039764404,-0.11347807943820953,,,,,,,,,
1739401054.912103,-0.7075114879731832,0.6761034467504459,1.4191322587289588,-1.8793353535015203,-0.7099346532602052,1.9486059303336707,0.18651282091934573,0.000666542552213766,-0.0013968937808938936,0.0001802554358693715,-0.0003830597806304238,-0.0006307998778357637,0.00046193960868905963,-0.00044835303478128893,0.2411382496356964,-23.56198501586914,19.529525756835938,17.92273712158203,0.8769632577896118,2.3540542125701904,-0.08051909506320953,,,,,,,,,
1739401054.922122,-0.7075116999008327,0.6761074692164438,1.4191345196185843,-1.8793350266747848,-0.7099341951843893,1.9486044280948016,0.18651672184479628,-0.00026406720019048766,0.0010679427006246895,0.0011271624539788564,0.00021303441949793416,0.0011157549962353267,-0.00013407799706731502,0.00022161524466673456,0.2411382496356964,-23.61355972290039,19.529525756835938,17.92273712158203,0.8769632577896118,2.3668715953826904,-0.11347807943820953,,,,,,,,,
1739401054.9330418,-0.7075137243446029,0.676107165916104,1.4191360673169373,-1.8793351150730206,-0.7099352582258004,1.9486059434156229,0.18651910452504322,-0.0011136130807063902,-7.985084150659202e-05,0.0013839382497872299,-0.0002170821651913262,0.0012445198084618048,-8.023836784111159e-05,0.0011797101113978166,0.2689092457294464,-23.61355972290039,19.501754760742188,17.92273712158203,0.8833719491958618,2.3540542125701904,-0.13361968100070953,,,,,,,,,
1739401054.943152,-0.7075153294844593,0.6761050552696577,1.4191322673627484,-1.8793349979201324,-0.7099387522059762,1.9486044280954662,0.1865175877422764,-0.0016329808483778806,-0.00029995500449027086,-0.0008375157481711206,-0.0006436943747343061,-0.0007974631204373887,-0.00029442776301573137,0.00027281924720988103,0.2927129566669464,-23.58578872680664,19.529525756835938,17.89893341064453,0.8769632577896118,2.3668715953826904,-0.12080229818820953,,,,,,,,,
1739401054.9531739,-0.7075136064612214,0.6761109757628095,1.4191330736283685,-1.8793365454490414,-0.7099401167910826,1.9486050680179747,0.18651038857285368,0.0005711801917908464,0.0011182107226975651,2.7800106008674574e-05,9.905736296922935e-05,-0.0021930728586750797,-0.0005511935053411408,-0.001564681023172569,0.2689092457294464,-23.63736343383789,19.553329467773438,17.92273712158203,0.8961893320083618,2.3604629039764404,-0.08692778646945953,,,,,,,,,
1739401054.9640973,-0.7075137243440871,0.6761071569384456,1.4191317759320952,-1.8793392816173558,-0.7099331547393536,1.9486051852703632,0.1865172087521697,-0.0007114376855484241,-6.989807107872175e-05,-0.002235131506985331,-0.0011954841273671053,0.00040427240248370767,0.0009242911181946778,0.0011759368501738253,0.2689092457294464,-23.61355972290039,19.529525756835938,17.94654083251953,0.8641458749771118,2.3604629039764404,-0.08051909506320953,,,,,,,,,
1739401054.9741035,-0.7075117149571913,0.6761071573188763,1.4191328116368644,-1.879337499272764,-0.7099387346047381,1.9486059434156147,0.18651444893901822,-0.00015615736921771448,0.0006208250536935403,1.0553713915974032e-05,-0.0010483084340972386,0.001071897168454212,-0.0006497023959680957,0.0005806205598764847,0.2411382496356964,-23.61355972290039,19.553329467773438,17.92273712158203,0.8769632577896118,2.3540542125701904,-0.09425200521945953,,,,,,,,,
1739401054.9861846,-0.7075099344102439,0.6761071312115041,1.4191347293230117,-1.879333933882393,-0.7099404182845175,1.948603670435388,0.18651514661972743,0.000633419595248246,-0.001301354982905668,-0.0009269021253969201,0.0009756998531886669,-0.0020816469719367138,-0.0007373889557058873,-0.0008267416692584547,0.2173345386981964,-23.61355972290039,19.501754760742188,17.87512969970703,0.8897806406021118,2.3732802867889404,-0.12721098959445953,,,,,,,,,
1739401054.9980452,-0.7075095772570338,0.6761049252675613,1.419131285401524,-1.879335353469219,-0.7099351136704939,1.9486059303336707,0.1865175885488075,0.0005228364412974947,-0.0004931782784857262,-0.0007978373939045659,0.0001600161425846958,0.0006365465830809344,0.0006114207214254202,-0.0004281719057788006,0.2411382496356964,-23.58578872680664,19.577133178710938,17.92273712158203,0.8568216562271118,2.3540542125701904,-0.12080229818820953,,,,,,,,,
1739401055.0081186,-0.7075116909251415,0.6761072662634685,1.4191281830557623,-1.879338530052472,-0.7099346663429122,1.9486059434155492,0.18651444886478877,0.00013804839154681265,-0.0009538746670250819,-0.001068967190878095,-0.00033109376465784694,0.00021681422929451167,0.001021741138847914,0.00012798800245049613,0.2411382496356964,-23.58578872680664,19.604904174804688,17.94654083251953,0.8769632577896118,2.3540542125701904,-0.09425200521945953,,,,,,,,,
1739401055.018118,-0.7075117264032987,0.6761081678650335,1.4191307234528847,-1.879339245634638,-0.7099343114512765,1.948607514645125,0.18651789050768317,8.979066591472751e-05,-0.00037496104320700914,-0.0009328047858784902,-7.6381930127976e-05,0.0019504066176640467,0.0006265424479925922,-0.00011055616936051307,0.2411382496356964,-23.63736343383789,19.553329467773438,17.94654083251953,0.8769632577896118,2.3403213024139404,-0.12080229818820953,,,,,,,,,
1739401055.028121,-0.7075132557770009,0.676108835053555,1.419128463389713,-1.8793357162680868,-0.7099376760536857,1.9486043714061205,0.1865112017552901,-0.0006268092031237659,-0.0009747395507987019,0.00016748796777995835,0.0010212511955181626,-0.0013415400958418193,8.571428836435824e-05,-0.0028444033717881243,0.2927129566669464,-23.63736343383789,19.604904174804688,17.89893341064453,0.8705545663833618,2.3668715953826904,-0.06678618490695953,,,,,,,,,
1739401055.038139,-0.7075095804907344,0.6761089506220985,1.4191259578030866,-1.8793385666940459,-0.7099356063053354,1.9486027645002748,0.18651601245189384,0.0011048056686347606,-5.662036721221892e-05,-0.0009679848174954396,-0.00010484464267217293,-0.0004597310155713042,-0.0004123966927716741,0.0009215851986471809,0.2411382496356964,-23.63736343383789,19.604904174804688,17.94654083251953,0.8769632577896118,2.3540542125701904,-0.10706938803195953,,,,,,,,,
1739401055.048144,-0.707511487839963,0.6761108676748375,1.4191281978609513,-1.8793353505500057,-0.7099354281541841,1.9486051811795533,0.18651758628043408,0.00042085322880968496,-0.0010166732774371087,0.0003723421396784851,-0.0002419636386881537,0.0011133401228182504,4.0557825469090256e-05,0.00043583703161487755,0.2411382496356964,-23.66513442993164,19.577133178710938,17.92273712158203,0.8833719491958618,2.3604629039764404,-0.12080229818820953,,,,,,,,,
1739401055.0591173,-0.7075114997577306,0.6761071572118835,1.4191297332889963,-1.8793372604786733,-0.709933559276479,1.9486040748827307,0.18651758774224336,-0.00017814020181355542,-0.0004821698200281335,0.0005353405962788468,0.00045151148109169364,0.0013839825418443085,0.00040995691208335367,0.00028312024156015164,0.2411382496356964,-23.61355972290039,19.553329467773438,17.92273712158203,0.8705545663833618,2.3668715953826904,-0.12080229818820953,,,,,,,,,
1739401055.06912,-0.707510863317965,0.6761088706955917,1.4191297332876005,-1.8793363404687895,-0.7099395315046929,1.9486048325368532,0.1865153249982923,0.0003552810821571222,0.00046962503700293575,0.0003468925946870934,0.0009304298370485285,-0.0001647894880972892,-0.0004353689037474628,-0.0003443443703994183,0.2689092457294464,-23.63736343383789,19.553329467773438,17.94654083251953,0.8833719491958618,2.3604629039764404,-0.10066069662570953,,,,,,,,,
1739401055.0801048,-0.7075109675413341,0.6761089391739642,1.419130185045704,-1.8793370259505247,-0.7099348484910404,1.9486044280934725,0.1865199689603095,0.00016500186073594033,0.0007908698044132561,-2.7051052677586952e-05,-0.0003204478678980561,0.0010105369338383773,-0.0008316063961901831,0.0023518350625365433,0.2173345386981964,-23.63736343383789,19.577133178710938,17.94654083251953,0.8705545663833618,2.3668715953826904,-0.14094389975070953,,,,,,,,,
1739401055.0911083,-0.707511726409283,0.6761088957333866,1.419131986012385,-1.8793371548776425,-0.709936619058864,1.9486051857555446,0.18651676762007555,-0.0001452327002294234,0.0005819237381533341,-0.0003399518631174159,-0.000540553989435491,0.0006801922115625127,5.770871196419581e-05,0.0009014527968125884,0.2411382496356964,-23.63736343383789,19.553329467773438,17.92273712158203,0.8705545663833618,2.3604629039764404,-0.11347807943820953,,,,,,,,,
1739401055.1021152,-0.7075075861066998,0.676108861065968,1.4191338546104775,-1.879339175947693,-0.7099361766676783,1.9486036573534358,0.18651758779668168,0.0013739959890465602,0.0004721011314146156,0.0008675902654672598,-0.0011392226439661637,0.0009100827964972653,-0.0002519232355095681,0.00045951780269640457,0.1935308277606964,-23.63736343383789,19.529525756835938,17.94654083251953,0.8641458749771118,2.3732802867889404,-0.12080229818820953,,,,,,,,,
1739401055.1139443,-0.7075124416555992,0.676110478015276,1.4191362257245883,-1.8793368977633993,-0.7099326839497224,1.948605185755471,0.18651044409052508,-0.00023819539029104904,0.001051147201952267,0.0009537197034492923,-0.0013755528451588736,0.0020692939099405975,-0.00015978197569588748,-0.0032284458552313657,0.2411382496356964,-23.68893814086914,19.501754760742188,17.94654083251953,0.8641458749771118,2.3604629039764404,-0.06037749722599983,,,,,,,,,
1739401055.1241152,-0.7075104907324393,0.6761108675308697,1.4191312518292343,-1.8793343996818486,-0.7099370902710368,1.948605063657324,0.18651120175016275,0.0004948176335914414,0.0018514633869317243,-0.0014688015465033496,0.0006088384054886513,-0.0010382885107365278,-0.000253053543683826,-0.001472249958476038,0.2173345386981964,-23.66513442993164,19.577133178710938,17.92273712158203,0.8705545663833618,2.3604629039764404,-0.06678618490695953,,,,,,,,,
1739401055.134136,-0.7075107835245866,0.6761051592710295,1.419133071034447,-1.8793374187649277,-0.7099383976083866,1.9486051857548554,0.18651524650355075,0.0006728482797689635,-0.0004242134306400659,0.00024378433647726308,0.000420228545156032,-0.0010746582326237413,0.00021631079204649308,3.5804118953695416e-05,0.2689092457294464,-23.58578872680664,19.553329467773438,17.92273712158203,0.8769632577896118,2.3604629039764404,-0.10066069662570953,,,,,,,,,
1739401055.1461244,-0.7075117260602497,0.6761061345302691,1.4191325420607304,-1.8793374952023745,-0.7099373591305916,1.9486042706275228,0.1865152065250882,-0.0003752226444702197,-0.0011752578423733827,-2.3658340832552363e-05,-0.0005546333702023923,0.0014301456075256087,-0.0008059385020841044,-0.0002312068970592651,0.2411382496356964,-23.61355972290039,19.529525756835938,17.92273712158203,0.8769632577896118,2.3668715953826904,-0.10066069662570953,,,,,,,,,
1739401055.1571362,-0.7075093421696562,0.676105159269106,1.4191328101646918,-1.8793353535055501,-0.7099385386058349,1.9486051857552484,0.18651516783111227,0.0002802558583493305,-0.0003132274323833787,0.0003333399308645952,-0.0005793338043994158,-0.000196950812675474,0.00034374133307596384,-0.0010540417485442968,0.2411382496356964,-23.58578872680664,19.553329467773438,17.92273712158203,0.8769632577896118,2.3604629039764404,-0.09425200521945953,,,,,,,,,
1739401055.168108,-0.7075146151694912,0.6761071543229523,1.4191307253877505,-1.8793381529184598,-0.7099353107728199,1.9486059434156229,0.1865179431747166,-0.0006992208027448675,-0.0002999557777152821,-0.0005123860296947974,-0.0008013201530635213,0.0009626503896274564,0.000510867891687886,0.001988546391258825,0.2927129566669464,-23.61355972290039,19.553329467773438,17.97431182861328,0.8568216562271118,2.3540542125701904,-0.12080229818820953,,,,,,,,,
1739401055.1781156,-0.7075115785729021,0.6761109456745915,1.4191328223781836,-1.8793367839989186,-0.7099381515971146,1.9486036660747372,0.18651207203730635,0.0003310069008987051,2.845013523273892e-05,0.001234671481436226,-0.0003009644696581993,-0.0005823127999872359,-0.0001436522862297441,-0.001250158916991412,0.2689092457294464,-23.66513442993164,19.553329467773438,17.92273712158203,0.8705545663833618,2.3732802867889404,-0.07411040365695953,,,,,,,,,
1739401055.1891644,-0.7075137251684309,0.6761116893298221,1.419132701686132,-1.8793354781731337,-0.7099360681326283,1.9486055902028885,0.18651205009580069,0.000823030454524214,0.0010357042950199084,0.001308964907929052,0.0006095543708971546,-0.0005273225509309679,-0.0005731148586048229,-0.0011446384726288088,0.2689092457294464,-23.63736343383789,19.553329467773438,17.89893341064453,0.8897806406021118,2.3540542125701904,-0.07411040365695953,0,0,0,0.000,0,0
1739401055.2000556,-0.7075171230042826,0.6761118037030653,1.41913117780094,-1.8793374903320896,-0.7099372231540791,1.948605185753551,0.18651830585691598,-0.0010777895977004447,0.001520795972649566,0.0007692331569731567,-0.0010289243725722038,-0.0007277802905186854,-0.0010345735449189867,0.0009130347054330432,0.3165166676044464,-23.66513442993164,19.577133178710938,17.92273712158203,0.8641458749771118,2.3604629039764404,-0.12721098959445953,0,0,0,0.000,0,0
1739401055.2100735,-0.7075100135556728,0.6761088697484664,1.4191315436044258,-1.8793357165955993,-0.709937482843864,1.9486044415044672,0.18651910322425358,0.0005039783179264585,-0.0009373370136835518,0.00034492427535469134,-0.00017837005136623469,0.0002581413388629043,-5.833408950887487e-06,-0.0009223302973397894,0.2173345386981964,-23.63736343383789,19.529525756835938,17.89893341064453,0.8769632577896118,2.3668715953826904,-0.13361968100070953,0,0,0,0.000,0,0
1739401055.2220988,-0.7075117234604584,0.6761129737042498,1.419128729099948,-1.8793356900684586,-0.709937853817701,1.9486059434156986,0.18651206764739603,0.0006241833106467184,0.001272403616012598,-0.0005071435057375855,0.00017951901401667543,-0.0005422444534305712,1.066838796706074e-05,-0.00020157279859031206,0.2411382496356964,-23.66513442993164,19.577133178710938,17.89893341064453,0.8769632577896118,2.3540542125701904,-0.07411040365695953,0,0,0,0.000,0,0
1739401055.2321508,-0.7075100137741022,0.6761051333063162,1.4191293477102427,-1.8793353270141553,-0.7099365236681505,1.9486051857555449,0.18651358735545662,0.0005379215944016625,-4.19047519010121e-05,0.0003505697950918102,0.0008165705481024902,0.0011564704361890564,0.00031581531663229774,0.00018954793330658293,0.2173345386981964,-23.58578872680664,19.553329467773438,17.92273712158203,0.8568216562271118,2.3604629039764404,-0.08692778646945953,0,0,0,0.000,0,0
1739401055.2441509,-0.7075117234604601,0.6761107893512864,1.4191315163030558,-1.8793354771919375,-0.7099367387531388,1.948605943415623,0.18652154440162783,0.0009057182939324502,0.0001884900682112044,-0.00036509239389877825,0.00020846714978782824,-0.0003591488965132983,0.0007429837469029813,0.0015671054926086423,0.2411382496356964,-23.66513442993164,19.529525756835938,17.89893341064453,0.8705545663833618,2.3540542125701904,-0.12721098959445953,0,0,0,0.000,0,0
1739401055.255116,-0.7075126822218981,0.6761051631227911,1.4191297610988625,-1.8793318541284254,-0.7099367250225139,1.9486067010757016,0.18651901529802492,0.00037039978016659164,-7.640037566701032e-05,-0.0008144426913440966,0.001305614159566109,0.000120288619962215,0.0010561932021077712,0.001146707882642127,0.2689092457294464,-23.58578872680664,19.553329467773438,17.84735870361328,0.8705545663833618,2.3476455211639404,-0.12080229818820953,0,0,0,0.000,0,0
1739401055.2651289,-0.707513644745228,0.6761071572119487,1.4191325050737318,-1.8793371096916236,-0.7099389085938829,1.9486051857555449,0.18651282533164926,9.416785814999171e-05,0.00045535577384615,0.00030684157713064614,-0.0004155740427001192,-0.0011530719950934496,-0.0001773361836128182,-0.000901770345823772,0.2689092457294464,-23.61355972290039,19.529525756835938,17.94654083251953,0.8769632577896118,2.3604629039764404,-0.08051909506320953,0,0,0,0.000,0,0
1739401055.2761343,-0.7075132910978225,0.6761034467502992,1.419133745619377,-1.879334683436312,-0.7099381123581257,1.948603650806485,0.18651175904660594,-0.00036454973039962645,-0.0019263566617932092,3.150659153986678e-06,0.00010296221372100859,0.0004209207826894948,-0.0013234933933216268,-0.0012598622908218879,0.2927129566669464,-23.56198501586914,19.529525756835938,17.89893341064453,0.8705545663833618,2.3604629039764404,-0.08051909506320953,0,0,0,0.000,0,0
1739401055.2871299,-0.7075117171254038,0.6761090950692416,1.4191315300766434,-1.8793372608120196,-0.7099395099950029,1.9486040748202564,0.18651916296152476,0.00030042866239453754,0.001236312315554901,0.00019801592017380326,-0.00010077136805086267,-0.0011107241590192704,-0.0007846244913441139,0.0013146772648563805,0.2411382496356964,-23.63736343383789,19.529525756835938,17.92273712158203,0.8833719491958618,2.3668715953826904,-0.10706938803195953,0,0,0,0.000,0,0
1739401055.2980404,-0.7075137214011561,0.6761071658824929,1.4191318745718546,-1.8793392726793676,-0.7099394939671753,1.948605185749562,0.1865152021911293,-0.0005394838151009277,-0.0004923060431119144,0.0007110451800719558,-0.0006124020768362727,-0.0003380595702596657,-7.888317128089254e-06,-0.000451069100682845,0.2689092457294464,-23.61355972290039,19.529525756835938,17.94654083251953,0.8833719491958618,2.3604629039764404,-0.10066069662570953,0,0,0,0.000,0,0
1739401055.308145,-0.7075115771239737,0.6761071543230013,1.419124422370768,-1.8793410433757491,-0.7099352054017206,1.948604832542835,0.18651870396455122,-0.00019963377340562373,-0.00023234621759664418,-0.0021204213331776044,-0.0010360733377663457,0.0014022665359292392,0.0002187163180501864,0.0018691329412884568,0.2689092457294464,-23.61355972290039,19.628707885742188,17.97431182861328,0.8769632577896118,2.3604629039764404,-0.12721098959445953,0,0,0,0.000,0,0
1739401055.3181846,-0.7075117262585199,0.6761078601850723,1.4191261577572045,-1.8793372252004792,-0.7099389090398337,1.9486020468720955,0.18651596419101316,-0.00026038366164917993,0.0009071336199972114,-0.0017339387375750511,0.0004434988781638615,-0.0008984436352397434,-0.0015434848391568843,0.0002644460434011564,0.2411382496356964,-23.61355972290039,19.604904174804688,17.92273712158203,0.8769632577896118,2.3870131969451904,-0.10706938803195953,0,0,0,0.000,0,0
1739401055.3281918,-0.7075114075313118,0.6761106336819523,1.4191290912872843,-1.8793349999611577,-0.7099369821046676,1.9486020063566398,0.1865151421689255,0.0008458504207964131,0.0006069846022523761,-0.0016055551859118441,0.0010251887018091566,0.0019168825411826455,-0.00045761329465055113,-0.00027403208381157206,0.2411382496356964,-23.66513442993164,19.604904174804688,17.92273712158203,0.8641458749771118,2.3604629039764404,-0.10066069662570953,0,0,0,0.000,0,0
1739401055.3391614,-0.7075154368636837,0.676108765836771,1.4191281990458815,-1.8793374197494626,-0.7099388520887633,1.9486059244476868,0.18651798265332079,-0.00039206059104642075,0.0006683105742922052,0.00033022186660512626,-0.000998786449145845,-0.0003350101674989685,0.00023795911805376884,0.0016972264783252826,0.2927129566669464,-23.63736343383789,19.577133178710938,17.92273712158203,0.8769632577896118,2.3540542125701904,-0.12080229818820953,0,0,0,0.000,0,0
1739401055.3501499,-0.7075136938201974,0.6761118036865621,1.4191279509511454,-1.8793335708280898,-0.7099387914723366,1.94860301524452,0.1865144065480497,0.0006788991517006841,5.698456213382223e-05,-0.00029853291054679303,0.0009145942087799856,-0.0010582559655837667,-0.00040019137462170116,-0.000920570832283744,0.2689092457294464,-23.66513442993164,19.577133178710938,17.89893341064453,0.8769632577896118,2.3668715953826904,-0.06678618490695953,0,0,0,0.000,0,0
1739401055.3610504,-0.7075155160107777,0.6761108676893192,1.419129815816959,-1.8793343111646763,-0.7099381456262848,1.948605185731618,0.18651264981302196,-0.0012650156255102022,0.00019016512776080373,0.0009727176457051991,0.0006344133697542001,3.4454760906080486e-05,0.000575418835830066,-0.0011893001638656037,0.2927129566669464,-23.66513442993164,19.553329467773438,17.92273712158203,0.8705545663833618,2.3604629039764404,-0.06678618490695953,0,0,0,0.000,0,0
1739401055.3711033,-0.7075092986278778,0.6761126074785484,1.4191322807196627,-1.8793374874810156,-0.7099372520472511,1.9486041261174152,0.18651834346032442,0.0010375951187963982,0.0007594007706689355,0.0008736901534951555,-0.00015996811134863113,-0.0003584295048546615,-0.0003701228793146888,0.0014830618113142202,0.2173345386981964,-23.68893814086914,19.553329467773438,17.92273712158203,0.8897806406021118,2.3604629039764404,-0.12721098959445953,0,0,0,0.000,0,0
1739401055.3821106,-0.7075114870001363,0.6761125801943529,1.4191325059920725,-1.8793352475416782,-0.7099379946026505,1.9486036704294063,0.1865201561595506,0.00019731857879681455,0.0006240674213950546,0.0007122956229000249,0.0007536156112814504,0.000572215346735957,-0.00016927426321130818,0.0014147945370927794,0.2411382496356964,-23.68893814086914,19.529525756835938,17.92273712158203,0.8705545663833618,2.3732802867889404,-0.13361968100070953,0,0,0,0.000,0,0
1739401055.3921237,-0.707515435880283,0.6761088697326146,1.419130175867419,-1.8793392819116554,-0.7099379946179007,1.9486042711120397,0.18651120176799704,-0.0015670226748171227,-4.197850050336729e-05,-0.00018086250633592447,-0.0009460590919090657,0.00011606375970037557,-0.0008827450765869659,-0.0015133129396368815,0.2927129566669464,-23.63736343383789,19.577133178710938,17.94654083251953,0.8705545663833618,2.3668715953826904,-0.06678618490695953,0,0,0,0.000,0,0
1739401055.4031153,-0.7075117254227475,0.6761109757633966,1.4191297363526176,-1.8793374639514986,-0.7099381511185832,1.948605067532572,0.18651246988718434,0.00035047588833280596,0.001081997120922401,-0.0009496377299942854,0.0005912618806753727,-0.0004032829119279785,0.00035967935454587834,-0.0017087406523419832,0.2411382496356964,-23.63736343383789,19.553329467773438,17.92273712158203,0.8705545663833618,2.3604629039764404,-0.08051909506320953,0,0,0,0.000,0,0
1739401055.4131186,-0.7075100125749564,0.6761077813636673,1.4191347048133647,-1.8793356812738813,-0.7099406106566505,1.948604428093464,0.186515266423979,0.0001510701797345287,-0.0002986945661767686,0.0020646763824202067,0.0007588895073290447,-8.585687359711979e-05,-0.0007599128984545178,0.0002961907416350409,0.2173345386981964,-23.61355972290039,19.501754760742188,17.89893341064453,0.8641458749771118,2.3668715953826904,-0.07411040365695953,0,0,0,0.000,0,0
1739401055.4240744,-0.7075117221522429,0.6761108689680071,1.4191300171847454,-1.8793356018010217,-0.7099333493502871,1.9486051857555446,0.1865115573871385,9.813717572716574e-07,0.00038542998627166597,-0.0015375440324954066,0.0011806120649685398,0.0013936660320010724,0.00017491934629897926,-0.001159438641894614,0.2411382496356964,-23.66513442993164,19.553329467773438,17.89893341064453,0.8568216562271118,2.3604629039764404,-0.06678618490695953,0,0,0,0.000,0,0
1739401055.4341104,-0.7075116999129223,0.6761034477132836,1.419127964178653,-1.879337431573019,-0.7099396653988135,1.9486051857555446,0.1865175877442592,-0.00017576225910644113,-0.0004730814199869717,-0.0007999470725723703,-0.0008739968410085902,-0.0005389273484581302,0.0001439698024384943,0.0008161272916675113,0.2411382496356964,-23.56198501586914,19.577133178710938,17.92273712158203,0.8833719491958618,2.3604629039764404,-0.12080229818820953,0,0,0,0.000,0,0
1739401055.4450421,-0.7075126800780663,0.6761071572118889,1.4191347304681852,-1.8793346746178745,-0.7099374964132168,1.9486058983555652,0.18651596467248588,-0.0013568950044617464,-0.00013301290345411445,0.001132598754225072,0.0007684315347435412,-0.0001939803117196101,0.00044486072198631654,-0.0002154730279010132,0.2411382496356964,-23.61355972290039,19.529525756835938,17.89893341064453,0.8769632577896118,2.3540542125701904,-0.10706938803195953,0,0,0,0.000,0,0
1739401055.4551637,-0.70751172642005,0.6761071572118835,1.4191316609137912,-1.879335703823201,-0.7099395491626461,1.9486051857547815,0.18651603140325934,-0.0003990308326150226,-0.000744542560017647,0.00018842929541217622,0.0006751293092483427,-0.0009652123535725556,0.0006520442536470703,-0.0006531987692078835,0.2411382496356964,-23.61355972290039,19.529525756835938,17.89893341064453,0.8833719491958618,2.3604629039764404,-0.08051909506320953,0,0,0,0.000,0,0
1739401055.4661005,-0.7075117264038998,0.6761081230778525,1.4191315988355888,-1.8793402264665222,-0.709937236958487,1.9486051857555446,0.18651283072476374,-5.459393236140008e-05,0.0008723245839842636,-0.001278499167578903,-0.00187181831966934,0.0012476573324973718,0.000414703173503556,-0.0005072066554607678,0.2411382496356964,-23.61355972290039,19.529525756835938,17.94654083251953,0.8641458749771118,2.3604629039764404,-0.08051909506320953,0,0,0,0.000,0,0
1739401055.4761283,-0.7075092943757965,0.6761108663949507,1.4191304780872143,-1.8793413617086372,-0.7099381385211477,1.9486044280954662,0.18651515095349075,0.0026695577583560927,0.0010440810724332678,0.00014125763028917517,-0.00158882832792663,0.0014392676506062804,-0.00031579189359133173,0.00024432824996235716,0.2173345386981964,-23.66513442993164,19.553329467773438,17.97431182861328,0.8705545663833618,2.3668715953826904,-0.12721098959445953,0,0,0,0.000,0,0
1739401055.4880364,-0.7075136183768779,0.6761088687696303,1.4191320810823127,-1.879337498291623,-0.7099389092639906,1.9486051857555446,0.18651834603435719,-0.00044706326078894847,0.00033841702057458114,0.0014767425184670374,-0.0013329527244726608,-0.0005935636739530068,0.0008047530507731849,0.0010132641623439142,0.2689092457294464,-23.63736343383789,19.553329467773438,17.92273712158203,0.8769632577896118,2.3604629039764404,-0.12721098959445953,0,0,0,0.000,0,0
1739401055.4981499,-0.7075116116091706,0.6761079239781009,1.4191258708339793,-1.879335350416758,-0.7099363343057784,1.948605181394894,0.18651684031845253,0.0014560552167799464,-0.0008066702038089723,-0.0017186873843838277,0.0004999623523154716,0.0009048629572348101,0.0005863303982142185,0.000547103945323774,0.2411382496356964,-23.58578872680664,19.604904174804688,17.92273712158203,0.8641458749771118,2.3604629039764404,-0.11347807943820953,0,0,0,0.000,0,0
1739401055.5100377,-0.7075117260762027,0.6761071832635361,1.4191327826906617,-1.8793392819013197,-0.7099381501444542,1.9486051678284004,0.18651478673412297,-6.1519079183331555e-06,-0.0006281329087717817,0.0006535661850994252,-0.0007367913007527705,-0.0006546903719365147,0.00035993552776990696,-0.0007800076739535973,0.2411382496356964,-23.61355972290039,19.553329467773438,17.94654083251953,0.8705545663833618,2.3604629039764404,-0.09425200521945953,0,0,0,0.000,0,0
1739401055.5201151,-0.7075126885451443,0.6761108676736147,1.4191280960780115,-1.8793374900063866,-0.7099373881296985,1.9486059432540161,0.18651776612272417,-0.0003686418172825396,0.00014267179348474777,0.0008350791078943034,0.00011540423327020505,-0.000182496023187581,0.0002400499535108125,0.001006862974766066,0.2411382496356964,-23.66513442993164,19.604904174804688,17.92273712158203,0.8641458749771118,2.3540542125701904,-0.09425200521945953,0,0,0,0.000,0,0
1739401055.5301487,-0.7075117529437346,0.6761088706955917,1.4191315160776743,-1.879339281949318,-0.7099331553910951,1.9486036529927768,0.18651996912817487,-0.0007039883670914031,-0.00011407873859377874,0.0007098280167949857,-0.0026067887167724206,0.0015488434794653672,0.0007429653368771247,0.0008227566152914171,0.2411382496356964,-23.63736343383789,19.529525756835938,17.94654083251953,0.8641458749771118,2.3732802867889404,-0.14094389975070953,0,0,0,0.000,0,0
1739401055.540174,-0.707511726404349,0.6761071690886166,1.4191259532370268,-1.8793327496089884,-0.709938907738734,1.9486051857552493,0.18652108204001114,0.00017999190822793525,-7.608625967730587e-05,-0.0014859760716540204,0.0005112441022480459,-0.0006299204077104509,-0.0007109875052138064,0.001297401759727131,0.2411382496356964,-23.61355972290039,19.604904174804688,17.89893341064453,0.8769632577896118,2.3604629039764404,-0.14735259115695953,0,0,0,0.000,0,0
1739401055.5510674,-0.7075118387064859,0.6761081798935201,1.4191304750470075,-1.8793332185362823,-0.7099389225640463,1.948603670435388,0.18651602853282168,0.0008659416668200897,0.0007261199126453036,-0.00046042578634913553,0.0011651301666344988,-0.0004632662812677732,-0.0007204159938872043,-0.0019146370723769014,0.2173345386981964,-23.61355972290039,19.553329467773438,17.87512969970703,0.8769632577896118,2.3732802867889404,-0.08051909506320953,0,0,0,0.000,0,0
1739401055.5620477,-0.7075139627736328,0.6761088668494565,1.4191279598098197,-1.8793357077250556,-0.7099363667026731,1.9486009471491923,0.18651562623892357,-0.0013926090616705837,0.0009933570948105,-0.0015969101826080873,0.0003585353159773245,-9.718278974945465e-05,-0.0017238519741012083,0.0010529931623661163,0.2689092457294464,-23.63736343383789,19.577133178710938,17.89893341064453,0.8568216562271118,2.3604629039764404,-0.06678618490695953,0,0,0,0.000,0,0
1739401055.5730805,-0.7075136183849774,0.6761073825484616,1.4191343466586879,-1.8793374953480337,-0.7099372238757966,1.9486051850377413,0.18651764333441145,-3.107845504077386e-05,0.0006095269435738636,0.0007245295116668771,-0.0013518874274672304,0.001213747410642583,-4.377435026403501e-05,0.0008622302232736535,0.2689092457294464,-23.61355972290039,19.501754760742188,17.92273712158203,0.8641458749771118,2.3604629039764404,-0.09425200521945953,0,0,0,0.000,0,0
1739401055.5831127,-0.7075117260762526,0.67610890440106,1.4191310400389647,-1.879333897616292,-0.709937393727607,1.9486026462791441,0.186512067665428,6.192389435709828e-05,0.0008216713366430957,0.00031827398072878225,0.0006489432851322563,0.0005226799112904978,-0.0006890811154960526,-0.002463608686048886,0.2411382496356964,-23.63736343383789,19.577133178710938,17.87512969970703,0.8641458749771118,2.3540542125701904,-0.07411040365695953,0,0,0,0.000,0,0
1739401055.5940502,-0.707513724344747,0.6761038415449064,1.419132545146664,-1.8793392819491739,-0.7099381516039824,1.9486040735722636,0.18651120760070278,-0.00019122668553298922,-0.001076393683861199,0.0010699363136611381,-0.0010193035293345832,-0.0004507524442356114,-0.000496772851922363,-0.0010899057153042843,0.2689092457294464,-23.53818130493164,19.529525756835938,17.94654083251953,0.8705545663833618,2.3604629039764404,-0.06678618490695953,0,0,0,0.000,0,0
1739401055.604127,-0.7075154898473902,0.6761044272195424,1.41913187412521,-1.8793357156146042,-0.7099381509579639,1.9486051683066634,0.18651358296758483,-0.0014866836597329488,0.0002560192304330132,-0.00029056727502548317,-0.0011544245390028784,0.0016411562932742044,5.203769887453362e-05,-0.0011266809064181798,0.2927129566669464,-23.61355972290039,19.529525756835938,17.89893341064453,0.8705545663833618,2.3604629039764404,-0.08692778646945953,0,0,0,0.000,0,0
1739401055.61413,-0.7075114762124607,0.6761115997262847,1.4191300364679085,-1.8793374718006535,-0.7099332746006691,1.9486058242242073,0.18651684031844898,-0.00010504876091360564,0.0009396142073394052,-0.000755266441007974,-0.0007589421994505716,0.000659601270290099,-0.00044099724652359797,0.00035799184114300507,0.2411382496356964,-23.63736343383789,19.553329467773438,17.92273712158203,0.8641458749771118,2.3540542125701904,-0.11347807943820953,0,0,0,0.000,0,0
1739401055.6251197,-0.7075127706690237,0.676107148560501,1.4191315431113818,-1.8793413264182182,-0.7099389091869754,1.94860594341495,0.18651520652553133,0.0002889258185072287,-0.00042505940448653334,0.0003066700693782296,-0.0013546512430971888,-0.0002941178610072102,0.00033751717467579863,-0.0005920192799473522,0.2689092457294464,-23.61355972290039,19.529525756835938,17.97431182861328,0.8769632577896118,2.3540542125701904,-0.10066069662570953,0,0,0,0.000,0,0
1739401055.6360433,-0.7075146740783327,0.6761089477336082,1.419129737358001,-1.8793364661249954,-0.7099381516039849,1.9486019937592045,0.18651759359279135,-0.0007064092107775723,-0.00014587745197029028,-0.00020949087913144755,0.0005464164333194182,0.0010969732064680213,8.035347813089788e-05,0.0004911884288189429,0.2689092457294464,-23.63736343383789,19.553329467773438,17.92273712158203,0.8705545663833618,2.3604629039764404,-0.12080229818820953,0,0,0,0.000,0,0
1739401055.6461227,-0.7075130090943765,0.6761071572123238,1.4191301757793442,-1.8793357165899185,-0.7099381516039861,1.9486059041517474,0.18651834534819134,-9.029188938910093e-05,9.907485723660117e-05,0.00021830134560357016,0.0014009174627361183,0.0008793357313974606,0.0008524680117097015,0.0003644050076839772,0.2689092457294464,-23.61355972290039,19.577133178710938,17.89893341064453,0.8705545663833618,2.3540542125701904,-0.12721098959445953,0,0,0,0.000,0,0
1739401055.6581147,-0.7075100138791307,0.6761073906803164,1.4191281978720394,-1.879337259873044,-0.7099381509579639,1.9486033684571153,0.1865153644894352,0.0008825821999727354,0.0007108368030632115,-0.0008416408532087241,-0.00010178127444556536,-0.0016983155262702179,-0.00047953759788953897,-0.0005596011412561906,0.2173345386981964,-23.61355972290039,19.577133178710938,17.92273712158203,0.8705545663833618,2.3668715953826904,-0.10066069662570953,0,0,0,0.000,0,0
1739401055.668148,-0.7075100138831683,0.6761108686377626,1.4191259532384206,-1.879340612142431,-0.7099381516039824,1.948605068011993,0.18651951838872477,0.0010086441233315175,0.0005057310160817061,-0.0009317367727462892,-0.000332885376754245,-0.0006152136810268726,0.0006362174312984554,0.0014392085062736233,0.2173345386981964,-23.66513442993164,19.604904174804688,17.97431182861328,0.8705545663833618,2.3604629039764404,-0.10706938803195953,0,0,0,0.000,0,0
1739401055.6791427,-0.7075088643998039,0.6761071568908966,1.4191258718386763,-1.8793392808553946,-0.7099389092640644,1.9486051841398242,0.1865097832011024,0.0003137627285975207,-0.001020749161675427,-0.0011033503105669544,-0.0008313501720925515,-0.0012373255378144694,0.0002784228860889858,-0.0004383241018248976,0.2411382496356964,-23.61355972290039,19.604904174804688,17.94654083251953,0.8769632577896118,2.3604629039764404,-0.05396880581974983,0,0,0,0.000,0,0
1739401055.6891625,-0.7075117263554312,0.6761134417110848,1.4191297332876176,-1.879335716595732,-0.7099373924903575,1.948606701075674,0.18651206764903394,0.0011984840370104718,0.0002663757611671832,0.0007881171967261012,-0.00042559206873300743,-0.0002875514933786127,0.0014788238165311584,8.168795008057714e-05,0.2411382496356964,-23.66513442993164,19.553329467773438,17.89893341064453,0.8641458749771118,2.3476455211639404,-0.07411040365695953,0,0,0,0.000,0,0
1739401055.7000375,-0.7075115785775403,0.6761080932757607,1.4191315159646196,-1.8793357165957505,-0.7099390151760528,1.9486029122907929,0.18652000861329898,0.0009260713841939984,0.001052629263830712,0.0006847112114024417,-0.0010541639944196789,-5.796711165669617e-06,-0.0004811433262201705,0.002957510557303539,0.2689092457294464,-23.61355972290039,19.529525756835938,17.89893341064453,0.8769632577896118,2.3796889781951904,-0.14094389975070953,0,0,0,0.000,0,0
1739401055.7101393,-0.707515436829145,0.6761071922159015,1.4191297332876005,-1.879337495348184,-0.7099373939457014,1.9486051857555364,0.1865183454030015,-0.0013004940409976876,0.0005904846318822071,-0.0005443618576116847,0.00010298462379257123,7.154904290081081e-05,3.1799102659947544e-05,0.0008470308994955756,0.2927129566669464,-23.61355972290039,19.553329467773438,17.92273712158203,0.8641458749771118,2.3604629039764404,-0.12721098959445953,0,0,0,0.000,0,0
1739401055.7201748,-0.7075137243447519,0.6761109760849818,1.4191297293630147,-1.879335716595684,-0.7099389490004944,1.9486043103578963,0.18651120175016275,-0.0005369402809039853,0.0008367907906283803,-0.0013383806194421017,0.00011931886164977788,-0.0011266860156012208,0.0008150619846464846,-0.0026646967931739313,0.2689092457294464,-23.63736343383789,19.553329467773438,17.89893341064453,0.8769632577896118,2.3668715953826904,-0.06678618490695953,0,0,0,0.000,0,0
1739401055.731188,-0.7075154367564674,0.6761088710284744,1.419136599370681,-1.8793353985952954,-0.7099381123583538,1.9486054724646786,0.1865170489096209,-0.0008427541666357445,0.0003334818445683138,0.00200308591665453,0.0003348245359634107,-0.00020359955421805648,0.000289212697425836,-0.0007010080219789225,0.2927129566669464,-23.63736343383789,19.501754760742188,17.89893341064453,0.8705545663833618,2.3540542125701904,-0.08051909506320953,0,0,0,0.000,0,0
1739401055.7421598,-0.7075153309016702,0.6761030532402557,1.419132068433026,-1.8793338250096843,-0.7099381516037646,1.9486059296849898,0.18651044411436715,-0.00020562197781584654,-0.001980978942062386,-0.0002176877881598127,0.0011668788762874932,-0.0006274026771826522,0.0004392812707851667,-0.001803755934913321,0.2927129566669464,-23.58578872680664,19.553329467773438,17.87512969970703,0.8705545663833618,2.3540542125701904,-0.06037749722599983,0,0,0,0.000,0,0
1739401055.7530906,-0.7075115864249174,0.676111079729251,1.419134000702956,-1.8793356017997755,-0.7099389092640644,1.9486036704351555,0.18651551512565226,0.0005568004905487462,0.0008256709701384029,0.00039905396994085606,9.924800479962535e-05,-0.0006076819641591103,-0.0005060618682242204,-0.00034933801353064485,0.2689092457294464,-23.63736343383789,19.529525756835938,17.89893341064453,0.8769632577896118,2.3732802867889404,-0.09425200521945953,0,0,0,0.000,0,0
1739401055.7640357,-0.7075154250877038,0.6761051592751889,1.4191327414306605,-1.8793374607898108,-0.7099369215400778,1.9486055902029131,0.1865120691120364,-0.0005983944497269461,-0.0010302643253385366,0.00033435692018972754,0.00013058236232399767,0.0005294465120092337,0.00013990247422091096,-0.0007783056883704995,0.2927129566669464,-23.58578872680664,19.553329467773438,17.92273712158203,0.8641458749771118,2.3540542125701904,-0.07411040365695953,0,0,0,0.000,0,0
1739401055.7751048,-0.7075137243445531,0.6761108795501846,1.4191298558889798,-1.8793328555721496,-0.7099389094195887,1.948605185749563,0.1865128267701332,0.00010551448345186713,-6.474618798655294e-05,0.00021810392980499765,0.0015484314278694689,-0.0003327176698750499,0.00038446566029458877,-3.625170307825973e-05,0.2689092457294464,-23.66513442993164,19.553329467773438,17.89893341064453,0.8769632577896118,2.3604629039764404,-0.08051909506320953,0,0,0,0.000,0,0
1739401055.7860725,-0.7075132910982718,0.6761088698396344,1.4191301894550372,-1.8793392730777487,-0.7099373808619559,1.9486043869115426,0.18651405247336872,0.00010032616094106432,0.0016775307988596048,0.0005298918854604313,-0.0006116624096497868,-0.00020735888561560206,-5.677330918238001e-05,0.0002745134915311377,0.2927129566669464,-23.63736343383789,19.577133178710938,17.94654083251953,0.8641458749771118,2.3668715953826904,-0.08692778646945953,0,0,0,0.000,0,0
1739401055.7961066,-0.7075137243084137,0.6761076033067546,1.4191368882192652,-1.8793349925095453,-0.7099404115020475,1.9486020068404593,0.186515063224954,-0.0007869615509661847,-0.00015854173887805596,0.003010356435808656,0.0016813225856927825,-0.0016764014342515853,0.00031905946967266416,0.0013046769308114707,0.2689092457294464,-23.58578872680664,19.529525756835938,17.89893341064453,0.8897806406021118,2.3604629039764404,-0.11347807943820953,0,0,0,0.000,0,0
1739401055.80613,-0.7075130090890146,0.676105861322681,1.4191319691326651,-1.8793367917879225,-0.7099363343055569,1.9486044149596788,0.186518347324421,0.0004725993338377185,-0.0008843033889313414,0.00031741443593298813,-0.0001992711892527028,0.0013125333435934808,-0.00042493531398454137,0.0019021744979966465,0.2689092457294464,-23.58578872680664,19.553329467773438,17.94654083251953,0.8641458749771118,2.3668715953826904,-0.12721098959445953,0,0,0,0.000,0,0
1739401055.8161416,-0.7075124387040846,0.6761111796899173,1.4191300752004825,-1.8793353986621406,-0.7099381514245355,1.9486017048628832,0.18652073100765643,0.00010665210137877329,0.0010932423636703487,0.0002227792971444159,0.0003503287757123416,-0.0002034613749852012,-0.00010810073811567847,0.001900571196260663,0.2411382496356964,-23.66513442993164,19.553329467773438,17.89893341064453,0.8705545663833618,2.3540542125701904,-0.14735259115695953,0,0,0,0.000,0,0
1739401055.8270726,-0.7075092985951131,0.6761051597007816,1.4191280696959612,-1.87933524753995,-0.7099379946205586,1.9486051850855957,0.18651997334757028,0.0010191502217329527,-0.0006853374727074374,0.0005115852184827247,0.0004242128539111803,-0.0001223745850506921,-0.000201370529993704,0.0012930242434736731,0.2173345386981964,-23.58578872680664,19.577133178710938,17.92273712158203,0.8705545663833618,2.3604629039764404,-0.14094389975070953,0,0,0,0.000,0,0
1739401055.838094,-0.7075099069260955,0.6761081686853382,1.4191319585296887,-1.8793357151404058,-0.7099369298196683,1.9486055902029018,0.186519968959715,0.0007157980347938465,-0.0008192241899254954,0.0012239093783080715,0.0006146176001777313,0.0016260875798831229,0.0004965578144702492,0.0007304709879947139,0.2173345386981964,-23.63736343383789,19.553329467773438,17.89893341064453,0.8705545663833618,2.3540542125701904,-0.14094389975070953,0,0,0,0.000,0,0
1739401055.8491378,-0.7075100020607584,0.6761088697312955,1.4191297452876148,-1.879339280920188,-0.7099431833535864,1.9486050287714536,0.186518346792736,0.0011162856381360263,7.490712838446862e-05,0.00019752620725930475,-0.001686725624441335,-0.0012609563253881701,-0.0002258423816961453,-0.0003341259675524428,0.2173345386981964,-23.63736343383789,19.553329467773438,17.94654083251953,0.8769632577896118,2.3604629039764404,-0.12721098959445953,0,0,0,0.000,0,0
1739401055.8601596,-0.7075100131198542,0.6761079673120731,1.4191297332878037,-1.8793325376813452,-0.7099416681081108,1.9486067010730428,0.18651586245057894,0.0001388087744156239,-0.00044460318861475425,0.0004096927054109575,0.0014768613119849183,-0.0023667112942111403,0.0008294465732232451,9.418758952548564e-05,0.2173345386981964,-23.58578872680664,19.553329467773438,17.89893341064453,0.8641458749771118,2.3476455211639404,-0.10706938803195953,0,0,0,0.000,0,0
1739401055.8710673,-0.7075137242357348,0.6761075772878794,1.4191297346819318,-1.8793378358660275,-0.709939980217646,1.9486036139832121,0.18652076174440488,0.0001510344574078544,0.0007053700846097277,-0.001062566693954227,-0.0006586870572537241,-0.00010609134126262907,-0.0017626523551815048,0.0007792074332974245,0.2689092457294464,-23.58578872680664,19.553329467773438,17.89893341064453,0.8769632577896118,2.3604629039764404,-0.13361968100070953,0,0,0,0.000,0,0
1739401055.8810837,-0.7075137243447507,0.6761048444184883,1.4191319585276956,-1.8793339338456054,-0.7099396669422795,1.9486020048764716,0.18651597737674522,-0.00047626906585824765,-0.0025152004018403123,0.001283018554677405,0.0007321921932965895,-0.0007855345268435092,-4.307087098223344e-05,1.9991882265967334e-05,0.2689092457294464,-23.58578872680664,19.553329467773438,17.87512969970703,0.8833719491958618,2.3604629039764404,-0.10706938803195953,0,0,0,0.000,0,0
1739401055.89303,-0.7075137243447525,0.676107156247129,1.4191305981625584,-1.8793350003588665,-0.7099404245842212,1.94860442807751,0.1865129832721209,-0.00032594535469651566,-0.0001439942358872251,0.0005333622576182623,-0.0001571230423197064,-0.00037056938953200285,0.0008291193150883654,-0.0006809730169841464,0.2689092457294464,-23.61355972290039,19.553329467773438,17.89893341064453,0.8897806406021118,2.3668715953826904,-0.08051909506320953,0,0,0,0.000,0,0
1739401055.903109,-0.7075137243447525,0.6761088698752724,1.4191279873956684,-1.8793374992687264,-0.7099396669241429,1.9486051843019943,0.18651865860860245,-0.00046982402364384614,0.0009035607882611075,-0.0016819587174728356,-0.0005477966947849173,-0.0009455424291333883,-0.0006935951977742063,0.0025809911989079165,0.2689092457294464,-23.63736343383789,19.577133178710938,17.92273712158203,0.8833719491958618,2.3604629039764404,-0.12080229818820953,0,0,0,0.000,0,0
1739401055.914125,-0.7075145864457023,0.6761045831742618,1.4191250897008936,-1.8793392819497887,-0.7099373939439079,1.948605590202905,0.18651672233860928,-0.0005479140752734331,-0.0012924833317577227,-0.0011313775680827673,-0.0015444770781158032,0.00021844469461347848,-0.0014170446048190604,0.0002904363575493218,0.2411382496356964,-23.61355972290039,19.577133178710938,17.94654083251953,0.8641458749771118,2.3540542125701904,-0.11347807943820953,0,0,0,0.000,0,0
1739401055.925114,-0.7075117265290608,0.6761051591851682,1.4191319585492066,-1.8793392816227399,-0.7099413571728518,1.9486051405319875,0.18651670889799424,7.006454044783294e-05,-0.0010681737639080097,-1.1788907902591042e-05,-0.0019169250133127622,-0.0008940112891328229,-0.0006198286517117502,-7.31184890328117e-05,0.2411382496356964,-23.58578872680664,19.553329467773438,17.94654083251953,0.8705545663833618,2.3604629039764404,-0.11347807943820953,0,0,0,0.000,0,0
