IITGN-Robotics/Franka_IITGN_ROBOTICS/franka_ros/franka_iitgn/data/b_16.csv
time,fr3_joint1_pos,fr3_joint2_pos,fr3_joint3_pos,fr3_joint4_pos,fr3_joint5_pos,fr3_joint6_pos,fr3_joint7_pos,fr3_joint1_vel,fr3_joint2_vel,fr3_joint3_vel,fr3_joint4_vel,fr3_joint5_vel,fr3_joint6_vel,fr3_joint7_vel,fr3_joint1_eff,fr3_joint2_eff,fr3_joint3_eff,fr3_joint4_eff,fr3_joint5_eff,fr3_joint6_eff,fr3_joint7_eff,flexpin1,flexpin2,flexpin3,Force,ContactMic,ContactMic_gt
1739401082.903718,-0.7074271652039688,0.6755856165108806,1.4190565245567106,-1.8793758963953417,-0.709582646040713,1.9488457874768492,0.18628746317313666,0.00021703046780971067,0.0003764819613429276,0.0003661826202091341,0.00013258078185252308,-0.0005318836416200888,-0.000755134324352845,0.001223141829721839,0.2689092457294464,-23.68893814086914,19.553329467773438,17.92273712158203,1.0664774179458618,2.3934218883514404,-0.16108550131320953,,,,,,,,,
1739401082.914699,-0.7074242025456997,0.6755863343668689,1.419057699692666,-1.8793777732699104,-0.7095820134827843,1.9488465050940253,0.18627889778563542,0.00023306960298553745,0.001221704988323176,-0.0007526649631199923,-0.0015051281851693285,0.00048816689079183434,-0.000381090846006772,-0.0024925288078912907,0.2689092457294464,-23.68893814086914,19.577133178710938,17.94654083251953,1.0600687265396118,2.3604629039764404,-0.10066069662570953,,,,,,,,,
1739401082.9256775,-0.7074229551651307,0.6755830535946196,1.4190605279519208,-1.8793797471314775,-0.709581130727244,1.9488492130401887,0.18628750690788318,0.0006585820148478258,-0.0013591273774653271,0.001085883227494572,-0.0008866448196137853,0.0011904208214197076,1.0122190054402658e-05,0.003025242636597412,0.2411382496356964,-23.61355972290039,19.529525756835938,17.97431182861328,1.0536600351333618,2.3604629039764404,-0.16108550131320953,,,,,,,,,
1739401082.9366794,-0.7074251646017814,0.6755865256133787,1.4190592626054237,-1.8793776702844631,-0.7095835119439271,1.9488474110255196,0.1862778783986862,-0.00012376713170655603,0.0005018554019455246,-0.0008920284392156376,-0.0005937100746721089,-0.0005435912510058732,-0.0007858466454522805,-0.0014337694936506539,0.2689092457294464,-23.66513442993164,19.553329467773438,17.94654083251953,1.0738016366958618,2.3796889781951904,-0.10706938803195953,,,,,,,,,
1739401082.9467676,-0.7074244215751294,0.6755992847582623,1.41905530179184,-1.8793741049304749,-0.7095802235434057,1.9488441201201576,0.186283629579968,0.00010303249956286205,0.0023201416338031345,0.00036338617138252194,0.0006337455496229274,0.0009876946535388696,0.0007813273939011509,-0.0004964053304880557,0.2173345386981964,-23.51041030883789,19.402572631835938,17.89893341064453,0.9291483163833618,2.3403213024139404,-0.08051909506320953,,,,,,,,,
1739401082.956804,-0.7074216059851602,0.6756262771669667,1.4190405503862258,-1.8793744556358105,-0.7095807127512389,1.9488385199784144,0.18628676202426378,0.0004892022363521397,0.002232477476142496,-0.0029702032794632926,-0.000485874472582398,-8.577616860175867e-05,-0.000978434795963963,-0.0005074107028146724,0.1419561207294464,-23.51041030883789,19.426376342773438,17.89893341064453,0.8897806406021118,2.3339126110076904,-0.07411040365695953,,,,,,,,,
1739401082.9676864,-0.7074266598342993,0.6756484400021613,1.4190265743197767,-1.8793762066273807,-0.7095801895934992,1.9488286950718772,0.1862926201749273,-0.001033592257358361,0.0006495818723065117,-0.0012440452329537948,0.0008705721812656848,0.0014039524163816498,-0.0009752352324419801,3.408618095035812e-05,0.1697271168231964,-23.48660659790039,19.402572631835938,17.92273712158203,0.8833719491958618,2.3403213024139404,-0.08051909506320953,,,,,,,,,
1739401082.9787083,-0.7074246609652163,0.675670129213574,1.4190068995414453,-1.8793858277331024,-0.7095864744312326,1.9488204691803463,0.18629397697893804,4.4007254514352885e-05,0.0028152603791611287,-0.0016976621624115442,-0.0016299818271549352,-0.00046169685206714703,-0.000496239368713953,-0.0006593877779533394,0.1419561207294464,-23.58578872680664,19.450180053710938,17.97431182861328,0.8961893320083618,2.3668715953826904,-0.05396880581974983,,,,,,,,,
1739401082.9887357,-0.7074312328837895,0.6756768864009007,1.418997840298897,-1.8793812308587665,-0.7095855966621439,1.9488158391543762,0.1862971570518054,-0.0005495799104453434,0.0009966239233182273,-0.0002531985226967191,0.0005222198584596772,0.0007496576154689745,-0.0005135243942992867,9.406523025925353e-05,0.1935308277606964,-23.58578872680664,19.477951049804688,17.94654083251953,0.8897806406021118,2.3668715953826904,-0.08051909506320953,,,,,,,,,
1739401082.999701,-0.7074322606168153,0.6756863752470785,1.418985303655387,-1.87938403428843,-0.7095905198141803,1.9488175881261087,0.186298051224713,0.0011785672998397348,0.00010248368976301193,-0.0006920181004565033,-0.001131189968348658,-0.0007357617360888758,0.00029068368751218734,0.00028907117432571154,0.2173345386981964,-23.58578872680664,19.477951049804688,17.97431182861328,0.9035135507583618,2.3476455211639404,-0.08692778646945953,,,,,,,,,
1739401083.0106678,-0.7074377284167813,0.6756976446144849,1.4189760968132143,-1.879377710333998,-0.7095869590534182,1.94881796417395,0.18630777245237343,3.493009086313881e-05,0.0011096386844379996,-0.0013990781198884121,0.00036008799885489223,-0.0008948193956496794,-0.0005395282373824374,0.0018115010733948562,0.2689092457294464,-23.63736343383789,19.529525756835938,17.87512969970703,0.8961893320083618,2.3403213024139404,-0.10706938803195953,,,,,,,,,
1739401083.020782,-0.7074415955530375,0.6757066681933285,1.4189633768039847,-1.8793755393057692,-0.7095854458230865,1.9488165225010847,0.1863035378752981,0.0001563181245520659,0.0003357032266758127,-0.0015590664541510358,0.0004762262686573765,-1.7985297461964387e-06,-8.756087521307577e-05,-0.0011697168629781686,0.2927129566669464,-23.68893814086914,19.604904174804688,17.87512969970703,0.8833719491958618,2.3476455211639404,-0.09425200521945953,,,,,,,,,
1739401083.0317717,-0.7074511829268962,0.6757196249785911,1.418945702443091,-1.8793755389419389,-0.7095865476625549,1.9488147976730124,0.1863066948518664,-0.0007986594510807324,0.0020015709460617964,-0.0016437412649922467,0.0006702051263159957,0.0006024597788046179,-0.0012893839689907898,0.0008228798719725312,0.3918950855731964,-23.74051284790039,19.680282592773438,17.87512969970703,0.8833719491958618,2.3668715953826904,-0.12080229818820953,,,,,,,,,
1739401083.0427375,-0.7074485785528826,0.6757246671950605,1.4189353339832484,-1.8793833220832068,-0.7095912433568698,1.948810900132156,0.1863068473036494,0.00018356016365697982,-4.1562998466215556e-05,-0.0011200642501455304,1.6167146246592076e-05,-0.00034323503892589544,0.0006366359083948762,0.00210234637374992,0.3442876636981964,-23.71670913696289,19.680282592773438,17.97431182861328,0.8961893320083618,2.3732802867889404,-0.12080229818820953,,,,,,,,,
1739401083.0537274,-0.7074534256532955,0.6757307228850217,1.4189285407024623,-1.8793859066065663,-0.7095896087020407,1.948809784756876,0.1863105369745613,-0.00010795678001569465,0.0013346209503196965,0.00016881904081187687,-0.0011915194126897294,-0.00040495372843905186,-2.5071653076470457e-05,0.0023421104355786336,0.3680913746356964,-23.71670913696289,19.680282592773438,17.97431182861328,0.8833719491958618,2.3732802867889404,-0.11347807943820953,,,,,,,,,
1739401083.0637465,-0.7074508721066511,0.6757356010980666,1.4189268641661472,-1.8793822954699824,-0.709590468108615,1.948809783297046,0.1863075924068609,0.00030019006426160134,0.0018080075756351916,-0.0005981437963815615,0.00019273798347397306,7.85816639306085e-05,-0.0001366658561170242,0.0007226386369635319,0.3680913746356964,-23.74051284790039,19.656478881835938,17.92273712158203,0.8897806406021118,2.3732802867889404,-0.12721098959445953,,,,,,,,,
1739401083.074662,-0.7074483216922002,0.6757291921356445,1.4189287292335342,-1.8793812848573905,-0.7095904464687889,1.9488105404725826,0.18631063687904748,-0.0006995435778720868,-0.0008004817952478811,-5.321438205877589e-06,-0.0013653252973061995,0.0007727152439653812,6.239729887623922e-05,0.0018524994351817464,0.2927129566669464,-23.68893814086914,19.604904174804688,17.92273712158203,0.8897806406021118,2.3668715953826904,-0.12721098959445953,,,,,,,,,
1739401083.0846663,-0.7074466180725066,0.6757305216096992,1.418933394393689,-1.8793813413467424,-0.7095936594827283,1.9488105409570913,0.18631209351288466,0.0003170400989685487,-0.0003473070540377023,-0.00011395606649610465,0.0006136251032540209,-0.0024005679786472476,0.00017992622369738365,0.0015858091936341756,0.2689092457294464,-23.66513442993164,19.529525756835938,17.92273712158203,0.9035135507583618,2.3668715953826904,-0.12721098959445953,,,,,,,,,
1739401083.0957272,-0.7074466064623283,0.6757265079689616,1.4189326508794353,-1.8793816114714035,-0.7095905254599256,1.9488112942565272,0.18630752832291275,-0.00025452464514450857,-0.0006110725582945116,-0.0008268791103076452,0.00023888846430156143,-0.0004360133777078538,-0.00048577467915644,-0.00019912520820845216,0.2689092457294464,-23.61355972290039,19.553329467773438,17.94654083251953,0.8897806406021118,2.3604629039764404,-0.10066069662570953,,,,,,,,,
1739401083.1066651,-0.7074417416842594,0.6757248220309574,1.4189404712307994,-1.8793872508222378,-0.7095904901301281,1.9488112848891788,0.1863087603410623,0.0003819045019095097,-0.00016942437086502095,0.00045413257181312874,-0.000899664554433511,0.0010762583543890765,0.00020750347468626043,0.0004730269657501528,0.2411382496356964,-23.58578872680664,19.477951049804688,17.99811553955078,0.8897806406021118,2.3604629039764404,-0.10706938803195953,,,,,,,,,
1739401083.1167424,-0.7074465030662557,0.6757213878964731,1.4189453060920703,-1.8793861844203847,-0.7095909775447021,1.9488096350227142,0.18630978578485363,-0.0017529416438815063,-0.00010394527642600547,0.0007487368778947318,-0.0004838920860455294,-0.0005071476474461607,0.00046835028497301467,0.002189179743468748,0.2689092457294464,-23.53818130493164,19.450180053710938,17.97431182861328,0.8833719491958618,2.3476455211639404,-0.13361968100070953,,,,,,,,,
1739401083.1267438,-0.7074397907795025,0.67571895252739,1.4189451358983136,-1.8793822160018274,-0.7095895850434951,1.948811141579916,0.18631465724995278,0.000624540907256764,-0.0008896572931956677,-0.000765413275071835,-0.0003984215122619838,-0.0007560587784516688,-0.00039785141516435554,0.0020468799668855067,0.2173345386981964,-23.53818130493164,19.426376342773438,17.92273712158203,0.8897806406021118,2.3604629039764404,-0.12080229818820953,,,,,,,,,
1739401083.137692,-0.70744074985255,0.6757211616900675,1.418943570671639,-1.8793747790229502,-0.7095905391821402,1.9488120562763696,0.186310395373901,-0.0003259153226972084,-0.00039869373040123026,-0.0013920856015621989,0.0010463650351935324,-0.0001641532831812788,-0.0008394274284071719,-0.0001841774942326753,0.2173345386981964,-23.53818130493164,19.477951049804688,17.82355499267578,0.8897806406021118,2.3540542125701904,-0.12080229818820953,,,,,,,,,
1739401083.147714,-0.7074437774540157,0.6757209996253123,1.4189435706846067,-1.879377926559785,-0.7095913245958361,1.9488128139373344,0.1863122176215063,0.0008269969675428579,-2.462404182790144e-05,-0.001371598543876171,-0.00015610522274200921,0.0001493140540595699,-0.0002458490924283459,0.0009624569715015883,0.2411382496356964,-23.56198501586914,19.477951049804688,17.87512969970703,0.8897806406021118,2.3476455211639404,-0.12721098959445953,,,,,,,,,
1739401083.1586647,-0.7074397083602976,0.6757217529773224,1.418939708556894,-1.8793819772515141,-0.7095904862100536,1.9488114163547479,0.1863091972354977,0.0017979573326367296,-0.0015827190080061543,-0.00029559301674770373,-0.0017640439578273824,0.0013513171420662942,0.00032341203185806726,0.0008295646564615208,0.2173345386981964,-23.58578872680664,19.529525756835938,17.92273712158203,0.8897806406021118,2.3604629039764404,-0.10066069662570953,,,,,,,,,
1739401083.1687102,-0.7074417235698803,0.6757257239732956,1.4189376191081011,-1.8793809785953242,-0.7095913625841211,1.94881205627925,0.18630795060848393,0.0016364593203098965,0.0010718821686617785,-0.0011390166087695474,-0.00015309064077564935,0.00014129093209899963,0.0006299788093133438,-0.0012700737604987924,0.2411382496356964,-23.63736343383789,19.553329467773438,17.94654083251953,0.8961893320083618,2.3540542125701904,-0.08692778646945953,,,,,,,,,
1739401083.1797614,-0.7074473595145296,0.6757264260196768,1.418934915381779,-1.879381958748785,-0.7095905318838075,1.9488112855352258,0.18631526288079966,0.0002220753703309726,-0.0001559999472397499,-0.0011660057285448671,-0.0005223235642501751,0.0011806208544303733,0.0007549082798442122,0.003098728278252182,0.2927129566669464,-23.63736343383789,19.553329467773438,17.94654083251953,0.8897806406021118,2.3604629039764404,-0.14094389975070953,,,,,,,,,
1739401083.190761,-0.7074466052213287,0.6757301282464206,1.418932680332477,-1.8793798240207706,-0.7095955350730321,1.948812056223347,0.18630745083850497,3.130205296315489e-05,0.0007435643211792253,0.0001679819153900502,0.00037133058126311946,-0.00115119439962354,0.0014616950497766171,0.00017407218680240817,0.2689092457294464,-23.68893814086914,19.553329467773438,17.89893341064453,0.8961893320083618,2.3540542125701904,-0.08692778646945953,,,,,,,,,
1739401083.2017314,-0.7074463622658144,0.675728640408471,1.41893293744624,-1.8793776650343272,-0.7095959072785387,1.94881169865006,0.18631151842647542,-2.2650335653164553e-05,-0.0011450650906221058,-0.00027746448094835346,0.0003045129731243053,-0.0008746863966981816,0.00030041946113708784,0.0016400763093750294,0.2689092457294464,-23.63736343383789,19.577133178710938,17.89893341064453,0.8961893320083618,2.3540542125701904,-0.09425200521945953,,,,,,,,,
1739401083.2127357,-0.7074500345548022,0.6757285324949119,1.4189290620906216,-1.8793840383220293,-0.7095930341143262,1.9488091222900406,0.1863094868552639,-0.000540115808290884,-0.0019966947269286425,-5.7907725722544396e-05,-0.001057277018719403,-0.0007809142304670796,-0.0004224925480194447,0.0014366672566723502,0.3165166676044464,-23.63736343383789,19.628707885742188,17.97431182861328,0.8705545663833618,2.3668715953826904,-0.10066069662570953,,,,,,,,,
1739401083.2227378,-0.7074463710961564,0.6757354007937966,1.4189305431320358,-1.8793839590470827,-0.709593125519307,1.948806250052748,0.18631328390731422,0.0001557660868763007,0.0009464492594244277,-4.5381557525164644e-05,0.0002228296580747438,-0.0008156063084399263,-0.000812862324565212,0.0025818533022314593,0.2689092457294464,-23.68893814086914,19.577133178710938,17.97431182861328,0.8833719491958618,2.3668715953826904,-0.12721098959445953,,,,,,,,,
1739401083.2337265,-0.7074446115725366,0.6757336884389382,1.4189298640212598,-1.8793861834024677,-0.7095916424480526,1.9488109437113548,0.18631221764555458,-0.00042064922459837553,-0.00032626605949198596,-0.00043916591072806646,8.796396288758514e-06,0.0008259047145889646,-0.000581540463938822,4.188490563733526e-05,0.2411382496356964,-23.66513442993164,19.577133178710938,17.97431182861328,0.8961893320083618,2.3604629039764404,-0.12721098959445953,,,,,,,,,
1739401083.244671,-0.7074445847558805,0.67573272043504,1.418935584709594,-1.879386096129332,-0.7095930057400466,1.9488096350209432,0.18630508715108268,-0.0009641024805470916,-0.00011541710237307658,0.001171984835058849,-0.00028942312534975404,-0.00016475977608104586,0.0017181002948949298,-0.002501993946168096,0.2411382496356964,-23.66513442993164,19.501754760742188,17.97431182861328,0.8833719491958618,2.3476455211639404,-0.06678618490695953,,,,,,,,,
1739401083.2548034,-0.707446358993988,0.6757305585272617,1.4189365955365596,-1.8793823219611543,-0.7095944970833454,1.9488065695722052,0.18631233660117896,0.0006214222935888085,-0.00030234724873629145,-0.00018886837142053479,-0.0003880613998776236,-0.0003970065830610544,-4.0870909361887705e-05,0.001302303982302466,0.2689092457294464,-23.66513442993164,19.529525756835938,17.92273712158203,0.8833719491958618,2.3604629039764404,-0.12721098959445953,,,,,,,,,
1739401083.2656918,-0.7074424530140142,0.6757295352523432,1.4189366087761293,-1.8793805392522829,-0.7095953136361307,1.9488073462094118,0.18630594010195883,0.0012468582230322168,0.0007058351729907306,-0.0001496399276737234,9.057353799516463e-05,-0.00012376834606657732,-0.0018394309849747593,-0.002010896250344343,0.2411382496356964,-23.63736343383789,19.529525756835938,17.89893341064453,0.8897806406021118,2.3540542125701904,-0.07411040365695953,,,,,,,,,
1739401083.2767305,-0.7074466065591111,0.6757292880197155,1.418940472537815,-1.879380536345182,-0.7095902245965149,1.948808956076226,0.186306701932585,-0.0006531881837799193,5.268613672041681e-06,0.0008353783356521538,-0.00040933004438458613,0.0005061668828705711,-0.0016685858026082988,-0.0015154215312548668,0.2689092457294464,-23.63736343383789,19.477951049804688,17.89893341064453,0.8833719491958618,2.3668715953826904,-0.08051909506320953,,,,,,,,,
1739401083.2877226,-0.7074438606698198,0.6757234336371688,1.4189389181543233,-1.879380265221717,-0.7095927210457303,1.9488108250992706,0.1863062996928029,0.0006593246774581916,-0.0007838186986136722,-0.00027602236596717877,0.0006796165298320456,0.000645679096432137,-0.00011008227434670487,-0.0014208831953766623,0.2411382496356964,-23.56198501586914,19.501754760742188,17.89893341064453,0.8769632577896118,2.3540542125701904,-0.07411040365695953,,,,,,,,,
1739401083.2986743,-0.7074466095104965,0.6757248220345483,1.4189415194897017,-1.8793775870175085,-0.7095910044898308,1.9488077997906692,0.18630938014916315,-0.0010283270475712955,0.0005025418789949259,-0.00033033028597793094,0.0008501866467814923,0.0006914238301315175,-0.0017897488922617823,-0.0007750634930337899,0.2689092457294464,-23.58578872680664,19.501754760742188,17.89893341064453,0.8897806406021118,2.3540542125701904,-0.06678618490695953,,,,,,,,,
1739401083.3106477,-0.7074483180745422,0.6757277913085236,1.4189396194706105,-1.879380432835739,-0.7095953136666461,1.9488088713631337,0.18630671078687344,-0.0011323485249671783,0.0014942416319544169,0.000549992473083674,-0.0007128270889590681,-0.0006255988290122362,-0.0009699191638647067,-0.0007030320004669308,0.2927129566669464,-23.61355972290039,19.501754760742188,17.89893341064453,0.8897806406021118,2.3540542125701904,-0.08051909506320953,,,,,,,,,
1739401083.320717,-0.7074483221423971,0.67572700755281,1.4189414151216957,-1.8793773207995252,-0.7095951944816817,1.948807956366709,0.18630508032567722,-0.001186148051210569,6.591274867445631e-05,-0.0006826889559848628,-9.25876921991135e-05,-0.0002582760554249183,-0.00012770199073944177,-0.001314649980870245,0.2927129566669464,-23.58578872680664,19.477951049804688,17.89893341064453,0.8897806406021118,2.3604629039764404,-0.06678618490695953,,,,,,,,,
1739401083.3317144,-0.7074485560388871,0.6757248310676849,1.418943567414549,-1.87938136783709,-0.7095927248328872,1.948807292986811,0.18630832180623327,-0.0011292289471784085,-0.0002792255790009223,0.002078758937678475,-0.0007400882754980172,-0.00046151270285572774,-0.00059049456923669,-0.001380471255557193,0.2927129566669464,-23.58578872680664,19.477951049804688,17.92273712158203,0.8769632577896118,2.3540542125701904,-0.09425200521945953,,,,,,,,,
1739401083.3427622,-0.7074466065726172,0.6757271438999868,1.4189372986432454,-1.8793822410338445,-0.7095937983647548,1.948808119675901,0.18630983663883702,-0.0005272913481378344,-0.0009338891582425303,-0.0003569462308573461,0.000724790165460599,-0.0003727874464830507,0.001771111263952208,-0.00012508791115380276,0.2689092457294464,-23.61355972290039,19.529525756835938,17.92273712158203,0.8769632577896118,2.3604629039764404,-0.10706938803195953,,,,,,,,,
1739401083.3547282,-0.7074446115738658,0.6757286407553424,1.4189366090950342,-1.8793822297374208,-0.709595312219252,1.9488066878840171,0.18631143648186976,-0.0001707079655832413,-0.0002902965732650758,0.0008591496420092937,-0.0004363667357296007,0.0003968183368923224,0.0004922712710218324,0.0006243097881524855,0.2411382496356964,-23.63736343383789,19.529525756835938,17.92273712158203,0.8897806406021118,2.3604629039764404,-0.08051909506320953,,,,,,,,,
1739401083.3657658,-0.7074479953137102,0.6757316111768852,1.418933040478727,-1.8793823130140201,-0.7095948191931752,1.9488089665202213,0.18631507275956066,-0.0003817726957339148,0.0017818670850380859,-0.00015282378923871172,0.00036630035060253297,0.001578564212407951,-5.1145590379653895e-05,0.0032387613540909056,0.2927129566669464,-23.66513442993164,19.577133178710938,17.92273712158203,0.8897806406021118,2.3668715953826904,-0.14735259115695953,,,,,,,,,
1739401083.3777096,-0.7074483210524759,0.675735277365891,1.4189288174290167,-1.8793839322653747,-0.7095942414505966,1.9488071854543865,0.18630609785184882,-0.001436359687936432,0.0003017946759342506,-0.0004221967490710207,0.0007178933756256874,-0.0003575377033475482,0.0008787785672769381,-5.9781590859115394e-05,0.2927129566669464,-23.68893814086914,19.604904174804688,17.97431182861328,0.8897806406021118,2.3668715953826904,-0.07411040365695953,,,,,,,,,
1739401083.388676,-0.7074465976925249,0.6757337273014401,1.418929100448795,-1.8793823323179484,-0.7095937983687973,1.9488097249154115,0.18631695706456725,-0.000443508929430399,0.0003724165589172189,-7.432553519829224e-05,0.0006526529148859859,-0.0003938839389190082,0.0006150214510073695,0.002576792081645848,0.2689092457294464,-23.66513442993164,19.628707885742188,17.92273712158203,0.8769632577896118,2.3732802867889404,-0.12721098959445953,,,,,,,,,
1739401083.3997097,-0.7074466095145352,0.6757351844405488,1.4189363427751456,-1.8793823101920588,-0.709593322987207,1.9488068856376424,0.186312692101062,-1.1098557615776715e-06,0.00205190851629372,0.0013220537165474257,0.0006707304455610694,0.00041783372956805424,-0.0003289119880515135,0.0005360895966315306,0.2689092457294464,-23.68893814086914,19.529525756835938,17.92273712158203,0.8769632577896118,2.3604629039764404,-0.12721098959445953,,,,,,,,,
1739401083.4097834,-0.7074465034419063,0.6757338046544425,1.4189298251514033,-1.8793787562844873,-0.7095953141728049,1.9488074817263294,0.18631554091130123,0.0005319020843185161,0.0011357837880032538,-0.0012437853211177013,0.0013822353704660997,-0.0002442561845360685,-0.0018526455954404697,0.0004087195498859999,0.2689092457294464,-23.66513442993164,19.577133178710938,17.87512969970703,0.8897806406021118,2.3796889781951904,-0.12721098959445953,,,,,,,,,
1739401083.4207094,-0.7074480041070903,0.6757338056556367,1.418934074050459,-1.8793844077805617,-0.7095968975118552,1.9488076312473566,0.1863088126202595,-0.0002376319091197345,0.0001743567079139362,0.00022676301170724037,-0.00043718095362156996,-0.0008297867323360965,0.0008971639394701707,0.00010587618097001195,0.2927129566669464,-23.66513442993164,19.553329467773438,17.94654083251953,0.9035135507583618,2.3604629039764404,-0.09425200521945953,,,,,,,,,
1739401083.431726,-0.7074443727174435,0.6757296122550013,1.418938450143235,-1.8793803008717536,-0.7095960713508257,1.9488101681276764,0.18631219339504335,0.00039644106191397767,0.0002103949948104946,0.001496611020113507,-0.00021925136725987307,-1.936821880566973e-05,0.0013072291785414722,0.0023166205377314533,0.2411382496356964,-23.63736343383789,19.501754760742188,17.89893341064453,0.8961893320083618,2.3668715953826904,-0.11347807943820953,,,,,,,,,
1739401083.4427047,-0.7074452782615238,0.6757298513856227,1.418940467317147,-1.8793776429430553,-0.7095942408073657,1.9488091057132118,0.18631334263151533,0.0005346345128264048,0.0008515137692974516,0.0010475336808231797,0.00025429045065442806,-0.0005307516191494543,6.655968741173707e-05,0.0013758779367220061,0.2411382496356964,-23.61355972290039,19.477951049804688,17.89893341064453,0.8897806406021118,2.3476455211639404,-0.12721098959445953,,,,,,,,,
1739401083.4536555,-0.7074483220392301,0.6757271439170482,1.4189391250896901,-1.879380527135127,-0.7095953136849152,1.9488122841242543,0.1863177537342972,0.00030871845043607443,-0.00016506890842592372,-0.00029938492815889813,0.0010598382030897787,0.0003660565873411018,0.0008481207915789537,0.0029207223881630127,0.2927129566669464,-23.61355972290039,19.529525756835938,17.89893341064453,0.8897806406021118,2.3476455211639404,-0.13361968100070953,,,,,,,,,
1739401083.4636927,-0.7074483483568391,0.6757278290904642,1.4189428061736165,-1.8793792107501495,-0.7095945952767498,1.9488089129883157,0.18631026351439184,-0.00030068429150378824,-0.0001856044254136354,-0.00021983445829918736,-0.00043685706662056033,0.0006242251735413029,0.0009978567985990507,0.0009035826665774873,0.2927129566669464,-23.58578872680664,19.450180053710938,17.92273712158203,0.8833719491958618,2.3403213024139404,-0.07411040365695953,,,,,,,,,
1739401083.473767,-0.7074463707695533,0.6757288956299662,1.4189407017804685,-1.8793812425858754,-0.7095941984036893,1.9488104210392299,0.1863059419080016,0.00015262547107724078,0.0018241126644608042,-0.0010084224537896885,-0.000652451160349177,0.0003385495209387855,0.0011251325975934283,-0.001608614653969356,0.2689092457294464,-23.63736343383789,19.477951049804688,17.94654083251953,0.8833719491958618,2.3668715953826904,-0.07411040365695953,,,,,,,,,
1739401083.484718,-0.7074443715184127,0.675727876733568,1.418938700954839,-1.879381875461846,-0.7095977349432625,1.9488097228065286,0.18631063958643415,2.6732805503434584e-05,0.0009312714650303966,-0.0014240192596623063,-0.0004807977573548856,-0.0009218381794546252,0.0003489296484444379,0.0006686993414663485,0.2689092457294464,-23.61355972290039,19.501754760742188,17.94654083251953,0.8833719491958618,2.3604629039764404,-0.11347807943820953,,,,,,,,,
1739401083.49571,-0.7074482386001206,0.6757280642751915,1.4189366128705805,-1.8793805126509007,-0.7095953137448069,1.9488074115115115,0.186314588523821,0.0002524706152908136,0.0005040418657636946,-0.000315511438607996,0.0006583196723111794,-0.0011723545845857871,-0.0008244004779198115,0.0015029554205852648,0.2927129566669464,-23.58578872680664,19.529525756835938,17.89893341064453,0.8897806406021118,2.3540542125701904,-0.10706938803195953,,,,,,,,,
1739401083.5057645,-0.7074466065708253,0.6757268304291726,1.418937297576004,-1.8793840752081168,-0.7095977349452817,1.9488097091606815,0.18631304178634647,-0.00014544722787098127,-0.000571927409687246,-0.0002640439481920945,-0.000798183217097026,-0.0009820087363842439,-0.00030576070690099843,0.00019728656479263645,0.2689092457294464,-23.61355972290039,19.529525756835938,17.94654083251953,0.8833719491958618,2.3604629039764404,-0.10706938803195953,,,,,,,,,
1739401083.5167282,-0.7074424658066206,0.6757296238583622,1.4189348261108499,-1.8793823131348244,-0.709596537940006,1.9488057726393528,0.18631622550175472,0.0007645176833283335,0.0008227535619049618,-8.82844322299852e-05,0.0004073580401354732,-0.0016112515237150689,-0.0006859387785192639,0.0004962423955917518,0.2411382496356964,-23.63736343383789,19.553329467773438,17.92273712158203,0.8961893320083618,2.3668715953826904,-0.12080229818820953,,,,,,,,,
1739401083.5276403,-0.7074446076371839,0.6757293813637132,1.4189285875137232,-1.8793861756021475,-0.7095951517862775,1.9488065317529817,0.186307519557232,0.0006075550533313763,-0.0002716714319101547,-0.0009578520419228955,-0.0013302336338764484,0.0005961161679857415,-0.0005285341182089475,-0.0007415873378091588,0.2411382496356964,-23.63736343383789,19.604904174804688,17.97431182861328,0.8897806406021118,2.3604629039764404,-0.07411040365695953,,,,,,,,,
1739401083.5377002,-0.7074446083033722,0.6757376272284179,1.4189329598659521,-1.8793833890598237,-0.7095942408064517,1.9488065302456046,0.18630748004810455,1.3550212899026402e-05,0.0009297904504087609,-2.8633538686990924e-05,0.0008515659557166485,0.0007099408555828522,-0.0007934005566530114,-0.001368451971899557,0.2411382496356964,-23.68893814086914,19.577133178710938,17.94654083251953,0.8897806406021118,2.3604629039764404,-0.07411040365695953,,,,,,,,,
1739401083.5477138,-0.7074466133665882,0.6757330803320677,1.4189305434596826,-1.8793837867391023,-0.7095945560127239,1.9488060760171189,0.18630938738894015,-0.0005153913762722593,-0.0003890073374661424,0.0005314533893936838,-0.0004727686664770477,0.0005844574069986634,-0.00013509116549952738,-0.0019066987483179485,0.2689092457294464,-23.66513442993164,19.577133178710938,17.94654083251953,0.8833719491958618,2.3732802867889404,-0.09425200521945953,,,,,,,,,
1739401083.5577164,-0.7074483220356623,0.6757375191151983,1.4189284602737429,-1.8793841046265085,-0.7095953136909707,1.9488050280613005,0.18631733993668065,-0.0005541982726898153,0.002417382834867282,-0.0011379470403619053,0.00020189926900388076,0.0004306946251453147,-0.0004099851421084041,0.0029248787025270766,0.2927129566669464,-23.71670913696289,19.604904174804688,17.94654083251953,0.8897806406021118,2.3732802867889404,-0.16749419271945953,,,,,,,,,
1739401083.5687084,-0.7074494058295756,0.6757375191997571,1.4189316084308594,-1.8793819921914285,-0.7095960706969524,1.9488080455657772,0.18631227475520395,-0.0011078652057288764,0.00029100768125276365,0.00028096679718628476,0.0005007288652244239,0.0009590865435683128,-0.00047468264956375807,-0.0011881500589265095,0.2689092457294464,-23.71670913696289,19.553329467773438,17.92273712158203,0.8961893320083618,2.3476455211639404,-0.12721098959445953,,,,,,,,,
1739401083.5796669,-0.707449169688405,0.6757338087262846,1.4189316117363457,-1.879376593277085,-0.7095960708604732,1.9488112244801405,0.18630840440743776,-0.000851910881070153,-0.00032082712075139487,-0.000118668939854504,0.0009220775379782647,-0.0002967851873194318,-0.0003028954078952644,-0.002266727775360843,0.2927129566669464,-23.66513442993164,19.553329467773438,17.84735870361328,0.8961893320083618,2.3476455211639404,-0.06678618490695953,,,,,,,,,
1739401083.5897393,-0.7074466875302307,0.6757338347979966,1.4189334695983185,-1.8793783935199948,-0.7095945620065915,1.948809709213819,0.1863115657702216,-0.0006438851173090406,0.0010391096324149783,0.0009120286837434628,-0.0004977012624005597,0.00034420647885764424,5.962851624822672e-06,-0.0010432418328538133,0.2689092457294464,-23.66513442993164,19.529525756835938,17.89893341064453,0.8833719491958618,2.3604629039764404,-0.09425200521945953,,,,,,,,,
1739401083.6006796,-0.7074458913159992,0.6757300982291817,1.4189394073355939,-1.8793776663707862,-0.7095937983708487,1.948811224498086,0.18631273647462154,5.980416848095136e-05,-0.0011996628013597457,0.0008807442978243259,-0.00044642601176418623,0.001203372655289025,0.000927375229417494,-0.0010993832406703383,0.2689092457294464,-23.61355972290039,19.477951049804688,17.89893341064453,0.8769632577896118,2.3476455211639404,-0.11347807943820953,,,,,,,,,
1739401083.6116533,-0.7074446115698282,0.6757273722149572,1.4189386885600537,-1.8793802974743203,-0.709595314336994,1.9488074492676968,0.18631167563159556,0.0006561145493327639,-0.0010066261948390354,0.00029321571386696456,0.00017110062598579015,0.0004072117405040181,0.0004399303717022017,3.783811959827757e-05,0.2411382496356964,-23.58578872680664,19.501754760742188,17.89893341064453,0.8897806406021118,2.3540542125701904,-0.11347807943820953,,,,,,,,,
1739401083.6217444,-0.7074466119676014,0.6757277652846881,1.4189425476534299,-1.879383922885931,-0.7095998009391538,1.9488097091627166,0.1863111673905386,-0.00025211338196309764,-0.0014328099949606572,0.0005501156944718719,-0.0013269606247394124,-0.0010703673847293435,0.00040792360888448014,-0.0005361086991510511,0.2689092457294464,-23.56198501586914,19.450180053710938,17.97431182861328,0.9099222421646118,2.3604629039764404,-0.08692778646945953,,,,,,,,,
1739401083.6327765,-0.707444611573924,0.6757263964575718,1.418942559536146,-1.8793813678169595,-0.709596066971557,1.948807301687484,0.1863111220782237,-0.0001538507500327034,-0.0003665825525858568,0.0006971829828523656,-0.0006032198877200692,-0.0008074077564701477,-0.00038615924644500575,-0.0010930220066338596,0.2411382496356964,-23.56198501586914,19.450180053710938,17.92273712158203,0.8961893320083618,2.3540542125701904,-0.08051909506320953,,,,,,,,,
1739401083.64378,-0.7074465977409784,0.6757309079961351,1.4189414439401475,-1.8793793814195845,-0.7095945545591654,1.9488065699759953,0.18631525460522722,-0.0005178212186639011,0.0010873261393498984,0.0001643699415692606,-0.0004725584633094332,0.0006763466376160078,5.787336521051005e-05,0.0024754366660592816,0.2689092457294464,-23.58578872680664,19.501754760742188,17.92273712158203,0.8833719491958618,2.3604629039764404,-0.11347807943820953,,,,,,,,,
1739401083.6547174,-0.7074456470100349,0.6757318107656151,1.4189375356480727,-1.8793823131187235,-0.7095945162944551,1.9488072879058986,0.18631780357054772,0.00042944010312217747,-1.8200580375165158e-05,0.000799092600307454,-0.0006828761840692692,0.0005490798323166249,0.0003036077722447689,0.0009565500170435101,0.2689092457294464,-23.63736343383789,19.529525756835938,17.92273712158203,0.8833719491958618,2.3540542125701904,-0.14735259115695953,,,,,,,,,
1739401083.664739,-0.7074461762519547,0.6757280962909183,1.4189366087919006,-1.8793841045334936,-0.7095977741904651,1.9488072879056744,0.18631301969011496,-0.0006928903874916602,-0.0009582958540971815,0.00046560343610593916,-0.00019681280506277142,-0.0010204912726513764,-0.00026438492156798023,0.00124469594724056,0.2927129566669464,-23.58578872680664,19.529525756835938,17.94654083251953,0.8833719491958618,2.3540542125701904,-0.12080229818820953,,,,,,,,,
1739401083.6756608,-0.7074444637354106,0.6757341206581446,1.4189302483402344,-1.879385857710758,-0.7095982051226637,1.9488072879056744,0.1863122073144659,0.0003761545667213562,0.0007129486342545932,-0.0014495966339331534,-0.001157092389634001,-0.0013437526600127763,-0.0005004878156859892,0.00017180367678489928,0.2689092457294464,-23.66513442993164,19.604904174804688,17.97431182861328,0.9099222421646118,2.3540542125701904,-0.08692778646945953,,,,,,,,,
1739401083.685757,-0.7074500257965387,0.675730098341315,1.4189340765572283,-1.8793861845319608,-0.7095976929547084,1.948806832223647,0.18631113724835935,-0.0008014146317679833,-0.00117393660042421,-0.0002746369642910041,-0.000997634001796088,-0.0003138279012942552,0.0004990152114202665,0.0012384297052192572,0.3165166676044464,-23.61355972290039,19.577133178710938,17.97431182861328,0.9099222421646118,2.3668715953826904,-0.10066069662570953,,,,,,,,,
1739401083.6957688,-0.7074453135839948,0.675732511427607,1.418930550346619,-1.8793820040742035,-0.7095953136909385,1.9488057726034627,0.18630719113757271,0.0005988726814064448,-0.000979540646979056,0.000506139314238991,0.0001735503059861456,-0.00011174870274471438,0.0004913509867084843,-0.001133984287879103,0.2411382496356964,-23.63736343383789,19.577133178710938,17.92273712158203,0.8897806406021118,2.3668715953826904,-0.08051909506320953,,,,,,,,,
1739401083.7066872,-0.7074466210744228,0.6757318107537208,1.418930645994994,-1.8793817194739277,-0.7095945560308933,1.9488057725855177,0.18631188032828216,9.328805085459502e-05,-0.0001226828357179415,0.0002109695339200348,0.0002045344220169944,0.0005845937538079,0.0005451746727797993,0.0010436372154514057,0.2689092457294464,-23.63736343383789,19.577133178710938,17.94654083251953,0.8833719491958618,2.3668715953826904,-0.08692778646945953,,,,,,,,,
1739401083.7166903,-0.7074504284944343,0.6757327467634465,1.4189271357034756,-1.8793811346720652,-0.709593428143492,1.9488057725855177,0.18631522924727376,-0.000333476769656717,-0.000679526791508549,-0.0010752899981644087,0.00012005229032533403,0.0009536878224799979,-0.0005225191253139989,0.0008748722728856691,0.2927129566669464,-23.63736343383789,19.604904174804688,17.94654083251953,0.8769632577896118,2.3668715953826904,-0.11347807943820953,,,,,,,,,
1739401083.7276828,-0.7074466095504085,0.67573380870647,1.4189291095052925,-1.8793822145343195,-0.7095982457811703,1.9488065316991463,0.18631411682052323,0.0009477355681175939,-0.0005060056106912206,0.00015377118041346756,-0.0006759831150469997,-0.0018397841749078446,1.0505940462964431e-05,0.0008447392321924684,0.2689092457294464,-23.66513442993164,19.577133178710938,17.92273712158203,0.8833719491958618,2.3604629039764404,-0.10706938803195953,,,,,,,,,
1739401083.7387323,-0.7074446115738827,0.6757308040912033,1.4189341848499455,-1.8793797875845053,-0.7095953141963172,1.9488065302456041,0.18631306515547866,0.0011495031385807691,-0.0007881766638746044,0.0007925661097293561,0.0018695516979870361,-0.00035123805901896715,0.0007844855943417002,-0.001396399417418365,0.2411382496356964,-23.61355972290039,19.529525756835938,17.89893341064453,0.8897806406021118,2.3604629039764404,-0.09425200521945953,,,,,,,,,
1739401083.7506382,-0.7074483223201202,0.6757318108580911,1.418932570063513,-1.8793822336610488,-0.7095953136909726,1.9488065302455961,0.18631308027067991,-0.00010391250478271311,-0.001199397314549086,-0.0003964164991810081,-0.0009280165274122536,0.0002393438593254401,0.0005292759089085374,0.00014921750619795063,0.2927129566669464,-23.63736343383789,19.553329467773438,17.92273712158203,0.8897806406021118,2.3604629039764404,-0.09425200521945953,,,,,,,,,
1739401083.760754,-0.707446609514737,0.6757318367501461,1.4189372790886479,-1.8793820027655082,-0.7095953136909717,1.9488072879056744,0.18631416064794,-0.001126900949301485,0.0002363405613303452,0.0002177430695562857,-0.00030999743129345045,-0.000167182070332127,4.248089249958846e-05,0.00027464678605348264,0.2689092457294464,-23.63736343383789,19.477951049804688,17.92273712158203,0.8897806406021118,2.3540542125701904,-0.10706938803195953,,,,,,,,,
1739401083.7716973,-0.7074457911841163,0.6757273746760453,1.4189385816030802,-1.8793813594228659,-0.709593798370815,1.9488065301917608,0.18631624493280002,0.00010830001982421722,-0.0009174136084070946,0.0002558890201539422,-0.00046433685212606457,0.00048776546741861334,0.0001532051429664228,0.00044511860011498493,0.2689092457294464,-23.58578872680664,19.501754760742188,17.92273712158203,0.8769632577896118,2.3604629039764404,-0.12080229818820953,,,,,,,,,
1739401083.7827647,-0.7074466055855303,0.6757266209101217,1.4189379733097183,-1.8793822421602986,-0.7095964768915686,1.9488065302455957,0.186316256690652,-0.0001493071129198897,-0.00013480744849571498,-5.2800801114650565e-05,-0.0005844987122258101,-0.00030141515265211645,0.0002051642520705121,0.0013686928093797042,0.2689092457294464,-23.56198501586914,19.501754760742188,17.92273712158203,0.8961893320083618,2.3604629039764404,-0.12080229818820953,,,,,,,,,
1739401083.793777,-0.7074454609034789,0.6757263877687661,1.4189384501434428,-1.8793823216381413,-0.709595313693261,1.9488072879056741,0.1863153920936059,-0.0005669888002317307,-0.0001576671142164323,-0.0003605276568008568,0.00021550171738927035,-0.00024205399772566635,5.8446793039017006e-05,-7.36142440340461e-05,0.2927129566669464,-23.56198501586914,19.501754760742188,17.92273712158203,0.8897806406021118,2.3540542125701904,-0.11347807943820953,,,,,,,,,
1739401083.804668,-0.7074500344666963,0.6757300982290344,1.4189386881636414,-1.879386175238808,-0.7095953141754884,1.9488072879056741,0.18631148255486807,-0.0010170306766883813,0.0002359813493253178,0.00036024937617127543,-0.0013173126108457925,-0.0004069347718265251,0.0005538719524834352,0.00033698578724505857,0.3165166676044464,-23.61355972290039,19.501754760742188,17.97431182861328,0.8897806406021118,2.3540542125701904,-0.08051909506320953,,,,,,,,,
1739401083.8156636,-0.7074469242628714,0.6757318107497655,1.4189347996082293,-1.8793797945984398,-0.709594556030896,1.9488072879056741,0.18631073805843074,4.79536416780591e-05,0.000701773279080366,-0.0007636139967695378,0.00024712031187670413,0.0005990217298279204,0.00017727273586052068,-0.0020853961582241428,0.2689092457294464,-23.63736343383789,19.553329467773438,17.89893341064453,0.8833719491958618,2.3540542125701904,-0.07411040365695953,,,,,,,,,
1739401083.8266594,-0.7074458942607749,0.6757318107497655,1.4189384383735737,-1.8793838662198767,-0.7095985056873119,1.948806832223647,0.18630951668681178,0.000980451190317279,-0.00034552974800547046,0.001184597907356163,-0.0006549955598650452,-0.001455807301014237,0.0004424671968499336,-0.0013242855201494276,0.2689092457294464,-23.63736343383789,19.501754760742188,17.94654083251953,0.8897806406021118,2.3668715953826904,-0.06678618490695953,,,,,,,,,
1739401083.8377316,-0.7074468444690198,0.675730097784894,1.4189298941784798,-1.879384104202557,-0.7095949223796121,1.948809709177929,0.18631388130423024,-0.0005494601074625973,-0.0014403296500659943,-0.0010346133543916592,-0.0006662292130149765,0.00045489407563676905,0.0009014205312044606,0.000997888139303645,0.2689092457294464,-23.61355972290039,19.604904174804688,17.94654083251953,0.8833719491958618,2.3604629039764404,-0.10066069662570953,,,,,,,,,
1739401083.847753,-0.70744664403788,0.6757338086906161,1.4189306237637118,-1.8793825515538995,-0.7095984984216287,1.9488065302635411,0.18631701435082962,0.0010233633036188458,-0.00028111182164075046,-6.845381873751472e-05,-9.025547449773518e-06,-0.0016050900203272499,4.748390397553214e-05,0.0004156459595006951,0.2689092457294464,-23.66513442993164,19.577133178710938,17.92273712158203,0.8897806406021118,2.3604629039764404,-0.12721098959445953,,,,,,,,,
1739401083.858753,-0.7074482955447083,0.6757338096535956,1.4189318459804727,-1.8793811637120819,-0.7095936792333385,1.9488080455657528,0.18631461704442334,-0.00045600774696015174,-0.0003663820809360883,0.00021674725261478097,-0.00027371850740464835,-0.0003217468041436417,0.0005741960251387882,0.0015700924454289174,0.2927129566669464,-23.66513442993164,19.553329467773438,17.94654083251953,0.8769632577896118,2.3476455211639404,-0.10706938803195953,,,,,,,,,
1739401083.8697438,-0.7074497958101214,0.6757338086906348,1.4189259633986755,-1.8793840130191894,-0.7095956669016639,1.9488057725855177,0.18630987216097541,-0.0003256868173973456,0.0005290950131089965,0.0005038616552886619,-0.00029493104906478935,-0.0012375993160916054,0.0008174653455744808,-0.0012430667791529853,0.3165166676044464,-23.66513442993164,19.628707885742188,17.94654083251953,0.8897806406021118,2.3668715953826904,-0.06678618490695953,,,,,,,,,
1739401083.8807034,-0.7074444637470743,0.6757317937546675,1.4189319675951226,-1.879382317725498,-0.7095960715132202,1.9488075898837254,0.186316927627627,0.0002953006338803303,-0.0018014116656361562,-0.000983624779814596,0.0004018478679783291,3.0182812041640436e-05,0.0002938058405766985,0.0013633512990582873,0.2689092457294464,-23.63736343383789,19.577133178710938,17.92273712158203,0.8961893320083618,2.3604629039764404,-0.11347807943820953,,,,,,,,,
1739401083.8916998,-0.7074446115375437,0.6757345135895225,1.4189294618264603,-1.8793791341118466,-0.7095969772852058,1.9488065302635411,0.18631149574458505,0.0009778590607074195,0.0006435185433892399,-0.0010164969899149846,0.0016087560787646058,0.0002864465229816724,-0.00021523608715851307,-0.0007495552566643519,0.2411382496356964,-23.66513442993164,19.553329467773438,17.92273712158203,0.8769632577896118,2.3604629039764404,-0.08051909506320953,,,,,,,,,
1739401083.9036984,-0.7074448455773027,0.6757288055096918,1.4189333109755378,-1.8793841046366613,-0.7095969377387807,1.9488072879056744,0.18631189795837258,7.333559124125233e-05,-0.0012378546723263264,-0.0003844938980796158,-0.0010286738833819046,-0.0006277733178417463,0.00024315563416328026,-0.0010224845879442653,0.2411382496356964,-23.58578872680664,19.529525756835938,17.94654083251953,0.9035135507583618,2.3540542125701904,-0.08692778646945953,,,,,,,,,
1739401083.9147117,-0.7074446125381805,0.6757318108607439,1.4189337080163782,-1.8793823218566243,-0.7095937983708177,1.9488072879056744,0.18631778950598804,0.0003325378368050239,9.439175655904985e-06,-0.00029418749622308265,-0.00019870446089965645,0.0003692112666392951,0.0001285229915769622,0.0015821928019587716,0.2411382496356964,-23.63736343383789,19.529525756835938,17.92273712158203,0.8769632577896118,2.3540542125701904,-0.13361968100070953,,,,,,,,,
1739401083.9257472,-0.7074449235784446,0.6757300982290346,1.4189383310599182,-1.8793801300415496,-0.7095968353945549,1.9488080455657528,0.18631941209781594,0.00017932378408577672,-3.86221446971323e-05,0.00022821357904782033,0.0002238506759195709,-0.0008303195505697452,0.00011091195320560974,0.001464735924775298,0.2411382496356964,-23.61355972290039,19.501754760742188,17.89893341064453,0.8897806406021118,2.3476455211639404,-0.14735259115695953,,,,,,,,,
1739401083.9367654,-0.707448322037228,0.675730089663182,1.4189361881305693,-1.8793816027830075,-0.7095963689763674,1.9488065302455961,0.18631625880148775,-0.0008495299802210479,0.0009188634036342656,0.0009282502851583929,-0.0002960083073920525,-7.367511809651525e-05,0.0004463399382849909,-3.385972326453037e-05,0.2927129566669464,-23.61355972290039,19.501754760742188,17.92273712158203,0.8897806406021118,2.3604629039764404,-0.12080229818820953,,,,,,,,,
1739401083.9476788,-0.7074472752225788,0.6757263068228224,1.4189365073181066,-1.8793785181889637,-0.7095913422312,1.9488080455657528,0.18631073805850873,-0.00038505290066232834,-0.0010260969900366121,7.873799277911253e-05,0.001305288820228321,0.00046368675706862116,0.0002011531128333994,-0.0021037685466292343,0.2689092457294464,-23.56198501586914,19.501754760742188,17.87512969970703,0.8833719491958618,2.3476455211639404,-0.07411040365695953,,,,,,,,,
1739401083.9587686,-0.7074466095184934,0.6757303582323777,1.4189373331611392,-1.8793804329964139,-0.7096003098309173,1.9488061770328862,0.18631574751657737,2.8857517240454523e-05,0.0009962186320223566,-3.848991705978559e-05,0.0007172175106884374,-0.0005822045743174068,-0.00015576055502485286,0.0007512298258528455,0.2689092457294464,-23.61355972290039,19.477951049804688,17.89893341064453,0.8961893320083618,2.3604629039764404,-0.08051909506320953,,,,,,,,,
1739401083.9696379,-0.7074466095147355,0.675730176267308,1.4189343529938627,-1.8793831470068187,-0.7095945561086549,1.9488065302436022,0.18631559415628454,-0.0005901165849615772,0.0015326504439171517,0.0008424021425596761,-0.0002425343324074544,0.0002641140298067022,-4.450629163175234e-05,-0.0003411681563211255,0.2689092457294464,-23.61355972290039,19.529525756835938,17.94654083251953,0.8833719491958618,2.3604629039764404,-0.12721098959445953,,,,,,,,,
1739401083.9796903,-0.7074483220354667,0.675730098230356,1.4189338369563793,-1.8793841042993933,-0.7095967396237643,1.9488057725855175,0.1863114956945075,-0.0004524249070869399,-0.00045005613819448683,-0.0008497075916977478,-0.002082028022606011,-0.0018000828453606415,0.0001660335378441137,-0.0006303010653723012,0.2927129566669464,-23.61355972290039,19.553329467773438,17.94654083251953,0.8897806406021118,2.3668715953826904,-0.08051909506320953,,,,,,,,,
1739401083.990746,-0.7074483450924075,0.6757318077518181,1.4189319836330978,-1.8793841032981238,-0.7095968486480809,1.948806530245596,0.18630987216127254,0.00012310837632818815,-0.0003843829674886434,-0.0023312040038844135,-3.7006861903767885e-05,-0.0010747243963504657,-0.0001562070717084652,-0.0014466658057694154,0.2927129566669464,-23.63736343383789,19.577133178710938,17.94654083251953,0.8897806406021118,2.3604629039764404,-0.06678618490695953,,,,,,,,,
1739401084.0017192,-0.7074458942947941,0.6757339136550988,1.418930173126851,-1.8793805304582962,-0.7095953137534717,1.948803351331208,0.18631808313721615,0.0006193977555619697,0.0005063984575574198,-0.0004337545202632799,0.0005433844358695504,0.00035448734573022555,-0.0004739452729585279,0.0012365074881967532,0.2689092457294464,-23.66513442993164,19.577133178710938,17.89893341064453,0.8897806406021118,2.3604629039764404,-0.12721098959445953,,,,,,,,,
1739401084.0127091,-0.7074484000325693,0.6757345107014718,1.4189316105391276,-1.8793836700607667,-0.7095953180516227,1.9488057682069218,0.18631539296419883,-0.0003157488735473279,-0.00041029242326780235,0.0004988513292733208,0.00044615598066289854,-0.00015968794976182034,-0.0004085266002641152,0.0007285210135887352,0.2927129566669464,-23.66513442993164,19.553329467773438,17.92273712158203,0.8897806406021118,2.3668715953826904,-0.11347807943820953,,,,,,,,,
1739401084.0227191,-0.7074466124049875,0.6757376622421862,1.4189277806298646,-1.8793897499143621,-0.7095945560309671,1.9488072879056002,0.18631161382409522,1.1621761087839388e-05,0.0020956793902445017,-0.0002346358108479577,-0.002482962171997212,0.00047286179922310283,0.000217366758384253,-0.0001996150449249774,0.2689092457294464,-23.68893814086914,19.604904174804688,18.02191925048828,0.8833719491958618,2.3540542125701904,-0.08051909506320953,,,,,,,,,
1739401084.033725,-0.7074446115738987,0.675733820294095,1.4189298257526954,-1.8793812426385648,-0.7095950284347232,1.9488056548479475,0.1863115132163612,0.0001250980332554494,-0.0006730052584986543,0.000845589344221068,0.0005995614626134572,-0.002166971769121159,-0.0011045071847074104,-0.0015328404994585211,0.2411382496356964,-23.66513442993164,19.577133178710938,17.94654083251953,0.8833719491958618,2.3668715953826904,-0.08051909506320953,,,,,,,,,
1739401084.044638,-0.7074486890545643,0.6757318194166243,1.4189334167253613,-1.8793843087709772,-0.709597497286508,1.9488065302449313,0.18632020466203414,0.0009419963600966432,-0.0011496011585479195,0.00013978384943900523,0.00016783135862968407,-0.0011123277888897773,-0.00020356323454252597,0.0008964906312826228,0.2689092457294464,-23.63736343383789,19.529525756835938,17.92273712158203,0.8961893320083618,2.3604629039764404,-0.12721098959445953,,,,,,,,,
1739401084.0547075,-0.7074466095499526,0.6757280951463941,1.418927753921277,-1.879386184466162,-0.7095945560550416,1.9488072879056741,0.18631556339299654,-0.00028774038828418137,-0.0011672079029544334,-0.0022766616094898637,-0.0018811670586558892,0.001306620873461656,6.723811573042644e-05,0.0007443198100620387,0.2689092457294464,-23.58578872680664,19.604904174804688,17.97431182861328,0.8833719491958618,2.3540542125701904,-0.11347807943820953,,,,,,,,,
1739401084.0647345,-0.7074483220354673,0.6757301280812354,1.418935469915393,-1.8793840251698006,-0.7095937983708154,1.948805739153862,0.18631480283748722,-0.000923925804899437,-0.0003579962275265836,0.0007655916118219254,-0.0006385135537243101,0.00040137861408378207,-0.00030707392703439396,-0.0012683701871004525,0.2927129566669464,-23.61355972290039,19.501754760742188,17.94654083251953,0.8769632577896118,2.3668715953826904,-0.08051909506320953,,,,,,,,,
1739401084.0756345,-0.7074500433299887,0.6757281119867375,1.4189319719557714,-1.8793861843957278,-0.7095945603915441,1.9488050149252507,0.18631677433680738,-0.0002958053532354926,2.2412974354783734e-05,-0.00044995708627895996,-0.0006422539128876183,0.0001764170823193619,7.539219201957139e-05,0.0019350855484169707,0.3165166676044464,-23.58578872680664,19.577133178710938,17.97431182861328,0.8833719491958618,2.3732802867889404,-0.12080229818820953,,,,,,,,,
1739401084.0857186,-0.707446609514884,0.6757288295829895,1.4189319284286241,-1.8793816037664635,-0.7095956529526604,1.9488072879056741,0.18631986946156992,-0.000338265893651664,-0.0005322961567899041,-0.0008525014315493594,-0.00016046540855725274,-0.00039714149278412747,-9.476481470215374e-05,0.0022963775676211494,0.2689092457294464,-23.58578872680664,19.553329467773438,17.92273712158203,0.8833719491958618,2.3540542125701904,-0.14735259115695953,,,,,,,,,
1739401084.0967717,-0.7074448430618533,0.6757300982331512,1.418938678265834,-1.8793805392845673,-0.709594713020512,1.9488072879056741,0.18631540538162936,0.0008679153161850451,0.0003996364392886448,0.0016373933290425658,-0.0005922895829579736,-0.00017666808013256204,0.00025143531497005334,3.107004542722116e-05,0.2411382496356964,-23.61355972290039,19.501754760742188,17.89893341064453,0.8833719491958618,2.3540542125701904,-0.11347807943820953,,,,,,,,,
1739401084.1076736,-0.7074466095186557,0.6757318107497655,1.4189357777450151,-1.879380297926603,-0.7095953151471805,1.9488054193728077,0.18631312138225015,0.00014032157304144782,0.0013638896533877697,-0.0006474545723217995,0.0012106758785305903,0.0008712677374511494,-0.0007300469100129104,-0.00018880304648406814,0.2689092457294464,-23.63736343383789,19.529525756835938,17.89893341064453,0.8897806406021118,2.3668715953826904,-0.09425200521945953,,,,,,,,,
1739401084.1186597,-0.7074466068922886,0.6757318110707579,1.4189366427845886,-1.8793833893855598,-0.7095956669036897,1.9488072879036804,0.18632081380929388,0.00018521952150333206,0.000699024417570755,0.0002664235708220203,-0.0003927017668202619,0.0008026400605671933,-8.340502939711325e-05,0.004196842863578786,0.2689092457294464,-23.63736343383789,19.529525756835938,17.94654083251953,0.8897806406021118,2.3540542125701904,-0.14735259115695953,,,,,,,,,
1739401084.1287744,-0.7074466210704451,0.6757300982290362,1.4189366084493473,-1.8793823092066995,-0.7095945560328872,1.9488057725855175,0.1863170163074685,-0.00013998572386622314,-0.00012241084913274994,0.000997825291693953,0.0005927161325304712,-5.037617506956844e-05,-0.00028070266647463473,-0.0001747609958112124,0.2689092457294464,-23.61355972290039,19.529525756835938,17.92273712158203,0.8833719491958618,2.3668715953826904,-0.12721098959445953,,,,,,,,,
1739401084.1396675,-0.7074466095148007,0.6757300982290344,1.4189326534776303,-1.8793823218565524,-0.7095968442793807,1.9488072879056741,0.18631638938169748,0.0004950859906433735,-0.00044085378049297337,-0.0012086571232053029,-0.00015865313723278788,-3.0296234067661476e-05,0.0012588080889211419,0.0015600266880903926,0.2689092457294464,-23.61355972290039,19.553329467773438,17.92273712158203,0.8897806406021118,2.3540542125701904,-0.12080229818820953,,,,,,,,,
1739401084.149758,-0.7074446115738825,0.6757311422216091,1.4189304246395689,-1.8793841007180723,-0.7095991609039933,1.948806530245596,0.1863114563916728,0.0007116958034133235,-0.0005225751208313724,-0.0009602821677840157,-0.0005162200500679554,-0.0010934445745890916,0.0013901730460687011,-0.0011313216556377308,0.2411382496356964,-23.58578872680664,19.553329467773438,17.94654083251953,0.8833719491958618,2.3604629039764404,-0.08051909506320953,,,,,,,,,
1739401084.1607387,-0.7074428990531513,0.6757339196866504,1.418933399094382,-1.8793783846910697,-0.709595352962823,1.9488057725855175,0.18632015901079144,0.001281218204536967,0.0004386305988949949,0.0005233864665049794,0.0011605079567623465,0.0004063744901830154,-0.0001053224332952725,0.002072174640103846,0.2173345386981964,-23.63736343383789,19.529525756835938,17.89893341064453,0.8897806406021118,2.3668715953826904,-0.15376128256320953,,,,,,,,,
1739401084.170741,-0.7074473115249961,0.6757281349910697,1.4189326420129065,-1.8793841016627322,-0.7095942736824105,1.9488057725855175,0.18631777541771485,-0.0003432311403998547,-0.001638289339213935,0.00045296912456631983,-0.0005332129512300339,0.00040734094074525043,-0.0005975439989386365,0.0022549178929687835,0.2689092457294464,-23.58578872680664,19.553329467773438,17.94654083251953,0.8769632577896118,2.3668715953826904,-0.13361968100070953,,,,,,,,,
1739401084.1816404,-0.7074483220030908,0.6757308006674807,1.4189319620841283,-1.879384104642643,-0.7095988501814033,1.9488065295995738,0.1863146345960618,-0.0006347888261704229,-0.001167234640149307,-1.7836806836416604e-05,-0.00018764911230049742,-0.0020471289383306142,0.00019563407686950797,-0.0005783712451129541,0.2927129566669464,-23.61355972290039,19.553329467773438,17.94654083251953,0.8897806406021118,2.3604629039764404,-0.10706938803195953,,,,,,,,,
1739401084.1916635,-0.7074438963181446,0.6757315765947167,1.418930063631998,-1.8793823219656405,-0.709595470734289,1.948807286452113,0.18631627127619488,0.0011397988168943068,-0.00041699403632885644,-0.00047809505785178244,0.0008595743272192688,0.0007800987808588296,0.0005295298006844256,0.00019243385488063757,0.2411382496356964,-23.63736343383789,19.577133178710938,17.92273712158203,0.8897806406021118,2.3540542125701904,-0.12080229818820953,,,,,,,,,
1739401084.201693,-0.7074467375422299,0.6757300982250689,1.4189298252114582,-1.8793816062738382,-0.7095945566795752,1.9488041089912618,0.18631446346798566,-0.0001511584773618337,-0.0011646616518983096,-0.0013060298671267875,0.001030022169866542,-4.735445895887245e-05,0.00036955539874312926,-0.0014801221103540763,0.2689092457294464,-23.61355972290039,19.577133178710938,17.92273712158203,0.8833719491958618,2.3540542125701904,-0.10706938803195953,,,,,,,,,
1739401084.2117302,-0.7074438963203133,0.675730905631782,1.4189317222425053,-1.8793823131232026,-0.7095953151445329,1.9488065301917608,0.18631327755502847,0.0018196964415674913,0.0007988895591826515,-0.0008595769374571754,-0.00018647893489989428,0.00017578658643439723,0.00011127129228038381,0.0009526293040876434,0.2411382496356964,-23.61355972290039,19.553329467773438,17.92273712158203,0.8897806406021118,2.3604629039764404,-0.09425200521945953,,,,,,,,,
1739401084.2226748,-0.707448322031429,0.6757320827775036,1.4189342241004879,-1.879381958875398,-0.7095992502654462,1.948807170168104,0.18631782742383757,-0.00023275887523474775,0.0008356610465009655,0.0007459551316205857,8.929426470974584e-05,-0.0004306920274772287,0.0003281015606177299,0.001725855588669726,0.2927129566669464,-23.63736343383789,19.529525756835938,17.94654083251953,0.8961893320083618,2.3540542125701904,-0.13361968100070953,,,,,,,,,
1739401084.2347248,-0.7074482958655057,0.675730136856649,1.4189318724716233,-1.879381243571259,-0.7095946744862658,1.9488064125073614,0.1863153922564337,-0.0002112326537730553,-9.70431212664809e-05,-0.00047564128708193327,-3.1929830321931097e-05,0.0005265898766860183,-0.00022793932180234654,-0.0009187454140686527,0.2927129566669464,-23.61355972290039,19.553329467773438,17.94654083251953,0.8833719491958618,2.3604629039764404,-0.11347807943820953,,,,,,,,,
1739401084.2456496,-0.7074466355150663,0.6757318367502182,1.4189337080294364,-1.8793801673627275,-0.7095987965396456,1.948805772585296,0.186316260097485,0.00013545388793552305,-0.0003250203158713318,-6.382147079445608e-05,1.8622063985176355e-05,-0.0016179454049846458,-0.00046727013697955627,-0.0005176588108328907,0.2689092457294464,-23.63736343383789,19.529525756835938,17.92273712158203,0.8833719491958618,2.3668715953826904,-0.12080229818820953,,,,,,,,,
1739401084.2566707,-0.7074487155456642,0.6757319147514323,1.4189376156842481,-1.8793797180569085,-0.7095930407346744,1.9488072879056741,0.18631625880141367,-0.0006047807307287625,0.0009117850914051375,6.140503735952796e-05,0.0008509276352993264,0.001209955322105402,6.576051958853647e-05,-0.0004089181831878062,0.2689092457294464,-23.63736343383789,19.501754760742188,17.89893341064453,0.8705545663833618,2.3540542125701904,-0.12080229818820953,,,,,,,,,
1739401084.2686348,-0.7074455033546768,0.6757281033203627,1.4189345513721319,-1.8793812888138286,-0.7095945562462342,1.9488080441122024,0.18631956510736053,0.00023767893249591204,-0.001152346669819612,6.977022121746257e-05,-0.0003194795725771838,0.0017117660077563684,8.052410797671134e-05,0.00201874687323549,0.2173345386981964,-23.58578872680664,19.553329467773438,17.92273712158203,0.8833719491958618,2.3476455211639404,-0.12080229818820953,,,,,,,,,
1739401084.2786765,-0.7074466095651026,0.675731811070775,1.4189317011099603,-1.879377651768887,-0.7096012935383709,1.9488065302455877,0.1863195152090001,2.563364826043008e-06,-8.286269800838564e-05,-8.093876950012965e-05,0.0002377706368356465,-0.002193980215432347,-6.701925364929764e-05,0.001778903893079128,0.2689092457294464,-23.63736343383789,19.553329467773438,17.89893341064453,0.9035135507583618,2.3604629039764404,-0.14735259115695953,,,,,,,,,
1739401084.2897313,-0.7074475455284167,0.6757301068958295,1.4189386047149084,-1.8793801761457898,-0.7095953142000798,1.9488072879056741,0.18631559413295015,-0.0004973028458700221,0.0007982034489485981,0.0020101759270219526,1.5900752194854397e-05,-0.00035574025549606447,0.0007896751092905387,-0.0013943491109608644,0.2689092457294464,-23.61355972290039,19.501754760742188,17.92273712158203,0.8897806406021118,2.3540542125701904,-0.12721098959445953,,,,,,,,,
1739401084.3006847,-0.7074483220764163,0.6757300982290833,1.418935571411913,-1.8793844755038918,-0.7095997755354317,1.948806530245596,0.18631646832043555,-0.00015169705558963425,-0.001122794697237628,0.00030110962774714456,-0.00038173875398056023,-0.0005509231538538029,-0.0003761116177101229,0.0008971035403975606,0.2927129566669464,-23.61355972290039,19.529525756835938,17.94654083251953,0.8961893320083618,2.3604629039764404,-0.11347807943820953,,,,,,,,,
1739401084.3107274,-0.7074453135841439,0.6757332142797137,1.4189323580623157,-1.879383389393203,-0.7095948761624008,1.9488072879056741,0.1863162580090698,0.0006306441921564614,0.000967464782030969,-0.0002485685862356451,0.00012776437347108627,0.0015316415081422442,7.548547999354117e-05,0.0006378086710760085,0.2411382496356964,-23.63736343383789,19.553329467773438,17.94654083251953,0.8897806406021118,2.3540542125701904,-0.12080229818820953,,,,,,,,,
1739401084.321694,-0.7074483230380724,0.6757339167884705,1.4189333999410876,-1.8793841046022834,-0.7095949099409907,1.9488057725855175,0.18631487998033464,-0.00037661519740692876,-0.0008162869234668101,0.0012673500071930283,-0.0009645651583373785,0.0002349134111912398,0.00032765608967527974,0.0003148904614760201,0.2927129566669464,-23.63736343383789,19.529525756835938,17.94654083251953,0.8833719491958618,2.3668715953826904,-0.12721098959445953,,,,,,,,,
1739401084.3317297,-0.7074466095147863,0.6757341208021768,1.4189277479254305,-1.879385469176776,-0.7095963864290337,1.9488057725855175,0.18631268464216355,-0.0001414105492696497,0.0003982523266909614,-0.0015051386374397206,-0.000937825030879135,-7.061817941037357e-05,-0.0002557731600203915,-0.0005597137176960997,0.2689092457294464,-23.66513442993164,19.604904174804688,17.97431182861328,0.8897806406021118,2.3668715953826904,-0.09425200521945953,,,,,,,,,
1739401084.3417442,-0.7074446144628136,0.6757327467652082,1.4189334961255544,-1.879382321961603,-0.7095956156750782,1.9488057725855175,0.1863186414744309,0.0003446467626452975,0.00022934972442970403,0.0013476890029188297,0.00012742767374674763,0.001185377288138663,0.0001734016772590256,0.000878548539083753,0.2411382496356964,-23.63736343383789,19.529525756835938,17.92273712158203,0.8833719491958618,2.3668715953826904,-0.14094389975070953,,,,,,,,,
1739401084.35269,-0.7074446115738987,0.6757345456943288,1.418931732120579,-1.879384104315611,-0.7095960769532001,1.9488064779177872,0.186315815651061,0.0004231341154370171,0.0004725930389222273,-0.0004334351696478483,-7.963231461298895e-05,0.000349309701950735,-0.0003548607437555089,0.00017078119649536507,0.2411382496356964,-23.66513442993164,19.577133178710938,17.94654083251953,0.8961893320083618,2.3604629039764404,-0.10706938803195953,,,,,,,,,
1739401084.3627064,-0.707452105265709,0.6757322421493945,1.4189298249126652,-1.879380539288616,-0.7095969372483772,1.9488042572644746,0.18631204871832763,-0.001146960568997209,-0.0001992488317030813,2.2281746983465435e-05,0.0009515530529758227,-0.0006892303721110029,-0.0004031541295415907,-0.002215206301177804,0.3165166676044464,-23.61355972290039,19.577133178710938,17.89893341064453,0.9035135507583618,2.3796889781951904,-0.06678618490695953,,,,,,,,,
1739401084.3727438,-0.7074448113610738,0.6757359148647055,1.4189322119005805,-1.8793803348831182,-0.7095984926053597,1.9488041089912862,0.18631653628323366,0.0007063540211058312,0.0003772363873032735,-0.0005338650616602086,-0.0003246569321434899,-0.0008564893668899005,-0.0003578591370230519,-0.00047992736573880144,0.2411382496356964,-23.66513442993164,19.577133178710938,17.89893341064453,0.8897806406021118,2.3540542125701904,-0.13361968100070953,,,,,,,,,
1739401084.383659,-0.7074446375753903,0.6757281108921452,1.4189298514211317,-1.8793805275137105,-0.7095999068180049,1.948806490927959,0.18631713537004835,0.00020009787246769327,-0.0005669253128933843,-0.000946764599744146,-0.0012063960354466398,-0.0007933402374646373,-0.0004705781911089348,0.0007820277555179159,0.2411382496356964,-23.58578872680664,19.577133178710938,17.89893341064453,0.8897806406021118,2.3604629039764404,-0.12721098959445953,,,,,,,,,
1739401084.3936749,-0.7074446115743228,0.6757301244395513,1.4189362776397398,-1.879378756502387,-0.7095960728823852,1.9488080455650867,0.1863162588034274,0.0008636994270515065,-0.0003384729591803966,0.0005148895309894645,0.00014530482643262607,0.0002607679116832112,0.00034668499435261564,0.00023789757600365814,0.2411382496356964,-23.61355972290039,19.529525756835938,17.87512969970703,0.8961893320083618,2.3476455211639404,-0.12080229818820953,,,,,,,,,
1739401084.4046457,-0.7074483258873748,0.6757318150654772,1.4189333941026105,-1.8793787300116325,-0.7095939611684512,1.9488072879056741,0.18631465355125817,0.0002178120464157873,0.00032978780606937754,0.0012087102373133417,0.0010858773581924424,-4.504168270146893e-05,0.0001722000115796563,-0.0005030610229263693,0.2927129566669464,-23.63736343383789,19.529525756835938,17.87512969970703,0.8769632577896118,2.3540542125701904,-0.10706938803195953,,,,,,,,,
1739401084.4146624,-0.707446618181594,0.6757290363019353,1.4189333905615187,-1.879378650538323,-0.7095937851280953,1.9488080455657526,0.18631625815368255,-0.0004783068835470482,-0.00019771168454193794,-0.0007184350223589318,0.0011565420366870822,0.0013677469283837832,0.0004553770748018293,0.0012843881636551658,0.2689092457294464,-23.58578872680664,19.529525756835938,17.87512969970703,0.8769632577896118,2.3476455211639404,-0.12080229818820953,,,,,,,,,
1739401084.4247038,-0.7074483258875216,0.6757331402893488,1.4189394867716738,-1.87938502266686,-0.7095969372480581,1.948806647983166,0.18631863937075066,-0.0004425934810255593,-0.000283810206951866,0.0005548303339915524,-0.0010989354079406983,0.0002382715824237921,7.440941038967618e-05,0.0020226739954400347,0.2927129566669464,-23.61355972290039,19.477951049804688,17.94654083251953,0.9035135507583618,2.3604629039764404,-0.14094389975070953,,,,,,,,,
1739401084.4348197,-0.7074465303629333,0.6757303190387943,1.4189343794858584,-1.8793861010506168,-0.7095953325871248,1.948807287907668,0.18631625815336156,0.00018229186787543217,-0.0007168904951928675,-0.00022305398010414579,-0.00038870475094388,-2.6775155516543667e-05,9.365675751160679e-05,-0.0006376312695640872,0.2689092457294464,-23.58578872680664,19.529525756835938,17.97431182861328,0.8897806406021118,2.3540542125701904,-0.12080229818820953,,,,,,,,,
1739401084.4457345,-0.7074466094779499,0.6757322333043158,1.41893586407349,-1.8793805038215248,-0.7095960756572992,1.9488080455657528,0.1863162713301983,3.356992158077025e-05,0.0003129227884354,-0.0011799522149674318,0.0005776858960396467,-0.0003098896350737944,0.0006481181595420545,0.0006316543625820508,0.2689092457294464,-23.61355972290039,19.529525756835938,17.89893341064453,0.8961893320083618,2.3476455211639404,-0.12080229818820953,,,,,,,,,
1739401084.4566822,-0.7074446198046105,0.6757338087026712,1.4189365028081873,-1.879380529476957,-0.7095995536970636,1.9488065302455961,0.18631262000347515,0.001124714191037191,0.0002664494204606505,0.0011952898944070983,0.00035775948700748287,-0.0004177296070119243,0.00015597079265839995,-0.0007571552098705265,0.2411382496356964,-23.66513442993164,19.529525756835938,17.89893341064453,0.8897806406021118,2.3604629039764404,-0.08692778646945953,,,,,,,,,
1739401084.467666,-0.7074446105927825,0.6757322044024798,1.4189344694700339,-1.8793861491111887,-0.7095957343935047,1.9488050149254394,0.18631149474404893,0.0009013424027151896,0.00017522477086440755,0.0001985767161938325,-0.0021195047662145756,0.0005873346426719139,-0.00030462853544428574,-0.001252135079252464,0.2411382496356964,-23.61355972290039,19.553329467773438,17.97431182861328,0.8833719491958618,2.3732802867889404,-0.08051909506320953,0,0,0,0.000,0,0
1739401084.478701,-0.7074466875158589,0.6757328249072522,1.4189277451389772,-1.8793802998882978,-0.7095954314484972,1.948806412508026,0.1863168594931387,0.0009603416264446119,0.0009623111349040911,-0.0016766166706738727,0.0005447083845201282,0.00017476100953210644,6.602019284861091e-05,0.0002970820731877673,0.2689092457294464,-23.63736343383789,19.604904174804688,17.89893341064453,0.8897806406021118,2.3604629039764404,-0.08692778646945953,0,0,0,0.000,0,0
1739401084.4887116,-0.7074446115743228,0.6757346197595102,1.4189298252074138,-1.8793823219642891,-0.7095953327492952,1.9488057725848529,0.1863177735535233,0.00011857900448743396,0.0005476799707593283,-0.0003740479216873862,0.00016267597619476165,0.0008521826086119348,0.00013090173738647648,0.0008102860262931373,0.2411382496356964,-23.63736343383789,19.577133178710938,17.92273712158203,0.8897806406021118,2.3668715953826904,-0.13361968100070953,0,0,0,0.000,0,0
1739401084.4987402,-0.7074465977409784,0.6757301098323296,1.4189298630360656,-1.879382242165732,-0.7096000246476418,1.948806530245596,0.1863162581533629,0.0011350274736310168,-0.0012532146107067182,0.0009553463862933074,-0.00018622159609475212,-0.0009368367191307067,-5.4333681938285886e-05,0.0003906702954178758,0.2689092457294464,-23.61355972290039,19.577133178710938,17.92273712158203,0.8897806406021118,2.3604629039764404,-0.12080229818820953,0,0,0,0.000,0,0
1739401084.5087621,-0.7074465183749168,0.6757319263072065,1.4189298246629796,-1.8793823219642891,-0.7095942887815451,1.9488065307301128,0.186313119761925,0.0007732464856456805,-0.0008069541718612783,1.9608713316899477e-05,-0.00047647201302461223,0.0009724688878439572,-8.970850489740908e-05,-0.0002912285533014463,0.2689092457294464,-23.63736343383789,19.577133178710938,17.92273712158203,0.8769632577896118,2.3604629039764404,-0.09425200521945953,0,0,0,0.000,0,0
1739401084.5207114,-0.7074446116090338,0.6757338087982683,1.4189316074847051,-1.8793839897395128,-0.7095963433950048,1.9488065301917636,0.18631311992393804,0.000990249772275055,0.00010795912708164656,0.0004537816542540231,-0.000568053949547233,-0.0006914133917425339,0.00047855023563326177,-0.0007843607580076636,0.2411382496356964,-23.66513442993164,19.553329467773438,17.94654083251953,0.8705545663833618,2.3604629039764404,-0.09425200521945953,0,0,0,0.000,0,0
1739401084.5316672,-0.7074466065712962,0.6757339292992492,1.4189298336016658,-1.8793822120770258,-0.7095939553604561,1.9488065287920455,0.18631221486330526,-0.00012414481376919452,-1.9848796880836543e-05,-0.00027872416517589927,0.0012351526617733768,0.0005093512290126274,3.554770064835904e-05,-0.00167820327449422,0.2689092457294464,-23.63736343383789,19.577133178710938,17.92273712158203,0.8769632577896118,2.3604629039764404,-0.09425200521945953,0,0,0,0.000,0,0
1739401084.541711,-0.7074466095146856,0.6757332534056784,1.4189316074485165,-1.8793823215277146,-0.709595864367335,1.9488050149254146,0.18631225336334545,0.0007712620585132099,0.0009445620604407478,0.0002496418927057185,0.0006450230237187032,0.0005598154924379352,-0.00024177006958014922,-0.001730063751400606,0.2689092457294464,-23.61355972290039,19.553329467773438,17.92273712158203,0.9035135507583618,2.3732802867889404,-0.08692778646945953,0,0,0,0.000,0,0
1739401084.5517402,-0.7074466109057023,0.6757319263604432,1.4189323256475437,-1.8793832834231021,-0.7095956675315345,1.948805615602091,0.186310783774215,0.00014625779605875928,-0.00025077014858223537,0.00010079227298124692,-0.00016235838438578832,0.0001454336674087767,-0.0010794309707429044,-0.001195978123279275,0.2689092457294464,-23.63736343383789,19.553329467773438,17.94654083251953,0.8897806406021118,2.3668715953826904,-0.08051909506320953,0,0,0,0.000,0,0
1739401084.5627513,-0.7074487152184765,0.6757329076973624,1.4189316074524212,-1.8793805392839857,-0.7095985492958167,1.9488080455648664,0.18631498890853138,-0.0009310751730315407,0.0001962781021279327,-0.0016336383455960437,0.0003128101393503649,-0.0015816211739548528,0.0005198405300515566,0.0012114234096425023,0.2689092457294464,-23.61355972290039,19.553329467773438,17.89893341064453,0.8897806406021118,2.3476455211639404,-0.10706938803195953,0,0,0,0.000,0,0
1739401084.5736802,-0.7074454611670674,0.6757348802371007,1.418935708006772,-1.879381216147611,-0.7095938158855182,1.9488115264581913,0.18631350843204775,0.0002679407182408499,0.00044032242630578553,-0.0005232411871942903,0.0003344450217528025,0.0007108523571192924,0.0015913643570573412,-0.0004332806417246439,0.2927129566669464,-23.63736343383789,19.501754760742188,17.94654083251953,0.8769632577896118,2.3540542125701904,-0.13361968100070953,0,0,0,0.000,0,0
1739401084.5847013,-0.7074501127531644,0.6757290363191896,1.4189355359302809,-1.879383147027452,-0.7095960713511489,1.948807287929601,0.18631323735731767,-0.0016246285457344812,-0.0002496064468731008,-0.0003754840033585711,9.908740420355461e-05,-6.275889462117369e-05,-7.239074067274823e-05,-0.0008851988082839273,0.3165166676044464,-23.58578872680664,19.529525756835938,17.94654083251953,0.8961893320083618,2.3540542125701904,-0.09425200521945953,0,0,0,0.000,0,0
1739401084.5956335,-0.7074483480362881,0.6757311122491393,1.418935546188579,-1.8793823219602348,-0.7095961105969066,1.9488080455657528,0.18631884765034012,-0.0005628942811034895,0.00013783493144005194,-0.0006300046807839475,0.0008232849042233991,-0.0006151332984229846,0.0004245127538775229,0.002479629461984896,0.2927129566669464,-23.61355972290039,19.529525756835938,17.92273712158203,0.8961893320083618,2.3476455211639404,-0.13361968100070953,0,0,0,0.000,0,0
1739401084.6057427,-0.7074483190924677,0.6757308118121921,1.418936287923331,-1.8793801761984286,-0.709594557969625,1.9488072879056744,0.1863175013764638,-0.0006600966802559264,-0.00043567044853726466,0.0002995223796249044,0.0004649157143802892,0.001344505800813342,-0.00025533950327220266,0.0009421405674263955,0.2927129566669464,-23.61355972290039,19.529525756835938,17.92273712158203,0.8833719491958618,2.3540542125701904,-0.12721098959445953,0,0,0,0.000,0,0
1739401084.6167028,-0.7074446115738658,0.6757308016699559,1.4189358147500568,-1.8793823219535277,-0.7095977349452923,1.9488065302455961,0.1863162757072171,0.0012799765250516902,-0.0010501929606803635,0.00022918568230618323,-0.00038110361867370725,0.0007602031454016656,-0.0002423983032122136,0.0010772619225381517,0.2411382496356964,-23.61355972290039,19.501754760742188,17.92273712158203,0.8833719491958618,2.3604629039764404,-0.12080229818820953,0,0,0,0.000,0,0
1739401084.6267254,-0.7074460222986054,0.6757294413795504,1.41893400384982,-1.8793823131353227,-0.7095960865864099,1.9488050149254394,0.1863140387845473,0.00022298536292766517,-0.0007574036343829997,5.693951966561012e-05,-0.00011136544003654212,0.0011218762127034336,-8.325976526908922e-05,-8.1413748674778e-05,0.2689092457294464,-23.56198501586914,19.553329467773438,17.92273712158203,0.8961893320083618,2.3732802867889404,-0.10066069662570953,0,0,0,0.000,0,0
1739401084.6387367,-0.707450034552883,0.6757329853940952,1.4189323583659519,-1.8793785181929736,-0.7095992657491172,1.9488050149254394,0.18631808070797548,-0.0013374832466978915,0.0009627054256685102,0.0006466943985096346,0.0012253896851744965,-0.0010576765534740602,-0.00021689632227725995,0.0017159277591254245,0.3165166676044464,-23.61355972290039,19.553329467773438,17.87512969970703,0.8833719491958618,2.3732802867889404,-0.12721098959445953,0,0,0,0.000,0,0
1739401084.6487453,-0.7074454610125175,0.675735755266734,1.4189298247755868,-1.8793822944921952,-0.7095972905414138,1.9488014162954304,0.18631275223407323,0.00020497725634639698,5.6189804172433505e-05,-3.8225321609396484e-05,-0.0005405136038690687,0.00027957718501129744,-0.0014825442575379208,-0.000375174676408531,0.2927129566669464,-23.68893814086914,19.577133178710938,17.92273712158203,0.9035135507583618,2.3668715953826904,-0.12721098959445953,0,0,0,0.000,0,0
1739401084.659669,-0.7074466094662838,0.6757338868027198,1.4189333783516291,-1.8793841046421944,-0.7095988512778534,1.9488065301718218,0.1863170157412358,0.0007762963511334809,-0.0009894309843923657,0.00035630625061236135,-0.0014694962016341755,0.00019561016167012486,0.0006694959218244364,0.00044831029698553626,0.2689092457294464,-23.66513442993164,19.529525756835938,17.94654083251953,0.8833719491958618,2.3604629039764404,-0.12721098959445953,0,0,0,0.000,0,0
1739401084.6706312,-0.7074446115738822,0.6757359931509714,1.4189324276206854,-1.8793860910280873,-0.7095961111056701,1.9488065302455957,0.18631312559429494,0.0006735027825295424,0.0008613113154199692,-0.0009919574599366312,-0.0014593976003919624,0.0014556153749051479,0.0006839499211925401,-7.75117872490517e-06,0.2411382496356964,-23.66513442993164,19.529525756835938,17.94654083251953,0.8961893320083618,2.3604629039764404,-0.09425200521945953,0,0,0,0.000,0,0
1739401084.6807384,-0.7074446115738825,0.6757321343223816,1.418933416610906,-1.8793805128088816,-0.7095950420014167,1.9488065301917608,0.18631225532282086,0.0007055162746827243,7.125898568244754e-05,-7.099038717822286e-05,0.0008123359774046344,-0.0005601126595538682,-0.00013575830443773672,-0.00104235729841557,0.2411382496356964,-23.63736343383789,19.529525756835938,17.89893341064453,0.8833719491958618,2.3604629039764404,-0.08692778646945953,0,0,0,0.000,0,0
1739401084.6916978,-0.707450419235931,0.6757346272229274,1.418929833638154,-1.8793823219654913,-0.7095977079930562,1.9488057725855172,0.18631706578447893,-0.0007086887248146626,0.0008618032441356544,-0.00029087737154194395,-0.0005796933651684461,-0.0012377269591991181,-0.0006381993466127924,0.0010731137460102994,0.2927129566669464,-23.66513442993164,19.577133178710938,17.92273712158203,0.9099222421646118,2.3668715953826904,-0.10066069662570953,0,0,0,0.000,0,0
1739401084.7026975,-0.7074466124155053,0.6757310372789302,1.4189354705693893,-1.8793805392886214,-0.7095956682122462,1.948806530245596,0.18631732306498464,0.00036397327821976566,-0.0013972224970926904,0.0006309946804874463,0.0003645899582814222,0.0006151619611106676,0.00047674188347238816,0.0013223179646116193,0.2689092457294464,-23.61355972290039,19.501754760742188,17.89893341064453,0.8833719491958618,2.3604629039764404,-0.12080229818820953,0,0,0,0.000,0,0
1739401084.713677,-0.7074466095147518,0.6757318367554465,1.4189358005615875,-1.8793879415633887,-0.7095960728108786,1.948806530245596,0.18631627516893912,-2.0029175427947906e-05,-0.0002596328615232673,0.0017117961452311674,-0.0008547044421143655,0.0004034834934632746,-0.00011033936171755767,0.0007118793463773266,0.2689092457294464,-23.63736343383789,19.501754760742188,17.99811553955078,0.8961893320083618,2.3604629039764404,-0.12080229818820953,0,0,0,0.000,0,0
1739401084.724666,-0.7074483220711325,0.6757323172849348,1.4189343438015691,-1.8793840251696559,-0.7095945691128538,1.9488057725855175,0.18631605186214487,-0.001485275065798874,0.0005153904226221699,-0.001065390977793014,-0.0017433082594995432,0.0007528539619653208,-0.0003670338724340903,0.0011361747339496458,0.2927129566669464,-23.61355972290039,19.529525756835938,17.94654083251953,0.8833719491958618,2.3668715953826904,-0.10706938803195953,0,0,0,0.000,0,0
1739401084.734697,-0.707444611573883,0.6757310429470885,1.4189337532317297,-1.8793823218552785,-0.7095939350047596,1.9488080460502695,0.18631681003215952,0.001436441423929399,-0.0003272727925927268,-0.0017536134819819212,-0.00030599609811707426,-0.0002976802232720423,0.0008587641796347055,0.0007573212664594445,0.2411382496356964,-23.61355972290039,19.553329467773438,17.92273712158203,0.8769632577896118,2.3476455211639404,-0.11347807943820953,0,0,0,0.000,0,0
1739401084.7447157,-0.7074466095147355,0.6757263919563494,1.4189356507230677,-1.8793813594610045,-0.7095967325198312,1.9488065302456041,0.18631629770788194,0.0004138562458128062,-0.001834599536156323,-0.00023266355329130302,0.0005348242981061083,-0.0016167074116324224,-0.0002456629840477658,0.0007487315972851797,0.2689092457294464,-23.56198501586914,19.529525756835938,17.92273712158203,0.8897806406021118,2.3604629039764404,-0.12080229818820953,0,0,0,0.000,0,0
1739401084.7557478,-0.7074487155455175,0.6757322302958859,1.418935827537702,-1.8793802214967281,-0.7095960844410115,1.9488072879056744,0.1863170334186129,-0.0006469874682021023,-0.0010721095536795461,0.00020850472185176546,0.0014299128647156359,-0.0007726161757821435,8.449922270188163e-05,0.000721425543510533,0.2689092457294464,-23.61355972290039,19.501754760742188,17.89893341064453,0.8961893320083618,2.3540542125701904,-0.12721098959445953,0,0,0,0.000,0,0
1739401084.7667568,-0.7074466065831848,0.6757332951818203,1.4189358832204482,-1.879384104604527,-0.7095967286414573,1.9488059296227793,0.18631717328753905,0.00033151989997705545,0.0012306665597318278,2.979127178089839e-05,-0.0007229136035188334,-1.1344280977072004e-05,-7.552693411660093e-05,0.0005553522946749382,0.2689092457294464,-23.63736343383789,19.529525756835938,17.94654083251953,0.8897806406021118,2.3668715953826904,-0.12721098959445953,0,0,0,0.000,0,0
1739401084.7777653,-0.70744832203545,0.6757264264375745,1.4189330912828704,-1.8793823984950608,-0.7095957851337555,1.9488065302464825,0.186310738059394,-0.0005340529398174351,-0.002262955523767237,-0.0005530643681818821,-0.0005009939386693231,-0.0008513733808217796,5.5158099981893305e-05,-0.0017462234753755192,0.2927129566669464,-23.56198501586914,19.553329467773438,17.92273712158203,0.8897806406021118,2.3604629039764404,-0.07411040365695953,0,0,0,0.000,0,0
1739401084.7886791,-0.7074446115738825,0.6757321227545441,1.41893273878458,-1.8793823101923155,-0.7095960728072616,1.9488065302455961,0.1863166641087481,0.0007859267831737363,0.000942222155450783,-0.0005909369825758519,0.0001231142715248829,0.00016633087416254206,8.64162342678759e-05,-9.973049861974317e-05,0.2411382496356964,-23.63736343383789,19.577133178710938,17.92273712158203,0.8961893320083618,2.3604629039764404,-0.08692778646945953,0,0,0,0.000,0,0
1739401084.7986882,-0.7074483220354667,0.67573042275758,1.4189298251477458,-1.879382295474488,-0.7095964441059599,1.9488064909997393,0.18631087422184295,8.822555652901684e-05,-0.000348863085929096,-0.0017338579725529927,0.0003026716702253232,-0.0003445955789054097,0.0003384378808062408,-0.0004071298088766961,0.2927129566669464,-23.61355972290039,19.577133178710938,17.92273712158203,0.8961893320083618,2.3604629039764404,-0.07411040365695953,0,0,0,0.000,0,0
1739401084.809634,-0.7074500080652447,0.6757339207769509,1.4189316340483387,-1.8793805304581543,-0.7095974847423453,1.9488050149252178,0.18631387742277197,-0.00021056061247570778,-0.00017000362955451906,-1.1997479519065433e-05,0.0016920911467043784,-0.0011719216356145196,-0.0002580554854776275,-0.0005509115559551973,0.3165166676044464,-23.63736343383789,19.553329467773438,17.89893341064453,0.8961893320083618,2.3732802867889404,-0.10066069662570953,0,0,0,0.000,0,0
1739401084.8196912,-0.7074483219260018,0.6757318892146288,1.4189298246627822,-1.879380509187869,-0.7095944535855117,1.948806530245596,0.1863109020129246,0.001593704311766608,0.0001379866997914369,-0.0009534661193532245,0.0006671284016870687,0.0005534302062254638,0.00023691400942244673,-0.0006738701814137309,0.2927129566669464,-23.63736343383789,19.577133178710938,17.89893341064453,0.8705545663833618,2.3604629039764404,-0.07411040365695953,0,0,0,0.000,0,0
1739401084.8307402,-0.7074466134736391,0.6757301333255263,1.4189312443581725,-1.8793805265332084,-0.709597503283475,1.9488036020746002,0.18631083170028145,0.0005285155319380056,-0.002069319797711823,-9.335457986716657e-05,0.0008082211253378492,-0.0013653801732714755,-0.0007952952622257631,-0.0030852719035558435,0.2689092457294464,-23.61355972290039,19.529525756835938,17.89893341064453,0.8961893320083618,2.3732802867889404,-0.08692778646945953,0,0,0,0.000,0,0
1739401084.8427036,-0.7074483220233612,0.6757349582343358,1.4189300543555716,-1.8793823219535037,-0.7095962414370682,1.948805772582859,0.1863115088387416,-0.0005668780555376084,0.0009263350681603684,-0.0006197480433706706,0.00034719213503949485,-0.0011563896902322369,-0.00010500174917221243,-0.00259327979547601,0.2927129566669464,-23.63736343383789,19.577133178710938,17.92273712158203,0.8961893320083618,2.3668715953826904,-0.08051909506320953,0,0,0,0.000,0,0
1739401084.8537035,-0.7074446375742625,0.6757347344609728,1.4189333902348344,-1.879385077024777,-0.7095949659323828,1.9488072879056741,0.18631149571860808,0.0011671352691708578,0.00046838281746161407,0.00018840795930314628,-0.0007819394849395805,-0.0008506987913549073,0.0003656023399592986,-0.0005041226807573095,0.2411382496356964,-23.63736343383789,19.529525756835938,17.92273712158203,0.8833719491958618,2.3540542125701904,-0.08051909506320953,0,0,0,0.000,0,0
1739401084.8646393,-0.7074466095148823,0.6757339432610876,1.4189334785375805,-1.879381950165661,-0.7095985055261015,1.948806524431395,0.18631843307943788,-0.00012465499463573638,0.0011130435665598869,0.00025805758651265584,0.0017469280652072446,-0.0014626059107888582,-5.536058244511263e-05,0.002548214693600305,0.2689092457294464,-23.63736343383789,19.529525756835938,17.94654083251953,0.8897806406021118,2.3604629039764404,-0.12721098959445953,0,0,0,0.000,0,0
1739401084.8747072,-0.7074446116808799,0.6757322085758286,1.418935470025755,-1.879382322135074,-0.7095962256548852,1.9488065302454975,0.18631389056883818,-0.0004442356216311199,0.00021586726911097194,0.000673967046389417,0.0013057526678345757,0.00022988228712475474,0.0005035892336764491,-0.0012299400329947056,0.2411382496356964,-23.61355972290039,19.501754760742188,17.92273712158203,0.8705545663833618,2.3604629039764404,-0.10066069662570953,0,0,0,0.000,0,0
1739401084.8867009,-0.707444611573883,0.6757301272372559,1.4189373007344546,-1.8793823206574465,-0.7095963752851471,1.9488050149254392,0.18631629752193846,0.0003686548132113651,-0.001239009300411588,-0.0001448730357747553,-0.0010371711571383075,0.001111157548726309,-0.0004258939076903427,0.0009529951502759476,0.2411382496356964,-23.61355972290039,19.501754760742188,17.92273712158203,0.8897806406021118,2.3732802867889404,-0.12080229818820953,0,0,0,0.000,0,0
1739401084.8976712,-0.7074466181815288,0.675731037167476,1.418931951841094,-1.879382312154169,-0.7095956302105179,1.948806530245596,0.18631777347374046,-0.0006558280509033062,-0.0001813749965990694,-0.000747511460782263,0.00011787377024118735,0.0006176114240561451,0.0001863055630070391,0.001259076650599932,0.2689092457294464,-23.61355972290039,19.553329467773438,17.92273712158203,0.8833719491958618,2.3604629039764404,-0.13361968100070953,0,0,0,0.000,0,0
1739401084.9077456,-0.7074466093694294,0.6757339519166768,1.418931607450311,-1.8793779592544468,-0.7095946786196945,1.9488057725855175,0.18631073805850507,0.0007173118011447402,0.0014226826753297036,-0.0006995916256492144,0.0011905182845140733,0.0009494298013375645,-1.7560864937979544e-05,-0.0019761811339821336,0.2689092457294464,-23.63736343383789,19.553329467773438,17.87512969970703,0.8833719491958618,2.3668715953826904,-0.07411040365695953,0,0,0,0.000,0,0
1739401084.9186656,-0.7074511300765086,0.675730447837452,1.418931607448367,-1.8793819922959436,-0.7095938004710796,1.9488072879056741,0.1863173725319807,-0.0011451738334419003,-0.0003067364849312626,-0.000314449386854706,-8.041110623894941e-05,0.0012047667369719654,0.00012141669281989109,0.00018109488233402184,0.2927129566669464,-23.61355972290039,19.553329467773438,17.92273712158203,0.8769632577896118,2.3540542125701904,-0.09425200521945953,0,0,0,0.000,0,0
1739401084.9296358,-0.7074483255761775,0.6757310342803546,1.4189334695982458,-1.8793822423819035,-0.7095999059407274,1.948806530245596,0.18630988579414662,4.318262842393773e-05,0.0011057686756646987,-0.0014315371185866573,-0.00038155575608710054,1.4778068284281292e-05,0.0005228123607468366,-0.002162942456159939,0.2927129566669464,-23.61355972290039,19.529525756835938,17.92273712158203,0.8897806406021118,2.3604629039764404,-0.06678618490695953,0,0,0,0.000,0,0
1739401084.9396646,-0.707443913496022,0.6757281869719668,1.4189333940513178,-1.8793823180397071,-0.7095962783294214,1.948805117394757,0.1863171114716,0.000171414024345413,-0.0003799512908134444,6.747268104172595e-05,-0.0004856276075588284,-3.8333496454819624e-05,-0.00031279941703165373,0.00040472378091940613,0.2173345386981964,-23.58578872680664,19.529525756835938,17.92273712158203,0.8705545663833618,2.3604629039764404,-0.10066069662570953,0,0,0,0.000,0,0
1739401084.9497302,-0.7074467437292217,0.6757308693755671,1.4189325699530677,-1.8793819588753813,-0.7095960715673849,1.9488065302216693,0.18631442444164076,0.000322054434004575,-0.00029265391543324866,-0.0008089871393135402,-0.0008282413033378557,0.002555604870641852,0.0002698380721672454,-0.00033423719091103484,0.2411382496356964,-23.63736343383789,19.553329467773438,17.94654083251953,0.8961893320083618,2.3604629039764404,-0.09425200521945953,0,0,0,0.000,0,0
1739401084.9597633,-0.7074485677029361,0.6757318367023187,1.4189316997250303,-1.8793861048506393,-0.7095957076030993,1.9488057711319662,0.18631463466236012,0.0005738761019316624,-0.00048374988878693165,0.00018642736328611367,-0.0007181750663186173,0.00020001426453778755,-0.00017446301764790812,-0.0007312122727298308,0.2927129566669464,-23.63736343383789,19.553329467773438,17.97431182861328,0.8897806406021118,2.3668715953826904,-0.10706938803195953,0,0,0,0.000,0,0
1739401084.9706903,-0.7074466095151978,0.6757345107128168,1.4189316074485407,-1.8793762916562713,-0.7095984971820924,1.9488057725855148,0.18631539225612928,0.00028751074407409134,1.5329812678351767e-05,-0.000774700058651311,0.0011552541180379198,0.0005703264293609744,-0.00017091748727580687,-0.000371354091321639,0.2689092457294464,-23.66513442993164,19.553329467773438,17.87512969970703,0.8897806406021118,2.3668715953826904,-0.11347807943820953,0,0,0,0.000,0,0
1739401084.9816694,-0.7074453135841431,0.6757366428509276,1.4189297982803946,-1.879380512755924,-0.7095960757656135,1.9488072486598176,0.18631826096247434,3.267074068320135e-05,-0.00036769087887469605,-0.0005149698961797974,0.0009839171173160798,0.0008307810197284059,3.90603656417352e-05,0.0023086038829439252,0.2411382496356964,-23.66513442993164,19.577133178710938,17.89893341064453,0.8961893320083618,2.3540542125701904,-0.13361968100070953,0,0,0,0.000,0,0
1739401084.9916906,-0.7074487184384115,0.6757320486210928,1.4189284030900415,-1.8793841040449393,-0.7095959732424081,1.948805772585296,0.1863162588041546,-0.0004208325815347583,-0.0010517362165352636,-0.0011181634968213373,-0.0004860000438340421,0.001226937560695851,0.00019471347067902926,-0.0001863993079540419,0.2689092457294464,-23.63736343383789,19.577133178710938,17.94654083251953,0.8833719491958618,2.3668715953826904,-0.12080229818820953,0,0,0,0.000,0,0
1739401085.0026526,-0.707448287047093,0.6757329882671315,1.4189336285359397,-1.879383392221342,-0.7096011762933168,1.9488050149254392,0.1863126091532575,-0.000563982354694885,9.184914999227113e-05,0.0005912804596300046,-4.5136928174634966e-05,-0.0002786650517708465,-0.00036319824410451754,-0.0009596694371524973,0.2927129566669464,-23.61355972290039,19.529525756835938,17.94654083251953,0.9035135507583618,2.3732802867889404,-0.08692778646945953,0,0,0,0.000,0,0
1739401085.012671,-0.7074465303622756,0.6757341218140964,1.4189333901294237,-1.8793801752052173,-0.7095993071871918,1.9488057725855175,0.18631149718270107,-4.8660302257730304e-05,0.00041743820481048336,0.00041593330353164963,0.0008363909175340622,4.479044935130699e-05,-0.00045571233824783506,-0.0005026512990575483,0.2689092457294464,-23.66513442993164,19.529525756835938,17.92273712158203,0.8961893320083618,2.3668715953826904,-0.08051909506320953,0,0,0,0.000,0,0
1739401085.0246503,-0.707449152645799,0.6757348789033736,1.4189298512623012,-1.8793812687540112,-0.7095938551313762,1.9488072879056741,0.1863140344099805,0.0001340989027861847,0.00036511245612905614,-8.843653201363237e-05,0.00023172024834004784,0.0008031899174132365,0.0003729619751690848,-0.0005366185330447891,0.2689092457294464,-23.63736343383789,19.577133178710938,17.94654083251953,0.8769632577896118,2.3540542125701904,-0.10066069662570953,0,0,0,0.000,0,0
1739401085.0347319,-0.7074446202550319,0.6757295121102709,1.4189333145772616,-1.8793813642417136,-0.7095939219229063,1.9488057725855175,0.18631463459693975,0.0007631494507518669,-0.0007503385457226522,0.00037851414275680333,0.0015000289608773998,0.0017434793526723193,-6.964139979083884e-05,-0.0014296929958018839,0.2411382496356964,-23.56198501586914,19.529525756835938,17.92273712158203,0.8769632577896118,2.3668715953826904,-0.10706938803195953,0,0,0,0.000,0,0
1739401085.0456297,-0.7074483258875218,0.675728598280653,1.4189316162774055,-1.8793792852582665,-0.7095975234498382,1.9488080455657526,0.18631625831537185,-0.00020757661096380841,-0.001196724321676952,-0.0008035476963879817,0.00043146616551143456,-0.00012460580301927875,0.0007854324478492748,-0.0009740867499848608,0.2927129566669464,-23.56198501586914,19.553329467773438,17.89893341064453,0.8961893320083618,2.3476455211639404,-0.12080229818820953,0,0,0,0.000,0,0
1739401085.0557346,-0.7074466355151372,0.6757312551204335,1.4189344245808073,-1.8793805303422084,-0.7095980512143198,1.9488072486598176,0.18631226849962285,-0.0004390575946598996,0.0006278544100999971,0.0013331720860514356,0.0002289059820319904,-0.0003414423747089808,-9.86218626300593e-05,-0.000787864903331342,0.2689092457294464,-23.58578872680664,19.529525756835938,17.89893341064453,0.9035135507583618,2.3540542125701904,-0.08692778646945953,0,0,0,0.000,0,0
1739401085.0667524,-0.7074468444812795,0.6757319190846585,1.41893546995742,-1.8793801761983782,-0.7095969503365229,1.9488072879054528,0.18631003254700065,0.0001286993632538128,0.00022963883931229143,0.0009252773157134587,-4.614026299220466e-05,0.0006519138896806339,0.0004745456990110213,-0.0010495236674115695,0.2689092457294464,-23.63736343383789,19.501754760742188,17.92273712158203,0.9035135507583618,2.3540542125701904,-0.06678618490695953,0,0,0,0.000,0,0
1739401085.077714,-0.707447349082427,0.675732552216131,1.4189313719732273,-1.879380459658294,-0.7095945560309672,1.9488065297610793,0.18632162833587676,-0.0005404826142659043,0.0007101811450807879,-0.0004034794272372022,0.0004920129656044893,0.0019400404327549001,0.00012021874731498074,0.001983002193786106,0.2689092457294464,-23.61355972290039,19.553329467773438,17.89893341064453,0.8833719491958618,2.3604629039764404,-0.15376128256320953,0,0,0,0.000,0,0
1739401085.0886347,-0.7074469215234707,0.6757329958764603,1.418933640316393,-1.8793840778242081,-0.7095987950679274,1.9488057725855148,0.18631467397286952,-7.329159941511863e-05,0.00061004104163767,-0.00039891801406244235,-0.0010651277678135113,-0.0012774549761278248,0.000125366736396961,0.0002872381401564862,0.2689092457294464,-23.61355972290039,19.529525756835938,17.94654083251953,0.8833719491958618,2.3668715953826904,-0.10706938803195953,0,0,0,0.000,0,0
1739401085.0986798,-0.7074466095200194,0.6757329961970059,1.4189365690440112,-1.8793823105063654,-0.7095946142446916,1.9488072879056741,0.18632086426852187,-0.0004255637230301712,0.00047484068901829297,0.0012142264181683256,0.00011200988611856034,-0.001505720432084113,0.0010015667961304473,0.0019061200707707485,0.2689092457294464,-23.61355972290039,19.529525756835938,17.92273712158203,0.8833719491958618,2.3540542125701904,-0.12080229818820953,0,0,0,0.000,0,0
1739401085.109682,-0.7074466055901498,0.6757310381466484,1.418931607793361,-1.8793861805078649,-0.709595194535846,1.948806530245596,0.18631458905922704,0.0002991102786669246,-0.000519306226401645,0.00012278370531082765,-0.0013429662270359791,0.0014661777611862476,-0.0003326829478111331,-0.0007892966143860085,0.2689092457294464,-23.61355972290039,19.553329467773438,17.97431182861328,0.8897806406021118,2.3604629039764404,-0.09425200521945953,0,0,0,0.000,0,0
1739401085.120657,-0.7074428990531291,0.6757406433760123,1.4189305665543792,-1.879381580218928,-0.7095956289118078,1.94880395528731,0.18631940162941746,0.0009642020105307331,0.0023855794544152,-0.0008917865124574269,0.0011720121117086502,0.0005448878675530463,-0.0012201960465825206,0.0019313831653727073,0.2173345386981964,-23.71670913696289,19.577133178710938,17.92273712158203,0.8833719491958618,2.3732802867889404,-0.14735259115695953,0,0,0,0.000,0,0
1739401085.1307368,-0.7074466109057023,0.6757301358380479,1.4189298248929263,-1.8793843853039922,-0.7095992548057637,1.948806530227651,0.18632097193291491,-0.000788766022194754,-0.0009983847138181593,-0.0004246544295299372,-0.0007397665746182849,-0.0011745908198175729,-0.00040723778046866633,0.002165004260090735,0.2689092457294464,-23.61355972290039,19.577133178710938,17.92273712158203,0.8961893320083618,2.3604629039764404,-0.14735259115695953,0,0,0,0.000,0,0
1739401085.1417203,-0.707447311525004,0.675734756688226,1.4189316104281458,-1.8793843239950394,-0.7095967242441952,1.9488041089912862,0.186315406035894,-0.0005500854285952085,-0.0001895701473701132,-8.211860806045588e-05,0.0011447289176807686,-0.0016482498369290671,-0.00012698649030000334,0.000948482878054964,0.2689092457294464,-23.66513442993164,19.553329467773438,17.94654083251953,0.8897806406021118,2.3540542125701904,-0.11347807943820953,0,0,0,0.000,0,0
1739401085.152659,-0.7074475439878326,0.6757342644313127,1.4189383309382413,-1.8793859460176507,-0.7095977370687419,1.9488057594497301,0.18631645520586101,0.00011962105305779577,0.0005883452774282519,0.0024230329972847586,-0.0005664920593318146,-0.00010820138672540931,-0.00042593379489570425,0.00014741606935970747,0.2689092457294464,-23.63736343383789,19.501754760742188,17.97431182861328,0.8833719491958618,2.3668715953826904,-0.11347807943820953,0,0,0,0.000,0,0
1739401085.1636455,-0.7074473512634832,0.6757321491873126,1.4189334699306781,-1.8793805266382482,-0.7095954328880775,1.9488065297610544,0.18631391630647254,-0.0005627623022448284,-9.736751778684091e-05,6.422922690142632e-05,-4.3691166193627544e-05,0.00040462757437227073,0.0002975321557861854,-0.0012355326191896905,0.2411382496356964,-23.63736343383789,19.529525756835938,17.89893341064453,0.8897806406021118,2.3604629039764404,-0.10066069662570953,0,0,0,0.000,0,0
1739401085.1736448,-0.7074466095611324,0.6757301881126228,1.4189298248817157,-1.879380512797454,-0.7095964421698869,1.9488065302455877,0.1863132388401533,0.00042561777688928065,-0.0013646512045464667,-0.0016531147489356325,-0.00015065999761321072,0.0002367995374798636,-0.00045981085240904727,-0.0012322344354444275,0.2689092457294464,-23.61355972290039,19.577133178710938,17.89893341064453,0.8961893320083618,2.3604629039764404,-0.09425200521945953,0,0,0,0.000,0,0
1739401085.1836658,-0.7074464490972973,0.6757312591753803,1.4189344802450752,-1.8793812436192618,-0.7095961107646921,1.948806530245596,0.18631586562410204,0.0003679541361487833,0.0003123259200454162,0.0004231237718600586,0.0003418921851930453,-0.00010763765228696942,-8.208031770680151e-05,-4.728955769244588e-05,0.2689092457294464,-23.58578872680664,19.553329467773438,17.94654083251953,0.8961893320083618,2.3604629039764404,-0.08051909506320953,0,0,0,0.000,0,0
1739401085.1936986,-0.707450662061519,0.6757311466660328,1.4189375706296528,-1.8793823218202856,-0.7095988458200719,1.9488057725855175,0.18631549542653555,-0.001185545072635475,0.00011531895509469604,0.0015598737656065413,-0.0003713409875028339,-0.0007085149083566616,-0.0006731692550475107,-0.00036167775936165973,0.2927129566669464,-23.58578872680664,19.477951049804688,17.92273712158203,0.8897806406021118,2.3668715953826904,-0.08692778646945953,0,0,0,0.000,0,0
1739401085.2047012,-0.7074446154777482,0.6757359970557254,1.4189354700248562,-1.8793841007180738,-0.7095945565400015,1.948806647983166,0.18631475272565226,0.0021337677391471727,0.0015783600451417135,0.0008502182100893833,-0.001564671807859791,0.0010196172979924341,-0.00047898294773012927,0.00086397077647674,0.2411382496356964,-23.66513442993164,19.501754760742188,17.94654083251953,0.8833719491958618,2.3604629039764404,-0.10706938803195953,0,0,0,0.000,0,0
1739401085.2157245,-0.707446718888656,0.6757339284556229,1.4189334180335516,-1.8793837867511989,-0.7095938159749263,1.9488065303000959,0.18631625815402839,0.0010145102045252515,0.0010672411944807024,0.0001906973855173454,-0.0007112732309332947,0.002470636126440451,0.00024069654750759453,-0.0003672207783307999,0.2411382496356964,-23.63736343383789,19.529525756835938,17.94654083251953,0.8769632577896118,2.3604629039764404,-0.12080229818820953,0,0,0,0.000,0,0
