IITGN-Robotics/Franka_IITGN_ROBOTICS/franka_ros/franka_iitgn/data/b_17.csv
time,fr3_joint1_pos,fr3_joint2_pos,fr3_joint3_pos,fr3_joint4_pos,fr3_joint5_pos,fr3_joint6_pos,fr3_joint7_pos,fr3_joint1_vel,fr3_joint2_vel,fr3_joint3_vel,fr3_joint4_vel,fr3_joint5_vel,fr3_joint6_vel,fr3_joint7_vel,fr3_joint1_eff,fr3_joint2_eff,fr3_joint3_eff,fr3_joint4_eff,fr3_joint5_eff,fr3_joint6_eff,fr3_joint7_eff,flexpin1,flexpin2,flexpin3,Force,ContactMic,ContactMic_gt
1739401204.5739415,-0.7073712728828558,0.6753064874192607,1.4187966413161464,-1.8794156233011707,-0.709297432212189,1.9490039834760238,0.18611190188745805,-0.00018736971620405868,-0.0003686105934323274,-0.00230756878694399,-0.0008017264546507986,0.000698501828102411,-0.0001615550175161338,-4.944889986363847e-05,0.1697271168231964,-23.45883560180664,19.450180053710938,17.99811553955078,0.8961893320083618,2.3540542125701904,-0.09425200521945953,,,,,,,,,
1739401204.583987,-0.7073735796232489,0.6753181728086254,1.4187787173373212,-1.8794170432878692,-0.7092988820770644,1.9489982188679882,0.18612052932332354,3.0661423844984253e-06,0.0005718094701366133,-0.0028087964378007355,-0.0005123153220484675,-0.0008247847277633557,0.00022465443792511996,0.0004477599890545329,0.2173345386981964,-23.48660659790039,19.477951049804688,18.04572296142578,0.8961893320083618,2.3604629039764404,-0.10066069662570953,,,,,,,,,
1739401204.594972,-0.7073732999819629,0.6753321810519042,1.4187692882181453,-1.8794166611725374,-0.709296609611962,1.9489942083139487,0.1861193199059297,-0.00022319590773713308,0.0012673112449467913,0.0002559825008394409,-0.00013711685601443317,0.001241371449133108,0.00016225510280182926,0.0015509530068425455,0.1935308277606964,-23.56198501586914,19.477951049804688,17.99811553955078,0.8769632577896118,2.3540542125701904,-0.11347807943820953,,,,,,,,,
1739401204.6069348,-0.7073796226296337,0.6753454523660145,1.4187598721633925,-1.8794067340197596,-0.7092992358049097,1.9489926464158953,0.1861243898321738,-0.0012478893685526284,0.0015580329662166004,-0.0010729621414044704,0.0016989652557878,0.000280499790467646,0.00073644630524766,0.00041835806475057726,0.2411382496356964,-23.61355972290039,19.501754760742188,17.87512969970703,0.8961893320083618,2.3403213024139404,-0.12080229818820953,,,,,,,,,
1739401204.6169488,-0.7073813125814492,0.6753548642704285,1.418748977510557,-1.8794021920121342,-0.70929906730501,1.948989610276814,0.18612363972394666,-0.0008364716006370617,0.002137597827296128,-0.001221556981247732,0.0011045200227669534,0.001402591383605242,-0.0007347146006421108,0.0008116328879044818,0.2927129566669464,-23.68893814086914,19.553329467773438,17.84735870361328,0.8897806406021118,2.3540542125701904,-0.11347807943820953,,,,,,,,,
1739401204.627005,-0.7073880429937914,0.6753595705109956,1.418738482193506,-1.8794063015771418,-0.7093009835114804,1.94899303978463,0.1861246689431867,-0.0012382805095179986,0.0013354367488038138,-0.00029411421179388267,0.000933421590765777,0.00186871094367737,0.0003451685460284528,0.00017865029360903957,0.3442876636981964,-23.66513442993164,19.577133178710938,17.89893341064453,0.8769632577896118,2.3604629039764404,-0.12080229818820953,,,,,,,,,
1739401204.6380062,-0.7073881363173249,0.6753690699277437,1.4187236272625656,-1.8794139469529239,-0.709300669762893,1.948986409084394,0.18612364416878732,0.0007018052675173885,0.0001810058485164378,-0.0004194551765904664,-0.0011385848255376304,0.0009098995363378524,-0.00024580533865160994,0.0004966078117293027,0.3442876636981964,-23.68893814086914,19.656478881835938,17.97431182861328,0.8833719491958618,2.3796889781951904,-0.11347807943820953,,,,,,,,,
1739401204.6480308,-0.707390823799335,0.6753789918569297,1.418712220861875,-1.8794118411448937,-0.7093021351342838,1.9489865115291123,0.18612526815722924,0.000608869186904471,0.0010780209314611682,-0.00045453920065202755,0.0014514319035566624,-0.0006961092438956347,-0.0007029576878859541,0.0004164239793489871,0.3680913746356964,-23.76828384399414,19.680282592773438,17.94654083251953,0.8833719491958618,2.3668715953826904,-0.12721098959445953,,,,,,,,,
1739401204.6582868,-0.7073912956480295,0.6753794947435955,1.4187127007610072,-1.8794128249072597,-0.7093013721693373,1.9489885642785327,0.1861274879601626,0.00038404397289245446,0.0012251658439822615,0.0017765663272701318,0.0006075927334237058,0.0008223389616645897,-0.0003553819912249609,0.002701825804142587,0.3442876636981964,-23.71670913696289,19.604904174804688,17.94654083251953,0.8769632577896118,2.3604629039764404,-0.13361968100070953,,,,,,,,,
1739401204.669006,-0.7073899995404315,0.6753782868168628,1.4187125092291133,-1.8794071483609303,-0.7093028540578142,1.948989137721392,0.18612584472395186,-0.0002779465858200478,6.233771863763137e-05,0.0008125113044163121,0.000648327858846208,-8.049211807535065e-05,0.000728431560672628,0.0003686312702401526,0.3165166676044464,-23.66513442993164,19.577133178710938,17.89893341064453,0.8897806406021118,2.3476455211639404,-0.10066069662570953,,,,,,,,,
1739401204.6790106,-0.7073882917129115,0.6753724615172778,1.4187163924254638,-1.8794127415772233,-0.7093021358044662,1.9489894377440957,0.1861287359693437,0.0003730624120179539,-0.0012129471368870163,0.0005250014182217842,-0.0012289098112401,0.0006730412014313421,0.001131237019383909,0.0005010210326452082,0.2689092457294464,-23.61355972290039,19.529525756835938,17.97431182861328,0.8833719491958618,2.3540542125701904,-0.10706938803195953,,,,,,,,,
1739401204.6899378,-0.7073879788898042,0.675376937924049,1.4187145366366276,-1.8794166935926144,-0.7093017824309165,1.9489854987111446,0.18612599548032152,-0.0002711883260112368,-0.0004039973554288605,-0.001001631119248511,-0.001653420843819364,0.00010010875617178538,0.0006065447169199737,-0.0004586238479006112,0.2689092457294464,-23.63736343383789,19.553329467773438,17.99811553955078,0.8833719491958618,2.3604629039764404,-0.09425200521945953,,,,,,,,,
1739401204.7000096,-0.7073921142380296,0.6753770409552388,1.4187199605609484,-1.8794128075903382,-0.7093036528839038,1.9489878849723645,0.18612062118107123,-0.0020840895375729453,0.001324119117315731,4.3473675927696446e-05,-4.915787521967178e-05,-0.00015903216761200276,0.0011007620076465574,-0.0024375359055751476,0.3165166676044464,-23.63736343383789,19.477951049804688,17.94654083251953,0.8961893320083618,2.3668715953826904,-0.04756011441349983,,,,,,,,,
1739401204.710022,-0.7073862241207299,0.675374889306516,1.4187231517090613,-1.8794149050408298,-0.709302488856346,1.948989434639377,0.18613247894355783,-0.00042643917041592446,0.000753092237058144,0.0006214554482220721,-0.00036272566017481645,0.0004434528307339365,0.0006279716175451225,0.0021508436845729664,0.2411382496356964,-23.63736343383789,19.477951049804688,17.97431182861328,0.8833719491958618,2.3540542125701904,-0.12080229818820953,,,,,,,,,
1739401204.7209978,-0.7073841084575405,0.6753694721989331,1.4187291638857475,-1.879410974765936,-0.7093028278959365,1.9489883800619499,0.18612226812354837,0.0005414099391354076,-0.0007233622232919393,0.0012758942578473998,0.0005740028697717962,-0.0001599417729615114,0.00134253951608722,-0.0019747639509687526,0.2411382496356964,-23.56198501586914,19.426376342773438,17.92273712158203,0.8897806406021118,2.3540542125701904,-0.06037749722599983,,,,,,,,,
1739401204.7310236,-0.7073878198728009,0.6753694750091299,1.4187270153205067,-1.879407119034308,-0.7093021356425175,1.9489901958886908,0.18613260763025885,-0.0006111189022398526,4.658493483568533e-05,-0.0011213104601924381,4.105794686711206e-05,0.0007535893596826011,0.0005945942836827246,0.001569907728415642,0.2927129566669464,-23.56198501586914,19.426376342773438,17.89893341064453,0.8833719491958618,2.3476455211639404,-0.12080229818820953,,,,,,,,,
1739401204.7410235,-0.7073841122735985,0.6753753312379738,1.4187295174255143,-1.8794109717861414,-0.709304517345531,1.9489862593321445,0.1861294119759358,0.0009778346547826748,0.001566739301321144,0.0008164167219883411,-0.0001294010690974152,-0.0006766538476838013,0.00017807479957014042,0.0008152848802513307,0.2173345386981964,-23.61355972290039,19.426376342773438,17.92273712158203,0.9035135507583618,2.3540542125701904,-0.12080229818820953,,,,,,,,,
1739401204.7520216,-0.7073858725217361,0.6753716205946957,1.4187259511757007,-1.8794110484596351,-0.7093026022332625,1.9489883286119543,0.18613123130597037,0.0008877655963702737,0.0006422060701655498,-0.0006839967695529546,-0.0009327318008291714,-0.000591132438384893,-0.00011542126959281483,0.0007626251789536416,0.2689092457294464,-23.56198501586914,19.450180053710938,17.92273712158203,0.8833719491958618,2.3604629039764404,-0.12721098959445953,,,,,,,,,
1739401204.7629833,-0.7073875974568081,0.6753769644312021,1.4187214626237112,-1.879414834398432,-0.7093028933045816,1.9489886757406467,0.18613005094616175,-0.0008493672294558863,0.0023985971014203575,-0.0010095503393091464,-0.0009118242503620729,-0.0010893142318285601,0.0006820314987869949,0.0009604461823083069,0.2927129566669464,-23.63736343383789,19.501754760742188,17.97431182861328,0.8897806406021118,2.3604629039764404,-0.12721098959445953,,,,,,,,,
1739401204.7739458,-0.7073875849025114,0.6753733334420295,1.4187157514151294,-1.879414905004192,-0.7093021358051309,1.9489866563621951,0.18612761975552355,0.0007730988092992499,-0.0012307785507371426,-0.0013635080559355921,-0.0015698913984369363,0.001638023814152291,-0.00046606832319904417,0.00011055878079908334,0.2927129566669464,-23.58578872680664,19.577133178710938,17.97431182861328,0.8833719491958618,2.3732802867889404,-0.13361968100070953,,,,,,,,,
1739401204.7840347,-0.7073869210637037,0.675376090229746,1.4187175870385411,-1.8794091850024588,-0.7093030507716551,1.948987905457869,0.1861285456980494,-0.0009722936035207816,0.0001982129144135217,0.00033237421816965744,0.000955438322585602,0.00021171837113784773,0.0013453194700651125,0.0012302408389063906,0.2689092457294464,-23.63736343383789,19.553329467773438,17.89893341064453,0.8897806406021118,2.3668715953826904,-0.11347807943820953,,,,,,,,,
1739401204.7959657,-0.7073879267969281,0.6753827513235587,1.4187154864688851,-1.879408796729801,-0.7093060635150316,1.9489853494036842,0.18613080860424164,-0.0009045258845993027,0.0019406460581914507,-0.0009084139484521745,0.0014065302441073758,-0.0007897746553897388,-0.0012555364403725173,0.0007618675558689446,0.2927129566669464,-23.71670913696289,19.577133178710938,17.92273712158203,0.8897806406021118,2.3796889781951904,-0.13361968100070953,,,,,,,,,
1739401204.8069408,-0.7073879084633686,0.6753858527291725,1.4187156983959128,-1.8794138090301713,-0.7093036902873842,1.9489879049972871,0.1861293327750056,0.00022086441710523206,0.0020385333740515115,0.001438688661126275,-0.0016794811109569756,0.00040146754435029273,0.0005548262030948435,0.0012790250082447296,0.2927129566669464,-23.71670913696289,19.577133178710938,17.99811553955078,0.8961893320083618,2.3668715953826904,-0.12080229818820953,,,,,,,,,
1739401204.8170657,-0.7073839528754657,0.6753770439565683,1.4187133792063318,-1.8794148755576865,-0.7093063746813253,1.9489893040350899,0.18612453084975297,0.00042061725747414755,-0.0002317072513590759,-2.0900611356417496e-05,-0.00031908112428975186,-0.0012872895710446862,-2.8383468200824643e-05,-0.0008699512140386414,0.2411382496356964,-23.63736343383789,19.604904174804688,17.97431182861328,0.8833719491958618,2.3540542125701904,-0.08051909506320953,,,,,,,,,
1739401204.827929,-0.7073876112242556,0.6753811879391765,1.418710904674682,-1.8794187624790646,-0.709302951469643,1.9489878657526585,0.18612942492100648,0.0005590109421359647,-0.0007407756472061495,-0.00034497196021181925,-0.0006571222976044412,0.00033206626084586813,0.0021527401581685965,0.0015668555058945682,0.2927129566669464,-23.66513442993164,19.628707885742188,17.99811553955078,0.8897806406021118,2.3668715953826904,-0.12080229818820953,,,,,,,,,
1739401204.8379626,-0.7073830979342518,0.6753770483010574,1.4187160758804582,-1.8794149142212198,-0.7093068902074651,1.9489840505434362,0.18612988856115933,0.0014563403073108217,-0.0020186450319573538,0.00016955500865063246,0.0007277362251031774,-0.0007708503235892792,0.0008489916205878043,0.0001329278225999311,0.2173345386981964,-23.63736343383789,19.529525756835938,17.97431182861328,0.8833719491958618,2.3604629039764404,-0.11347807943820953,,,,,,,,,
1739401204.848051,-0.7073860151546633,0.6753753317104545,1.4187181778714164,-1.8794128340814475,-0.709304319317014,1.9489878562209384,0.18612297164253214,-0.00020616449378293013,-0.00025995796724936654,-5.813698704690328e-05,0.0004123998845416471,-0.0006722846822309646,-0.0001970957267988952,-0.002546557879233433,0.2411382496356964,-23.61355972290039,19.501754760742188,17.94654083251953,0.8897806406021118,2.3540542125701904,-0.05396880581974983,,,,,,,,,
1739401204.8590207,-0.7073845765701988,0.6753774772959,1.4187181556321744,-1.8794117415339286,-0.7093078939388351,1.9489846757609905,0.18613005290303788,-0.0003811280133862252,0.00033408045883220677,0.00044874496675686906,0.0004660424104268,-0.0006589606576033474,-0.000652749388031789,0.00041325826812320485,0.2411382496356964,-23.61355972290039,19.501754760742188,17.92273712158203,0.8961893320083618,2.3540542125701904,-0.12721098959445953,,,,,,,,,
1739401204.870012,-0.7073879320061275,0.6753733427209747,1.41872136016526,-1.8794110569681481,-0.7093077109808789,1.9489872109829167,0.1861256439294628,-0.000783326858595203,-0.0007814679866364382,0.00016527610272841029,0.0002712774020134901,-0.0011422485271818453,0.0017581361119458276,-0.0016820091805047602,0.2927129566669464,-23.58578872680664,19.501754760742188,17.92273712158203,0.9035135507583618,2.3339126110076904,-0.08692778646945953,,,,,,,,,
1739401204.8809836,-0.7073880567365832,0.6753770471746028,1.41872451724229,-1.8794092330791152,-0.7093098728184092,1.9489854289894986,0.1861316745032578,-0.0002623953300149826,0.00045195280409547026,0.0006881363657421937,0.0002463879322328583,-0.00263777930000905,5.897496869764602e-05,0.0009633588441315322,0.2689092457294464,-23.63736343383789,19.450180053710938,17.89893341064453,0.9099222421646118,2.3476455211639404,-0.14094389975070953,,,,,,,,,
1739401204.8909976,-0.7073862220863637,0.6753753323645331,1.4187251530131104,-1.8794103351669351,-0.7093030117651685,1.948984671328526,0.18613116256621567,-8.017344777087983e-05,-9.503425352841606e-05,0.00022893492525530984,-9.35671844410794e-06,0.001099998460970704,-0.001476665105616511,0.0008679592710165685,0.2689092457294464,-23.61355972290039,19.450180053710938,17.92273712158203,0.8897806406021118,2.3540542125701904,-0.13361968100070953,,,,,,,,,
1739401204.9019315,-0.7073886804247261,0.6753745087627038,1.418730141107135,-1.8794092569496033,-0.7093082428911834,1.9489839311110506,0.18613092756699187,-0.0008859127428878078,-3.254235077663369e-05,0.0008996025513309708,-0.0005293780838047474,-0.00180368183180383,9.008405872920738e-05,0.002267217795179631,0.2689092457294464,-23.56198501586914,19.426376342773438,17.89893341064453,0.8961893320083618,2.3604629039764404,-0.13361968100070953,,,,,,,,,
1739401204.91203,-0.7073861844338241,0.6753701468685006,1.4187212230212,-1.8794089910627683,-0.7093037687791166,1.9489839529145996,0.18613167596590102,-0.00047020100990479303,-0.0009043736990653221,1.0903399133839844e-05,0.000284636165131502,0.0015879927754957333,-0.00012104596553512228,0.0005910575663656693,0.2689092457294464,-23.53818130493164,19.501754760742188,17.89893341064453,0.8961893320083618,2.3604629039764404,-0.14094389975070953,,,,,,,,,
1739401204.9231195,-0.707388923522717,0.6753726099186804,1.4187252364218388,-1.8794110510394675,-0.7093082618411681,1.9489861235869486,0.18613147262510582,-0.0002666429881238537,-0.0003993595153196298,0.0005378590577595182,-0.0011356335987108795,-0.002036381777702259,0.001159577719345006,0.0011192440410415392,0.2689092457294464,-23.56198501586914,19.450180053710938,17.92273712158203,0.8961893320083618,2.3540542125701904,-0.12721098959445953,,,,,,,,,
1739401204.9340408,-0.7073886076357262,0.6753733335682431,1.4187192902414192,-1.8794128075904823,-0.7093043120468293,1.9489878560817089,0.18612842741070623,-0.0009170263587102399,-0.0012375956273251135,-3.560808988596709e-05,-0.0010254420155893268,0.00019398559564719078,-0.0004286152850898309,-0.001182227321972421,0.2927129566669464,-23.58578872680664,19.529525756835938,17.94654083251953,0.8897806406021118,2.3540542125701904,-0.11347807943820953,,,,,,,,,
1739401204.9450164,-0.7073882244015502,0.6753753323765908,1.418717507527995,-1.879413522809837,-0.7093029064062705,1.9489885068932176,0.1861261558870871,-0.001148270091846582,-0.0006038398680306058,-0.00010666709633477009,-0.0009184674942861271,0.0006737328443996782,0.001256381705180645,-0.002018017198000518,0.2689092457294464,-23.61355972290039,19.553329467773438,17.94654083251953,0.8897806406021118,2.3604629039764404,-0.09425200521945953,,,,,,,,,
1739401204.9559991,-0.7073882869259784,0.6753756505829709,1.418714327668799,-1.8794128680984052,-0.7093018494184173,1.9489831606102894,0.1861296530920647,-0.0014305744919497544,-0.0020427406251380884,-0.00042111503275413795,-0.0003547686901938538,0.0007845568439657505,2.8642182608525036e-05,0.00023607192721731142,0.2927129566669464,-23.61355972290039,19.553329467773438,17.94654083251953,0.8769632577896118,2.3668715953826904,-0.12080229818820953,,,,,,,,,
1739401204.9660618,-0.7073861073599954,0.6753792691495396,1.4187150094687093,-1.8794128340820178,-0.7093058392976359,1.9489839151220756,0.18612572046492473,-0.0006231455777844203,-0.0006321849500757376,-0.00015929709554695108,0.001028789458881425,-0.00010379454096376443,-0.00039342611511955906,-0.0020731714797910528,0.2689092457294464,-23.63736343383789,19.577133178710938,17.94654083251953,0.8833719491958618,2.3604629039764404,-0.08051909506320953,,,,,,,,,
1739401204.976956,-0.7073862103879761,0.6753793983770136,1.4187145286907599,-1.879414939381104,-0.7093032465911558,1.9489839136684557,0.18612353852139768,0.0003187479957666576,-0.001016558221894922,-0.00029630366599740185,-0.0008874292468886515,-6.89676401721527e-05,-0.00031130856795290904,-0.0019314550488204745,0.2689092457294464,-23.66513442993164,19.553329467773438,17.97431182861328,0.8897806406021118,2.3604629039764404,-0.10706938803195953,,,,,,,,,
1739401204.987087,-0.707386916598041,0.675383971986848,1.4187146334089848,-1.8794128599066164,-0.7093060876538325,1.9489831952542258,0.1861302093260963,0.00026167174604072317,0.0015609804449048265,0.0010001229915417996,6.498852524494377e-05,-0.0014098534153302125,0.0006516205425436499,0.0008661713589125905,0.2411382496356964,-23.68893814086914,19.553329467773438,17.94654083251953,0.8769632577896118,2.3668715953826904,-0.12721098959445953,,,,,,,,,
1739401204.998058,-0.7073839871263429,0.6753822601686787,1.418714292876385,-1.8794110644744078,-0.7093046940427611,1.9489839195367051,0.18612361102201636,0.0014426406841976176,0.0002548841432807853,-0.0012112661591329,0.00019418527863651505,-0.0005392990215143223,-3.42815812395428e-05,-0.0016909641008538833,0.2411382496356964,-23.66513442993164,19.553329467773438,17.92273712158203,0.8769632577896118,2.3604629039764404,-0.06037749722599983,,,,,,,,,
1739401205.0100315,-0.7073896484111053,0.6753802856118192,1.4187196280487664,-1.8794110425378399,-0.7093068645458116,1.9489839136684806,0.1861297803495453,-0.001133068267440726,-0.0003297193730463851,0.0007487620008220291,0.0016131245421738142,-0.0004916272027886955,-1.4456270833700585e-05,0.0013204005161077735,0.3165166676044464,-23.63736343383789,19.477951049804688,17.92273712158203,0.8833719491958618,2.3604629039764404,-0.12080229818820953,,,,,,,,,
1739401205.0210304,-0.7073876206878033,0.6753802961074842,1.4187167871727453,-1.8794110517193419,-0.709303953453193,1.9489831560083692,0.18613192752066082,-0.000544743295074024,0.0007207520371497172,0.0001636090940420486,0.0005364283702130224,0.0005275198093484659,-0.0005893951492219652,0.002059221876909499,0.2927129566669464,-23.63736343383789,19.529525756835938,17.92273712158203,0.8897806406021118,2.3668715953826904,-0.13361968100070953,,,,,,,,,
1739401205.0320091,-0.7073859773464084,0.6753748395727542,1.4187142898987017,-1.8794111164750236,-0.7093036685738751,1.9489839136684477,0.18613507414135091,0.0007726285433456569,-0.0007537691429314764,-0.0009149001877480048,-8.561381012223173e-05,0.0006340764517839181,-0.0002091023278459516,0.0018138548299597354,0.2689092457294464,-23.56198501586914,19.553329467773438,17.92273712158203,0.8961893320083618,2.3604629039764404,-0.13361968100070953,,,,,,,,,
1739401205.04294,-0.7073859632588015,0.6753748396082306,1.4187142889135214,-1.87941105140479,-0.7093051163040349,1.9489845535909558,0.1861243289970094,0.0011371563860146,-0.00042113693712935677,-0.0019495815678790163,-0.00046576645299652126,0.0004576418415853562,-0.00014579905196451803,-0.0021580431679207165,0.2689092457294464,-23.56198501586914,19.553329467773438,17.92273712158203,0.8961893320083618,2.3540542125701904,-0.06678618490695953,,,,,,,,,
1739401205.0530586,-0.7073849012969101,0.6753785535590091,1.4187191403759778,-1.8794074860503847,-0.7093082955661504,1.948985468232467,0.18612697183367521,0.0006619556984236049,0.0012454543757242766,-0.0008329367256898073,0.000128388047665929,-0.0022064872487118446,0.0007151546947091072,-0.001101000463514048,0.2411382496356964,-23.61355972290039,19.501754760742188,17.87512969970703,0.8961893320083618,2.3476455211639404,-0.07411040365695953,,,,,,,,,
1739401205.0640342,-0.7073863301450972,0.6753778347784317,1.4187213435276687,-1.8794089013855761,-0.7093034211301674,1.948983913668669,0.18612532996854214,-0.0007195859077411182,0.0012275480020325679,-0.0006338063680050987,0.00031333529439806504,-0.000395641372737441,-0.000512673517337965,7.564555563332282e-05,0.2411382496356964,-23.61355972290039,19.501754760742188,17.92273712158203,0.8897806406021118,2.3604629039764404,-0.08692778646945953,,,,,,,,,
1739401205.0749736,-0.7073866834587387,0.6753773551575999,1.4187230463081997,-1.8794127247259875,-0.709302310772492,1.948984671328526,0.18613071566948486,-0.00036455459065423636,0.001308497011985355,-0.0009891297745348176,-0.0010485651984510737,0.0010833185947342456,-3.123904109662224e-05,0.0016752619178151164,0.2411382496356964,-23.58578872680664,19.477951049804688,17.94654083251953,0.8833719491958618,2.3540542125701904,-0.12080229818820953,,,,,,,,,
1739401205.0850596,-0.7073829679794769,0.6753766561084161,1.4187213700294063,-1.8794110435170606,-0.7093017492878478,1.9489839136684477,0.18612651423867715,0.00063196763070211,0.00029220718464174433,0.00022313639729984003,-0.00022548045820596293,0.0008160945770740501,-0.000653087401050858,0.000503499690338495,0.2173345386981964,-23.58578872680664,19.501754760742188,17.92273712158203,0.8769632577896118,2.3604629039764404,-0.09425200521945953,,,,,,,,,
1739401205.0959268,-0.707385286143179,0.6753765519485282,1.4187192552471308,-1.8794135227008262,-0.7093021896424212,1.9489835604557377,0.18612397377135903,6.176364061683968e-05,-0.0005455926593677824,-0.0012195257813291584,-0.0005936667821190428,0.0013358358232239788,-0.0010061584366490718,-0.0014452532753226213,0.2173345386981964,-23.58578872680664,19.529525756835938,17.94654083251953,0.8833719491958618,2.3604629039764404,-0.06678618490695953,,,,,,,,,
1739401205.1060972,-0.707391675173385,0.675380262227829,1.4187168707336983,-1.8794149003874556,-0.7093088589769138,1.948984671322544,0.18612470784597224,-0.0021235190615553467,0.0013247890875505723,-0.0008693322362184609,-8.479652429178392e-05,-0.001031022729745948,0.0002617932920853809,-0.002329265359733077,0.3165166676044464,-23.63736343383789,19.529525756835938,17.94654083251953,0.9099222421646118,2.3540542125701904,-0.08051909506320953,,,,,,,,,
1739401205.116944,-0.7073887964570748,0.6753802625548784,1.4187172572129845,-1.879414990120326,-0.7093041219881312,1.948983156008369,0.18612756724767568,-0.0005658652050609708,-0.0003251743974471539,-0.00019730984283957787,0.0002199736091554691,0.0014420888468676843,-0.00035956616404625864,0.0012809762160211286,0.2689092457294464,-23.63736343383789,19.553329467773438,17.97431182861328,0.8961893320083618,2.3668715953826904,-0.06678618490695953,,,,,,,,,
1739401205.129038,-0.7073869252887764,0.6753811721846054,1.4187164612247758,-1.8794149003762242,-0.7093060090511248,1.9489854289886042,0.18612931248693707,-0.0013916320633809848,0.0010504798098562992,-0.0008539761416661202,-0.00024379945517421424,0.0003020151711092327,0.000253174524972353,0.0002618771296483807,0.2689092457294464,-23.63736343383789,19.553329467773438,17.94654083251953,0.8769632577896118,2.3476455211639404,-0.12080229818820953,,,,,,,,,
1739401205.140098,-0.7073859850995584,0.6753781254561733,1.4187174972784968,-1.8794128350301376,-0.7093060911767942,1.9489813386563264,0.1861302154091495,0.0001802890436667646,-0.0009081343391731957,0.0006103198507555913,0.00015359256271560407,-0.0011337744183374785,-0.0012835491321836483,-8.262458882361996e-07,0.2689092457294464,-23.63736343383789,19.553329467773438,17.94654083251953,0.8897806406021118,2.3732802867889404,-0.12721098959445953,,,,,,,,,
1739401205.1510272,-0.7073862219430104,0.6753822606263327,1.4187127461267375,-1.8794149138713026,-0.7093043068724524,1.9489831555178705,0.18612529289799573,0.0009838953243365256,0.00033487296041342376,-0.0005565691983084476,-0.0009276619194874876,0.0005108928042917804,0.00011736875887020015,-0.0021875601318093645,0.2689092457294464,-23.66513442993164,19.577133178710938,17.97431182861328,0.8897806406021118,2.3668715953826904,-0.08692778646945953,,,,,,,,,
1739401205.161031,-0.7073852829346251,0.6753795472991452,1.4187152416470872,-1.8794155891405777,-0.709302305732943,1.9489839136684393,0.18612495938601248,0.000936734597852384,-0.0004217130200477496,0.001284777508263462,-0.0013642553520574901,0.0004507147465255937,-0.0001199135358892156,-0.0025761676121310887,0.2173345386981964,-23.63736343383789,19.553329467773438,17.94654083251953,0.8833719491958618,2.3604629039764404,-0.07411040365695953,,,,,,,,,
1739401205.171957,-0.7073875863466914,0.6753839730124269,1.418714527337473,-1.8794108130363887,-0.7093091275233548,1.9489839136684475,0.18612629699324784,-0.00019761281921703053,0.0009441980766538009,0.0007404396132444499,-0.00043225459293383975,-0.0010100316116115546,-0.0003637020723556133,-0.002597989873567683,0.2927129566669464,-23.68893814086914,19.553329467773438,17.92273712158203,0.9035135507583618,2.3604629039764404,-0.09425200521945953,,,,,,,,,
1739401205.1820364,-0.7073924174687992,0.6753785490530027,1.418718970882232,-1.8794108139266144,-0.7093073082983995,1.948983156008369,0.18612931132544125,-0.0015747287045557137,-0.00054102098265662,0.0017231732649716758,-0.0007595286360097479,-0.0006836301953229277,-0.00046561429014493894,-0.0002898540539502624,0.3165166676044464,-23.61355972290039,19.529525756835938,17.92273712158203,0.8897806406021118,2.3668715953826904,-0.12080229818820953,,,,,,,,,
1739401205.1929514,-0.707390708924562,0.6753765520932905,1.4187160804372194,-1.8794128386224458,-0.7093015349918963,1.9489825008176085,0.18612927563691534,-0.0008367092667133982,-0.0009663842917287585,-0.0018247615249692766,-0.0012570413237194982,0.0018645581730716188,-0.0015117166478396129,-0.00024137114470341222,0.2927129566669464,-23.58578872680664,19.529525756835938,17.94654083251953,0.8769632577896118,2.3604629039764404,-0.08051909506320953,,,,,,,,,
1739401205.2030265,-0.7073870244986505,0.6753802664067884,1.4187182308534,-1.8794074859414451,-0.7093084001996114,1.9489870525219881,0.1861269857032216,0.0004226961008925447,0.0011333103499221336,0.0003537911172152083,0.0010554797624298645,-0.0015117630841863198,0.0007460668284378922,-0.002655668185537677,0.2411382496356964,-23.63736343383789,19.501754760742188,17.87512969970703,0.8961893320083618,2.3339126110076904,-0.07411040365695953,,,,,,,,,
1739401205.2139559,-0.7073886292153216,0.6753765419184661,1.4187230747940385,-1.8794128582830527,-0.709306560691619,1.9489854289886042,0.18613401184683318,-0.0009063879022583061,-0.0002858309715076013,0.0010449717405932684,-0.0014835872148829061,-0.0010603395449190923,-0.00033092233495098436,0.003309168745916586,0.2927129566669464,-23.58578872680664,19.450180053710938,17.94654083251953,0.8897806406021118,2.3476455211639404,-0.13361968100070953,,,,,,,,,
1739401205.2239966,-0.7073870061668669,0.6753765520931237,1.4187252236312244,-1.8794138777810916,-0.7093064309467098,1.9489831167625125,0.18613239480459579,-0.0003623774350472249,1.1712428016952324e-05,0.0024361102290324905,0.00015806663123261555,-0.0014899375984293048,-0.0005192673930828364,0.0017417333757927373,0.2411382496356964,-23.58578872680664,19.450180053710938,17.97431182861328,0.8833719491958618,2.3668715953826904,-0.13361968100070953,,,,,,,,,
1739401205.2340088,-0.7073849974055507,0.6753765533772654,1.4187231525990611,-1.8794110513868763,-0.7093058443690665,1.948984669389794,0.18613057085626505,0.0009678566271391388,-0.00022519274794691153,0.00033455026886815796,-0.0005417845469386044,-0.0008789207401390681,0.00031294730636275775,0.00022000909572931655,0.2173345386981964,-23.58578872680664,19.477951049804688,17.92273712158203,0.8833719491958618,2.3540542125701904,-0.12721098959445953,,,,,,,,,
1739401205.244023,-0.7073886118049745,0.675382368585684,1.4187253249663907,-1.8794128340814413,-0.7093029149334813,1.9489820832882547,0.18613641994784547,-0.0011421996307409068,0.0016563993431691969,0.0008828945910107232,-0.0014153883529463768,0.0008286414838226295,-0.0012258210832769992,0.003229129835882944,0.2927129566669464,-23.63736343383789,19.477951049804688,17.94654083251953,0.8769632577896118,2.3668715953826904,-0.14094389975070953,,,,,,,,,
1739401205.2559416,-0.7073869203786901,0.6753813581227464,1.418717141542964,-1.8794110484609834,-0.7093053886768091,1.9489846713224703,0.1861293100084368,0.0003484596148432222,0.0006162030095026288,-0.00025824000183450474,-0.00013415628366421483,-0.0008183888782908551,0.0002874452440947105,-3.568251480058583e-05,0.2411382496356964,-23.61355972290039,19.529525756835938,17.92273712158203,0.8705545663833618,2.3540542125701904,-0.08051909506320953,,,,,,,,,
1739401205.2669287,-0.7073841993978394,0.6753802625601641,1.418717496004566,-1.8794109832692492,-0.7093076224294289,1.9489846713285257,0.1861324671781314,0.00012537787835240153,0.0009037439348117634,-0.00045438076211640904,-0.0004353021257990025,-0.0009277396392538424,0.0002515204017065857,0.0007191226402942231,0.2411382496356964,-23.63736343383789,19.553329467773438,17.92273712158203,0.8897806406021118,2.3540542125701904,-0.10706938803195953,,,,,,,,,
1739401205.2770035,-0.7073848464221896,0.6753839733374571,1.4187191886150894,-1.8794106883107682,-0.709306381882783,1.9489839136684475,0.18613047673636376,0.0006374968120388873,0.0005923808274693823,0.0010885858396878518,0.000730664621130019,-0.00018807568800050247,-2.8857584184520933e-05,-3.807523395282385e-05,0.2411382496356964,-23.68893814086914,19.501754760742188,17.94654083251953,0.8769632577896118,2.3604629039764404,-0.09425200521945953,,,,,,,,,
1739401205.2879972,-0.7073906308363064,0.6753822951629073,1.4187135389720735,-1.879411051388272,-0.7093084191204664,1.9489839136684475,0.18613310069395286,-0.0004958319996143989,0.0009355832421008255,-0.0003090212017354012,0.0008138782919437103,-0.0008660043281159287,0.00033471746256946206,0.0002176350553553055,0.2927129566669464,-23.66513442993164,19.604904174804688,17.92273712158203,0.8961893320083618,2.3604629039764404,-0.11347807943820953,,,,,,,,,
1739401205.2980044,-0.7073890314259669,0.6753803408775997,1.4187146560900215,-1.8794109718225465,-0.7093068904487347,1.9489846713285257,0.18613228903223117,-0.0005932466067982744,1.0926609858844763e-05,0.000507405046680162,0.0011240158003268275,-0.00022570411314102405,0.00037629050956464584,0.0022332717013841446,0.2689092457294464,-23.63736343383789,19.577133178710938,17.92273712158203,0.8833719491958618,2.3540542125701904,-0.13361968100070953,,,,,,,,,
1739401205.3090367,-0.7073880174130615,0.6753822530568245,1.418712480703833,-1.8794149036233188,-0.7093053603447694,1.9489846713285257,0.18612775377896762,0.0004161224945524552,-0.000692912316051427,-0.0007030137348060612,-0.0015344574954247723,0.000513113058999679,0.00010740178081288128,0.0008215849686239477,0.2689092457294464,-23.66513442993164,19.577133178710938,17.97431182861328,0.8833719491958618,2.3540542125701904,-0.09425200521945953,,,,,,,,,
1739401205.3209221,-0.7073890227553649,0.6753828396446175,1.4187122766480913,-1.8794092687273456,-0.7093067280730783,1.948983756685021,0.18613311585575093,-0.0006445095307154962,0.0008611447339553708,0.0001292418599543375,0.0009897680884166852,0.002295370367617795,-5.8866403574759605e-05,0.0010281296822757932,0.2689092457294464,-23.66513442993164,19.577133178710938,17.89893341064453,0.8833719491958618,2.3604629039764404,-0.14094389975070953,,,,,,,,,
1739401205.3309572,-0.707390508661175,0.6753839733407262,1.4187159607318067,-1.8794110514044227,-0.7093056740953652,1.9489831560074828,0.1861292118394546,-0.0006255566625671871,0.000638711229747398,0.0013170200418866243,-0.00042809185625189796,0.001861231631160085,-0.0002565245048288774,-0.0005913652532243198,0.2927129566669464,-23.68893814086914,19.529525756835938,17.92273712158203,0.8833719491958618,2.3668715953826904,-0.10706938803195953,,,,,,,,,
1739401205.3420293,-0.7073877019028224,0.6753822864961152,1.418713316530773,-1.8794125955538463,-0.7093076616683427,1.948983138565766,0.18613722880004704,0.0003034670662525573,-0.0009791317806764086,-0.001100809726926488,-0.00016149706347224786,-0.0006110500352039092,-0.00028118799794575155,0.002907202032385309,0.2927129566669464,-23.66513442993164,19.529525756835938,17.94654083251953,0.8897806406021118,2.3668715953826904,-0.14735259115695953,,,,,,,,,
1739401205.3520527,-0.7073822775863485,0.6753813581826296,1.4187249013145105,-1.879409734635874,-0.7093076616752855,1.9489846713282304,0.18613547026530353,0.001439331931789349,-0.00012223909017516275,0.0007476270694818102,0.0002663393492908508,-0.0010762281322382924,6.413127766024617e-05,0.001300787250168533,0.2173345386981964,-23.61355972290039,19.450180053710938,17.94654083251953,0.8897806406021118,2.3540542125701904,-0.13361968100070953,,,,,,,,,
1739401205.3629482,-0.7073853325855555,0.6753786284038378,1.418724874919114,-1.8794148863467082,-0.7093061458706122,1.948983952914304,0.18613133978196109,-0.00023324087765945153,-8.289309765781525e-05,0.0006589045776727868,-0.000558981062010275,0.00020096444639227648,0.0014925578205745981,0.0015061747508521813,0.2173345386981964,-23.61355972290039,19.450180053710938,17.97431182861328,0.8769632577896118,2.3604629039764404,-0.13361968100070953,,,,,,,,,
1739401205.3739953,-0.7073870247133042,0.6753785760349715,1.4187221064770805,-1.8794110513302438,-0.7093060281330396,1.9489854289888258,0.18613265658880818,-0.00027825124317077033,0.0004857980679952268,0.00028637492082913066,-7.420921517817139e-05,0.0006240257433577515,0.0006879948435207885,0.0018808130284772725,0.2411382496356964,-23.61355972290039,19.477951049804688,17.92273712158203,0.8769632577896118,2.3476455211639404,-0.12080229818820953,,,,,,,,,
1739401205.383997,-0.70738703348698,0.6753712961782599,1.418721047882229,-1.8794110514044222,-0.7093061463544615,1.9489831560083692,0.18613193500569483,0.00015914488744641893,-0.0016742115776504645,0.00019356033128065423,-9.637535807023229e-05,-0.0005409502581025986,-0.0002584303774932944,-0.00014520427425809715,0.2411382496356964,-23.53818130493164,19.501754760742188,17.92273712158203,0.8769632577896118,2.3668715953826904,-0.10706938803195953,,,,,,,,,
1739401205.3950238,-0.7073887887220031,0.6753810685563256,1.418722914251491,-1.87941115344365,-0.709305844377078,1.9489831560083692,0.18613163651845954,-0.0009217661771436846,0.0015659958366613512,0.000150027205414103,0.0002879794956064767,-0.0007947942320679126,-0.0008602574406430846,0.000537961515121825,0.2689092457294464,-23.63736343383789,19.477951049804688,17.92273712158203,0.8833719491958618,2.3668715953826904,-0.12721098959445953,,,,,,,,,
1739401205.4059348,-0.7073880954128314,0.675376552097846,1.4187206875946805,-1.8794125927199994,-0.7093071907190243,1.9489839136684477,0.18613560675978824,0.00043602341417310316,-0.0004053711795962846,-0.00016294987160422154,0.0009107673146290742,-0.00034206135135680926,-0.00027229437119103913,0.001620216965024896,0.2689092457294464,-23.58578872680664,19.477951049804688,17.94654083251953,0.8897806406021118,2.3604629039764404,-0.13361968100070953,,,,,,,,,
1739401205.4160357,-0.7073869250602565,0.6753785500341491,1.4187181880226178,-1.879409268723316,-0.7093094922109943,1.948984671328526,0.18613682177254204,-0.0005072864761253856,-0.0005349369063910753,-0.0001973437581767968,0.0002273711243058915,-0.0010309952031482567,0.00030827743623352264,0.00139790399116196,0.2689092457294464,-23.61355972290039,19.501754760742188,17.89893341064453,0.8961893320083618,2.3540542125701904,-0.14735259115695953,,,,,,,,,
1739401205.427008,-0.7073892742140641,0.6753785500341491,1.418716190636507,-1.8794110512954063,-0.709308301932918,1.9489823981867853,0.18613057944356956,-0.0003138468565419514,-0.0005981978858063254,0.0004604411978256268,-0.00038118707782187986,-0.0002438871234879153,-0.0002692971743241636,-0.0013867614529536974,0.2689092457294464,-23.61355972290039,19.529525756835938,17.92273712158203,0.8961893320083618,2.3732802867889404,-0.09425200521945953,,,,,,,,,
1739401205.4380264,-0.7073890227624596,0.6753802628758726,1.4187142892412368,-1.8794149099467108,-0.7093047335036271,1.9489839135069411,0.18612996820753086,-0.000615204969491222,-0.00027887420931182566,0.0008880300819257035,-0.0013357956558665877,0.0004115930621870824,5.3918260726152224e-05,-8.313367088043345e-05,0.2689092457294464,-23.63736343383789,19.553329467773438,17.97431182861328,0.8769632577896118,2.3604629039764404,-0.08692778646945953,,,,,,,,,
1739401205.448056,-0.7073907439484669,0.675380183082026,1.4187115623736501,-1.8794107648435838,-0.7093036073393226,1.9489825008176056,0.186133225558528,-0.0014235591518817249,-0.0019104389772784105,-0.0008933169256430673,0.0006569881073581964,0.001799173969709848,-0.0010699147668013585,0.0014535036332869575,0.2927129566669464,-23.63736343383789,19.577133178710938,17.94654083251953,0.8833719491958618,2.3604629039764404,-0.11347807943820953,,,,,,,,,
1739401205.459028,-0.7073907439129478,0.6753785530652949,1.4187142888032092,-1.8794092422247692,-0.7093053975612666,1.9489839136604719,0.18613273216501627,-0.0001734932557272799,-0.0012549979090203328,0.0007526232319237059,0.0012669423191090888,0.00017295541859765038,-0.00026908780092862615,-0.001475189135887788,0.2927129566669464,-23.61355972290039,19.553329467773438,17.89893341064453,0.8705545663833618,2.3604629039764404,-0.11347807943820953,,,,,,,,,
1739401205.469971,-0.7073929294522552,0.6753861917512429,1.4187142884936008,-1.8794149138711476,-0.7093061464096871,1.9489813387101615,0.1861293239822386,-0.0013875625047612022,0.0005648606069583865,0.0001474113666455481,2.700927451434673e-06,0.0009576848687352891,-0.001202405271636739,-0.0010557026965989742,0.2927129566669464,-23.68893814086914,19.553329467773438,17.97431182861328,0.8769632577896118,2.3732802867889404,-0.08051909506320953,,,,,,,,,
1739401205.479995,-0.707392929489267,0.6753785529606546,1.4187160711706133,-1.8794149050409794,-0.7093066152826338,1.948984670503053,0.18612612877766535,-0.0008237705789385676,-0.001413192504603147,0.0015559480981764335,-0.0009000237492166939,-4.422408003313676e-06,0.0008418070574838584,-0.0009286411149436499,0.2927129566669464,-23.61355972290039,19.529525756835938,17.97431182861328,0.8897806406021118,2.3540542125701904,-0.08051909506320953,,,,,,,,,
1739401205.490922,-0.7073929294892677,0.6753802625549298,1.4187142889135087,-1.879407247631656,-0.7093065507847768,1.9489839136684335,0.18613093936238848,-0.0018504668303990683,-0.0014353320771580004,-0.0007553853830941331,0.000622826366489352,0.00021195464628186132,5.11339764984097e-05,-0.0005983217874258899,0.2927129566669464,-23.63736343383789,19.553329467773438,17.87512969970703,0.8833719491958618,2.3604629039764404,-0.09425200521945953,,,,,,,,,
1739401205.5010018,-0.7073870335240418,0.675381302998071,1.4187159783816254,-1.879411051400385,-0.7093065457898424,1.948983156008369,0.1861307902275977,0.0002317994616246243,0.0013285672960802384,-0.00035025797868563257,0.0007243534972826132,0.0006833317328884989,-0.00011845698492388013,0.0005906903655324626,0.2411382496356964,-23.63736343383789,19.529525756835938,17.92273712158203,0.8833719491958618,2.3668715953826904,-0.09425200521945953,,,,,,,,,
1739401205.5119894,-0.7073899474443307,0.6753785504046537,1.418722252265669,-1.8794110512954063,-0.7093056579615723,1.948982045135581,0.18613484765490468,-0.00026880944204308313,-0.00022245706489784362,0.0009282317507224378,0.00025909606107386585,0.00139029110049674,-0.0009230803906860837,0.0020622104173873,0.2411382496356964,-23.61355972290039,19.450180053710938,17.92273712158203,0.8769632577896118,2.3732802867889404,-0.12721098959445953,,,,,,,,,
1739401205.5220158,-0.7073867619768529,0.6753787830564292,1.4187223320697906,-1.8794092800650934,-0.7093045209598414,1.9489839138239715,0.186133463970004,-9.752165172478448e-05,-0.0007927019917170381,0.0004713394871143784,0.00014976594838329318,0.001510405698279329,-0.00046254669190878774,0.0005071082716816065,0.2411382496356964,-23.61355972290039,19.450180053710938,17.89893341064453,0.8961893320083618,2.3604629039764404,-0.11347807943820953,,,,,,,,,
1739401205.5320191,-0.7073812680765782,0.6753766301062748,1.4187182311964663,-1.8794092687279795,-0.7093057264414501,1.9489846713285337,0.18612770499024536,0.0021351441390382903,-0.0007320861533889884,-0.0006222138894532433,0.0009566867520115604,0.0016082008264517336,0.0002509875748447682,-0.0016857599676110436,0.1935308277606964,-23.58578872680664,19.501754760742188,17.89893341064453,0.8833719491958618,2.3540542125701904,-0.06678618490695953,,,,,,,,,
1739401205.5420372,-0.70738622301697,0.6753785235436363,1.41871993405786,-1.8794110514044227,-0.7093068647627032,1.9489862948858367,0.18612857136290759,0.0001079525478445387,0.00021933573015737507,-0.001009693979891624,-0.00042497267110163035,-0.0006837601626228813,2.5072882876582477e-05,-0.0009976185031813527,0.2689092457294464,-23.61355972290039,19.477951049804688,17.92273712158203,0.8833719491958618,2.3403213024139404,-0.07411040365695953,,,,,,,,,
1739401205.5540016,-0.7073889534108888,0.6753765520931465,1.4187220406302745,-1.8794091891455276,-0.7093070629607051,1.9489854289886044,0.18612926857613643,-0.00017053266934431065,-0.0007928147171282039,-0.0007722921825510448,0.0010025740145700184,-0.0007827851171398467,0.0008313530902609215,-0.0010763438858893393,0.2689092457294464,-23.58578872680664,19.450180053710938,17.89893341064453,0.8833719491958618,2.3476455211639404,-0.10706938803195953,,,,,,,,,
1739401205.564033,-0.7073853479473843,0.675378550069815,1.418714290258201,-1.8794074860499352,-0.7093069040161046,1.9489807347540595,0.1861300866650067,0.0006499107196179606,0.0009527790593318621,-0.001391711286996122,0.0009788654362242446,-0.00023406207216237874,-0.0006207108658848126,-0.0009887768984013386,0.2173345386981964,-23.61355972290039,19.553329467773438,17.87512969970703,0.8833719491958618,2.3604629039764404,-0.08692778646945953,,,,,,,,,
1739401205.5759509,-0.707392352467977,0.6753807633833724,1.418716080457199,-1.8794068845766054,-0.7093065039829977,1.9489839136505025,0.1861388070231612,-0.0016571145513119242,0.0006416185691752354,-0.0010340517671801018,0.00090132300532471,0.00036787427354150143,0.0003308746973058616,0.0012276181562450791,0.3165166676044464,-23.61355972290039,19.529525756835938,17.89893341064453,0.8769632577896118,2.3604629039764404,-0.13361968100070953,,,,,,,,,
1739401205.5860562,-0.7073890674026639,0.6753766301069305,1.418712551223927,-1.8794128340679832,-0.7093052103434668,1.9489796238812713,0.18612851147584022,0.0005344741150122632,-0.0005080011410584744,-0.0011124083598173082,-0.0004423969363293559,9.676489978810172e-05,-0.0009895227690982895,-0.0019482321960193217,0.2689092457294464,-23.58578872680664,19.577133178710938,17.94654083251953,0.8769632577896118,2.3668715953826904,-0.10066069662570953,,,,,,,,,
1739401205.5969775,-0.7073899474920882,0.6753813709153261,1.418718150544853,-1.8794110249134692,-0.7093073084572921,1.9489828027218852,0.18613242833708402,-0.00029624514503728177,0.0016231982718726834,0.0028554536222025455,0.0005800048110324967,0.0007913701583574154,4.8742158045375766e-05,-0.00036058889571316863,0.2411382496356964,-23.61355972290039,19.501754760742188,17.92273712158203,0.8897806406021118,2.3668715953826904,-0.10706938803195953,,,,,,,,,
1739401205.6069953,-0.7073924564116963,0.6753803415667692,1.4187125062364827,-1.8794149141857843,-0.7093067862716556,1.948983156002386,0.18612744487120708,-0.0009051936486955933,-0.000152242457132781,5.4874377652239616e-05,-0.0014672053966150592,0.0012556903702404146,0.0004227600580959751,-0.0021275232558857346,0.3165166676044464,-23.63736343383789,19.577133178710938,17.97431182861328,0.8833719491958618,2.3668715953826904,-0.10066069662570953,,,,,,,,,
1739401205.6180348,-0.7073880009700728,0.6753833088083555,1.4187137336506632,-1.879414913871299,-0.7093061458699476,1.948983156008369,0.1861277664497877,-0.00018409520974759132,-0.00010210012013878319,-0.00012183330908128884,-0.0010095367466937664,0.0005220735453461886,-0.0005084288588090334,0.00015477555637214715,0.2411382496356964,-23.63736343383789,19.577133178710938,17.97431182861328,0.8769632577896118,2.3668715953826904,-0.09425200521945953,,,,,,,,,
1739401205.6289566,-0.7073890314333439,0.675378870722699,1.4187139742645012,-1.8794128340814418,-0.7093066231922844,1.9489846713285257,0.18613560871011756,-0.0009697956547479632,-2.910195943813085e-05,-0.0006962970672974583,-2.51301777604697e-05,1.767435072205694e-05,0.0008225993236201795,0.0004533003240912316,0.2689092457294464,-23.61355972290039,19.553329467773438,17.94654083251953,0.8769632577896118,2.3540542125701904,-0.13361968100070953,,,,,,,,,
1739401205.6399279,-0.7073887973887963,0.6753826064428009,1.4187142860773168,-1.879413063669703,-0.7093075046945508,1.948984973306577,0.18612968444328873,-0.0004306809247942243,-0.0006223193742868762,-5.825706537458786e-05,0.0004518449326668488,0.0005438990145972957,0.0011105842846789076,-0.000970474547331654,0.2689092457294464,-23.63736343383789,19.553329467773438,17.94654083251953,0.8897806406021118,2.3604629039764404,-0.08051909506320953,,,,,,,,,
1739401205.6500309,-0.7073907515475255,0.6753832081048327,1.4187191050546588,-1.8794149138751852,-0.7093076616726272,1.948984671346471,0.18613130735654768,-0.0011452123994677875,0.0011998109384273783,0.000600212840702052,-0.0006796048208971289,-0.0006337014362690246,0.00034689307675990575,-0.0012948951979863195,0.2927129566669464,-23.66513442993164,19.501754760742188,17.97431182861328,0.8897806406021118,2.3540542125701904,-0.09425200521945953,,,,,,,,,
1739401205.6600327,-0.7073867214828552,0.6753768728127932,1.4187125062849484,-1.8794110514044227,-0.7093076616752855,1.9489854289886053,0.1861324547547661,0.0005226864225988094,-0.002137036388412034,-0.0011231476210909388,0.0008155668125300773,-0.0011554010937694726,0.0011680607475743287,-0.0003253582618485546,0.2411382496356964,-23.58578872680664,19.577133178710938,17.92273712158203,0.8897806406021118,2.3476455211639404,-0.10706938803195953,,,,,,,,,
1739401205.6710074,-0.7073909838928334,0.6753773330682773,1.4187182309986053,-1.8794149138712972,-0.7093092852325964,1.948984671328526,0.186136880750278,-0.00031708118800880783,0.00016998598004963877,-0.0002636012352226875,-0.00034846864595744834,-0.00022447663354990805,-0.00018334350718900473,0.0008694781034758984,0.2927129566669464,-23.58578872680664,19.501754760742188,17.97431182861328,0.9035135507583618,2.3540542125701904,-0.14094389975070953,,,,,,,,,
1739401205.6820211,-0.7073870334883839,0.675378862043118,1.4187160838008066,-1.8794128586101022,-0.7093069045057805,1.9489846698749755,0.18613723033753782,-6.171780175800393e-05,-0.0005048739282453624,-0.0009118160786140523,0.00011342445372591015,5.238457636231296e-05,0.00042141348180699907,0.002158724630440246,0.2411382496356964,-23.61355972290039,19.529525756835938,17.94654083251953,0.8833719491958618,2.3540542125701904,-0.14735259115695953,,,,,,,,,
1739401205.6920326,-0.7073907439486137,0.6753787850058303,1.4187181631543542,-1.8794092422368656,-0.7093084193353723,1.9489843006731884,0.18613172779199694,-0.0016475786042023336,5.4985298290986424e-05,-0.0004356529919927091,0.0009923375993945351,-0.00021004155393263794,-0.0009089212119754956,-0.0010796847816837295,0.2927129566669464,-23.61355972290039,19.501754760742188,17.89893341064453,0.8961893320083618,2.3540542125701904,-0.10066069662570953,,,,,,,,,
1739401205.7029562,-0.7073889534267424,0.6753806820666376,1.4187191051637895,-1.8794127546084325,-0.7093076616752857,1.9489846713264334,0.1861293288605727,3.453412921213759e-05,-0.0002501010685243987,-0.0005831905197457812,5.8544154593123785e-05,-0.0008934020122848925,-0.0003884753444096761,-0.0017158899238054904,0.2689092457294464,-23.61355972290039,19.501754760742188,17.94654083251953,0.8897806406021118,2.3540542125701904,-0.08051909506320953,,,,,,,,,
1739401205.713029,-0.7073832059464095,0.6753794864049285,1.418719934073562,-1.8794128340800957,-0.7093069040152074,1.9489846713285257,0.18613177047054044,0.001287728855260812,0.00037696286584770414,0.0005154681195107039,4.2369448897481524e-05,0.0005098961780759931,0.00011580177910536971,-0.0010056427300593343,0.2173345386981964,-23.61355972290039,19.477951049804688,17.94654083251953,0.8833719491958618,2.3540542125701904,-0.07411040365695953,,,,,,,,,
1739401205.7239206,-0.7073870334750901,0.675381276610653,1.4187160715905351,-1.8794125161900028,-0.7093052386464334,1.9489846713285257,0.18613667321936514,0.0008161882753183697,0.002038162825846321,-0.0004230097189908043,-0.000444972810518082,0.0007533651644099698,-3.5561780435942495e-05,0.0009667227632300313,0.2411382496356964,-23.63736343383789,19.529525756835938,17.94654083251953,0.8961893320083618,2.3540542125701904,-0.13361968100070953,,,,,,,,,
1739401205.7340238,-0.7073907439486135,0.67537694562052,1.4187181543238296,-1.8794092556400679,-0.7093044827070324,1.948983156008369,0.18613480964476214,-0.0012141126367892462,-0.0014913099512997915,0.0002948679454181747,0.0017262633508524524,6.183351823217209e-05,-0.0007152775487997073,0.00015098949220698657,0.2927129566669464,-23.56198501586914,19.501754760742188,17.89893341064453,0.8897806406021118,2.3668715953826904,-0.12721098959445953,,,,,,,,,
1739401205.7450366,-0.7073890227610891,0.675380262566769,1.4187142889135325,-1.8794128311379286,-0.7093084193174186,1.9489846713285257,0.1861304377694002,0.0006614604612682139,-0.00016679401551821578,-0.001524406827639208,-0.0012219827224378274,-0.00019051819330661782,0.0006333950362915252,-0.0004379751768631529,0.2689092457294464,-23.63736343383789,19.553329467773438,17.94654083251953,0.8961893320083618,2.3540542125701904,-0.08692778646945953,,,,,,,,,
1739401205.7560055,-0.707385167080013,0.6753785847013225,1.4187149706285813,-1.8794130607262471,-0.7093076616752856,1.948984200378246,0.18613317312434527,0.000808799782583676,-0.002045005802038902,-0.0007699411631558643,0.00029223807641895233,-0.00021938271524514437,-0.0003561981537556098,-0.0008874771306249533,0.2411382496356964,-23.61355972290039,19.553329467773438,17.94654083251953,0.8897806406021118,2.3540542125701904,-0.11347807943820953,,,,,,,,,
1739401205.7660203,-0.7073870330712138,0.675382380143148,1.4187160726063162,-1.8794166965598311,-0.7093105739874018,1.948984671304599,0.18613515917860532,-9.682449661770141e-05,-0.0009750866257411577,0.0007447859729753793,-0.0006043182516024092,-0.0002807062689796518,-2.3193785394189347e-05,0.00020102524580583716,0.2411382496356964,-23.63736343383789,19.529525756835938,17.99811553955078,0.8961893320083618,2.3540542125701904,-0.12080229818820953,,,,,,,,,
1739401205.7760508,-0.7073846579707211,0.6753846814319606,1.4187125065635513,-1.8794128340814418,-0.7093072618732716,1.9489846713285257,0.18613095258632664,0.0013327224297004544,0.00041485215643764285,-0.001082293764270027,-5.6571445875714006e-05,0.0009363134237850787,0.00034170964135436143,-0.0015675976389738738,0.2411382496356964,-23.66513442993164,19.577133178710938,17.94654083251953,0.8833719491958618,2.3540542125701904,-0.09425200521945953,,,,,,,,,
1739401205.7879448,-0.7073867994345335,0.6753787841938989,1.4187127182004633,-1.8794075115601914,-0.7093083190989441,1.9489846713285257,0.1861301042346862,0.0010806730578692774,-0.001687120460082669,-0.0011634470887152098,0.0005045594241587126,-0.00019770277748584964,2.1234769258623957e-05,-0.0014214686564121685,0.2411382496356964,-23.61355972290039,19.577133178710938,17.87512969970703,0.8961893320083618,2.3540542125701904,-0.08692778646945953,,,,,,,,,
1739401205.7980638,-0.7073886343977075,0.6753832746188736,1.4187143154056656,-1.8794110515095452,-0.7093076616208847,1.9489839136684475,0.18613636736553962,-0.0005474172153827311,0.00011095304513430255,-0.0005431533633084047,0.00028581884894056516,-0.00016717351279597878,0.00018759986776593955,0.0020178741270563605,0.2927129566669464,-23.66513442993164,19.553329467773438,17.92273712158203,0.8897806406021118,2.3604629039764404,-0.14094389975070953,,,,,,,,,
1739401205.808988,-0.7073852862872164,0.67537897152533,1.418714297743983,-1.879411076949223,-0.7093092808719453,1.9489846713285257,0.1861332255599399,0.0022781196294687058,-0.0011000887883290968,7.853554539751806e-05,0.00019275717091889392,-0.0014942304959496664,0.0005115741162821254,-0.0012068105778088138,0.2173345386981964,-23.58578872680664,19.553329467773438,17.92273712158203,0.9035135507583618,2.3540542125701904,-0.11347807943820953,,,,,,,,,
1739401205.8199663,-0.7073886929947565,0.675379498045202,1.4187160725717312,-1.8794067707947915,-0.7093069040151827,1.9489846713285257,0.18613126031863,0.0002361590197473277,-2.969552906594117e-05,0.00042817566708886466,0.001973573462010486,0.0005298318767532604,0.0007278965043019782,-0.00014344798022889447,0.2689092457294464,-23.61355972290039,19.529525756835938,17.87512969970703,0.8833719491958618,2.3540542125701904,-0.06678618490695953,,,,,,,,,
1739401205.8310146,-0.7073890285332199,0.6753786636814942,1.4187183897989861,-1.8794096088460481,-0.7093069040152074,1.948983156008369,0.18613091893483194,-2.5406454788962166e-05,0.00041778709097406165,6.069805320714863e-05,9.46122949123338e-05,0.00015127409278978417,-0.0007607118629159003,-0.00012573661673597,0.2689092457294464,-23.61355972290039,19.501754760742188,17.89893341064453,0.8833719491958618,2.3668715953826904,-0.06678618490695953,,,,,,,,,
1739401205.841026,-0.7073889967606927,0.6753749177170097,1.4187184251215865,-1.8794129106127822,-0.7093069040152074,1.9489839136684475,0.18613240801346062,-0.0007917536308184908,-0.0005406438412125783,0.0006420043649027292,-0.00163433400681779,-0.00022406701985970193,-2.4603717706967175e-05,0.00021113082084750847,0.2689092457294464,-23.56198501586914,19.501754760742188,17.94654083251953,0.8833719491958618,2.3604629039764404,-0.13361968100070953,,,,,,,,,
1739401205.8519862,-0.7073868015179924,0.6753806589551856,1.4187170605907582,-1.8794110514057185,-0.7093069040152074,1.9489839136684475,0.18612770524899153,0.0008720507644843183,-1.7539324260336216e-05,0.00019887367455119292,-0.0009836586121039878,-4.138209130870085e-05,3.267788364916854e-06,-0.0021775002474912672,0.2411382496356964,-23.61355972290039,19.529525756835938,17.92273712158203,0.8833719491958618,2.3604629039764404,-0.06678618490695953,,,,,,,,,
1739401205.862931,-0.7073890054270658,0.6753815963030353,1.4187161598955735,-1.8794074556348457,-0.7093076222679234,1.948983874422591,0.18613244742356652,5.170579006617934e-05,0.0019586403427415077,5.0564271080042974e-05,0.0007142373817168081,-0.0006300032607712408,0.0002504759992543246,0.0014841449863458337,0.2689092457294464,-23.61355972290039,19.529525756835938,17.87512969970703,0.8897806406021118,2.3604629039764404,-0.10706938803195953,,,,,,,,,
1739401205.8739774,-0.70738703648483,0.6753809767534811,1.4187199383095426,-1.8794092687272317,-0.7093076616750632,1.9489822481359278,0.18613515771851882,-0.000545845618327904,0.0012601719065275484,0.00025613791484939636,7.182273747460355e-06,0.00043637789417586253,-0.00031381830766379266,0.0009605519090347804,0.2411382496356964,-23.61355972290039,19.477951049804688,17.89893341064453,0.8897806406021118,2.3476455211639404,-0.12080229818820953,,,,,,,,,
1739401205.8839846,-0.7073876510094339,0.675380684995339,1.4187220798246936,-1.8794074860503847,-0.7093069040152074,1.9489828539764502,0.1861316566913841,-0.0007024158026663855,-0.0002943211641070108,0.0016674651157429687,0.0016840763445258142,-0.00026323083881456066,-0.0003104937242673795,-0.00022955754719350754,0.2689092457294464,-23.61355972290039,19.477951049804688,17.87512969970703,0.8833719491958618,2.3604629039764404,-0.12721098959445953,,,,,,,,,
1739401205.8949528,-0.707387033463652,0.6753843678466405,1.4187142889498545,-1.8794128396412713,-0.7093064070645476,1.9489846713105798,0.18613561988757382,0.0007321047344810696,0.0010835186908586792,-0.001242830622489428,-0.0007048403141094045,0.00042062082074837754,-0.000165193369627478,0.0019226249416981586,0.2411382496356964,-23.66513442993164,19.553329467773438,17.94654083251953,0.8833719491958618,2.3540542125701904,-0.13361968100070953,,,,,,,,,
1739401205.904978,-0.7073874028768943,0.675381199008447,1.4187132214922342,-1.879412834081473,-0.7093087769604274,1.9489846713285257,0.1861364301395794,-6.325247620543855e-05,-7.690993424914025e-05,-0.0006086316968128417,8.523743710335888e-05,-0.00030107959660971394,0.00017235515255814723,0.0009268863258499094,0.2173345386981964,-23.63736343383789,19.577133178710938,17.94654083251953,0.8961893320083618,2.3540542125701904,-0.11347807943820953,,,,,,,,,
1739401205.9160156,-0.7073852853479002,0.6753844015199674,1.4187164729494757,-1.8794103361486854,-0.7093069040172262,1.9489827984350085,0.18613754327695256,0.0015993755192066491,0.001048174470624699,0.0005108891224638624,0.0011586503480181202,0.0004153938453422308,-0.0014937009854626708,0.0015418388486070096,0.2173345386981964,-23.66513442993164,19.553329467773438,17.92273712158203,0.8833719491958618,2.3668715953826904,-0.11347807943820953,,,,,,,,,
1739401205.9269276,-0.7073871264231972,0.6753802635656092,1.4187125327761176,-1.8794110395176116,-0.7093069040152074,1.9489823983462724,0.1861293291015339,-0.0005454471223734165,-0.0006610430993397074,-0.000674416761945364,0.0005898786977000854,-0.00028504127291690277,-0.00022913469665812635,-0.0005912503294895916,0.2411382496356964,-23.63736343383789,19.577133178710938,17.92273712158203,0.8833719491958618,2.3732802867889404,-0.08051909506320953,,,,,,,,,
1739401205.9379187,-0.7073881044085683,0.6753787364462162,1.4187142928382512,-1.8794128340813747,-0.7093077808845752,1.948983874422591,0.18613150836422426,-0.0003311738126837388,-0.0013320053472036754,0.0006682234816412656,1.2311539260962908e-06,-0.00020514166057712668,0.00042211235451571023,0.0005572366468135315,0.2689092457294464,-23.58578872680664,19.553329467773438,17.94654083251953,0.8897806406021118,2.3604629039764404,-0.08692778646945953,,,,,,,,,
1739401205.947946,-0.7073890054118033,0.6753823687071461,1.4187125059216275,-1.8794110512954063,-0.7093076487588766,1.9489823983476262,0.1861333440580404,7.407742765537622e-05,0.00026654777982175785,-0.0016450794196179444,-0.0005172982509769347,0.00016582625535862985,-0.00017281164101542288,0.0004587266939421878,0.2689092457294464,-23.66513442993164,19.577133178710938,17.92273712158203,0.8897806406021118,2.3732802867889404,-0.11347807943820953,,,,,,,,,
1739401205.9580874,-0.7073919454314163,0.6753748774551593,1.4187125062364807,-1.879412807590483,-0.7093076616746294,1.948983156008369,0.18613410950295126,-0.001186781271647638,-0.0016850993422973866,-0.000550960725570397,0.0006699066380365148,-0.0003607669816105488,3.833673680518661e-05,-0.001128751358186386,0.2689092457294464,-23.56198501586914,19.577133178710938,17.94654083251953,0.8897806406021118,2.3668715953826904,-0.12080229818820953,,,,,,,,,
1739401205.969018,-0.7073869225136524,0.6753853935356533,1.4187181513803904,-1.879412516224946,-0.709308419335364,1.9489846713285257,0.18613240804952613,-0.0004908582127807033,0.0010777177357148794,0.0014554523047071101,-0.0004414837779645324,-0.0014076624643116168,-3.7103219641789267e-06,7.304694649590932e-05,0.2689092457294464,-23.66513442993164,19.501754760742188,17.94654083251953,0.8961893320083618,2.3540542125701904,-0.13361968100070953,,,,,,,,,
1739401205.9799569,-0.7073886379059267,0.6753827079992555,1.418716071590535,-1.8794092627297145,-0.7093087360306113,1.9489836116903965,0.18612872930942634,-0.000800720578084604,0.00046928301264886636,0.0005730096317565485,-1.0794530655187711e-05,-0.0003917464926915094,-0.0010433439625682451,-0.001686267370781844,0.2927129566669464,-23.63736343383789,19.529525756835938,17.89893341064453,0.8897806406021118,2.3540542125701904,-0.07411040365695953,,,,,,,,,
1739401205.990039,-0.7073905070205962,0.6753814717478961,1.4187182573442034,-1.8794092687273019,-0.7093084193535584,1.9489823983303458,0.1861320642007068,-0.00048596295403430424,0.0007471768946099449,0.0009514511548806288,0.00027654369415147455,-0.0009407790421571898,-0.00039950129773879865,0.0013858929197317741,0.2927129566669464,-23.61355972290039,19.501754760742188,17.89893341064453,0.8961893320083618,2.3732802867889404,-0.10066069662570953,,,,,,,,,
1739401206.0000544,-0.7073889269943602,0.675383099689864,1.4187161779922075,-1.8794085534716662,-0.7093075046918594,1.9489845143450988,0.1861388538985393,-0.0003470318764257935,0.0013046192632722733,0.0007105025789121736,0.0012270888110628327,0.0005088041565566844,-2.700443280746375e-05,0.0033796163387060387,0.2689092457294464,-23.66513442993164,19.529525756835938,17.89893341064453,0.8897806406021118,2.3540542125701904,-0.16108550131320953,,,,,,,,,
1739401206.011939,-0.707391216467279,0.6753817060356322,1.4187182665021707,-1.8794148208988963,-0.7093062147074432,1.9489870525450286,0.1861285713629103,-0.0007129717281863436,0.0008443606329199436,0.0011443130511202813,-0.0008915614056805761,-1.6098516437759725e-05,0.001723328097174902,-0.002388931008395488,0.2689092457294464,-23.61355972290039,19.501754760742188,17.94654083251953,0.8769632577896118,2.3339126110076904,-0.07411040365695953,,,,,,,,,
1739401206.022078,-0.7073889534760887,0.6753785771579852,1.4187208622885878,-1.8794128341276501,-0.7093076603856456,1.9489846538859228,0.18613132555220777,-0.0007417179609768729,-0.0013065988909794974,-0.00022939187373917708,-0.0014707445951500837,0.000732384092828342,0.000352555325374985,-0.0008719523711543389,0.2689092457294464,-23.61355972290039,19.501754760742188,17.94654083251953,0.8897806406021118,2.3540542125701904,-0.09425200521945953,,,,,,,,,
1739401206.0330215,-0.7073907439481736,0.675379512084029,1.418720040145542,-1.8794110514044229,-0.7093076616752784,1.9489846713284273,0.1861308737626333,-0.0010233395711470312,-0.0007523278958273561,2.0912418879877933e-06,-9.593018886476149e-05,0.0005004730794471038,0.0004761417806803404,-0.001098085175891209,0.2927129566669464,-23.61355972290039,19.477951049804688,17.92273712158203,0.8897806406021118,2.3540542125701904,-0.09425200521945953,,,,,,,,,
1739401206.0439818,-0.7073907440596487,0.6753809768843789,1.41872061503964,-1.8794120462868884,-0.709305240420976,1.9489846582465735,0.18613322994799425,-0.00238237002708084,0.00018151578754618732,0.0008310363587950924,1.3347563214614194e-05,0.0004923050054262948,0.00013447086084833677,-0.0007539094892123706,0.2927129566669464,-23.61355972290039,19.501754760742188,17.92273712158203,0.8961893320083618,2.3540542125701904,-0.11347807943820953,,,,,,,,,
1739401206.053996,-0.7073867214824711,0.6753795913744185,1.4187164376658894,-1.8794092687442518,-0.7093072324303763,1.948984658246352,0.1861304786866547,0.0006330260231723378,-0.0003971821093926511,-0.0015712226214921036,0.0011711840388544997,9.030512523043591e-05,0.00037064390763793674,-0.0014530650565124886,0.2411382496356964,-23.61355972290039,19.553329467773438,17.89893341064453,0.8769632577896118,2.3540542125701904,-0.09425200521945953,,,,,,,,,
1739401206.0649152,-0.707386929483748,0.6753813035389367,1.4187201735056036,-1.8794128340814418,-0.7093061449077097,1.948982398348217,0.1861381480699053,2.5340850460820956e-05,0.0005588876407204128,0.001809725438951931,4.571316567412274e-05,6.494449412129953e-05,-0.0003049733085236923,0.00212306577921608,0.2411382496356964,-23.63736343383789,19.477951049804688,17.94654083251953,0.8769632577896118,2.3732802867889404,-0.15376128256320953,,,,,,,,,
1739401206.0749688,-0.7073905163629582,0.6753826068866097,1.4187152455353267,-1.8794149138712972,-0.7093092896477307,1.948983156008369,0.18613410462419205,-0.000373760702015435,0.00020821350639477074,-6.678529173563281e-05,-6.1009217126933835e-05,-0.0010841735542753933,7.700699977449183e-05,0.001058429936143895,0.2689092457294464,-23.63736343383789,19.553329467773438,17.97431182861328,0.9035135507583618,2.3668715953826904,-0.12080229818820953,,,,,,,,,
1739401206.0859766,-0.7073889534351249,0.6753814404051295,1.4187142893913198,-1.8794128340814418,-0.7093107625885585,1.9489823983482908,0.1861376384104554,0.0007634504587172989,0.00010966182795696058,0.0001792642125463714,0.0005088409465729095,-0.0009361742538608978,-0.00022303393156891736,0.0019071243934427105,0.2689092457294464,-23.61355972290039,19.553329467773438,17.94654083251953,0.8897806406021118,2.3732802867889404,-0.14735259115695953,,,,,,,,,
1739401206.0969431,-0.7073870334865892,0.6753805344873793,1.4187142889135187,-1.8794125955538463,-0.7093077000301782,1.9489839136684475,0.18613798799761616,7.093882407986863e-05,-0.0010844650008627588,0.00048670976964591817,-0.0002485573849847218,0.00042631231458266177,5.9127328953441355e-05,0.000723842619255524,0.2411382496356964,-23.63736343383789,19.553329467773438,17.94654083251953,0.8897806406021118,2.3604629039764404,-0.15376128256320953,,,,,,,,,
1739401206.1069531,-0.7073854019108775,0.6753816039599341,1.418714300687273,-1.879410972133443,-0.7093077634426218,1.9489839122148973,0.18613723033523424,0.0005470862588154769,-7.836411577339541e-05,0.0001283063558686307,0.0009537174871700829,-0.00046205956868274425,0.0005113806380847718,0.000993646776179172,0.2173345386981964,-23.61355972290039,19.553329467773438,17.92273712158203,0.8897806406021118,2.3604629039764404,-0.14735259115695953,,,,,,,,,
1739401206.1180167,-0.7073870065250432,0.6753805354500928,1.4187142889137152,-1.879409030307482,-0.7093041803000533,1.9489823978637495,0.18613564675661168,0.0005905232854484469,0.0002508194685491966,0.00018225916410484944,0.0008910211632115494,0.0009325802645126862,-0.00023605260012618447,0.0010302813240405271,0.2411382496356964,-23.63736343383789,19.553329467773438,17.89893341064453,0.8961893320083618,2.3732802867889404,-0.13361968100070953,,,,,,,,,
1739401206.1280468,-0.7073897300446755,0.6753834214420976,1.4187125059215608,-1.8794110514380695,-0.7093084193114345,1.9489839136684448,0.18613409145799245,0.0003589629716278228,0.0003441295180081146,-0.0007539477407188793,0.00045559955661154364,0.00024440759913432324,0.001151098980458537,0.0008999953138364173,0.2927129566669464,-23.63736343383789,19.577133178710938,17.92273712158203,0.8961893320083618,2.3604629039764404,-0.12080229818820953,,,,,,,,,
1739401206.1390104,-0.7073917149454026,0.6753824814144692,1.4187142086048594,-1.879411051404423,-0.7093099690561278,1.9489824877356563,0.18613253248180497,-0.0021306522219532113,0.00023069488748684713,-0.00024602708671722564,-0.00020330633927955648,-0.0009595561758247545,-0.0014805954942836677,0.0010904307869979949,0.2927129566669464,-23.63736343383789,19.553329467773438,17.92273712158203,0.8961893320083618,2.3604629039764404,-0.13361968100070953,,,,,,,,,
1739401206.149033,-0.7073890314333637,0.6753832873984396,1.4187146950066671,-1.8794092687274035,-0.7093084193441122,1.9489862556319304,0.1861311529265801,-0.0006861355827493366,0.0008789849902228618,-0.0005294324552058394,0.0007426591323117689,-0.00022331833019228147,0.0010688917619882951,-0.0001526224545843382,0.2689092457294464,-23.66513442993164,19.529525756835938,17.89893341064453,0.8961893320083618,2.3403213024139404,-0.08692778646945953,,,,,,,,,
1739401206.1599774,-0.7073907439856254,0.6753807634248349,1.418713369607892,-1.8794128340814418,-0.709306904669305,1.9489846713283043,0.18612821594864004,-0.000855614791174729,9.826697584374171e-05,-0.0023423544069665074,-0.0007165439312602306,-7.794897989264174e-05,0.0009718557945000907,-0.0017042570240528646,0.2927129566669464,-23.61355972290039,19.553329467773438,17.94654083251953,0.8833719491958618,2.3540542125701904,-0.07411040365695953,,,,,,,,,
1739401206.1709218,-0.70738703348703,0.6753787879269615,1.418720535550613,-1.8794092687274035,-0.7093091282491808,1.9489839136684475,0.18613024464162098,0.000338684410436435,-0.0005992568567488619,0.0007253779012705339,0.0010618686072707943,5.866683264335826e-05,0.00019371885545178336,-0.0005868915022235563,0.2411382496356964,-23.61355972290039,19.501754760742188,17.89893341064453,0.9035135507583618,2.3604629039764404,-0.08692778646945953,,,,,,,,,
1739401206.1819293,-0.7073880954142014,0.6753793340414642,1.418720297161061,-1.8794088701705847,-0.7093084723163843,1.9489839136684475,0.18613095258119103,-0.0006779415977056927,-0.0003992859625603894,-0.0003857091790257089,0.0003928393051839923,-0.00018717378339167602,-0.0006106000454512645,-0.0010398756851696662,0.2689092457294464,-23.61355972290039,19.501754760742188,17.92273712158203,0.8961893320083618,2.3604629039764404,-0.09425200521945953,,,,,,,,,
1739401206.192974,-0.7073870334817456,0.6753831747088662,1.4187210392697933,-1.879410049539261,-0.7093076621661579,1.9489846713285257,0.18612821643016603,-0.00016793263732244355,-8.072192072881086e-05,-1.3195824235207401e-05,-0.00030660833885583417,-6.401209197332243e-05,0.0004158396415272639,-0.0003973053535421586,0.2411382496356964,-23.63736343383789,19.501754760742188,17.94654083251953,0.8897806406021118,2.3540542125701904,-0.07411040365695953,,,,,,,,,
1739401206.2030232,-0.7073890313208849,0.6753823988110478,1.4187160843980795,-1.8794149138905711,-0.70930690401521,1.9489831559545339,0.1861404686069768,-0.00043068837759818214,0.0007990862832805351,-0.0004482670190001751,-0.001676333348903511,0.00026923537001904453,0.0002043308314849007,0.002328397466473639,0.2689092457294464,-23.63736343383789,19.529525756835938,17.97431182861328,0.8833719491958618,2.3668715953826904,-0.14735259115695953,,,,,,,,,
1739401206.213957,-0.7073849800724262,0.6753810006353403,1.418716444819313,-1.8794086147818065,-0.7093083800895074,1.9489831908935746,0.18613484913612524,0.0016797205881253512,-0.0004911598527485952,-0.0006359373483636363,0.00021832650348319412,-0.000582365011412322,-0.0003390699042577881,0.001458236066272587,0.2173345386981964,-23.63736343383789,19.553329467773438,17.92273712158203,0.8961893320083618,2.3668715953826904,-0.12721098959445953,,,,,,,,,
1739401206.2240334,-0.7073886921331997,0.6753813594786582,1.418710744483607,-1.8794103690733313,-0.7093084193346993,1.9489839093083876,0.18613491097316084,5.121791744035285e-05,-0.0004848182801597587,-0.001601648505450992,-0.0001932989109560832,-0.00043968797098235395,0.0005861554000759543,0.0001671522391687168,0.2689092457294464,-23.61355972290039,19.604904174804688,17.94654083251953,0.8961893320083618,2.3604629039764404,-0.10066069662570953,,,,,,,,,
1739401206.2349498,-0.7073870330571242,0.6753830703752817,1.418718154325625,-1.8794131784849115,-0.7093069040152074,1.9489839136684228,0.18613667305685933,0.0004215752357025177,0.0006846760139200313,0.0017664548731131074,-0.0006663351887619619,0.00045935888065988436,0.000969615146656438,0.0012928533825213718,0.2411382496356964,-23.66513442993164,19.501754760742188,17.94654083251953,0.8833719491958618,2.3604629039764404,-0.13361968100070953,,,,,,,,,
1739401206.2449813,-0.7073882349711466,0.675384479636534,1.4187125062365467,-1.8794110425799373,-0.7093068909332552,1.948983156008369,0.18613485059853757,0.0002514880804470516,0.0002511568926328936,-0.000987977470552744,0.0007260244219790713,0.0006080758456731745,0.0003228532166534015,0.0001805431300470013,0.2173345386981964,-23.66513442993164,19.577133178710938,17.92273712158203,0.8833719491958618,2.3668715953826904,-0.12721098959445953,,,,,,,,,
1739401206.255907,-0.7073842254624363,0.6753849123952593,1.41871428859858,-1.879410883525978,-0.7093087347768503,1.9489846713285257,0.1861332216601829,0.0010040006350374364,-0.00011380777982390039,0.0010471535010728355,0.00032924457918380277,-0.0013477738141158472,-0.00044278754430851497,-0.001030141389507587,0.2411382496356964,-23.68893814086914,19.553329467773438,17.94654083251953,0.8897806406021118,2.3540542125701904,-0.11347807943820953,,,,,,,,,
1739401206.265946,-0.7073870333324779,0.6753775269629593,1.4187106755262953,-1.879409031111583,-0.7093101756661047,1.9489846713285257,0.18613353416125764,0.00015092103748808971,-0.0026346703143997744,-0.0006118816558613517,0.0011936087911496745,-0.0013485499385463863,0.0006073372953302124,-0.0009038488062206785,0.2411382496356964,-23.58578872680664,19.577133178710938,17.89893341064453,0.8833719491958618,2.3540542125701904,-0.10706938803195953,,,,,,,,,
1739401206.2759879,-0.7073890311068874,0.6753772964644905,1.4187153817449614,-1.879412754604558,-0.7093076618942158,1.9489839136684475,0.18613596221626988,0.0005067000801807553,-0.0019796984392870553,0.0007983293585067007,-0.001188976102544391,0.00023777090019967408,0.0006706651036834471,0.002261486711198461,0.2689092457294464,-23.56198501586914,19.529525756835938,17.94654083251953,0.8897806406021118,2.3604629039764404,-0.13361968100070953,,,,,,,,,
1739401206.2860155,-0.7073890314278661,0.6753834215653801,1.4187159610129911,-1.8794128311339646,-0.7093070629609378,1.9489814924141378,0.1861366438215014,0.00024644400075338505,0.0009460461570962845,-0.000268227754536063,-0.00124858380261159,0.0007176898420702834,1.1097621458260618e-05,0.0017229583908369224,0.2689092457294464,-23.63736343383789,19.529525756835938,17.94654083251953,0.8833719491958618,2.3540542125701904,-0.14094389975070953,,,,,,,,,
1739401206.2969406,-0.707384280390186,0.6753788999217505,1.4187160714853482,-1.879408190381468,-0.7093076616755848,1.948984671322544,0.18613488860931038,0.000734700714380755,-0.00028557250224521633,-0.00022494133206546913,0.0014856573472599357,-0.0012036923560309136,0.0006389222683289658,0.00039734725746187196,0.2411382496356964,-23.61355972290039,19.529525756835938,17.92273712158203,0.8897806406021118,2.3540542125701904,-0.12721098959445953,,,,,,,,,
1739401206.3069854,-0.7073871143849848,0.6753786669882859,1.4187163109902587,-1.879411039582214,-0.7093092852325964,1.948984318115816,0.18613798799598136,9.54771726881368e-05,-0.0010107314695015346,0.0004262662849156326,0.0005980723973316253,-0.0004093872857420269,-0.00048637104472467664,0.001029837448806808,0.2411382496356964,-23.61355972290039,19.529525756835938,17.92273712158203,0.9035135507583618,2.3540542125701904,-0.15376128256320953,,,,,,,,,
1739401206.3170066,-0.7073853209676683,0.675381709355853,1.418718388858216,-1.8794128340812415,-0.7093076616752857,1.9489839135009603,0.18613675049554587,0.0009808608516836223,-0.0004234469957477956,0.0005675349776811216,-3.0543429103738065e-05,0.0010204133555621415,6.486110919371587e-05,0.0005659084122438679,0.2173345386981964,-23.61355972290039,19.501754760742188,17.94654083251953,0.8897806406021118,2.3604629039764404,-0.10706938803195953,,,,,,,,,
1739401206.3279283,-0.7073843849526172,0.675382377497445,1.4187140886599758,-1.8794110249134692,-0.7093061310330414,1.9489839136684466,0.1861370284832557,0.0016934534841865174,-0.0006474093676900716,-0.0013017138109156856,0.0005774283597032514,0.001114528213509321,0.0006885751721205462,0.0023054956420586275,0.2173345386981964,-23.66513442993164,19.529525756835938,17.92273712158203,0.8897806406021118,2.3604629039764404,-0.13361968100070953,,,,,,,,,
1739401206.3380692,-0.7073889534108909,0.6753770624465422,1.4187181513468095,-1.8794054022264783,-0.7093069041528102,1.9489846713285257,0.1861372303593109,-0.0002724013895310782,-0.0019912684765264243,-0.00040343552263576377,0.002323478969616477,-0.0008248564070748314,0.00040375253463949414,0.0015296003361106112,0.2689092457294464,-23.56198501586914,19.501754760742188,17.84735870361328,0.8833719491958618,2.3540542125701904,-0.14735259115695953,,,,,,,,,
1739401206.3490121,-0.7073899506004272,0.6753809797804273,1.4187160981178268,-1.8794110514043998,-0.7093119532097102,1.9489839136684475,0.1861285715254254,-0.00023652646177581619,0.0003674820372477581,-0.0009690078829346224,-0.00012159583553769405,-0.0020990019175317304,0.0003406815902435257,-0.0027780412930128798,0.2411382496356964,-23.61355972290039,19.529525756835938,17.92273712158203,0.8897806406021118,2.3604629039764404,-0.07411040365695953,0,0,0,0.000,0,0
1739401206.3599846,-0.7073853180938343,0.675383184704585,1.4187181518166052,-1.879408908435295,-0.7093078206452309,1.9489839130224254,0.18612771868356487,0.0010733467565960317,0.0007552889299634318,-0.00022092343115683364,0.0003004509688579132,0.000399148471744435,1.3062069664005783e-06,-0.0012508637173778286,0.2173345386981964,-23.63736343383789,19.501754760742188,17.92273712158203,0.8897806406021118,2.3604629039764404,-0.06678618490695953,0,0,0,0.000,0,0
1739401206.3700335,-0.707390509517155,0.6753838505636243,1.4187160710817999,-1.879412118789413,-0.7093078206236972,1.9489845143450883,0.1861303952840801,-1.394936801444582e-05,0.00024891818972484623,-0.00017719162518286733,-0.0006266503869464786,-0.000599135711200437,-3.341765651817814e-05,-0.0008533686602274887,0.2927129566669464,-23.61355972290039,19.529525756835938,17.94654083251953,0.8897806406021118,2.3540542125701904,-0.08051909506320953,0,0,0,0.000,0,0
1739401206.3809853,-0.7073924585029918,0.6753788230502281,1.4187147324577118,-1.8794110504192383,-0.7093058445960078,1.948984313754279,0.18613409146378584,-0.0016357103052058427,-0.0010410134550799081,-0.0009345582217473763,0.00031704432380821326,0.0010476467626764417,0.000211967855357815,-0.0001483602993505867,0.3165166676044464,-23.61355972290039,19.577133178710938,17.92273712158203,0.8833719491958618,2.3540542125701904,-0.12080229818820953,0,0,0,0.000,0,0
1739401206.3919969,-0.7073870333800435,0.6753834215490958,1.4187125059704666,-1.8794130633426487,-0.7093050354763604,1.9489850743203256,0.1861309701319186,0.0007967763215444757,-8.456459789798419e-05,-0.00035737887283124743,0.0006049278220739713,0.0016434296128748777,-0.0006671563529704366,-0.001400082170425271,0.2411382496356964,-23.63736343383789,19.577133178710938,17.94654083251953,0.8705545663833618,2.3476455211639404,-0.09425200521945953,0,0,0,0.000,0,0
1739401206.401997,-0.7073854857988943,0.6753882025637147,1.4187171385987687,-1.8794093452607064,-0.7093096428544832,1.9489846713225194,0.18612936997706403,8.988340443012927e-05,0.0015828491087623668,0.0001604862280713072,0.0005595573909592948,-0.001594875972967379,0.0007472810318200671,-0.0016447161711563684,0.2173345386981964,-23.66513442993164,19.553329467773438,17.89893341064453,0.9035135507583618,2.3540542125701904,-0.08051909506320953,0,0,0,0.000,0,0
1739401206.4129136,-0.7073890584103394,0.6753833048600413,1.4187142889296025,-1.879413752434919,-0.7093085051876942,1.9489846713285257,0.1861348491180763,-0.00022679912033654397,0.0001975748923036277,-0.0005891878149518019,-0.0015479600561952513,-0.0005232340428174076,0.0001505289121812299,0.0015522681684571186,0.2689092457294464,-23.66513442993164,19.553329467773438,17.94654083251953,0.8961893320083618,2.3540542125701904,-0.12721098959445953,0,0,0,0.000,0,0
1739401206.4229214,-0.7073870074871064,0.675383421565241,1.4187160678113047,-1.8794128337699452,-0.7093069040166613,1.9489839136684475,0.18613246790045604,0.0005563273690237987,7.065497085140249e-05,0.0006774978296727851,-0.000689879933220554,0.0007977493049960722,0.00026485433708361696,-0.000694359676098717,0.2411382496356964,-23.63736343383789,19.529525756835938,17.94654083251953,0.8833719491958618,2.3604629039764404,-0.10706938803195953,0,0,0,0.000,0,0
1739401206.4330056,-0.7073849187890137,0.6753797111394685,1.4187125062364327,-1.879411042994014,-0.7093076616752857,1.9489854285040875,0.18613258653640077,0.0011848972449275941,-0.0005371927119976952,-0.0004010984330538382,-0.00020936067414062832,0.00037671773154027003,0.00045754952074423595,-0.0009633272866541988,0.2411382496356964,-23.58578872680664,19.577133178710938,17.92273712158203,0.8897806406021118,2.3476455211639404,-0.10706938803195953,0,0,0,0.000,0,0
1739401206.443025,-0.7073892189548586,0.6753817004135289,1.4187142928381016,-1.8794127546084396,-0.7093085390352267,1.9489831500326542,0.18613012617621932,-0.0004737601395837604,-0.00012340026761584834,-0.0007569046351148829,0.00017107847892175557,-0.0007336881715686375,-0.00022978813456515142,-0.0007231667250267682,0.2411382496356964,-23.61355972290039,19.553329467773438,17.94654083251953,0.8961893320083618,2.3668715953826904,-0.08692778646945953,0,0,0,0.000,0,0
1739401206.4539127,-0.7073890314402195,0.6753817090802733,1.418718151275434,-1.8794121099949381,-0.7093069437523128,1.9489846713284922,0.1861353142359774,-0.00014129351918654406,5.677859537105125e-05,0.0009379264907539542,0.0009365977872862684,-0.00044182936262610983,0.0012607347962042053,0.0022866307307272678,0.2689092457294464,-23.61355972290039,19.501754760742188,17.94654083251953,0.8833719491958618,2.3540542125701904,-0.12721098959445953,0,0,0,0.000,0,0
1739401206.4639757,-0.7073897599290965,0.6753817090803222,1.4187160746429888,-1.87941105139216,-0.7093061860922317,1.9489831558468635,0.18613714694038686,-0.000395098672839151,0.0006194211358737658,0.00028354153889981014,-0.00024224727003532625,-0.00010614735427743704,-0.00027000976919137144,0.0030857898583528894,0.2689092457294464,-23.61355972290039,19.529525756835938,17.92273712158203,0.8769632577896118,2.3668715953826904,-0.13361968100070953,0,0,0,0.000,0,0
1739401206.4749455,-0.7073871385283165,0.6753797111394692,1.418716086503267,-1.8794100977301063,-0.709309363607129,1.9489848283119513,0.1861340915206327,0.00027663008119400593,-0.0015133649329367375,-0.00017453579083222248,0.0008795216227466298,0.0001781540335613486,0.0018451611495264673,0.0006976427712554968,0.2411382496356964,-23.58578872680664,19.501754760742188,17.92273712158203,0.8769632577896118,2.3540542125701904,-0.12080229818820953,0,0,0,0.000,0,0
1739401206.4849596,-0.7073869294872882,0.6753797111394692,1.4187160850510694,-1.8794118803909747,-0.7093085783355678,1.9489854289912627,0.18613415201296332,0.0007769460203893364,6.398321151907575e-05,-0.0003053997308152969,0.001300112282878304,-0.0009170085932530604,0.0008822642364395097,-0.0005208897801316987,0.2411382496356964,-23.58578872680664,19.501754760742188,17.94654083251953,0.8961893320083618,2.3476455211639404,-0.09425200521945953,0,0,0,0.000,0,0
1739401206.4959164,-0.7073887971028828,0.6753816744131489,1.4187182339303799,-1.8794102024960153,-0.7093080646700015,1.9489828027956593,0.1861360937753389,0.0001416332747542223,0.00010875093415749302,0.0008791700697077826,0.00046400882055501697,0.00039146075459087454,-0.0005154777840624213,-0.0002465251479644784,0.2689092457294464,-23.61355972290039,19.501754760742188,17.94654083251953,0.8961893320083618,2.3668715953826904,-0.10066069662570953,0,0,0,0.000,0,0
1739401206.5069513,-0.7073849274522791,0.6753831879240948,1.4187207641086756,-1.8794094981620824,-0.7093109995293868,1.9489846669618933,0.18613246813720657,0.0008275155909602044,0.0002146846688819612,0.0006686316282807408,-1.5358713189823426e-06,-0.000591814088020591,0.0007755052177005357,-0.00036004951040425666,0.2411382496356964,-23.63736343383789,19.477951049804688,17.89893341064453,0.8897806406021118,2.3540542125701904,-0.10706938803195953,0,0,0,0.000,0,0
1739401206.5169723,-0.7073907439010592,0.6753817100601496,1.4187142901214183,-1.8794127287366829,-0.7093104379629033,1.9489838744225663,0.1861296859059141,-0.00029868771947456294,0.00022321807355650062,-0.0002737161598158434,-0.0006463569227459739,-0.001678758528723772,-0.001162474123693395,-0.00024103099523411424,0.2927129566669464,-23.61355972290039,19.553329467773438,17.94654083251953,0.8769632577896118,2.3604629039764404,-0.08051909506320953,0,0,0,0.000,0,0
1739401206.5279708,-0.7073890314278821,0.6753818569430253,1.4187182311803057,-1.8794128339718308,-0.7093061464338634,1.948985428826877,0.18613171609293203,-0.00012301964006189165,0.0008457806510472198,0.00013263382614058758,-0.0008413358368307958,0.00029362140886658776,0.00036763986027848886,-0.00015550441738567566,0.2689092457294464,-23.58578872680664,19.501754760742188,17.94654083251953,0.8769632577896118,2.3476455211639404,-0.10066069662570953,0,0,0,0.000,0,0
1739401206.5390108,-0.7073890314278825,0.675383542855087,1.4187163907906195,-1.8794149138712966,-0.7093111670359026,1.9489814924141369,0.18613563166655805,-0.0007787672202905641,0.000369695068895442,0.0006069060586468107,-0.0004999890226070786,-0.0001603740003581068,-0.0005719291413351324,0.001392861587005348,0.2689092457294464,-23.61355972290039,19.529525756835938,17.97431182861328,0.8961893320083618,2.3540542125701904,-0.12080229818820953,0,0,0,0.000,0,0
1739401206.5499752,-0.7073890314278825,0.6753817179209917,1.4187142889153177,-1.8794149050409794,-0.7093069040307182,1.9489843174518486,0.186136781234756,-0.0010627992410470384,-0.0006746011203258167,-0.0010398855644456757,-0.0020362599579921473,-0.00030453329636152604,-0.0001332847459702851,0.0003774413553472147,0.2689092457294464,-23.61355972290039,19.553329467773438,17.97431182861328,0.8833719491958618,2.3540542125701904,-0.11347807943820953,0,0,0,0.000,0,0
1739401206.5599778,-0.7073862323806818,0.6753871320627873,1.4187160711706204,-1.879415704675159,-0.7093083813461821,1.9489839136624547,0.18613521914662054,0.0006087986570573697,0.0015742337751517646,0.00103059872502662,-0.0017311005855558245,-0.00018899020585231557,-0.0005026474047867817,0.0003473060572045726,0.2689092457294464,-23.68893814086914,19.529525756835938,17.97431182861328,0.8897806406021118,2.3604629039764404,-0.09425200521945953,0,0,0,0.000,0,0
1739401206.57095,-0.7073912167730602,0.6753841367141273,1.4187180748509676,-1.8794125268865025,-0.7093069040192699,1.9489839136684475,0.1861277538217813,-0.0011337063767958653,-0.0005790643097621108,0.00172660710275134,0.0011595084796150554,0.0006635506404157071,0.0004128880561987272,-0.0021527178311948744,0.2689092457294464,-23.63736343383789,19.501754760742188,17.97431182861328,0.8833719491958618,2.3604629039764404,-0.09425200521945953,0,0,0,0.000,0,0
1739401206.581025,-0.7073870326720965,0.6753834216131639,1.418714254899144,-1.879411127784403,-0.709308419335364,1.9489799247661723,0.18613622522545076,-0.00015386939076118334,0.0007588620388709383,-8.152627601216547e-05,0.0010300260102795679,0.0002874583180915814,-0.0010431355369147227,-0.000174436427907471,0.2411382496356964,-23.63736343383789,19.553329467773438,17.92273712158203,0.8961893320083618,2.3668715953826904,-0.12080229818820953,0,0,0,0.000,0,0
1739401206.5919783,-0.7073879359075571,0.6753810070700617,1.4187124297065004,-1.8794128340827352,-0.7093093382145028,1.948984671112299,0.18613263922739395,0.000896675666566641,-0.0007334747057741594,-0.0006933946410465123,0.00011371382199868472,-0.0002885490069171252,-0.0001861793516624836,8.516785244412975e-06,0.2927129566669464,-23.61355972290039,19.577133178710938,17.94654083251953,0.9035135507583618,2.3540542125701904,-0.10706938803195953,0,0,0,0.000,0,0
1739401206.6020327,-0.7073870228791035,0.6753833435959503,1.4187160706452953,-1.8794128340814418,-0.7093076616755848,1.9489846713285246,0.18613359406742636,0.0004718030418141651,-0.00045726198197437544,-6.0881867806702084e-05,0.000390976753670802,0.00031222138395729305,-0.0002121945543864697,-0.00027789917673417,0.2411382496356964,-23.63736343383789,19.529525756835938,17.94654083251953,0.8897806406021118,2.3540542125701904,-0.08051909506320953,0,0,0,0.000,0,0
1739401206.6129959,-0.7073860974732886,0.6753854194344686,1.4187142885985746,-1.8794129106108621,-0.7093077808845752,1.9489825008176085,0.18612932969712487,0.0016081304491009376,0.0008747872823268533,-0.000857737179085762,-0.0003437906228539635,0.0004124412073679321,-0.0010710300000215684,-0.0016643978339404466,0.2411382496356964,-23.66513442993164,19.553329467773438,17.94654083251953,0.8897806406021118,2.3604629039764404,-0.08051909506320953,0,0,0,0.000,0,0
1739401206.6249945,-0.7073890314225986,0.675384596594224,1.418720246389017,-1.8794135483564645,-0.7093083800901803,1.9489826850501137,0.18613012812439392,-0.0007471116167333629,0.00045231912155817245,0.0009918174599180538,-0.0007802426737578521,0.0004123714502256965,-0.00147411778018469,0.0002722795663858444,0.2689092457294464,-23.61355972290039,19.477951049804688,17.94654083251953,0.8961893320083618,2.3668715953826904,-0.08692778646945953,0,0,0,0.000,0,0
1739401206.6359344,-0.7073892189906711,0.6753817090966223,1.4187183986310505,-1.879414913875329,-0.7093048454578013,1.9489845143424407,0.18613729024060366,-0.00019244771829804948,0.0006459737546473678,3.83792792178826e-06,-0.0011591205801160067,0.0006805778490865015,-0.00010368018043442338,8.350410983070592e-05,0.2411382496356964,-23.61355972290039,19.501754760742188,17.97431182861328,0.8897806406021118,2.3540542125701904,-0.12080229818820953,0,0,0,0.000,0,0
1739401206.6469076,-0.7073870332811846,0.6753845691402944,1.418716071591,-1.8794090303088244,-0.7093084193300647,1.9489843181155206,0.1861365297961663,-0.00010148993908816917,0.0010323174429585765,0.00040715990627836294,0.0014894150158792615,-0.0013481616138193105,0.000469654874718972,0.0026669926574685284,0.2411382496356964,-23.61355972290039,19.529525756835938,17.89893341064453,0.8961893320083618,2.3540542125701904,-0.14094389975070953,0,0,0,0.000,0,0
1739401206.6570208,-0.7073907709301366,0.6753797118480586,1.4187160457657924,-1.8794109985880594,-0.7093084193353639,1.9489850245352538,0.18612734336849973,-0.001473475841178378,-0.00023825678536805916,2.6332221428250387e-05,4.7684424902475644e-05,0.0004463631484237898,0.0010598066915644452,-0.0025852619322289027,0.2927129566669464,-23.58578872680664,19.529525756835938,17.92273712158203,0.8961893320083618,2.3540542125701904,-0.06037749722599983,0,0,0,0.000,0,0
1739401206.668018,-0.7073906399842576,0.6753817087593339,1.4187181516023148,-1.879413963975913,-0.7093084252222425,1.9489846713305197,0.18613552646738601,-0.0005994844403817785,0.001003777596121301,0.0006113158337274074,-0.0001833942685831127,0.0005669700390577889,0.0004480950102180039,0.00027387633343555677,0.2927129566669464,-23.61355972290039,19.501754760742188,17.97431182861328,0.8961893320083618,2.3540542125701904,-0.12080229818820953,0,0,0,0.000,0,0
1739401206.6780493,-0.7073870734579005,0.6753817090803168,1.4187202936954244,-1.8794128075744019,-0.7093084538995955,1.9489854289886044,0.18613326507597963,6.607055453428887e-05,0.00030767341390006326,0.0009894962433361252,0.00028374062249970905,-0.0009638888681458508,0.0005084510179002352,-0.0013302581584643987,0.2411382496356964,-23.61355972290039,19.501754760742188,17.94654083251953,0.8833719491958618,2.3476455211639404,-0.11347807943820953,0,0,0,0.000,0,0
1739401206.6889424,-0.7073907452812603,0.6753824243360596,1.4187188930341958,-1.8794106883140802,-0.7093081365831261,1.9489831560083692,0.18613410462170424,-0.0012488697986538558,0.0005259000060612642,0.0017693356523748429,-0.000619178537099758,-0.0006226336095668372,-0.00015911452658451988,-0.00016323044752244282,0.2927129566669464,-23.61355972290039,19.501754760742188,17.94654083251953,0.8897806406021118,2.3668715953826904,-0.12080229818820953,0,0,0,0.000,0,0
1739401206.6999383,-0.7073853209663058,0.675383421605091,1.4187160630914528,-1.8794135237789205,-0.7093104788975326,1.9489850757758944,0.18613322556060868,0.0004903555896729832,0.0004856208773593408,0.0005033531866722517,-0.0010091219415701938,-0.000704697570385885,0.000586162450780887,-0.00020110226344540903,0.2173345386981964,-23.63736343383789,19.529525756835938,17.94654083251953,0.8833719491958618,2.3476455211639404,-0.11347807943820953,0,0,0,0.000,0,0
1739401206.710909,-0.7073870334870295,0.675379477136049,1.4187161510633466,-1.8794128680984108,-0.7093068982211866,1.948984671326532,0.18613095306784433,0.0008635942420971447,-0.0009450902904729033,0.00043317247052224346,-0.0006035114205318027,0.00047765338654055594,0.0003436628325740802,-0.000555394504438158,0.2411382496356964,-23.58578872680664,19.529525756835938,17.94654083251953,0.8833719491958618,2.3540542125701904,-0.09425200521945953,0,0,0,0.000,0,0
1739401206.7209902,-0.7073890314278825,0.6753817090684335,1.418718151384428,-1.87941283408317,-0.7093084208067892,1.948983156008369,0.18612457097658044,0.0001175391818589688,-0.00020204798843718023,0.0014256105862534376,-0.00011163020909158916,-0.00046542925920770484,0.0003633157936899457,-0.003230102714607305,0.2689092457294464,-23.61355972290039,19.501754760742188,17.94654083251953,0.8961893320083618,2.3668715953826904,-0.04023589566349983,0,0,0,0.000,0,0
1739401206.7319837,-0.7073890314278825,0.6753833435999133,1.418714288913516,-1.879412834128099,-0.7093092853052767,1.9489839136684475,0.1861376866773422,-0.0006597561376195642,-2.1938125183621843e-05,9.919198658932661e-05,0.0005566956586732537,0.0004310908646277471,0.0008677230027011203,0.0009150280976206392,0.2689092457294464,-23.63736343383789,19.553329467773438,17.94654083251953,0.9035135507583618,2.3604629039764404,-0.14735259115695953,0,0,0,0.000,0,0
1739401206.7429848,-0.7073900027628343,0.675381264059644,1.41871428859858,-1.8794089059521468,-0.7093076616752861,1.9489823981329502,0.18613012617678626,-0.0016878232576060179,-0.0009726140894020408,-1.896659899747275e-05,0.0010220393977482976,-0.000455838219506489,-0.00017880576409066848,-0.0016563123980441836,0.2689092457294464,-23.63736343383789,19.553329467773438,17.92273712158203,0.8897806406021118,2.3732802867889404,-0.08692778646945953,0,0,0,0.000,0,0
1739401206.7529914,-0.7073869824838654,0.6753824855508342,1.4187143154044637,-1.879411051368089,-0.7093076616752857,1.948983913668444,0.18613334403463294,0.0002268877380705217,-0.0009332505599765843,-0.0004555013964208289,0.00036768256470254013,0.0001483472101457483,-4.043722516089318e-05,0.0003015601718277076,0.2411382496356964,-23.63736343383789,19.553329467773438,17.92273712158203,0.8897806406021118,2.3604629039764404,-0.11347807943820953,0,0,0,0.000,0,0
1739401206.7639728,-0.7073853210764696,0.6753834215852013,1.4187142889139646,-1.879413117698774,-0.7093084325808406,1.9489831555238524,0.18613096574602014,0.0009930966014267588,0.0007507121539442268,-0.0008502373106093854,0.0001435097256359765,-0.0006756618823834295,-0.000464741744172774,-0.00024554563043993974,0.2173345386981964,-23.63736343383789,19.553329467773438,17.92273712158203,0.8961893320083618,2.3668715953826904,-0.09425200521945953,0,0,0,0.000,0,0
1739401206.774907,-0.7073907343188435,0.6753813155346055,1.4187122226074995,-1.8794110513961977,-0.7093076616573656,1.9489846713285248,0.18612857282557,-0.0006045473817002838,-1.9822878827396233e-05,0.0004481438097845337,0.0004772152291366815,-0.00014631081462749315,0.0008070866083034513,-0.002915351057892871,0.2927129566669464,-23.63736343383789,19.553329467773438,17.92273712158203,0.8897806406021118,2.3540542125701904,-0.07411040365695953,0,0,0,0.000,0,0
1739401206.7859812,-0.7073890314277194,0.6753779981550817,1.4187202971126092,-1.8794091627635903,-0.7093076616752854,1.9489846713285257,0.18613647267518063,5.4030299953193003e-05,-0.0011502088655464995,0.0015337408940451877,0.0006263465768262456,-0.0004712508707444189,0.0007199065553562234,0.0006090447854136271,0.2689092457294464,-23.56198501586914,19.501754760742188,17.89893341064453,0.8897806406021118,2.3540542125701904,-0.14094389975070953,0,0,0,0.000,0,0
1739401206.7960198,-0.7073907439486137,0.675383586176938,1.4187142921961167,-1.8794149003751957,-0.7093110010071128,1.948983038270799,0.18613246790045604,-0.0009117366095862183,-4.109261582417009e-05,-0.0002934093391586352,-0.0016664558342696163,-0.001121296102964753,-0.00048257597409153904,-0.0008450867750696038,0.2927129566669464,-23.61355972290039,19.553329467773438,17.94654083251953,0.8897806406021118,2.3668715953826904,-0.10706938803195953,0,0,0,0.000,0,0
1739401206.8070087,-0.7073920263773174,0.6753797111864042,1.4187132907066746,-1.8794092687740607,-0.709308435615808,1.9489831560077044,0.18613328406593177,-0.0016543395314450324,-0.0007011747896689118,-0.00011207291331931973,-0.0003413531733705654,-0.0012233011801376771,-0.00030134830466161245,-0.0002783212578022602,0.2689092457294464,-23.58578872680664,19.529525756835938,17.89893341064453,0.8961893320083618,2.3668715953826904,-0.11347807943820953,0,0,0,0.000,0,0
1739401206.817943,-0.7073891393708948,0.6753817090803225,1.4187170249342174,-1.8794110514044229,-0.7093084194451451,1.9489839136684475,0.18613240348195234,-0.0015575506153319516,0.0009836529732884904,-2.4704200233338115e-05,0.00019859399023986951,0.0013332450120350722,0.0011083619492702622,-0.0019111302906466036,0.2689092457294464,-23.61355972290039,19.529525756835938,17.92273712158203,0.8961893320083618,2.3604629039764404,-0.08051909506320953,0,0,0,0.000,0,0
1739401206.8279788,-0.7073907439504417,0.6753834216010534,1.418720013873463,-1.8794082355802273,-0.7093098895832703,1.9489839001019786,0.18613549420709968,-0.001323605773232419,0.0012063905821805769,0.0009186091220171864,0.0008295103155235085,-0.0016724672906402239,-0.00014772092404784025,-0.0006763423534016536,0.2927129566669464,-23.63736343383789,19.477951049804688,17.89893341064453,0.8961893320083618,2.3604629039764404,-0.13361968100070953,0,0,0,0.000,0,0
1739401206.838943,-0.7073870334870295,0.6753827195907927,1.418718924110666,-1.8794107305637124,-0.7093076638094025,1.948983154231731,0.18613294179353954,0.0002722999296303638,0.0005214511234335531,0.00032767946562068957,0.00018212937695587686,5.31695297226534e-05,-0.001243731512210569,5.886242334074171e-06,0.2411382496356964,-23.63736343383789,19.529525756835938,17.92273712158203,0.8897806406021118,2.3668715953826904,-0.10706938803195953,0,0,0,0.000,0,0
1739401206.8509676,-0.7073870334870295,0.6753797111355062,1.4187124977493304,-1.8794128369140535,-0.7093075046918712,1.9489839136684375,0.18613358098349872,-0.00044919628233170057,-0.00032265509622354924,-0.0011402949358518249,-9.969712183972737e-05,0.001252000406531965,0.0008577919978304727,0.0009402192342919313,0.2411382496356964,-23.58578872680664,19.577133178710938,17.94654083251953,0.8897806406021118,2.3604629039764404,-0.11347807943820953,0,0,0,0.000,0,0
1739401206.8609872,-0.7073869988198561,0.675381706191391,1.4187145625133466,-1.8794112811326715,-0.7093061993361492,1.9489862948858365,0.18613967292240013,-0.0005126987610415446,7.902053896079636e-06,-0.00039047590446062417,6.161001028127667e-05,-0.00020715180694472554,0.0016269597174799143,0.0018908746705776464,0.2411382496356964,-23.61355972290039,19.553329467773438,17.92273712158203,0.8769632577896118,2.3403213024139404,-0.14094389975070953,0,0,0,0.000,0,0
1739401206.8710089,-0.7073867994830221,0.6753790091291595,1.4187142889181492,-1.8794083150569776,-0.7093069040161045,1.9489828540303182,0.18613258805323216,-0.00042863135549430154,-0.0016369004825008144,-0.0003049781844701524,0.0009323871457590496,0.0003345211071121215,-0.00010583854151955046,-0.0009029649506468591,0.2411382496356964,-23.58578872680664,19.553329467773438,17.89893341064453,0.8833719491958618,2.3604629039764404,-0.10706938803195953,0,0,0,0.000,0,0
1739401206.881033,-0.7073852400722641,0.6753834215891646,1.4187142477053665,-1.879411051388272,-0.7093053891856238,1.9489839136505025,0.1861326506689609,0.0014352908440220962,-0.0001188834818151484,0.0004120974295630736,-0.0004493092462530984,0.0017006285826249388,0.0007675244655097412,-0.001364779474392976,0.2173345386981964,-23.63736343383789,19.553329467773438,17.92273712158203,0.8705545663833618,2.3604629039764404,-0.08051909506320953,0,0,0,0.000,0,0
