IITGN-Robotics/Franka_IITGN_ROBOTICS/franka_ros/franka_iitgn/data/b_18.csv
time,fr3_joint1_pos,fr3_joint2_pos,fr3_joint3_pos,fr3_joint4_pos,fr3_joint5_pos,fr3_joint6_pos,fr3_joint7_pos,fr3_joint1_vel,fr3_joint2_vel,fr3_joint3_vel,fr3_joint4_vel,fr3_joint5_vel,fr3_joint6_vel,fr3_joint7_vel,fr3_joint1_eff,fr3_joint2_eff,fr3_joint3_eff,fr3_joint4_eff,fr3_joint5_eff,fr3_joint6_eff,fr3_joint7_eff,flexpin1,flexpin2,flexpin3,Force,ContactMic,ContactMic_gt
1739401233.4975142,-0.7073109333292594,0.6749109518650855,1.4186064522760955,-1.8794525104124435,-0.7089572498016088,1.94923016062472,0.18591067145428644,-0.00011647220713848326,0.0001587663532316055,0.0003562890630206788,0.0003367786422851968,-0.001462571469115383,0.0001376260062816814,0.0011038131895589397,0.2927129566669464,-23.68893814086914,19.501754760742188,17.92273712158203,1.0866190195083618,2.3870131969451904,-0.10066069662570953,,,,,,,,,
1739401233.5076115,-0.7073092208085282,0.6749055540641722,1.4186120974199752,-1.87945245970762,-0.7089561430233727,1.9492308390020212,0.18591355005586158,-0.00045384867679234197,-0.001776687860147523,0.0017305716915883322,-0.0005775410405557363,0.001008718500009843,0.0006099631197515732,0.0009192078502671872,0.2689092457294464,-23.61355972290039,19.426376342773438,17.92273712158203,1.0664774179458618,2.3540542125701904,-0.16108550131320953,,,,,,,,,
1739401233.5185564,-0.7073110113303994,0.6749072528492948,1.4186103150578921,-1.8794498613818431,-0.7089579025050173,1.949234057107766,0.185910975238471,-0.0008299637384666587,-0.0008008560544861671,0.0008128324609646185,5.507822758198046e-05,0.00026301630947890467,0.000652645813335846,-0.0005259363139767826,0.2927129566669464,-23.63736343383789,19.450180053710938,17.89893341064453,1.0930277109146118,2.3540542125701904,-0.12721098959445953,,,,,,,,,
1739401233.5305681,-0.7073127965264502,0.6749074804930081,1.418603633608952,-1.8794511851968925,-0.7089563346893405,1.9492325403885589,0.18591271629709236,0.0002008985824209382,-0.00014720024693888102,-0.001857297622780066,-0.0007253362348988745,0.0014014760960585747,0.0006215032194904402,0.0005902652956439838,0.2927129566669464,-23.63736343383789,19.529525756835938,17.92273712158203,1.0802103281021118,2.3668715953826904,-0.15376128256320953,,,,,,,,,
1739401233.5415108,-0.7073109336537576,0.6749018171605313,1.418608246289402,-1.8794525360830083,-0.7089599907075679,1.9492325418421064,0.18591432089656917,-0.00034785985963550254,-0.0017271802834477213,0.0021121215875707314,-2.6302530919978682e-05,-0.0006184625271255115,0.0001943872133378062,0.0008019360078496819,0.2927129566669464,-23.56198501586914,19.477951049804688,17.92273712158203,1.0738016366958618,2.3668715953826904,-0.16749419271945953,,,,,,,,,
1739401233.5525432,-0.7073109333292649,0.674911043219356,1.4186064248041736,-1.8794525096775905,-0.7089594778645055,1.9492317841820308,0.18591519666211168,-0.0002013669641811759,0.0005593043624808052,1.857516223363495e-05,-0.0005766523958013979,-0.001957447502888495,3.490786660608204e-05,0.002193483170978879,0.2927129566669464,-23.68893814086914,19.501754760742188,17.92273712158203,1.0664774179458618,2.3732802867889404,-0.17390288412570953,,,,,,,,,
1739401233.5635886,-0.7073091938270017,0.6749072404215146,1.4186064482059857,-1.8794517071993406,-0.7089572495570509,1.9492332995021875,0.18591356323712185,0.0005804260786310337,0.00026322532134108597,0.0006583107685316792,-4.3899053764032744e-05,0.00016273976386729615,0.0006243400350139157,0.0006255195521700681,0.2689092457294464,-23.63736343383789,19.501754760742188,17.89893341064453,1.0866190195083618,2.3604629039764404,-0.16108550131320953,,,,,,,,,
1739401233.5745182,-0.7073069273787299,0.6749137701641088,1.4186043724736568,-1.8794484576326909,-0.7089563498531173,1.949232541842109,0.18591269733922278,0.0016678661554177722,0.002161713349810571,-0.0006205822445799543,0.0005862681174592878,0.0013578702364604824,0.0006730836978941442,0.000534878804402932,0.2689092457294464,-23.71670913696289,19.529525756835938,17.89893341064453,1.0802103281021118,2.3668715953826904,-0.15376128256320953,,,,,,,,,
1739401233.5845838,-0.7073055103081045,0.6749092498224678,1.4186025898092067,-1.8794524242910862,-0.7089557354484523,1.9492317841820308,0.18590718161864403,0.0019446072632680594,0.00011911427121654675,4.4503782626279745e-05,4.168051136403992e-05,0.0013895304267362632,0.00021664993557195912,-0.0013551433954034514,0.2173345386981964,-23.66513442993164,19.553329467773438,17.92273712158203,1.0738016366958618,2.3732802867889404,-0.10706938803195953,,,,,,,,,
1739401233.595521,-0.7073104603463481,0.6749119042300431,1.418604372486226,-1.8794554799292051,-0.7089605775871479,1.9492332980486373,0.18591670211399663,0.0003056046906978893,0.0006782481585155125,0.0015731495244342938,0.00039811602936097427,0.0005253377477439078,0.001122505015858395,0.0027424224946992898,0.3165166676044464,-23.68893814086914,19.529525756835938,17.97431182861328,1.0802103281021118,2.3604629039764404,-0.18763579428195953,,,,,,,,,
1739401233.605544,-0.7073109331688754,0.6749094795475528,1.4186007936366845,-1.8794563983839383,-0.70896173714822,1.9492278476075564,0.18591193967914443,-0.000502084670883815,-0.001056854488541909,0.0003858049605302376,0.00010461266844728512,-0.002518009996044399,-0.0005743393075386134,0.00010532671855509627,0.2927129566669464,-23.66513442993164,19.604904174804688,17.97431182861328,1.0866190195083618,2.3796889781951904,-0.14735259115695953,,,,,,,,,
1739401233.6165879,-0.7073112458947282,0.6749109862079369,1.4186000655254687,-1.8794563987040553,-0.7089602734239959,1.94923318106476,0.18591158752934325,-0.00014182937259834348,0.0003804534766507227,0.0003143628399712994,-0.00035306709315496073,-0.00044437391728858805,-0.00020505904579436505,-0.0009324067979197868,0.2689092457294464,-23.68893814086914,19.577133178710938,17.97431182861328,1.0866190195083618,2.3604629039764404,-0.14735259115695953,,,,,,,,,
1739401233.6285775,-0.7073092211452197,0.6749131231771468,1.418606369858387,-1.8794506773577955,-0.7089586076754626,1.949234057162043,0.18590566192354693,-0.0007077715633492531,0.0004640695218636083,0.0009838260018615833,0.00041043580727457874,0.0008387265327898025,0.0007833802402629523,-0.001784845427018466,0.2689092457294464,-23.68893814086914,19.501754760742188,17.89893341064453,1.0994364023208618,2.3540542125701904,-0.09425200521945953,,,,,,,,,
1739401233.638602,-0.7073093535664181,0.6749103874900046,1.418602090622493,-1.8794525349770126,-0.7089580936076216,1.9492298186097488,0.18590870625809586,0.00017334160376770579,0.0003282667237307327,-0.00031354163597134056,-0.0003605638182966074,0.0007008869756496032,0.00024443437138610934,-0.000553100848500325,0.2411382496356964,-23.53818130493164,19.450180053710938,17.92273712158203,1.0014749765396118,2.3540542125701904,-0.10706938803195953,,,,,,,,,
1739401233.6495836,-0.7073052356790563,0.6749385995035999,1.4185939234009362,-1.8794469134191065,-0.7089578907234101,1.9492219176337209,0.18591474391871957,0.0005565785697025142,0.0017559709793306866,-0.0006450953007860079,0.0010164612332101155,-0.0010733835572350617,-0.0012700360929927977,-0.00022432755106919564,0.1697271168231964,-23.56198501586914,19.374801635742188,17.87512969970703,0.9227396249771118,2.3339126110076904,-0.10066069662570953,,,,,,,,,
1739401233.6595967,-0.7073090975699007,0.6749475980931051,1.4185813776077487,-1.8794563985995307,-0.7089593006291122,1.9492131768135124,0.18591751189931952,0.00045420456054120047,0.001129325839944171,-0.0010841574963640617,-0.0008666611467693298,-0.00183885625722958,4.788334421540431e-05,0.00011291254014829556,0.1935308277606964,-23.45883560180664,19.374801635742188,17.97431182861328,0.9035135507583618,2.3275039196014404,-0.11347807943820953,,,,,,,,,
1739401233.6696312,-0.7073100857280326,0.6749604048410793,1.418566489624339,-1.8794568090638075,-0.7089616493825374,1.9492044704780787,0.18591646945751042,0.0001827698087843552,0.001383537509349966,-0.000626659470847608,-0.000265812968833861,-0.0015550960592784603,-0.0005907681918796543,-0.000727866659848502,0.1935308277606964,-23.45883560180664,19.374801635742188,17.94654083251953,0.9099222421646118,2.3604629039764404,-0.06037749722599983,,,,,,,,,
1739401233.680628,-0.7073117957525222,0.6749737391370653,1.4185499791595815,-1.8794535737981504,-0.7089647546601183,1.9492029200504035,0.18592859670694944,0.000838071283232565,0.0017347054475278633,-0.002622273558478919,0.0009513070079008293,-0.0014405923556529,-0.0011211029908758496,0.002820125561613513,0.2173345386981964,-23.51041030883789,19.450180053710938,17.92273712158203,0.9099222421646118,2.3604629039764404,-0.12721098959445953,,,,,,,,,
1739401233.6915987,-0.7073147958619329,0.6749817465526249,1.4185449830831345,-1.879457511025419,-0.7089679344184608,1.949195730711927,0.1859274661409508,-3.448553078138939e-05,0.0009191497516563044,-0.0010390705966257302,0.0009972759253357275,-0.0014557125057977273,-0.0006613613248538427,0.0003514265448813222,0.2173345386981964,-23.56198501586914,19.426376342773438,17.94654083251953,0.9035135507583618,2.3540542125701904,-0.08051909506320953,,,,,,,,,
1739401233.7025313,-0.7073146134788216,0.6749907358702752,1.4185377687776288,-1.8794529082847327,-0.7089633079727671,1.9491973351128828,0.185929509724174,-0.00017639251928055198,0.001958951832659851,-0.0002639862550620597,0.0003713596787606458,8.037427419902305e-05,-0.0006138281283571676,0.0013360925539159202,0.2411382496356964,-23.58578872680664,19.450180053710938,17.89893341064453,0.8961893320083618,2.3403213024139404,-0.12080229818820953,,,,,,,,,
1739401233.7145221,-0.7073190438004683,0.6750104662187452,1.418526811797435,-1.8794514790029198,-0.7089625350594649,1.9491967316247254,0.18592449008216794,-0.0005916771557432272,0.004023646327386959,-0.00046958601338359173,-0.00044809847116928004,-1.356568224587817e-05,0.00015378249985797488,-0.00034422161574777245,0.2927129566669464,-23.74051284790039,19.501754760742188,17.89893341064453,0.8897806406021118,2.3540542125701904,-0.08692778646945953,,,,,,,,,
1739401233.7245893,-0.7073208159003144,0.6750153738956899,1.4185075377546281,-1.879458651456666,-0.7089641743392581,1.949194157910407,0.18593275599424952,0.0011122729823781336,0.0011327769312365827,-0.002109037794110012,-0.0018443693581582485,0.0007282894402350893,2.629791697198792e-05,0.0014793074255818556,0.2927129566669464,-23.68893814086914,19.628707885742188,17.97431182861328,0.9035135507583618,2.3668715953826904,-0.12080229818820953,,,,,,,,,
1739401233.7346008,-0.7073275062449567,0.6750242696072194,1.418496804928014,-1.8794596139590167,-0.7089657296964241,1.9491926404847197,0.18592402917754336,-0.001282907808670368,0.002496153490884031,-0.0017014857344644088,0.0002942182151931199,0.001671210664541507,-2.46031213894883e-07,-0.0018087837531040106,0.3165166676044464,-23.74051284790039,19.604904174804688,17.97431182861328,0.8897806406021118,2.3796889781951904,-0.07411040365695953,,,,,,,,,
1739401233.7446015,-0.7073239314291032,0.6750315502270895,1.4184892498681758,-1.8794581858622001,-0.7089678641497288,1.9491885825911115,0.18592962293700366,0.00018333778771674534,0.0006982155792419135,0.0002107608029856298,0.0001833381539851733,-0.0006605659228151198,-0.002454181592185088,0.00016675565983760885,0.2927129566669464,-23.71670913696289,19.656478881835938,17.97431182861328,0.9035135507583618,2.3870131969451904,-0.09425200521945953,,,,,,,,,
1739401233.7555666,-0.707322681103072,0.6750361535756246,1.4184829285147618,-1.8794586636724815,-0.7089637852274242,1.9491923213196911,0.18592637587678748,0.0012089844551468364,0.0011239277817058576,-0.000935567288371038,-3.8283737769101195e-05,0.001520185890704478,0.0008856067709429626,-0.0038685644927036627,0.2689092457294464,-23.74051284790039,19.656478881835938,17.97431182861328,0.8961893320083618,2.3540542125701904,-0.06678618490695953,,,,,,,,,
1739401233.7656507,-0.7073220852673537,0.6750336918069422,1.4184844079434977,-1.8794521895178156,-0.7089675484562565,1.9491949591890478,0.1859303821095802,0.0004387245759195441,0.0005464769922884324,0.00023421157211540834,0.00082549223246228,-0.00019786256054285577,0.000700084598803978,-0.0014481816294680337,0.2411382496356964,-23.68893814086914,19.553329467773438,17.87512969970703,0.8961893320083618,2.3476455211639404,-0.10066069662570953,,,,,,,,,
1739401233.7765498,-0.7073236897337783,0.6750358783907655,1.418482639384482,-1.8794575493387802,-0.7089629055260663,1.9491912566846117,0.18592611577003554,4.4855992103922564e-05,-5.720063624753923e-05,0.0003817052660938423,8.78250875860224e-05,0.001553925383798555,-0.0002580608877326342,0.0003287635811948689,0.2927129566669464,-23.68893814086914,19.577133178710938,17.94654083251953,0.8897806406021118,2.3540542125701904,-0.10066069662570953,,,,,,,,,
1739401233.7866507,-0.7073237002789828,0.6750332639294899,1.4184899793393542,-1.879458527235391,-0.708964528042581,1.9491936266377923,0.18593320340493963,0.0001449744195816853,-0.0010681827520487202,0.0017043162689289282,0.00019950381652577458,-0.0001857739456020834,0.000738687654659114,0.0008191400179042724,0.2927129566669464,-23.61355972290039,19.477951049804688,17.99811553955078,0.9035135507583618,2.3668715953826904,-0.12721098959445953,,,,,,,,,
1739401233.797606,-0.7073236887589723,0.6750332665462964,1.4184842518126664,-1.8794596173386617,-0.7089655950871139,1.949190800954058,0.18593763668658086,0.00014930783554585505,0.0004523076165153055,-0.0020137387948850204,0.0005408891547432405,0.000582592316304648,0.0012030569458276606,0.0011953335659285248,0.2927129566669464,-23.61355972290039,19.553329467773438,17.97431182861328,0.9035135507583618,2.3668715953826904,-0.13361968100070953,,,,,,,,,
1739401233.8086298,-0.7073240909000857,0.6750285475533412,1.4184927684096131,-1.8794575375286844,-0.7089662592812506,1.9491901457473462,0.1859343422999861,0.0008954081907681326,-0.001354916798896894,0.0006719707165264186,0.00024701546277160723,-0.0010545558106877216,-0.0007279696433151416,0.0009483381014532903,0.2689092457294464,-23.58578872680664,19.477951049804688,17.94654083251953,0.8897806406021118,2.3604629039764404,-0.10706938803195953,,,,,,,,,
1739401233.8196027,-0.7073229136547612,0.6750256044843587,1.418496938410094,-1.8794540786108629,-0.7089665055198975,1.9491925269567596,0.1859367098536297,0.0006324491851203977,-0.001089310564023413,-2.4610076788393728e-05,0.0005749646028839379,0.0015162124292555405,-0.0004022228942935864,0.0016513118555408083,0.2689092457294464,-23.53818130493164,19.426376342773438,17.89893341064453,0.8961893320083618,2.3403213024139404,-0.12721098959445953,,,,,,,,,
1739401233.8305218,-0.7073241992224614,0.6750286510520006,1.4184953941533902,-1.8794502821859338,-0.7089678787032787,1.9491917787970972,0.1859288752176862,-0.0004986090079202405,0.0010656006610830408,-0.0007625827546574881,-0.0002958769137929448,-7.924974938603818e-05,0.0006777044679578078,-0.0017001229176977818,0.2689092457294464,-23.56198501586914,19.450180053710938,17.87512969970703,0.9035135507583618,2.3476455211639404,-0.08692778646945953,,,,,,,,,
1739401233.8405385,-0.7073227902992525,0.6750251452857328,1.4184981023395369,-1.8794498672596283,-0.7089647041403925,1.9491915585922035,0.18593569591512438,0.0002817825929588186,-0.0007966235690142073,0.001000277149351521,0.0010284761361639217,0.000895128518238867,0.0005583783955131742,0.0012575075890834445,0.2411382496356964,-23.53818130493164,19.450180053710938,17.84735870361328,0.9035135507583618,2.3604629039764404,-0.13361968100070953,,,,,,,,,
1739401233.850582,-0.7073228220874698,0.675027446048068,1.4184969443485775,-1.8794585832224497,-0.7089685502075634,1.9491912577292354,0.1859355655907279,-0.0001694421542844523,0.0002378906617907531,0.0005832989356788266,-0.002350754216155697,0.0008372332450785261,0.0012012305691405567,0.002130104935410398,0.2411382496356964,-23.56198501586914,19.426376342773438,17.97431182861328,0.8833719491958618,2.3604629039764404,-0.10706938803195953,,,,,,,,,
1739401233.8606293,-0.7073265357595159,0.6750294349266056,1.4184953642830012,-1.8794564658085748,-0.7089653584532256,1.9491893924587744,0.18592928418861956,-0.0011062469491698542,0.000820779404573159,0.0009501393619149607,0.00015520287579812544,0.00036933424181026227,-0.0009623010222671269,-0.00019478161435519344,0.2927129566669464,-23.56198501586914,19.450180053710938,17.94654083251953,0.9035135507583618,2.3668715953826904,-0.08692778646945953,,,,,,,,,
1739401233.8716388,-0.707321112459785,0.6750333794279356,1.418495939803505,-1.8794554247806932,-0.7089638188064408,1.9491925284103346,0.18593034308815978,0.000436865269267479,0.00046477781805115794,6.828279829331926e-05,0.0006807328609597704,0.0024681006097056874,-0.0002070964591180166,-0.0007841993042781529,0.2173345386981964,-23.61355972290039,19.477951049804688,17.92273712158203,0.8961893320083618,2.3403213024139404,-0.06037749722599983,,,,,,,,,
1739401233.8825853,-0.7073251004370834,0.6750312608797733,1.4184862316812727,-1.8794539717730565,-0.708967318968076,1.9491901457393785,0.18593818447985502,-0.00014844652114165484,0.00032520435464646855,-0.0020573163744319017,-0.0006803848073231652,0.0011381175773637398,-0.0006841678381766634,-5.865145370463035e-05,0.2689092457294464,-23.61355972290039,19.529525756835938,17.89893341064453,0.8897806406021118,2.3604629039764404,-0.12721098959445953,,,,,,,,,
1739401233.8926063,-0.7073251265813003,0.6750323651645619,1.4184856509079367,-1.8794547655653604,-0.7089688588955847,1.9491901457393705,0.18593186740874956,-0.0010556659619772699,-0.0009955146867901231,-0.0015745081708796636,0.0005674366480575742,9.330747895508338e-05,-0.0005467134404058728,-0.0033398325925449975,0.2689092457294464,-23.61355972290039,19.577133178710938,17.92273712158203,0.9035135507583618,2.3604629039764404,-0.07411040365695953,,,,,,,,,
1739401233.9035287,-0.7073211127824898,0.6750333766415976,1.418487123248617,-1.879459608518976,-0.7089680768132234,1.9491897293032,0.18593620244722056,0.0010808503453196773,-0.00023672933936511888,0.0008015231549578588,-0.00036238473071751584,-0.000459031445112112,5.6639463323267106e-05,0.0011882455051368038,0.2173345386981964,-23.61355972290039,19.529525756835938,17.97431182861328,0.8961893320083618,2.3732802867889404,-0.11347807943820953,,,,,,,,,
1739401233.9136624,-0.7073224352922857,0.6750388012345518,1.4184786931612885,-1.8794575375648737,-0.7089678811347325,1.9491893880979017,0.18593901671092428,-8.169161083311475e-05,0.0001252544414700188,-0.0008684234836266702,-0.00036360638319917523,0.0005357789202280603,-9.64698895089802e-05,-0.00024165205645928535,0.2411382496356964,-23.68893814086914,19.628707885742188,17.94654083251953,0.9035135507583618,2.3668715953826904,-0.13361968100070953,,,,,,,,,
1739401233.9245942,-0.7073248969614021,0.6750395045644895,1.418482106846276,-1.8794596261851966,-0.7089674780933449,1.949189388079292,0.18593210560356405,-0.00022795763066633669,0.0005542712856898458,-1.2646806215798061e-05,-0.00047875861780433495,0.00015596456404120022,-0.00018593056575909789,0.0007494118943087761,0.2689092457294464,-23.68893814086914,19.553329467773438,17.97431182861328,0.8897806406021118,2.3668715953826904,-0.08692778646945953,,,,,,,,,
1739401233.9346318,-0.7073267408749279,0.6750416105715022,1.4184825504617478,-1.879459378936449,-0.7089689427136205,1.9491901457393705,0.1859344018655769,-0.000200534454343761,0.00018512224156929825,0.00046659465372051075,0.0015922329714345219,-0.0012058363674127886,0.0002355167380489031,-0.0007332625271715774,0.2927129566669464,-23.68893814086914,19.577133178710938,17.97431182861328,0.9035135507583618,2.3604629039764404,-0.09425200521945953,,,,,,,,,
1739401233.9456398,-0.7073231026400534,0.6750371990665965,1.4184835090134917,-1.879460399567773,-0.708970062198694,1.949189388079292,0.18593278249080322,0.0009529264560090697,-0.00033651904625816177,-0.0006940531023747258,-0.0005946040038680112,-0.0015193693641242963,-0.00023462721506060157,-0.0018789700576113187,0.2411382496356964,-23.63736343383789,19.553329467773438,17.94654083251953,0.9099222421646118,2.3668715953826904,-0.08051909506320953,,,,,,,,,
1739401233.9565578,-0.7073249011380698,0.6750313941616631,1.4184881966561889,-1.8794575637814226,-0.7089669674146705,1.9491901457393705,0.18593832035331626,-0.0005510354645374386,-0.0001896563986591394,0.000832335287309124,-0.0012347448877764117,0.0007424106994917343,9.026210607040554e-05,0.0014873682252576237,0.2689092457294464,-23.58578872680664,19.501754760742188,17.94654083251953,0.8897806406021118,2.3604629039764404,-0.12721098959445953,,,,,,,,,
1739401233.9665987,-0.7073268474444574,0.6750296693958756,1.4184902089261273,-1.8794541321382947,-0.7089630413492874,1.9491909033994488,0.18593286035397621,-0.0006256693130317996,-0.0011232269986392793,0.00025588605212272886,-0.0013480101598290297,0.0015223993703636135,-0.00012605078250993332,0.0003103262721364804,0.2927129566669464,-23.56198501586914,19.477951049804688,17.89893341064453,0.8897806406021118,2.3540542125701904,-0.08051909506320953,,,,,,,,,
1739401233.9775293,-0.7073251352486777,0.6750313819163996,1.4184881966647351,-1.8794557431169556,-0.7089634849760243,1.949189388079292,0.185935006939091,0.0003410538956538236,-0.00012884818768833502,7.154021501109734e-05,-0.0005025660941208456,0.0003564812067563197,-0.00031167645862643207,-0.0010506744363498691,0.2689092457294464,-23.58578872680664,19.501754760742188,17.92273712158203,0.8961893320083618,2.3668715953826904,-0.10066069662570953,,,,,,,,,
1739401233.9876094,-0.7073231373078303,0.6750296950750524,1.4184929777957032,-1.8794557548879376,-0.7089648978733875,1.9491916610595272,0.18593754541226498,0.0005073682552564085,0.000301998046462246,0.0007497607590907944,0.000954191808740517,0.000909775105284605,0.00029515543719397613,0.00021320494145319967,0.2411382496356964,-23.56198501586914,19.450180053710938,17.92273712158203,0.8961893320083618,2.3476455211639404,-0.12080229818820953,,,,,,,,,
1739401233.9985921,-0.7073251352486832,0.675032317609523,1.4184942057462828,-1.8794536091207923,-0.7089696998326548,1.9491916610595272,0.18593208373242676,-0.0007664631833211417,0.001039760508661272,-0.00011870313313971828,-0.000251157013629477,-0.0003637639052342307,7.576911639840651e-05,-0.0014240450910408887,0.2689092457294464,-23.58578872680664,19.450180053710938,17.92273712158203,0.9099222421646118,2.3476455211639404,-0.08692778646945953,,,,,,,,,
1739401234.008684,-0.7073251265818898,0.6750275631561697,1.4184951556244698,-1.8794501362229508,-0.7089680787759862,1.9491909033994488,0.1859358820455762,-0.000892816009372559,0.0008174343597068167,0.00041989247250295413,0.0006048061771611536,0.000743767218497085,0.0002540564037999233,-0.0004409670112253721,0.2689092457294464,-23.56198501586914,19.450180053710938,17.84735870361328,0.8961893320083618,2.3540542125701904,-0.10706938803195953,,,,,,,,,
1739401234.0196087,-0.7073268477693655,0.6750320835937744,1.4184928406528547,-1.8794555164695745,-0.7089712954645254,1.9491925269567596,0.1859363249818365,-0.0008444204662911446,0.00014331899524059209,-0.0008572894809772416,-0.00026034741698559435,-0.0009372955964211695,0.0004419148764940998,0.0005284287073406845,0.2927129566669464,-23.58578872680664,19.477951049804688,17.92273712158203,0.8961893320083618,2.3403213024139404,-0.11347807943820953,,,,,,,,,
1739401234.0305538,-0.7073193187563169,0.6750342243075806,1.4184912197169657,-1.8794556400925275,-0.7089666809390313,1.949190904852999,0.1859370283442757,0.001845404385592907,0.0010913838254460937,0.0008943740043842808,0.0002840669611849735,-0.0009620345234431216,-8.685591556273085e-05,0.0006084834054442842,0.2173345386981964,-23.58578872680664,19.501754760742188,17.92273712158203,0.8833719491958618,2.3540542125701904,-0.11347807943820953,,,,,,,,,
1739401234.0406013,-0.7073210308490584,0.6750354860324539,1.4184862316612414,-1.879455754882172,-0.7089697047922345,1.9491901457394443,0.185937545159356,0.0012535503213947064,0.0009486382599207218,-0.001526076906141443,0.0006347163075662568,-0.00019267627209575486,0.00025289292795032054,0.0009322229465776849,0.2411382496356964,-23.61355972290039,19.529525756835938,17.92273712158203,0.9099222421646118,2.3604629039764404,-0.12080229818820953,,,,,,,,,
1739401234.0515625,-0.7073213987352008,0.6750361876288157,1.418487115183046,-1.8794596968277384,-0.7089679576225847,1.949189388079292,0.18593440626415253,0.001089677059234521,0.0010700302640189528,0.000588556493266263,-0.0001471913145793686,0.0001928932147946192,-0.0003373448340533746,-0.00031059287219354715,0.2173345386981964,-23.61355972290039,19.553329467773438,17.97431182861328,0.8961893320083618,2.3668715953826904,-0.09425200521945953,,,,,,,,,
1739401234.062536,-0.707323133455775,0.6750370901206882,1.4184861425364685,-1.8794586636083335,-0.7089721880155515,1.9491886362334148,0.18593671889804578,0.000465645251102071,-0.00012850698653412112,0.0005411741612745763,0.0004551359802177521,-0.0008704488402199648,0.00026720297156676836,-0.0005649928015531347,0.2411382496356964,-23.66513442993164,19.529525756835938,17.97431182861328,0.9035135507583618,2.3732802867889404,-0.11347807943820953,,,,,,,,,
1739401234.072584,-0.7073268477693492,0.6750371718508894,1.4184843505468474,-1.8794563454559758,-0.7089665215115787,1.9491893880793905,0.18593837587121972,-0.0012562182615492132,-0.00033350275484736154,0.0008749468549619618,0.0006542415393339239,7.988986164554342e-05,-0.00044955815190023286,-0.0002651432921902751,0.2927129566669464,-23.66513442993164,19.553329467773438,17.94654083251953,0.9099222421646118,2.3668715953826904,-0.10066069662570953,,,,,,,,,
1739401234.0845816,-0.7073251352486832,0.6750395196963653,1.4184799598692581,-1.8794614000251684,-0.7089705423651745,1.9491886304192139,0.1859351771060768,0.0006107516337129868,0.0005832531910484539,-0.0010726359599829032,-0.0011016787418047678,-0.0009579582545543794,-0.0002310638341151508,0.0001459023263343501,0.2689092457294464,-23.66513442993164,19.577133178710938,17.99811553955078,0.8897806406021118,2.3732802867889404,-0.10066069662570953,,,,,,,,,
1739401234.0956283,-0.7073268129595778,0.6750409088868051,1.418481438910883,-1.8794596984629823,-0.7089689441887135,1.949188512681644,0.18593943043036115,-0.0007062161296341376,-0.0010681636911753292,-0.0002855129411817398,-0.0009684487552864125,-0.00042763188635015455,-0.0009639415486015707,0.0009491839045555811,0.2927129566669464,-23.68893814086914,19.577133178710938,17.97431182861328,0.9035135507583618,2.3732802867889404,-0.10066069662570953,,,,,,,,,
1739401234.1056306,-0.7073251362292401,0.67504005018081,1.4184843311226747,-1.8794539722123587,-0.7089681269066969,1.9491901457373766,0.1859394219521922,-0.0008100722045991859,7.651379725545732e-05,0.0015771107675042766,0.0015046254576060757,-0.0007082422232504942,-0.00038398047794700773,0.0017738158026150209,0.2689092457294464,-23.63736343383789,19.553329467773438,17.89893341064453,0.8961893320083618,2.3604629039764404,-0.12721098959445953,,,,,,,,,
1739401234.1165977,-0.707326847769431,0.675036617873779,1.418486113818484,-1.879459537882019,-0.708968077305118,1.9491909033994488,0.18593592306589704,-3.402849339978237e-05,-0.0002610736518577903,0.0011664912314443656,-0.0011705330957248916,0.0010829352587130151,0.0009849186158008166,0.0005658147106051472,0.2927129566669464,-23.61355972290039,19.529525756835938,17.97431182861328,0.8961893320083618,2.3540542125701904,-0.10706938803195953,,,,,,,,,
1739401234.1275403,-0.7073251353576995,0.6750356022479038,1.4184881006780734,-1.879455750963269,-0.7089681961865113,1.9491916610595272,0.18593906040777597,0.0003856896996170285,-0.0007977203968006412,0.0008324347415437827,4.072188513711228e-05,-0.00040729136297774535,0.0011744448878209949,0.000736046133874792,0.2689092457294464,-23.61355972290039,19.501754760742188,17.92273712158203,0.8961893320083618,2.3476455211639404,-0.13361968100070953,,,,,,,,,
1739401234.1386273,-0.707323137307832,0.6750328281049867,1.4184899752663,-1.8794554006280626,-0.7089689373893227,1.9491900280018006,0.18593115914953012,0.0006617743330203849,-0.0002738546965843525,0.00016966770617156082,-0.001125413137923862,0.00032909798679184543,-0.000326509072257407,-0.0016240846734444057,0.2411382496356964,-23.56198501586914,19.477951049804688,17.94654083251953,0.9035135507583618,2.3604629039764404,-0.06678618490695953,,,,,,,,,
1739401234.1496232,-0.7073251352850219,0.675030803595552,1.4184920704653907,-1.8794557505879679,-0.7089652548215287,1.9491901457387057,0.18593834424302141,-0.0007245886142450524,-0.001369009704266871,-0.000504414020906929,-8.44086504509712e-05,-0.0009371456519047249,-0.0001958676696573919,0.001360471140217374,0.2689092457294464,-23.53818130493164,19.450180053710938,17.92273712158203,0.8897806406021118,2.3604629039764404,-0.12721098959445953,,,,,,,,,
1739401234.1605434,-0.7073223572964294,0.6750325912160166,1.418496313246565,-1.8794539692675376,-0.7089695075213742,1.9491940823138367,0.18593528239773857,0.0008735705839776639,-0.0006549361280830384,0.0010759176464521483,0.0004852400288155583,-0.001272314531565564,0.0007678224938534482,0.001313081644322741,0.2411382496356964,-23.56198501586914,19.402572631835938,17.89893341064453,0.8961893320083618,2.3540542125701904,-0.10066069662570953,,,,,,,,,
1739401234.1705976,-0.7073212260917402,0.6750344587845146,1.418492059139386,-1.8794535620257145,-0.7089704580553147,1.9491901459547112,0.18593440626615884,0.0006378436833549513,0.0005821311529518635,0.000428842133564939,0.0004988916253260091,-0.0007984238186826369,-0.0007815127886712853,-0.002020906204524824,0.2173345386981964,-23.58578872680664,19.450180053710938,17.92273712158203,0.9163309335708618,2.3604629039764404,-0.09425200521945953,,,,,,,,,
1739401234.1815856,-0.707323570550946,0.6750300159055141,1.4184942019514946,-1.8794575374188707,-0.7089707732546136,1.949190145739374,0.18593906192441156,0.00095861968477963,-0.001929331947931071,0.00042248977608752136,-2.6088024815167673e-05,-0.0003705403304275108,-6.359323963778946e-05,0.0007224609689281223,0.2173345386981964,-23.56198501586914,19.450180053710938,17.94654083251953,0.9099222421646118,2.3604629039764404,-0.13361968100070953,,,,,,,,,
1739401234.1925864,-0.7073232052734172,0.6750327229978081,1.4184920601196187,-1.8794546755609267,-0.7089680769832774,1.949189388079292,0.18593667924439577,0.000386387457631828,-0.0010971814787390979,-0.00022818277863943695,0.00017549956826256317,0.0010470426887540807,-0.0002667385943866705,-0.0009580596912033483,0.2411382496356964,-23.56198501586914,19.450180053710938,17.94654083251953,0.8961893320083618,2.3668715953826904,-0.11347807943820953,,,,,,,,,
1739401234.2035499,-0.7073251352488111,0.6750320953216852,1.4184861197054164,-1.8794596833268498,-0.7089657770965259,1.9491909033815036,0.18593279587055617,0.0003712183331227321,-0.0009344010778984128,-0.0015530530714401205,-0.0003570365773955533,0.0007604615942425282,7.198992722735289e-06,-0.0002725854586654041,0.2689092457294464,-23.58578872680664,19.529525756835938,17.94654083251953,0.9035135507583618,2.3540542125701904,-0.08051909506320953,,,,,,,,,
1739401234.2145498,-0.7073224352975696,0.675036145058573,1.4184861168710077,-1.8794551524101986,-0.7089697003531372,1.949189230449843,0.18593591656206457,0.0011902927970980832,-0.0010740621188163478,0.0007980144672882772,0.0009054045894202366,0.0004517383738797892,-0.0008046119609107123,-0.0004941744428417597,0.2411382496356964,-23.63736343383789,19.529525756835938,17.94654083251953,0.9099222421646118,2.3668715953826904,-0.10706938803195953,,,,,,,,,
1739401234.224621,-0.7073231372959415,0.6750365385467618,1.4184843341939726,-1.8794591400412626,-0.7089680761676739,1.949188628962994,0.18593547252493509,0.0004498471426342493,-0.0004773520409675967,0.00037276857270837713,0.0003226438097692364,0.00025125680325474017,9.029112377494704e-06,0.0008351348259062613,0.2411382496356964,-23.61355972290039,19.553329467773438,17.97431182861328,0.8961893320083618,2.3732802867889404,-0.09425200521945953,,,,,,,,,
1739401234.2355385,-0.7073232169260449,0.6750478174725469,1.418480389310799,-1.8794575378893776,-0.7089695600405896,1.9491909033994403,0.18593371896863148,0.000893291113895505,0.002748831721830768,0.0006008495659110848,-0.0004417379164076135,-0.0013913559547816096,0.000517238185234971,-0.0018346544055770015,0.2411382496356964,-23.74051284790039,19.604904174804688,17.94654083251953,0.8961893320083618,2.3540542125701904,-0.06037749722599983,,,,,,,,,
1739401234.2466116,-0.7073216632070264,0.6750382509275162,1.4184801155349263,-1.879465565913567,-0.7089669659660269,1.9491909033994488,0.18593766822165125,0.001442167658801819,-0.0004932951463424249,-0.0004020313130485899,-0.0025393438720254426,-2.2120482338629796e-05,0.00037393335292838374,0.000961038199367488,0.2173345386981964,-23.63736343383789,19.577133178710938,18.02191925048828,0.8897806406021118,2.3540542125701904,-0.12080229818820953,,,,,,,,,
1739401234.2575583,-0.7073260888164508,0.6750382511031586,1.418482893008605,-1.8794508727860542,-0.7089650171079335,1.949189388079292,0.18593428864642922,-0.00042436813921594726,-0.0006142676384590436,0.0008319358733262969,0.002527533244428906,0.0010847485854203443,0.00019012749030128485,-0.001197006087259362,0.2689092457294464,-23.63736343383789,19.529525756835938,17.89893341064453,0.8961893320083618,2.3668715953826904,-0.09425200521945953,,,,,,,,,
1739401234.2685952,-0.7073268566414538,0.6750402726460343,1.4184827791245818,-1.8794575375111882,-0.7089689559391333,1.9491886304192139,0.1859383071889391,0.0005626649946329239,0.00032205072888927944,0.00023166775238166136,0.0011552028588813366,-0.00047329777090788496,-0.00048024008976780994,0.0013010150361842678,0.2927129566669464,-23.66513442993164,19.529525756835938,17.94654083251953,0.9035135507583618,2.3732802867889404,-0.12721098959445953,,,,,,,,,
1739401234.279618,-0.7073252840562386,0.6750382511032923,1.4184848588007402,-1.8794575346579225,-0.7089696989175316,1.9491916610595272,0.1859329406714395,-0.0002417477772219686,-0.0009048725645726214,0.0005592721501046837,-4.21800126724046e-05,4.3523845072286084e-05,0.0007804134870748388,-0.0020796952227893567,0.2411382496356964,-23.63736343383789,19.501754760742188,17.94654083251953,0.9099222421646118,2.3476455211639404,-0.08051909506320953,,,,,,,,,
1739401234.290607,-0.7073297442711081,0.675036538582428,1.418487944833267,-1.879455188373438,-0.7089666406659005,1.9491909033994488,0.1859383042652249,-0.0020196068655597417,-0.0002876355765222866,0.0010000825637172708,-5.850716610287339e-06,0.0006188753870750704,0.000557493709435516,0.002535832235523279,0.2927129566669464,-23.61355972290039,19.501754760742188,17.94654083251953,0.9099222421646118,2.3540542125701904,-0.12721098959445953,,,,,,,,,
1739401234.3006268,-0.7073307065315638,0.6750311254115765,1.4184857464935947,-1.879459921304414,-0.7089684338015992,1.9491901457393705,0.18593754514169425,-0.0018920827133254352,-0.0015388183539611663,-0.0003775884553390114,-0.0018315994440485713,0.0005328924564631707,-0.0002965927671984599,-0.001389630071939453,0.3165166676044464,-23.53818130493164,19.529525756835938,17.94654083251953,0.8961893320083618,2.3604629039764404,-0.12080229818820953,,,,,,,,,
1739401234.3115528,-0.7073251236494429,0.6750345405940389,1.4184938416909898,-1.8794557539113432,-0.7089704757650703,1.9491909033994488,0.1859390605340055,2.074084914857528e-05,0.000639540832879659,0.0005882160440479517,-0.0004530973089037211,0.00010982993279410626,1.6189453579203558e-05,0.002085803836906359,0.2689092457294464,-23.58578872680664,19.426376342773438,17.92273712158203,0.9163309335708618,2.3540542125701904,-0.13361968100070953,,,,,,,,,
1739401234.3215902,-0.7073233641704885,0.6750345136782169,1.418487012351102,-1.879452881110135,-0.7089680768139968,1.9491909019458984,0.18593440626415372,0.0008758839302150036,0.0003407608547893232,-0.0014293618061840079,0.0008905871433051379,-0.0006112566506486524,0.00012688299618106224,-0.0022952793832704465,0.2411382496356964,-23.58578872680664,19.477951049804688,17.92273712158203,0.8961893320083618,2.3540542125701904,-0.09425200521945953,,,,,,,,,
1739401234.3325946,-0.7073231638000641,0.6750332613315062,1.418492059110973,-1.8794556489079686,-0.7089689824473587,1.9491909033994406,0.18594048214293346,0.0006948185284392231,-0.0010095645280451691,0.00018770173902403237,-0.00012912077243276959,-0.00022162388137309718,0.00044856976069825917,-0.0003614638635765641,0.2411382496356964,-23.53818130493164,19.450180053710938,17.92273712158203,0.9035135507583618,2.3540542125701904,-0.13361968100070953,,,,,,,,,
1739401234.3435285,-0.707323137272314,0.6750365097052294,1.4184900049526514,-1.8794613882575426,-0.7089721659951624,1.9491901064935138,0.18593754514964533,-0.000280874339454955,-0.0003340874801186617,-0.0002684888785943397,-0.0019717996255030554,0.00039317373729079463,0.00021556335041476727,0.0008039345009903332,0.2411382496356964,-23.61355972290039,19.477951049804688,17.99811553955078,0.9035135507583618,2.3604629039764404,-0.12080229818820953,,,,,,,,,
1739401234.3536415,-0.7073268477694138,0.6750338386308251,1.4184881966612808,-1.8794539797329082,-0.7089696960649431,1.9491901457387057,0.18593569047280759,-0.0009785953459154786,-0.0013217022866149019,-0.00045759173945664514,0.0004624984386240161,3.928867899204581e-05,0.0002945462122238323,-4.0279750210626665e-05,0.2927129566669464,-23.58578872680664,19.501754760742188,17.89893341064453,0.9099222421646118,2.3604629039764404,-0.10066069662570953,,,,,,,,,
1739401234.3645878,-0.7073251356847483,0.675038248210265,1.418485375124301,-1.8794557548880466,-0.7089698593167023,1.9491901457393705,0.18593278417244907,0.0007621386770943133,0.0005661957679151711,-0.0016401773456122645,0.00032863356178593195,-0.0005577214370097699,-3.948370424513916e-05,-0.0025057390139334324,0.2689092457294464,-23.63736343383789,19.529525756835938,17.92273712158203,0.9099222421646118,2.3604629039764404,-0.08051909506320953,,,,,,,,,
1739401234.3755867,-0.7073268507128562,0.675041729541769,1.4184843341897853,-1.879459254264686,-0.7089681960238833,1.9491883284411626,0.18593942896770968,-0.0006584282000747984,0.0012190379215101666,-0.0003821856636007739,-0.0007245042496368204,7.600444158377271e-05,-0.00023664389649808592,-0.0007625060389953221,0.2927129566669464,-23.68893814086914,19.553329467773438,17.99811553955078,0.8961893320083618,2.3668715953826904,-0.10066069662570953,,,,,,,,,
1739401234.386556,-0.70732313730788,0.6750402493671316,1.4184819382344245,-1.8794557547426491,-0.7089721657789244,1.9491901452369087,0.18593906069652047,0.0011166286783855285,0.000909851698794276,0.0006681868237084111,0.0007293436871237116,-0.0008474163454347741,0.00048165638086557563,0.0011726378612489843,0.2411382496356964,-23.66513442993164,19.553329467773438,17.92273712158203,0.9035135507583618,2.3604629039764404,-0.13361968100070953,,,,,,,,,
1739401234.3975449,-0.7073251352486832,0.6750402578743304,1.418483335647102,-1.879457533531421,-0.708968942735163,1.9491879747439351,0.18593814090423305,0.000492454121868105,0.0001413904796778755,0.0005269983398185881,-0.0004976896067664906,0.0003977951344468756,-0.0010457924518329042,0.0013027884593069773,0.2689092457294464,-23.66513442993164,19.553329467773438,17.94654083251953,0.9035135507583618,2.3668715953826904,-0.11347807943820953,,,,,,,,,
1739401234.408513,-0.7073234906658951,0.6750423948112738,1.4184779030989862,-1.8794575375650004,-0.7089681165501265,1.94919013264944,0.18593551641231928,0.00046626941225060166,-0.00043182309546833963,-0.0012509361404950672,-0.0007357335905057321,5.878881862787463e-05,-0.00013199867244440984,-0.0002747269524226826,0.2411382496356964,-23.66513442993164,19.604904174804688,17.94654083251953,0.8961893320083618,2.3604629039764404,-0.09425200521945953,,,,,,,,,
1739401234.418567,-0.7073272839653185,0.6750344325879846,1.418481742502685,-1.879457539091251,-0.7089673588907209,1.9491869648866937,0.18593764455669914,0.00040330041361314275,-0.002497567074882014,0.0005669581634982102,3.727679227239378e-05,0.0009199649239844834,-0.0005071634338531289,-0.0008807110612967905,0.2689092457294464,-23.61355972290039,19.553329467773438,17.94654083251953,0.8897806406021118,2.3604629039764404,-0.09425200521945953,,,,,,,,,
1739401234.4285865,-0.7073231373442189,0.6750405595411876,1.4184827791365744,-1.879457537565049,-0.7089721613624197,1.9491901456855025,0.18593516381706132,0.0007675908974119942,-0.0005534528785579844,-0.0002938451447774115,-0.0003544479542416183,-0.001627907734033917,0.0001084445982588738,-0.001208526778881868,0.2411382496356964,-23.66513442993164,19.529525756835938,17.94654083251953,0.9035135507583618,2.3604629039764404,-0.10066069662570953,,,,,,,,,
1739401234.4395869,-0.7073258505044208,0.6750366868466046,1.4184870810973726,-1.8794557548880042,-0.708971666356029,1.949190902753426,0.18593592223436853,-0.00033692766284455983,-0.00037696559845638725,0.0007032975058585762,0.0012506530000786018,-0.001558137401110452,0.0004675023778424729,-0.0016203148914218438,0.2689092457294464,-23.58578872680664,19.501754760742188,17.92273712158203,0.8961893320083618,2.3540542125701904,-0.10706938803195953,,,,,,,,,
1739401234.4496155,-0.7073251352607961,0.6750389567654721,1.4184851060872714,-1.8794557548880042,-0.7089715309754807,1.9491901457393594,0.18593456487879645,-0.0002966012226125174,0.0007426562881922924,-0.0001607930220858454,-0.00021683870558767326,-0.0015730589999321679,0.0010078854539887108,0.0008366499292856319,0.2689092457294464,-23.63736343383789,19.501754760742188,17.92273712158203,0.9163309335708618,2.3604629039764404,-0.09425200521945953,,,,,,,,,
1739401234.459628,-0.7073231461381482,0.6750329370400462,1.4184898557176056,-1.8794582557642,-0.7089693093152898,1.9491901457393705,0.18593754514430605,-0.0005420592555764029,-0.0003605192577812277,-0.0004183685519637553,-0.0008776256951865131,-0.0010144589412838024,2.2873413176605284e-05,0.0010983017041950186,0.2411382496356964,-23.56198501586914,19.477951049804688,17.94654083251953,0.8961893320083618,2.3604629039764404,-0.12080229818820953,,,,,,,,,
1739401234.4705179,-0.707323172629151,0.6750345406421897,1.418487750027156,-1.8794556750921498,-0.7089700580058333,1.9491909033994488,0.18593441065205732,0.00017624949255609277,0.0001380823465641812,-0.00047889292467460974,0.00011207167703389262,-0.0008321103975976534,0.00023621711504927343,-0.0007373229759088046,0.2411382496356964,-23.58578872680664,19.477951049804688,17.92273712158203,0.9099222421646118,2.3540542125701904,-0.09425200521945953,,,,,,,,,
1739401234.481523,-0.7073231382895748,0.6750325941174233,1.4184920589769143,-1.8794533677574226,-0.7089689427169854,1.9491916566988763,0.18593896682285108,0.00016570681385633682,-0.0012829320816621366,0.00013820884685612604,0.0011098561836334125,0.0005304811395149656,0.0010671849208754576,0.0003081754199009504,0.2411382496356964,-23.56198501586914,19.450180053710938,17.92273712158203,0.9035135507583618,2.3476455211639404,-0.12080229818820953,,,,,,,,,
1739401234.4915385,-0.7073215042599642,0.6750364605799668,1.4184899801696191,-1.8794557548381898,-0.7089689427109289,1.949190145739346,0.1859309153703257,-0.00014359271721098955,0.00020152539482863214,0.00018108780824940439,-0.0008731143299049345,-0.0004980962004046307,0.0010978947703373018,-0.0004770622648318603,0.2173345386981964,-23.61355972290039,19.477951049804688,17.92273712158203,0.9035135507583618,2.3604629039764404,-0.06037749722599983,,,,,,,,,
1739401234.5015635,-0.7073231490829331,0.6750343066368336,1.418489967128058,-1.8794575375650224,-0.7089693400752274,1.9491916610595272,0.18593754726301742,-0.0006367469041806842,0.00012471328884137485,-6.827093842902335e-05,-0.0018296130492858908,0.0008783995436340622,0.0004410813402983407,-0.00022727206638361807,0.2411382496356964,-23.58578872680664,19.477951049804688,17.94654083251953,0.9035135507583618,2.3476455211639404,-0.12080229818820953,,,,,,,,,
1739401234.5125656,-0.7073268477694808,0.6750365385811069,1.418488196975714,-1.8794579006188772,-0.7089689432582533,1.9491916610595272,0.1859377091192596,-0.0009177210849544138,0.00017676253553933744,-0.0006046102577697691,-0.0006755733399504207,0.0014145543770067732,0.0008471212446172972,0.001468502718125415,0.2927129566669464,-23.61355972290039,19.501754760742188,17.92273712158203,0.9035135507583618,2.3476455211639404,-0.12080229818820953,,,,,,,,,
1739401234.5226467,-0.7073273608158036,0.6750365384754304,1.418492040141034,-1.8794604375636017,-0.708970373712986,1.9491909033994488,0.18594217145869643,-0.001617900546387318,-5.930944897877588e-05,0.0018755688773201874,-0.001053025315985973,0.0004090159656740979,0.0008952985672117961,0.0024407023913912695,0.2689092457294464,-23.61355972290039,19.477951049804688,17.99811553955078,0.9035135507583618,2.3540542125701904,-0.12080229818820953,,,,,,,,,
1739401234.533582,-0.7073251352612465,0.6750366876099839,1.418480326288515,-1.8794596174584617,-0.7089704600014564,1.9491864958208673,0.18593774553137085,-0.0002599957415591784,-0.0009786054588288753,-0.0007098149897677487,-0.001515551307650129,0.0003545998789051349,-0.00034395126407102633,0.00037288063074665913,0.2689092457294464,-23.58578872680664,19.577133178710938,17.97431182861328,0.9163309335708618,2.3604629039764404,-0.11347807943820953,,,,,,,,,
1739401234.5435884,-0.7073235705543112,0.6750404057370477,1.4184814787107356,-1.8794539709027915,-0.7089685536508881,1.9491898436995077,0.18594150371505375,0.0007424449287689414,0.000725477916952768,-0.0009255791471331628,0.0009351470669272325,-0.0004353114628815679,-2.499774612951312e-05,0.0015396207808703387,0.2173345386981964,-23.63736343383789,19.577133178710938,17.89893341064453,0.8961893320083618,2.3540542125701904,-0.12721098959445953,,,,,,,,,
1739401234.5545218,-0.7073231373199431,0.6750352568906215,1.4184838779076565,-1.879456469707669,-0.708969860791138,1.9491890730133068,0.18593354477289414,0.001028876911561768,-0.00227860621324505,0.0005360001956855827,-0.0003284444606067746,-4.173335989467618e-05,-5.092025059570058e-06,-0.0013596378322080437,0.2411382496356964,-23.58578872680664,19.529525756835938,17.92273712158203,0.9099222421646118,2.3604629039764404,-0.08692778646945953,,,,,,,,,
1739401234.5645797,-0.7073214247870993,0.675041857575353,1.4184814403852282,-1.879457431613316,-0.7089689427136456,1.9491901326392516,0.18593703466475134,0.0005383187078303214,-8.862268173713127e-05,-0.0007672828436193434,-0.0006949140567904748,6.555865108320474e-05,0.00028030944607497347,-0.002083890673488401,0.2173345386981964,-23.68893814086914,19.577133178710938,17.94654083251953,0.9035135507583618,2.3604629039764404,-0.11347807943820953,,,,,,,,,
1739401234.5746183,-0.7073281022354453,0.6750388582672062,1.4184841446001974,-1.879459615935873,-0.7089691060718072,1.9491890861010193,0.1859393887328991,-0.001404245537579681,-0.00010233918390598626,0.001352695104913467,-0.0009911113543764362,0.0003158139055815383,-0.00044530768053700157,0.0008932373795515379,0.2689092457294464,-23.66513442993164,19.501754760742188,17.97431182861328,0.9035135507583618,2.3604629039764404,-0.12721098959445953,,,,,,,,,
1739401234.5855954,-0.7073238530498788,0.6750405028106309,1.4184811072276537,-1.8794574306200398,-0.708970696752922,1.949187567483689,0.1859327958889465,0.0005573937509233401,1.2395115216353743e-05,-5.2779816124183456e-05,0.0012555542045305386,0.00043160822434922165,-0.0009734215491580891,-0.0008806138139905296,0.2411382496356964,-23.63736343383789,19.553329467773438,17.94654083251953,0.8897806406021118,2.3540542125701904,-0.08051909506320953,,,,,,,,,
1739401234.5966172,-0.7073259984411425,0.6750367888880172,1.4184831096937738,-1.879455754887803,-0.7089685713178457,1.94919166105325,0.185944210344754,-0.0004952573177353019,0.0001379848277984751,5.887239833392546e-06,0.00020017379381936294,0.0003782855986796366,0.0006946896131583519,0.001112745796135359,0.2411382496356964,-23.61355972290039,19.529525756835938,17.92273712158203,0.8961893320083618,2.3476455211639404,-0.14094389975070953,,,,,,,,,
1739401234.607578,-0.7073214927526877,0.6750382520885444,1.418486723899658,-1.8794567563319295,-0.7089700596424943,1.9491909033994486,0.1859355617532352,0.0009854957929575304,-0.0007423063524786039,0.0013223632956786808,-8.593075171905301e-05,-0.0010131607883055434,0.0006954169957049576,0.0008297096869639589,0.2173345386981964,-23.63736343383789,19.477951049804688,17.97431182861328,0.9099222421646118,2.3540542125701904,-0.06678618490695953,,,,,,,,,
1739401234.6176107,-0.7073290062919134,0.6750337817951656,1.4184899423131765,-1.8794596083993942,-0.7089689826129112,1.9491909033994488,0.1859384217875258,-0.0007063193402024152,-8.219035906661086e-05,0.0014331764677410846,-0.0008123566873497961,0.0015213493924522603,0.0009514371579358873,-0.0016348944979811745,0.2927129566669464,-23.56198501586914,19.477951049804688,17.97431182861328,0.9035135507583618,2.3540542125701904,-0.12721098959445953,,,,,,,,,
1739401234.6285703,-0.7073251453993811,0.6750397529324866,1.4184861167577285,-1.8794525759735654,-0.7089697180318679,1.9491909033994488,0.18594040457623875,-8.24629848805971e-05,0.0018036041636225165,-0.0011714871545757566,0.0006003663152719358,-0.00013832380977692172,0.0011459424220241251,0.0010024425178045545,0.2689092457294464,-23.61355972290039,19.529525756835938,17.92273712158203,0.9099222421646118,2.3540542125701904,-0.11347807943820953,,,,,,,,,
1739401234.6395273,-0.7073251352487405,0.6750335443758724,1.4184920560375809,-1.879453971756975,-0.7089689427655367,1.9491916610595272,0.18593476614754778,0.000638453025490353,-0.0015315898500402694,0.00026209983373122686,0.0001648550948320465,0.0016717982431922742,0.0004221436969092964,-0.000130316713559901,0.2689092457294464,-23.56198501586914,19.450180053710938,17.89893341064453,0.9035135507583618,2.3476455211639404,-0.09425200521945953,,,,,,,,,
1739401234.6496043,-0.7073231382889766,0.6750366903455022,1.4184899793378138,-1.8794589020991337,-0.7089698732163018,1.9491916610595272,0.18594012672873889,0.0010148548748731847,-0.00014847186607194052,0.00031610201677046416,-0.0017491834815070808,-0.001132665807564432,1.036765666701737e-05,0.00022095561075174746,0.2411382496356964,-23.58578872680664,19.477951049804688,17.97431182861328,0.9099222421646118,2.3476455211639404,-0.13361968100070953,,,,,,,,,
1739401234.6615825,-0.7073251353940437,0.675036538594563,1.418489979337866,-1.8794575375609857,-0.7089673765516592,1.9491869668249824,0.18593942173862466,6.198203355029837e-05,0.0008972813669649905,0.001107093817562204,-0.0004628161001987875,0.00023914583027920402,-0.0001451396503595819,0.0026741959715852323,0.2689092457294464,-23.61355972290039,19.477951049804688,17.94654083251953,0.8897806406021118,2.3604629039764404,-0.13361968100070953,,,,,,,,,
1739401234.6716166,-0.707325084065546,0.6750383305760187,1.4184861168709915,-1.8794539835486768,-0.7089693003391215,1.9491909033276684,0.1859367362891894,0.0002442490386455028,0.0007816804276163001,0.00033992207769408336,-0.00012271943924877058,-0.0003872691436593524,0.000763910003794781,-7.389803586743161e-05,0.2689092457294464,-23.63736343383789,19.529525756835938,17.89893341064453,0.9035135507583618,2.3540542125701904,-0.11347807943820953,,,,,,,,,
1739401234.6816297,-0.7073251346118882,0.6750365385837738,1.4184861046611694,-1.8794539712300307,-0.7089724257512421,1.9491851490422565,0.18593902737893833,-1.5307934349439068e-05,-0.0006647599818943863,-5.0149879845685984e-05,-0.0002198144211659921,-0.00014049925351926993,-0.0019078571587944396,0.00021084268230963505,0.2689092457294464,-23.61355972290039,19.529525756835938,17.89893341064453,0.8961893320083618,2.3668715953826904,-0.09425200521945953,,,,,,,,,
1739401234.6925414,-0.7073240093475014,0.6750382511031591,1.4184881965477243,-1.8794530185366631,-0.7089704800283883,1.9491893880553626,0.18594221834049537,8.626173702266433e-06,0.0008042505607405409,0.0017120346059621165,0.0019735390603082227,-0.0018935242261974457,0.0002815775449027276,0.001358941674418634,0.2689092457294464,-23.63736343383789,19.501754760742188,17.89893341064453,0.9035135507583618,2.3668715953826904,-0.12080229818820953,,,,,,,,,
1739401234.7025917,-0.707323137288763,0.6750382511031591,1.4184842514385099,-1.8794548011975372,-0.7089712954905489,1.9491893880792917,0.18593600516579253,0.0006476002064998631,-0.0006618690976723759,-0.0005449597918216013,0.0015416624306411992,0.0007067269066219214,0.00013431475898133683,0.0016104131709857054,0.2411382496356964,-23.63736343383789,19.553329467773438,17.92273712158203,0.8961893320083618,2.3668715953826904,-0.09425200521945953,,,,,,,,,
1739401234.7135994,-0.7073280080453893,0.6750402490803509,1.4184835817820627,-1.8794554368821654,-0.7089681185305887,1.9491901457393705,0.18593959865756174,-0.0006076480955387756,-0.00029158507295649194,0.000515098474261516,0.0008459605636706849,0.0016951666692838882,8.792200853884909e-05,-0.0004306335356731645,0.2689092457294464,-23.66513442993164,19.553329467773438,17.92273712158203,0.8961893320083618,2.3604629039764404,-0.10706938803195953,,,,,,,,,
1739401234.7256103,-0.7073232437239253,0.6750382511031592,1.418479213671441,-1.879458795152387,-0.7089729329761429,1.9491916610595272,0.18593878255153215,-0.00011026241489585226,-0.0010112063657555356,-0.0010149069916001643,0.00023041403177748328,-0.0004975486136109526,0.0015306689451046705,0.0013134218476866318,0.2411382496356964,-23.63736343383789,19.577133178710938,17.97431182861328,0.9099222421646118,2.3476455211639404,-0.12080229818820953,,,,,,,,,
1739401234.7356358,-0.7073272811618508,0.6750411131072546,1.4184848589514782,-1.879459614733847,-0.7089680829368556,1.9491862045889123,0.18594150792937114,-0.001252677753594718,0.00023583686878943662,0.0007119354555544112,-0.001044937788597785,-0.0001255084074091723,-0.00039725535702876013,3.392072517778235e-05,0.2689092457294464,-23.63736343383789,19.501754760742188,17.97431182861328,0.8961893320083618,2.3668715953826904,-0.12721098959445953,,,,,,,,,
1739401234.7465541,-0.7073231377923478,0.6750405680781084,1.4184812449394097,-1.879459605581107,-0.7089689428744879,1.9491907458596993,0.18593766384982935,0.0006710975002514239,0.0014991340060896995,-0.0006299307652892245,-0.00023436461526816653,-0.0008109757938657008,0.0006623518037923699,0.0009433330461237753,0.2411382496356964,-23.66513442993164,19.553329467773438,17.97431182861328,0.9035135507583618,2.3540542125701904,-0.12080229818820953,,,,,,,,,
1739401234.7565548,-0.707325162720791,0.6750368152711201,1.4184828890165468,-1.8794575362566286,-0.7089716126503376,1.9491901442831523,0.18593516555139109,5.2056657179919185e-05,3.870338969231652e-05,-0.00023935521436995567,-0.0006449394392336273,-0.0007762882548584205,0.0005234535934613774,-0.0012783479176701295,0.2689092457294464,-23.61355972290039,19.529525756835938,17.94654083251953,0.8897806406021118,2.3604629039764404,-0.10066069662570953,,,,,,,,,
1739401234.7665837,-0.7073251617401016,0.6750365385871137,1.4184828892403074,-1.8794557274158823,-0.7089732521422233,1.9491901442857955,0.18594350248410188,2.3530706253909508e-05,-0.00020191991541190142,0.000172363667391136,0.0001450708655566384,-0.0016429599888397295,0.0008890723573471318,0.0015536921359572435,0.2689092457294464,-23.61355972290039,19.529525756835938,17.92273712158203,0.9035135507583618,2.3604629039764404,-0.13361968100070953,,,,,,,,,
1739401234.7785273,-0.707323163798933,0.675036538582428,1.4184877539665206,-1.8794539722108299,-0.7089691021715483,1.9491908845032873,0.18593421031778537,0.0007258753315204126,0.0005218085069505481,0.00028516694513519884,0.0009203108778553711,0.0006211589637667294,0.0008689347730850576,-0.0013303797941234237,0.2411382496356964,-23.61355972290039,19.477951049804688,17.89893341064453,0.9035135507583618,2.3540542125701904,-0.08051909506320953,,,,,,,,,
1739401234.7885466,-0.7073252830751916,0.67503454194977,1.4184877235606772,-1.8794557270888557,-0.7089712955199227,1.9491908641534854,0.1859383424634154,0.0009609266050298749,-0.0005450048862164062,0.0005884097426943112,0.0007590887174303504,0.0005115011297627031,0.0007629904063911221,-0.0006732479619418982,0.2411382496356964,-23.58578872680664,19.477951049804688,17.92273712158203,0.8961893320083618,2.3540542125701904,-0.12721098959445953,,,,,,,,,
1739401234.7985783,-0.7073247430831663,0.6750368564738889,1.4184838902360712,-1.8794575257907955,-0.7089729633914472,1.9491893837179768,0.18593573916508016,-0.00161579161371566,0.0001513941769965785,-0.0006416466261351618,-0.0019552058516018444,-0.00016292956571581217,-0.0006589822969612286,-0.000851358944710635,0.2927129566669464,-23.61355972290039,19.529525756835938,17.94654083251953,0.9099222421646118,2.3668715953826904,-0.07411040365695953,,,,,,,,,
1739401234.808656,-0.7073251353220564,0.6750365781607168,1.4184877540600862,-1.8794539692673464,-0.7089721633792991,1.94919010649344,0.18593993275999265,0.0003239034596399604,0.0009635580781703182,-0.0004998725561382565,0.00045857534775960444,-0.0003033671355981361,-0.001213733092527221,-0.0007218166106472709,0.2689092457294464,-23.61355972290039,19.477951049804688,17.89893341064453,0.9035135507583618,2.3604629039764404,-0.14094389975070953,,,,,,,,,
1739401234.8196216,-0.7073231495176527,0.6750365405631136,1.4184879463469329,-1.879459375956505,-0.7089691497154832,1.9491923699731113,0.18593146991766343,0.0002866777380816279,-0.00011143266945954857,-0.0006113892349608978,-0.0013956502223961748,0.0008547654923658695,0.0006463365415719947,-0.003396756373687379,0.2411382496356964,-23.61355972290039,19.501754760742188,17.97431182861328,0.8961893320083618,2.3403213024139404,-0.06037749722599983,,,,,,,,,
1739401234.8305674,-0.7073251797334461,0.675034575962857,1.4184899425562483,-1.879453971228476,-0.7089693552890534,1.949190144284934,0.18593936955614218,-0.00036345327402283027,-0.00020425893122015114,0.0004483667814997842,0.00046332966006445455,-9.336854508919055e-05,-0.00019536034126856855,0.0007747769163264074,0.2689092457294464,-23.58578872680664,19.477951049804688,17.89893341064453,0.9035135507583618,2.3604629039764404,-0.12721098959445953,,,,,,,,,
1739401234.842536,-0.7073231375281327,0.6750402617991149,1.4184899792246046,-1.8794557547789823,-0.7089681965158883,1.9491859071868447,0.1859328238291568,-0.00011324815165071977,0.0006658432396308894,0.0007923190338943286,-0.0005080261642109458,0.0017650026295942612,-0.0003846965129165763,-0.0006581672492733694,0.2411382496356964,-23.66513442993164,19.477951049804688,17.92273712158203,0.8961893320083618,2.3604629039764404,-0.08051909506320953,,,,,,,,,
1739401234.8545043,-0.7073238526120196,0.6750365503562089,1.4184843341814106,-1.8794614000197847,-0.7089680768684299,1.9491896746196096,0.1859390668179959,0.00024309740249903297,-8.422731522772736e-05,-2.8080954669157734e-05,-0.0009556087567579603,0.0003916692490795472,0.0005135975969753079,-0.00045852266799274017,0.2411382496356964,-23.61355972290039,19.553329467773438,17.99811553955078,0.8961893320083618,2.3604629039764404,-0.13361968100070953,,,,,,,,,
1739401234.8646011,-0.707323134422937,0.6750383570670384,1.418480468184742,-1.8794575375650233,-0.7089689603715646,1.9491855539714837,0.18593861351521834,0.0006046885471141048,-0.001091952628839176,0.00025334580842471875,0.0005275939333821174,0.0007107735314797297,-0.0010548962051818035,0.0014262342651105272,0.2411382496356964,-23.63736343383789,19.604904174804688,17.94654083251953,0.9035135507583618,2.3604629039764404,-0.12080229818820953,,,,,,,,,
1739401234.8755984,-0.707327289846164,0.6750389756270736,1.418481861704944,-1.8794614000318979,-0.7089716678098783,1.9491875659703217,0.1859380635825399,-0.0001429612401886546,0.0002554186051092475,-0.00045236179561561785,-0.0009251060727843886,0.0007763454589402212,-0.0009212335028234741,0.001187142971378798,0.2689092457294464,-23.63736343383789,19.553329467773438,17.99811553955078,0.8961893320083618,2.3540542125701904,-0.12080229818820953,,,,,,,,,
1739401234.8866067,-0.7073231641298865,0.6750382511045223,1.4184830263744632,-1.8794596173548788,-0.708968942717686,1.9491873042068628,0.1859355195080106,1.1685725240766809e-05,-0.0008833765038511176,-0.001443137324174513,-0.0007469999379233408,0.0007635643242096426,-0.0008421857588517517,0.0002922135752563407,0.2411382496356964,-23.63736343383789,19.529525756835938,17.97431182861328,0.9035135507583618,2.3476455211639404,-0.10066069662570953,,,,,,,,,
1739401234.897518,-0.7073231373079817,0.6750404010863396,1.4184827881696471,-1.8794574580921635,-0.7089681961865104,1.949191655059226,0.18593842783190664,0.0004418652520140312,0.0005179310529038344,0.0001593867506395572,-0.00063260160952651,-1.8844948903457638e-05,0.0014669893366288345,-0.001084650821445959,0.2411382496356964,-23.63736343383789,19.529525756835938,17.94654083251953,0.8961893320083618,2.3476455211639404,-0.12721098959445953,,,,,,,,,
1739401234.9075818,-0.7073252147215429,0.6750404875718217,1.4184839633210926,-1.879457325306311,-0.7089689824534234,1.9491893880789872,0.18594270387657,0.0007927957256759592,1.2743862312948487e-05,3.9879301645746835e-05,-0.0002986030768944917,-0.0017213897152042689,-0.00020236208334577495,0.0005684155539936689,0.2689092457294464,-23.66513442993164,19.553329467773438,17.94654083251953,0.9035135507583618,2.3668715953826904,-0.12721098959445953,,,,,,,,,
1739401234.919574,-0.7073254649261415,0.6750386843622016,1.418484866655494,-1.8794574774378072,-0.7089673235870212,1.9491893087785697,0.18593719285421778,7.502436052376544e-05,0.001025563288927262,0.0006593686036343119,-0.0006527600484693452,0.0013085247166336293,0.0010592073221038416,0.0011127088894611799,0.2689092457294464,-23.61355972290039,19.501754760742188,17.97431182861328,0.8897806406021118,2.3403213024139404,-0.11347807943820953,,,,,,,,,
1739401234.9296002,-0.7073269547162347,0.6750365474248586,1.4184811072397931,-1.879455754875924,-0.7089727392759988,1.949193514566175,0.18594279235062688,-0.00047169391187342066,-0.00016504640838709624,0.0001290597306503158,0.0003907636856728471,-0.0007351876685879263,0.0011331842301943082,0.0009689141845376861,0.2927129566669464,-23.61355972290039,19.553329467773438,17.92273712158203,0.8961893320083618,2.3275039196014404,-0.13361968100070953,,,,,,,,,
1739401234.940502,-0.7073251395009214,0.6750361803936978,1.4184827800289954,-1.8794528113034008,-0.7089698336431571,1.9491899754556719,0.18594191038474633,-0.0008380472671607488,0.00026010388927443266,-0.0006821163875233377,0.001682366020302758,0.0004332223689314992,-0.00017517326586445785,0.0016995158693533156,0.2689092457294464,-23.63736343383789,19.529525756835938,17.92273712158203,0.8833719491958618,2.3604629039764404,-0.12721098959445953,,,,,,,,,
1739401234.9505472,-0.7073231373079022,0.6750365394215092,1.4184889685165285,-1.8794536884347859,-0.7089682011476567,1.9491905432765042,0.18593356981286455,0.0014831382301659663,0.0003631055871499876,6.901144408275332e-05,0.00029273113674284774,0.00042415851004519174,-0.0005092468505679725,-0.0029838861393177273,0.2411382496356964,-23.61355972290039,19.450180053710938,17.92273712158203,0.8961893320083618,2.3476455211639404,-0.07411040365695953,,,,,,,,,
1739401234.9615972,-0.7073233757264094,0.6750403968703851,1.418487863777802,-1.879453937072751,-0.7089698769794677,1.9491893832151947,0.18594542883297738,0.0006210520920237003,0.0014260154597132188,-0.00012211463560713245,0.00012253785116407968,-0.0015521755686051305,0.0006962291386081788,0.004169938748230403,0.2411382496356964,-23.63736343383789,19.501754760742188,17.89893341064453,0.9099222421646118,2.3668715953826904,-0.14735259115695953,,,,,,,,,
1739401234.9716098,-0.7073279967090433,0.6750345416711728,1.418489609536654,-1.8794575372377762,-0.708970974769195,1.949185536370007,0.18593401434159534,-0.0008490223250114033,0.000663737051981762,0.0012624104997169666,-0.0003825937477396391,0.0004195957324925421,-0.0003216321068756371,-0.0005627800155837756,0.2689092457294464,-23.58578872680664,19.477951049804688,17.94654083251953,0.9163309335708618,2.3604629039764404,-0.08692778646945953,,,,,,,,,
1739401234.9825425,-0.7073251352648362,0.6750345494718983,1.4184858615302893,-1.8794557548880024,-0.7089744692360794,1.9491869217389046,0.18594131303705233,0.0011550766330553014,-0.0008828188785961929,-0.0001702607634077553,-0.00029065368228104263,-0.0015057934160008235,0.00010026864798089334,0.001122404599896635,0.2689092457294464,-23.58578872680664,19.501754760742188,17.92273712158203,0.9099222421646118,2.3604629039764404,-0.11347807943820953,,,,,,,,,
1739401234.992597,-0.7073223781404233,0.6750345671326775,1.418486079749764,-1.8794556753061282,-0.7089723210423249,1.9491916608434228,0.18593909138773493,-2.5936953188158195e-05,-0.0017638021186744028,-0.0002512466903753372,0.0008326497982874236,-0.0019244571290416572,0.00044527180147493597,0.0010171828859748245,0.2173345386981964,-23.58578872680664,19.529525756835938,17.92273712158203,0.9035135507583618,2.3476455211639404,-0.12080229818820953,,,,,,,,,
1739401235.0035956,-0.7073231373495507,0.6750382251029285,1.4184835314032749,-1.8794575374555578,-0.7089700200287645,1.9491904324491678,0.18593446109460535,0.00042642799561554395,0.00044421048683756126,-0.0003731620183187966,-0.0017334450290364385,0.000450068068781377,-0.0004255502515010203,-0.0023457409148516144,0.2411382496356964,-23.63736343383789,19.529525756835938,17.94654083251953,0.9035135507583618,2.3540542125701904,-0.09425200521945953,,,,,,,,,
1739401235.0145166,-0.7073231373078305,0.6750443545807053,1.418482290536254,-1.8794589109294584,-0.7089725189956968,1.949187369816142,0.1859364955246764,0.00032288764944720955,0.0014239123055593648,9.802682405521553e-05,-0.0003693603070243519,0.000427722489418501,-0.0007400373431218478,-0.0012460799109167073,0.2411382496356964,-23.68893814086914,19.577133178710938,17.97431182861328,0.9035135507583618,2.3540542125701904,-0.08051909506320953,,,,,,,,,
1739401235.0245726,-0.7073269547143738,0.675036777477598,1.4184793240495674,-1.879458901651113,-0.7089714544707985,1.9491899836894293,0.18593754666713175,-0.0006664852642656418,-0.0001534519108506109,-0.0009795266017047321,0.00041558284788130565,0.0004026335336053964,-0.0006866110799142396,-0.0009224126407520395,0.2927129566669464,-23.61355972290039,19.577133178710938,17.97431182861328,0.8961893320083618,2.3604629039764404,-0.12080229818820953,,,,,,,,,
1739401235.034604,-0.7073263340481892,0.6750384929052881,1.4184794654297685,-1.8794612940559643,-0.7089721658341065,1.9491892252789202,0.18594151916847912,-0.00011963910556677472,-0.0004359616927993639,-0.0007596445274736108,-0.0011593707241165845,0.0009256221542623868,6.32942674689453e-05,0.0013380648685386936,0.2411382496356964,-23.63736343383789,19.577133178710938,17.99811553955078,0.9035135507583618,2.3668715953826904,-0.14094389975070953,,,,,,,,,
1739401235.0446098,-0.7073268478235515,0.6750411243400253,1.4184792136611097,-1.8794557548862094,-0.7089693003933814,1.9491890730165318,0.1859378200637144,-0.0003450129795237026,-1.194686434316533e-05,-0.00047344514214885233,-0.00030162225020502194,0.0011267078844517894,-0.0002549745408665522,-0.00049711447364437,0.2927129566669464,-23.63736343383789,19.577133178710938,17.92273712158203,0.9035135507583618,2.3604629039764404,-0.08692778646945953,,,,,,,,,
1739401235.0546336,-0.7073231382889775,0.6750409672918471,1.418479213656846,-1.8794557548880042,-0.7089689559624628,1.949190903381282,0.18593758022190576,-0.0001412917101081995,5.767744195331098e-05,-0.0005522013508503984,0.0005545211964569695,0.001802374224174642,0.0014661958505851602,-0.0008641247126529682,0.2411382496356964,-23.66513442993164,19.577133178710938,17.92273712158203,0.9035135507583618,2.3540542125701904,-0.08051909506320953,,,,,,,,,
1739401235.0647054,-0.7073252835111238,0.6750423948233876,1.418480890370052,-1.8794613970884586,-0.7089718644531766,1.9491866642009086,0.18593944221266218,0.0006015076443228766,0.001072463990428311,-0.0003795041590959972,-0.0015336063531111623,-0.0008985802467117003,-0.0008208364945519671,-0.00018784600116987372,0.2411382496356964,-23.66513442993164,19.553329467773438,17.99811553955078,0.9099222421646118,2.3540542125701904,-0.10066069662570953,,,,,,,,,
1739401235.0755742,-0.7073271858810389,0.675040505813962,1.4184848583628802,-1.8794557544518893,-0.7089680768503455,1.9491896311107921,0.18593650876053447,-0.0006912854940685335,0.00021885261400441584,-0.0005623600827931592,0.0008714740388214227,-0.000369967764573235,-0.0002279841728280419,-0.0011608356091609405,0.2689092457294464,-23.63736343383789,19.501754760742188,17.92273712158203,0.8961893320083618,2.3604629039764404,-0.08051909506320953,,,,,,,,,
1739401235.086553,-0.7073251093006135,0.6750393480994329,1.4184848588007388,-1.8794528927748915,-0.7089733550898863,1.9491851490412893,0.1859327846640329,8.834344619050921e-05,-0.0005189514204887119,2.1853425046793452e-05,0.0010963091236465966,-0.0012201234087232831,-0.0009055458251468287,-0.0018828387020109615,0.2689092457294464,-23.61355972290039,19.501754760742188,17.92273712158203,0.9035135507583618,2.3668715953826904,-0.08051909506320953,,,,,,,,,
1739401235.0965598,-0.7073251352482438,0.6750382511507383,1.4184848588007397,-1.8794538925806388,-0.7089741509258745,1.9491892683318666,0.1859395480912243,0.0005752815144747268,-0.00028349738002477,0.0001782030420818433,0.0005190665355878825,-0.00023713717799480794,2.959427091538781e-06,-4.9131716053224474e-05,0.2689092457294464,-23.63736343383789,19.501754760742188,17.89893341064453,0.9099222421646118,2.3668715953826904,-0.10066069662570953,,,,,,,,,
1739401235.1066215,-0.7073234022173626,0.675036538691445,1.4184848588007397,-1.8794558611775174,-0.7089698770527326,1.9491872858712587,0.18594198593804395,0.0003153142929510775,-0.0007381889863820326,-0.00028106302234020614,0.00028368229950511466,-0.0006606290795058342,-0.0012698952145921134,0.0012906474638529788,0.2411382496356964,-23.61355972290039,19.501754760742188,17.92273712158203,0.9099222421646118,2.3476455211639404,-0.12080229818820953,,,,,,,,,
1739401235.117573,-0.7073193230457856,0.6750366604447461,1.4184848862728394,-1.8794529390644088,-0.7089712554285911,1.9491893538363532,0.18594147134904812,0.0022943268101330034,-0.0002959661379582988,0.00010350033461216917,0.0002706772915741328,-0.00030832134373894526,-0.0015033870872952436,0.0019260007975835263,0.2173345386981964,-23.58578872680664,19.501754760742188,17.89893341064453,0.9227396249771118,2.3540542125701904,-0.11347807943820953,,,,,,,,,
1739401235.1276028,-0.7073232167450968,0.6750382514661069,1.4184870802297447,-1.8794518264262767,-0.7089711838650612,1.9491908636428334,0.1859342236459225,0.00011882529398762106,-0.00057537618443007,-0.0006489520272071849,0.0018341662196588054,-0.001688789527036404,0.0004977943585552827,-0.0026190296088344214,0.2411382496356964,-23.63736343383789,19.501754760742188,17.89893341064453,0.9099222421646118,2.3540542125701904,-0.08051909506320953,,,,,,,,,
1739401235.1385138,-0.7073289935379716,0.6750374922567505,1.4184867606741978,-1.8794578966942912,-0.7089687503443135,1.9491901452541804,0.18594231192363964,-0.0019324113403130874,0.0011401199286071415,-0.0017117602575697046,-0.0005468521333367156,0.0009226845047129912,-0.0001319025549155216,-0.0002346420025956758,0.2927129566669464,-23.61355972290039,19.477951049804688,17.92273712158203,0.8897806406021118,2.3604629039764404,-0.13361968100070953,,,,,,,,,
1739401235.1485767,-0.7073214278160016,0.6750345493702786,1.418486645887534,-1.879455754863756,-0.708968942719008,1.9491909033456107,0.18593329611005854,0.0013565661237584993,-0.0011668397255159661,0.0003497761830406072,9.018686484590157e-05,-0.00020874029997995826,0.0014090756221942081,-0.0009810080264192353,0.2173345386981964,-23.58578872680664,19.477951049804688,17.92273712158203,0.9035135507583618,2.3540542125701904,-0.08051909506320953,,,,,,,,,
1739401235.1585877,-0.7073234581427595,0.6750365664907404,1.418482815640425,-1.8794557283970506,-0.7089685582295381,1.9491890861012402,0.18593958019341805,6.7044049284869e-05,0.00028963935162157946,-0.0015848480981971729,-0.00011146395172566221,0.0004129393521470256,-7.433914982720851e-05,-1.0812542116378715e-05,0.2411382496356964,-23.61355972290039,19.529525756835938,17.92273712158203,0.8961893320083618,2.3604629039764404,-0.13361968100070953,,,,,,,,,
1739401235.1695082,-0.707325999749802,0.6750384895582344,1.4184856015651222,-1.8794575375648737,-0.7089689433677441,1.9491858364040369,0.185934131266083,9.805215615813596e-05,0.0008761901843993865,-0.00013241251377760758,-0.000486816640676294,-0.0005455317524115557,-0.0009743344340667008,-0.0015050621965949096,0.2411382496356964,-23.63736343383789,19.501754760742188,17.94654083251953,0.9035135507583618,2.3668715953826904,-0.06037749722599983,,,,,,,,,
1739401235.1806123,-0.7073251352971589,0.6750382515432624,1.418481847981533,-1.8794555121087742,-0.7089700586529846,1.9491878007422754,0.18594044126967024,0.00024993949023843727,-0.0009799618321562884,-0.000578849674307119,0.00011341385131848022,-0.0005744378966032711,-0.00035152158848338657,0.00047842915546652187,0.2689092457294464,-23.63736343383789,19.553329467773438,17.92273712158203,0.9099222421646118,2.3668715953826904,-0.14094389975070953,,,,,,,,,
1739401235.1915731,-0.7073252840561889,0.6750347761712253,1.4184828614319906,-1.8794575362554575,-0.7089697018447493,1.9491893682260875,0.18594390666176808,-4.94831726826875e-05,-0.0016160415893497642,0.0004531413404534213,7.655176999998422e-05,0.0018235716955902494,-0.0011538099706221636,0.0023184327253062856,0.2411382496356964,-23.58578872680664,19.529525756835938,17.94654083251953,0.9099222421646118,2.3540542125701904,-0.13361968100070953,,,,,,,,,
1739401235.2015762,-0.7073252268708059,0.6750365385837575,1.4184857461111655,-1.879459631090921,-0.7089693003388058,1.949189988262761,0.1859407197584847,-0.0008850287624148007,0.0008898282086695371,0.0013063490320763898,-0.00037260132723583627,0.0006245815242405536,0.0011789456186484825,0.002033549381076246,0.2689092457294464,-23.61355972290039,19.529525756835938,17.97431182861328,0.9035135507583618,2.3604629039764404,-0.10706938803195953,,,,,,,,,
1739401235.2115898,-0.7073251614201957,0.6750403559889715,1.4184809974015984,-1.8794572873729198,-0.7089733936877017,1.9491857495547371,0.18593833854082453,-2.8051723393261057e-05,0.00027967750014942387,0.00018520740969247664,-0.00033767947626505486,-0.0002730009565041811,0.0012294949138901166,0.0009377816366313454,0.2689092457294464,-23.66513442993164,19.553329467773438,17.94654083251953,0.9035135507583618,2.3604629039764404,-0.08692778646945953,,,,,,,,,
1739401235.2216125,-0.7073224066809434,0.6750393996071882,1.4184761142153357,-1.8794556754109073,-0.7089736291776547,1.9491923694143665,0.1859414598666727,0.0009924431681460379,0.0002474672828053475,-0.001592659148764491,0.0007958628018530917,-0.0018727853633331965,0.0012232193515857948,-0.00016783212556169654,0.2689092457294464,-23.61355972290039,19.577133178710938,17.92273712158203,0.9035135507583618,2.3403213024139404,-0.11347807943820953,,,,,,,,,
1739401235.2325137,-0.7073231376976867,0.6750402759104659,1.4184792410764562,-1.879452893863709,-0.7089733554963008,1.9491858660002612,0.1859344635503902,0.00022599718249636884,0.0012806045629063618,-0.0004069460987479397,0.00048058353836207923,-0.0011321174497421803,0.000267791582273256,-0.00252814171049653,0.2411382496356964,-23.66513442993164,19.577133178710938,17.92273712158203,0.9035135507583618,2.3604629039764404,-0.09425200521945953,,,,,,,,,
1739401235.2425823,-0.7073214336537577,0.6750430212030243,1.4184827701807212,-1.8794575378759215,-0.7089688754947768,1.949186898720245,0.18593901286901476,0.0006044955519311514,0.0018453977076597677,-0.0002668579376810748,0.0001245882879880114,-0.000962753061681021,-0.0012772520244865124,-0.0006381700914788394,0.2173345386981964,-23.68893814086914,19.529525756835938,17.94654083251953,0.8897806406021118,2.3476455211639404,-0.12080229818820953,,,,,,,,,
1739401235.2536077,-0.7073258505044705,0.6750348598471905,1.418487111512861,-1.8794536556277432,-0.7089720920036527,1.9491908859299623,0.1859391776346466,-0.00046291578522869613,1.135223370096511e-05,0.0014715425352432605,0.0009901866830020274,-0.0012610273493678988,-0.0002480256115324987,-0.0016832072360220035,0.2689092457294464,-23.58578872680664,19.501754760742188,17.89893341064453,0.8897806406021118,2.3540542125701904,-0.10706938803195953,,,,,,,,,
1739401235.2645895,-0.7073283141751842,0.6750397175022217,1.4184866689880082,-1.879455436991204,-0.708968995773664,1.949185894104605,0.1859423016855702,-0.0013829730129869416,0.0008266897102294792,-0.0002836624535720164,0.0013353277230462382,-0.0008053340704416555,-0.0003990319114725341,0.001230049820154561,0.2689092457294464,-23.61355972290039,19.477951049804688,17.92273712158203,0.9035135507583618,2.3604629039764404,-0.12080229818820953,0,0,0,0.000,0,0
1739401235.2755332,-0.7073272810218768,0.6750369248454604,1.4184833044801877,-1.879457572728228,-0.7089679971288789,1.9491879180474763,0.18594309512498458,-0.000460385060791243,-0.0005414338659493706,-0.0020055207859243276,-0.0010727320777731732,0.0006913241036820557,-0.0026158047024880315,0.0012278993041452849,0.2689092457294464,-23.58578872680664,19.553329467773438,17.94654083251953,0.8833719491958618,2.3668715953826904,-0.12721098959445953,0,0,0,0.000,0,0
1739401235.2855752,-0.7073231377802341,0.6750381732514119,1.418486725402847,-1.8794575375656188,-0.7089701114956681,1.9491869101116275,0.1859357569597011,-2.088814722423494e-05,1.3861851888697925e-05,0.0006047660623453137,-0.0011860172618958528,-3.7825819432191383e-05,0.0009128597240235274,-0.001220351186372245,0.2411382496356964,-23.63736343383789,19.477951049804688,17.94654083251953,0.9099222421646118,2.3604629039764404,-0.07411040365695953,0,0,0,0.000,0,0
1739401235.2966018,-0.7073232286634659,0.6750382511027195,1.4184852016937164,-1.8794537219096326,-0.7089673382882941,1.94918590501518,0.1859419483980728,0.0007410643798558506,-0.0001229509287994611,-9.99896206111022e-05,0.0009857187368573388,-0.00014467121129222007,-0.0017042735974528293,0.0013907313971000077,0.2411382496356964,-23.63736343383789,19.501754760742188,17.89893341064453,0.8897806406021118,2.3604629039764404,-0.12080229818820953,0,0,0,0.000,0,0
1739401235.3074996,-0.7073232168902218,0.6750402756439816,1.4184888943049196,-1.879455728068589,-0.7089690750042974,1.9491909027294874,0.18594154765507231,0.00045427939132607054,-0.00040051972600283365,-2.611431296361676e-05,0.0002412340737688753,5.5239307869701796e-05,0.0012828389528810771,-0.00017676667904762485,0.2411382496356964,-23.66513442993164,19.477951049804688,17.92273712158203,0.9035135507583618,2.3540542125701904,-0.12721098959445953,0,0,0,0.000,0,0
1739401235.3175673,-0.7073231464665445,0.6750392312688791,1.4184848328001538,-1.879457537564569,-0.7089666144776867,1.9491893087965033,0.18594234328921871,0.00011351867643053233,0.000592548533512682,-0.0012155823714952432,-0.0008418081807847169,0.0017491678431977168,-6.172366757709134e-05,0.002041477639149863,0.2411382496356964,-23.63736343383789,19.501754760742188,17.94654083251953,0.8833719491958618,2.3403213024139404,-0.12080229818820953,0,0,0,0.000,0,0
1739401235.3285856,-0.7073214247871508,0.6750402755404984,1.4184878259380935,-1.8794557535798089,-0.7089732388788432,1.9491896224431153,0.1859430990254226,0.00216814935563814,0.0013471177487263263,0.0006893747818947741,0.00035787514415817066,-0.00033496818943751905,-0.001273145389729222,0.0008727399550985647,0.2173345386981964,-23.66513442993164,19.501754760742188,17.92273712158203,0.9035135507583618,2.3604629039764404,-0.12721098959445953,0,0,0,0.000,0,0
1739401235.3396294,-0.7073251362661684,0.6750384895218876,1.4184851152237525,-1.8794574345446422,-0.7089728893611192,1.9491857486930868,0.18593995326814297,-0.0006408356414200284,-0.0005343664050680743,0.0002598436876144555,-0.00029682430934421886,0.0006442206214477725,-0.0002742127883344128,0.000615170443063058,0.2689092457294464,-23.63736343383789,19.501754760742188,17.94654083251953,0.8961893320083618,2.3604629039764404,-0.10066069662570953,0,0,0,0.000,0,0
1739401235.3505847,-0.7073236853484474,0.6750374824469249,1.4184828161316982,-1.8794595378814374,-0.7089693579810623,1.9491904293931306,0.1859389016725755,0.0002068734641697018,0.0005550132839301563,0.001085603096168428,-0.001489898851463108,-0.0003600467426845468,0.00045289406157748965,0.0005588031754675249,0.2173345386981964,-23.58578872680664,19.529525756835938,17.97431182861328,0.9035135507583618,2.3476455211639404,-0.09425200521945953,0,0,0,0.000,0,0
1739401235.3615997,-0.7073270980108503,0.6750382894208146,1.4184828736372148,-1.8794493285105682,-0.7089680782877603,1.9491908467040364,0.1859392045988628,-0.0009829939339826368,-4.067000738976388e-05,9.913322595175785e-05,0.0026314798352560518,0.0006999631388171059,0.000976141074392922,0.0008787626824892205,0.2927129566669464,-23.63736343383789,19.529525756835938,17.87512969970703,0.8961893320083618,2.3540542125701904,-0.09425200521945953,0,0,0,0.000,0,0
1739401235.3734987,-0.7073252150500043,0.6750386935072227,1.418480996045035,-1.8794596705611812,-0.7089722143436615,1.9491877186705395,0.18594147693074786,0.00032820254260228465,-0.0010288729436177288,0.00043071330381609944,0.0009482411625137252,-0.0008215953287182892,-0.00021188327922542385,0.0005620502629419511,0.2689092457294464,-23.61355972290039,19.553329467773438,17.94654083251953,0.9035135507583618,2.3540542125701904,-0.11347807943820953,0,0,0,0.000,0,0
1739401235.383583,-0.707323852564018,0.6750386842911458,1.418480993390424,-1.879455754900045,-0.7089720895059615,1.949187557627319,0.18594234331552156,0.0002845531370168209,-6.228010819206076e-05,-0.0004943451131489984,4.314833523973052e-05,-0.00041269924337158307,0.00043241344181649705,0.0016631193411268562,0.2411382496356964,-23.61355972290039,19.553329467773438,17.92273712158203,0.8897806406021118,2.3732802867889404,-0.12080229818820953,0,0,0,0.000,0,0
1739401235.393614,-0.7073251630599445,0.6750424036778795,1.4184844762626039,-1.8794575434519019,-0.7089708176505126,1.9491879717693292,0.18594071975821358,-0.0008979004531902444,0.0005919597468518928,0.00010549566559606957,-0.0006198410879917711,-0.00012800584890799513,-5.5858837061984064e-05,0.00010063245906092894,0.2689092457294464,-23.66513442993164,19.501754760742188,17.94654083251953,0.9099222421646118,2.3476455211639404,-0.10706938803195953,0,0,0,0.000,0,0
1739401235.4045417,-0.7073238525637245,0.6750328399067635,1.4184827790087247,-1.8794556489242245,-0.7089726956022773,1.949187706321774,0.18593595732343543,0.0002908174967717006,-0.0011839247947683425,-0.0007653103279199119,0.0008568563353963964,-0.0009806300853648434,0.0003556406425723055,-0.002310711501144801,0.2411382496356964,-23.56198501586914,19.529525756835938,17.92273712158203,0.9035135507583618,2.3540542125701904,-0.06678618490695953,0,0,0,0.000,0,0
1739401235.4145546,-0.707325170606293,0.675037253838764,1.4184866506351252,-1.8794589415801612,-0.7089691631334457,1.9491896222988534,0.18594149058200635,-0.0001045347652054092,0.00016903408250096334,0.0014128128512203332,-0.0006284654889359566,-0.0003610392230557651,-0.0007405561516774477,0.0003372299125733349,0.2689092457294464,-23.61355972290039,19.477951049804688,17.94654083251953,0.8961893320083618,2.3604629039764404,-0.11347807943820953,0,0,0,0.000,0,0
1739401235.4245656,-0.7073231402518683,0.675032829550168,1.4184827820634949,-1.8794575375888003,-0.7089704600117752,1.9491908597840768,0.18593438014818625,0.0013850275705565734,-0.00019431370387588758,-0.0014154527763661567,-0.0005644682152976269,4.289625120910436e-05,0.001660100028639806,-0.0009659411507570032,0.2411382496356964,-23.56198501586914,19.529525756835938,17.94654083251953,0.9163309335708618,2.3540542125701904,-0.08051909506320953,0,0,0,0.000,0,0
1739401235.4345872,-0.7073210322582112,0.6750352592768245,1.4184877013272792,-1.8794557548880042,-0.7089700332551815,1.9491923693270645,0.18594548152486357,0.0016274573132766621,-0.00040847719474295177,-0.0010572134227930887,-0.0008465290229422171,9.228489360144399e-05,0.0006496179308473674,0.0016770190121499682,0.2411382496356964,-23.58578872680664,19.501754760742188,17.92273712158203,0.9035135507583618,2.3403213024139404,-0.14735259115695953,0,0,0,0.000,0,0
1739401235.4455056,-0.7073257643154761,0.6750389240804708,1.4184857872029997,-1.8794575375650233,-0.7089733556411237,1.9491901285321613,0.18594472453290967,0.0005396698144494779,0.0014428779083282169,0.0006802554108747734,-0.0009979179607213216,-0.0007429266461528803,0.0011584862520465037,0.0017735406110767852,0.2411382496356964,-23.61355972290039,19.529525756835938,17.94654083251953,0.9035135507583618,2.3476455211639404,-0.14094389975070953,0,0,0,0.000,0,0
1739401235.4555514,-0.7073252832285469,0.6750426337062668,1.418485375118718,-1.879451749587304,-0.7089714683845414,1.949188674720568,0.18594310097560265,0.00011566352419299447,0.001569706966271188,0.0001489826196409478,0.0011968234774570319,-0.0007433074107296927,-0.00044509996036789167,0.00018379467147582891,0.2411382496356964,-23.66513442993164,19.529525756835938,17.89893341064453,0.8961893320083618,2.3604629039764404,-0.12721098959445953,0,0,0,0.000,0,0
1739401235.465584,-0.7073251353940408,0.6750386844990406,1.4184850198937393,-1.879455753760201,-0.7089684881350058,1.949185905223874,0.18594193524037744,-0.0005526999769117462,-2.3971726303705673e-05,0.001087347315585949,-0.00018353832710640654,0.0002628150732698002,0.0002468102238816001,0.0011587359991106607,0.2689092457294464,-23.61355972290039,19.553329467773438,17.92273712158203,0.8961893320083618,2.3604629039764404,-0.12080229818820953,0,0,0,0.000,0,0
1739401235.476569,-0.707325135248684,0.6750368045215591,1.418489895568791,-1.8794557551060302,-0.708974032134756,1.9491919987557305,0.18593833805097593,0.00021722749204101173,0.00021798046713715935,0.0007631391281792735,0.0010897325338911838,2.442234797563018e-05,0.0006993862481789541,-0.00017874591902164357,0.2689092457294464,-23.61355972290039,19.477951049804688,17.92273712158203,0.9099222421646118,2.3403213024139404,-0.08692778646945953,0,0,0,0.000,0,0
1739401235.4875908,-0.7073207454498827,0.6750383345021056,1.4184877540973215,-1.8794557548880053,-0.7089681967015365,1.9491900927087225,0.18593833854082176,0.0018584544069422297,0.0004468357726634762,0.0007879448837317259,-0.0006578425332545341,0.0021065156582822267,0.00013486895896918,-8.754970937348627e-05,0.1935308277606964,-23.63736343383789,19.477951049804688,17.92273712158203,0.8961893320083618,2.3604629039764404,-0.08692778646945953,0,0,0,0.000,0,0
1739401235.4985144,-0.7073279962774648,0.6750382612421427,1.4184856372558547,-1.8794596173185398,-0.70897129988035,1.949184665440408,0.18593758088074616,-0.0011372821780535093,-0.00021406043984643913,0.0010886400382655982,-0.00019605581907320346,0.0004482951225028543,-0.0014321067190509232,-0.0013812198764349096,0.2689092457294464,-23.63736343383789,19.501754760742188,17.97431182861328,0.8961893320083618,2.3668715953826904,-0.08051909506320953,0,0,0,0.000,0,0
1739401235.5085769,-0.7073272810643468,0.6750392885021413,1.4184813639983571,-1.8794553654158739,-0.7089704988637276,1.9491900912320106,0.18594391837830154,0.0005686529373360521,-1.1480707370428107e-05,-0.0003373848347674755,-0.00014508748380137577,-0.0016027598014219224,-0.0010479363212420783,-0.0008454609549028481,0.2689092457294464,-23.63736343383789,19.553329467773438,17.94654083251953,0.9035135507583618,2.3604629039764404,-0.10706938803195953,0,0,0,0.000,0,0
1739401235.5195358,-0.7073217696540081,0.6750403968762271,1.4184792111676978,-1.87945576370606,-0.7089705380637858,1.9491857320606583,0.18593848919509715,0.0002050595894650144,4.0883324971609865e-05,-0.0009721173434902218,-0.0010170354323365185,-0.0014821861221236202,-0.0011997264177248542,-0.00040568586755179215,0.2173345386981964,-23.63736343383789,19.577133178710938,17.92273712158203,0.9035135507583618,2.3604629039764404,-0.08051909506320953,0,0,0,0.000,0,0
1739401235.5305126,-0.7073232462209228,0.6750354953333765,1.4184812435827199,-1.8794553917979606,-0.7089680774948115,1.9491904379030018,0.18593594563773833,-0.00023026805694290723,-0.001009121536082614,-0.00046477296028992724,0.00104414509759907,0.0008668748065677869,0.0002813149011511141,-0.0013998859508384453,0.2411382496356964,-23.58578872680664,19.553329467773438,17.94654083251953,0.8961893320083618,2.3476455211639404,-0.06678618490695953,0,0,0,0.000,0,0
1739401235.5406013,-0.7073272810177396,0.6750365508084177,1.4184814389011047,-1.879455756268877,-0.7089703738765126,1.9491861481698571,0.18594274994302035,-0.0012735379464051955,-0.0002781801284071555,-0.000419125051009876,0.0002716820011577126,-0.0002095231064529389,-0.0009593166197859555,0.001855413196284696,0.2689092457294464,-23.61355972290039,19.577133178710938,17.92273712158203,0.9035135507583618,2.3540542125701904,-0.12721098959445953,0,0,0,0.000,0,0
1739401235.551621,-0.7073214366739099,0.675034542107261,1.4184830537360678,-1.879458615910956,-0.7089690810552665,1.9491861758888036,0.1859427457171679,0.0003010801387256254,-0.0003349287937875335,0.0009479370422832434,-0.0006825914025096973,0.00015699591805726592,5.0870260302136825e-05,0.0008503725311239405,0.2173345386981964,-23.58578872680664,19.529525756835938,17.92273712158203,0.9035135507583618,2.3540542125701904,-0.12721098959445953,0,0,0,0.000,0,0
1739401235.5635083,-0.7073231373078973,0.6750396644792519,1.4184827793892814,-1.8794595341189388,-0.7089689831567454,1.949190850560436,0.18594147747045817,-7.772477594725652e-05,0.001293082895517591,-0.0006656307956293705,-0.0006036510118509917,0.0010329248557103769,0.0014764997021605426,0.0001922565431358549,0.2411382496356964,-23.61355972290039,19.529525756835938,17.97431182861328,0.9035135507583618,2.3540542125701904,-0.11347807943820953,0,0,0,0.000,0,0
1739401235.5735734,-0.707325170606293,0.6750382512298211,1.4184851884659375,-1.8794557548875344,-0.7089713549876253,1.949186135054486,0.18593683638438252,-0.0004213441818405415,-0.0009093850661051675,4.048559200918507e-05,-0.0006469208172543135,0.00026242116417705714,-0.00036129424279291204,-0.0005743017418507531,0.2689092457294464,-23.63736343383789,19.501754760742188,17.92273712158203,0.8961893320083618,2.3540542125701904,-0.07411040365695953,0,0,0,0.000,0,0
1739401235.5835934,-0.7073268477700132,0.6750348879674083,1.4184870932037605,-1.8794596160466834,-0.7089709350872844,1.9491893575487624,0.18593595553599343,-0.001322400057746682,-0.0010142997771047462,0.0009641751972882648,-0.00090648543532164,-0.00017903741880031488,-0.0010094599668645403,-0.0002637987677951755,0.2927129566669464,-23.58578872680664,19.501754760742188,17.97431182861328,0.9163309335708618,2.3540542125701904,-0.06678618490695953,0,0,0,0.000,0,0
1739401235.5946214,-0.7073244420687402,0.6750390035551558,1.4184828035773844,-1.8794550395232283,-0.7089685536589336,1.9491884276915783,0.18594233015177963,0.0005117153397664121,0.0004165111908410532,-0.0013959795290646817,0.0011967510970662732,-0.0005543220459082152,0.0012391845667602858,0.0012691734484608051,0.2689092457294464,-23.61355972290039,19.529525756835938,17.92273712158203,0.8961893320083618,2.3476455211639404,-0.12080229818820953,0,0,0,0.000,0,0
1739401235.6064997,-0.7073253747924594,0.6750368133080626,1.4184866426460288,-1.8794559923119778,-0.7089704276950962,1.949192168892798,0.18593788949956794,-0.0012112206000310512,-0.00010767058436877928,8.008094278084835e-05,-0.0006691853376908259,0.0006380366584867371,0.0009728980895506159,-0.0009381953969259735,0.2689092457294464,-23.61355972290039,19.477951049804688,17.92273712158203,0.9035135507583618,2.3403213024139404,-0.07411040365695953,0,0,0,0.000,0,0
1739401235.6165738,-0.7073252148319115,0.6750346467159548,1.4184848710105684,-1.879451924625774,-0.7089708546715905,1.9491858878041617,0.18593758088676535,0.00025189659812689295,-0.0006005950997381687,-0.0010872292506375323,0.0007846598106585143,-0.0005228273423670996,-0.0005291418050567391,-0.0011609414899666182,0.2689092457294464,-23.58578872680664,19.501754760742188,17.87512969970703,0.8833719491958618,2.3604629039764404,-0.08051909506320953,0,0,0,0.000,0,0
1739401235.6265903,-0.707324285811396,0.6750366180570839,1.4184812439221304,-1.8794603858285828,-0.7089733551625916,1.9491857699965045,0.18593758071823127,0.0014584022860889626,-0.00018148319062654908,-0.0012319635908389697,-0.0029057101581178193,-0.0018411977260798477,-0.0006476193933193268,0.000792248990772844,0.2173345386981964,-23.61355972290039,19.553329467773438,17.94654083251953,0.9035135507583618,2.3604629039764404,-0.08051909506320953,0,0,0,0.000,0,0
1739401235.637573,-0.7073235706794777,0.6750386843864272,1.4184899513584215,-1.8794521894046896,-0.7089713359344584,1.949186189544192,0.185942330151809,0.0008879090980737064,0.0008296839231577582,0.0032868119615265066,0.0015188076679600628,3.727477401774151e-05,-0.0005073657834170574,-0.0004997411341866979,0.2173345386981964,-23.61355972290039,19.477951049804688,17.87512969970703,0.8961893320083618,2.3668715953826904,-0.12080229818820953,0,0,0,0.000,0,0
1739401235.6475754,-0.7073252148669,0.6750382511394984,1.4184858519223207,-1.8794536050871882,-0.7089698196354902,1.949187817706342,0.18594071975799067,-0.000831304226115476,0.0006864189816645728,0.0002926152689983042,0.00152732390495637,-0.0002733849454041747,-0.0022555006625712653,0.0003427566049056056,0.2689092457294464,-23.63736343383789,19.501754760742188,17.92273712158203,0.9099222421646118,2.3668715953826904,-0.10706938803195953,0,0,0,0.000,0,0
1739401235.6585019,-0.7073251265832382,0.6750365474127462,1.4184827790277028,-1.8794604198302212,-0.7089695472271451,1.9491885626350525,0.18594149643254607,0.0006136287482183797,0.00010889635367729311,0.0002728179828511064,-0.001083949071643884,0.0006938927950563095,0.001130538586886392,0.0002504374611544126,0.2689092457294464,-23.61355972290039,19.529525756835938,17.99811553955078,0.8961893320083618,2.3604629039764404,-0.11347807943820953,0,0,0,0.000,0,0
1739401235.6685638,-0.7073214337263841,0.6750429947483081,1.4184792136205073,-1.8794557548824709,-0.7089712156994644,1.9491859027634302,0.18593681688269045,0.00010023794863429881,0.002918346488478391,-0.001884281500566752,0.0010582100342578817,-0.0012185112760035577,0.001069106521210996,-0.0021252734230626036,0.2173345386981964,-23.68893814086914,19.577133178710938,17.92273712158203,0.9227396249771118,2.3604629039764404,-0.07411040365695953,0,0,0,0.000,0,0
1739401235.6785758,-0.7073240909826007,0.6750404763957217,1.4184849412170366,-1.8794575375650229,-0.7089722805710367,1.9491854302068066,0.1859407197578916,-0.00034128742944054076,0.00022230724107458703,0.001765873057105787,-0.0006416646137502589,-0.0022965560348557523,-0.0003242917471275425,0.0003036327074409478,0.2411382496356964,-23.63736343383789,19.501754760742188,17.94654083251953,0.9035135507583618,2.3604629039764404,-0.10706938803195953,0,0,0,0.000,0,0
1739401235.688621,-0.7073283141684548,0.6750404263173252,1.41848516638455,-1.8794575375650233,-0.708968553669697,1.949184960985751,0.18594075924935685,-0.0017145716596543195,-0.0007393393735372503,0.0020869724437315535,-0.00013673468316389618,0.0005529874415279219,-0.00011623725909716841,-0.0013841551657619887,0.2689092457294464,-23.63736343383789,19.501754760742188,17.94654083251953,0.8961893320083618,2.3732802867889404,-0.10706938803195953,0,0,0,0.000,0,0
1739401235.699587,-0.7073251352666283,0.6750365474250248,1.4184852159397714,-1.8794557548880042,-0.7089695249884984,1.9491849743801735,0.18594147303061007,-0.0004882092114262791,-0.00022197073690795297,0.0017208917964606227,0.0006799370685077877,-0.0005283995486344388,-0.00039459194550162514,-0.0008144196151916178,0.2689092457294464,-23.61355972290039,19.501754760742188,17.92273712158203,0.8961893320083618,2.3668715953826904,-0.11347807943820953,0,0,0,0.000,0,0
1739401235.7096071,-0.7073231402512697,0.6750389237495151,1.418479213662894,-1.8794555125448393,-0.70897291904635,1.9491873516554288,0.18593863462788507,0.000671518545836087,0.0003326088580708136,-0.0014657390517442178,0.0007673844740196918,0.000708120632381587,0.0013252582242737016,-0.00017265480061778708,0.2411382496356964,-23.61355972290039,19.577133178710938,17.92273712158203,0.9099222421646118,2.3540542125701904,-0.08051909506320953,0,0,0,0.000,0,0
1739401235.7196658,-0.7073260889230494,0.6750394094572343,1.4184827790108843,-1.8794557539027537,-0.7089694599931231,1.949189472399835,0.18593646781822393,-0.0013032531731849495,0.0008888571393451974,0.0003814218187665118,0.0005289948628591414,7.458674707015592e-05,-0.0002776660895227399,-0.0020117222710294386,0.2689092457294464,-23.61355972290039,19.529525756835938,17.92273712158203,0.9035135507583618,2.3540542125701904,-0.07411040365695953,0,0,0,0.000,0,0
1739401235.730517,-0.7073232167860735,0.6750366865703479,1.4184845439617564,-1.8794577759835966,-0.7089701899689762,1.949186489352566,0.1859414769287407,0.00042592073669243285,-0.0009843849027828338,0.0005718352460301292,-0.0004983567666738788,-0.001238689547918039,-0.0009247102338352519,0.0020124132447540037,0.2411382496356964,-23.58578872680664,19.501754760742188,17.94654083251953,0.9035135507583618,2.3604629039764404,-0.11347807943820953,0,0,0,0.000,0,0
1739401235.7415025,-0.7073268490780583,0.6750397561370275,1.4184828064812065,-1.8794575375663691,-0.708968571318531,1.9491847553786765,0.18594309951296495,-2.4393726888617597e-05,0.0010806078635822191,-0.0003561863708956742,0.0005020790180681594,0.0009275456868034978,-0.0009804312131941161,0.0031137273369685487,0.2927129566669464,-23.61355972290039,19.529525756835938,17.94654083251953,0.8961893320083618,2.3668715953826904,-0.12721098959445953,0,0,0,0.000,0,0
1739401235.7515707,-0.7073260102135749,0.6750382640215683,1.4184848578200584,-1.879454676542074,-0.7089717877933446,1.9491842152626389,0.18593793630101063,-0.00011577118564064844,0.00027195585914678295,0.00021955736453260546,0.0002486192603736136,5.0583587526901763e-05,-0.0018521690918188003,0.0007619184440504047,0.2411382496356964,-23.63736343383789,19.501754760742188,17.94654083251953,0.8897806406021118,2.3732802867889404,-0.08051909506320953,0,0,0,0.000,0,0
1739401235.7625747,-0.7073290730257037,0.675037492583866,1.4184888036839078,-1.8794565484442691,-0.7089696331551705,1.9491886740217401,0.18593762037389577,-0.0018973475605969742,-0.00033096558762228694,0.0014038572229211992,0.0016080468532772543,-0.0014938857310290913,-0.0010795109662476766,-0.001309853798595038,0.2927129566669464,-23.61355972290039,19.450180053710938,17.94654083251953,0.8961893320083618,2.3604629039764404,-0.08051909506320953,0,0,0,0.000,0,0
1739401235.7725973,-0.707324095271466,0.6750346201305906,1.4184909556664482,-1.8794539718671854,-0.7089696461837458,1.9491853774236174,0.1859423438037381,-0.0005130606308893144,-0.0008053850143089654,0.0020222754182349454,0.0004475377593405014,3.698883896785388e-05,-0.0018839544081882677,0.0014048881652126647,0.2411382496356964,-23.58578872680664,19.450180053710938,17.89893341064453,0.8961893320083618,2.3604629039764404,-0.12080229818820953,0,0,0,0.000,0,0
1739401235.7835202,-0.7073214378744589,0.6750355826558562,1.4184866689624716,-1.87945964384583,-0.7089708151257194,1.949188284807738,0.1859375808807489,0.0013871775879724497,-0.0005832026535496102,0.0007610542412830448,-0.0025575008648305096,0.0003425735723923953,-0.00044098214997551576,-0.0010859156358946915,0.2173345386981964,-23.58578872680664,19.477951049804688,17.97431182861328,0.9099222421646118,2.3668715953826904,-0.08051909506320953,0,0,0,0.000,0,0
1739401235.7935658,-0.7073231768809572,0.6750382524290008,1.418483137505292,-1.8794532899216068,-0.70897079289642,1.9491916153347633,0.18593947504070188,0.0007993265511147368,-5.754365853355859e-05,-0.0004743509522923839,0.0022589527039073415,-0.0014292448657784,-0.0001553852833498004,-0.00021276440978887647,0.2411382496356964,-23.63736343383789,19.529525756835938,17.92273712158203,0.9099222421646118,2.3476455211639404,-0.10066069662570953,0,0,0,0.000,0,0
1739401235.8045332,-0.7073251323604223,0.675038277703151,1.4184817394432736,-1.8794575286929611,-0.7089696795348691,1.9491911445638987,0.18593579644269506,0.0003064464500071752,-0.0008666385471432169,-0.0012997729752652737,-0.0008240310604641329,-0.0006545103789932685,0.00038914676202399,-0.0025060976571921034,0.2689092457294464,-23.63736343383789,19.553329467773438,17.94654083251953,0.8961893320083618,2.3476455211639404,-0.07411040365695953,0,0,0,0.000,0,0
