IITGN-Robotics/Franka_IITGN_ROBOTICS/franka_ros/franka_iitgn/data/b_19.csv
time,fr3_joint1_pos,fr3_joint2_pos,fr3_joint3_pos,fr3_joint4_pos,fr3_joint5_pos,fr3_joint6_pos,fr3_joint7_pos,fr3_joint1_vel,fr3_joint2_vel,fr3_joint3_vel,fr3_joint4_vel,fr3_joint5_vel,fr3_joint6_vel,fr3_joint7_vel,fr3_joint1_eff,fr3_joint2_eff,fr3_joint3_eff,fr3_joint4_eff,fr3_joint5_eff,fr3_joint6_eff,fr3_joint7_eff,flexpin1,flexpin2,flexpin3,Force,ContactMic,ContactMic_gt
1739401260.7632115,-0.7072255830290561,0.674631207811355,1.4183844676853625,-1.8795106781768134,-0.7086015848896482,1.9493866615453117,0.18573943940869803,0.0005848392247946128,0.0015201567858322952,0.001064605914772744,-0.000725409093785902,0.00037473057488845567,-0.001295268506074557,-0.0010128636625356493,0.1419561207294464,-23.45883560180664,19.350997924804688,17.97431182861328,0.8897806406021118,2.3604629039764404,-0.08051909506320953,,,,,,,,,
1739401260.7741542,-0.7072292155581253,0.6746478023227582,1.4183655517973417,-1.8795115076694877,-0.7086046521959377,1.9493826115603072,0.18574763885505333,0.0005073570456306975,0.0008525345544673569,-0.0019158215511882615,-0.001079674663330068,-0.001286452678682936,-0.0012942189682676958,0.002598445555912105,0.1935308277606964,-23.51041030883789,19.450180053710938,17.99811553955078,0.9035135507583618,2.3540542125701904,-0.08692778646945953,,,,,,,,,
1739401260.7851775,-0.7072292250326796,0.6746653964473109,1.418357440930123,-1.8795051159338094,-0.7086035272683465,1.9493831558563386,0.1857497424456825,0.0009308282788714204,0.002613532755056471,-0.0017713264365327773,0.0007879263862428017,-0.00010003036298853065,0.00014076279962587382,0.00017164126926294673,0.1935308277606964,-23.53818130493164,19.426376342773438,17.89893341064453,0.8897806406021118,2.3403213024139404,-0.11347807943820953,,,,,,,,,
1739401260.7952168,-0.7072357289052937,0.6746720527968356,1.4183462145522718,-1.8795030919006208,-0.7086070260368849,1.9493795713953392,0.1857544028822863,-0.0009764870104900799,-0.0006738574142100629,-0.0009278087563136392,0.0009802632010834193,-0.0011052176198534584,-0.002003280958173741,0.0012547696300979475,0.2689092457294464,-23.53818130493164,19.477951049804688,17.87512969970703,0.8833719491958618,2.3403213024139404,-0.11347807943820953,,,,,,,,,
1739401260.8061767,-0.7072388743275067,0.6746867598901102,1.418332627814216,-1.8795030654083051,-0.7086077819982647,1.949377824212188,0.1857522544690157,-0.000615297469547416,0.0006372456092470758,-0.0006366760233597997,0.0005671627297806146,-0.0007486658399555871,-0.00035650991432959774,0.00010707080155900728,0.2689092457294464,-23.63736343383789,19.529525756835938,17.87512969970703,0.8897806406021118,2.3540542125701904,-0.09425200521945953,,,,,,,,,
1739401260.8172297,-0.7072443366313077,0.6746972509247244,1.4183156510056116,-1.8795032469202426,-0.7086102844175088,1.9493755505852328,0.18575539388890294,-0.00046199689760753447,0.00042515404654758855,-0.0018323518034438888,0.0026191117284376023,-0.0007837457683778539,-0.000330543243017501,0.0003332942503392367,0.3442876636981964,-23.66513442993164,19.628707885742188,17.87512969970703,0.9099222421646118,2.3732802867889404,-0.12080229818820953,,,,,,,,,
1739401260.8282075,-0.7072454018704611,0.6747090278446698,1.418304679760754,-1.8795086123714717,-0.7086079031476423,1.949377705827894,0.18575616417098822,-0.00010384784778002848,0.0016695408630270604,-0.0008572991276209333,-3.349025017517171e-05,-5.120275781757462e-05,0.0004449739686893399,-0.00022407926892943674,0.3165166676044464,-23.74051284790039,19.604904174804688,17.97431182861328,0.8897806406021118,2.3540542125701904,-0.12721098959445953,,,,,,,,,
1739401260.8402128,-0.7072483324381471,0.674714351220561,1.4182943431443658,-1.8795146865802894,-0.7086089007507321,1.9493728136246726,0.1857566688522853,0.0005696229214049461,0.0008449792089479108,-0.0006498756688756099,-0.0008155723864333277,-9.804099161227821e-05,0.0004399981811866059,0.0014801890529599964,0.3165166676044464,-23.71670913696289,19.656478881835938,17.99811553955078,0.8961893320083618,2.3604629039764404,-0.12721098959445953,,,,,,,,,
1739401260.8521526,-0.70724669939579,0.6747179217767956,1.418292867402652,-1.879510784744103,-0.7086137564258087,1.9493715398746967,0.18575696636113986,0.0005174906161317769,0.0012547297015758996,0.0007242339472515244,-7.775045398873606e-05,-0.0003302544491275503,0.00023718670497192525,-1.7848169725127178e-05,0.2927129566669464,-23.71670913696289,19.628707885742188,17.97431182861328,0.9035135507583618,2.3668715953826904,-0.13361968100070953,,,,,,,,,
1739401260.862228,-0.7072504484935475,0.6747140923167607,1.4182954154795744,-1.8795086904514968,-0.7086085423241585,1.9493715398737257,0.18575893063214544,-0.0010753879496876741,-0.0007222771520356416,0.0013094842842983844,0.0009735821973887227,0.0015666593987632034,-0.00019624240021091975,0.0004387400272458574,0.3442876636981964,-23.66513442993164,19.553329467773438,17.94654083251953,0.8961893320083618,2.3668715953826904,-0.11347807943820953,,,,,,,,,
1739401260.8741872,-0.7072449075598892,0.674716441049614,1.4182946283412876,-1.8795115394943418,-0.7086082742551711,1.9493737733927634,0.1857601739145566,0.00046195682504138457,-0.00024100197318279077,0.0009497966075567303,0.0003329227191512934,-0.0008441226379670133,0.00017733933869172198,0.0018675695080688339,0.2689092457294464,-23.66513442993164,19.529525756835938,17.94654083251953,0.8897806406021118,2.3476455211639404,-0.12080229818820953,,,,,,,,,
1739401260.8842514,-0.7072423045771791,0.6747119672223668,1.418296396801272,-1.8795093946032755,-0.7086089139442442,1.9493715398735028,0.18575507366592398,0.0017366420239300967,0.0004138504020862117,-0.00033051695483559654,0.0009904064696880292,0.0006782417960971031,0.0002797370088439189,0.00032216704659678523,0.2411382496356964,-23.63736343383789,19.501754760742188,17.94654083251953,0.8961893320083618,2.3668715953826904,-0.08051909506320953,,,,,,,,,
1739401260.895242,-0.7072425390568903,0.674711660821794,1.4183010458050302,-1.8795086793435167,-0.7086097799730185,1.9493727019811724,0.18575344719477455,0.0006207905574311075,-0.00012835007760274308,0.00032404823790965244,0.0008222223475925805,0.0008898512831039464,-0.0002600568957324684,-0.00043214991147414296,0.2411382496356964,-23.61355972290039,19.477951049804688,17.94654083251953,0.8961893320083618,2.3540542125701904,-0.07411040365695953,,,,,,,,,
1739401260.90619,-0.7072429488612338,0.6747069445962585,1.4183055363240604,-1.8795051159396472,-0.7086111276903097,1.9493698762775002,0.1857593782718052,0.0007353189032279696,-9.364791728564797e-05,-0.0008564474858301048,0.0007031117788499174,0.0016830671302535676,-0.0014283780532615576,0.00017759822616092945,0.2411382496356964,-23.56198501586914,19.450180053710938,17.89893341064453,0.8897806406021118,2.3540542125701904,-0.11347807943820953,,,,,,,,,
1739401260.917235,-0.7072411121223151,0.674707312135787,1.418305252724224,-1.8795068956732268,-0.7086116158031595,1.9493746787272663,0.18576494511509267,-1.5581759287966403e-05,4.858975740192642e-05,-0.000904882305170975,-0.0007993480244319541,-0.002791924830169131,1.2232927710112331e-05,0.001073763134804995,0.2411382496356964,-23.53818130493164,19.426376342773438,17.92273712158203,0.9099222421646118,2.3403213024139404,-0.13361968100070953,,,,,,,,,
1739401260.92914,-0.7072429477630161,0.6747031994735653,1.4183073443377954,-1.8795090326101156,-0.7086088700736045,1.9493754364112712,0.18575602605469407,-0.0008853979030505068,9.657048811734622e-05,-0.000537538607546344,-0.000645744779319187,0.0016438779645449107,0.0006720306693513883,-0.000662836855807083,0.2411382496356964,-23.51041030883789,19.402572631835938,17.92273712158203,0.8897806406021118,2.3339126110076904,-0.09425200521945953,,,,,,,,,
1739401260.9411945,-0.7072429104546775,0.6747069126667878,1.4183064929268454,-1.8795068927338032,-0.7086149867272868,1.9493743255384832,0.18575717550302615,0.0009382095915828402,7.008614950560323e-05,7.645916572391318e-05,-0.0003032132543903006,-0.0013568966952038103,-5.017200427896132e-05,0.0004128278782260957,0.2411382496356964,-23.56198501586914,19.450180053710938,17.92273712158203,0.9099222421646118,2.3403213024139404,-0.09425200521945953,,,,,,,,,
1739401260.9512236,-0.7072452646915958,0.6747069069798189,1.4183044868476058,-1.8795032979413018,-0.7086109633464646,1.9493730551879005,0.18575775040064677,-0.0008409785442251993,-0.0004247928562473371,0.0001847889048029465,0.0005442820264281267,0.0006371793802305687,-0.0002322276420803513,0.00046477585370699725,0.2689092457294464,-23.56198501586914,19.477951049804688,17.87512969970703,0.9035135507583618,2.3540542125701904,-0.12721098959445953,,,,,,,,,
1739401260.9612484,-0.7072465433177827,0.6747086224438932,1.4183017002961293,-1.879505112995654,-0.7086114858281093,1.949372297533804,0.18575671502846083,-0.0011793689850332384,-0.0004100830054834985,-0.0012291903061694314,0.0010060460472445791,0.0008522437759314648,0.00016184531996654055,0.0003382777260700988,0.3165166676044464,-23.58578872680664,19.477951049804688,17.89893341064453,0.8897806406021118,2.3604629039764404,-0.08692778646945953,,,,,,,,,
1739401260.972248,-0.707245159012414,0.674710608611039,1.4182997108654987,-1.8795068965453514,-0.7086129700761656,1.9493738128539606,0.1857679684169194,-0.00016738032563397672,-0.00034726740640741126,-0.0007008021938674917,0.0004371842513036535,-0.00032629659679046645,0.0006587229627938716,0.0034173776807675375,0.2689092457294464,-23.61355972290039,19.501754760742188,17.92273712158203,0.8961893320083618,2.3476455211639404,-0.14735259115695953,,,,,,,,,
1739401260.9822524,-0.707242161621633,0.6747180500103571,1.4182939709247362,-1.879509041476777,-0.7086126119103047,1.9493706281253718,0.18575554758592408,-0.00029714910910702715,0.0019440148967108865,-0.0004606680967384256,-0.00010826327625412647,0.0010030557683552816,-0.000519499192678045,-0.002326844635431962,0.2689092457294464,-23.71670913696289,19.577133178710938,17.92273712158203,0.8897806406021118,2.3476455211639404,-0.08051909506320953,,,,,,,,,
1739401260.993166,-0.7072432392308252,0.6747201473024569,1.4182900734631043,-1.8795068969935298,-0.7086125721216218,1.9493715398557476,0.18576132207566765,0.0003473799385654902,0.00043906211255465336,-0.0012742567942008584,0.00022143256288395692,0.00043067244161132287,0.0001539749202176089,-2.6212216896688827e-05,0.2411382496356964,-23.71670913696289,19.628707885742188,17.92273712158203,0.8897806406021118,2.3668715953826904,-0.09425200521945953,,,,,,,,,
1739401261.0041423,-0.7072432636678309,0.6747154822803195,1.418291052581011,-1.8795106521762905,-0.7086132120439057,1.9493728975644333,0.1857558957299476,0.00017831695480138445,-7.606242210186139e-05,0.0007072007075218334,0.0005013843522904804,0.0008421073743348976,-0.0003666032163598321,-0.0011177808250825766,0.2411382496356964,-23.63736343383789,19.604904174804688,17.97431182861328,0.8961893320083618,2.3540542125701904,-0.07411040365695953,,,,,,,,,
1739401261.014146,-0.7072452557582435,0.674718497513929,1.4182866429250638,-1.8795125408153206,-0.7086130075269429,1.9493707676754755,0.18576076483182216,-0.0016479799297922314,0.000238533792207222,-0.0015752616143611233,-8.829718243009478e-05,-0.00041246866465968215,0.00034467833838086056,0.0008201192382549458,0.2689092457294464,-23.68893814086914,19.628707885742188,17.99811553955078,0.8961893320083618,2.3732802867889404,-0.09425200521945953,,,,,,,,,
1739401261.0252047,-0.707245026169883,0.6747212003422001,1.4182907525963468,-1.8795132678466093,-0.7086111799232343,1.949369965678563,0.18576169283456348,-0.0011213917325601469,0.0008900952729466632,-0.00031111775860646505,-0.00020449629553412438,1.3636366953915255e-05,-0.0016770033300705905,0.0015662444878624907,0.2689092457294464,-23.71670913696289,19.577133178710938,17.99811553955078,0.8897806406021118,2.3668715953826904,-0.09425200521945953,,,,,,,,,
1739401261.0352213,-0.7072445115028884,0.674715730049287,1.418292526447135,-1.8795108221592638,-0.7086124926951867,1.9493730551849957,0.18575730715094518,-0.0001510969275350925,-0.0002564358255081902,0.0001615773666824569,0.0008027557908229538,0.0002763342146546536,0.0003627343912252452,-0.0009074015499074684,0.2689092457294464,-23.63736343383789,19.553329467773438,17.94654083251953,0.8897806406021118,2.3540542125701904,-0.08692778646945953,,,,,,,,,
1739401261.0461812,-0.7072432670795775,0.6747117964266889,1.418298144772977,-1.87950512394627,-0.7086125942512513,1.9493727003661165,0.18576183107828084,-3.8469447956862156e-05,-0.002537820164968169,0.0011137988228665532,0.0011858417012552641,0.0008559040232078895,0.00099143130830768,0.0008496997260683832,0.2411382496356964,-23.58578872680664,19.477951049804688,17.89893341064453,0.8897806406021118,2.3540542125701904,-0.09425200521945953,,,,,,,,,
1739401261.0562227,-0.7072400878423942,0.6747138329037018,1.41829617698588,-1.879508678350426,-0.7086126119122608,1.9493725448302313,0.1857640826811353,0.001912963370222585,0.00030108533516164457,-0.0007537303677244138,-0.0010805053593775848,-0.00045556906705671507,-0.00045523998701788926,0.001597119992331636,0.2411382496356964,-23.61355972290039,19.501754760742188,17.94654083251953,0.8897806406021118,2.3540542125701904,-0.11347807943820953,,,,,,,,,
1739401261.0672085,-0.7072431188761378,0.6747154919163363,1.4183023974375604,-1.8795090679313866,-0.7086126120760842,1.9493721345717898,0.18575484323143535,0.00018655437213008577,0.0010020099733733774,0.0008284581225280844,0.0002643062037560326,-5.656067478806131e-05,-0.0008523086073435181,-0.0016660200362647308,0.2689092457294464,-23.63736343383789,19.450180053710938,17.92273712158203,0.8897806406021118,2.3604629039764404,-0.07411040365695953,,,,,,,,,
1739401261.0772336,-0.7072415545267547,0.6747083563416555,1.4183052173692359,-1.8795051130329896,-0.7086142752063032,1.9493722582851876,0.18576091112303747,0.0006354655248224238,-0.0017880702084703253,0.0012576377167118425,0.00011549067358657968,-0.0010387505670109791,-5.81928346862962e-05,0.0001915275069845966,0.2173345386981964,-23.53818130493164,19.426376342773438,17.89893341064453,0.9035135507583618,2.3604629039764404,-0.11347807943820953,,,,,,,,,
1739401261.0881543,-0.707246951054462,0.6747063498410067,1.418303470100093,-1.8795068986166608,-0.7086126515947059,1.9493686345869625,0.1857628725615157,-0.0003236517256933372,-0.0009539775298336466,-0.000895659339787939,-0.00017726920060274294,6.474980323571581e-05,-0.0011319144204016993,0.00018559996911038964,0.2927129566669464,-23.51041030883789,19.450180053710938,17.92273712158203,0.8897806406021118,2.3604629039764404,-0.10706938803195953,,,,,,,,,
1739401261.0982888,-0.707242551718629,0.6747100343020647,1.4183052527086726,-1.879506892729832,-0.7086133695733102,1.949371993394148,0.1857565019206787,0.0011147844867486936,0.0004961028452246106,-0.0002654590212062256,-0.0007784701794724814,0.0003338138553111521,-0.0020232006468084546,-0.0023580713221079677,0.2411382496356964,-23.56198501586914,19.426376342773438,17.92273712158203,0.8961893320083618,2.3540542125701904,-0.08051909506320953,,,,,,,,,
1739401261.109238,-0.7072469745979378,0.6747083564484578,1.41830347328599,-1.8795066572546257,-0.7086136847961658,1.9493719399544496,0.1857598075258578,-0.0007985059023962917,0.00019167174348614632,0.00032820177638182024,-0.0013239274431029874,0.00011328945295868456,-0.00024142241494434,-0.0008763578564361227,0.2927129566669464,-23.53818130493164,19.450180053710938,17.92273712158203,0.8897806406021118,2.3604629039764404,-0.10706938803195953,,,,,,,,,
1739401261.1201756,-0.7072411183731634,0.674709675459334,1.4183016741740841,-1.8795051129948563,-0.7086149916642858,1.9493716408874744,0.18576072993153406,0.0003175175987591962,-0.0001034290481002783,-0.00047512667753121915,0.0006261406040337976,-0.000755079540142546,6.124242528849792e-05,0.0005371513572041483,0.2411382496356964,-23.58578872680664,19.501754760742188,17.89893341064453,0.9099222421646118,2.3540542125701904,-0.09425200521945953,,,,,,,,,
1739401261.1312282,-0.7072432552616059,0.6747154128330313,1.418301389961407,-1.879512302398536,-0.7086122557564025,1.9493688164718757,0.18576147767677686,0.0006594936840621878,0.0010322592420182106,0.0004905618106010325,-0.0009047904208396747,0.0008167767983148966,-0.0019783058754200603,-0.0018507355583944763,0.2411382496356964,-23.63736343383789,19.477951049804688,17.99811553955078,0.8897806406021118,2.3540542125701904,-0.09425200521945953,,,,,,,,,
1739401261.1421459,-0.7072431192574055,0.6747175568105991,1.4182975146929686,-1.879508704512799,-0.7086126119105493,1.9493746263994565,0.18575804786270375,5.915856313079326e-05,0.0013826451822304656,-5.709040302390248e-05,0.0007270986833232834,0.0007346158464592352,0.000523350408437137,-0.0019102804324562872,0.2689092457294464,-23.66513442993164,19.529525756835938,17.94654083251953,0.8897806406021118,2.3403213024139404,-0.07411040365695953,,,,,,,,,
1739401261.1521866,-0.7072432667204437,0.6747192287983736,1.418295372741106,-1.8795117121419043,-0.7086142349792973,1.949372386758777,0.18575946908851643,0.0006023294947371196,0.002054530420372427,0.00046642097005414806,-0.0008451560529203132,-0.001266061335693364,-0.0007079699461397305,-0.0005241086979370097,0.2411382496356964,-23.68893814086914,19.529525756835938,17.97431182861328,0.9035135507583618,2.3476455211639404,-0.07411040365695953,,,,,,,,,
1739401261.1632192,-0.7072448186962492,0.6747191836626354,1.4182943121098865,-1.8795125673134536,-0.7086133739877942,1.9493690838009379,0.18576092046473713,-0.0008838032786536473,0.0006296540774277562,8.373224832120127e-05,-2.5999540248918104e-05,-0.000252548523832936,0.00041096759306787154,0.0010437889727924437,0.2927129566669464,-23.68893814086914,19.529525756835938,17.99811553955078,0.8961893320083618,2.3476455211639404,-0.11347807943820953,,,,,,,,,
1739401261.1742048,-0.7072469672856995,0.6747155979154074,1.4182886551862486,-1.8795093847758098,-0.708617811748582,1.949371028951036,0.1857562686867579,-0.0008460039530540617,-0.0003892950206066146,-0.001338950149475221,0.0017627274468404637,-0.002115070104949891,-0.00018243970231169259,-0.0028117722289584795,0.2927129566669464,-23.63736343383789,19.604904174804688,17.94654083251953,0.9035135507583618,2.3668715953826904,-0.07411040365695953,,,,,,,,,
1739401261.1842186,-0.7072425518279202,0.674719308378892,1.4182925264469364,-1.8795136313848306,-0.7086127826926009,1.9493682868944004,0.18575864548011733,0.0011999275196083374,0.0008594019566814295,0.0001795060869274627,-0.001603506889704297,0.0002440438852110118,-0.0003987948641408523,-0.0010476665476120616,0.2411382496356964,-23.68893814086914,19.553329467773438,17.97431182861328,0.8897806406021118,2.3540542125701904,-0.09425200521945953,,,,,,,,,
1739401261.1951795,-0.7072452287182291,0.6747185917208756,1.4182886639802108,-1.8795154047997231,-0.7086182652542105,1.9493679395479084,0.18576016733698725,0.0007226865130857904,0.0003490082667573367,-0.0012083266748422238,-0.0017478276192594887,-0.0012083122877724927,0.00012914299693248752,-0.00019394922705680176,0.2689092457294464,-23.63736343383789,19.604904174804688,17.99811553955078,0.9099222421646118,2.3604629039764404,-0.10706938803195953,,,,,,,,,
1739401261.20521,-0.7072432641397771,0.6747177287996924,1.4182921633568926,-1.8795088519301275,-0.708612612131498,1.949367652720943,0.18576731755329465,0.0011471353582878116,0.000668222043111652,0.0009183227035430375,0.00033898239300406683,0.0010872857079824477,-0.0013643570891816131,0.001994278821805043,0.2411382496356964,-23.66513442993164,19.529525756835938,17.97431182861328,0.8897806406021118,2.3604629039764404,-0.14094389975070953,,,,,,,,,
1739401261.21623,-0.7072452650246343,0.6747175693694589,1.4182964682414645,-1.8795116187047514,-0.7086095659435149,1.949368286824393,0.18576260847670242,6.0046073338966547e-05,0.00015156220058077687,0.0011510712876346748,-0.0011080938365000221,0.0009224373606133275,-0.00032277417355475315,0.00038554553530385674,0.2689092457294464,-23.66513442993164,19.501754760742188,17.94654083251953,0.8897806406021118,2.3540542125701904,-0.10066069662570953,,,,,,,,,
1739401261.2271671,-0.7072432582535134,0.6747154919518498,1.4182991517927366,-1.8795051924867077,-0.7086146813414955,1.9493705750707877,0.1857634161087125,0.0013199931624159017,0.0002564483242303346,0.0014210107260666485,-3.921315533355501e-05,-0.0010303480352624756,0.0002123758852244767,0.00023854275871778544,0.2411382496356964,-23.63736343383789,19.477951049804688,17.89893341064453,0.8961893320083618,2.3476455211639404,-0.08051909506320953,,,,,,,,,
1739401261.2372394,-0.7072452650245347,0.674708435600521,1.4183002475818651,-1.8795068956745675,-0.708613375645256,1.9493705750967083,0.18575771429761262,-0.00017504271959730574,-0.0019196136725455255,-0.0013963295620177218,-0.0005080342354341979,-0.0016345496296969796,0.0010107926191217083,-0.002662713935890744,0.2689092457294464,-23.53818130493164,19.450180053710938,17.92273712158203,0.8961893320083618,2.3476455211639404,-0.06037749722599983,,,,,,,,,
1739401261.2482088,-0.7072394087958881,0.6747144961043647,1.4183045019681173,-1.8795061791092889,-0.7086149931299831,1.9493693484071368,0.18576254857172686,0.0016390719505910657,0.00030283194900034547,-2.8894598138238115e-05,-7.492511301202697e-05,9.343074659582724e-05,-0.00034802384268427743,-0.000579938492522435,0.2173345386981964,-23.61355972290039,19.426376342773438,17.92273712158203,0.9099222421646118,2.3540542125701904,-0.12721098959445953,,,,,,,,,
1739401261.2592204,-0.707241554550987,0.6747155007860636,1.4183034700274146,-1.8795066484202796,-0.7086153507578176,1.9493707124432533,0.18576336617363062,0.0006978275858870436,0.0015206832260801426,-0.0003604206499250996,-0.00029123533201893176,-0.0010049551575376067,-0.0005378011312078995,-0.00017430716644667606,0.2173345386981964,-23.63736343383789,19.450180053710938,17.92273712158203,0.9099222421646118,2.3604629039764404,-0.10706938803195953,,,,,,,,,
1739401261.2692406,-0.7072452650246835,0.6747100689698337,1.4183052527086712,-1.8795068956606595,-0.7086133695908076,1.9493682869840276,0.18576260847760792,0.0002892572846801665,-0.0006039816235992087,-0.0002681987488693972,0.0010795938097399277,0.0008532743703699355,-0.0009193787141305861,0.0005338420782969133,0.2689092457294464,-23.56198501586914,19.426376342773438,17.92273712158203,0.8961893320083618,2.3540542125701904,-0.10066069662570953,,,,,,,,,
1739401261.2802072,-0.7072469775454154,0.6747083564486537,1.4183014932258318,-1.879512903907308,-0.7086174547747861,1.9493722277574184,0.18576560316137497,-0.002131128000652709,-0.0008127656371451543,2.5866759473904813e-05,-0.002192700662778822,-0.0006900262091460363,0.00042284140511670497,0.001413186599602469,0.2927129566669464,-23.53818130493164,19.477951049804688,17.97431182861328,0.9035135507583618,2.3476455211639404,-0.12721098959445953,,,,,,,,,
1739401261.2911594,-0.707240406060882,0.6747137794309692,1.41829960751652,-1.8795086780756811,-0.7086142359665014,1.9493725253808074,0.18576925898982888,0.00036964291167685103,0.00021566938107057314,-0.0004002626249074297,0.0008100439237691617,0.00019662218751146824,-1.0681481776204503e-05,0.0014210212715501328,0.2411382496356964,-23.61355972290039,19.501754760742188,17.94654083251953,0.9035135507583618,2.3540542125701904,-0.12080229818820953,,,,,,,,,
1739401261.3012376,-0.7072431875625198,0.6747137784679921,1.418301390241796,-1.879508678350236,-0.708614235469879,1.949369399220419,0.1857657469398294,-6.431313429239402e-05,-4.538425977485561e-05,0.0007307889927009389,0.00041181517154470254,0.0009361494044456854,0.000255000724864986,0.0017997137505358063,0.2411382496356964,-23.61355972290039,19.477951049804688,17.94654083251953,0.9035135507583618,2.3476455211639404,-0.12721098959445953,,,,,,,,,
1739401261.313235,-0.7072452563029338,0.6747159168584311,1.4182939318963288,-1.8795087048411938,-0.7086149798844722,1.9493690444843812,0.18576184496698564,-0.0003652409635207717,-0.0017543675844417122,0.0006442667235042668,0.0010566941902829927,-0.0003835734774665258,-0.0007036916218284163,-0.0007314029048654257,0.2689092457294464,-23.61355972290039,19.577133178710938,17.94654083251953,0.9099222421646118,2.3476455211639404,-0.09425200521945953,,,,,,,,,
1739401261.324209,-0.7072452737822752,0.6747154932719613,1.4182914679831344,-1.8795068970905824,-0.7086142752062257,1.9493675291622221,0.18576416316622968,2.292294724808144e-05,-0.0005673209430209597,-0.0006278077536987175,0.0017172921771312069,-0.000469539588966426,-0.0003623790208045865,-0.000747389310521177,0.2689092457294464,-23.63736343383789,19.577133178710938,17.92273712158203,0.9035135507583618,2.3604629039764404,-0.11347807943820953,,,,,,,,,
1739401261.3342164,-0.70724526600588,0.674719877021791,1.4182943091281925,-1.8795136225425575,-0.7086158291463905,1.9493675291622221,0.18575946960036088,-0.0002913949001741007,0.0006422198007415372,0.0008970134464852686,1.1283902037218947e-05,-0.0005235300904352981,0.00015277661360188317,-0.0014126229030542374,0.2689092457294464,-23.66513442993164,19.529525756835938,17.97431182861328,0.8897806406021118,2.3604629039764404,-0.07411040365695953,,,,,,,,,
1739401261.3452034,-0.7072452620812505,0.6747178761509667,1.4182901391725,-1.8795126596973561,-0.7086145931159006,1.9493667719866603,0.18577050978985168,0.0002468368817598438,-0.0008092161464091284,0.0005253070947023736,-0.0008255294888988052,-3.444791127304748e-05,-0.0008840072800692402,0.002139784251802918,0.2689092457294464,-23.63736343383789,19.553329467773438,17.99811553955078,0.9035135507583618,2.3668715953826904,-0.16749419271945953,,,,,,,,,
1739401261.3561468,-0.7072469766732686,0.6747192034442286,1.4182925263972703,-1.879511565864814,-0.7086133303288005,1.949368304264906,0.18576189083406883,0.00017625410933477662,-0.0006370611537604249,0.001297975174946087,-0.0004935421521546437,0.00036828785423492956,-0.0006557367841736262,0.00045269680086381883,0.2927129566669464,-23.68893814086914,19.553329467773438,17.94654083251953,0.8961893320083618,2.3540542125701904,-0.09425200521945953,,,,,,,,,
1739401261.3662128,-0.7072470041453701,0.6747155047066211,1.418296377140202,-1.879506922213075,-0.7086142531298414,1.9493675291625174,0.18576523720499788,0.00026086198329994877,-0.0006681223794010154,0.00048526381327846594,-5.04257457801142e-05,-0.0009559559783933142,-0.0005128075513307213,0.0004024449033924178,0.2927129566669464,-23.63736343383789,19.501754760742188,17.92273712158203,0.9035135507583618,2.3604629039764404,-0.08692778646945953,,,,,,,,,
1739401261.3762264,-0.7072461281072309,0.6747168789817297,1.418298436500312,-1.8795100216061524,-0.708615131635417,1.9493699103796112,0.18576072472353738,-0.0005514982851246019,0.0005277922512903453,0.0005140900561789411,-0.0021252020006574347,-0.0007632245689200007,0.0003962497929663807,-0.0012302045441919076,0.2411382496356964,-23.61355972290039,19.477951049804688,17.92273712158203,0.9099222421646118,2.3403213024139404,-0.12080229818820953,,,,,,,,,
1739401261.3862326,-0.7072469774848508,0.6747137912572173,1.4183031241820272,-1.8795053632414762,-0.7086124765167,1.9493682869838058,0.18576574744485613,-0.00018031201856362266,-0.0008122961579282134,0.0012205476363516816,0.0002350637859040178,0.0007332353982318195,-0.0003167224036989704,-0.00021204960948815804,0.2927129566669464,-23.61355972290039,19.450180053710938,17.89893341064453,0.8897806406021118,2.3540542125701904,-0.12721098959445953,,,,,,,,,
1739401261.3972075,-0.7072432669748147,0.6747101526939457,1.4183003308699114,-1.8795052150368423,-0.7086174879694754,1.9493684045598711,0.18576498969499566,0.00016383474475616463,-0.00035112788390829716,0.00022651459490061752,0.0007201880102130735,-0.0012104928757449506,-0.0002892169600304445,-0.00019606867268319418,0.2411382496356964,-23.56198501586914,19.450180053710938,17.89893341064453,0.9035135507583618,2.3540542125701904,-0.12080229818820953,,,,,,,,,
1739401261.4082396,-0.7072455828797836,0.6747107843346111,1.418304930438861,-1.8795033303197595,-0.708613356345522,1.9493682868768,0.1857612900472005,-0.0013723697828613257,-0.00016904944622615894,0.0012553478894585402,0.0014504175125300868,0.00084106622566704,-0.0007145058513169018,-0.0014282097567027267,0.2689092457294464,-23.56198501586914,19.426376342773438,17.87512969970703,0.8961893320083618,2.3540542125701904,-0.08051909506320953,,,,,,,,,
1739401261.419212,-0.7072469775472097,0.674711686322952,1.418302381981455,-1.8795110621363051,-0.7086126251579618,1.9493678325938235,0.18576412385776567,-0.0014925005206114519,-1.0098210773076561e-05,0.000636977732213834,-0.0005717967952703115,7.336568747484044e-06,8.66145232236523e-05,-0.001646889037601489,0.2927129566669464,-23.58578872680664,19.426376342773438,17.94654083251953,0.8897806406021118,2.3668715953826904,-0.11347807943820953,,,,,,,,,
1739401261.4301343,-0.7072452660058306,0.6747117795817942,1.4183059051548328,-1.8795068956866778,-0.7086118557242759,1.9493690444883687,0.18575865619423987,1.3579796697606975e-05,-2.0187580242537464e-05,0.0010014842051086765,-0.00011765508678913053,0.0017158913939617662,8.92840494909099e-05,-0.0009443144450300986,0.2689092457294464,-23.58578872680664,19.426376342773438,17.92273712158203,0.8833719491958618,2.3476455211639404,-0.06678618490695953,,,,,,,,,
1739401261.4402466,-0.7072476928011693,0.6747117814900837,1.418301388944651,-1.8795097203937534,-0.708614354679185,1.9493682873068172,0.1857610417867953,-0.0009699839897279094,-6.471650394825344e-06,-0.00019549187939272596,0.0007779965897237906,-0.001041223038998985,0.00043451469808124027,-0.0013611876504404559,0.2927129566669464,-23.58578872680664,19.477951049804688,17.92273712158203,0.9035135507583618,2.3540542125701904,-0.08692778646945953,,,,,,,,,
1739401261.451228,-0.7072398420464064,0.6747118197548263,1.418300609008696,-1.8795069231976056,-0.7086137272011798,1.9493683260681596,0.18576416316658373,0.0007416542873598946,-0.00013546919182449898,0.0008628184134093857,0.0014854437266050653,-0.00029029750151768287,0.0007822733471073905,-0.002007061695565676,0.1935308277606964,-23.58578872680664,19.450180053710938,17.92273712158203,0.8961893320083618,2.3540542125701904,-0.11347807943820953,,,,,,,,,
1739401261.4612303,-0.7072415545631,0.6747140443411495,1.4182972628169384,-1.8795068956736876,-0.708615112345295,1.949369908854048,0.18577075729984338,0.0006796187088808076,0.0010418215475065224,-0.0004909593995475352,0.0013074277113372832,-0.0009274141669011764,-8.808088178592437e-05,0.001471494788237283,0.2173345386981964,-23.61355972290039,19.529525756835938,17.92273712158203,0.9099222421646118,2.3403213024139404,-0.13361968100070953,,,,,,,,,
1739401261.4712305,-0.7072433475378374,0.674720601112325,1.4182925269331714,-1.8795085988773808,-0.7086120926730795,1.9493682868222744,0.18576352433173818,8.104223976675167e-05,0.0014111251170495667,-0.0002510838229802611,0.0005812545588988454,0.0009756087548938678,0.00022648501272580076,0.00029819845975633815,0.2411382496356964,-23.66513442993164,19.553329467773438,17.94654083251953,0.8833719491958618,2.3540542125701904,-0.10706938803195953,,,,,,,,,
1739401261.4812872,-0.7072515509814421,0.6747204579131507,1.4182886649613655,-1.87951075813875,-0.708613878009564,1.9493667729556938,0.18576498985968448,-0.0016892189699933913,0.0013573921691936682,-0.0009997610701115692,0.0008117787164968547,0.0012235550877135355,-0.00029381526079525703,0.001473226575368767,0.3165166676044464,-23.66513442993164,19.604904174804688,17.97431182861328,0.9035135507583618,2.3668715953826904,-0.12080229818820953,,,,,,,,,
1739401261.4921463,-0.7072491233287773,0.6747192024300391,1.418288624493813,-1.879508788238639,-0.7086124985881309,1.94936752916223,0.18575864307140713,-0.0003192526079031902,0.001077468273448092,-0.0009586755382368636,-5.028419027135883e-05,0.0007396867314825976,4.422713575625506e-05,-0.0020684722864470085,0.2927129566669464,-23.68893814086914,19.577133178710938,17.94654083251953,0.8897806406021118,2.3604629039764404,-0.06678618490695953,,,,,,,,,
1739401261.5031335,-0.7072448330985117,0.6747178355831407,1.4182885715362765,-1.879510766971034,-0.7086142354692309,1.9493660138420654,0.1857669816491362,5.2045678737570075e-05,0.0002487250321260313,-0.0004776194387284455,-0.0008553600602989205,-0.000234897913163286,-0.00040936396415571896,0.0023367966844321333,0.2927129566669464,-23.66513442993164,19.577133178710938,17.97431182861328,0.9035135507583618,2.3732802867889404,-0.13361968100070953,,,,,,,,,
1739401261.5132124,-0.7072432670475147,0.6747222349243794,1.418292180719711,-1.8795128616521426,-0.7086153237247703,1.949367524583539,0.185766518146057,0.0007480684448012351,0.002208231836332652,-0.0007785511588924956,-0.0025353278193022957,-0.0006221016912279068,-0.001177046831417826,0.0011849523566379336,0.2411382496356964,-23.71670913696289,19.553329467773438,17.99811553955078,0.9035135507583618,2.3604629039764404,-0.13361968100070953,,,,,,,,,
1739401261.524211,-0.7072469804525157,0.674715607224075,1.4182956697316853,-1.8795070016388455,-0.7086154673053391,1.9493682868222744,0.18576179319951705,-0.001007836835672699,0.0001725048696974463,0.0003709469960329892,-0.000639550120007764,-0.000856842791689492,0.0001478905017633166,0.0004740673222723094,0.2927129566669464,-23.63736343383789,19.501754760742188,17.92273712158203,0.9035135507583618,2.3540542125701904,-0.06678618490695953,,,,,,,,,
1739401261.535183,-0.7072452650247006,0.6747142848676779,1.4182954350538899,-1.8795094730794357,-0.7086166412123163,1.9493682868223003,0.18576731725455453,-0.0001474718033749747,-0.00039938636967445994,-0.0004334617818124531,-0.0007130308022223586,-0.001384495420446774,0.0003517755006646153,0.0021651518944349538,0.2689092457294464,-23.58578872680664,19.501754760742188,17.94654083251953,0.8961893320083618,2.3540542125701904,-0.11347807943820953,,,,,,,,,
1739401261.5451922,-0.7072453003459551,0.6747144948381176,1.4182981712477765,-1.8795054760998542,-0.7086118544714114,1.9493682868223003,0.18576574757116526,-0.0004059445028770563,0.0002288607221261688,0.0001706667471772177,0.0007991712334944814,0.0008864421969694817,0.00021671207442479655,0.0013910558979601264,0.2689092457294464,-23.61355972290039,19.477951049804688,17.87512969970703,0.8833719491958618,2.3540542125701904,-0.12721098959445953,,,,,,,,,
1739401261.5561674,-0.7072432669750143,0.6747120994946096,1.418303218367595,-1.8795116306682582,-0.7086176625787829,1.949368268507567,0.1857650465606074,0.0005380590687895143,-0.0005954200643683711,0.00047641090245745856,-0.0010091385465014928,-0.0008641079367209891,-0.00041733607950248535,1.9054849368874073e-05,0.2411382496356964,-23.58578872680664,19.450180053710938,17.94654083251953,0.8961893320083618,2.3540542125701904,-0.12080229818820953,,,,,,,,,
1739401261.5661688,-0.7072452650246823,0.674712020895227,1.418305133549628,-1.8795051925190598,-0.7086151521483707,1.9493682868219901,0.1857626259756802,5.6265097320722015e-06,-0.0005303333726099584,8.918145526107322e-05,0.0010082628932731365,0.00021633267312016666,-1.2890080037338987e-05,-0.0006169332786271317,0.2689092457294464,-23.58578872680664,19.426376342773438,17.89893341064453,0.9099222421646118,2.3540542125701904,-0.10066069662570953,,,,,,,,,
1739401261.577167,-0.7072432674108801,0.6747100957887383,1.4183051692015372,-1.879505121826969,-0.7086126516498873,1.9493690444823788,0.18576260847770484,0.00020195349643199094,0.00019159747286868567,3.9401634742927786e-05,0.0006764517550593282,0.00039524394762851405,-0.0003334164257733099,-0.0005693097275535234,0.2411382496356964,-23.56198501586914,19.426376342773438,17.89893341064453,0.8897806406021118,2.3476455211639404,-0.10066069662570953,,,,,,,,,
1739401261.5871716,-0.7072432670838368,0.6747101046181588,1.4183033902303297,-1.8795068158734625,-0.7086157057184479,1.949367534976423,0.1857679616496498,0.0003498880530477358,-0.0018463881667469698,0.0005559940869939903,0.0009692087287283694,-0.0006301714740664275,0.0002219626146058986,0.004173944674886612,0.2411382496356964,-23.56198501586914,19.450180053710938,17.92273712158203,0.9035135507583618,2.3604629039764404,-0.13361968100070953,,,,,,,,,
1739401261.5972342,-0.7072452650246842,0.6747100689699885,1.4183013902404453,-1.8795086646128392,-0.7086189753526224,1.9493675291623205,0.1857664201084947,-0.0006760112583534369,-0.0006276975882959321,0.0005371030154339429,0.00023374286411723816,-0.0011397051913350905,-0.0002780058931327869,0.00036476645315883466,0.2689092457294464,-23.56198501586914,19.477951049804688,17.94654083251953,0.9163309335708618,2.3604629039764404,-0.12080229818820953,,,,,,,,,
1739401261.6092448,-0.7072448331227374,0.6747154920250508,1.4182957362675854,-1.8795076462864908,-0.7086131020133973,1.9493682868223003,0.1857634162787975,-0.0008772002257920813,0.0009705172685671601,-0.0013347845491681184,0.0008918566735668587,0.0017374764822612081,-0.0002482108435709575,0.00020733147537666473,0.2927129566669464,-23.63736343383789,19.553329467773438,17.92273712158203,0.8897806406021118,2.3540542125701904,-0.08051909506320953,,,,,,,,,
1739401261.6202638,-0.7072469775413802,0.6747176730401833,1.4182987765216337,-1.8795033667683683,-0.7086179309587688,1.9493675291622221,0.18576650649724627,0.0004096620114147881,8.572079139246533e-05,0.001228958457758457,0.0010498525500726853,-0.0010838755945021864,-7.020101763146409e-06,0.0006393132635643924,0.2927129566669464,-23.63736343383789,19.501754760742188,17.87512969970703,0.9035135507583618,2.3604629039764404,-0.13361968100070953,,,,,,,,,
1739401261.631175,-0.7072453443885276,0.674713791580426,1.418292526823951,-1.8795086783504462,-0.7086135287572513,1.949368268507567,0.18577087491865402,-0.0005155361367901358,-0.0006131184692429239,-0.0005094612608477722,-8.96530183438079e-05,8.517691262891978e-05,0.0001443542566278467,0.0013703069031648272,0.2689092457294464,-23.61355972290039,19.553329467773438,17.94654083251953,0.8961893320083618,2.3540542125701904,-0.13361968100070953,,,,,,,,,
1739401261.6412237,-0.7072431876123155,0.6747220903634579,1.4182945740336432,-1.8795086783502406,-0.7086173049536088,1.9493667715018335,0.18576372101421948,0.0009290836781705347,0.0007599135546165617,0.0008421260051791681,0.0005446286151248689,-0.00020819375659270148,-0.0004154505808663045,-0.0007558119233340792,0.2411382496356964,-23.68893814086914,19.529525756835938,17.94654083251953,0.8961893320083618,2.3668715953826904,-0.10706938803195953,,,,,,,,,
1739401261.6521697,-0.7072423173336518,0.6747206251077202,1.4182915727742642,-1.8795087578231002,-0.7086126124798565,1.9493682868223003,0.18576272707114008,0.001196814595649862,-0.0001582784846754033,-0.00018295462365094212,0.0006760208286704758,0.0014508020559236563,-0.00010042614612755388,0.00022834710292408478,0.2411382496356964,-23.66513442993164,19.553329467773438,17.94654083251953,0.8897806406021118,2.3540542125701904,-0.10066069662570953,,,,,,,,,
1739401261.6621983,-0.7072423133934307,0.6747213522671935,1.418290664281056,-1.8795065064204701,-0.7086126119125694,1.9493675291622221,0.1857586116252494,0.002127921479131183,-0.0009975919857098923,-0.0006916527555229783,0.0005239125180097837,0.0016879805236528049,-0.000581415274233779,-0.0014499746649679003,0.2411382496356964,-23.68893814086914,19.577133178710938,17.94654083251953,0.8897806406021118,2.3604629039764404,-0.06678618490695953,,,,,,,,,
1739401261.6732016,-0.7072462981664767,0.6747185496881737,1.418296362422558,-1.8795132482774393,-0.7086147143238297,1.9493682868223003,0.1857602666827651,-0.0005579554797116419,-0.0007113239600979122,0.0013126809886475628,-0.0007737157949663861,-0.00010524012262855031,-0.00017275375631551457,0.00020686357461527707,0.2689092457294464,-23.66513442993164,19.501754760742188,17.97431182861328,0.9035135507583618,2.3540542125701904,-0.08051909506320953,,,,,,,,,
1739401261.6832738,-0.7072439558661116,0.6747148509698195,1.4182943091236557,-1.8795108242686394,-0.7086158439804882,1.9493667715021437,0.18576074099550735,0.00043330642050635635,-0.00025869397315403733,0.0001957508955090277,0.0006940775328304503,0.0012056373215513546,-0.00024830421869794937,-0.0010034168728942424,0.2411382496356964,-23.61355972290039,19.529525756835938,17.94654083251953,0.8897806406021118,2.3668715953826904,-0.08051909506320953,,,,,,,,,
1739401261.6942492,-0.7072469775129648,0.6747127381139205,1.4182961504953808,-1.8795078493959902,-0.7086144490699735,1.9493690444823788,0.18576448313948124,-0.00041398066057153686,-0.0015735682891882203,0.0003826404884925646,-7.050499838432057e-05,-0.0003282461573350776,0.0002881061395928012,0.0001502074088184066,0.2927129566669464,-23.58578872680664,19.501754760742188,17.92273712158203,0.8961893320083618,2.3476455211639404,-0.11347807943820953,,,,,,,,,
1739401261.7052202,-0.7072451855518244,0.6747144948374617,1.4183002513794887,-1.879504910049633,-0.7086149192994962,1.9493699101535031,0.1857653459576466,0.00017899298733394618,-8.943879778826372e-05,0.0009972255800962035,0.0010088902312843356,-0.0014319279441851167,0.0006184009492787055,-0.00035510894235599877,0.2689092457294464,-23.61355972290039,19.450180053710938,17.89893341064453,0.8961893320083618,2.3403213024139404,-0.12080229818820953,,,,,,,,,
1739401261.7171326,-0.7072454239699549,0.6747130363962506,1.418298183364736,-1.8795086783490949,-0.7086142757056219,1.9493675291622208,0.18576298077925865,-8.375327780692462e-05,4.4015844422552394e-05,6.39024442702886e-05,-0.0018756058433798866,-3.395327930700181e-05,-0.0001465544143303964,-4.103823403738731e-06,0.2689092457294464,-23.56198501586914,19.477951049804688,17.94654083251953,0.9035135507583618,2.3604629039764404,-0.10066069662570953,,,,,,,,,
1739401261.7272,-0.7072462186998979,0.6747117904462013,1.4182986141540979,-1.8795087048411938,-0.7086134097998684,1.9493675291622221,0.18576728289068328,-0.0007963890618168018,8.930768986329079e-07,-0.0010575539479170668,-0.0004471366627545546,0.00042717374602689156,-7.507402624564106e-05,0.001318209107018537,0.2689092457294464,-23.58578872680664,19.501754760742188,17.94654083251953,0.8961893320083618,2.3604629039764404,-0.12721098959445953,,,,,,,,,
1739401261.7381287,-0.7072432670892147,0.6747162814997356,1.41830131528316,-1.8795086754069508,-0.7086126119127869,1.9493675291622221,0.1857618683773104,0.0005328850577384827,0.0018359209846684947,0.0006646378882650924,-0.0006492240894993265,-0.00033646084495642364,-0.000395021472274828,-0.0005451520996556316,0.2411382496356964,-23.61355972290039,19.450180053710938,17.94654083251953,0.8897806406021118,2.3604629039764404,-0.09425200521945953,,,,,,,,,
1739401261.7482803,-0.7072432670838312,0.674717958596163,1.4183003263155423,-1.8795050866142156,-0.7086147123070288,1.9493675271272517,0.18576607224803585,0.00015975104778377628,0.001377799147218179,-0.0005080016295729339,0.00017264818143844182,0.00014758499581088197,-0.0006185904461650231,-0.00010197956935561244,0.2411382496356964,-23.63736343383789,19.477951049804688,17.89893341064453,0.9035135507583618,2.3604629039764404,-0.12080229818820953,,,,,,,,,
1739401261.759195,-0.7072431163503717,0.674716035536569,1.41830055677008,-1.8795068956730725,-0.7086167618890634,1.9493682868222888,0.18576498975510963,0.0001567261785635949,0.0007339261286695789,7.01878900217826e-05,0.0006384611271663135,-0.0005807461331018791,-1.6404113683455757e-05,0.0010316339473373174,0.2689092457294464,-23.61355972290039,19.477951049804688,17.92273712158203,0.8961893320083618,2.3540542125701904,-0.12080229818820953,,,,,,,,,
1739401261.7702076,-0.7072411203233435,0.6747138150920247,1.4182909825291585,-1.8795066572546424,-0.7086131626054143,1.9493682868223003,0.18576103948205563,0.0006401286496230223,-3.634238917224392e-05,-0.001576440092850768,0.0008126274025854463,-6.277397886041131e-05,-5.753817317205067e-05,-0.0023093874937965067,0.2411382496356964,-23.61355972290039,19.577133178710938,17.92273712158203,0.9035135507583618,2.3540542125701904,-0.06037749722599983,,,,,,,,,
1739401261.7811959,-0.7072452649762269,0.6747183805559667,1.4182943091254523,-1.8795086665751377,-0.7086134892664446,1.9493682868223003,0.1857613380082007,0.000240505711153475,0.0008647449722317847,-0.00038011557183856076,0.00017662496604763512,0.0009918889622284987,-6.845441991712651e-05,-0.0015900645444461854,0.2689092457294464,-23.63736343383789,19.529525756835938,17.94654083251953,0.8961893320083618,2.3540542125701904,-0.08692778646945953,,,,,,,,,
1739401261.7921393,-0.7072433465566906,0.6747206429318839,1.4182921636839412,-1.8795051170660766,-0.7086142884524527,1.9493667715021437,0.1857666001890434,0.0005095983116570286,0.0021622613867469213,0.0012225901558331725,0.0010845029793207293,-0.0003194291098857986,-0.0005893746014334358,0.0012179795540043455,0.2411382496356964,-23.66513442993164,19.529525756835938,17.89893341064453,0.9035135507583618,2.3668715953826904,-0.10706938803195953,,,,,,,,,
1739401261.8021843,-0.7072460238724448,0.6747196446524963,1.4182925264107522,-1.8795107584672137,-0.7086142354707679,1.9493657066222714,0.1857610056744466,0.0007568093377438272,0.0006182463669298535,0.0006060802714545745,0.0006524660323296594,0.000842938287104357,-0.000573423809906037,-0.002214846537234835,0.2927129566669464,-23.66513442993164,19.553329467773438,17.97431182861328,0.9035135507583618,2.3476455211639404,-0.07411040365695953,,,,,,,,,
1739401261.8122122,-0.7072452650085336,0.6747184831762663,1.4182943093421363,-1.8795068956732268,-0.708612612403133,1.949367529105695,0.1857642425773173,-0.0001561073622177395,0.0010610345904732044,0.0001344875018605183,0.0016489333092582301,0.0015750088390325137,-0.00022490336492577592,-0.0012368736451375051,0.2689092457294464,-23.66513442993164,19.529525756835938,17.92273712158203,0.8897806406021118,2.3604629039764404,-0.11347807943820953,,,,,,,,,
1739401261.823252,-0.7072432657756359,0.6747182434549468,1.4182943091241056,-1.8795068956732215,-0.7086131417861354,1.9493690444823784,0.18576189229283194,0.0009994727092020067,-0.0006794316524868978,0.0008121518914416678,0.0006193447967361397,0.00048439778684553205,-8.058723502532737e-05,-0.0010457446740826902,0.2411382496356964,-23.66513442993164,19.529525756835938,17.92273712158203,0.8897806406021118,2.3476455211639404,-0.09425200521945953,,,,,,,,,
1739401261.834167,-0.707246977545408,0.674717596333024,1.4182943091241045,-1.8795067680581685,-0.7086135329365075,1.9493664165421862,0.18576353673475163,-0.0012942298885317625,-0.00010442020087601876,0.0013587368459725222,0.0016528818102401611,0.0006832102167959298,-0.00017647260000102472,-0.00012662162503176793,0.2927129566669464,-23.66513442993164,19.529525756835938,17.94654083251953,0.8961893320083618,2.3604629039764404,-0.10706938803195953,,,,,,,,,
1739401261.844205,-0.7072452650246842,0.6747224210113969,1.4182943051995187,-1.8795109304849795,-0.708613383474979,1.9493675291433799,0.18576414275585554,-7.539827126974913e-05,0.001969884883846277,0.0009160055519080077,0.0007747192562719249,-0.00010638392389877456,0.00020782875025199835,-0.0005679271959168568,0.2689092457294464,-23.68893814086914,19.529525756835938,17.94654083251953,0.8961893320083618,2.3604629039764404,-0.11347807943820953,,,,,,,,,
1739401261.8551629,-0.7072431192574723,0.6747125801614678,1.418296025823745,-1.879511474389693,-0.7086129702491127,1.9493682868223001,0.1857643448517618,2.623532373135308e-05,-0.00048367254340409655,0.0008649510962090744,-0.00031180293543101414,0.0016608525053109684,0.00020243776174991445,0.0006325620463765247,0.2689092457294464,-23.58578872680664,19.477951049804688,17.97431182861328,0.8897806406021118,2.3540542125701904,-0.08692778646945953,,,,,,,,,
1739401261.865229,-0.7072452658604755,0.6747118995682604,1.418298171445624,-1.8795070546310706,-0.7086166417020041,1.9493690444823788,0.18576773878039443,4.519673695652191e-06,-0.0014105045223684084,-0.0007722793790517978,0.0006539239097447037,0.001392839941727372,0.0005016257206772935,0.00130133621922409,0.2689092457294464,-23.58578872680664,19.477951049804688,17.92273712158203,0.8961893320083618,2.3476455211639404,-0.13361968100070953,,,,,,,,,
1739401261.8761308,-0.7072432670838453,0.6747101484442443,1.4183003173581883,-1.8795089197149508,-0.7086159484949232,1.9493690444823788,0.18576929054096242,0.0004714291736369054,-0.002306445189373669,0.00012073839761934249,-0.001047813658156404,0.0005044112602324238,0.00015592617267764326,0.0008918732878488817,0.2411382496356964,-23.56198501586914,19.477951049804688,17.94654083251953,0.9099222421646118,2.3476455211639404,-0.12721098959445953,,,,,,,,,
1739401261.8861778,-0.7072452529238784,0.6747120993820035,1.418298183522204,-1.8795051129975648,-0.7086134889508452,1.9493675291622221,0.18576196964507355,0.00023733575607574122,0.0010230086853718389,-0.0012577116923243017,0.0010903411000772539,-0.0006135970425600731,-0.0006396848999371266,-0.0002936445485109448,0.2689092457294464,-23.58578872680664,19.477951049804688,17.89893341064453,0.8961893320083618,2.3604629039764404,-0.09425200521945953,,,,,,,,,
1739401261.8962448,-0.7072452650244793,0.6747101073484948,1.418301033704293,-1.8795068966543678,-0.7086180192275255,1.9493675291622221,0.1857628744581163,0.00045446328440581764,-0.0011710396314242922,-0.0003629494754281327,0.0013060846245538217,-0.00015356878326231685,-0.00034260031245851363,-0.0018883492841546604,0.2689092457294464,-23.56198501586914,19.477951049804688,17.92273712158203,0.8961893320083618,2.3604629039764404,-0.06678618490695953,,,,,,,,,
1739401261.9071603,-0.7072415280721468,0.6747100811798569,1.4183011399344065,-1.8795068969814333,-0.7086134110230544,1.9493667715021437,0.18576098547865183,0.001175822842834909,-0.00116627156825333,-0.00015239025918112255,0.0015656572332477586,0.0019159725727175847,-0.001040171047306851,-0.0025726680724349124,0.2173345386981964,-23.56198501586914,19.477951049804688,17.92273712158203,0.8961893320083618,2.3668715953826904,-0.08692778646945953,,,,,,,,,
1739401261.9172196,-0.7072432583623801,0.6747174900016386,1.418298570346248,-1.8795086744256622,-0.7086128452401411,1.9493682868223003,0.18577293206875678,0.00044470136704691243,0.0009196780919808589,0.0004976246184967203,0.0002519729119492076,0.0019985136473371075,-0.00037270499038978365,0.0026459825531216143,0.2411382496356964,-23.66513442993164,19.501754760742188,17.94654083251953,0.9035135507583618,2.3540542125701904,-0.13361968100070953,,,,,,,,,
1739401261.927239,-0.7072432670836835,0.6747149957257769,1.4182974213574788,-1.8795107846309829,-0.7086142758368543,1.9493667715021437,0.185766560927393,0.0010872770565559273,-0.0004579993861971031,6.503015938855074e-05,-0.001664375046619467,0.00189249630131797,-0.00011052202130398738,0.0003016735085566943,0.2411382496356964,-23.58578872680664,19.529525756835938,17.97431182861328,0.9035135507583618,2.3668715953826904,-0.10706938803195953,,,,,,,,,
1739401261.9381504,-0.707243123182058,0.6747169186088525,1.4183003176289295,-1.879509041440882,-0.7086149985269378,1.9493690444823788,0.1857657999005108,0.00015286513361347938,0.0013552696234151978,0.0011591505407802622,0.0009009432353308858,0.0006082742118375584,0.0008187137226563137,0.001050175021763149,0.2689092457294464,-23.61355972290039,19.477951049804688,17.92273712158203,0.9099222421646118,2.3476455211639404,-0.12721098959445953,,,,,,,,,
1739401261.9482038,-0.7072452562186144,0.6747141017371182,1.4182939926619915,-1.8795068986651122,-0.7086138508249857,1.9493675291622221,0.18576786277591475,-0.00032360140757189097,0.0011660856782518005,-0.001398673251766826,0.000985608357518486,0.0003495127344027934,-0.0002124209585040218,0.000857698734224162,0.2689092457294464,-23.61355972290039,19.529525756835938,17.92273712158203,0.8961893320083618,2.3604629039764404,-0.14094389975070953,,,,,,,,,
1739401261.9601367,-0.7072452650246345,0.6747141281758313,1.418293241701036,-1.8795086871805753,-0.7086133695753549,1.9493682868223003,0.18576211161491335,9.98804339408276e-05,0.0002046365979101681,-0.00011901478057005149,-0.00032592555737011417,0.0001800328227941367,-0.0004908952502330288,-0.001554354563708764,0.2689092457294464,-23.61355972290039,19.553329467773438,17.94654083251953,0.8961893320083618,2.3540542125701904,-0.06037749722599983,,,,,,,,,
1739401261.970312,-0.7072433465566909,0.6747144990856646,1.4182943091281421,-1.879506975146131,-0.7086145933157717,1.9493675276359943,0.1857686051848397,0.00065037948316044,-0.0009409205453401331,-0.000546121196796837,0.001168013115264465,0.0002610193570865456,-0.00013662467203441042,0.0030129554715439067,0.2411382496356964,-23.61355972290039,19.529525756835938,17.92273712158203,0.9035135507583618,2.3604629039764404,-0.14094389975070953,,,,,,,,,
1739401261.9812188,-0.7072451855522731,0.6747184710433307,1.4182894260244105,-1.8795097831875724,-0.708616962808362,1.9493675291622135,0.18576929998567054,8.607888689606262e-05,0.0009057591835328726,-0.0012742881955498182,0.0003354737639069264,-0.0010637958181137315,0.0001711220949133886,0.001974050559971479,0.2689092457294464,-23.63736343383789,19.553329467773438,17.92273712158203,0.8897806406021118,2.3604629039764404,-0.12080229818820953,,,,,,,,,
1739401261.9921498,-0.7072452646962896,0.6747206810672146,1.4182940703259705,-1.8795105197704172,-0.7086169834840993,1.9493682863135577,0.18576296432519332,0.00010614197798016235,-0.0006037491821547043,4.9280777319278405e-05,0.0006870151586449729,-0.0012923389749277025,0.00018826775903819302,-0.0017564283310155704,0.2689092457294464,-23.66513442993164,19.529525756835938,17.97431182861328,0.8897806406021118,2.3540542125701904,-0.10066069662570953,,,,,,,,,
1739401262.0021973,-0.7072496438494774,0.6747197323025321,1.418290743332653,-1.879508678348895,-0.7086150122869816,1.9493699104334434,0.18576653840734877,-0.0009731962967993163,0.000415488237663949,-0.001118357967618733,0.0007538477862295502,0.000623478188497184,0.0007326208463917197,0.0006379467283968946,0.3165166676044464,-23.66513442993164,19.577133178710938,17.94654083251953,0.9099222421646118,2.3403213024139404,-0.12080229818820953,,,,,,,,,
1739401262.0132005,-0.7072437003464643,0.6747147724981339,1.418293355122732,-1.87951083294777,-0.7086126119128843,1.9493682456141517,0.1857666291412599,0.0009835177390257325,0.00010410161737198041,-0.0005288942311073436,-0.0010638063815332783,0.0005128225789655329,0.00034322030573861426,0.0007056338331599587,0.2173345386981964,-23.61355972290039,19.529525756835938,17.94654083251953,0.8897806406021118,2.3540542125701904,-0.13361968100070953,,,,,,,,,
1739401262.0241902,-0.7072486930136236,0.6747128440856661,1.4183009661987116,-1.8795070016410886,-0.7086146079974478,1.9493699103795334,0.18576698091963978,-0.0015663189858255446,-0.000462733870314999,0.0016974545487460318,0.0002504140161017676,-0.00043821783931939444,0.0002707994107712805,-0.0020654442248916453,0.3165166676044464,-23.58578872680664,19.450180053710938,17.92273712158203,0.8961893320083618,2.3403213024139404,-0.12721098959445953,,,,,,,,,
1739401262.0351417,-0.7072432670838479,0.6747103108098054,1.41829638877264,-1.8795069780901186,-0.7086185284830049,1.9493682868223003,0.18576783924066065,0.0009500504924588412,-0.0009925278926704423,-0.0005507230096082497,6.082647395466727e-05,-0.0005886560611257136,0.00022666717290475782,-0.001104850981553693,0.2411382496356964,-23.56198501586914,19.501754760742188,17.92273712158203,0.9035135507583618,2.3540542125701904,-0.11347807943820953,,,,,,,,,
1739401262.0452294,-0.7072476918200062,0.6747147697388474,1.418296389895104,-1.8795068956746173,-0.7086179360998056,1.9493641913021147,0.18575726114907817,-0.0005734145634262626,-2.9463243756638354e-05,-0.0011841120167625132,0.00035285896254271215,-0.0005423973247561658,-0.001119458156177069,-0.002508221392592021,0.2927129566669464,-23.61355972290039,19.501754760742188,17.92273712158203,0.9035135507583618,2.3604629039764404,-0.05396880581974983,,,,,,,,,
1739401262.0552576,-0.7072472159760909,0.6747105035408317,1.4182966590562898,-1.8795072587634143,-0.7086158970169557,1.9493690442562708,0.18576344014137722,-0.0010563906166975736,-0.0015607271200039888,-0.002307485507843514,0.001156406245271305,0.0003867900470323543,0.0005199645597679689,0.0006177783088363166,0.2927129566669464,-23.53818130493164,19.501754760742188,17.89893341064453,0.8897806406021118,2.3476455211639404,-0.09425200521945953,,,,,,,,,
1739401262.0661573,-0.7072432670851772,0.6747121272291624,1.418300595873768,-1.879508678398692,-0.7086180188079834,1.949368286822299,0.18576416333724477,0.0005328519078847187,-0.0014483136896776016,0.0018138891698375142,-0.00035680222787869495,-0.0031408382131528976,8.84276907026898e-05,0.00015383915012284272,0.2411382496356964,-23.58578872680664,19.450180053710938,17.94654083251953,0.8961893320083618,2.3540542125701904,-0.11347807943820953,,,,,,,,,
1739401262.0771945,-0.7072452611000984,0.6747149960911143,1.4183024327983111,-1.8795078493475381,-0.708615205547835,1.9493667715021437,0.1857587671715099,-0.00014718690563751387,0.0004719126260195864,0.0009217075540888293,-8.137087494305181e-05,-0.002220283272394049,-0.000304620697993905,-0.0026386282284486112,0.2689092457294464,-23.58578872680664,19.450180053710938,17.92273712158203,0.8833719491958618,2.3668715953826904,-0.06678618490695953,,,,,,,,,
1739401262.0872,-0.7072491233125608,0.6747118742083839,1.418294309161047,-1.8795051257672564,-0.7086166280166404,1.9493682868223003,0.18576567245687256,-0.00036370077872993145,-9.329306500570193e-05,-0.0005824339371592293,0.0015049120461023378,0.0002575078444126457,8.449200192504514e-06,0.00015787028204290043,0.2927129566669464,-23.58578872680664,19.529525756835938,17.89893341064453,0.8961893320083618,2.3540542125701904,-0.11347807943820953,,,,,,,,,
1739401262.0981767,-0.7072469510302363,0.674715926615916,1.4182943092331208,-1.879509402545384,-0.7086153104976878,1.9493667716636491,0.18576895203352892,0.00037622430322788245,-0.0007875319628806636,-0.00021274811080287533,-0.0002880246502415011,-0.00021202234557004076,0.0001369966923034667,0.0008192298615950931,0.2927129566669464,-23.61355972290039,19.529525756835938,17.94654083251953,0.9035135507583618,2.3668715953826904,-0.14094389975070953,,,,,,,,,
1739401262.1081967,-0.7072432710070697,0.6747206290160754,1.4182985346811772,-1.8795051964304406,-0.708614368469827,1.9493682868223083,0.18576494679038183,0.0003068011937302837,0.001813613617891464,0.0018697670972637088,0.000664217341644394,0.0006014836635116853,-0.00015968167082929804,-0.0003649272621817081,0.2411382496356964,-23.66513442993164,19.501754760742188,17.89893341064453,0.9035135507583618,2.3540542125701904,-0.10706938803195953,,,,,,,,,
1739401262.1182382,-0.7072415546721827,0.6747148482796264,1.4182934840823263,-1.8795086871819713,-0.7086157853564115,1.9493675291622221,0.18576189021279618,0.0006947228081761413,-0.00036973915901590353,0.0007169998818031543,-6.200655430631958e-05,-0.00022454045019952785,0.00040144889613297305,-0.0015745650519609895,0.2173345386981964,-23.61355972290039,19.553329467773438,17.94654083251953,0.9035135507583618,2.3604629039764404,-0.09425200521945953,,,,,,,,,
1739401262.1291904,-0.7072452649883456,0.6747199840172059,1.4182943002955886,-1.8795082128738123,-0.7086165897707696,1.9493675291622221,0.18576000036391688,-0.0014822557387272222,0.0007925019174445923,0.0003960204480228489,-0.00010127470607587273,-2.5914072565608778e-05,0.0006928370023638632,-0.0007745021475948535,0.2689092457294464,-23.66513442993164,19.529525756835938,17.89893341064453,0.8961893320083618,2.3604629039764404,-0.07411040365695953,,,,,,,,,
1739401262.1401558,-0.7072472149828478,0.6747187071825851,1.418296534364126,-1.8795132218162456,-0.7086147123252069,1.9493675286534795,0.18576510926158374,-0.0007688727100146495,-0.00021566523617512815,0.0010363946788685989,-0.0012580845368927035,-0.0013953777758174903,0.00038172115281798826,-0.00047279477092716186,0.2927129566669464,-23.63736343383789,19.529525756835938,17.97431182861328,0.9035135507583618,2.3604629039764404,-0.12080229818820953,,,,,,,,,
1739401262.1511288,-0.7072433465607119,0.6747187115836066,1.4182907429356206,-1.879508917900705,-0.7086135417719097,1.9493675291622135,0.18576181949935072,0.000667546452583992,0.0003790906576903666,-0.0010186287563717423,-0.0004873299232404985,-0.0004221221315086712,-0.0005005254941564483,-0.0013614293308951183,0.2411382496356964,-23.63736343383789,19.577133178710938,17.94654083251953,0.8961893320083618,2.3604629039764404,-0.08051909506320953,,,,,,,,,
1739401262.161176,-0.7072432670842799,0.6747141506858769,1.418292260556402,-1.879510838922503,-0.7086154876287146,1.9493679157793742,0.1857661047306437,0.00018546431189908087,-0.0012985215968857773,-0.0008546520960603357,0.00037580561850642235,-0.000731616177676628,1.293690607717115e-05,0.000739330540401303,0.2411382496356964,-23.61355972290039,19.553329467773438,17.97431182861328,0.9099222421646118,2.3540542125701904,-0.09425200521945953,,,,,,,,,
1739401262.1711872,-0.7072482055204931,0.6747204583028142,1.418289665419633,-1.8795086783516086,-0.7086174396518744,1.949367158282593,0.18576963525002896,-0.0017966132494170197,0.0010110845373681805,-0.0013098702670880243,0.0006120752765119892,-0.0032735601733351865,-0.00047370060286334754,0.00029525043306558463,0.2689092457294464,-23.66513442993164,19.553329467773438,17.94654083251953,0.8897806406021118,2.3604629039764404,-0.12080229818820953,,,,,,,,,
1739401262.1812356,-0.7072469775952129,0.6747113366766545,1.418296414375315,-1.8795087709050524,-0.7086190215838463,1.9493675286471985,0.1857653447382087,-0.0005747313395217083,-0.0009808034957264579,0.0009703915736131205,0.00033061182662442605,-0.002471763427015834,-0.00010395110251287946,0.0015743898356418802,0.2927129566669464,-23.53818130493164,19.501754760742188,17.94654083251953,0.9035135507583618,2.3604629039764404,-0.12080229818820953,,,,,,,,,
1739401262.1922312,-0.7072452650246844,0.674714046101884,1.4182982470303804,-1.879509635949665,-0.708614355196751,1.949368163197849,0.18576483654506107,-0.0007015776172158961,-0.00039789019438363823,0.0011713571270707461,-0.00045777648434179564,-0.00044543508888896405,-0.00034278290273796904,0.002232024760182478,0.2689092457294464,-23.58578872680664,19.477951049804688,17.94654083251953,0.9035135507583618,2.3540542125701904,-0.10706938803195953,,,,,,,,,
1739401262.2041926,-0.7072459891107392,0.6747139552146152,1.418294309015514,-1.8795079542695912,-0.708613886146902,1.9493690424467105,0.18576074359530484,-0.0009200939344444779,-0.0006195016130523701,-0.0005586743303176553,0.00010869818054695625,0.00029333326769489295,0.00011797125656236247,-0.0027471905307457464,0.2689092457294464,-23.58578872680664,19.529525756835938,17.94654083251953,0.8961893320083618,2.3476455211639404,-0.08051909506320953,,,,,,,,,
1739401262.2162845,-0.7072454128524056,0.6747132078062151,1.4182943091241043,-1.8795086822855767,-0.7086126124041051,1.9493682868222963,0.18576551667928562,0.0002142164362935322,-0.0004904736545920853,-0.0013036237081733189,-0.00033653443699932164,0.0006677869051698302,-0.0002549225398453524,0.0004924178245475023,0.2411382496356964,-23.56198501586914,19.529525756835938,17.94654083251953,0.8897806406021118,2.3540542125701904,-0.09425200521945953,,,,,,,,,
1739401262.22723,-0.7072415545792505,0.6747139577999023,1.4183024015086974,-1.8795086871805657,-0.7086135286818829,1.9493691927564534,0.1857641744957345,0.001055013520849747,-0.0009489010783261108,0.001242881517423282,0.00010841827826952905,0.000634570044234886,0.00038610303049505684,-0.0027186941098793233,0.2173345386981964,-23.58578872680664,19.450180053710938,17.94654083251953,0.8961893320083618,2.3732802867889404,-0.08692778646945953,,,,,,,,,
1739401262.2381277,-0.7072452650246842,0.6747132875053024,1.418298171530439,-1.879506904503589,-0.7086157739083491,1.9493682868402453,0.18576133613063564,-0.0004747578066448867,-0.00041696723864743923,-0.0003800635152380133,-0.00041757461588846527,-0.0013744870365124404,9.452217975616027e-05,-0.0011858157966124132,0.2689092457294464,-23.56198501586914,19.477951049804688,17.92273712158203,0.9035135507583618,2.3540542125701904,-0.08051909506320953,,,,,,,,,
1739401262.2481687,-0.7072466554023421,0.6747158141492797,1.4182985359893658,-1.8795051231348647,-0.708614275232354,1.949366771332563,0.18576730024246124,-3.283938278069061e-05,-2.738902468053285e-05,0.00037405297334801356,0.001053825374243907,9.690898063754311e-05,-3.874260303932177e-05,0.0002140902412892027,0.2927129566669464,-23.63736343383789,19.501754760742188,17.89893341064453,0.9035135507583618,2.3668715953826904,-0.12721098959445953,,,,,,,,,
1739401262.2591784,-0.7072452650192287,0.6747165382953013,1.4182935952129232,-1.8795108241176242,-0.7086142506783133,1.949369044482376,0.18576865115379854,-4.173986562523756e-05,0.0005719572377301536,-0.0007864865007230301,0.0006467442025324489,-0.0001657523313804993,0.00056118613051565,0.0014578174531128824,0.2689092457294464,-23.63736343383789,19.529525756835938,17.94654083251953,0.9035135507583618,2.3476455211639404,-0.12080229818820953,,,,,,,,,
1739401262.270158,-0.7072469687150976,0.6747207085311084,1.4182925264430553,-1.8795086872290099,-0.7086137279091984,1.9493675291622221,0.1857662753391576,-3.856977258976719e-05,0.002062063637681147,-0.0004977113976532978,-0.0003720690201074901,0.0014491074120070405,0.0002177684598361318,-2.20531996213203e-05,0.2927129566669464,-23.66513442993164,19.553329467773438,17.94654083251953,0.8961893320083618,2.3604629039764404,-0.09425200521945953,,,,,,,,,
1739401262.2802277,-0.7072459806074204,0.6747162828260497,1.418292127054475,-1.8795058646997622,-0.7086142371616455,1.9493690444823788,0.18577123142025886,-0.0006578298914784599,0.00035128263926801555,-0.0003230308818522012,0.0007153716652943614,0.00044940359727688026,0.0005722459545464691,0.0024071473802039613,0.2689092457294464,-23.61355972290039,19.529525756835938,17.89893341064453,0.9035135507583618,2.3476455211639404,-0.13361968100070953,,,,,,,,,
1739401262.2911594,-0.7072454915645295,0.674718619024815,1.4182922879798496,-1.879508691436436,-0.7086133710443674,1.9493674879540726,0.18576564992520744,0.00025417475287483026,-5.548055006291239e-05,0.00020804280445077192,0.0005690650449466565,0.0014388134718627743,-0.00019936637570085855,-0.00022607667633778831,0.2689092457294464,-23.63736343383789,19.553329467773438,17.94654083251953,0.8961893320083618,2.3604629039764404,-0.08692778646945953,,,,,,,,,
1739401262.302147,-0.70724326708511,0.6747187104566461,1.4182906639324728,-1.8795107584672186,-0.7086182520077781,1.9493657066220387,0.18577124827068636,0.0005590037640262458,0.0005661961347534121,-0.0004933569808510106,2.6725989321933416e-05,-0.000145245018052865,-0.0001341744235755964,0.0030923868032955316,0.2411382496356964,-23.63736343383789,19.577133178710938,17.97431182861328,0.9099222421646118,2.3476455211639404,-0.13361968100070953,,,,,,,,,
1739401262.312181,-0.7072469775454154,0.674720699713051,1.4182981715896268,-1.8795078493475432,-0.7086140426427482,1.949367529105695,0.1857696488671802,-0.0012125085735043457,0.0008175733705599185,0.003020437294120825,-5.6073832443708925e-05,0.0007113917202918944,-0.00020026912295272335,-0.00026133189461343017,0.2927129566669464,-23.66513442993164,19.477951049804688,17.92273712158203,0.8897806406021118,2.3604629039764404,-0.12080229818820953,,,,,,,,,
1739401262.3242016,-0.7072422698188373,0.6747187106024682,1.4182943060716489,-1.8795089992268408,-0.7086138950936367,1.9493671740326832,0.18576469001387247,0.0008398668283405588,0.0012532529749133886,0.0010201151904954326,-0.00041526968026403977,-0.00038383022059553114,-0.0006485967295920918,0.000734153452592391,0.2173345386981964,-23.63736343383789,19.529525756835938,17.94654083251953,0.8961893320083618,2.3540542125701904,-0.08692778646945953,,,,,,,,,
1739401262.3352275,-0.7072432670878689,0.6747187106025181,1.418292526011003,-1.879508916770631,-0.7086126119155264,1.9493675291559402,0.1857655030185058,0.0007169594399087033,-0.0001626261578654669,-0.0006553217254257717,-0.0002914976447368589,0.002287725039137227,-4.358234347650184e-05,-0.00020527412147264566,0.2411382496356964,-23.63736343383789,19.553329467773438,17.94654083251953,0.8897806406021118,2.3604629039764404,-0.12080229818820953,,,,,,,,,
1739401262.3462121,-0.7072415280721468,0.6747158494705526,1.418296388913959,-1.8795136459814958,-0.7086137674275099,1.9493690444823788,0.18576104380300032,0.0005699044583665629,0.0006794063953400498,0.00010778649078838,-0.0021963940489030964,0.0023143082859174388,4.932702212291022e-05,-0.001315625033807012,0.2173345386981964,-23.63736343383789,19.501754760742188,17.97431182861328,0.8961893320083618,2.3476455211639404,-0.08692778646945953,,,,,,,,,
1739401262.3562343,-0.7072452650242356,0.6747167477319811,1.4182992489557626,-1.8795115511958527,-0.7086155102008479,1.9493675464352442,0.18576527624979675,0.00038068321761141005,0.0002101878630353921,0.00011120831674253764,-0.000926650421393657,-0.00011489852100334693,0.00022525677646928499,-6.119873252179414e-05,0.2689092457294464,-23.61355972290039,19.501754760742188,17.94654083251953,0.9099222421646118,2.3604629039764404,-0.08692778646945953,,,,,,,,,
1739401262.3671646,-0.7072462147744148,0.6747149206303222,1.4182972630225454,-1.879506066686736,-0.7086133697935896,1.9493682868223978,0.18576114841290045,-0.0004297678049545603,-0.0003271922287560833,-0.0008458556685459373,0.0005473949092907332,0.0007319662104164047,0.0004317973482406246,-0.0009151386676393078,0.2689092457294464,-23.58578872680664,19.501754760742188,17.89893341064453,0.8961893320083618,2.3540542125701904,-0.08692778646945953,,,,,,,,,
1739401262.3781257,-0.7072452651390618,0.6747166538079624,1.418300975471824,-1.8795086796638194,-0.7086138993917042,1.9493675154261723,0.18576929592936875,-0.00012469810021938,0.000813519609475179,0.00043574583611346207,-0.0002802580146184086,0.001716316107126262,-8.477328365199364e-06,0.00037761542514445565,0.2689092457294464,-23.61355972290039,19.450180053710938,17.94654083251953,0.8961893320083618,2.3604629039764404,-0.12080229818820953,,,,,,,,,
1739401262.3882375,-0.7072469775454212,0.6747148434667665,1.4182973426250638,-1.8795108372859737,-0.708612617826356,1.9493675291615242,0.18576809358279317,-0.00024995793671719045,1.4724141630157746e-05,0.000884829032875322,-0.000466751078992207,0.002272975331357388,-0.00021672320013633832,0.0017224613736610923,0.2927129566669464,-23.61355972290039,19.501754760742188,17.97431182861328,0.8897806406021118,2.3604629039764404,-0.13361968100070953,,,,,,,,,
1739401262.3991926,-0.7072452650246842,0.6747119006953514,1.418294309125899,-1.8795108240812626,-0.7086136995678812,1.949367364329624,0.18576535072266287,-5.424558983644793e-06,-0.0006565503578867682,-0.0016161889654360518,-0.0006856496955642212,0.0014051628184392042,-0.0001637465615059612,-0.0012458426166742137,0.2689092457294464,-23.58578872680664,19.529525756835938,17.94654083251953,0.8897806406021118,2.3604629039764404,-0.11347807943820953,,,,,,,,,
1739401262.4092476,-0.7072432670838312,0.6747132865865669,1.4182943091241045,-1.8795076202316796,-0.7086133746603143,1.9493690444795873,0.1857655190033836,0.0011051467833123388,0.0004326169870172375,-0.00044143569326194926,0.00018824005885792645,0.0007910830313327343,0.00023758534948752194,-0.000552056342011473,0.2411382496356964,-23.56198501586914,19.529525756835938,17.92273712158203,0.8961893320083618,2.3476455211639404,-0.12080229818820953,,,,,,,,,
1739401262.4202669,-0.7072453004913102,0.6747167586820557,1.41829808917468,-1.8795051954165913,-0.7086129695404572,1.9493667715021437,0.18576870853613353,-0.0002437756602182157,0.00045182531968643975,-0.00027042045719202605,0.0011890676431565756,0.0007756322916963993,-0.0007495600622127211,0.0015377752238975217,0.2689092457294464,-23.61355972290039,19.477951049804688,17.89893341064453,0.8897806406021118,2.3668715953826904,-0.12080229818820953,,,,,,,,,
1739401262.4311767,-0.7072441165226664,0.6747186837831647,1.4182935270184154,-1.8795108376134209,-0.7086176625808005,1.9493675291622221,0.18576977134162675,-0.00022393785882282395,0.000688334795532675,-0.0009459775306716293,-0.0016702449248836649,0.00020816035201935162,0.0002867367121093387,-8.012322067958797e-05,0.2927129566669464,-23.63736343383789,19.501754760742188,17.97431182861328,0.8961893320083618,2.3604629039764404,-0.12080229818820953,,,,,,,,,
1739401262.442158,-0.7072415545469494,0.6747185624489591,1.4182943086718838,-1.8795108280788255,-0.7086158505519524,1.9493674055377737,0.18576249760163838,0.0011726442160778512,0.00020612340436733758,0.0008954886269827,-0.0012996758986472462,0.00039618681957679107,-0.00029312862362124495,-0.0006934079495467966,0.2173345386981964,-23.66513442993164,19.529525756835938,17.94654083251953,0.9035135507583618,2.3604629039764404,-0.06037749722599983,,,,,,,,,
1739401262.4522367,-0.7072460239801149,0.6747164728982477,1.4182924466471691,-1.879507853635578,-0.7086149931573004,1.94936677150005,0.18576813628536373,0.00029778735321304024,-6.668757116682375e-05,-0.0002598386505784237,-0.00024611130648084616,0.0022420790698304454,3.243039412851318e-05,0.0010089711750967218,0.2927129566669464,-23.63736343383789,19.553329467773438,17.92273712158203,0.9099222421646118,2.3668715953826904,-0.10706938803195953,,,,,,,,,
1739401262.4631577,-0.7072452649829625,0.6747169879306422,1.4182943061802147,-1.8795118001593363,-0.7086133849439322,1.9493675291622221,0.1857686925210547,-0.0003161335133186477,-0.00028141977675571366,-0.00013817671040358947,-0.00139624198449449,0.00041197705922587583,0.000513285876250063,0.0010538473958144627,0.2689092457294464,-23.61355972290039,19.529525756835938,17.97431182861328,0.8961893320083618,2.3604629039764404,-0.12080229818820953,,,,,,,,,
1739401262.4732418,-0.707241554454083,0.6747149723416136,1.418295641280341,-1.8795108270785383,-0.7086166345011223,1.9493699103796112,0.18577128195119638,0.0020865173700373375,-0.0014661374543706992,0.0005325962459882307,-0.0008424108852220828,0.0008177904950217313,0.001734389750960017,0.0018532897400419847,0.2173345386981964,-23.58578872680664,19.501754760742188,17.94654083251953,0.8961893320083618,2.3403213024139404,-0.13361968100070953,,,,,,,,,
1739401262.4841754,-0.7072433818779612,0.6747183622953835,1.4182907315560236,-1.8795070016855027,-0.7086139038252923,1.9493667715559788,0.18576389855634662,-0.00029230476437145357,-0.0011313479514422973,-0.0006514495948854637,-0.0004409990696966332,0.00058647072315391,-0.00010305840738455879,-0.0005455569871718221,0.2411382496356964,-23.63736343383789,19.577133178710938,17.92273712158203,0.8961893320083618,2.3668715953826904,-0.07411040365695953,,,,,,,,,
1739401262.4951437,-0.707247172373965,0.6747180336095249,1.4182974563351727,-1.8795086786778878,-0.70861444245926,1.9493667165579447,0.18576544720090213,0.000283068226005152,0.0009181895170165362,0.0012757495201525919,0.0002704323173569473,0.00015456534787895352,-0.0007427547585655827,-0.0020791840491922705,0.2689092457294464,-23.63736343383789,19.477951049804688,17.94654083251953,0.8961893320083618,2.3668715953826904,-0.09425200521945953,,,,,,,,,
1739401262.505184,-0.7072452654486364,0.6747162798482156,1.418295787368849,-1.879509044383889,-0.7086157640900121,1.9493667714993521,0.1857689011778354,2.0540262753974682e-05,-0.0009744674823271955,0.0006801482163472556,-0.00020799032187889335,-0.0003004594028849012,0.00012763360636127016,0.0016683733640738972,0.2689092457294464,-23.61355972290039,19.477951049804688,17.92273712158203,0.9163309335708618,2.3668715953826904,-0.11347807943820953,,,,,,,,,
1739401262.5161417,-0.7072415545631008,0.6747141251262614,1.4182984100050717,-1.879508679226414,-0.7086142934302117,1.9493725253748175,0.18576890699849033,0.00044625049726855395,-0.0013937743638384572,0.00022524485520115673,-0.00023525211252752363,0.0005489665734578665,0.0015116552376419315,0.0008787705704702968,0.2173345386981964,-23.61355972290039,19.477951049804688,17.94654083251953,0.9035135507583618,2.3540542125701904,-0.11347807943820953,,,,,,,,,
1739401262.5261943,-0.7072432670838312,0.6747156258295323,1.4182981715950165,-1.8795052317149334,-0.7086161855243167,1.9493666479494756,0.1857705306278155,-0.0006630853213149686,-0.0001881684405750567,-1.268088974986937e-05,-0.0006060767271149406,-0.0006014932622286492,-0.0005325766650452416,0.0011403273511367824,0.2411382496356964,-23.63736343383789,19.477951049804688,17.89893341064453,0.8833719491958618,2.3668715953826904,-0.12721098959445953,,,,,,,,,
1739401262.536224,-0.7072452918426863,0.6747169970483997,1.4182963890229763,-1.8795107582511228,-0.7086185682857943,1.9493682868202078,0.18576501053296024,0.0007342982056760123,0.00165534221394099,-0.0009748399652938491,-0.0014659740829524358,-0.0004246871418782191,-0.00013564509669319023,0.00042700982071176353,0.2689092457294464,-23.61355972290039,19.501754760742188,17.97431182861328,0.9035135507583618,2.3540542125701904,-0.08051909506320953,0,0,0,0.000,0,0
1739401262.547204,-0.7072462190262008,0.6747129073556226,1.4182973690792302,-1.8795038845348713,-0.7086176137994724,1.949368149461802,0.18576814941042766,0.00010333088552205694,-0.00028847614571914527,-5.555045262315068e-05,0.0012480160923471423,-4.918757220706136e-05,-0.0002789682133004309,-1.531436102986827e-05,0.2689092457294464,-23.58578872680664,19.501754760742188,17.92273712158203,0.9035135507583618,2.3540542125701904,-0.10706938803195953,0,0,0,0.000,0,0
1739401262.558188,-0.7072474094890863,0.6747169892396554,1.4182988868522493,-1.879506541432687,-0.7086173803032126,1.9493675291614467,0.18576844299843184,-0.0007365939865344843,0.0014631410469118848,0.0005498627614861783,-0.0003409663472416964,-0.0009993217423480034,-0.0002414679609915533,0.0007158415966697629,0.2689092457294464,-23.61355972290039,19.477951049804688,17.94654083251953,0.8897806406021118,2.3604629039764404,-0.10066069662570953,0,0,0,0.000,0,0
1739401262.5691528,-0.7072477029759824,0.6747203023486052,1.418296388926073,-1.8795072135284714,-0.7086197748277606,1.9493682868223003,0.18576461575980477,-0.0014862786761200497,0.0020866346705059346,-0.0010359992895059755,0.0004334064516319903,-0.0007163740479171198,-3.1935554973496004e-05,-0.001659497200201892,0.2927129566669464,-23.66513442993164,19.501754760742188,17.92273712158203,0.9099222421646118,2.3540542125701904,-0.11347807943820953,0,0,0,0.000,0,0
1739401262.5791602,-0.7072415545671951,0.6747179953444878,1.4182963977442777,-1.8795073647290215,-0.7086153216259459,1.9493656383900368,0.1857639388784803,0.002107416376742317,0.0008856667637194482,-0.00010786055876369811,0.00040996284972638305,0.0002497489477830817,-0.0010545449422230738,-0.0012231383747940642,0.2173345386981964,-23.63736343383789,19.501754760742188,17.89893341064453,0.9035135507583618,2.3732802867889404,-0.08051909506320953,0,0,0,0.000,0,0
1739401262.5891683,-0.70724526894927,0.6747211853684165,1.4182927658469604,-1.8795068957113548,-0.7086138481754382,1.949370668033331,0.1857701719188909,-0.0005242552437613231,0.0019230349447530125,-0.0005032205965198636,0.0007532661678137798,-0.0005106001026511716,0.000877600197693948,0.001206343579267101,0.2689092457294464,-23.66513442993164,19.553329467773438,17.92273712158203,0.8897806406021118,2.3339126110076904,-0.12721098959445953,0,0,0,0.000,0,0
1739401262.60015,-0.7072435085912268,0.6747169980844787,1.4182943091254558,-1.879510758140096,-0.7086168207371727,1.9493682868223003,0.18576382947593698,0.0006588543163622069,0.000582599733325006,-0.0006314079665411139,-0.00035413837543708923,-4.6697672673364984e-05,0.0003812588907240647,-0.0015518874396500829,0.2411382496356964,-23.61355972290039,19.529525756835938,17.97431182861328,0.9163309335708618,2.3540542125701904,-0.08051909506320953,0,0,0,0.000,0,0
1739401262.61023,-0.707247410795986,0.6747169980817871,1.4182921633568926,-1.8795089550335298,-0.7086163074186556,1.9493682852960725,0.18576820058719143,-0.0014064907570407203,0.0003035854025372852,-0.0007719687766832056,-0.00010567442573637377,-0.0006035241364711278,0.0002585350773788354,0.001099132440197374,0.2689092457294464,-23.61355972290039,19.529525756835938,17.94654083251953,0.8897806406021118,2.3540542125701904,-0.10706938803195953,0,0,0,0.000,0,0
1739401262.6211855,-0.7072469893676241,0.6747167861541612,1.4182966272840873,-1.8795136201457534,-0.7086185272431882,1.9493690429561423,0.18577203607991655,-0.0005097951048084006,0.00015525684847229323,0.0007650361370084655,-0.0020267380314244665,8.97136174715707e-05,0.000625965383147051,0.0008097401882350096,0.2927129566669464,-23.61355972290039,19.501754760742188,17.97431182861328,0.9035135507583618,2.3476455211639404,-0.14094389975070953,0,0,0,0.000,0,0
1739401262.6312134,-0.7072472954370544,0.6747186427908102,1.4182940579546588,-1.8795115659126114,-0.7086142357060765,1.9493699103795852,0.18577041252031679,-0.001652751972280566,-0.0003713818230112041,-0.0003859059144353257,-0.0007176386444238233,0.0006206657418289652,-0.00044946553241460597,0.0013584881105394315,0.2927129566669464,-23.63736343383789,19.529525756835938,17.94654083251953,0.9035135507583618,2.3403213024139404,-0.12721098959445953,0,0,0,0.000,0,0
1739401262.6425796,-0.7072462453007645,0.6747207085429885,1.4182943091226865,-1.8795086745509715,-0.708618937668579,1.9493675291622221,0.185768854578506,-0.000477332516348602,0.0011017484243695844,0.0004845532011610946,0.00030272767926047293,-0.0013080255218862913,0.00018646097255639946,-0.00016316972225495935,0.2689092457294464,-23.66513442993164,19.529525756835938,17.94654083251953,0.9035135507583618,2.3604629039764404,-0.11347807943820953,0,0,0,0.000,0,0
1739401262.6531887,-0.7072452650302179,0.6747157153966712,1.4183002412059829,-1.8795086842370976,-0.7086133740688492,1.9493682866527196,0.1857649974098306,0.0003227271820769998,-3.360288930266534e-05,0.002067042982431216,0.0009472662465404987,0.001203816370465189,0.00022438565575364007,-0.0018129815662570787,0.2689092457294464,-23.58578872680664,19.450180053710938,17.94654083251953,0.8961893320083618,2.3540542125701904,-0.08051909506320953,0,0,0,0.000,0,0
1739401262.6641228,-0.707240406060882,0.674716988783103,1.418294309124047,-1.8795107591212756,-0.7086146107584,1.9493675291622212,0.18576961543966108,0.0010557821561474362,0.0009310557528321879,-0.000613899898489753,8.082426654259947e-05,0.0010485505497040744,-0.0001592797942590944,-0.0007428608170476446,0.2411382496356964,-23.61355972290039,19.529525756835938,17.97431182861328,0.9035135507583618,2.3604629039764404,-0.12080229818820953,0,0,0,0.000,0,0
1739401262.674126,-0.7072469858912164,0.6747162739955745,1.4182980391362128,-1.8795077168927883,-0.7086174250961838,1.9493682815652935,0.18576971354522953,-0.001646963302680407,-0.0007776837744573636,0.0005095300038383031,0.0004546949875246865,-2.681662727189104e-05,0.00021350972846510033,-0.00028882603816418097,0.2927129566669464,-23.61355972290039,19.477951049804688,17.92273712158203,0.8897806406021118,2.3540542125701904,-0.13361968100070953,0,0,0,0.000,0,0
1739401262.6842337,-0.7072415506386557,0.6747184721716766,1.4182925264448423,-1.8795070026320881,-0.708616947404556,1.9493649489621039,0.18576450856433188,0.0012139119104113835,0.0012032754918173663,-0.0023647672214975246,-0.001398918849810933,0.0006222322797221878,-0.0006342953496263807,7.595838234642323e-05,0.2173345386981964,-23.63736343383789,19.553329467773438,17.92273712158203,0.8961893320083618,2.3540542125701904,-0.09425200521945953,0,0,0,0.000,0,0
1739401262.6952007,-0.7072491229855563,0.6747148523132291,1.4183024324693174,-1.8795051129968061,-0.7086153674604909,1.949368920839088,0.1857746055319291,-0.0013624657467131087,-0.0008525304057176302,0.001534719857807296,0.0002746725070255702,-0.0011348206720652226,-2.1229224312718136e-05,0.001963192586034545,0.2927129566669464,-23.61355972290039,19.450180053710938,17.89893341064453,0.9035135507583618,2.3476455211639404,-0.13361968100070953,0,0,0,0.000,0,0
1739401262.7052226,-0.7072432672291807,0.6747142817964024,1.4183002515267877,-1.8795086786772892,-0.7086185329103432,1.9493675291601282,0.18577117040108804,0.00021709667430217455,-0.0004265505970545932,0.0010164822911155873,-0.0006503381401140687,0.00023266071827743274,0.0005025759026314723,0.0010826381804677314,0.2411382496356964,-23.58578872680664,19.450180053710938,17.94654083251953,0.9035135507583618,2.3604629039764404,-0.13361968100070953,0,0,0,0.000,0,0
1739401262.7161877,-0.707243267083832,0.6747161334858355,1.41829924993691,-1.8795058184174558,-0.7086185689453087,1.9493682868223003,0.18576427042383564,-0.00026565577514298377,-0.0001247335917288683,0.0009963584796620674,0.00013257088100985043,-0.0006660219556065366,0.00025303345850110893,-0.0003328701456296705,0.2411382496356964,-23.56198501586914,19.501754760742188,17.94654083251953,0.9035135507583618,2.3540542125701904,-0.07411040365695953,0,0,0,0.000,0,0
1739401262.727124,-0.7072470040363686,0.6747177481139489,1.4183042593140756,-1.879508687164414,-0.7086188981201348,1.9493675286534795,0.18576576819313764,-0.0018943648804140634,0.0001649804604582115,0.0028472448107886962,-0.0003506252031190559,-0.002205781905060179,-0.0005372937533006706,-0.001155303024274231,0.2927129566669464,-23.63736343383789,19.426376342773438,17.94654083251953,0.9035135507583618,2.3604629039764404,-0.08692778646945953,0,0,0,0.000,0,0
1739401262.7372313,-0.7072432935761302,0.6747172364514666,1.4182943890370676,-1.8795125525913199,-0.7086127318493097,1.9493690444823528,0.185772793739706,-0.0006501629522910184,-0.0006816000432867519,0.00010666548706909364,-0.000995815212910435,0.0006100800611889409,0.001106176229826138,0.0003141824871612643,0.2411382496356964,-23.61355972290039,19.529525756835938,17.99811553955078,0.8897806406021118,2.3476455211639404,-0.14735259115695953,0,0,0,0.000,0,0
1739401262.7481625,-0.7072462623987442,0.6747169980822356,1.4182964548914667,-1.8795090427486507,-0.7086149371722961,1.9493682868223003,0.18577053059164828,-0.0008207591418195172,0.0005197392426923319,0.0007551459664066819,0.00010207637191829686,0.0006707668279956514,0.0006800835827588191,0.00018653913617779582,0.2927129566669464,-23.61355972290039,19.529525756835938,17.92273712158203,0.8961893320083618,2.3540542125701904,-0.12721098959445953,0,0,0,0.000,0,0
1739401262.7581823,-0.7072432683799154,0.6747185627761594,1.4182981715183014,-1.8795069235087307,-0.7086174960094829,1.9493675291622221,0.18576663831616488,0.0006484543958530725,0.0010019596331450557,0.0007405545079177826,-0.000608335328269201,-0.0008435042979728187,-0.0001619736370841756,0.00028061234030423386,0.2411382496356964,-23.66513442993164,19.477951049804688,17.92273712158203,0.9035135507583618,2.3604629039764404,-0.09425200521945953,0,0,0,0.000,0,0
1739401262.7691455,-0.7072452650246915,0.6747187105904052,1.4182925260110197,-1.8795068961094437,-0.7086158293606293,1.9493690444823788,0.18576404542787792,-0.0010710207717291595,-0.0004430144510784397,-0.0003845367441415065,0.0006219785004351598,0.0002523633682637818,9.67270015382473e-05,-0.0017684546590309982,0.2689092457294464,-23.63736343383789,19.553329467773438,17.92273712158203,0.9035135507583618,2.3476455211639404,-0.10066069662570953,0,0,0,0.000,0,0
1739401262.7791677,-0.7072469779814805,0.6747169980817869,1.4182943061806577,-1.8795107581401034,-0.7086174732800362,1.9493675291622221,0.1857697729110681,-0.0006677613024696045,0.0003438837888817298,0.00013374772918837115,0.0006197541728738719,0.00034805953492490386,0.00014269364467251887,0.0006876145479823793,0.2927129566669464,-23.61355972290039,19.529525756835938,17.97431182861328,0.9035135507583618,2.3604629039764404,-0.12080229818820953,0,0,0,0.000,0,0
1739401262.7911458,-0.7072432670838337,0.6747187096213717,1.4182943091240878,-1.8795107944425133,-0.7086153147492057,1.9493682868223003,0.18576557114077216,0.0009058377725865362,0.001124368763656037,0.0008132329728337509,-0.0009392428683961642,0.000599770694348316,0.0002875311674039465,-0.002061651417360077,0.2411382496356964,-23.63736343383789,19.529525756835938,17.97431182861328,0.9035135507583618,2.3540542125701904,-0.09425200521945953,0,0,0,0.000,0,0
1739401262.8011832,-0.7072452650246842,0.674716997100635,1.4182925146733283,-1.8795079092181575,-0.7086180192315964,1.9493660138420654,0.18576425270487124,-0.0003897608887516299,9.240786386723421e-05,-0.0009303967167534639,0.0010551504697682232,8.120092152611779e-05,-0.0002515190600819403,-0.0005506376009915986,0.2689092457294464,-23.61355972290039,19.553329467773438,17.97431182861328,0.8961893320083618,2.3732802867889404,-0.07411040365695953,0,0,0,0.000,0,0
1739401262.8112016,-0.7072469108274592,0.6747120596451084,1.4182942296510452,-1.8795068969331699,-0.7086147307005042,1.9493675291622221,0.18576890690849288,-0.00044869007652079384,-0.0015292605668411358,0.0003906272732969953,0.0010103738660839163,0.0014066748896558645,0.0005630370626297441,-0.0002488910103459613,0.2927129566669464,-23.58578872680664,19.529525756835938,17.92273712158203,0.9035135507583618,2.3604629039764404,-0.11347807943820953,0,0,0,0.000,0,0
1739401262.8212602,-0.7072469657705286,0.6747103470745962,1.4182952723019737,-1.879507001746072,-0.7086133874051849,1.9493682852960725,0.18576977296773564,2.5407561938276966e-05,-0.0017496988012067824,-0.001335453086749202,-0.00019511099410842142,0.0018667859617421494,-0.0005091031162137611,7.776282335867615e-05,0.2927129566669464,-23.56198501586914,19.477951049804688,17.92273712158203,0.8961893320083618,2.3540542125701904,-0.12080229818820953,0,0,0,0.000,0,0
1739401262.832204,-0.7072452686221545,0.6747169980651875,1.4182942431303813,-1.87950509053945,-0.7086166340103894,1.9493682456141421,0.185764364090755,0.00033901608389745656,0.00040058428611253633,0.00033231712836127706,0.0017643079777118335,6.288977401953453e-05,-3.664522597358331e-05,-0.0023650656705110724,0.2689092457294464,-23.61355972290039,19.501754760742188,17.89893341064453,0.8961893320083618,2.3540542125701904,-0.08692778646945953,0,0,0,0.000,0,0
1739401262.8441448,-0.7072491233126476,0.6747150001409338,1.4182963859584077,-1.879507610928832,-0.7086175003075059,1.949369044482146,0.1857712839056911,-0.0014451667884683647,0.00042832885287969147,-0.0003369572748650179,-0.0004214663889137596,-0.000803423358361587,3.8148553682711226e-05,-0.00038261407207464484,0.2927129566669464,-23.58578872680664,19.501754760742188,17.92273712158203,0.9035135507583618,2.3476455211639404,-0.13361968100070953,0,0,0,0.000,0,0
1739401262.854166,-0.7072432670959441,0.674713287583864,1.4182963898950895,-1.8795086812977175,-0.708612618471966,1.9493667715021437,0.18577128682977773,0.0009916122023196888,-0.0007026227173673803,0.0005873850138634966,-0.000707422401539975,0.0008117584761798977,-0.0003133860064196357,0.0006707016241861274,0.2411382496356964,-23.56198501586914,19.501754760742188,17.94654083251953,0.8897806406021118,2.3668715953826904,-0.13361968100070953,0,0,0,0.000,0,0
1739401262.8651228,-0.7072452650246842,0.6747149988327384,1.4182963565361337,-1.8795107581401125,-0.7086186523185319,1.9493690444823788,0.18576251023995588,0.0007011524465567907,-5.374064799758529e-05,-0.0003019965879647906,-0.0004800228176031326,0.00046085088334992447,2.5429428865402545e-05,-0.0019848824328053153,0.2689092457294464,-23.58578872680664,19.501754760742188,17.97431182861328,0.9035135507583618,2.3476455211639404,-0.06037749722599983,0,0,0,0.000,0,0
1739401262.8751695,-0.7072445580383534,0.6747121381368161,1.4182966273319906,-1.8795068986166608,-0.7086162428582339,1.9493682868223003,0.1857681537963159,2.7696849595751404e-05,-0.000678222292449592,0.000335601079413158,0.00019633061394089965,-0.0006247651482731773,0.00039279347206748125,-0.001318970873326811,0.2927129566669464,-23.58578872680664,19.501754760742188,17.92273712158203,0.9099222421646118,2.3540542125701904,-0.10706938803195953,0,0,0,0.000,0,0
1739401262.886204,-0.7072469774954184,0.6747189479874559,1.4182964006890626,-1.8795069751460978,-0.7086147535222329,1.949367915948955,0.1857705307903565,-0.0012063373260499661,-0.0005033230117051711,0.00042453326643978126,-0.00011692411615409542,7.29126050543902e-05,-0.0003087409331753594,0.0004056598588577937,0.2927129566669464,-23.63736343383789,19.501754760742188,17.92273712158203,0.9035135507583618,2.3540542125701904,-0.12721098959445953,0,0,0,0.000,0,0
1739401262.8962703,-0.7072455031162136,0.6747169980858072,1.4183010326141277,-1.8795087460506892,-0.7086133874055713,1.9493682868160196,0.18576663409027372,-0.00046284752605686805,0.0002177377290153893,0.00043729205348004866,8.82672341085395e-05,0.0011497515915501939,-3.950038458495341e-05,-0.0010606706971470925,0.2689092457294464,-23.61355972290039,19.477951049804688,17.94654083251953,0.8961893320083618,2.3540542125701904,-0.09425200521945953,0,0,0,0.000,0,0
1739401262.9081767,-0.7072433465580349,0.6747169980817871,1.418294309140255,-1.8795068956736036,-0.7086175926259581,1.9493667715021437,0.18576576819303858,-0.00018890582543239554,0.00020840855059449403,-0.0007094292755046667,0.0006411147161726119,-0.0012797895909614973,0.00023726841563417698,-0.0007805174754458929,0.2411382496356964,-23.61355972290039,19.529525756835938,17.92273712158203,0.9035135507583618,2.3668715953826904,-0.08692778646945953,0,0,0,0.000,0,0
1739401262.9182444,-0.7072455829165716,0.6747148434842574,1.41829638891396,-1.8795051159396416,-0.708617975291911,1.9493682868223003,0.1857697729677384,-0.0009069452016001125,-0.0008056801285397988,5.324754639781438e-05,0.001419185980715167,0.0003518165294176523,8.339934749970655e-05,0.0014815136564890015,0.2689092457294464,-23.61355972290039,19.501754760742188,17.89893341064453,0.9035135507583618,2.3540542125701904,-0.12080229818820953,0,0,0,0.000,0,0
1739401262.929182,-0.707246970679185,0.6747207085312085,1.4182943120675437,-1.8795068995978237,-0.7086181798275787,1.9493675291622221,0.18576814946459932,-0.0006924999684588348,0.00030535894590409175,0.00048372570604826603,7.534728131888385e-05,-0.001279361761826654,0.0003322020314097776,0.00035980345340523264,0.2927129566669464,-23.66513442993164,19.529525756835938,17.92273712158203,0.8961893320083618,2.3604629039764404,-0.10706938803195953,0,0,0,0.000,0,0
1739401262.940128,-0.7072469785265231,0.6747169951383477,1.4182961151741265,-1.8795097920174637,-0.7086186994406769,1.9493682868223003,0.18576850483071716,-0.0010910207975599186,-0.00047845212390760616,0.0002882862458047316,-0.0005344325031518705,-0.0010046164278379383,0.00036718132406966483,-5.439800905126206e-05,0.2927129566669464,-23.61355972290039,19.501754760742188,17.92273712158203,0.9035135507583618,2.3540542125701904,-0.10706938803195953,0,0,0,0.000,0,0
1739401262.9521427,-0.7072469785265674,0.6747169980817704,1.418294309122559,-1.8795114609341652,-0.708618942599509,1.9493682866527196,0.18576501004893572,-0.0005162377018891693,-0.000272647010694182,-0.0007538222821604215,-0.0008151538277813594,0.0003536381220335672,0.0005439478237143795,-0.0007679752541900368,0.2927129566669464,-23.61355972290039,19.529525756835938,17.94654083251953,0.9035135507583618,2.3540542125701904,-0.08051909506320953,0,0,0,0.000,0,0
1739401262.9622226,-0.7072452650246898,0.6747207680665526,1.4182921633568926,-1.8795086783659483,-0.7086140622915672,1.949369024641417,0.18576814374056955,3.272543285159449e-05,0.0007546446200721027,-0.00025010286646942587,0.0009242068951756415,0.0003141949253708765,8.915709888248534e-05,-0.0006319441370680998,0.2689092457294464,-23.63736343383789,19.529525756835938,17.94654083251953,0.8897806406021118,2.3476455211639404,-0.10706938803195953,0,0,0,0.000,0,0
1739401262.9731543,-0.7072415545631,0.6747179953583953,1.4182981716878824,-1.879508707784633,-0.7086166433393672,1.94936752916211,0.1857650104789248,0.0016727922847217028,0.0005317917189039568,0.0014230664612851203,-0.00023429898816511869,0.00044678628318470573,0.00015216560754985548,-0.0023070414094289765,0.2173345386981964,-23.63736343383789,19.477951049804688,17.94654083251953,0.8961893320083618,2.3604629039764404,-0.08051909506320953,0,0,0,0.000,0,0
1739401262.9852161,-0.7072452679681235,0.6747178893789303,1.4182921633205543,-1.8795068956733876,-0.7086163231203464,1.9493690444823788,0.18576814941042735,0.0005917498688373362,0.000659760322125553,-0.0007569251174305727,0.0014488989989003445,3.8152458578191543e-05,0.0005197243746819497,-0.0009093911835922751,0.2689092457294464,-23.63736343383789,19.529525756835938,17.92273712158203,0.8833719491958618,2.3476455211639404,-0.10706938803195953,0,0,0,0.000,0,0
1739401262.9961143,-0.7072433033862652,0.6747187105978824,1.4182963889018467,-1.8795086431743246,-0.7086180734318162,1.949369042956151,0.185768907070506,0.0007979184884998216,0.0013939065990251293,0.00013328066702410375,0.0008181642964397463,-0.00044271592839915377,0.0003492478250762288,0.0005578694359718834,0.2411382496356964,-23.63736343383789,19.501754760742188,17.94654083251953,0.8961893320083618,2.3476455211639404,-0.11347807943820953,0,0,0,0.000,0,0
1739401263.0071082,-0.7072452650248892,0.6747187096213717,1.4182981567647663,-1.8795068966541693,-0.7086178394297225,1.9493690444823701,0.1857696154937386,0.00020169965299713445,0.0006489818569064502,4.874320177651789e-05,3.6268088175759784e-05,-0.0019157896011882363,0.0003295792087928391,-1.0228639905781776e-05,0.2689092457294464,-23.63736343383789,19.477951049804688,17.92273712158203,0.8961893320083618,2.3476455211639404,-0.12080229818820953,0,0,0,0.000,0,0
1739401263.017201,-0.7072452650246842,0.6747150001409284,1.4182963888775375,-1.879506930994498,-0.7086172809410457,1.949368280717389,0.18576739174946036,0.0005667226535585373,6.561506982930715e-05,-2.924786403913737e-05,0.00013318392255508025,0.0007184015556496522,-6.624509707447591e-05,-0.000774904688030594,0.2689092457294464,-23.58578872680664,19.501754760742188,17.92273712158203,0.8897806406021118,2.3540542125701904,-0.10066069662570953,0,0,0,0.000,0,0
1739401263.0282252,-0.7072432936111231,0.6747168015257538,1.41829817155464,-1.8795090414406328,-0.7086175072924761,1.9493675271272173,0.18576899181007142,-0.00011804401772073621,0.0003976976751533674,0.0006917261974306492,0.0003886287923976676,-0.0010730903602228542,-0.0007417214875856846,0.0006186643552742888,0.2411382496356964,-23.58578872680664,19.477951049804688,17.92273712158203,0.9035135507583618,2.3604629039764404,-0.07411040365695953,0,0,0,0.000,0,0
1739401263.0391734,-0.7072452650248339,0.674716750843059,1.4182963889139597,-1.8795114734079463,-0.7086162079961686,1.9493690444823673,0.18576502366942266,-0.0010413242669682484,-0.0006886144432914187,-0.00041952717464633455,-0.0016268437749925857,0.0003452138083717164,0.0005555094801049446,-4.86080410710282e-06,0.2689092457294464,-23.61355972290039,19.501754760742188,17.97431182861328,0.8897806406021118,2.3476455211639404,-0.08051909506320953,0,0,0,0.000,0,0
1739401263.050175,-0.7072452620812449,0.674714752451785,1.418300966636572,-1.8795078493596509,-0.7086174392138268,1.9493675154261723,0.18576576819326104,0.0003274561134510972,-0.0018603503233349424,0.0012964520362590453,-0.0005988710867172395,-0.00033552292686333846,8.875861997742566e-05,-0.0019781373313125447,0.2689092457294464,-23.58578872680664,19.450180053710938,17.92273712158203,0.8897806406021118,2.3604629039764404,-0.08692778646945953,0,0,0,0.000,0,0
1739401263.060367,-0.7072432729706598,0.6747135260345872,1.4182943007419646,-1.8795086783663912,-0.7086172758737993,1.949367528483666,0.1857721541851275,0.000402020488806546,-0.00039146720949219307,-0.000711627192275752,-0.00045346808455824924,-3.2941691386115766e-06,2.4084740013001108e-05,0.000438805393786369,0.2411382496356964,-23.56198501586914,19.529525756835938,17.94654083251953,0.8897806406021118,2.3604629039764404,-0.14094389975070953,0,0,0,0.000,0,0
1739401263.071229,-0.7072381296791166,0.6747158495800175,1.4182925528290065,-1.8795068956732215,-0.7086181798879209,1.9493667715021423,0.18576739175034931,0.002057295170185295,-4.897938122681237e-05,0.00012261766699445508,0.0006707013119298847,-3.632179040732326e-05,7.244507654089095e-05,-3.144751797845677e-05,0.1697271168231964,-23.63736343383789,19.553329467773438,17.92273712158203,0.8961893320083618,2.3668715953826904,-0.10066069662570953,0,0,0,0.000,0,0
1739401263.0822294,-0.7072423134095157,0.6747140463777894,1.4182921633570413,-1.8795108545329913,-0.7086181973852409,1.9493674879540726,0.18576987118441207,0.0008489255239442739,-0.0016169041467385234,-0.0006690092738071831,-0.0010507344059259701,-0.00043074027677871343,0.00020270415276239188,0.0005614985399852476,0.2411382496356964,-23.58578872680664,19.529525756835938,17.94654083251953,0.8961893320083618,2.3604629039764404,-0.13361968100070953,0,0,0,0.000,0,0
