IITGN-Robotics/Franka_IITGN_ROBOTICS/franka_ros/franka_iitgn/data/b_20.csv
time,fr3_joint1_pos,fr3_joint2_pos,fr3_joint3_pos,fr3_joint4_pos,fr3_joint5_pos,fr3_joint6_pos,fr3_joint7_pos,fr3_joint1_vel,fr3_joint2_vel,fr3_joint3_vel,fr3_joint4_vel,fr3_joint5_vel,fr3_joint6_vel,fr3_joint7_vel,fr3_joint1_eff,fr3_joint2_eff,fr3_joint3_eff,fr3_joint4_eff,fr3_joint5_eff,fr3_joint6_eff,fr3_joint7_eff,flexpin1,flexpin2,flexpin3,Force,ContactMic,ContactMic_gt
1739401290.9267654,-0.7071790785362327,0.6743238763549745,1.4182176374195337,-1.8795353051312844,-0.7083360030297559,1.949574339422271,0.18557715722714316,-0.001615075688007044,0.001518060416202036,-0.0006487321714824442,-0.0003327934931340343,-0.0006768376235065654,-0.0008092237085463957,7.095753053534961e-06,0.1935308277606964,-23.48660659790039,19.402572631835938,17.92273712158203,0.9035135507583618,2.3540542125701904,-0.11347807943820953,,,,,,,,,
1739401290.9377754,-0.7071753944001543,0.6743386310582179,1.4181961740687294,-1.8795405284601525,-0.7083368979825966,1.9495695142834981,0.1855796858945096,0.001755640089946539,0.0020839607962773662,-0.002503011127795707,-0.00039990365784395385,-0.0014161376690935985,0.00036102592917198865,7.210483866016136e-05,0.1419561207294464,-23.56198501586914,19.477951049804688,17.99811553955078,0.9099222421646118,2.3540542125701904,-0.09425200521945953,,,,,,,,,
1739401290.9478118,-0.7071783725538787,0.6743402212699415,1.4181902329469178,-1.879542259213797,-0.7083355717769323,1.9495632475498457,0.18558440357185857,0.00038011743322850853,-0.0005930775229803803,-0.0005872303000698795,-0.0005975249159507609,-0.00046058929305190074,-0.0007068085077353435,-0.0004830160002134604,0.1697271168231964,-23.48660659790039,19.426376342773438,17.99811553955078,0.9099222421646118,2.3668715953826904,-0.12080229818820953,,,,,,,,,
1739401290.958787,-0.7071840360319166,0.6743538660096191,1.4181823270257607,-1.879537407794605,-0.7083362259081656,1.949564743731588,0.18558867251493188,-0.0002497726661234675,0.0021463609492060045,-0.0013474362275495302,0.0007534115069804886,-9.786591110432646e-06,0.00029229461823413177,0.0008215118923725936,0.2173345386981964,-23.58578872680664,19.450180053710938,17.94654083251953,0.9035135507583618,2.3540542125701904,-0.12080229818820953,,,,,,,,,
1739401290.9697313,-0.7071840360808914,0.6743601123508244,1.4181703826866323,-1.8795338454874395,-0.708340833379705,1.9495637890510544,0.18559136084469,0.0003259868676480341,0.0013758737927690597,-0.0012462863476393584,-0.00028221137257370505,0.000431424863662867,0.0016644104078930408,0.00012652708936927286,0.2173345386981964,-23.58578872680664,19.477951049804688,17.89893341064453,0.9035135507583618,2.3339126110076904,-0.11347807943820953,,,,,,,,,
1739401290.9797516,-0.7071943508253752,0.6743740543811435,1.418158642641855,-1.8795320597579823,-0.7083393825301728,1.949564031133571,0.18559379668718035,-0.0006290626008780356,0.0009376568391880385,-0.0019773147629551084,6.816468867178226e-05,0.0002578972065897116,0.00024356651489191078,0.0023436603886983743,0.3165166676044464,-23.68893814086914,19.553329467773438,17.87512969970703,0.8897806406021118,2.3476455211639404,-0.13361968100070953,,,,,,,,,
1739401290.9897704,-0.7071953272107467,0.6743745730906748,1.4181449074603527,-1.8795417952352482,-0.7083398445935951,1.9495599755772575,0.18559328008992676,-0.00037435294143048267,-0.0004001650953689756,-0.002123210508464401,-0.00206257677547822,-0.0006102704166225391,0.0001443924428461137,0.0015245679068304266,0.3165166676044464,-23.63736343383789,19.628707885742188,17.97431182861328,0.8961893320083618,2.3540542125701904,-0.12721098959445953,,,,,,,,,
1739401290.999805,-0.7071974361787307,0.6743887150962296,1.4181370485627744,-1.879539498210132,-0.7083390675105584,1.9495577023796742,0.1855868843571857,-0.0009035466666255157,0.001503168158815538,-0.00010848833444740327,0.00019040743156647046,0.000551187903630862,-0.0005785038200143389,0.0006022608997475641,0.3165166676044464,-23.71670913696289,19.628707885742188,17.97431182861328,0.8961893320083618,2.3732802867889404,-0.07411040365695953,,,,,,,,,
1739401291.0107915,-0.7071976153575853,0.6743968186520579,1.4181263910820785,-1.8795395974672962,-0.708341007703521,1.9495579890894617,0.18559363804031132,0.00041934181012609815,0.0014281705358728967,-0.00027647344195693736,-0.00017516051916042434,-0.0005231622411340912,-0.00034318645219097514,0.001807727145635403,0.3165166676044464,-23.74051284790039,19.680282592773438,17.97431182861328,0.9035135507583618,2.3668715953826904,-0.12721098959445953,,,,,,,,,
1739401291.0217164,-0.7071967401448357,0.6743963821037465,1.4181306555603963,-1.8795374088083683,-0.7083410077782188,1.9495590999542742,0.18558639289656248,0.0005151968654936027,-0.00012608964671817068,2.321336445066261e-05,0.001706293858790497,0.000138581738377207,0.00033472326099567737,-0.002544153295061165,0.3442876636981964,-23.68893814086914,19.577133178710938,17.94654083251953,0.9035135507583618,2.3604629039764404,-0.06678618490695953,,,,,,,,,
1739401291.0317643,-0.7071979726274223,0.6743927540331699,1.4181322684995188,-1.8795366144467578,-0.7083395772667456,1.9495592172146383,0.18559176974686728,0.0013482733767687057,-0.0014567615704727296,0.0007598216384885315,-0.00026255196240534495,0.0007486958490665098,0.00017213236840707045,-0.0005674477042628537,0.2927129566669464,-23.63736343383789,19.529525756835938,17.92273712158203,0.9035135507583618,2.3604629039764404,-0.08692778646945953,,,,,,,,,
1739401291.041786,-0.7071958371173616,0.6743969375860399,1.4181312706729619,-1.8795366965406437,-0.7083410077539943,1.9495567964455014,0.18559468389069447,0.001560937724793743,0.0021826340763712445,0.0007106486598197391,-0.0003545807740379899,-0.0009898700051319581,0.000938569560258521,0.00048031191471025337,0.2927129566669464,-23.66513442993164,19.529525756835938,17.92273712158203,0.9035135507583618,2.3540542125701904,-0.10066069662570953,,,,,,,,,
1739401291.053829,-0.7071972789879112,0.6743909607986949,1.4181334033587356,-1.8795402293316164,-0.7083401399186948,1.9495563209551285,0.18558894005172405,-0.0005618890363268923,-0.0012169720921387291,-0.0002909470817786812,-0.00041803451817030133,0.0007152197880872231,-0.0009408249072742569,-0.0019513228173266193,0.2689092457294464,-23.61355972290039,19.501754760742188,17.97431182861328,0.8961893320083618,2.3540542125701904,-0.06037749722599983,,,,,,,,,
1739401291.065803,-0.7071950511986954,0.6743928380405321,1.4181370538633897,-1.879540230344449,-0.7083390692306639,1.9495581024595043,0.18559096144109227,-0.00028913708719539464,-0.0004076598099808733,0.00016307429331146098,0.0006178540348860424,0.0004977093683291725,-0.0011379583269665568,-0.0027673756866089397,0.2411382496356964,-23.63736343383789,19.450180053710938,17.97431182861328,0.8961893320083618,2.3668715953826904,-0.08051909506320953,,,,,,,,,
1739401291.0777626,-0.707196334752817,0.674391179586871,1.4181430127418804,-1.8795417443623872,-0.7083417785182323,1.9495599622772728,0.1855971909464544,0.00013102881294276274,-0.0002165548809211955,0.0012599623772894726,0.0009005645302294976,-0.0004994863595542585,0.0014559708554722208,0.0021311322015124673,0.2689092457294464,-23.58578872680664,19.402572631835938,17.97431182861328,0.9099222421646118,2.3540542125701904,-0.13361968100070953,,,,,,,,,
1739401291.0887089,-0.7071942684356803,0.6743889717403689,1.4181396903210037,-1.8795385953146988,-0.7083407056367186,1.9495581187619246,0.18558973703214657,0.0007783132239936358,0.0009111158517088959,-0.0006037823772662934,-0.0007310757578264263,0.00032754765671151945,-0.0008697572043824985,-0.001252462919089539,0.2411382496356964,-23.58578872680664,19.450180053710938,17.92273712158203,0.9099222421646118,2.3604629039764404,-0.06678618490695953,,,,,,,,,
1739401291.099717,-0.7071950397799018,0.674389438751933,1.4181394098544007,-1.8795338414706044,-0.7083417515327416,1.9495581042367562,0.18559192614415776,0.000376419539458049,0.0002571593427807325,-0.00113801372699739,0.0003566475347051371,0.0004288717562186893,-0.0002868146255070663,-0.002132638344913328,0.2411382496356964,-23.56198501586914,19.426376342773438,17.89893341064453,0.9099222421646118,2.3339126110076904,-0.08051909506320953,,,,,,,,,
1739401291.110028,-0.7071952843804238,0.6743872502256357,1.4181383116031496,-1.8795363671978498,-0.7083401418809092,1.9495560387614268,0.1855896567255347,1.2730266473863857e-05,-0.00019183639473979676,-5.708094164249124e-05,-0.0008984580398486458,0.0005027953334158767,-0.00048533333895575757,-0.0015847039303119705,0.2411382496356964,-23.56198501586914,19.477951049804688,17.92273712158203,0.8961893320083618,2.3604629039764404,-0.05396880581974983,,,,,,,,,
1739401291.1218188,-0.7071952850237891,0.674389045011013,1.4181403038564329,-1.879535707532491,-0.7083410077782202,1.949558342230391,0.18560146766542937,-0.0001780120052386747,0.00041329948409142645,-0.00040570353722651315,-0.0005974197963217124,-0.0006686366213916244,0.0005840122996915015,0.002474442144716896,0.2411382496356964,-23.58578872680664,19.450180053710938,17.92273712158203,0.9035135507583618,2.3668715953826904,-0.12080229818820953,,,,,,,,,
1739401291.1327498,-0.7071965678202655,0.6743931491766096,1.4181323820215719,-1.879539636119389,-0.7083410252208231,1.9495599358805338,0.18559633673074546,0.00022874710602964848,0.00015458773232927548,-0.002044261243760466,4.969290424872104e-05,0.00022215489446104138,0.0003520017430668235,-0.0011684119351486708,0.2927129566669464,-23.61355972290039,19.529525756835938,17.94654083251953,0.9035135507583618,2.3540542125701904,-0.11347807943820953,,,,,,,,,
1739401291.142821,-0.7071951759297704,0.674390992023823,1.418137620299472,-1.8795341721379166,-0.7083398551714846,1.9495579890887929,0.18560143827857345,0.0008381256270519923,8.194058215522183e-05,0.0011991742859922853,0.0013236260464709107,0.0010305978927977165,0.0008320552278294647,0.0008062424298455204,0.2689092457294464,-23.61355972290039,19.477951049804688,17.89893341064453,0.8897806406021118,2.3668715953826904,-0.13361968100070953,,,,,,,,,
1739401291.1537879,-0.7071952853090987,0.6743959394042832,1.4181361486086015,-1.8795356252306405,-0.7083441060225704,1.9495576694993264,0.18559826648916436,0.001801844731197274,0.0007889299624782039,0.0005883512958625957,0.0006914499686897961,-0.0007705306138375676,-0.0001277582545869341,0.001996524278671206,0.2411382496356964,-23.63736343383789,19.501754760742188,17.92273712158203,0.9163309335708618,2.3604629039764404,-0.12080229818820953,,,,,,,,,
1739401291.163797,-0.7071972832856398,0.6743938836920014,1.4181259349049182,-1.879538259424112,-0.7083441910621946,1.9495555798152142,0.18560069692371467,0.0004261571970154897,-9.904490519645486e-05,-0.0018774276852640817,-0.00027229284708726805,0.0002742625456481544,-0.001371393374053683,0.0018363668388340741,0.2689092457294464,-23.61355972290039,19.604904174804688,17.94654083251953,0.9035135507583618,2.3540542125701904,-0.14735259115695953,,,,,,,,,
1739401291.174847,-0.7071952850237947,0.6743969419315399,1.4181295673495677,-1.879539487583685,-0.7083401421142983,1.9495562682974408,0.18559613636109118,8.921921509713405e-05,-4.308632477159288e-05,-1.2372110797782972e-05,0.00042594124271071713,0.0011338115410735048,1.7999734091284872e-05,0.00013393995373441395,0.2411382496356964,-23.66513442993164,19.553329467773438,17.97431182861328,0.8961893320083618,2.3540542125701904,-0.12080229818820953,,,,,,,,,
1739401291.185725,-0.7071989698059894,0.674399634814395,1.4181275079879607,-1.8795431751441904,-0.7083410077782215,1.9495573310035663,0.18559406373646595,-0.0003619747268292548,0.0012196749306870075,1.2474700513933972e-05,-0.0009406890566575016,-0.0006799209912938613,0.00038448549377373577,0.00014525211467267176,0.2927129566669464,-23.68893814086914,19.577133178710938,18.02191925048828,0.9035135507583618,2.3732802867889404,-0.09425200521945953,,,,,,,,,
1739401291.1958027,-0.7071952853443467,0.6743942388188342,1.4181305684604602,-1.8795444835124788,-0.7083425623442334,1.9495536933576783,0.1855940637424849,4.862913751705453e-05,-6.822073780686066e-06,-0.00025760081072966274,-0.0006304140316020362,0.0008556119368935159,-0.0007178458106068756,-0.0008863785535702551,0.2411382496356964,-23.61355972290039,19.501754760742188,17.99811553955078,0.9163309335708618,2.3668715953826904,-0.09425200521945953,,,,,,,,,
1739401291.2068012,-0.7071972833966751,0.6743959424572167,1.418135212112623,-1.8795405683170079,-0.7083424206292808,1.9495559705164398,0.1855963153032738,-7.90083548510128e-05,0.000150485411505069,0.0016783297793249766,-0.0004930897244458344,-0.00011909689727449097,8.715919222689625e-06,0.0010562461772005228,0.2689092457294464,-23.63736343383789,19.477951049804688,17.97431182861328,0.9035135507583618,2.3476455211639404,-0.12721098959445953,,,,,,,,,
1739401291.2178292,-0.7071932061885359,0.6743979493917602,1.418131350025282,-1.8795361870782847,-0.7083425231223036,1.9495553248874906,0.1855940768783416,-0.0006827000953330636,0.0012419858401814738,-0.0009832924544901965,0.0004971489793610024,0.0006307951296190383,-0.0007449330533948833,-0.0010757747377863913,0.2411382496356964,-23.66513442993164,19.529525756835938,17.89893341064453,0.9163309335708618,2.3540542125701904,-0.09425200521945953,,,,,,,,,
1739401291.2287695,-0.7071952853289861,0.6743980584324812,1.4181371863182057,-1.8795381536226268,-0.7083401425270102,1.9495538486697523,0.18559755657763144,-0.000460237230327106,0.0011817214498485024,-3.289091009327813e-05,-0.0005395883415887002,0.0002712278834563458,-0.0010302956483238764,0.0010215015766571263,0.2411382496356964,-23.63736343383789,19.450180053710938,17.94654083251953,0.8961893320083618,2.3668715953826904,-0.12080229818820953,,,,,,,,,
1739401291.2397344,-0.7071952853447869,0.6743942389422223,1.418137279100853,-1.8795400275406655,-0.7083441883615028,1.9495536916690452,0.18560278262194257,-0.0004914523504223435,0.0006846206690890641,-0.0004241238763918125,-0.0016396213048652302,0.00036958748815196264,-0.00045696016520612294,0.0019246642834396806,0.2411382496356964,-23.61355972290039,19.477951049804688,17.97431182861328,0.9035135507583618,2.3668715953826904,-0.14094389975070953,,,,,,,,,
1739401291.250788,-0.707195051674472,0.6743922409894753,1.4181354411459368,-1.879537436281655,-0.7083413625162698,1.9495552069883157,0.1855997420366584,0.000979659434808261,-0.0002536782518446464,6.288525257716881e-05,0.0008511827012652156,-0.0006824890573923686,-0.00032627833374838553,0.0001443422332282415,0.2411382496356964,-23.58578872680664,19.477951049804688,17.94654083251953,0.9035135507583618,2.3540542125701904,-0.14094389975070953,,,,,,,,,
1739401291.2617095,-0.7071989870312613,0.6743887887033667,1.418138223023833,-1.879532096387592,-0.7083441997765628,1.9495576674884822,0.1855997023116643,-0.0007703161395127001,-0.00042426069991783515,0.0017184872174774522,0.002002493118920632,-0.0008773539892139343,0.0006203016738335107,0.000779224393676682,0.2927129566669464,-23.53818130493164,19.450180053710938,17.87512969970703,0.9035135507583618,2.3604629039764404,-0.14094389975070953,,,,,,,,,
1739401291.2717612,-0.7071935508207904,0.6743905284682826,1.4181355764339094,-1.8795356251126234,-0.7083417713065562,1.949555964702894,0.18559877059697316,0.0004043104403143378,-0.0005322521965973929,-0.0011871515557065376,-0.000823477534869168,0.0014395880710772592,0.00046834748648510766,0.00036049467151710857,0.2173345386981964,-23.56198501586914,19.501754760742188,17.92273712158203,0.9099222421646118,2.3476455211639404,-0.13361968100070953,,,,,,,,,
1739401291.2838194,-0.7071952852376654,0.6743942389303282,1.4181344068270219,-1.8795338425857226,-0.7083422800489539,1.9495568305456268,0.1856027036054224,0.0004595269970485438,0.0005462757400167239,0.0001299549468683443,-0.0006205361642892442,0.00013101858466678208,0.0003876000401446849,0.0012771101995846174,0.2411382496356964,-23.61355972290039,19.501754760742188,17.89893341064453,0.9099222421646118,2.3403213024139404,-0.12721098959445953,,,,,,,,,
1739401291.2938204,-0.7071972832856394,0.6743922409894751,1.4181341185854432,-1.879537518167322,-0.7083406008992056,1.9495544493282375,0.18559873324329465,-0.0005002822919492867,2.280770379935819e-05,-0.0009774535145057976,-0.0012711901865922566,0.0011444544123226019,-2.9724521549585246e-05,0.00018603893335586799,0.2689092457294464,-23.58578872680664,19.501754760742188,17.94654083251953,0.8897806406021118,2.3604629039764404,-0.13361968100070953,,,,,,,,,
1739401291.3048337,-0.7071936541017404,0.6743922411321385,1.4181352134408587,-1.8795374077896454,-0.7083463572103937,1.9495540448808688,0.185592094988234,0.0005314903710141924,-0.00026162598644388776,0.00037777697296375603,0.0009388229593906033,-0.0009509841505667912,9.984552837343581e-05,-0.002747962387908003,0.2173345386981964,-23.58578872680664,19.477951049804688,17.94654083251953,0.9099222421646118,2.3668715953826904,-0.07411040365695953,,,,,,,,,
1739401291.3158154,-0.7071935728245146,0.6743957086173222,1.418131350025294,-1.8795413540288426,-0.7083426816151095,1.949555964650388,0.18559796076990412,0.0009203708822020217,-0.00043438287683366685,-0.00013796868075891653,6.160010583230264e-05,0.0010763830895999904,0.0005788379514327334,0.00023864801747031116,0.2173345386981964,-23.63736343383789,19.529525756835938,17.99811553955078,0.9163309335708618,2.3476455211639404,-0.12721098959445953,,,,,,,,,
1739401291.3267653,-0.7071964871620168,0.6743923449868828,1.418129566367123,-1.8795398182629772,-0.7083475374022823,1.949553691668159,0.1855979778316583,-0.00018396386736878692,-0.000772603665300503,-0.0009048646271873691,0.0003433031262863106,-0.0011028137728624507,-8.629424602303594e-05,-0.00016295252566499293,0.2173345386981964,-23.58578872680664,19.553329467773438,17.97431182861328,0.9227396249771118,2.3668715953826904,-0.12721098959445953,,,,,,,,,
1739401291.3368156,-0.7071952815093304,0.6743959517726388,1.4181295676631998,-1.8795375181315033,-0.7083441998524245,1.9495544493282375,0.1856003769928727,0.0003756716717692961,-0.000547669372408095,-0.0004990920539674041,0.0014277862291297084,0.0007310727926262627,-0.00038650519283140946,0.0012865271475206539,0.2411382496356964,-23.63736343383789,19.553329467773438,17.94654083251953,0.9035135507583618,2.3604629039764404,-0.10706938803195953,,,,,,,,,
1739401291.3468819,-0.707197310160104,0.674397953243826,1.418131350025294,-1.8795397250568435,-0.7083415547858849,1.9495552069883157,0.18559398090855922,-0.0007394573726200769,0.0015459570602884547,0.0010006238188853946,0.0010092790856357293,-0.0005107203900691482,0.0002356915540480658,-0.002439048807648383,0.2689092457294464,-23.66513442993164,19.529525756835938,17.94654083251953,0.8961893320083618,2.3540542125701904,-0.08051909506320953,,,,,,,,,
1739401291.357793,-0.7071994687894335,0.6743942475971434,1.4181277846712503,-1.8795438282267005,-0.7083452508608696,1.9495544493282375,0.18559879562224796,-0.0008818912429447817,-0.001736600031389996,-0.0006468217347826693,-0.00041343609892647594,-0.0002484597620851979,-0.00015716332067778463,-0.0015978661659049119,0.2689092457294464,-23.61355972290039,19.577133178710938,17.99811553955078,0.9035135507583618,2.3604629039764404,-0.10706938803195953,,,,,,,,,
1739401291.3688257,-0.7071952853817988,0.6743959514512062,1.4181298665319073,-1.8795417433868238,-0.7083460040626728,1.9495547360380359,0.18560196959455744,-0.0003150834095962188,-0.0004150613755063136,0.0002988698038309022,0.0010851151288911033,0.0003683622735324574,-0.00039849300791525773,0.0004634830968336159,0.2411382496356964,-23.63736343383789,19.529525756835938,17.97431182861328,0.9099222421646118,2.3540542125701904,-0.13361968100070953,,,,,,,,,
1739401291.378844,-0.7071992386401094,0.6743880917266968,1.418131350016914,-1.8795388434303368,-0.7083417676156334,1.9495552069856572,0.18559292432051147,-0.0014437904220501638,-0.0022228917272867368,-0.00030360343329764944,0.0008109852557602187,0.00040085583197811296,-0.00021802958302135887,-0.000708943027184367,0.2927129566669464,-23.53818130493164,19.529525756835938,17.92273712158203,0.9099222421646118,2.3540542125701904,-0.07411040365695953,,,,,,,,,
1739401291.3888757,-0.7071972823267754,0.6743961025430975,1.4181295673482692,-1.8795345846883926,-0.7083401418810247,1.949555964648394,0.18559564548940685,-0.000212280601723486,-0.000759433098442156,-0.001704680563239486,0.0012112115302278961,0.00218277364076543,0.0006923314192393744,-0.00038929713502576903,0.2689092457294464,-23.61355972290039,19.553329467773438,17.89893341064453,0.8961893320083618,2.3476455211639404,-0.08051909506320953,,,,,,,,,
1739401291.3997126,-0.7071980117868485,0.6743898789421673,1.418135901256947,-1.8795341278249225,-0.7083441074681449,1.9495544493282373,0.18560249378826785,-0.0006094404113541871,-0.0017102808987653133,0.00034594162455955474,-2.7884095978702626e-05,-0.0005166989550763193,-0.000599986869542078,0.0024329560113599455,0.2689092457294464,-23.56198501586914,19.477951049804688,17.89893341064453,0.9163309335708618,2.3604629039764404,-0.16108550131320953,,,,,,,,,
1739401291.409809,-0.7071979337980511,0.6743926691556996,1.4181351465264709,-1.8795358723657332,-0.7083421260697075,1.9495552069883155,0.1856019186818461,1.9010234455744664e-05,-0.001250651998368621,-9.398611952351479e-05,0.0007000050493391394,-0.00024273498228816312,0.00036708043141365365,0.0006400420961165141,0.2689092457294464,-23.56198501586914,19.450180053710938,17.92273712158203,0.9035135507583618,2.3540542125701904,-0.13361968100070953,,,,,,,,,
1739401291.4198523,-0.707198996150493,0.6743912306222548,1.418140857490702,-1.8795338458307884,-0.708345825583474,1.949555964648394,0.18560298807574932,-0.0009833264223254182,-0.0002447963120063677,0.0010659844164173568,0.00174101602120898,-0.00028749063909623736,0.0002713035158070652,0.00183307478306393,0.2927129566669464,-23.56198501586914,19.402572631835938,17.89893341064453,0.9163309335708618,2.3476455211639404,-0.13361968100070953,,,,,,,,,
1739401291.4317653,-0.7072001972904977,0.674395050318451,1.4181373036197098,-1.8795374201119173,-0.7083406319614041,1.9495552069883155,0.1856062301764779,-0.0009028504442106233,0.0007799672076624437,0.0006884053058217326,-0.0006777259124638121,6.338145808512999e-05,-0.00041620562706154104,0.001300199702059402,0.2689092457294464,-23.58578872680664,19.450180053710938,17.94654083251953,0.8961893320083618,2.3540542125701904,-0.16108550131320953,,,,,,,,,
1739401291.4427981,-0.7071935030978055,0.6743905400297546,1.41813910048053,-1.8795363682153636,-0.7083417269156455,1.9495544493282373,0.18559670962457525,0.0004933030008825548,-0.00047854222982990043,-0.0001972071163639543,0.0006984286951590325,-0.0007772499110868906,3.912361956556927e-05,-0.001191083847206482,0.2411382496356964,-23.56198501586914,19.426376342773438,17.92273712158203,0.8961893320083618,2.3604629039764404,-0.08051909506320953,,,,,,,,,
1739401291.4538207,-0.7071931783409671,0.6743905284688092,1.4181372932269705,-1.8795396421906552,-0.708344552015217,1.949555964648394,0.1855984867746297,-6.90715230122974e-05,-0.0020129036060704047,6.50784843170475e-05,-0.0007608298916343135,-0.000454393991641093,0.0006783337229740942,0.000570391907307758,0.2411382496356964,-23.56198501586914,19.450180053710938,17.94654083251953,0.8961893320083618,2.3476455211639404,-0.09425200521945953,,,,,,,,,
1739401291.4647496,-0.7071935612326491,0.6743924774376862,1.4181341195247517,-1.8795394911213885,-0.7083415332305673,1.9495552069883155,0.18560021715292516,0.0007527796119290005,0.00027118628397027777,-0.0002058257763914964,0.00048387490765690934,4.0130627798757055e-05,-8.355774168437143e-05,0.0009514085999339444,0.2173345386981964,-23.58578872680664,19.501754760742188,17.97431182861328,0.9035135507583618,2.3540542125701904,-0.10706938803195953,,,,,,,,,
1739401291.47478,-0.7071935728238595,0.6743982943781971,1.4181353135619241,-1.879534090701426,-0.7083433373810354,1.9495552069883155,0.18559888914694297,0.0004984045605966523,0.00046948338900709133,0.0008715879473015734,0.001317721060812885,-0.00038308327538086215,0.00020551927367834863,0.0007760114743975891,0.2173345386981964,-23.63736343383789,19.477951049804688,17.89893341064453,0.9099222421646118,2.3540542125701904,-0.13361968100070953,,,,,,,,,
1739401291.4858208,-0.707195285344787,0.674398651415399,1.418130256113624,-1.8795428218791883,-0.708342176048199,1.9495544493282373,0.18559761794634363,-8.400789783427664e-05,0.0003117005319040156,9.31457968090933e-05,-0.0012575753886377766,0.0010881122724830216,0.00034961201875005545,9.261376783360916e-05,0.2411382496356964,-23.66513442993164,19.553329467773438,17.97431182861328,0.9099222421646118,2.3604629039764404,-0.09425200521945953,,,,,,,,,
1739401291.4967906,-0.7072006996603091,0.6743952571550366,1.4181286599950502,-1.8795404857883518,-0.708341902557311,1.9495522788173199,0.1855971325682028,-0.0015184562768967898,-0.0008411680174528945,-0.0016039707566194597,0.0009818396967531473,-0.0003220464457751943,-0.00126158814290706,-0.001162255890087374,0.3165166676044464,-23.61355972290039,19.553329467773438,17.97431182861328,0.9099222421646118,2.3668715953826904,-0.10706938803195953,,,,,,,,,
1739401291.5067928,-0.7071990680840105,0.6743981358212177,1.4181268005660288,-1.8795395796216636,-0.7083471339235848,1.9495544493043107,0.18559873161767726,-0.0010594632996653206,-0.00021345162497362756,-0.0006563674908434248,0.001569807115268208,-0.0005670148337191837,-0.00010592276456535297,0.00014889111822655827,0.2927129566669464,-23.63736343383789,19.577133178710938,17.97431182861328,0.9163309335708618,2.3604629039764404,-0.13361968100070953,,,,,,,,,
1739401291.5187724,-0.7071998015261834,0.6744010152287052,1.4181266930924574,-1.8795402660686078,-0.7083436814798169,1.94955363934035,0.18559773566920595,-0.001336140592454212,0.0013627572696543505,-0.0012986593101219305,-0.0007354728831787618,-0.0009008688352184292,-0.0008831467840510635,0.0014275558129937815,0.2689092457294464,-23.68893814086914,19.553329467773438,17.97431182861328,0.8897806406021118,2.3668715953826904,-0.12080229818820953,,,,,,,,,
1739401291.5298927,-0.7071989958111097,0.6743969250233913,1.4181268269215845,-1.879536071746461,-0.7083461803809434,1.9495505127536725,0.18559523164557984,-0.0002903845587821311,7.844225729734778e-05,-0.0014390958879868544,0.0011584088515513454,-0.0007511568109250396,-0.0008694490626772965,-0.0017934254803448897,0.2927129566669464,-23.63736343383789,19.577133178710938,17.89893341064453,0.9099222421646118,2.3668715953826904,-0.10066069662570953,,,,,,,,,
1739401291.5407724,-0.707200989813164,0.674398838889705,1.418131111274254,-1.8795370568339658,-0.7083441525904963,1.9495551894739325,0.18559184065449974,-0.0016886715966520555,-0.0003568291521055888,0.0007276732713067454,0.00036631261767221225,-0.0010738226586540158,0.000819771532648782,-0.0027579562353902383,0.3165166676044464,-23.63736343383789,19.529525756835938,17.89893341064453,0.8897806406021118,2.3540542125701904,-0.07411040365695953,,,,,,,,,
1739401291.550804,-0.7071989958111382,0.6743925656686335,1.418137291732894,-1.8795374201663344,-0.7083445156944308,1.949555206988019,0.18559321686218472,0.000141564456684144,-0.002374307946599861,-0.000200747664267665,0.00021603530175644085,0.000787893340352134,0.0002265776121962881,-0.0018690990750243543,0.2927129566669464,-23.58578872680664,19.450180053710938,17.94654083251953,0.8961893320083618,2.3540542125701904,-0.08692778646945953,,,,,,,,,
1739401291.5617032,-0.7071974708854405,0.6743923531246342,1.418133420984823,-1.8795374352611918,-0.7083425972331868,1.9495544493282373,0.18559569178525723,-0.000299680178802841,-0.00124681586469161,-0.0005248116425535735,0.0002140608096740083,-0.0003370011293253829,-0.00030936612397310467,-0.00038036639766209155,0.2411382496356964,-23.58578872680664,19.501754760742188,17.94654083251953,0.9035135507583618,2.3604629039764404,-0.08051909506320953,,,,,,,,,
1739401291.5718207,-0.707197283396677,0.6743936610387457,1.4181372124816616,-1.8795376550393148,-0.7083399361722953,1.9495544493282373,0.1855987770982499,8.83864557168477e-05,-0.0002468901773923178,0.0004917421419319205,0.00021919774790489098,0.002646683069469035,0.00038071115918237984,0.0006280084000609339,0.2689092457294464,-23.56198501586914,19.450180053710938,17.94654083251953,0.8897806406021118,2.3604629039764404,-0.13361968100070953,,,,,,,,,
1739401291.5828662,-0.7071989958063718,0.6743915775250799,1.4181390750635656,-1.879539633068174,-0.708344791952846,1.949555207042151,0.18559240261201207,-0.0005851433626282837,-0.0004920939997170573,0.0003058686282763251,0.0001803129108950443,-0.00011450208243776484,0.0007971259992045938,-0.002070419890914748,0.2927129566669464,-23.56198501586914,19.426376342773438,17.94654083251953,0.8961893320083618,2.3540542125701904,-0.06678618490695953,,,,,,,,,
1739401291.5947056,-0.7071952853817988,0.6743982924502128,1.4181368094839588,-1.879537765420405,-0.708348994154375,1.9495544486822152,0.185595614741552,0.0010573374334991806,0.0006293121716230102,0.00019231444431596956,-0.0010585567082586516,-0.0014897318235815376,-0.000701486865316109,0.00023388007325389308,0.2411382496356964,-23.63736343383789,19.450180053710938,17.94654083251953,0.9035135507583618,2.3604629039764404,-0.06678618490695953,,,,,,,,,
1739401291.6047153,-0.7071982928331336,0.6743943471761356,1.4181393614080684,-1.8795364070325344,-0.7083422438255293,1.949555206988312,0.1856035156264682,-0.0009101504600770369,-0.0009351693544820067,0.00062227410481988,-0.00017787478057053763,0.0003315664497240337,6.564093471522598e-05,0.0028588320973506227,0.2927129566669464,-23.58578872680664,19.450180053710938,17.92273712158203,0.9035135507583618,2.3540542125701904,-0.13361968100070953,,,,,,,,,
1739401291.6147845,-0.7071952853090723,0.674392953057504,1.4181344986012918,-1.8795377781933504,-0.7083443626349857,1.9495536916681588,0.1855948512915655,6.614754123411702e-05,-0.000803500330870108,-0.0008109208908530455,-0.0005606827798829347,-0.00021451695867144075,-0.0004098402822654558,-0.0017148780820249578,0.2411382496356964,-23.58578872680664,19.477951049804688,17.94654083251953,0.9035135507583618,2.3668715953826904,-0.06037749722599983,,,,,,,,,
1739401291.6247861,-0.7071995497338609,0.6743951305309277,1.4181334326455368,-1.8795403781694924,-0.7083449102445905,1.9495536916681588,0.18559281381072876,-0.0011694611504336947,-0.0010754725582584517,-0.0010911715923343584,-5.675490038929286e-05,0.00017100901841440635,-0.0005419304066535573,-0.003956281107999373,0.2689092457294464,-23.58578872680664,19.501754760742188,17.94654083251953,0.8961893320083618,2.3668715953826904,-0.04756011441349983,,,,,,,,,
1739401291.6357195,-0.7071987619637919,0.6743992395346342,1.4181306453216311,-1.8795377379608862,-0.7083422938038129,1.9495544493282373,0.18559986384870328,-2.7482617401907653e-05,0.0013143476367676883,-0.0012668530485799793,0.00046786702688276474,0.0005293317306383429,3.883464307129893e-05,0.0014980242400981043,0.2927129566669464,-23.63736343383789,19.501754760742188,17.94654083251953,0.9099222421646118,2.3604629039764404,-0.10706938803195953,,,,,,,,,
1739401291.6457253,-0.7071972832816799,0.6743973710153296,1.4181264791972772,-1.87954449817667,-0.708345774624447,1.9495536916681588,0.18559999848565134,-6.213523605908321e-05,0.00044503700130818995,-0.001081511193377633,-0.0011976414723686895,0.000206963983026672,-0.000630426469856299,0.002146330377987433,0.2689092457294464,-23.61355972290039,19.553329467773438,17.99811553955078,0.9035135507583618,2.3668715953826904,-0.14094389975070953,,,,,,,,,
1739401291.6558032,-0.7071972832856399,0.6743970869344615,1.4181264677454266,-1.8795377771908048,-0.7083465338098546,1.9495544493282373,0.18560200006956148,-0.00016549360806329826,-0.0007892208341491632,0.00035961571413558306,-0.0003270848765062969,-0.0008829085938078702,2.5348810161035025e-05,0.000983606400920838,0.2689092457294464,-23.61355972290039,19.553329467773438,17.94654083251953,0.9099222421646118,2.3604629039764404,-0.12080229818820953,,,,,,,,,
1739401291.6658366,-0.70719728328564,0.6744027419894322,1.418126361890436,-1.879542483513696,-0.7083430534080147,1.949555964648394,0.18560188183286985,8.95646648518405e-05,-0.0001520168073146735,-0.0002511413685227812,-0.0013920526198002692,0.0008311264184060505,0.00039320810104738664,0.0015002016758545412,0.2689092457294464,-23.68893814086914,19.553329467773438,17.97431182861328,0.9163309335708618,2.3476455211639404,-0.12080229818820953,,,,,,,,,
1739401291.676818,-0.7071935728240558,0.6743989677396844,1.4181286132197928,-1.8795406224938087,-0.7083456133282506,1.949555964648394,0.18559795652734226,0.0018552886696579247,0.00041234881091499595,-0.000461603783423525,0.00026750028672002776,0.0017275548513572023,0.0007450486909692827,-0.00029621701860282326,0.2173345386981964,-23.66513442993164,19.553329467773438,17.94654083251953,0.9035135507583618,2.3476455211639404,-0.08692778646945953,,,,,,,,,
1739401291.6877694,-0.7071990241573304,0.6743953971346329,1.41813488431147,-1.8795389249476173,-0.7083453051447681,1.9495536916681588,0.1855964164057371,-0.0009757420891925169,-0.0006641122630980918,0.000156989531247972,-0.0007471840667650446,0.00018931045431958243,0.00022713670349753482,0.0005910967094752657,0.2927129566669464,-23.58578872680664,19.477951049804688,17.92273712158203,0.9035135507583618,2.3668715953826904,-0.10066069662570953,,,,,,,,,
1739401291.6987488,-0.7071994692335821,0.6744003967980381,1.4181312806665751,-1.87953484064425,-0.7083457762016514,1.949555964648394,0.18560006861767483,-0.00048374018391033984,0.0008908804393178955,-0.00018591688177819555,0.0008311169414257491,-0.000301580805853146,0.0008097690892070381,0.0005040466974048074,0.2689092457294464,-23.66513442993164,19.501754760742188,17.89893341064453,0.9035135507583618,2.3476455211639404,-0.11347807943820953,,,,,,,,,
1739401291.709712,-0.7071952896874952,0.6743965861828412,1.4181333140277348,-1.8795396330347287,-0.7083449102525701,1.9495549050102647,0.18560101641717555,0.0005426433246855228,-0.0007679612462008372,-0.0002752486042580005,0.0013580346964505875,-0.0007873219951755485,-3.573488896160696e-05,0.0011752664003384268,0.2411382496356964,-23.61355972290039,19.501754760742188,17.94654083251953,0.8961893320083618,2.3476455211639404,-0.11347807943820953,,,,,,,,,
1739401291.719752,-0.7071952853448605,0.674393181322805,1.4181352088805523,-1.8795356252627418,-0.7083457761498022,1.949555964630449,0.18560188085578572,0.0011926608507050267,-0.001633416903114809,0.0006301718963159675,0.0017455148144233951,0.00011635888232191788,0.0005600386444405757,0.0009164161382298852,0.2411382496356964,-23.58578872680664,19.477951049804688,17.92273712158203,0.9035135507583618,2.3476455211639404,-0.12080229818820953,,,,,,,,,
1739401291.7297833,-0.7071972842849558,0.6743932906503712,1.4181372922819575,-1.8795420804702607,-0.7083438506144404,1.949554447874687,0.1856001169657442,-0.0001968408844438808,-0.0009699877845314748,-0.00031642645777716207,-0.001077408381609513,0.0008358650722896303,-0.0001060555138917049,0.0022684061171572797,0.2689092457294464,-23.58578872680664,19.450180053710938,17.97431182861328,0.8961893320083618,2.3604629039764404,-0.14094389975070953,,,,,,,,,
1739401291.7407858,-0.7071952863441084,0.6743953884323505,1.4181375228150876,-1.8795404847165045,-0.70834140095758,1.9495544493282293,0.1856020007156089,-0.0003198969937374187,-9.140277461799987e-05,0.00023393320264553447,-0.0009631349167566923,0.0024499130899549065,-0.0002425167073465183,0.0017061482360995611,0.2411382496356964,-23.58578872680664,19.450180053710938,17.94654083251953,0.9035135507583618,2.3604629039764404,-0.12080229818820953,,,,,,,,,
1739401291.7528079,-0.7071952814928845,0.6743954741848147,1.4181391426594416,-1.8795396371164037,-0.7083465337851824,1.9495568364136626,0.18560037729071735,6.326796137075896e-05,-0.00035692624018212314,0.00031330241629041284,0.00020073352884748322,-0.000425253259181069,0.001139590665324399,0.00046919115215395945,0.2411382496356964,-23.58578872680664,19.426376342773438,17.94654083251953,0.9099222421646118,2.3403213024139404,-0.10706938803195953,,,,,,,,,
1739401291.7637334,-0.7071973942096859,0.6743953961482139,1.4181352238649751,-1.8795403762873646,-0.7083438456077673,1.9495541473501974,0.18559919980896666,-0.0011188170412701564,-9.73112469939162e-05,-0.00010584220405660888,-0.0003450818599147783,0.0007807669731264638,-0.0004162412191995853,-0.0001613425574208357,0.2689092457294464,-23.58578872680664,19.477951049804688,17.94654083251953,0.8961893320083618,2.3540542125701904,-0.12721098959445953,,,,,,,,,
1739401291.774776,-0.7071989958069974,0.6743988755308133,1.418133416319705,-1.879542574984809,-0.7083439683641698,1.9495559646424125,0.1856020007737682,-0.0008563819414407571,0.00038339661631633807,-0.0005235382502554358,-0.0024542076407574943,8.22441989369515e-05,0.00027190010358794594,-1.4904810930491206e-06,0.2927129566669464,-23.63736343383789,19.529525756835938,17.97431182861328,0.8961893320083618,2.3476455211639404,-0.12080229818820953,,,,,,,,,
1739401291.7867076,-0.707195286455138,0.6743971638647573,1.418133429861801,-1.8795433827662786,-0.7083447925096829,1.9495536916681588,0.185607781157484,-0.000438879355264012,0.0014564400501042493,3.564008231767494e-05,-0.001000691454778698,3.0325350423962897e-05,-0.0004939136264843562,0.0028722729118925154,0.2411382496356964,-23.61355972290039,19.501754760742188,18.02191925048828,0.8961893320083618,2.3668715953826904,-0.13361968100070953,,,,,,,,,
1739401291.7967834,-0.7071983395624407,0.674396995691338,1.418133092269751,-1.8795397155603084,-0.7083443628137815,1.9495536916143237,0.18560309199130953,-0.0027342045727778205,-0.0004371468427419149,0.0007429925957474685,0.00067546578380972,0.0002842112639346965,-0.00035915658328996745,0.001873537796328782,0.2689092457294464,-23.63736343383789,19.477951049804688,17.94654083251953,0.9035135507583618,2.3668715953826904,-0.14094389975070953,,,,,,,,,
1739401291.807845,-0.7072007173269073,0.6743973880138006,1.418131032121881,-1.8795399628580556,-0.7083481287339037,1.9495536916681586,0.18559699407658037,-0.0010398269738251841,-0.0008677713647547101,-0.0006129165360110108,-0.00035942607149321145,-0.0012119248647080119,6.147584662858594e-05,-0.0005442388398577255,0.3165166676044464,-23.61355972290039,19.529525756835938,17.94654083251953,0.8961893320083618,2.3668715953826904,-0.07411040365695953,,,,,,,,,
1739401291.8187387,-0.7071972842850066,0.6743915824470558,1.4181282466210412,-1.8795404938359728,-0.7083459314071369,1.9495544493282373,0.1856020124436627,0.0003162679991384697,-0.0026299184070534554,-0.0002557882350739771,-0.0013381215476368346,-0.0010482814543351661,-0.00036298670510008263,0.0009841692005396914,0.2689092457294464,-23.56198501586914,19.529525756835938,17.94654083251953,0.9035135507583618,2.3604629039764404,-0.12080229818820953,,,,,,,,,
1739401291.8288126,-0.7071952853448378,0.6744035263664795,1.4181295406996468,-1.879537410998265,-0.7083464945719117,1.9495544493282373,0.18560093453358106,0.0008818674735224695,0.0007830497884651553,-0.00012455111720453458,0.00011811308117018834,9.997803806647827e-05,0.00016285086296152039,3.896871883672605e-06,0.2411382496356964,-23.66513442993164,19.553329467773438,17.94654083251953,0.9099222421646118,2.3604629039764404,-0.12080229818820953,,,,,,,,,
1739401291.8397453,-0.707195321308267,0.674397503182049,1.4181285337286391,-1.8795356281770261,-0.7083441046797676,1.9495536916681588,0.18559799601715068,-0.000622098654889442,-0.0015393502492957547,0.001387779623134214,0.0004371597615788625,0.000422506262322988,-0.00013582623627295454,-0.0004052535149536281,0.2411382496356964,-23.58578872680664,19.553329467773438,17.92273712158203,0.8897806406021118,2.3668715953826904,-0.08692778646945953,,,,,,,,,
1739401291.850711,-0.7071984421835836,0.6743973977030472,1.418128450295729,-1.8795359823623699,-0.7083465163670071,1.9495543315906674,0.18559738033009704,-0.0007072047958015441,0.000292159914714065,-0.0010900534271255154,-0.00016182180347551684,-8.581514379229656e-05,0.0002209716826529464,-0.0016879824144096784,0.2411382496356964,-23.61355972290039,19.529525756835938,17.92273712158203,0.9099222421646118,2.3604629039764404,-0.12080229818820953,,,,,,,,,
1739401291.8607895,-0.7071972837791293,0.6743993445006389,1.4181312661534728,-1.8795396344038908,-0.708348049129151,1.9495544493222559,0.18560351587926965,-0.0006582307482581596,0.0007099546781870048,-0.0003041549193317935,-8.080418771363391e-05,-0.0013228306906494431,0.0005260711284397943,0.0017870393867381205,0.2689092457294464,-23.63736343383789,19.529525756835938,17.94654083251953,0.9227396249771118,2.3604629039764404,-0.13361968100070953,,,,,,,,,
1739401291.8708115,-0.7071952974476144,0.674395425716357,1.4181372010349285,-1.8795376564448198,-0.7083414983514281,1.9495544493282373,0.18560037772408977,-0.0006874073975089127,-0.0008036024188883013,0.0007658982953701381,-0.000952675075710064,0.001105672131018195,0.00015582121612133068,3.855192931608329e-05,0.2411382496356964,-23.58578872680664,19.450180053710938,17.94654083251953,0.9035135507583618,2.3604629039764404,-0.10706938803195953,,,,,,,,,
1739401291.882763,-0.7071935727171267,0.6743975060665753,1.4181351465142917,-1.8795388760915857,-0.7083457761256539,1.9495505127537711,0.1855979960191598,0.001022122891276441,-7.332017336313394e-05,0.0008947373336288538,0.0006553553894429233,-0.00039485902657764217,-0.0009506661162134737,0.0003785642575184387,0.2173345386981964,-23.58578872680664,19.450180053710938,17.92273712158203,0.9035135507583618,2.3668715953826904,-0.08692778646945953,,,,,,,,,
1739401291.8928154,-0.7071952713361959,0.6743970086512395,1.4181372921608895,-1.8795407244577607,-0.7083457649763074,1.9495552069703705,0.18559886191638944,0.0007984648070730202,0.0009421087662287847,0.0005201511874540811,-0.0007716491596107431,-0.00019473153438023984,-7.983951488454904e-05,-0.0001127472496067436,0.2411382496356964,-23.63736343383789,19.450180053710938,17.94654083251953,0.9035135507583618,2.3540542125701904,-0.09425200521945953,,,,,,,,,
1739401291.9037545,-0.7071972828575711,0.6743973970016595,1.418132816598633,-1.8795358723796225,-0.7083454229370293,1.949555964648394,0.18559923790682853,-0.0008560055812107282,0.0003894496753285156,-0.0015902015502007683,0.00033499402898248056,0.0002930630676150213,0.00015575904856837008,-0.0004066162276147045,0.2689092457294464,-23.61355972290039,19.501754760742188,17.92273712158203,0.9035135507583618,2.3476455211639404,-0.13361968100070953,,,,,,,,,
1739401291.9147048,-0.7071989958063688,0.6743971639730757,1.4181352124887014,-1.8795376550393148,-0.7083449102505759,1.9495552069883155,0.18559566310963588,-0.0014684429930334286,0.0005897280886025444,0.0002189589735385527,0.0005018498949730617,0.001502648324053407,-0.00032511151332235917,-0.001566995349674034,0.2927129566669464,-23.61355972290039,19.477951049804688,17.94654083251953,0.8961893320083618,2.3540542125701904,-0.09425200521945953,,,,,,,,,
1739401291.9247956,-0.7072007054381714,0.6743930599974831,1.4181334288339973,-1.8795412705992458,-0.7083472914699588,1.949555964648394,0.1856038713176157,-0.0010499944570985986,-0.0011734450456599712,-0.0004309103055068994,-0.0012078529026633051,-0.0009500915522047588,-2.947303579865085e-05,0.0010901265748070443,0.3165166676044464,-23.58578872680664,19.501754760742188,17.99811553955078,0.9163309335708618,2.3476455211639404,-0.13361968100070953,,,,,,,,,
1739401291.935764,-0.7071972832856237,0.6743945638862032,1.4181284890023336,-1.8795395823180545,-0.7083465338098804,1.9495544493282373,0.18560275845594032,-0.0006113970527225188,-0.0008612247073324593,-0.0014030620075127648,-0.0014761265764005951,-0.00022003057067570024,-3.5045220961042785e-05,-0.0006742960998371155,0.2689092457294464,-23.61355972290039,19.529525756835938,17.97431182861328,0.9099222421646118,2.3604629039764404,-0.12721098959445953,,,,,,,,,
1739401291.9467325,-0.7071972569642676,0.6743936836470105,1.418133346401548,-1.879538397124306,-0.7083449102525697,1.9495552069883155,0.18560198763014246,-0.0001819953259457198,-0.0020830523949129055,-4.458752472295932e-05,-2.5258227554034e-05,0.0005777815276476748,0.0003597817151205868,-0.00028995808201479816,0.2689092457294464,-23.56198501586914,19.501754760742188,17.94654083251953,0.8961893320083618,2.3540542125701904,-0.12080229818820953,,,,,,,,,
1739401291.9568036,-0.7071999671408774,0.6743991101761747,1.4181313499148596,-1.8795374079188305,-0.7083449102525697,1.9495536916681588,0.1856050739154261,-0.001251805411543439,0.0007809337642635043,0.0004260191689575844,0.00023940840425582118,-5.148110110411307e-05,-0.00033531122314907683,0.0016571143051823957,0.2927129566669464,-23.63736343383789,19.529525756835938,17.94654083251953,0.8961893320083618,2.3668715953826904,-0.17390288412570953,,,,,,,,,
1739401291.9687827,-0.7071972572907431,0.6743973979408338,1.4181313487170926,-1.8795356539407504,-0.7083457719526758,1.9495544493282373,0.18560154009993374,0.0005158290952107316,-0.00039049605164937786,-0.0008743589326440807,0.0005637783273169607,-0.00013264479878656203,-0.000661995705317882,-0.0011686215189886373,0.2689092457294464,-23.61355972290039,19.529525756835938,17.92273712158203,0.9035135507583618,2.3604629039764404,-0.12080229818820953,,,,,,,,,
1739401291.9797728,-0.7071990048000666,0.6743932968937971,1.4181274113335207,-1.8795382075272173,-0.7083465338098568,1.9495521763480022,0.1856035299251873,-0.0014563122839900743,-0.0008087162671708788,-0.00047464656818540515,-0.00013900088401212199,-0.0007755945154852777,-0.0005840403898387232,5.932529465753735e-08,0.2927129566669464,-23.58578872680664,19.553329467773438,17.92273712158203,0.9099222421646118,2.3796889781951904,-0.13361968100070953,,,,,,,,,
1739401291.9907188,-0.7071972842849726,0.6743954000792453,1.4181266146385814,-1.8795404697459261,-0.7083402500826216,1.9495544493282373,0.18560204028502608,1.7261503920532302e-05,-0.0005208217088907193,-0.0011526896907872672,-0.0007130962818143816,0.0008926414938248944,0.0002631107692547188,0.0005070474254942503,0.2689092457294464,-23.58578872680664,19.553329467773438,17.94654083251953,0.8897806406021118,2.3604629039764404,-0.12080229818820953,,,,,,,,,
1739401292.000811,-0.7071995038017241,0.6743991104972348,1.4181324403424944,-1.8795434956515318,-0.7083465336116125,1.9495536916681588,0.18560351757865484,-0.0008584747295365367,0.0006087816943914733,0.001229310226051722,-0.0020450179007890255,3.631193857663099e-05,-0.00011122632292668888,0.0015095510406001726,0.2689092457294464,-23.63736343383789,19.501754760742188,17.99811553955078,0.9099222421646118,2.3668715953826904,-0.13361968100070953,,,,,,,,,
1739401292.0119617,-0.7071989958559178,0.6743954000356484,1.418133099163216,-1.879535968393915,-0.7083504716470767,1.9495536916681588,0.18560353366564103,-4.433131387810639e-05,-0.00010156034821685145,0.0005945437855531409,0.00035934473530879296,-0.0008155423917571761,-0.0009940861716802643,0.0005604450301341765,0.2927129566669464,-23.58578872680664,19.501754760742188,17.92273712158203,0.9099222421646118,2.3668715953826904,-0.13361968100070953,,,,,,,,,
1739401292.0227845,-0.7071952943386293,0.67439739798839,1.4181348932919067,-1.8795394889361705,-0.7083452659610755,1.9495552069883155,0.18560352911524597,0.0009969185352700948,-2.373507250237261e-05,0.0009857867032648739,0.0003212379484141606,0.0010493809430891605,-1.2310156574380993e-05,0.0007331755865479172,0.2411382496356964,-23.61355972290039,19.477951049804688,17.97431182861328,0.9035135507583618,2.3540542125701904,-0.13361968100070953,,,,,,,,,
1739401292.032811,-0.7071976083965307,0.6743953740352685,1.4181305673695774,-1.8795396330291168,-0.7083465338012404,1.949555167742459,0.18560355560537695,-0.0004535866329488064,0.00038375911270008343,-0.0011488230894648405,0.0008686197320935475,-0.001195513087684968,0.00014514649069195562,0.002397756898189055,0.2689092457294464,-23.58578872680664,19.501754760742188,17.94654083251953,0.9099222421646118,2.3540542125701904,-0.13361968100070953,,,,,,,,,
1739401292.0437486,-0.7072007113268851,0.6743936875147704,1.418133199883675,-1.879539497766291,-0.7083457762043102,1.9495536785321501,0.1856020007940798,-0.001385554781082612,-0.0003885137651674709,-0.0007063794846090065,-0.0006727041405295202,-0.0005016248092765495,-0.0005927802449796336,9.281024676058671e-05,0.3165166676044464,-23.56198501586914,19.501754760742188,17.97431182861328,0.9035135507583618,2.3668715953826904,-0.12080229818820953,,,,,,,,,
1739401292.0547132,-0.7071931823119693,0.6743950915354385,1.4181313470805512,-1.8795374077890796,-0.7083461777082399,1.9495552069882416,0.1856051995764598,0.0006558027030473861,-0.0007685068208889343,-0.0016946275349186933,0.001659638547622205,-0.0007262909511622346,0.00042464008035240637,0.0012968219230757017,0.2411382496356964,-23.56198501586914,19.529525756835938,17.94654083251953,0.9099222421646118,2.3540542125701904,-0.12080229818820953,,,,,,,,,
1739401292.064808,-0.7071973640876068,0.6743953982404689,1.4181352124921132,-1.8795381495357126,-0.7083465338038498,1.9495568305456263,0.18560351633070019,-0.0005385455886033601,-0.0001936032933596232,0.00043891103159776233,-0.0002900032895853114,-4.819698681686073e-05,0.0007242437282448367,0.0015135631511524314,0.2689092457294464,-23.58578872680664,19.477951049804688,17.94654083251953,0.9099222421646118,2.3403213024139404,-0.13361968100070953,,,,,,,,,
1739401292.0757692,-0.7071989968061431,0.6744011084380754,1.418135212492163,-1.87953679776523,-0.7083464945640238,1.9495552069883155,0.18560477928015684,-0.0001532535916117487,0.0013148317388762265,0.0005586146359150081,0.0002235627527919007,-0.00023559987105274688,0.0006350610845375121,0.003343591502386628,0.2927129566669464,-23.66513442993164,19.477951049804688,17.89893341064453,0.9099222421646118,2.3540542125701904,-0.10706938803195953,,,,,,,,,
1739401292.0868232,-0.7071935728240614,0.6743995040072834,1.4181312840479319,-1.8795374079564435,-0.708342597073687,1.9495536916681588,0.18559890777046706,0.0019349276024990718,-0.0003615938798905797,-0.00034336781413955815,0.000758734054417029,0.0014821224318627105,-0.00019189537188285083,-6.744076173935225e-05,0.2173345386981964,-23.61355972290039,19.501754760742188,17.94654083251953,0.9035135507583618,2.3668715953826904,-0.09425200521945953,,,,,,,,,
1739401292.0978296,-0.70719728328564,0.6743966960851268,1.4181334033120776,-1.8795381495357135,-0.7083465337919345,1.949555964648394,0.1856004371419405,0.00012667779110235735,0.0007194016388783975,0.0003722699421993867,-0.00039115825229920416,-0.0001197733479515459,0.00022752805865875543,-0.0016204902863504573,0.2689092457294464,-23.61355972290039,19.501754760742188,17.94654083251953,0.9099222421646118,2.3476455211639404,-0.08051909506320953,,,,,,,,,
1739401292.1087298,-0.70719728328564,0.6743954004596759,1.4181334288338479,-1.8795358738347878,-0.7083465323563302,1.9495544493282373,0.1856011838967602,6.089940457004874e-05,-0.0006253962638178154,0.0002306199701735893,0.00026366944314791573,-0.00023402442730760482,-0.0005417615050294195,0.0006987393731220806,0.2689092457294464,-23.58578872680664,19.501754760742188,17.92273712158203,0.9099222421646118,2.3604629039764404,-0.14094389975070953,,,,,,,,,
1739401292.1197364,-0.7071972803967089,0.6743973979765038,1.4181303951827426,-1.8795377384731071,-0.7083466530191619,1.949555964648394,0.18560038160639747,-0.00012238301245736313,2.2775353207438637e-05,-0.00011567177266118441,0.000535275721476968,0.00019986186410804224,0.000715707840174819,-0.0005436352378302528,0.2689092457294464,-23.61355972290039,19.529525756835938,17.94654083251953,0.9099222421646118,2.3476455211639404,-0.10706938803195953,,,,,,,,,
1739401292.1307,-0.7071952853447381,0.674398021985622,1.4181319952968943,-1.8795381895623964,-0.7083472914719776,1.949555964648394,0.18559561675202188,0.0007029859369027267,0.00011232010631892386,0.0014711053966058644,0.0006664421309548153,-0.0007955213942667015,0.0004451773145807487,-0.0026818993910574644,0.2411382496356964,-23.61355972290039,19.477951049804688,17.94654083251953,0.9163309335708618,2.3476455211639404,-0.06678618490695953,,,,,,,,,
1739401292.1407485,-0.7071936537686351,0.6743973990499985,1.4181267051806574,-1.879547804070811,-0.7083457761498022,1.9495545670658074,0.18559898185246512,-0.00047047460028905384,-0.000492920432396187,-0.0007332245566620742,-0.0019501950080888528,0.0008075951323891679,0.0007902718943978866,-0.0010342720902293983,0.2173345386981964,-23.61355972290039,19.553329467773438,18.04572296142578,0.9035135507583618,2.3604629039764404,-0.09425200521945953,,,,,,,,,
1739401292.1507668,-0.7071974708525411,0.6743974336067063,1.4181288862212245,-1.8795382687322912,-0.7083472914699589,1.9495544493342192,0.1855984245621044,0.0007657453580562237,0.0002791633621951763,-9.915166852715818e-05,0.00013017291462561723,-0.00032292335627077067,0.00011415477227182889,-0.0011892309517036645,0.2411382496356964,-23.61355972290039,19.529525756835938,17.94654083251953,0.9163309335708618,2.3604629039764404,-0.08051909506320953,,,,,,,,,
1739401292.1628022,-0.7071972786325594,0.6743954000357154,1.4181313103992952,-1.8795404821480275,-0.7083457766403753,1.9495552069883157,0.185597277852454,-0.0008890581589830395,-0.00040951659785518903,-0.0002974059342883238,0.00032279851652027995,0.0005415868180997578,0.00011435970111879248,-0.0017177162764456186,0.2689092457294464,-23.58578872680664,19.529525756835938,17.97431182861328,0.9035135507583618,2.3540542125701904,-0.08051909506320953,,,,,,,,,
1739401292.1737764,-0.7071989958433741,0.6743973984044912,1.4181324672983222,-1.879539752528946,-0.7083493999020871,1.9495552019816427,0.18560793623226965,-0.00023880299765965225,0.0003291432915897789,0.0009227235190604193,0.00027827789072152866,-0.0008006181080608123,-2.9536983678730793e-05,0.0018388172232750453,0.2927129566669464,-23.61355972290039,19.501754760742188,17.94654083251953,0.9099222421646118,2.3540542125701904,-0.14094389975070953,,,,,,,,,
1739401292.1837838,-0.7071931803133213,0.6744019235446568,1.4181334254381928,-1.8795376560951127,-0.7083457806134985,1.949555206988231,0.1856011356068755,0.001792023306021033,0.0028523823921004056,0.0003921897512058674,4.4411115112329776e-05,0.0008512465446213608,0.00034603897114556187,-0.0010311783813381173,0.2411382496356964,-23.66513442993164,19.501754760742188,17.94654083251953,0.9035135507583618,2.3540542125701904,-0.11347807943820953,,,,,,,,,
1739401292.1946976,-0.7071997247160766,0.6743954000494522,1.418134864185111,-1.8795398924920177,-0.7083449102526453,1.9495552069883155,0.18560251417873108,9.25320480529287e-06,-0.0008699596865090562,0.0008440298172121392,-0.0008203077538835378,0.0001673623507124916,0.000646555403779281,0.0007352503742047689,0.2927129566669464,-23.58578872680664,19.477951049804688,17.94654083251953,0.8961893320083618,2.3540542125701904,-0.12080229818820953,,,,,,,,,
1739401292.2057054,-0.707197364234334,0.6744004061068327,1.4181334298131776,-1.8795374078030485,-0.7083442055743979,1.9495544493282373,0.18559969123329567,0.000534967078219178,0.0016625648668544277,-0.00022415309268358538,-2.6342333578609125e-05,-0.0008938600558367658,-0.00040820702854444074,-0.0003964177076159873,0.2689092457294464,-23.66513442993164,19.501754760742188,17.94654083251953,0.8897806406021118,2.3604629039764404,-0.09425200521945953,,,,,,,,,
1739401292.2158017,-0.7071975261207488,0.6743954029126854,1.4181372569607475,-1.8795381803564324,-0.7083449087999167,1.9495527857340063,0.1856004957240204,0.00011834479726516921,-0.0007721315999673966,0.0006629515858797732,-0.000898221944629063,0.0005876035953793683,-0.0003026674413843889,0.00013952526908538672,0.2689092457294464,-23.58578872680664,19.450180053710938,17.92273712158203,0.8961893320083618,2.3476455211639404,-0.10706938803195953,,,,,,,,,
1739401292.2268033,-0.7071962570133011,0.6743982559533819,1.4181372922819522,-1.8795383969150332,-0.708346533325361,1.9495544493043107,0.18560273218090098,0.0009524514067887511,0.0007688738526088752,0.0016347634287255408,-0.001819720617093608,0.0005306170627417209,0.0007240671421749406,0.001133412228810704,0.2411382496356964,-23.61355972290039,19.450180053710938,17.94654083251953,0.9099222421646118,2.3604629039764404,-0.12721098959445953,,,,,,,,,
1739401292.237771,-0.7071953153297459,0.6743991076131447,1.4181352095487239,-1.8795378595527095,-0.7083483687687209,1.9495552069883155,0.1856003791865777,0.000475540155941045,0.0018811784356564248,0.00032494093262867407,0.0004941959638973195,-0.0012654673392228635,-7.386970578334725e-05,-0.0009264266576211179,0.2411382496356964,-23.63736343383789,19.477951049804688,17.92273712158203,0.9163309335708618,2.3540542125701904,-0.10706938803195953,,,,,,,,,
1739401292.2488387,-0.7071972832858092,0.6743991191640096,1.4181372787864988,-1.8795374020614581,-0.7083438506205219,1.9495544449675868,0.18560458232072052,0.0005523710727036847,0.0009007041586359826,0.0013813789974847746,0.00039945983272993623,0.00032959269538596227,-0.0005242152841648497,0.0008275492637109287,0.2689092457294464,-23.63736343383789,19.477951049804688,17.94654083251953,0.8961893320083618,2.3604629039764404,-0.13361968100070953,,,,,,,,,
1739401292.259777,-0.7071998288760729,0.6743936886206063,1.41813335049392,-1.8795374111806071,-0.7083449102465882,1.9495559646483696,0.18560235622016483,-0.0005457936864540002,-0.0017392180834269854,5.210964880537016e-05,0.00038982663890733407,0.0011850605921125829,-0.0002768725387344281,0.0006512013526047764,0.2689092457294464,-23.56198501586914,19.501754760742188,17.94654083251953,0.8961893320083618,2.3476455211639404,-0.12080229818820953,,,,,,,,,
1739401292.2707245,-0.707195366340748,0.6743973980835051,1.418131270551981,-1.879541518522298,-0.7083465516340404,1.9495552069883155,0.18559886191839584,0.0009812685518626177,-4.385594517795986e-05,0.00019594442474185018,-0.000355027788226172,-0.0004893655188643465,-7.146055569879177e-05,0.0003998558336768749,0.2411382496356964,-23.61355972290039,19.529525756835938,17.99811553955078,0.9099222421646118,2.3540542125701904,-0.09425200521945953,,,,,,,,,
1739401292.2807918,-0.7071947743095519,0.6743976435356479,1.4181305677006861,-1.8795424820419437,-0.7083449102528716,1.949555964648394,0.18560109540548125,0.0006716236671982648,-3.9528489208664076e-05,-0.0011484463978377133,-0.0007365193352725896,-0.0001608916379907991,0.00015548905724845622,-0.0011830326859679351,0.1935308277606964,-23.61355972290039,19.501754760742188,17.97431182861328,0.8961893320083618,2.3476455211639404,-0.11347807943820953,,,,,,,,,
1739401292.2927916,-0.7071989958228209,0.6743985683159811,1.4181312437182698,-1.8795412747195877,-0.7083448710067131,1.9495544493282373,0.18559954202406045,-0.0008656252237593641,-0.00013330606961775983,-0.00042005466710081377,-0.0012720878426802473,0.00039279359742063125,-0.0002314938523675835,-0.0013327571961058915,0.2927129566669464,-23.61355972290039,19.529525756835938,17.99811553955078,0.8961893320083618,2.3604629039764404,-0.08692778646945953,,,,,,,,,
1739401292.3047209,-0.7071989958063712,0.6744012146042627,1.4181312322875184,-1.879539492138727,-0.7083430879476152,1.949555964648394,0.18560458597117732,-0.0006775208962514866,0.00042596762109837664,0.0008490509500030984,0.0002514265325497682,0.0025015702242016597,0.00015383137344149664,0.0013389330751432268,0.2927129566669464,-23.63736343383789,19.529525756835938,17.97431182861328,0.8897806406021118,2.3476455211639404,-0.13361968100070953,,,,,,,,,
1739401292.3147507,-0.707195285344787,0.6743932593495706,1.4181266227818552,-1.8795374902053468,-0.7083457761437921,1.9495544493282373,0.18559886652702026,0.0005656233567453922,-0.0016661821568182467,-0.0005581893776174471,0.00044282811305790265,-7.914572657953589e-05,-0.00015048957967643466,-0.0011881500981843014,0.2411382496356964,-23.58578872680664,19.553329467773438,17.94654083251953,0.9035135507583618,2.3604629039764404,-0.09425200521945953,,,,,,,,,
1739401292.324753,-0.7071975291173254,0.6744000492565944,1.418131270393546,-1.8795366520950991,-0.7083464814820716,1.9495544493282373,0.1855973573201315,-0.0003995722728926484,0.00013164835662545537,0.00036069217559543177,0.0003811304147512181,0.00020103104880831582,-6.07070475056863e-05,-0.0018726662211558524,0.2689092457294464,-23.63736343383789,19.529525756835938,17.92273712158203,0.9099222421646118,2.3604629039764404,-0.08051909506320953,,,,,,,,,
1739401292.33478,-0.7071952853489502,0.6743953971626152,1.4181295634223352,-1.8795406586715393,-0.7083449102516837,1.949553977893441,0.185601248984164,0.0008783981994156941,-0.0011815918235499013,-0.0003139464155922379,-0.0008703663939765725,0.0010242977351212867,-0.001347854506796303,1.5276545423334448e-05,0.2411382496356964,-23.58578872680664,19.553329467773438,17.94654083251953,0.8961893320083618,2.3604629039764404,-0.11347807943820953,,,,,,,,,
1739401292.3457112,-0.7071989958063712,0.6743991220529407,1.4181331118146665,-1.8795397348838103,-0.7083458953590916,1.9495544493255763,0.18560438217440497,-3.008510393842683e-05,-2.793890950506103e-05,-7.082888350455022e-05,0.00022038235589901255,-0.000708211808517373,0.0007326332774226093,0.0004849694455638405,0.2927129566669464,-23.63736343383789,19.501754760742188,17.97431182861328,0.9035135507583618,2.3604629039764404,-0.14094389975070953,,,,,,,,,
1739401292.3576996,-0.7071972833226517,0.6743970044665156,1.418135212163319,-1.8795366419579325,-0.7083451207982087,1.9495544492744021,0.1856020136325422,0.0004303650289206999,-0.0008313401726700255,0.0007632435261048016,-0.0010622804958419127,-0.00033916161910295726,-0.0007839631393479192,0.0005586868946584652,0.2689092457294464,-23.63736343383789,19.477951049804688,17.92273712158203,0.9099222421646118,2.3604629039764404,-0.12080229818820953,,,,,,,,,
1739401292.367845,-0.707195905756072,0.6743960860914006,1.4181312809591358,-1.8795356617472094,-0.708345736895969,1.949554449274402,0.18560204467297736,-2.05316762430914e-05,-0.0010648169588418665,0.0003496253871004598,0.002005500526143501,-0.0001806644382118578,0.0001921923258216126,-0.00029333909227355104,0.2689092457294464,-23.58578872680664,19.501754760742188,17.92273712158203,0.9035135507583618,2.3604629039764404,-0.12080229818820953,,,,,,,,,
1739401292.378775,-0.7071975787667584,0.6743975061059689,1.4181372922335496,-1.8795402328681308,-0.7083449234978247,1.9495559646483938,0.1855975937796156,4.0865151405956954e-06,-0.0003559892327784575,0.0017105985554738679,-0.00010018272764629661,-0.00014052712636548512,0.0003438478044157113,-0.0019141448015840496,0.2411382496356964,-23.58578872680664,19.450180053710938,17.97431182861328,0.8961893320083618,2.3476455211639404,-0.08051909506320953,,,,,,,,,
1739401292.3898163,-0.7071994778219631,0.6743993445363192,1.4181312840479312,-1.8795375501042129,-0.7083425972356384,1.9495568290920762,0.18559799667523608,-0.0009861841347980353,0.001491982663118907,-0.0006082313011078247,0.0014168240630196946,0.0014002227944682744,0.0009691838148134704,-0.0013870050039798923,0.2689092457294464,-23.63736343383789,19.501754760742188,17.94654083251953,0.9035135507583618,2.3403213024139404,-0.08692778646945953,,,,,,,,,
1739401292.4007208,-0.7071952853571752,0.6743975071733919,1.418137212324642,-1.8795376550387224,-0.7083449632165312,1.9495548537755978,0.18560119193939065,0.0002842552936535257,-0.0005661566891887128,0.0004964251973575487,-0.00012799964945076306,-0.0005085657438953064,0.00017516881377035878,0.00013758683491941847,0.2411382496356964,-23.58578872680664,19.450180053710938,17.94654083251953,0.8961893320083618,2.3540542125701904,-0.11347807943820953,,,,,,,,,
1739401292.4126947,-0.7072000480859024,0.6743953220503618,1.4181333588090639,-1.8795384833843685,-0.7083435032887089,1.949553794136812,0.18559967948171063,-0.0016906593889421924,-1.8166729859025012e-05,-0.00016801108766336005,-5.3676147979505405e-05,0.001087519374189353,-0.0004483587243015564,-0.0015456938312491072,0.2927129566669464,-23.58578872680664,19.501754760742188,17.94654083251953,0.8961893320083618,2.3540542125701904,-0.07411040365695953,,,,,,,,,
1739401292.4237242,-0.7071990257917852,0.6743973978690637,1.4181295585175506,-1.8795404114490069,-0.7083465338019381,1.949555205042273,0.18560546340406514,-0.0004713196425579204,-1.714728157520913e-05,-0.0017066374200940765,-0.001146081963532072,-0.0005537043755788157,-7.707660658906e-05,0.0022530049029427586,0.2927129566669464,-23.61355972290039,19.553329467773438,17.94654083251953,0.9099222421646118,2.3540542125701904,-0.14094389975070953,,,,,,,,,
1739401292.4337833,-0.7071982550649015,0.674397397940835,1.4181334209847762,-1.879541823176519,-0.708346534463978,1.9495544493282264,0.18559612819273466,-0.0014968448521921038,-0.0008572352444054885,0.0004658563104336083,-0.0014581300196796823,-0.0005754482731999387,-0.00038055359042051223,-0.0004620628642557029,0.2689092457294464,-23.61355972290039,19.501754760742188,17.97431182861328,0.9099222421646118,2.3604629039764404,-0.06678618490695953,,,,,,,,,
1739401292.443793,-0.7071988791834964,0.6743991201270023,1.4181313490439924,-1.8795418227469012,-0.7083474504156893,1.9495536916681588,0.185597396332346,-0.0007335872286631208,0.0010074552096290441,-0.0006259183560980071,-0.0013170551350263687,-0.0009622031552981522,-7.538715736612957e-06,-0.002245766083871299,0.2927129566669464,-23.63736343383789,19.529525756835938,17.97431182861328,0.9163309335708618,2.3668715953826904,-0.08051909506320953,,,,,,,,,
1739401292.4547186,-0.7071974739937646,0.6743993448216995,1.4181266696958483,-1.8795398838335284,-0.7083465338107777,1.9495559644330533,0.18560316652997383,-0.00016758067292989363,0.00036921384578123744,-0.0015863950410715624,-0.00018657638450960833,-0.0006245400580541728,0.0007472599138011681,0.001304354260266212,0.2411382496356964,-23.63736343383789,19.553329467773438,17.94654083251953,0.9099222421646118,2.3476455211639404,-0.12721098959445953,,,,,,,,,
1739401292.4657686,-0.7071975292654255,0.6743991108221932,1.418131348559005,-1.8795375269897734,-0.7083477259027761,1.9495544493282337,0.18560038309399665,-0.00028903030627880154,0.0004683603868800302,-0.0005722117009659975,-9.331347773919967e-05,-0.0007703263327010695,-0.0002812646053269943,0.000376449204690063,0.2689092457294464,-23.63736343383789,19.529525756835938,17.94654083251953,0.9099222421646118,2.3604629039764404,-0.10706938803195953,,,,,,,,,
1739401292.4758036,-0.7071972832870286,0.6744019965394171,1.4181313500252801,-1.8795395011460194,-0.7083465338166098,1.9495540961155275,0.1856020188330541,5.29181633623151e-06,0.000466931857239285,0.0002767103233332847,-0.0004425265301068366,4.6323657134340456e-05,-0.00035626521665023733,0.00011846865380039863,0.2689092457294464,-23.63736343383789,19.529525756835938,17.97431182861328,0.9099222421646118,2.3604629039764404,-0.12080229818820953,,,,,,,,,
1739401292.4866872,-0.7072012082915394,0.674396440102807,1.4181295320269982,-1.8795378504652052,-0.7083465338098806,1.9495520280719338,0.1856010939667558,-0.0002744432185861177,-0.0007416640298899442,0.0006652569088959198,0.0003393700459928705,-0.0005176803868472609,-0.0006354410956807992,0.0009951877042880277,0.2927129566669464,-23.58578872680664,19.553329467773438,17.92273712158203,0.9099222421646118,2.3540542125701904,-0.10066069662570953,,,,,,,,,
1739401292.4968057,-0.7071975262317839,0.6743954126071907,1.4181295290817646,-1.879542483168284,-0.7083457369039454,1.9495559644868885,0.18560976069753587,-5.436473110133412e-05,-0.0014512583144724387,-0.00036825662460174665,-0.0005369971892218781,6.052493467281524e-05,0.0010737859073425902,0.002499941616267416,0.2689092457294464,-23.58578872680664,19.553329467773438,17.97431182861328,0.9035135507583618,2.3476455211639404,-0.14735259115695953,,,,,,,,,
1739401292.5078094,-0.7071972833971322,0.6743954087381311,1.418130598140013,-1.8795378808822665,-0.7083449102524959,1.9495536916681586,0.1856011369096713,-0.000658450207446395,0.0007015989456064991,-0.0018316405594961986,0.001490002207395514,0.0005873294686160617,-6.318471202853762e-05,-6.293054654928532e-05,0.2689092457294464,-23.58578872680664,19.529525756835938,17.92273712158203,0.8961893320083618,2.3668715953826904,-0.11347807943820953,,,,,,,,,
1739401292.5197322,-0.7072007088082551,0.6743998129355321,1.4181369361216252,-1.8795345933894596,-0.7083449102525697,1.9495544493282373,0.18560155087212055,-0.0014484098129154336,0.0008798466876795238,0.000863150980649602,0.0021848800306877004,-0.0004712887669288517,-0.00040380770317986335,-0.0011202185436365072,0.3165166676044464,-23.63736343383789,19.450180053710938,17.89893341064453,0.8961893320083618,2.3604629039764404,-0.08692778646945953,,,,,,,,,
1739401292.5308623,-0.7071952824558586,0.6744005146643824,1.418132714412041,-1.8795364492792317,-0.708346534027913,1.9495559644330533,0.18559911544249458,0.0005674891217529821,0.0006507236364374094,-0.0007906160745268904,5.0057998089648905e-06,0.00031051858820874286,-0.0001250382948586542,-0.0007862475175899664,0.2411382496356964,-23.63736343383789,19.501754760742188,17.92273712158203,0.9099222421646118,2.3476455211639404,-0.08692778646945953,,,,,,,,,
1739401292.5427487,-0.7071975517930026,0.6743973944957822,1.4181342676347053,-1.8795384886989874,-0.7083457703356015,1.949555964702229,0.1856012347825546,0.0008528804833434737,-0.0005832361154089567,-0.0006667279773897342,-0.0006800394845474614,0.00047790739948102987,0.0011818225053245829,0.0007550229855107239,0.2411382496356964,-23.61355972290039,19.477951049804688,17.94654083251953,0.9035135507583618,2.3476455211639404,-0.08692778646945953,,,,,,,,,
1739401292.5527716,-0.7071972832984341,0.6743957149291201,1.4181352037225303,-1.8795345873532856,-0.708344910252537,1.9495536916681593,0.18560546145411094,-0.00011492324793677853,-0.001225992673285267,-0.0005390054754567541,0.0008252237603740159,0.0010500524435769266,-0.00020998963447602686,0.0020764179658613047,0.2689092457294464,-23.58578872680664,19.501754760742188,17.89893341064453,0.8961893320083618,2.3668715953826904,-0.14094389975070953,,,,,,,,,
1739401292.5637267,-0.7071989958063712,0.6743955083188439,1.4181371891626424,-1.879537406319489,-0.7083465337560453,1.9495552069883157,0.1856079509007526,-0.00030441360538712315,0.00123199652638009,0.0009269331696925073,0.00028157508553118115,-0.0005442193184205387,-0.0004640788192486265,0.0016673299711230988,0.2927129566669464,-23.58578872680664,19.450180053710938,17.94654083251953,0.9099222421646118,2.3540542125701904,-0.14094389975070953,,,,,,,,,
1739401292.5738099,-0.7071980117868539,0.6743992140725966,1.4181312440597291,-1.879537408241213,-0.7083506697205928,1.9495536873075083,0.18559865717540514,-0.00045812567091440106,0.0003704735024564441,-0.0005894551801364162,0.0007448369815677484,-0.0008796074012451781,-0.0007619112737008095,-0.0018970677888335212,0.2689092457294464,-23.63736343383789,19.529525756835938,17.94654083251953,0.9163309335708618,2.3668715953826904,-0.08051909506320953,,,,,,,,,
1739401292.584771,-0.7071952866813205,0.6743991451649906,1.4181352123462097,-1.8795346238635988,-0.7083449102716401,1.9495533384554247,0.1855988619243987,-7.253004817162496e-05,0.0009106206889806677,0.0005072280802326671,0.0006678725264906522,0.0002140498289493418,-0.00046050633087706545,-0.0014929641480863555,0.2411382496356964,-23.63736343383789,19.477951049804688,17.89893341064453,0.8961893320083618,2.3668715953826904,-0.09425200521945953,,,,,,,,,
1739401292.5947928,-0.7071989168422768,0.6743976319805087,1.4181371771608366,-1.8795417498008107,-0.7083497524606986,1.9495536916621774,0.18559881992245578,-0.0005380010642934989,0.0006176843358883174,0.0013838805839772339,-0.0012465127996422734,-0.0011394705962977313,-0.00014732310176536083,-0.002765742153630849,0.2927129566669464,-23.61355972290039,19.450180053710938,17.97431182861328,0.9099222421646118,2.3668715953826904,-0.06678618490695953,,,,,,,,,
1739401292.6057296,-0.7071952853434497,0.6743992231695088,1.4181292903359817,-1.87953859225013,-0.7083457763678347,1.9495541473501863,0.18560200101065083,0.0007899233943588519,0.0007913518230852012,-0.0013166094341964087,-0.00044569971311437585,0.0005232094586199538,-0.0004860680240618144,-0.0005412873171786141,0.2411382496356964,-23.63736343383789,19.553329467773438,17.92273712158203,0.9035135507583618,2.3540542125701904,-0.12080229818820953,,,,,,,,,
1739401292.6167057,-0.7071973102671664,0.6743976320875551,1.4181303302630355,-1.8795359002265954,-0.7083465339734061,1.949555206982334,0.18560281549669888,7.234643306801937e-05,-0.0006737254659455049,0.0005759204377679232,0.0006716526644066976,0.0002468974294353942,0.0012753242230000342,0.0014145843779752097,0.2689092457294464,-23.61355972290039,19.501754760742188,17.92273712158203,0.9099222421646118,2.3540542125701904,-0.12721098959445953,,,,,,,,,
1739401292.6267278,-0.7071973645634769,0.674399110498554,1.4181263089435245,-1.8795356618560763,-0.7083449102525707,1.9495529340080806,0.185597055497501,0.00011994336387443441,-0.0014392131993299076,-0.0005797019440910105,0.001439862027370635,3.439921071836735e-05,-0.00014463896922830552,0.00043935782518230576,0.2689092457294464,-23.63736343383789,19.553329467773438,17.92273712158203,0.8961893320083618,2.3732802867889404,-0.06678618490695953,,,,,,,,,
1739401292.6368148,-0.7071952893434267,0.6743974849654272,1.4181282374466266,-1.8795427019282127,-0.7083481289033877,1.9495503945316843,0.18560043667853499,0.0004899963847673991,0.0005876950000749069,-0.0008725392698924943,-0.0014862508852222108,0.0001661683256822331,-0.001869745596136617,-0.0026082985309744803,0.2411382496356964,-23.61355972290039,19.529525756835938,17.97431182861328,0.8961893320083618,2.3668715953826904,-0.08051909506320953,,,,,,,,,
1739401292.6477597,-0.707197364230287,0.6743995300091367,1.4181312703907007,-1.8795374444729236,-0.7083456584667404,1.9495543315348303,0.1856051997931386,-8.899530415103793e-05,-0.0006048433981371225,-4.85981364509668e-06,-0.00037208725647199707,0.0008286828113580082,0.0002306726253985231,0.0007513910176768286,0.2689092457294464,-23.61355972290039,19.529525756835938,17.94654083251953,0.9035135507583618,2.3604629039764404,-0.12080229818820953,,,,,,,,,
1739401292.6580548,-0.7071993195851455,0.674401953217484,1.4181334002349468,-1.8795374184539813,-0.708346252986296,1.9495552069876507,0.18560462627198768,-0.001732755758701695,0.0008959716207405251,0.00039774760522276074,0.0005691118248150926,-0.0005371125980198709,0.0003551424995147089,0.0003330491054110287,0.2927129566669464,-23.63736343383789,19.501754760742188,17.94654083251953,0.9035135507583618,2.3540542125701904,-0.13361968100070953,,,,,,,,,
1739401292.6688542,-0.7071972832874677,0.6743973979925486,1.4181323510329817,-1.8795366181775912,-0.7083476058967256,1.9495551939063636,0.18560625275795872,2.5426678871661302e-05,-4.1403542051260834e-05,0.0002607861729454107,0.0014471517739492843,-0.0006378006259931861,0.00012190811672605319,0.001245820796714607,0.2689092457294464,-23.61355972290039,19.477951049804688,17.92273712158203,0.9099222421646118,2.3540542125701904,-0.15376128256320953,,,,,,,,,
1739401292.6798115,-0.707195528178525,0.6743974759776415,1.4181352095325708,-1.8795374089628518,-0.7083457805710129,1.9495558469107503,0.18560075181170374,0.0002874329940001586,0.0004439525166910287,0.0017486965719321532,0.0011467652365299615,-0.0003883258172114201,0.0003971727938575235,-0.0010204178349289895,0.2411382496356964,-23.61355972290039,19.477951049804688,17.94654083251953,0.9035135507583618,2.3476455211639404,-0.07411040365695953,,,,,,,,,
1739401292.690743,-0.7071925589280178,0.6743973982979341,1.4181372913008556,-1.8795358849098904,-0.7083457369039705,1.949554449327573,0.1855965207559708,0.001389953186765569,0.00023541337577814842,0.001715951876029455,0.0008368742020413808,0.000582753602933226,-0.0006432764663649524,2.648408281493743e-06,0.2411382496356964,-23.61355972290039,19.450180053710938,17.92273712158203,0.9035135507583618,2.3604629039764404,-0.07411040365695953,,,,,,,,,
1739401292.7008,-0.7071992385939371,0.6743973979765069,1.4181334298151271,-1.8795357482321087,-0.7083468916006089,1.9495552069883155,0.1855972559113763,1.2247799573826968e-05,-0.0001307513965645597,-0.00024058197859371357,-0.0010646390831715359,-0.00021664546933467508,7.153453069480998e-06,-0.002873179105790201,0.2927129566669464,-23.61355972290039,19.501754760742188,17.92273712158203,0.9099222421646118,2.3540542125701904,-0.08051909506320953,0,0,0,0.000,0,0
1739401292.7117488,-0.7071952853461575,0.6743954783577807,1.4181372124457714,-1.8795405469993034,-0.7083471935813442,1.949555964648394,0.18560051521187407,-0.00039343731452435617,-0.0010365646132584876,0.0017559905144798032,-0.0006104337671592153,-0.00013699626646799978,0.0007009650999198814,8.037608478730533e-05,0.2411382496356964,-23.58578872680664,19.450180053710938,17.94654083251953,0.9035135507583618,2.3476455211639404,-0.10706938803195953,0,0,0,0.000,0,0
1739401292.72176,-0.7072007080061101,0.674395411595352,1.4181369743865238,-1.879540651012916,-0.7083473312784017,1.9495509684357986,0.1855980140653311,-0.0010562402874743913,-0.001377956650503084,0.0013616413759901596,-0.0004202357737777685,-0.0008286928498042045,-0.0013992864860903928,-0.0009392966676355079,0.3165166676044464,-23.58578872680664,19.450180053710938,17.94654083251953,0.9163309335708618,2.3540542125701904,-0.08692778646945953,0,0,0,0.000,0,0
1739401292.731815,-0.7071972746188449,0.6743991884984378,1.418130281555047,-1.8795405132599239,-0.7083449103073026,1.949551910312431,0.18560129919938403,0.0006848063843872471,0.0011422303989161483,-0.002394550032371902,-0.00045699311313706026,0.0006459500514396281,-0.000554991736484339,9.398934832115458e-05,0.2689092457294464,-23.63736343383789,19.529525756835938,17.97431182861328,0.8961893320083618,2.3540542125701904,-0.11347807943820953,0,0,0,0.000,0,0
1739401292.7427616,-0.7071952593443581,0.6743957935461394,1.4181327144443587,-1.8795363973890389,-0.7083449632344765,1.9495552068082003,0.18560167080910134,0.0013195962400963982,0.0005648717209459382,0.0008596048051970243,0.0011706396923102792,0.00032362805891965774,0.00015238276826086156,-0.0005424767738396513,0.2411382496356964,-23.56198501586914,19.501754760742188,17.92273712158203,0.8961893320083618,2.3540542125701904,-0.08692778646945953,0,0,0,0.000,0,0
1739401292.7536974,-0.707197284284809,0.6744011171167675,1.418130565408652,-1.8795387020292078,-0.7083457761501012,1.9495544493282364,0.18560235834758526,0.00010633086258797793,0.0005200590215777539,-0.00033461020890477623,-2.068002172773216e-05,0.0009698823833222773,0.00037528607573184046,0.00024295242029393486,0.2689092457294464,-23.66513442993164,19.501754760742188,17.92273712158203,0.9035135507583618,2.3604629039764404,-0.12080229818820953,0,0,0,0.000,0,0
1739401292.7637203,-0.7071972932788149,0.6743976329430457,1.4181294520695646,-1.8795358754654634,-0.7083457761498022,1.9495552055347654,0.18560589733745786,8.902351787496172e-05,0.0005923596217155769,-0.0006316490525089579,0.00117612013278712,0.0006050282753810509,0.00029510928029662814,0.0008575573104446078,0.2689092457294464,-23.61355972290039,19.553329467773438,17.92273712158203,0.9035135507583618,2.3540542125701904,-0.15376128256320953,0,0,0,0.000,0,0
1739401292.7747192,-0.7071990767510069,0.6743952919470457,1.418131201485627,-1.8795454006117829,-0.7083472914699589,1.9495548537755978,0.18560732340046435,-0.0008166561480333311,-0.0005904615740162236,0.0006333841487340282,-0.0017256054037402633,-0.0005427828965468717,-0.00029997658119971745,0.002841010917683028,0.2927129566669464,-23.61355972290039,19.501754760742188,18.02191925048828,0.9163309335708618,2.3540542125701904,-0.15376128256320953,0,0,0,0.000,0,0
1739401292.7847395,-0.7071935731585318,0.6743991103545693,1.4181312839011788,-1.8795381347224114,-0.7083447925149998,1.949555206982334,0.1856051938129675,0.001862281134005079,-8.785706276939227e-05,0.0007330109443762049,1.9930481618605275e-05,0.0008080824091790385,0.00023596753359930587,0.0002245597909843617,0.2173345386981964,-23.63736343383789,19.501754760742188,17.92273712158203,0.8961893320083618,2.3540542125701904,-0.14735259115695953,0,0,0,0.000,0,0
1739401292.794767,-0.7071955281785306,0.6743991108182225,1.4181284084029757,-1.8795359121983761,-0.7083449102505759,1.9495552069883155,0.18560719462661007,0.0006430795912584995,0.0004469393396508328,1.975862312494564e-05,-0.0004333116691629737,0.00037876360288483543,-0.00010567090511772844,0.00017724483372603397,0.2411382496356964,-23.63736343383789,19.529525756835938,17.92273712158203,0.8961893320083618,2.3540542125701904,-0.12721098959445953,0,0,0,0.000,0,0
1739401292.8047984,-0.7071952853488994,0.6743979006505206,1.418127182022499,-1.8795463078728434,-0.7083472914699588,1.9495518743699514,0.18559997572194395,0.0006348713817131144,-0.00029098493823966764,-0.003111632095610395,-0.0015407407905440801,-0.00029329313772011404,-0.0011132343332576748,0.00019086077028007765,0.2411382496356964,-23.61355972290039,19.553329467773438,18.02191925048828,0.9163309335708618,2.3732802867889404,-0.10066069662570953,0,0,0,0.000,0,0
1739401292.8157692,-0.7071952856778924,0.6743994225046305,1.4181309938193354,-1.8795359671561336,-0.7083472914699588,1.949554431879653,0.18560778327218946,0.0011845440349015754,0.00023612238768556178,-0.0008618305149136877,0.0004604471861669901,0.000651878109903362,0.0001692747924543592,0.0014311147253664143,0.2411382496356964,-23.63736343383789,19.529525756835938,17.92273712158203,0.9163309335708618,2.3604629039764404,-0.13361968100070953,0,0,0,0.000,0,0
1739401292.8266885,-0.7071936117973774,0.6743991095395393,1.4181302390119503,-1.879540663069042,-0.7083461805971707,1.949554449327942,0.1856088052540692,0.0001684856715463526,-1.759730642330504e-05,-0.0012231769058374676,0.0005537074616667305,0.000898857066846897,-0.0008449235078256947,0.0021111041196232513,0.2173345386981964,-23.63736343383789,19.501754760742188,17.94654083251953,0.9099222421646118,2.3604629039764404,-0.14094389975070953,0,0,0,0.000,0,0
1739401292.8367765,-0.7071989958065912,0.6743954003566353,1.4181342494971128,-1.8795339340270256,-0.7083457766928896,1.9495544493282373,0.1855981744773037,-0.0001329150960417615,-0.0005037668194273608,0.0008569291915585172,0.0010300192393124933,0.0009496611863104276,-0.00031339281758544716,-0.0017920246279829468,0.2927129566669464,-23.58578872680664,19.477951049804688,17.89893341064453,0.9035135507583618,2.3604629039764404,-0.06037749722599983,0,0,0,0.000,0,0
1739401292.8468044,-0.7071972836187452,0.6743937655160627,1.4181291914868646,-1.8795366416942951,-0.7083505101207859,1.94955520682681,0.18560504309816828,-8.7425027547178e-07,-0.0009370811004829848,-0.0022199991374175906,-8.802421745339668e-05,-0.0008611889544287905,-7.903624076772544e-05,0.0005111849144068217,0.2689092457294464,-23.56198501586914,19.529525756835938,17.92273712158203,0.9163309335708618,2.3540542125701904,-0.10706938803195953,0,0,0,0.000,0,0
1739401292.8587613,-0.7071976071009708,0.6743981029117994,1.4181358968841113,-1.8795384914541537,-0.7083465735644797,1.9495552069883146,0.18560625877590353,-3.565867058153002e-05,0.0005366959698885365,0.0007862233467780369,-0.0005974443728224911,-0.0013321678173157385,7.869808855193085e-07,0.0018194496385217722,0.2689092457294464,-23.61355972290039,19.477951049804688,17.94654083251953,0.9099222421646118,2.3540542125701904,-0.14735259115695953,0,0,0,0.000,0,0
1739401292.8687844,-0.7072007083289303,0.6743954025005691,1.4181352120599613,-1.8795375222056945,-0.708344914667953,1.9495552069883155,0.18560352928404533,-0.0009857134479220918,-0.0007122204868142917,0.0006200759131329081,0.00024251435610056363,0.0006324353953113526,0.00020012801795927384,0.001194370137249798,0.3165166676044464,-23.58578872680664,19.477951049804688,17.94654083251953,0.8961893320083618,2.3540542125701904,-0.13361968100070953,0,0,0,0.000,0,0
1739401292.8797405,-0.707195363548482,0.6744032154318587,1.4181331912512074,-1.8795374474715898,-0.7083464814820966,1.949554142505019,0.18559659987673607,0.00019099622238178055,0.0019785847197739243,0.0003033234243117238,0.00037986006603769515,-0.0010452280607335354,-0.0007106513549267064,-0.0009927240810552592,0.2411382496356964,-23.66513442993164,19.501754760742188,17.94654083251953,0.9099222421646118,2.3540542125701904,-0.07411040365695953,0,0,0,0.000,0,0
1739401292.8897777,-0.7072011843092848,0.674398645842995,1.4181312705483886,-1.8795395245481776,-0.7083458291308224,1.9495535734280451,0.18560445215467544,-0.00143048545020155,-0.00027398661799037306,-0.001378703504226491,0.00023474029783127038,0.00038019325658563433,-0.00027939865092505305,0.001039564562287149,0.2927129566669464,-23.63736343383789,19.529525756835938,17.97431182861328,0.9035135507583618,2.3668715953826904,-0.11347807943820953,0,0,0,0.000,0,0
1739401292.9006891,-0.7071972833350059,0.6743954002470202,1.4181313881805337,-1.8795427028322302,-0.7083457761501012,1.9495544493275698,0.18560503937704176,0.00018160514449294533,-0.0005561506366522258,-0.0004027427481213428,-0.0009032244328553916,0.0012551950143191875,0.00021614435511447473,0.0002880818745996332,0.2689092457294464,-23.58578872680664,19.529525756835938,17.97431182861328,0.9035135507583618,2.3604629039764404,-0.10706938803195953,0,0,0,0.000,0,0
1739401292.9107816,-0.7071992656216365,0.6744002064455376,1.4181313232079327,-1.8795404148513184,-0.7083461337776709,1.9495552069883155,0.1856066213365704,-0.0010991387928373944,0.001580855354661633,0.0008398727706628519,0.0009913840473522973,0.0006319811885107625,0.0005313544673370276,0.002140025498745302,0.2927129566669464,-23.61355972290039,19.529525756835938,17.94654083251953,0.9035135507583618,2.3540542125701904,-0.12080229818820953,0,0,0,0.000,0,0
1739401292.921815,-0.7071972836572801,0.6744021224687605,1.418126459039933,-1.8795384059966358,-0.7083449231790728,1.9495544493282373,0.1856020534747976,-0.0006214797358945032,0.0023820650487797975,-0.0009448835139804262,0.0006414796584640346,0.00015037948919145857,-0.00046300434916675073,0.0013739036283300556,0.2689092457294464,-23.66513442993164,19.553329467773438,17.94654083251953,0.8961893320083618,2.3604629039764404,-0.12080229818820953,0,0,0,0.000,0,0
1739401292.9327662,-0.7071952856778986,0.6743964140676421,1.4181312708147251,-1.879534831447476,-0.708345776150021,1.9495544493282373,0.18560611520200326,0.0011628073903007861,-0.0010857744084947687,0.001167449524027675,0.0016014535375061052,6.966265371347273e-05,0.0002142611505370427,0.0011563557559473366,0.2411382496356964,-23.58578872680664,19.529525756835938,17.89893341064453,0.9035135507583618,2.3604629039764404,-0.12721098959445953,0,0,0,0.000,0,0
1739401292.9437995,-0.7071954027088759,0.6743982039901903,1.4181305287934762,-1.8795374169859345,-0.7083472914699589,1.949553389690108,0.185600036388901,-9.93928159788741e-07,0.00044998096507099463,0.00037194797584793655,-0.0003830866852175436,-0.0012233019637950906,-5.6932419242866e-05,-0.002225205806257713,0.2411382496356964,-23.61355972290039,19.529525756835938,17.94654083251953,0.9163309335708618,2.3604629039764404,-0.07411040365695953,0,0,0,0.000,0,0
1739401292.9546907,-0.7071936537692977,0.6743995863285372,1.4181333930356868,-1.8795384304706884,-0.7083465343004537,1.9495544493222559,0.1856028116164098,0.00040620531835894894,-0.00045297168526242833,0.0014764800351451948,0.0006354244873130379,0.00044936211266918596,0.0002702616675726485,0.0001745718949578243,0.2173345386981964,-23.61355972290039,19.501754760742188,17.94654083251953,0.9099222421646118,2.3604629039764404,-0.12721098959445953,0,0,0,0.000,0,0
1739401292.9647005,-0.7071972832870108,0.674395635146103,1.4181310426852907,-1.8795420957928524,-0.7083456299234743,1.9495529340080806,0.1856051460103093,-0.0004042159682308721,-0.0011923868944539932,7.212689287055445e-05,2.7727100977790325e-06,0.0001868880675335687,-0.0005294828578404575,0.001751092523406939,0.2689092457294464,-23.58578872680664,19.501754760742188,17.99811553955078,0.8961893320083618,2.3732802867889404,-0.14735259115695953,0,0,0,0.000,0,0
1739401292.974709,-0.7071973642302193,0.6743939215223189,1.4181333933632838,-1.87953948793202,-0.7083444263377359,1.9495544493282373,0.1856063770605867,0.000516540078161533,-0.0018834197553850504,0.0014446571966543248,0.0005925194385332596,0.0002742940007647029,-0.0008403222798866305,0.002537867088100617,0.2689092457294464,-23.56198501586914,19.501754760742188,17.97431182861328,0.9099222421646118,2.3604629039764404,-0.14735259115695953,0,0,0,0.000,0,0
1739401292.984769,-0.707195528513001,0.6743991114641725,1.418133346417081,-1.8795397382193977,-0.708348133611924,1.9495548537756058,0.1856039285980205,0.0007005364801225511,0.0009490330953954886,0.0008554234681134526,0.00037133806445191806,0.0011262409836393095,-0.0004943340145944438,0.0001768763389016991,0.2411382496356964,-23.63736343383789,19.501754760742188,17.97431182861328,0.8961893320083618,2.3540542125701904,-0.13361968100070953,0,0,0,0.000,0,0
1739401292.9957616,-0.7071952854571948,0.6744002840186897,1.4181351732458356,-1.8795356647953396,-0.7083457767130794,1.9495556109491738,0.18560450243718407,0.00048388268266551194,0.0010869089098608582,0.0008189585902260629,0.0005185456712337675,0.00019408416911471498,-0.0001967991733954884,2.598512504898361e-05,0.2411382496356964,-23.61355972290039,19.477951049804688,17.92273712158203,0.9035135507583618,2.3476455211639404,-0.14094389975070953,0,0,0,0.000,0,0
1739401293.0067666,-0.7071974709594645,0.6743974241001707,1.4181342322176556,-1.8795388763541985,-0.7083464599733371,1.9495559641618807,0.18559799601983684,-0.0005189122979183111,0.00031996020299254735,-5.7723505700379713e-05,-0.0008623959680486323,4.068773524945428e-05,0.0008508525093589203,-0.0014667895735776628,0.2411382496356964,-23.61355972290039,19.477951049804688,17.92273712158203,0.8961893320083618,2.3476455211639404,-0.08692778646945953,0,0,0,0.000,0,0
1739401293.0167773,-0.7072027103022323,0.6743973980839413,1.4181333996979397,-1.8795320638829658,-0.708346340790289,1.9495552069883075,0.1856020539362595,-0.0016485193536379438,0.00019760012344676185,-4.7496244027522264e-05,0.0020155435849698246,-0.0005225760597851551,0.0005861259042974217,1.7562501024991398e-05,0.3442876636981964,-23.61355972290039,19.501754760742188,17.87512969970703,0.8961893320083618,2.3540542125701904,-0.12080229818820953,0,0,0,0.000,0,0
1739401293.0277717,-0.7071953123263363,0.6743995041142815,1.4181334285067786,-1.8795363730726442,-0.7083458158943075,1.9495544493282373,0.18560521279464587,-0.00011991082609216304,0.0005746650763849314,0.000589236889449821,0.00094924871746542,0.00045848258837856155,7.460716466231454e-05,0.00016205210819244788,0.2411382496356964,-23.61355972290039,19.501754760742188,17.92273712158203,0.9035135507583618,2.3604629039764404,-0.12080229818820953,0,0,0,0.000,0,0
1739401293.037802,-0.707197283286097,0.6743974009011001,1.4181330359823412,-1.8795374079147429,-0.708343315650309,1.9495547360380359,0.18560778121187965,-0.0004419336994638955,0.0007045328106242673,0.00042103396547274376,0.0006526496737643296,0.0017308053729780636,-0.00035711896871173975,0.0011324687537226509,0.2689092457294464,-23.61355972290039,19.477951049804688,17.94654083251953,0.9099222421646118,2.3540542125701904,-0.13361968100070953,0,0,0,0.000,0,0
1739401293.0487187,-0.7071989958063712,0.6743973979765179,1.4181288510990993,-1.8795345933390417,-0.7083457893771121,1.9495548537191123,0.1856020651109738,-0.0012328652401098843,-1.486286778896301e-05,-0.001663197456755772,0.0007415104760887788,0.00020944620440970538,-0.0007544875154623514,-0.0005320248949377297,0.2927129566669464,-23.61355972290039,19.553329467773438,17.89893341064453,0.9035135507583618,2.3540542125701904,-0.09425200521945953,0,0,0,0.000,0,0
1739401293.058755,-0.7071972922794821,0.6743983339901823,1.4181333224219896,-1.8795356251247197,-0.7083476440913784,1.949552934002098,0.1856008906756547,0.00029830046946398574,0.00024301522650194406,-0.0004332595738582153,0.0006834581652768255,-0.00010327173841163516,-0.0006181155885235155,-0.0007554564590685772,0.2689092457294464,-23.61355972290039,19.501754760742188,17.92273712158203,0.9163309335708618,2.3732802867889404,-0.10706938803195953,0,0,0,0.000,0,0
1739401293.068794,-0.7071952883428867,0.6743991076241529,1.4181331786398426,-1.879535736017887,-0.7083474497160315,1.949553687307508,0.18559724421831358,0.0008960303892626895,0.00030891762556532515,0.00026170551407998983,0.0004973369708225032,0.00024639968372430884,-0.00032426837556129913,-0.0027854357267060393,0.2411382496356964,-23.63736343383789,19.501754760742188,17.92273712158203,0.9099222421646118,2.3668715953826904,-0.08051909506320953,0,0,0,0.000,0,0
1739401293.0797658,-0.7071994687892987,0.6743975060664141,1.418132599763858,-1.879538842551482,-0.7083497529564419,1.9495544493282129,0.1856066739125074,-0.0005633224936164735,-0.0006552264975931951,0.00032332821952647947,0.0007952997647016594,-0.0007900533585564026,-0.00012011720925119248,0.0015752235164709465,0.2689092457294464,-23.58578872680664,19.501754760742188,17.92273712158203,0.9099222421646118,2.3604629039764404,-0.12080229818820953,0,0,0,0.000,0,0
1739401293.0907016,-0.70719750797116,0.6743961021885723,1.4181344167683625,-1.8795395277675027,-0.7083505147539765,1.949555202627665,0.1856038249564575,-0.0008946974648864743,-0.0001996924231488859,0.0006977394271589116,-0.001780064262725931,-0.001861025573193027,-7.633833995223765e-05,0.0012519059874876361,0.2411382496356964,-23.58578872680664,19.477951049804688,17.97431182861328,0.9163309335708618,2.3540542125701904,-0.12721098959445953,0,0,0,0.000,0,0
1739401293.1007366,-0.7071973223085145,0.6744002060215079,1.4181309925564523,-1.8795403869858331,-0.7083472915426625,1.9495552068267854,0.18560353513428812,-0.000548814772688051,8.052431688687628e-05,-0.0008747608820782414,-0.00043227024413897787,0.0010242701867608165,1.240905933891739e-05,0.001413505794865729,0.2689092457294464,-23.61355972290039,19.529525756835938,17.94654083251953,0.9163309335708618,2.3540542125701904,-0.13361968100070953,0,0,0,0.000,0,0
1739401293.1107497,-0.7072002782357358,0.6743993445482073,1.4181331648995577,-1.879539747540265,-0.7083465338098817,1.9495544493282346,0.1856020022568139,-0.0006828476475934329,-7.721494565023171e-05,0.00013546531831104154,0.0008898231521478964,-0.00018559541336528494,0.0005796416623506979,0.0014314408395054378,0.2689092457294464,-23.63736343383789,19.501754760742188,17.97431182861328,0.9099222421646118,2.3604629039764404,-0.12080229818820953,0,0,0,0.000,0,0
1739401293.121805,-0.7071952593951267,0.6743976438606021,1.4181330732184434,-1.8795415583216568,-0.708346551470516,1.9495552065037989,0.18560275861647496,0.00026622309925266734,0.00032225228177213273,0.0008572141180596129,-0.0011919722336225565,2.7687858258603057e-05,0.0005687572809344446,-2.0285603465460477e-05,0.2411382496356964,-23.61355972290039,19.501754760742188,17.99811553955078,0.9099222421646118,2.3540542125701904,-0.12721098959445953,0,0,0,0.000,0,0
1739401293.1328013,-0.7071997243198735,0.6743974082606078,1.4181284523237503,-1.8795360678263362,-0.7083457894679894,1.9495544493282364,0.18559879167738003,-0.0009197281416801219,0.0002015104959220017,-0.0008492694770012948,0.0018061265427417737,0.00045292781759384456,0.0005770976599120129,0.00034569617698690706,0.2927129566669464,-23.61355972290039,19.529525756835938,17.89893341064453,0.9035135507583618,2.3604629039764404,-0.08051909506320953,0,0,0,0.000,0,0
1739401293.1437333,-0.7071994697927101,0.6743974008654906,1.4181304525281562,-1.8795388515700464,-0.7083474503619183,1.9495568261849758,0.18560038163321946,0.0005425995631940549,-0.0008687546579289208,-0.0005887562299602525,-0.0010109742942062832,-0.0010354085655151358,0.0007161205017941552,0.00042357403729767154,0.2689092457294464,-23.61355972290039,19.501754760742188,17.92273712158203,0.9163309335708618,2.3403213024139404,-0.10706938803195953,0,0,0,0.000,0,0
1739401293.154691,-0.7071975621070895,0.6743974759776578,1.4181303610128941,-1.879535662777168,-0.7083464819735418,1.9495520266203528,0.1856004971726356,-0.0007102835822311384,-0.0008033283094654361,6.316415477504656e-05,0.0006365629333398438,3.578057049653479e-06,-0.00016177727044422235,-0.0009513951185653964,0.2689092457294464,-23.61355972290039,19.529525756835938,17.92273712158203,0.9099222421646118,2.3540542125701904,-0.10706938803195953,0,0,0,0.000,0,0
1739401293.1647162,-0.7071975261240998,0.6743976319812426,1.418131203250128,-1.8795376591084976,-0.7083484835619764,1.9495533894747428,0.18560136739471345,-0.00041830562779798894,0.00034762774362540706,0.0006485613451384944,0.0006616022247159204,-0.00047632005234938315,-0.0006627953255733891,-0.00012906146297894596,0.2689092457294464,-23.61355972290039,19.501754760742188,17.94654083251953,0.9163309335708618,2.3604629039764404,-0.08692778646945953,0,0,0,0.000,0,0
1739401293.1757512,-0.7071953113647073,0.6743953740365892,1.4181282230627525,-1.8795404023623565,-0.7083508253510337,1.949553691662176,0.18560041696340754,-0.0005767498834665313,-0.0019141480321958702,-0.0008592357983823714,-0.00013757690909964898,-0.001454780780914282,-0.000382704321293965,-0.0002647705534054603,0.2411382496356964,-23.58578872680664,19.529525756835938,17.94654083251953,0.9099222421646118,2.3668715953826904,-0.10706938803195953,0,0,0,0.000,0,0
1739401293.185762,-0.7071972832860807,0.6743991374601493,1.4181305408310745,-1.879533842937913,-0.7083457762224797,1.9495552069883155,0.18560326298558175,0.00019428825695563362,-0.00048533600754313696,-0.0006390066844484863,0.002568502423425603,0.0004645489614975875,0.0004874170039570032,0.002347049148798873,0.2689092457294464,-23.63736343383789,19.501754760742188,17.89893341064453,0.9035135507583618,2.3540542125701904,-0.09425200521945953,0,0,0,0.000,0,0
1739401293.195803,-0.70719728328564,0.6743956344675149,1.4181323514202886,-1.8795358737175554,-0.7083473313699142,1.9495552055347654,0.18560628395102413,-0.0004063290873353381,0.0006315371402799504,-6.823905175295245e-05,-0.00037381575859056206,0.00023344096327885015,-0.00020259465065148755,0.0014953477128336293,0.2689092457294464,-23.58578872680664,19.477951049804688,17.92273712158203,0.9163309335708618,2.3540542125701904,-0.12080229818820953,0,0,0,0.000,0,0
1739401293.2067626,-0.7071972836187452,0.6743936888028567,1.4181351849716108,-1.8795339646504687,-0.7083507076074101,1.9495559646483696,0.18559962029906338,-0.0004416327188007276,-0.0009569176219707514,0.00042757449072069017,0.001353644498920699,-0.0016276322067573137,0.00031276729504315043,-0.0021238633159227456,0.2689092457294464,-23.56198501586914,19.477951049804688,17.89893341064453,0.9099222421646118,2.3476455211639404,-0.10066069662570953,0,0,0,0.000,0,0
1739401293.2187564,-0.707197286283588,0.6743974066432972,1.4181352110627867,-1.8795377741341603,-0.7083497964406902,1.9495544493282373,0.18559852451791492,2.7053164021954357e-05,0.0002020043895516668,0.0003214570306219608,0.0010472765243342255,-0.0010698069445835524,1.6004799349696743e-05,-0.0020026111288439412,0.2689092457294464,-23.61355972290039,19.477951049804688,17.94654083251953,0.9099222421646118,2.3604629039764404,-0.08692778646945953,0,0,0,0.000,0,0
1739401293.228791,-0.7071989958063881,0.6743995068962635,1.4181309382483205,-1.8795419631223695,-0.7083465338282982,1.9495552069883155,0.1856043380701156,-0.0006251247172226755,-0.00023471533399033282,-0.000953614328592405,0.0001413037492043538,0.0004504209694407266,0.0007485359865981572,-0.00035331840130325254,0.2927129566669464,-23.61355972290039,19.501754760742188,17.97431182861328,0.9099222421646118,2.3540542125701904,-0.11347807943820953,0,0,0,0.000,0,0
1739401293.2396975,-0.7071982023475901,0.6744018133729921,1.4181302889277527,-1.8795385097673871,-0.708347608819304,1.9495548537756058,0.18560277752243537,-0.0005259564031914193,0.0010119856156209112,-0.0007519975544153428,0.00090020977823194,-0.00030514213325557725,-0.00035659140178651597,-2.6964770599098836e-05,0.2411382496356964,-23.66513442993164,19.529525756835938,17.94654083251953,0.9099222421646118,2.3540542125701904,-0.12721098959445953,0,0,0,0.000,0,0
