IITGN-Robotics/Franka_IITGN_ROBOTICS/franka_ros/franka_iitgn/data/b_21.csv
time,fr3_joint1_pos,fr3_joint2_pos,fr3_joint3_pos,fr3_joint4_pos,fr3_joint5_pos,fr3_joint6_pos,fr3_joint7_pos,fr3_joint1_vel,fr3_joint2_vel,fr3_joint3_vel,fr3_joint4_vel,fr3_joint5_vel,fr3_joint6_vel,fr3_joint7_vel,fr3_joint1_eff,fr3_joint2_eff,fr3_joint3_eff,fr3_joint4_eff,fr3_joint5_eff,fr3_joint6_eff,fr3_joint7_eff,flexpin1,flexpin2,flexpin3,Force,ContactMic,ContactMic_gt
1739401319.0343466,-0.7071211487654875,0.6740866426123823,1.4180552842803285,-1.8795590374135929,-0.7080641708042911,1.9497122195979355,0.18543283223972978,0.00010833321265015493,0.0005350237012942454,-0.0014238432922750526,-0.0006019809834894652,-0.0012005071495684323,-0.0007200654598674037,0.002423264222560567,0.2173345386981964,-23.51041030883789,19.426376342773438,17.97431182861328,0.9035135507583618,2.3540542125701904,-0.11347807943820953,,,,,,,,,
1739401319.044355,-0.7071178746452171,0.6741087928967914,1.4180412351144758,-1.8795635988428314,-0.7080662151508887,1.9497002630719225,0.18543865427556644,0.0009795975435766295,0.002413593606761475,-0.0013464634413041516,-0.0006968272362371672,-0.0005717299463204419,-0.0019255722567087128,0.001787891724390138,0.1419561207294464,-23.48660659790039,19.402572631835938,17.99811553955078,0.8897806406021118,2.3476455211639404,-0.12080229818820953,,,,,,,,,
1739401319.0544145,-0.7071215422755233,0.674121844591217,1.4180277819943323,-1.8795618956534237,-0.7080707465794821,1.9496954401802762,0.18544182937655931,0.0003690948554806668,0.002270859134570487,-0.00039647083108137484,0.001353827114027881,-0.0003392702402965853,-0.00014284553590590733,0.0004231457572620471,0.1935308277606964,-23.48660659790039,19.350997924804688,17.97431182861328,0.8897806406021118,2.3476455211639404,-0.10706938803195953,,,,,,,,,
1739401319.0653207,-0.7071257267235864,0.6741417427428453,1.4180145422699426,-1.8795601402973292,-0.7080655166037307,1.9496909953854062,0.18544574704424102,-0.0010683020838197154,0.003119883604859209,-0.0014726990320071494,-8.932584108987441e-05,0.0008051552756485672,-5.322714768747584e-05,0.000998640376716629,0.2411382496356964,-23.58578872680664,19.426376342773438,17.94654083251953,0.8833719491958618,2.3403213024139404,-0.10706938803195953,,,,,,,,,
1739401319.0763931,-0.7071253687189462,0.6741489556493989,1.4180012626172298,-1.8795647603861405,-0.708066614153301,1.949690075099446,0.18544823477408745,-0.00013651479941352262,0.00026107291250145926,-0.001379200451914794,-0.0011554749781654847,-0.0003333128260558136,0.0014699341527447825,0.0005370490992963273,0.2411382496356964,-23.53818130493164,19.477951049804688,17.97431182861328,0.8897806406021118,2.3476455211639404,-0.12080229818820953,,,,,,,,,
1739401319.0874288,-0.7071319444167544,0.6741678615994066,1.4179877067703308,-1.8795569238908947,-0.7080702069528583,1.949685313268533,0.18544774234118677,-0.0008428679883264573,0.0013534455796576153,-0.001415857976171089,0.00014649735455976988,-0.0009319916867524863,-0.0002146029272842315,0.0003702958934557314,0.2927129566669464,-23.63736343383789,19.529525756835938,17.92273712158203,0.8833719491958618,2.3476455211639404,-0.11347807943820953,,,,,,,,,
1739401319.098327,-0.7071322901773511,0.6741783566923191,1.4179704017219208,-1.8795598220726166,-0.7080753868794374,1.9496845510055825,0.18544229678968016,0.000521733582274331,0.0012098765049647952,-0.002435283671933253,0.0005943847697011733,-0.002308939150103449,8.477060657946129e-05,-0.0008468103476001469,0.2927129566669464,-23.68893814086914,19.604904174804688,17.94654083251953,0.8961893320083618,2.3540542125701904,-0.05396880581974983,,,,,,,,,
1739401319.1084268,-0.7071368111690667,0.674187872823649,1.4179618586840712,-1.8795641511287584,-0.7080693970102163,1.9496822746337041,0.18545399097927767,0.0008966100635910533,-8.853119017794575e-05,0.00014146193255092,-0.000980545309393069,0.0011070197026114173,-4.4763922179399214e-05,7.048738497500949e-06,0.3165166676044464,-23.71670913696289,19.577133178710938,17.97431182861328,0.8769632577896118,2.3732802867889404,-0.12721098959445953,,,,,,,,,
1739401319.11933,-0.7071419128007671,0.6741955309618293,1.4179484153836068,-1.8795621386648014,-0.7080753826820159,1.9496795016202157,0.18545414917245595,-0.00027025240904849697,0.0014891394034423548,-0.0002970563997097301,0.000671607966516272,-0.00020790160716693302,-0.00025645183804007027,0.00021859498390865509,0.3442876636981964,-23.74051284790039,19.628707885742188,17.97431182861328,0.8961893320083618,2.3668715953826904,-0.12721098959445953,,,,,,,,,
1739401319.130417,-0.7071439796769209,0.6741961216963575,1.4179465909718276,-1.8795587510641383,-0.7080717416558906,1.9496799522357615,0.18545252610358318,-0.0012320886506733725,-0.00027861624305297947,0.0017602752262836088,0.0010806454654905197,-0.0007691527758997705,-0.0004708327727341709,-0.0001939991612198306,0.3680913746356964,-23.71670913696289,19.577133178710938,17.92273712158203,0.8961893320083618,2.3540542125701904,-0.11347807943820953,,,,,,,,,
1739401319.142318,-0.7071442667349978,0.6741934961376073,1.417947296382912,-1.879565037614043,-0.7080740991336155,1.949679781180736,0.1854478452136295,-0.0012262510730077394,-0.0009449291946754223,0.0014728924604090518,-0.0012845235762746583,0.0012096414036944702,-0.0009834521205490192,-0.000717148901816694,0.3442876636981964,-23.66513442993164,19.553329467773438,17.97431182861328,0.8769632577896118,2.3540542125701904,-0.07411040365695953,,,,,,,,,
1739401319.1524298,-0.7071404997314222,0.674198710879996,1.4179482146975924,-1.8795628794707857,-0.7080758075789151,1.9496797806959045,0.18545639443233064,0.0010869861021179181,0.0005287618525569486,0.0010659926257790384,-0.000663552472948477,0.0002894423131687044,-0.00024067557624449587,0.0026342982716534465,0.2927129566669464,-23.66513442993164,19.553329467773438,17.97431182861328,0.9035135507583618,2.3540542125701904,-0.10706938803195953,,,,,,,,,
1739401319.1644208,-0.7071397174611654,0.6741939387393387,1.4179511470393917,-1.8795619688412135,-0.7080711015133285,1.9496799420399737,0.1854587696638715,-0.0014675604118920174,-0.00014910275412198168,-2.8268996103704777e-05,0.00015080506818045098,0.0019563985836511233,0.0001345977395416442,0.0008684742959435669,0.2689092457294464,-23.61355972290039,19.501754760742188,17.94654083251953,0.8897806406021118,2.3540542125701904,-0.12721098959445953,,,,,,,,,
1739401319.17536,-0.7071360742276281,0.6741894184516636,1.417956803955248,-1.8795650377701885,-0.7080749949726999,1.9496805383568858,0.18545771530490807,0.001172422514830739,-0.0010275909567314685,0.0007975001577363973,-0.0011009413068555041,-0.0014629086575318714,0.0003583627520435991,0.0019756654937373754,0.2173345386981964,-23.56198501586914,19.426376342773438,17.97431182861328,0.8833719491958618,2.3476455211639404,-0.12080229818820953,,,,,,,,,
1739401319.1873567,-0.7071377466672403,0.6741896857706028,1.4179568129309872,-1.8795602177102957,-0.7080716171298785,1.9496797806958965,0.18545259002197625,0.000879748450082827,0.0003641938840438109,0.00041691101088143085,0.0007335606113015366,-0.0007835110797970282,-2.159858711468374e-05,0.00016039043184526005,0.2411382496356964,-23.53818130493164,19.426376342773438,17.92273712158203,0.8833719491958618,2.3540542125701904,-0.10066069662570953,,,,,,,,,
1739401319.197389,-0.7071377466659635,0.6741875882521835,1.4179582395477084,-1.8795563334002352,-0.7080719301188605,1.9496805776018316,0.18545892827849453,-6.120892833082073e-05,-0.0010268779811396986,0.0010627569522534083,0.0009037846755515144,0.00040409146893959145,0.0004143882939372256,0.0014202553148023648,0.2411382496356964,-23.51041030883789,19.450180053710938,17.89893341064453,0.8705545663833618,2.3476455211639404,-0.12721098959445953,,,,,,,,,
1739401319.20832,-0.707137110775271,0.6741896814942429,1.4179656677379124,-1.8795562463805762,-0.7080744609253417,1.9496790230538372,0.18545650476205794,3.737820056190798e-05,4.5046350736866934e-05,0.0007341954209069985,0.001558750802641707,0.0002807873532589581,-0.0005851944675465713,0.002239306606753974,0.2411382496356964,-23.53818130493164,19.350997924804688,17.89893341064453,0.8833719491958618,2.3604629039764404,-0.13361968100070953,,,,,,,,,
1739401319.2183444,-0.7071378254739568,0.6741909052036444,1.4179589551848506,-1.879560058535058,-0.7080761514285097,1.9496805383559752,0.18545540442195071,-0.0007128013751308377,0.0005482516571646177,-0.0025259055867366664,0.0003551728010017583,-3.2684757516804845e-05,-0.00013497400844210124,0.0002537683942099076,0.2411382496356964,-23.58578872680664,19.450180053710938,17.94654083251953,0.8961893320083618,2.3476455211639404,-0.09425200521945953,,,,,,,,,
1739401319.2293944,-0.7071384365061274,0.6741912901521872,1.4179590357882494,-1.8795598191368093,-0.7080774113455074,1.9496766017815084,0.18546051264043426,0.0006524839014843364,0.0003232172125796633,-0.0006782797449489426,0.00024482590995914726,0.00021178396361197936,-0.0006217335739901169,0.0018273526771727272,0.2927129566669464,-23.56198501586914,19.450180053710938,17.94654083251953,0.8769632577896118,2.3540542125701904,-0.11347807943820953,,,,,,,,,
1739401319.241395,-0.7071366450037827,0.674189184989225,1.4179582399336061,-1.8795582869778236,-0.7080714437537599,1.949680499038338,0.18545028828485943,0.0015444731820098328,0.0001954087782821955,-0.0003662418288110065,0.0005035842835511741,0.0005638282787085563,0.00023349223263153076,-0.001348649763415647,0.2689092457294464,-23.56198501586914,19.450180053710938,17.92273712158203,0.8897806406021118,2.3476455211639404,-0.05396880581974983,,,,,,,,,
1739401319.2524242,-0.7071398244139825,0.6741956222476875,1.417950125414218,-1.8795587900156963,-0.7080732899159271,1.949677963397615,0.1854557486186537,-0.0002930153736177704,0.00179617187407041,-0.0011760969332892312,-0.00041424296578521753,0.0006181784347469687,-0.0003008913640449304,-0.0009110036115687186,0.2689092457294464,-23.63736343383789,19.529525756835938,17.92273712158203,0.8961893320083618,2.3604629039764404,-0.12721098959445953,,,,,,,,,
1739401319.2624252,-0.7071393617272034,0.6741937088375586,1.4179497985466578,-1.8795608641781687,-0.7080734798422913,1.949679023017873,0.1854518036409154,-5.1995986161657874e-05,0.00016025436362107192,-0.00039189396597953056,0.00017306504914283794,-0.00048644037648880496,0.00020782832501048474,-0.0011849417263706378,0.2927129566669464,-23.58578872680664,19.529525756835938,17.94654083251953,0.8705545663833618,2.3604629039764404,-0.06678618490695953,,,,,,,,,
1739401319.2734182,-0.7071415369165286,0.6741975305751712,1.4179490800067736,-1.879563684551671,-0.7080765105371458,1.949679023035818,0.1854581911452673,-0.0009399703760134868,0.0003134101453537588,-7.220331671299498e-05,-0.00093100177672489,-8.914551070612328e-05,-0.00021640924064428627,-0.00017941407075861612,0.2927129566669464,-23.63736343383789,19.529525756835938,17.99811553955078,0.8961893320083618,2.3604629039764404,-0.12080229818820953,,,,,,,,,
1739401319.285332,-0.7071398204834908,0.6741967505643985,1.4179465809434595,-1.8795640489441763,-0.708078173913345,1.9496758441214301,0.1854607723311162,0.0002911064827521397,-0.0009042275803313233,0.0004956953657225453,-0.0007615242724986908,-0.0009533548515618655,-0.0006029126394278202,0.0029494713983265006,0.2689092457294464,-23.63736343383789,19.553329467773438,17.97431182861328,0.8833719491958618,2.3604629039764404,-0.13361968100070953,,,,,,,,,
1739401319.2955258,-0.7071375879396059,0.674197766001449,1.4179459791399336,-1.8795619107475459,-0.7080757117406974,1.949679022964038,0.18545767905641591,-0.0005402529759420945,-0.001031569620477862,0.0003871417808942808,0.0006538723147979954,-0.00037461431242709857,0.000796651496336764,0.0015789146658811428,0.2411382496356964,-23.63736343383789,19.529525756835938,17.97431182861328,0.8897806406021118,2.3604629039764404,-0.08051909506320953,,,,,,,,,
1739401319.3064406,-0.7071405831441285,0.6742012902706989,1.417947269836094,-1.8795658669788553,-0.7080742433708799,1.949676601781508,0.18545975500236134,-0.0007487622415428613,0.0015984231573603304,0.00038654242691580357,-0.0007519836466662401,0.00031012711978868136,-0.00030762647720281174,0.0012880834542661102,0.2927129566669464,-23.71670913696289,19.553329467773438,17.99811553955078,0.8769632577896118,2.3540542125701904,-0.10706938803195953,,,,,,,,,
1739401319.3173494,-0.7071371372064821,0.6741977659948517,1.4179490790214158,-1.8795605367588921,-0.7080807490896964,1.9496797806779513,0.18545346669290153,0.00013373398898631128,-0.0008407430435965538,0.00038950012560239956,0.0008447141036724945,-0.0020307907803595727,0.000592892313011839,-0.000515352342584438,0.2411382496356964,-23.63736343383789,19.529525756835938,17.92273712158203,0.8961893320083618,2.3540542125701904,-0.08051909506320953,,,,,,,,,
1739401319.327389,-0.7071378511477356,0.6741963684889576,1.41795501822584,-1.8795650779910604,-0.7080775702470559,1.9496790230358179,0.1854531420149858,0.0008269331256949919,-0.0008003705728286674,0.0018696068889198568,4.358700411373105e-05,-0.0012878640999470625,0.000594133299108663,-0.0014346561849119851,0.2411382496356964,-23.61355972290039,19.450180053710938,17.97431182861328,0.8961893320083618,2.3604629039764404,-0.07411040365695953,,,,,,,,,
1739401319.3383183,-0.7071378254862164,0.6741970639986987,1.4179557375151621,-1.8795643925087062,-0.7080761067417821,1.949680538355975,0.18546021548694175,0.0005057967855211819,0.0006719472618344456,0.0018873973307114607,-0.0016016225793088331,-0.00017580300236463793,0.0011073290273485741,0.0004120396177056788,0.2411382496356964,-23.63736343383789,19.450180053710938,17.97431182861328,0.8897806406021118,2.3476455211639404,-0.14094389975070953,,,,,,,,,
1739401319.3483994,-0.7071395859894808,0.674192235159549,1.4179585954747809,-1.8795642875139842,-0.7080749908078234,1.949680533995324,0.18545661609487332,-0.0008746955786863428,-0.0008107195843980498,0.0014615357581027931,-0.0011447394616048183,-0.0002134740485436724,0.0011296919523321426,-0.002490034481187844,0.2689092457294464,-23.56198501586914,19.402572631835938,17.97431182861328,0.8833719491958618,2.3476455211639404,-0.08051909506320953,,,,,,,,,
1739401319.359316,-0.7071414574546021,0.6741885244727436,1.4179578823012946,-1.8795582761986966,-0.7080746848386045,1.949679728368063,0.18546482709483697,-0.0008859288838388129,-0.0007416795127206611,-0.0007932532086204381,0.0015771542419272034,0.00041184746151653854,-2.17048402573594e-05,0.003521523182292055,0.2927129566669464,-23.53818130493164,19.450180053710938,17.92273712158203,0.8897806406021118,2.3540542125701904,-0.14094389975070953,,,,,,,,,
1739401319.3694363,-0.7071378235224384,0.6741940554029338,1.417958239923057,-1.8795598191395178,-0.7080765105190588,1.9496794782324425,0.185454590892625,0.0007328198695090646,0.002160171713695776,0.0005759582704903725,0.0005784733964331161,-0.001262383565144918,-0.0010059594174366864,-0.0016580036321008405,0.2411382496356964,-23.58578872680664,19.450180053710938,17.94654083251953,0.8961893320083618,2.3476455211639404,-0.06037749722599983,,,,,,,,,
1739401319.3804092,-0.7071398127413003,0.6741906305041337,1.4179551139966318,-1.879558154305025,-0.7080749952169894,1.9496801454069073,0.18545544618882417,0.0001471030369634086,-0.0001582803882648586,-0.0009605734710812782,-0.0001434319836158557,0.0006126098987365497,-0.00025651399038055517,-0.000652336981789994,0.2689092457294464,-23.53818130493164,19.450180053710938,17.92273712158203,0.8833719491958618,2.3476455211639404,-0.09425200521945953,,,,,,,,,
1739401319.3913465,-0.7071398243716719,0.6741906301831423,1.4179572819491777,-1.8795598191361231,-0.7080771662124238,1.9496797806936783,0.18545499859419765,-0.0005746479508054541,-0.00023948256736364354,-0.0011973564804397562,-0.0004772745223396818,-0.0003009979131347523,-0.00023747984637234067,-0.0023856642573326678,0.2689092457294464,-23.53818130493164,19.450180053710938,17.94654083251953,0.8897806406021118,2.3540542125701904,-0.06678618490695953,,,,,,,,,
1739401319.401415,-0.7071378264672229,0.6741923170244803,1.4179561601230344,-1.8795641331047188,-0.7080757524104296,1.9496766017815084,0.18545804654382958,0.0012285744991045846,0.000414650443138969,0.0002526878765731456,-0.001610515637895954,0.0009280221675904997,-0.00034971592833726156,-0.0005712033285268837,0.2411382496356964,-23.56198501586914,19.477951049804688,17.97431182861328,0.8897806406021118,2.3540542125701904,-0.08051909506320953,,,,,,,,,
1739401319.412908,-0.7071378264308847,0.6741953427385906,1.4179515164392893,-1.8795623181279915,-0.7080774165251318,1.949679022964038,0.18545658370705484,0.0010501804373169161,-3.744294753025036e-05,-0.00021347796775740845,-7.578966398522096e-05,-0.0007616162268415166,-0.00046973040725747597,-0.001222776587319359,0.2411382496356964,-23.61355972290039,19.501754760742188,17.94654083251953,0.8769632577896118,2.3604629039764404,-0.10706938803195953,,,,,,,,,
1739401319.4233744,-0.7071378264672233,0.67419765791324,1.4179521247339169,-1.879562680608579,-0.7080755054849064,1.949679780695896,0.18545637460569028,0.000848050170542818,-0.00015844943270903978,-0.000260078153156416,-0.0005913113960214656,-0.0004336141225193995,0.001091380683718503,0.00046067055410636175,0.2411382496356964,-23.66513442993164,19.501754760742188,17.94654083251953,0.8833719491958618,2.3540542125701904,-0.07411040365695953,,,,,,,,,
1739401319.4343529,-0.7071356424353014,0.6742017189453967,1.417947299620487,-1.8795659423251831,-0.7080742380443084,1.9496797806958965,0.18546057697386312,0.001233807926888875,0.0013537459499082282,-0.0003437798735528632,-0.0012945451064401252,0.0009267410912980583,-0.00037034249421983824,0.001823262824371132,0.2411382496356964,-23.68893814086914,19.553329467773438,17.99811553955078,0.8769632577896118,2.3540542125701904,-0.14094389975070953,,,,,,,,,
1739401319.4443805,-0.7071378263212205,0.6741998434250004,1.4179472963446018,-1.8795651162517133,-0.708076054855127,1.9496793751553778,0.18545505518408817,0.00023140494298322625,0.00010743201312739191,-0.00044706273529835424,-0.00044940436022654015,0.0011689356657715818,5.202572848508492e-05,-0.0020900265736171863,0.2411382496356964,-23.66513442993164,19.553329467773438,17.97431182861328,0.8833719491958618,2.3540542125701904,-0.09425200521945953,,,,,,,,,
1739401319.455357,-0.7071398244080757,0.6742015029601675,1.417945433213521,-1.8795648661846085,-0.70807772965307,1.949679023033529,0.1854624429432863,1.0101883444128931e-06,0.00012597058311221844,-0.0015483600855037286,0.00017066199516252933,0.00013916583980532572,-0.0006951653272088535,0.0011146239156999476,0.2689092457294464,-23.68893814086914,19.577133178710938,17.97431182861328,0.9035135507583618,2.3604629039764404,-0.12080229818820953,,,,,,,,,
1739401319.465423,-0.7071337641711638,0.6741977689519664,1.4179490021610086,-1.8795647515297271,-0.7080744076402353,1.9496766017815081,0.18545810754982028,0.0013075326348408348,-0.0009959306715490448,0.00034947206283429173,-0.0002927800210241453,0.00016465541732876637,-0.00025411632599181024,0.000854391913218553,0.1935308277606964,-23.63736343383789,19.529525756835938,17.99811553955078,0.8769632577896118,2.3540542125701904,-0.10706938803195953,,,,,,,,,
1739401319.476357,-0.7071378264660244,0.6741988632556299,1.4179407727474167,-1.8795668962760697,-0.7080757533619046,1.9496765436155716,0.18546138437094134,-0.0004973965406927504,-0.00035334680260018655,-0.0025813806430894227,0.00011591003481795906,-0.001479190047382573,-0.00012099883518854764,-0.00037776912920765827,0.2411382496356964,-23.66513442993164,19.628707885742188,17.99811553955078,0.8897806406021118,2.3540542125701904,-0.12080229818820953,,,,,,,,,
1739401319.4863575,-0.7071405919212846,0.6741977659919279,1.4179519877992468,-1.8795620801873063,-0.7080789317914641,1.949674328746453,0.1854590558580976,-0.0003003221206267887,-0.000995279847455426,0.0011519056395256507,0.0006573689329130214,-0.0009406172157498536,-0.0018374003037869954,-0.0016926571241120893,0.2927129566669464,-23.63736343383789,19.477951049804688,17.94654083251953,0.8897806406021118,2.3732802867889404,-0.10066069662570953,,,,,,,,,
1739401319.4963844,-0.7071436390190003,0.6741939477827166,1.417955021371161,-1.879558999437429,-0.7080789449272433,1.9496805383021387,0.18545791511046572,0.0005294840688343387,-0.0005938012933509804,0.0005367375511628502,0.0014703948242872978,-0.0006529667869555606,0.0011052456872644066,-0.001980407495354967,0.2927129566669464,-23.61355972290039,19.450180053710938,17.92273712158203,0.8897806406021118,2.3476455211639404,-0.08051909506320953,,,,,,,,,
1739401319.507332,-0.707141216105796,0.6741984855026663,1.4179532593072017,-1.879560208867395,-0.7080749953965143,1.9496779589832025,0.18545738885326157,-8.944949342939426e-07,0.0013015552999925857,0.00010687474055612415,0.0007462786611946278,0.00044020830565008606,-3.653404406528312e-05,-0.0002493200382550235,0.2927129566669464,-23.63736343383789,19.477951049804688,17.92273712158203,0.8833719491958618,2.3604629039764404,-0.08692778646945953,,,,,,,,,
1739401319.5174086,-0.7071378176314725,0.6741940555577818,1.4179550211746617,-1.8795591237804927,-0.7080799914295882,1.9496809332849077,0.1854639743566958,0.0006228493808944412,0.0002205434482201142,9.355988084686859e-05,-0.00014692455280888796,-0.0012221986962795178,-0.00021162857991021517,0.0002617533597621014,0.2411382496356964,-23.58578872680664,19.450180053710938,17.89893341064453,0.8897806406021118,2.3403213024139404,-0.13361968100070953,,,,,,,,,
1739401319.5274239,-0.7071378351335679,0.6741940555455976,1.4179559749526067,-1.8795572118531816,-0.7080742440709696,1.9496791249966914,0.18546372476151624,0.00044891791809870704,0.0006525334160008016,-0.0005561767623881701,1.0721528779736571e-05,0.0011312986466171624,-0.0001319388239655664,0.0014138044433180431,0.2411382496356964,-23.58578872680664,19.450180053710938,17.89893341064453,0.8769632577896118,2.3476455211639404,-0.12721098959445953,,,,,,,,,
1739401319.538419,-0.707139833110552,0.6741942939641762,1.4179553374861211,-1.8795562571990654,-0.708079290818379,1.9496779458806461,0.18546266556435334,-0.00018992119755180568,-0.0001622099665559778,-0.0014961243238037591,0.0012327678273258125,-5.8258608828420916e-05,-0.00033434233717302513,0.000602940517325644,0.2689092457294464,-23.58578872680664,19.477951049804688,17.89893341064453,0.8897806406021118,2.3604629039764404,-0.12721098959445953,,,,,,,,,
1739401319.5500302,-0.7071361139465414,0.6741921091681465,1.4179576351452092,-1.8795604247141897,-0.7080754207667832,1.9496794787117648,0.185462308271664,0.0009150572309839549,-0.00040501913344048133,-0.00022622780065462134,-0.0006179072957370326,0.0008973803524617518,0.0004429515978517095,0.0005209968332650619,0.2173345386981964,-23.56198501586914,19.426376342773438,17.92273712158203,0.8769632577896118,2.3476455211639404,-0.12721098959445953,,,,,,,,,
1739401319.5603719,-0.7071415369288078,0.6741989145080792,1.417954047420178,-1.8795565727038255,-0.708074237725096,1.9496814042472255,0.1854565694626891,-0.0013443004146891735,0.0015963940445377694,-0.000312777421812201,0.0003905292609362332,0.0012092412870211599,-0.001272107155066868,-0.001286776357058653,0.2927129566669464,-23.61355972290039,19.501754760742188,17.89893341064453,0.8769632577896118,2.3403213024139404,-0.06678618490695953,,,,,,,,,
1739401319.5713394,-0.7071378261401747,0.674197033346878,1.4179530476139142,-1.8795629625988448,-0.7080789187074857,1.9496766017815084,0.1854599321365107,0.0006331210376620718,0.0009378819792079131,-0.0014709841976194512,-0.0015082562787422874,0.0005158044544635751,0.0002686381183111577,-0.0006808115707194118,0.2411382496356964,-23.61355972290039,19.477951049804688,17.97431182861328,0.8897806406021118,2.3540542125701904,-0.10706938803195953,,,,,,,,,
1739401319.5813944,-0.707139824408071,0.6741931195485101,1.41795330458043,-1.879562856651245,-0.7080781741849912,1.9496782259145424,0.18545691170857032,-0.0011353850447199253,6.228335796236353e-06,-8.687994055997733e-06,0.0013315439002266724,0.0010723365715023321,0.000955817144249768,-0.0006249537293063083,0.2689092457294464,-23.58578872680664,19.501754760742188,17.97431182861328,0.8833719491958618,2.3668715953826904,-0.08051909506320953,,,,,,,,,
1739401319.5933354,-0.7071408128427527,0.6741953762259945,1.4179511676538514,-1.879570483109706,-0.7080758115215399,1.9496797806418384,0.1854629861163008,-8.383978160466223e-05,-0.001114175090854693,0.0009456958433621012,-0.0012117322418688419,-0.001055422277798316,0.0008211321449207687,0.00048561864200314465,0.2927129566669464,-23.63736343383789,19.501754760742188,18.04572296142578,0.8897806406021118,2.3540542125701904,-0.12080229818820953,,,,,,,,,
1739401319.6054091,-0.7071361139451298,0.6741977659907958,1.4179436719692187,-1.8795639594303255,-0.7080749995777507,1.949678261015089,0.18546068979671262,0.0010403824036059046,-0.0012129498978142896,-0.001688802264533288,-7.660829560706545e-05,0.0017639791082011491,0.0005687425517190326,-0.00033338601611396,0.2173345386981964,-23.63736343383789,19.604904174804688,17.99811553955078,0.8833719491958618,2.3668715953826904,-0.11347807943820953,,,,,,,,,
1739401319.6154265,-0.7071406345082663,0.6742000141403703,1.4179431159875768,-1.8795601386637089,-0.7080799914296099,1.9496731339829465,0.18545658695982886,-0.00033508202177503257,-0.0005714108287142174,0.000191244279937978,0.0003821913045118923,-0.0003173937462327916,-0.0017238726413326098,-0.000534703754363885,0.2411382496356964,-23.66513442993164,19.604904174804688,17.94654083251953,0.8897806406021118,2.3732802867889404,-0.06678618490695953,,,,,,,,,
1739401319.6263742,-0.7071426893011249,0.6742015647733554,1.4179444765939708,-1.879565037759857,-0.7080765242890474,1.9496772284358692,0.1854621070086824,-0.0011498266577134554,0.000910513285145294,0.00023793306174847847,-0.0004182344832252803,0.000289247985242257,-0.0011019275676596308,-0.0004089842672015564,0.2927129566669464,-23.68893814086914,19.577133178710938,17.97431182861328,0.8961893320083618,2.3476455211639404,-0.11347807943820953,,,,,,,,,
1739401319.6363792,-0.707138771058197,0.6741977664447417,1.417946254240473,-1.8795629454481446,-0.7080765497832358,1.9496757200290886,0.1854628548544175,-0.0005229721164819752,-0.0012648514703175976,-0.0009606550567041046,-9.648348373835977e-05,0.0009766958722812775,-0.0019604793960998597,0.0003594624316162636,0.2411382496356964,-23.63736343383789,19.553329467773438,17.94654083251953,0.8961893320083618,2.3604629039764404,-0.12080229818820953,,,,,,,,,
1739401319.6464052,-0.7071415368357882,0.6741970072697903,1.417951048469309,-1.879559362542275,-0.7080749952176542,1.949678361490403,0.18545983408045072,-8.451474124927994e-05,-0.00022644345236104245,0.0013416171866681543,0.0008417104267655507,0.000490804166942343,-0.0014461316550163684,-0.00033273899515328493,0.2927129566669464,-23.61355972290039,19.501754760742188,17.89893341064453,0.8833719491958618,2.3540542125701904,-0.09425200521945953,,,,,,,,,
1739401319.6573174,-0.7071425509436281,0.6741947796370362,1.4179519052518466,-1.8795629629416424,-0.7080757572377187,1.9496777924793816,0.18545821052514008,-0.0012106528003656256,0.00020942882442088887,0.0002180427851597093,-0.00046283402744776565,0.0012423432262162663,-0.0015908255355007628,-0.00073194785608995,0.2927129566669464,-23.58578872680664,19.477951049804688,17.97431182861328,0.8897806406021118,2.3668715953826904,-0.08051909506320953,,,,,,,,,
1739401319.667336,-0.7071419275125918,0.6741943986562823,1.4179526205269968,-1.8795598470616417,-0.7080812263387348,1.9496789883788874,0.18546032594425227,-0.0016015908314588618,-0.0004474443118780778,-0.0003572186904491608,0.001029742419770217,-0.0013218925894892867,0.00021186246946640623,0.0006848548959283182,0.2689092457294464,-23.58578872680664,19.477951049804688,17.94654083251953,0.8961893320083618,2.3476455211639404,-0.10706938803195953,,,,,,,,,
1739401319.677352,-0.7071378265028397,0.6741926609221153,1.4179589484088957,-1.8795609253900256,-0.708074244096997,1.9496786817856613,0.18546063413322125,0.0012163219692634046,-0.0006251853825053423,0.0008524033362666085,-0.0002917331483888163,0.0010652833410927922,0.0006711069762802229,-0.00023413780566783034,0.2411382496356964,-23.56198501586914,19.426376342773438,17.92273712158203,0.8769632577896118,2.3540542125701904,-0.07411040365695953,,,,,,,,,
1739401319.687438,-0.7071396174954985,0.6741923430302494,1.4179593032325826,-1.8795587900278106,-0.7080725910763259,1.9496797281879719,0.18546325808986203,0.001157093577461877,-5.460940960706328e-05,0.0010606520095464648,0.0003128224032278797,-9.678610686821585e-06,0.001267000072725243,0.00012613138233629547,0.2411382496356964,-23.56198501586914,19.402572631835938,17.92273712158203,0.8897806406021118,2.3540542125701904,-0.12721098959445953,,,,,,,,,
1739401319.6983223,-0.7071378265129997,0.6741940565267435,1.4179596777372123,-1.8795645058059145,-0.7080765650334068,1.9496814027455254,0.18546484434775667,0.0008716031243201906,8.732255231124646e-05,0.000877886251405843,7.075180698264127e-05,0.00025186585931805155,0.0006308101125388655,0.0016483367916387986,0.2411382496356964,-23.58578872680664,19.426376342773438,17.99811553955078,0.8833719491958618,2.3403213024139404,-0.13361968100070953,,,,,,,,,
1739401319.7083602,-0.7071405264183379,0.6741924489886953,1.4179630604681122,-1.879564393013461,-0.7080758117784126,1.9496787210577415,0.1854574514129992,-0.0006198157427294124,8.465320835215732e-05,0.0019598290752124957,-0.001147684013047667,-7.945544661779546e-05,-0.00032951339655723,-0.001131010623267608,0.2689092457294464,-23.56198501586914,19.374801635742188,17.97431182861328,0.8769632577896118,2.3540542125701904,-0.07411040365695953,,,,,,,,,
1739401319.7184896,-0.7071419304507471,0.6741919495166094,1.417955127718717,-1.8795629278856065,-0.7080762307613582,1.9496762997855124,0.18546135379048773,-0.0002592944005058207,7.034026948335513e-05,-0.0003184768873432814,0.00010371373434879751,-0.001309964615954004,-0.00014547001402024046,-0.00012780876368990893,0.2689092457294464,-23.58578872680664,19.450180053710938,17.94654083251953,0.8833719491958618,2.3476455211639404,-0.10706938803195953,,,,,,,,,
1739401319.7294014,-0.7071415379036734,0.6741960541347156,1.4179514359677148,-1.8795629548969526,-0.7080757533685592,1.9496797806719697,0.18546535271923953,-0.0011337062730737894,0.001182068703544451,-0.0005922689030602325,-0.0002566685192161595,0.001822838391369177,0.0011158914285490378,0.0011586053528535659,0.2927129566669464,-23.61355972290039,19.501754760742188,17.94654083251953,0.8897806406021118,2.3540542125701904,-0.14094389975070953,,,,,,,,,
1739401319.740315,-0.7071406346152692,0.6741940555456006,1.4179529533727777,-1.8795637213382943,-0.7080770208947909,1.9496790055932152,0.18546799566345895,0.0002486281896274502,-0.0005841608742022187,0.00047399113290836096,0.0009561780623825168,0.0004377710194911072,0.0011312126700702351,0.001733841676440355,0.2411382496356964,-23.58578872680664,19.477951049804688,17.99811553955078,0.8961893320083618,2.3604629039764404,-0.12721098959445953,,,,,,,,,
1739401319.750382,-0.7071378261877309,0.674194068193503,1.4179511591386709,-1.8795627316147587,-0.7080799928917784,1.9496769898208146,0.18545983415467973,0.0016849586654469654,0.0005735808702535771,-0.0001074276457910899,-0.0005897966956824963,0.0004894675881690176,0.0016981932953972411,-0.0002519704888480432,0.2411382496356964,-23.58578872680664,19.501754760742188,17.94654083251953,0.8897806406021118,2.3403213024139404,-0.09425200521945953,,,,,,,,,
1739401319.760416,-0.7071398359637963,0.6741997904392018,1.4179472697445823,-1.879566888038143,-0.7080805016975266,1.949678650690691,0.18545785620864183,0.00029189539944333905,-0.00013320173405838407,-0.001051591083920258,-0.000767170528952264,-0.0004107757145862702,0.0006313885513481547,-0.0009742730299376571,0.2689092457294464,-23.66513442993164,19.553329467773438,17.99811553955078,0.8897806406021118,2.3604629039764404,-0.08051909506320953,,,,,,,,,
1739401319.7713592,-0.7071398244081417,0.6742044323720577,1.4179433675731161,-1.8795620045300143,-0.7080749959436543,1.9496797670734904,0.18545892859870466,0.00031307922604482903,0.0021493821920064945,-0.0004216565271914474,0.001321632112778615,0.0008223428654191592,0.0005401279217363349,-0.0005331903688588311,0.2689092457294464,-23.71670913696289,19.577133178710938,17.94654083251953,0.8833719491958618,2.3540542125701904,-0.08692778646945953,,,,,,,,,
1739401319.7824533,-0.7071415369288078,0.6741997639642575,1.4179480948953658,-1.87956204877319,-0.7080803583702818,1.9496775964567739,0.18546352874317232,0.0002824657343163504,-0.00015994070066978935,-0.0012539082722856187,0.0005946934443637384,-5.0477503400137274e-05,0.00038969532962267043,0.002060778258162428,0.2927129566669464,-23.66513442993164,19.529525756835938,17.94654083251953,0.8897806406021118,2.3604629039764404,-0.11347807943820953,,,,,,,,,
1739401319.793458,-0.7071383239787944,0.6741998728552865,1.4179443161528509,-1.87956077426752,-0.7080765155704304,1.949676226720975,0.1854605771642784,0.0012585671167223084,-0.00011835761350195869,-0.0017335482492685194,0.0009189113246272779,0.0010474695795583931,-0.0004681784697278153,-0.00017993520747714093,0.2173345386981964,-23.66513442993164,19.553329467773438,17.94654083251953,0.8961893320083618,2.3796889781951904,-0.10066069662570953,,,,,,,,,
1739401319.8044348,-0.7071417709447037,0.6741951282662934,1.4179481251850707,-1.8795643988917732,-0.7080778919975989,1.9496754881437248,0.1854644853683498,-0.0003760356187597912,-0.0009285773113149104,-0.0004934139820101482,-0.0014822520913696851,0.0007594818108088669,0.0007908392298455282,0.001395518999884441,0.2927129566669464,-23.58578872680664,19.529525756835938,17.97431182861328,0.8769632577896118,2.3540542125701904,-0.13361968100070953,,,,,,,,,
1739401319.816307,-0.7071380604719647,0.6741961461563338,1.4179528620101958,-1.879565117572074,-0.7080797068938238,1.9496800673276284,0.1854598340824344,-5.549213515728898e-05,-0.0008501783723078121,0.0006153224524893286,-0.0004227665435911062,-0.0028917467059375508,-0.0004471552890900963,0.0004846077643856721,0.2411382496356964,-23.61355972290039,19.477951049804688,17.97431182861328,0.8833719491958618,2.3476455211639404,-0.09425200521945953,,,,,,,,,
1739401319.826344,-0.7071378264685445,0.6741941654345188,1.417954941695971,-1.8795641637564597,-0.708078802555273,1.9496744254537308,0.18545822374302617,0.0010737506848037155,0.0007012241218929099,0.0005115676645530287,-0.00014971565096724934,-0.0020960126610669485,-0.0009112477727135944,-0.0010389672818930883,0.2411382496356964,-23.58578872680664,19.450180053710938,17.97431182861328,0.9035135507583618,2.3604629039764404,-0.08051909506320953,,,,,,,,,
1739401319.8373842,-0.7071398244080765,0.674198278837399,1.4179571670441597,-1.8795611716956582,-0.7080789847894385,1.9496773457972574,0.18546297279813181,-0.00019403464097809698,0.00022185844891681726,-0.0004112190843232477,9.361041254576951e-05,0.00037384950697110593,0.0003359354498604268,0.0016145054545991433,0.2689092457294464,-23.61355972290039,19.450180053710938,17.92273712158203,0.8897806406021118,2.3476455211639404,-0.12080229818820953,,,,,,,,,
1739401319.8474166,-0.7071415339853685,0.6741962409346153,1.4179540011386822,-1.8795602219252707,-0.708079288053627,1.949678220906311,0.18545978159111667,0.0004199538838368178,0.0014046735434585557,-0.0015511814769753106,0.00036240901909586167,-0.0011052269995304941,-0.00026513984535850646,-0.0017158025454137743,0.2927129566669464,-23.58578872680664,19.477951049804688,17.92273712158203,0.8833719491958618,2.3403213024139404,-0.09425200521945953,,,,,,,,,
1739401319.8574178,-0.7071408398138145,0.6741944087953166,1.4179610810515173,-1.8795651161414226,-0.708077431564018,1.9496753598737824,0.18546325819710832,-0.001439100249941583,0.0006940618013685742,0.002048095770298451,-0.0022255268046324573,0.0009329931868387766,-0.0003525394484363216,7.701747854182766e-05,0.2689092457294464,-23.58578872680664,19.402572631835938,17.97431182861328,0.8769632577896118,2.3604629039764404,-0.12721098959445953,,,,,,,,,
1739401319.868316,-0.707137852591797,0.6741923171394844,1.4179550521721427,-1.879563033534617,-0.7080794092560497,1.9496792702762185,0.1854589681772179,0.0011126125823637993,-0.0005436285589292061,-0.0008690024532893862,-0.0009076083078897494,0.0004074728977552346,-0.00160494354251626,-0.001053077095692578,0.2411382496356964,-23.56198501586914,19.450180053710938,17.94654083251953,0.8897806406021118,2.3540542125701904,-0.08692778646945953,,,,,,,,,
1739401319.8783336,-0.7071362184118154,0.6741967775723591,1.4179530602073307,-1.8795623126827115,-0.7080757594117667,1.9496753699755462,0.1854598340824508,0.00028840463687258475,0.00014125614012694052,-0.0012762295564845135,0.00015698139836002264,0.0011479315892201775,-0.0013055690914803057,-0.0004592021801289956,0.2173345386981964,-23.61355972290039,19.477951049804688,17.94654083251953,0.8897806406021118,2.3540542125701904,-0.09425200521945953,,,,,,,,,
1739401319.8883352,-0.7071398244098456,0.6741961594625255,1.4179537744837576,-1.8795620801750939,-0.7080762651728875,1.949674020288303,0.18546210771274582,-0.0007605772935141827,0.0009575659924146282,-9.001873005990472e-05,-0.00035982425725451957,0.00026068354127645546,-0.0017227758267345334,-8.000942322916626e-05,0.2689092457294464,-23.61355972290039,19.477951049804688,17.94654083251953,0.8897806406021118,2.3668715953826904,-0.11347807943820953,,,,,,,,,
1739401319.8983667,-0.7071398155777587,0.6741960652620018,1.4179511588255276,-1.8795619107373611,-0.7080764138907054,1.9496791254332448,0.18545928994973318,-0.00011711326329032692,0.00045641423353533407,0.00019713680680865587,0.000363443897720769,0.0010814818257468045,0.0007613912763436964,-0.0005399488482989307,0.2689092457294464,-23.61355972290039,19.501754760742188,17.97431182861328,0.8833719491958618,2.3476455211639404,-0.08051909506320953,,,,,,,,,
1739401319.909334,-0.7071415370714211,0.6741942606052644,1.4179481362718973,-1.8795600575541036,-0.708078952128225,1.9496747281801576,0.18546059174862256,0.000415603964291524,-0.002326916490308564,-0.0012538937413795366,0.0012446074795762338,-0.0008982530524294975,-0.0007940831762603252,0.00025278784793242,0.2927129566669464,-23.58578872680664,19.577133178710938,17.94654083251953,0.8769632577896118,2.3668715953826904,-0.10066069662570953,,,,,,,,,
1739401319.919411,-0.7071385284774866,0.6742015117935092,1.4179490795020444,-1.8795609812099197,-0.708074645276844,1.9496764251960035,0.18546064293929435,0.0008091261351164491,0.0015048273794146978,0.0006866610999088476,-0.00022590799968662451,0.001013342024626883,-3.3098635477141e-05,-0.0014690493709781439,0.2411382496356964,-23.68893814086914,19.529525756835938,17.92273712158203,0.8769632577896118,2.3540542125701904,-0.10066069662570953,,,,,,,,,
1739401319.9303474,-0.7071398620751412,0.674198030916913,1.4179444353215997,-1.8795640009639447,-0.7080797446139672,1.9496735367425067,0.18546323355451272,-2.9276693598634672e-05,-0.00105364372894986,-0.00028876176948103635,0.0005086923202483291,-0.0006744990458615114,-0.002851883119743778,0.0013377410615085222,0.2689092457294464,-23.63736343383789,19.553329467773438,17.99811553955078,0.8833719491958618,2.3668715953826904,-0.08692778646945953,,,,,,,,,
1739401319.9403605,-0.7071436856413725,0.6742066095129254,1.4179465004894478,-1.87956014031361,-0.7080812251264051,1.9496735493339854,0.18545983429915405,-0.0007048245398987408,0.0023202002449877247,0.00015555005155947488,0.001027532683250564,-0.001499686817711495,-0.001463566279325868,-3.025219815610934e-05,0.2927129566669464,-23.71670913696289,19.553329467773438,17.94654083251953,0.8961893320083618,2.3668715953826904,-0.09425200521945953,,,,,,,,,
1739401319.9513113,-0.7071427674093427,0.6741983093054278,1.417948019018551,-1.8795629766970863,-0.7080783448695951,1.9496751431977701,0.1854613362797746,-0.0007291513078655624,-0.0009582645725181776,0.0004542386780979031,0.0004777392785803793,0.0004583171118499419,0.000620929059903793,-0.001039778862315178,0.2927129566669464,-23.61355972290039,19.529525756835938,17.97431182861328,0.8833719491958618,2.3540542125701904,-0.10706938803195953,,,,,,,,,
1739401319.961414,-0.707141536949646,0.6741991532932298,1.417948015004834,-1.8795650380670155,-0.708075909917221,1.9496750181407316,0.18546304602854594,-0.00032017786461803997,0.00039718231848707075,0.0007415527283326248,2.7826451372747773e-05,-0.0005659073774415518,-0.0003592701353833991,0.0011386115236198206,0.2927129566669464,-23.61355972290039,19.529525756835938,17.97431182861328,0.8897806406021118,2.3540542125701904,-0.09425200521945953,,,,,,,,,
1739401319.9723296,-0.7071415369288078,0.6742026545318909,1.4179482845551579,-1.8795626903509792,-0.70808046889481,1.9496747301367048,0.18546448829820647,-5.64408997186152e-06,0.00044472451349549956,0.0008972316165858545,6.0805048125830996e-05,-0.0007775744607699025,-4.3072976436690465e-05,0.002166439407857004,0.2927129566669464,-23.66513442993164,19.501754760742188,17.94654083251953,0.8897806406021118,2.3604629039764404,-0.13361968100070953,,,,,,,,,
1739401319.9843838,-0.7071378235237843,0.6741951283910123,1.4179486642849408,-1.879564879119252,-0.7080783332948339,1.9496757699870766,0.1854631733235536,0.001061104709507797,-0.0014678224441655177,-0.0008964243924241709,0.00011200251586073893,8.3381745204014e-06,-3.125435363672546e-05,0.0017212872083018057,0.2411382496356964,-23.58578872680664,19.501754760742188,17.97431182861328,0.8833719491958618,2.3476455211639404,-0.11347807943820953,,,,,,,,,
1739401319.9944055,-0.7071399355295833,0.6741968070129539,1.417949009759639,-1.879564003762229,-0.7080812222121946,1.9496750123243143,0.18546059174854826,-1.693039364302829e-05,0.00011250717771015971,-0.0019883357220031204,-0.00022450850411190445,-0.0006069513104902842,0.00030677791220252504,-0.0012029304506607772,0.2411382496356964,-23.61355972290039,19.501754760742188,17.99811553955078,0.8961893320083618,2.3540542125701904,-0.10066069662570953,,,,,,,,,
1739401320.0053084,-0.7071378528361674,0.6741971814823323,1.417956792024071,-1.8795583556598914,-0.7080800307558747,1.9496750137778645,0.18546174431404003,-0.00043376731648567366,0.0004877860101081341,0.0003297137855906403,0.000935402000960506,0.000498482476808519,-0.00019009079924411075,0.0005246173536091241,0.2411382496356964,-23.58578872680664,19.426376342773438,17.92273712158203,0.8897806406021118,2.3540542125701904,-0.10706938803195953,,,,,,,,,
1739401320.01539,-0.7071398245155205,0.6741969166214843,1.417956883318956,-1.8795629464905566,-0.708079370960193,1.9496777748025564,0.18546373062668445,0.00030246059822825654,0.0012297782171542691,0.0009222400278303582,-0.0008683286578191979,0.0010222747114563024,0.0007629598714918424,-0.0009582739744716357,0.2689092457294464,-23.58578872680664,19.426376342773438,17.94654083251953,0.8833719491958618,2.3668715953826904,-0.12721098959445953,,,,,,,,,
1739401320.0263739,-0.7071398330748704,0.6741945192237675,1.4179571670459554,-1.8795641639012992,-0.7080750482155219,1.949676675205465,0.18545983456999585,0.0002872867714175252,0.0007416219329535893,2.6989226027293828e-05,-3.451864817849258e-05,0.0004642461689936928,0.0006282906091930292,0.00010013758394194,0.2689092457294464,-23.56198501586914,19.450180053710938,17.97431182861328,0.8833719491958618,2.3403213024139404,-0.09425200521945953,,,,,,,,,
1739401320.0364063,-0.7071398504088968,0.6741969166791086,1.4179550204061655,-1.8795621384401116,-0.7080768652060988,1.949678532464608,0.1854637701111646,-7.112217806217595e-05,0.000658558862331768,-0.00017748611102391774,0.0005494933461642414,0.0007356023247253214,-0.0001249360775789138,0.0012610298785529174,0.2689092457294464,-23.58578872680664,19.450180053710938,17.97431182861328,0.8961893320083618,2.3604629039764404,-0.12721098959445953,,,,,,,,,
1739401320.047316,-0.7071439562481684,0.6741909514897514,1.4179511852660336,-1.8795605475099368,-0.7080757833454575,1.9496750123323636,0.18546448828014925,-0.0006861806383897986,-0.0015509892862114929,-0.0017050794401732398,0.0005947834341432839,-0.00032071090552151556,-0.0004974815663936402,0.00042127142700217914,0.2927129566669464,-23.53818130493164,19.501754760742188,17.94654083251953,0.8769632577896118,2.3540542125701904,-0.13361968100070953,,,,,,,,,
1739401320.0583649,-0.7071453584185751,0.6741963983067192,1.4179511558681308,-1.8795645145997513,-0.7080809275201908,1.9496734970041576,0.18545745291923343,-0.001401965579321249,0.00015907241657729687,0.00041713914013220957,-0.0018304073466923747,-0.001629643309836273,-0.0013901596887225922,0.0005053744224394817,0.3165166676044464,-23.61355972290039,19.501754760742188,17.99811553955078,0.9035135507583618,2.3668715953826904,-0.07411040365695953,,,,,,,,,
1739401320.0684385,-0.7071398254067691,0.6741933055353395,1.4179482489716475,-1.8795665460188928,-0.7080769891009372,1.9496757699843927,0.1854659237750071,-6.205110850254528e-05,-0.0011614935490638727,-0.0005186378305494949,-0.0010776975968644037,-0.0027766088918390742,0.00018087703284540508,0.0007422107867510286,0.2689092457294464,-23.56198501586914,19.529525756835938,17.99811553955078,0.8897806406021118,2.3476455211639404,-0.13361968100070953,,,,,,,,,
1739401320.0794148,-0.7071439164595267,0.6741980842311023,1.4179459782671562,-1.8795651175741315,-0.7080762819763359,1.9496750171694817,0.18546449413871807,-0.000931134010787571,-0.000334081560316983,-0.000383863658614005,-0.001104164183852577,0.0002549251258817708,0.0006489942031879393,0.001482474857655972,0.3165166676044464,-23.63736343383789,19.529525756835938,17.97431182861328,0.8897806406021118,2.3540542125701904,-0.13361968100070953,,,,,,,,,
1739401320.0903718,-0.7071426327738769,0.6742035140933367,1.417947268818604,-1.8795594721051887,-0.7080812376470387,1.949673497004185,0.1854617048229298,-0.0011360150277341784,0.0012930070077775634,-0.0005006000775486097,-0.0003696208131504917,-0.0004052381093287951,0.0008380392670235769,0.00044889744871990614,0.2689092457294464,-23.71670913696289,19.553329467773438,17.89893341064453,0.8961893320083618,2.3668715953826904,-0.10706938803195953,,,,,,,,,
1739401320.1004083,-0.7071406355188032,0.6741991650294563,1.4179469784526413,-1.8795640274564385,-0.708079745660753,1.949674254664236,0.18546210901888485,-0.00020979877422375994,-0.00045402406407367565,0.00015894720113221946,0.0006018041492544317,-0.0006171023630576101,-0.00012833302656537046,-0.0009563131636338961,0.2411382496356964,-23.61355972290039,19.553329467773438,17.99811553955078,0.8833719491958618,2.3604629039764404,-0.11347807943820953,,,,,,,,,
1739401320.1113417,-0.7071361919634895,0.6741961597948767,1.4179440821070928,-1.879562945301749,-0.7080765841895655,1.9496750181385152,0.1854637305660042,0.0016127512583520838,-0.001761650904245641,-0.0005758767399248971,-0.000585180385601741,4.639114698828443e-05,0.00046533405786281813,0.0003602747782838273,0.2173345386981964,-23.61355972290039,19.553329467773438,17.97431182861328,0.8833719491958618,2.3540542125701904,-0.12721098959445953,,,,,,,,,
1739401320.1213613,-0.7071399364582324,0.6741970199174703,1.417951881686861,-1.8795608918732598,-0.7080811218714582,1.949675769984491,0.18546552530559385,4.9212103860264765e-05,-0.002099009087387863,0.0009201468467530999,0.0012490429820711637,-0.000997626945816271,0.0005598986788828671,0.0012290024572675939,0.2411382496356964,-23.61355972290039,19.477951049804688,17.94654083251953,0.8961893320083618,2.3476455211639404,-0.14094389975070953,,,,,,,,,
1739401320.132348,-0.7071405477732109,0.6741992632942364,1.4179539485522314,-1.879564072534068,-0.708080508111976,1.949676635881625,0.18545898573780367,-0.0007265569932831298,0.0006535476538891287,0.0007234030731375339,-0.0009133367382448951,-0.001278902239147274,0.0008163987705675695,-0.0004906115208991482,0.2689092457294464,-23.61355972290039,19.450180053710938,17.97431182861328,0.8897806406021118,2.3403213024139404,-0.08692778646945953,,,,,,,,,
1739401320.1433883,-0.7071362266188891,0.6741955606581486,1.417948121380269,-1.8795607856132863,-0.708079749052995,1.9496757569024405,0.18545912614989052,0.0012739819716160086,0.0011080171128253987,-0.0003413014506310271,0.00029146279799418254,0.0006575572991268015,6.496524666057711e-06,0.0002082746433014755,0.2173345386981964,-23.56198501586914,19.529525756835938,17.94654083251953,0.8833719491958618,2.3476455211639404,-0.08692778646945953,,,,,,,,,
1739401320.1543784,-0.7071439514604356,0.674199995662406,1.417952703064455,-1.879561174642537,-0.7080805168879171,1.9496757699843188,0.18546140693380667,-0.0007992844063087731,0.0015163125165150362,0.0003479155083736037,0.0005479438527864501,0.0014528286487904014,0.00022626570832977723,0.00037085084740627345,0.3165166676044464,-23.63736343383789,19.477951049804688,17.92273712158203,0.8897806406021118,2.3476455211639404,-0.10706938803195953,,,,,,,,,
1739401320.1654358,-0.7071432494614275,0.6741980873158838,1.4179549388579589,-1.8795618869661859,-0.7080798144627564,1.949675012324314,0.18545861860126128,-0.0010306358285220997,0.0005634688204034672,0.0014819686330360174,-8.771361725424937e-05,-6.812042214246907e-05,0.0001512448428257266,0.0002266128972484734,0.3165166676044464,-23.63736343383789,19.450180053710938,17.92273712158203,0.8833719491958618,2.3540542125701904,-0.08051909506320953,,,,,,,,,
1739401320.1763375,-0.7071398247290689,0.6741969964792848,1.4179550211688141,-1.8795563455221764,-0.7080797803854394,1.949675012324314,0.1854657724129547,5.623061935754414e-06,0.0006648901901216664,0.00035623804164418825,0.0015292789683852876,-0.0013955359340538744,-0.0009697472270588338,0.0034025789914591486,0.2689092457294464,-23.58578872680664,19.450180053710938,17.89893341064453,0.8833719491958618,2.3540542125701904,-0.10706938803195953,,,,,,,,,
1739401320.186344,-0.7071398244080783,0.6741971819307453,1.4179529375638535,-1.8795593926146774,-0.7080783500379697,1.949675012324314,0.18545577984923595,0.00045525428266623893,0.000755686058884291,-0.0004293531953038583,0.0011685680347278899,0.00042830323266031175,6.0864334570449055e-05,-0.0005413195655191779,0.2689092457294464,-23.58578872680664,19.477951049804688,17.89893341064453,0.8833719491958618,2.3540542125701904,-0.08692778646945953,,,,,,,,,
1739401320.197337,-0.7071374245000158,0.6741985290818614,1.4179529415247565,-1.8795591545040093,-0.7080781937463263,1.9496757699843925,0.1854598384523574,-0.00030185550587273456,0.0011899840198101317,0.0002417320845735217,0.0010934512409855248,0.000620583124303229,0.0005128094629478069,-5.146290352708166e-05,0.2411382496356964,-23.61355972290039,19.477951049804688,17.89893341064453,0.8833719491958618,2.3476455211639404,-0.09425200521945953,,,,,,,,,
1739401320.2083454,-0.707145250277054,0.6741970318127168,1.4179500892958086,-1.879563034804703,-0.7080765846653218,1.949675012324314,0.1854637905251568,-0.0021702450299946087,0.00021192542235925409,-0.0010428411668194852,4.424632578983032e-05,-0.0003133581422571598,-0.00017722480397719523,-0.00010791124652010297,0.3442876636981964,-23.58578872680664,19.477951049804688,17.94654083251953,0.8833719491958618,2.3540542125701904,-0.10066069662570953,,,,,,,,,
1739401320.218395,-0.7071363489129384,0.6741968776998429,1.417951150368866,-1.8795651171400156,-0.7080801679821048,1.949675012324314,0.1854624163677068,0.0011091899780776779,0.0005950611334863856,0.0006451546855622537,-0.001323407496846311,-0.0007382876999135788,1.6014028406894078e-05,-0.0007601843034516698,0.2173345386981964,-23.61355972290039,19.501754760742188,17.97431182861328,0.8897806406021118,2.3540542125701904,-0.10706938803195953,,,,,,,,,
1739401320.2303677,-0.7071406809502241,0.6741969970272051,1.4179490759327233,-1.8795647965958955,-0.7080790059264991,1.9496743069920448,0.18546134940863057,0.00015333759398676518,0.0005467587965854968,5.21871904259774e-05,3.392034315252524e-05,0.00018340953362925853,7.837835350078717e-05,-0.0009529780561693699,0.2689092457294464,-23.58578872680664,19.529525756835938,17.97431182861328,0.8769632577896118,2.3604629039764404,-0.10706938803195953,,,,,,,,,
1739401320.2404404,-0.7071415629340229,0.6742000419924624,1.417948986793785,-1.8795629317116345,-0.7080782482684149,1.9496742546645314,0.18546613626308672,-0.0004946651110548493,4.388977187467938e-05,-0.0008281791492211032,-2.8755293005007943e-05,0.0005098133864052893,-0.0002531791755577828,0.001098806046496626,0.2927129566669464,-23.66513442993164,19.529525756835938,17.94654083251953,0.8705545663833618,2.3604629039764404,-0.11347807943820953,,,,,,,,,
1739401320.251339,-0.7071378264673703,0.674201998492397,1.4179471772982606,-1.8795630112947237,-0.7080804820027933,1.9496757699843927,0.18546374971116736,0.0006864579288596847,0.0003219775456474712,0.0003691220748046727,-9.798261940022614e-05,-0.0008398430839036133,4.4176903146911524e-05,0.0007650830818652398,0.2411382496356964,-23.66513442993164,19.553329467773438,17.94654083251953,0.8897806406021118,2.3476455211639404,-0.12721098959445953,,,,,,,,,
1739401320.261401,-0.7071378264672236,0.6741960921917358,1.4179489992156087,-1.879565105801028,-0.708080519308589,1.949676635881625,0.18545896818618837,0.0008625713701171534,0.00013508988102645052,2.5017391078703e-05,0.00044545364061843466,1.2970752320749432e-05,0.0005132841839767517,-0.00025819791985650194,0.2411382496356964,-23.61355972290039,19.529525756835938,17.97431182861328,0.8897806406021118,2.3403213024139404,-0.08692778646945953,,,,,,,,,
1739401320.27232,-0.7071378265028893,0.6741992338665741,1.4179458616969618,-1.879562287100229,-0.7080798027805894,1.9496750123243143,0.18545868441885904,0.0009229387265714034,-0.00015555882381965255,-0.001628469991533165,0.0010721978087121122,-1.3945282788237423e-05,5.110155787003479e-05,-0.0006790811754664147,0.2411382496356964,-23.61355972290039,19.529525756835938,17.94654083251953,0.8833719491958618,2.3540542125701904,-0.08051909506320953,,,,,,,,,
1739401320.2833776,-0.7071415369288079,0.6742001541355113,1.4179508104862812,-1.8795623191104578,-0.7080799205722194,1.949675012270479,0.1854605939120709,-0.00023649168631633462,-0.0010932648401865898,0.0010636985620716796,0.0004545008323717285,-0.0005378124932250904,-0.00011999808124168398,-0.0018626152961069857,0.2927129566669464,-23.63736343383789,19.501754760742188,17.94654083251953,0.8833719491958618,2.3540542125701904,-0.10066069662570953,,,,,,,,,
1739401320.2934103,-0.7071419391056519,0.6742009757854864,1.4179461914899663,-1.8795630377497632,-0.7080757877762242,1.9496757307385333,0.18546539366856082,-0.0002713084114430575,0.0016640787595366521,0.00016477263565185682,-0.0008554191583217182,0.0009327911340089623,2.9531527738499886e-05,0.00021579265357071363,0.2689092457294464,-23.63736343383789,19.529525756835938,17.94654083251953,0.8769632577896118,2.3476455211639404,-0.14094389975070953,,,,,,,,,
1739401320.3035626,-0.707142239913983,0.6741965496742447,1.4179497350493133,-1.8795630289559577,-0.708081274529911,1.9496742546640145,0.18545705938439472,-0.00011196445578360301,-0.00034715220266396226,-0.0003216349552187277,-0.00040870814324946766,-0.0009989036468930658,-0.000571215833181958,-0.000658283999070939,0.2927129566669464,-23.58578872680664,19.477951049804688,17.94654083251953,0.8961893320083618,2.3604629039764404,-0.06037749722599983,,,,,,,,,
1739401320.3143775,-0.7071442644313054,0.6741988388866973,1.4179528585816368,-1.8795591063985555,-0.7080805212486252,1.949675012324314,0.18545975675389692,-0.0017895554558047466,0.0006645779150657287,0.0007662168692168691,0.0008909495578377487,-0.0010761048472165866,-0.00013012804366858695,-0.0014467385582867275,0.3165166676044464,-23.63736343383789,19.477951049804688,17.92273712158203,0.8897806406021118,2.3540542125701904,-0.08051909506320953,,,,,,,,,
1739401320.324396,-0.7071385285290506,0.6741970265114529,1.4179550202929372,-1.8795600664387133,-0.7080790059284933,1.9496766358816249,0.18546059182108574,0.0010802824717702172,0.0004110528335762968,0.0020590074927751695,0.00015926186054689032,-0.0003365677597043917,0.0005911046468056876,0.00018832400022150068,0.2411382496356964,-23.58578872680664,19.450180053710938,17.94654083251953,0.8769632577896118,2.3403213024139404,-0.10066069662570953,,,,,,,,,
1739401320.3353431,-0.707143720964693,0.6741961342842763,1.4179504435556778,-1.8795605350103501,-0.7080805168879992,1.9496742546642358,0.18546135379051276,-0.001932115547118514,-0.0003033722794392067,-0.0002428723015946465,0.0001654283447284822,-0.0005038013906658504,-0.00018248378404575645,-0.0005046811650824442,0.2927129566669464,-23.61355972290039,19.501754760742188,17.94654083251953,0.8897806406021118,2.3604629039764404,-0.10706938803195953,,,,,,,,,
1739401320.345349,-0.7071378265152183,0.6741940834542178,1.4179568039512769,-1.8795609103493487,-0.708079763588547,1.9496766358816249,0.18546377173631454,0.00036392411984615205,-0.0015093141123650356,0.0022730458488803024,0.0007786900607267085,-0.0008405434841830639,0.0003109000418432559,-2.792857388181374e-05,0.2411382496356964,-23.58578872680664,19.426376342773438,17.92273712158203,0.8833719491958618,2.3403213024139404,-0.12721098959445953,,,,,,,,,
1739401320.357313,-0.7071399366709064,0.6741962940131334,1.4179568039553145,-1.8795598587245865,-0.7080821848428812,1.9496742546642358,0.18546786020644299,0.000616971769837665,0.0005983367734679703,0.0014458509603271503,0.00023740555897185057,-0.00030515813085289144,-0.000322774695739944,0.00210692453020708,0.2411382496356964,-23.58578872680664,19.426376342773438,17.94654083251953,0.8769632577896118,2.3604629039764404,-0.16108550131320953,,,,,,,,,
1739401320.3673732,-0.70714224023495,0.6741985196492812,1.417951882897476,-1.8795643992136537,-0.7080805212665949,1.9496742546642358,0.18545822374373075,-0.0012491161897806842,0.00088567436307068,0.000429570416445754,-0.0012842034748567627,-0.0005221177062312408,-0.00045038193529943395,-0.0008783847920834579,0.2927129566669464,-23.63736343383789,19.501754760742188,17.97431182861328,0.8897806406021118,2.3604629039764404,-0.08051909506320953,,,,,,,,,
1739401320.3774042,-0.7071412190492795,0.6741985567307693,1.4179490042261536,-1.8795629586057852,-0.7080797635885718,1.9496742546642358,0.1854589725733471,0.0011651634133706594,0.00022696817657496968,-0.0003153986829014773,-0.001913029269191318,-0.0003512400483789826,0.0004998059360665839,-0.0026935122882032567,0.2927129566669464,-23.61355972290039,19.501754760742188,17.97431182861328,0.8833719491958618,2.3604629039764404,-0.08692778646945953,,,,,,,,,
1739401320.3884056,-0.7071406390848561,0.6741970353377322,1.4179510440051275,-1.8795622555598481,-0.7080803642652234,1.9496742546642358,0.18546643360191417,-0.0010157698447645544,-6.961009748899041e-05,8.177301020131358e-05,0.0004973107850874771,0.00116744456029978,4.946852110271723e-05,0.00157201660592659,0.2689092457294464,-23.58578872680664,19.501754760742188,17.97431182861328,0.8897806406021118,2.3604629039764404,-0.14094389975070953,,,,,,,,,
1739401320.3993685,-0.707138632492801,0.6741992589422544,1.4179511489980123,-1.8795647510579654,-0.7080812789060698,1.9496742546642358,0.18545999206530397,0.0002476466066570611,-0.00013384391626023882,0.000568707921751101,-0.001740330890182357,-0.0005879731733700668,-0.00022242797831724729,-0.0003915923510446254,0.2411382496356964,-23.61355972290039,19.501754760742188,17.99811553955078,0.8961893320083618,2.3604629039764404,-0.09425200521945953,,,,,,,,,
1739401320.4093838,-0.7071415369333577,0.6742001214304735,1.4179487353797178,-1.8795651174186438,-0.7080805217331666,1.949675012324314,0.185464843701256,-5.561336363569387e-05,-0.0005151601848062248,0.00017003566849696625,-0.00018811963932170408,-0.0009271760024731207,-0.00012026322922404358,-0.0006107084357102085,0.2927129566669464,-23.66513442993164,19.501754760742188,17.97431182861328,0.8897806406021118,2.3540542125701904,-0.13361968100070953,,,,,,,,,
1739401320.421385,-0.7071398359638009,0.6741978850549644,1.4179461263749316,-1.8795640124121982,-0.708081278908731,1.9496742541797192,0.1854657100871479,0.0005945929432180935,-0.0008090353720588325,-0.0005285767915640372,0.00024098792846857602,-0.0010024304464044944,-0.00015687736663885633,0.00040591536377215863,0.2689092457294464,-23.63736343383789,19.529525756835938,17.99811553955078,0.8961893320083618,2.3604629039764404,-0.14094389975070953,,,,,,,,,
1739401320.4323413,-0.707138554477886,0.6741972711986916,1.4179500859283154,-1.8795672338914036,-0.7080787170323944,1.9496750123243132,0.18546210708141278,0.0006476936769809664,-0.0006428166562036906,0.00034385068841422117,-0.0008744316076948445,0.0009828390110736436,0.0001446318585157607,-0.0010055769210043411,0.2411382496356964,-23.58578872680664,19.501754760742188,17.97431182861328,0.8833719491958618,2.3540542125701904,-0.11347807943820953,,,,,,,,,
1739401320.4424796,-0.7071418605014214,0.6742009846579483,1.4179504965194205,-1.8795608891114646,-0.7080782482506913,1.949676633943558,0.18546448828007525,-0.0003278498763689718,0.00026107626669161384,0.0007470313484842412,-0.00022560388874125995,-1.5429097087343445e-05,0.0006045998622449596,0.0018765451489096646,0.2927129566669464,-23.63736343383789,19.501754760742188,17.94654083251953,0.8705545663833618,2.3403213024139404,-0.13361968100070953,,,,,,,,,
1739401320.4533086,-0.7071407604592498,0.6741971263700561,1.4179480465749117,-1.8795607830996823,-0.7080797635885715,1.9496750123243034,0.18546297295991826,-0.0004413491677685649,-0.0005462842213962339,-9.384396637817142e-05,0.0003819061222783064,0.0001393875231448898,0.00020341553776141244,-0.0011860281699834023,0.2689092457294464,-23.61355972290039,19.501754760742188,17.94654083251953,0.8833719491958618,2.3540542125701904,-0.12080229818820953,,,,,,,,,
1739401320.4633982,-0.707139835979653,0.6741988388544484,1.4179497257828635,-1.879560879225977,-0.70808052124865,1.949675012324314,0.1854617098608615,0.0008311419626942823,0.0012279215072294489,0.0009174019773366543,-0.0001787663287328174,-8.03857788855692e-05,0.0005802992312170156,-0.0006044115792386448,0.2689092457294464,-23.63736343383789,19.477951049804688,17.94654083251953,0.8897806406021118,2.3540542125701904,-0.10706938803195953,,,,,,,,,
1739401320.4743752,-0.7071407394729594,0.6741981231626455,1.4179487273896414,-1.879558037893603,-0.7080837045236886,1.9496729868080211,0.18546024182003887,-0.000672842289144768,0.0006929745902991811,0.00010111822183059348,0.0010111529286561173,-0.0008746485121751142,-0.001184069391450132,-0.002317156737944579,0.2411382496356964,-23.63736343383789,19.529525756835938,17.92273712158203,0.8897806406021118,2.3668715953826904,-0.10066069662570953,,,,,,,,,
1739401320.4844115,-0.7071399054572549,0.6741969999680077,1.417950521652344,-1.8795648791393906,-0.7080812251453388,1.9496757699815126,0.18545995255390527,0.00030836273198963987,-0.0006402653436604777,-0.0006175721398340298,-0.00046690451115883924,-0.0005983890901289093,0.00021955107324223775,-0.0009771661349278224,0.2689092457294464,-23.58578872680664,19.477951049804688,17.97431182861328,0.8961893320083618,2.3476455211639404,-0.09425200521945953,,,,,,,,,
1739401320.495305,-0.7071406345087238,0.6742009719015477,1.4179526634469566,-1.8795630376759134,-0.7080797635882681,1.9496757699843925,0.18546611200056945,-0.0010455057200810588,0.0008165936348686587,8.982560779368008e-05,-0.001566500743887877,-0.0007042571265941808,0.0005601307777091274,0.00021574930550164514,0.2411382496356964,-23.63736343383789,19.477951049804688,17.94654083251953,0.8833719491958618,2.3476455211639404,-0.14735259115695953,,,,,,,,,
1739401320.5053148,-0.7071416266402241,0.6741917825336343,1.4179549946736174,-1.8795611478372465,-0.7080790059284933,1.949675012324314,0.18546134940261028,-0.00030073328363088405,-0.001134824419863486,-0.00048684618625048626,2.3501780178546107e-06,0.00026532040074062156,7.878095309003097e-05,-0.000286312917641737,0.2927129566669464,-23.51041030883789,19.450180053710938,17.92273712158203,0.8769632577896118,2.3540542125701904,-0.10706938803195953,,,,,,,,,
1739401320.515362,-0.7071379047908751,0.6741971672502924,1.4179511588109701,-1.879565010629355,-0.70808052124865,1.9496757699843925,0.18546022899388329,0.00015627739212842643,0.0007119906535014613,-0.0001684239903731522,-0.000978364389136789,0.0003207514386823291,0.00015027435892777172,-0.0015545768818556252,0.2411382496356964,-23.58578872680664,19.501754760742188,17.97431182861328,0.8897806406021118,2.3476455211639404,-0.09425200521945953,,,,,,,,,
1739401320.5254865,-0.7071378383452668,0.6741984225878055,1.4179550212782956,-1.8795583818746742,-0.7080797635885716,1.949675365537024,0.18546461267998646,0.00023622137519813355,0.00015005900917803205,6.944970856131988e-05,0.0015548302976085165,0.00105280213084252,0.0009048390016601888,0.0006233691214076673,0.2411382496356964,-23.56198501586914,19.450180053710938,17.92273712158203,0.8833719491958618,2.3540542125701904,-0.09425200521945953,,,,,,,,,
1739401320.536398,-0.7071378264672905,0.6741991923535094,1.4179550646892842,-1.879561929778867,-0.7080767205751568,1.9496757699863865,0.18546449415759,0.0010187709399217904,0.00035994841350254716,0.0016109316879156373,-0.0004905431039309553,0.0005466330136194093,0.00025011820105840784,0.0009466060378696892,0.2411382496356964,-23.61355972290039,19.477951049804688,17.97431182861328,0.8961893320083618,2.3476455211639404,-0.13361968100070953,,,,,,,,,
1739401320.5473793,-0.7071385225360975,0.6741992589458492,1.4179490776526782,-1.8795598233872666,-0.7080821804564986,1.9496719664157485,0.18546769161313087,0.0008885672507066118,0.0009019094940592215,-0.0007715487534130018,0.0015664323365780861,-0.0006693899181704008,-0.0012549856928489984,0.0016734112796728362,0.2411382496356964,-23.61355972290039,19.529525756835938,17.94654083251953,0.8769632577896118,2.3668715953826904,-0.13361968100070953,,,,,,,,,
1739401320.5583594,-0.7071400700068163,0.6741971682325275,1.4179501953256324,-1.8795651057842286,-0.7080797636064919,1.9496734926348667,0.18545983410053374,1.4635454629228345e-05,-0.0005754195883009266,-0.00013481062461724426,-0.000538210848836134,-0.00029213938887522745,-0.0006028908906802794,-0.0016188305988549803,0.2689092457294464,-23.58578872680664,19.501754760742188,17.97431182861328,0.8833719491958618,2.3668715953826904,-0.09425200521945953,,,,,,,,,
1739401320.5684042,-0.7071398244122357,0.6741971662685147,1.4179503336509682,-1.8795605398533195,-0.7080833614275168,1.9496751693076668,0.18546421099913357,0.0009797652992896947,-0.00045721155401217897,-0.00019202610316903292,0.001015446728967488,-0.002290613954001381,0.000421736800393378,0.0018407894060633256,0.2689092457294464,-23.58578872680664,19.501754760742188,17.92273712158203,0.9035135507583618,2.3540542125701904,-0.12080229818820953,,,,,,,,,
1739401320.57933,-0.7071398253710536,0.6741972740504506,1.4179483281128502,-1.879564364051646,-0.7080779299358293,1.9496734970050438,0.185462972966907,-0.00048445383899136854,-0.0007176847714374265,-4.7514099230652876e-05,-0.0005536588267802202,4.029373932682031e-05,-0.0007624404515791642,0.000998498989847725,0.2689092457294464,-23.58578872680664,19.529525756835938,17.97431182861328,0.8961893320083618,2.3668715953826904,-0.12080229818820953,,,,,,,,,
1739401320.5893688,-0.7071421644423277,0.6742028766350319,1.417946951924004,-1.8795661839779836,-0.708080516233337,1.9496734970041576,0.18546723946602411,-0.00047295725573264413,0.0014150176472013088,-0.0009192318814302203,-0.0012892048399973097,5.118151043359055e-06,0.0003467727421728825,0.0004281092659604449,0.2689092457294464,-23.66513442993164,19.553329467773438,17.99811553955078,0.8897806406021118,2.3668715953826904,-0.12080229818820953,,,,,,,,,
1739401320.6003788,-0.7071426327745148,0.6742009727750264,1.4179481904067992,-1.8795600969620703,-0.7080797634270566,1.949679250876832,0.18546448877564808,-0.00018468249333805843,2.3857594263682383e-06,3.362642561084364e-05,0.0003311142123399522,-0.000570320676501825,0.0010251493342896035,0.0022019531139039726,0.2689092457294464,-23.63736343383789,19.501754760742188,17.94654083251953,0.8833719491958618,2.3540542125701904,-0.13361968100070953,,,,,,,,,
1739401320.6113658,-0.7071399024250699,0.6742009806970076,1.4179459398450198,-1.8795602216184306,-0.7080782483760844,1.9496734970280842,0.1854589684019079,-2.421445779921997e-05,3.212765881611642e-05,-0.0012132607634515909,0.00038098574118028606,0.0005584307868449987,-0.0007036751786769837,-0.0006133717933531396,0.2689092457294464,-23.63736343383789,19.529525756835938,17.92273712158203,0.8705545663833618,2.3668715953826904,-0.08692778646945953,,,,,,,,,
1739401320.6222987,-0.7071378381660517,0.6742009804063424,1.4179490687563154,-1.8795605133203932,-0.7080812876300303,1.9496734970041576,0.1854640808246253,0.0006478048567046317,-0.0002760362323087528,-0.0004909272785422232,0.0010657104278389796,-0.0009474412522019781,-0.0004237331518403202,0.0011386940738838808,0.2411382496356964,-23.63736343383789,19.529525756835938,17.92273712158203,0.8961893320083618,2.3668715953826904,-0.12080229818820953,,,,,,,,,
1739401320.6323848,-0.7071378525747991,0.6742011000129691,1.417952610514875,-1.8795608818679885,-0.7080797635887193,1.9496750123243143,0.18546373063875837,0.0012807774554910497,0.00046088456479064486,0.0017679642875489785,0.0008043492395094648,-0.00016526596548828388,0.0006468759626997683,0.0015917290521574074,0.2411382496356964,-23.61355972290039,19.477951049804688,17.94654083251953,0.8833719491958618,2.3540542125701904,-0.12721098959445953,,,,,,,,,
1739401320.6424084,-0.7071432507339505,0.6741965488331199,1.41795007740743,-1.879555199569104,-0.7080790057669877,1.9496752990341129,0.18546480338146426,-0.0009684879761299634,-0.0006959613305709635,0.0003882262455755874,0.0032473893068885795,0.001002653423906159,-0.0005772127705350534,0.00015310385389232824,0.3165166676044464,-23.58578872680664,19.477951049804688,17.87512969970703,0.8769632577896118,2.3476455211639404,-0.12721098959445953,,,,,,,,,
1739401320.6534176,-0.7071432523384773,0.674197271248881,1.4179545355946517,-1.8795647726346005,-0.7080821848428803,1.9496742546615775,0.18546246243502743,-0.0014997039637450922,0.00039735997540420886,0.0011114646200799346,-0.0015932492121875676,-0.0016964092838978448,-6.050874254841175e-05,0.0007963956098485319,0.3165166676044464,-23.58578872680664,19.450180053710938,17.97431182861328,0.8769632577896118,2.3604629039764404,-0.11347807943820953,,,,,,,,,
1739401320.6644492,-0.7071379046110432,0.6741951254857471,1.4179550201490525,-1.8795587911216098,-0.7080797636065166,1.9496757699843925,0.18545896770119366,8.675952503851424e-05,-0.0012647404430179503,0.0018107467567692421,0.00046553717416211574,-0.0006810497538283026,0.0001793248618046811,-0.0029119253876135217,0.2411382496356964,-23.58578872680664,19.450180053710938,17.92273712158203,0.8833719491958618,2.3476455211639404,-0.08692778646945953,,,,,,,,,
1739401320.6763372,-0.7071398126347607,0.6741972741479466,1.4179539429323589,-1.8795627872166427,-0.70808052124865,1.949675012324314,0.1854687533235428,5.806983600534541e-05,0.0004929860593683752,-0.0003668012592731372,0.0009821936309348772,0.0004191041300980944,0.00018588744481765507,0.0021746584316818963,0.2689092457294464,-23.58578872680664,19.426376342773438,17.94654083251953,0.8897806406021118,2.3540542125701904,-0.13361968100070953,,,,,,,,,
1739401320.6864033,-0.7071415459165269,0.6741992631979337,1.4179507122712933,-1.8795619876813106,-0.7080805213024851,1.9496734970041574,0.18546059182077715,-0.0016648725161677743,0.0002732134902618063,0.0005335586253661675,-0.0012213101677920103,-0.00020524883982455766,-0.0009029261474242467,-0.0008511467572420745,0.2927129566669464,-23.61355972290039,19.477951049804688,17.97431182861328,0.8897806406021118,2.3668715953826904,-0.10066069662570953,,,,,,,,,
1739401320.6973019,-0.707138554477915,0.6742009581669954,1.4179490789726426,-1.8795661761130882,-0.7080805231867172,1.949675012324314,0.1854613671167422,0.0008233706282814124,0.0002654111853321302,0.0002985314596647777,-0.0008458610650964489,-0.0007753528813730954,4.671961228055056e-05,0.0004103282158417278,0.2411382496356964,-23.63736343383789,19.529525756835938,17.99811553955078,0.8897806406021118,2.3540542125701904,-0.10706938803195953,,,,,,,,,
1739401320.707398,-0.7071385284898132,0.6742029825984036,1.417950837976542,-1.879561253788798,-0.708081278908761,1.9496757699843925,0.18546242021419496,0.0012955314849366246,0.0007762671616809187,-0.00024656261575813684,0.0009388458142038536,-0.0009424160512891912,0.000832786328276646,0.000889514290021135,0.2411382496356964,-23.66513442993164,19.501754760742188,17.92273712158203,0.8961893320083618,2.3476455211639404,-0.10706938803195953,,,,,,,,,
1739401320.718406,-0.7071379305083724,0.6741987923566706,1.4179462179604663,-1.8795627905373713,-0.7080790059284933,1.949675012324314,0.1854648568462162,0.00022900709701868392,0.0005473500876863767,-0.0005748097499604081,0.001084547413636359,0.0001725963007928215,-0.00017356598455294805,-0.001129779734895508,0.2411382496356964,-23.61355972290039,19.529525756835938,17.94654083251953,0.8769632577896118,2.3540542125701904,-0.10066069662570953,,,,,,,,,
1739401320.7293367,-0.7071398244086639,0.6741972741937066,1.4179451121511184,-1.8795666618331754,-0.7080801622217391,1.9496766358816249,0.18546647188634302,9.921041784790628e-05,-9.11501695997383e-05,-0.00038725490724117136,-0.0013600513438633097,-0.00046723892103915583,0.0005908120992459682,0.0017972657847683776,0.2689092457294464,-23.58578872680664,19.553329467773438,17.99811553955078,0.8897806406021118,2.3403213024139404,-0.14735259115695953,,,,,,,,,
1739401320.7403364,-0.707141848933368,0.6741985622074979,1.4179518715657917,-1.8795629570011831,-0.7080797635824914,1.9496742546642358,0.18545978575652977,-0.00012722046499088354,0.000483145192875711,0.0019682047737644816,-2.7803111103819847e-05,-0.00030726458274088963,8.397212420307575e-06,-0.0033644790716912338,0.2927129566669464,-23.63736343383789,19.477951049804688,17.94654083251953,0.8833719491958618,2.3604629039764404,-0.06678618490695953,,,,,,,,,
1739401320.7503967,-0.7071398244098378,0.674200120544743,1.4179480206630775,-1.879561163535135,-0.7080804035110799,1.9496743722403003,0.18546836870760453,0.0009102321152494971,0.0005198896926415302,0.0004704767539332037,8.386650605623038e-05,3.1047123181458824e-05,0.00019651286710093828,0.0026744195494449274,0.2689092457294464,-23.66513442993164,19.501754760742188,17.92273712158203,0.8897806406021118,2.3604629039764404,-0.12721098959445953,,,,,,,,,
1739401320.7623205,-0.7071428664525395,0.6742009492115555,1.417945111277424,-1.8795651087089578,-0.7080789870316754,1.949675012324978,0.18546206610472585,-0.0002995818001478398,0.00152924159524856,-0.00023910665509573644,-0.0014648979502824414,-1.2684534965800068e-05,-0.0002207592327670559,-0.00042416367807273736,0.2689092457294464,-23.63736343383789,19.553329467773438,17.97431182861328,0.8769632577896118,2.3540542125701904,-0.10066069662570953,,,,,,,,,
1739401320.7732935,-0.7071422427967007,0.6741972737239444,1.4179500951961426,-1.8795623215493753,-0.708081291990645,1.949676635881625,0.18546216616256303,-0.0005361820112938817,0.0003879608099481628,-0.0007037805030472145,-0.0012319427342048675,-0.0011729366340657954,0.0008523531326243025,-0.00042887133481717154,0.2927129566669464,-23.58578872680664,19.501754760742188,17.94654083251953,0.8961893320083618,2.3403213024139404,-0.08692778646945953,,,,,,,,,
1739401320.7834413,-0.7071398244200304,0.6741989248114287,1.4179486642831538,-1.8795600619570663,-0.7080805212488714,1.9496725910700048,0.18546448542259014,0.00048398341788723263,1.074700993160759e-05,0.0004754260193519688,0.00017117704301446856,2.4620251696901404e-05,-0.0004524384241312223,0.0003153248075152208,0.2689092457294464,-23.61355972290039,19.501754760742188,17.94654083251953,0.8897806406021118,2.3476455211639404,-0.13361968100070953,,,,,,,,,
1739401320.7954109,-0.7071421654052559,0.6741992363416325,1.4179490394763006,-1.8795606516213932,-0.7080821452904773,1.9496724373480832,0.18546653203824406,-0.0006942630272956997,0.0003882565713067648,-0.0009200090949531162,-0.00014957937660881043,0.00039907212374508107,-0.0010453890838315705,0.002416901103132307,0.2689092457294464,-23.61355972290039,19.529525756835938,17.94654083251953,0.9035135507583618,2.3668715953826904,-0.12080229818820953,,,,,,,,,
1739401320.80738,-0.7071399024255102,0.6741983976086952,1.4179549328660275,-1.879561251022713,-0.7080805207641341,1.9496757569004466,0.18546591047353103,-7.00742801633135e-05,-6.925973689471957e-05,0.0012455167964466629,0.0003724871723621312,-2.2792832362969966e-05,0.00028451339975969656,0.0012483413334064674,0.2689092457294464,-23.61355972290039,19.450180053710938,17.92273712158203,0.8897806406021118,2.3476455211639404,-0.13361968100070953,0,0,0,0.000,0,0
1739401320.8184023,-0.707139825383089,0.6741933099309003,1.4179529316283577,-1.8795629225439592,-0.70807975922792,1.9496742546642114,0.1854589740564915,-0.0003447188047114685,-0.0008908897380795829,5.908077107949672e-05,0.0009312550174925154,0.00041087455851594506,0.00035856053091940193,-0.0008068248368012473,0.2689092457294464,-23.56198501586914,19.477951049804688,17.94654083251953,0.8833719491958618,2.3604629039764404,-0.08692778646945953,0,0,0,0.000,0,0
1739401320.8284662,-0.7071426334121128,0.6741914561007102,1.4179510528474408,-1.879560891581047,-0.7080812826232828,1.9496766358816249,0.18546165800349626,-0.0011707919437409717,-0.002653964140605942,-0.0002593471136562661,6.0225667838218605e-05,0.000265952276463645,0.0009907201156277834,-0.002373606682302345,0.2689092457294464,-23.53818130493164,19.501754760742188,17.94654083251953,0.8961893320083618,2.3403213024139404,-0.10066069662570953,0,0,0,0.000,0,0
1739401320.839323,-0.7071378264830804,0.6741970328208877,1.4179529061665708,-1.8795626529242186,-0.7080807567238108,1.949675012324314,0.18546490529084034,0.0007084450835638989,-0.0007102748845043848,-0.0004610536580649822,-0.0005432062167065582,0.0005043232263561882,0.00038413957933412004,-7.226307761471889e-05,0.2411382496356964,-23.58578872680664,19.477951049804688,17.97431182861328,0.8897806406021118,2.3540542125701904,-0.10706938803195953,0,0,0,0.000,0,0
1739401320.8503163,-0.7071399024092166,0.6741963846220029,1.4179526903147581,-1.8795651170898142,-0.7080801168026106,1.9496792508768317,0.185461168137334,0.00019225567397345274,0.0011219841478643862,-0.0006837135688299668,-0.0005532910207095969,-0.0004906521395197021,0.0009408005028947429,-0.0010588027625084526,0.2689092457294464,-23.61355972290039,19.477951049804688,17.97431182861328,0.8833719491958618,2.3540542125701904,-0.06678618490695953,0,0,0,0.000,0,0
1739401320.861404,-0.7071398504097774,0.6741943336517057,1.4179528502375696,-1.8795619385527187,-0.7080763829970812,1.9496727394158595,0.18545897021298086,-0.000270174738819161,-0.0011424609761982913,0.0011541625971608822,-4.2728574904461644e-05,0.0025347046233403984,-0.00018735108797769814,0.001785364258554663,0.2689092457294464,-23.58578872680664,19.477951049804688,17.97431182861328,0.8897806406021118,2.3732802867889404,-0.08692778646945953,0,0,0,0.000,0,0
1739401320.871415,-0.7071398282601314,0.6742019935866654,1.4179469243145042,-1.87956507798528,-0.7080812658034155,1.949674973078458,0.18546136305387836,-0.0012181908851494584,0.0017788626882630416,-0.0004943156935513853,-0.0013816269312402053,0.0008493587569436868,-0.00045420917892876104,-0.0005101193965402404,0.2689092457294464,-23.66513442993164,19.529525756835938,17.97431182861328,0.8961893320083618,2.3540542125701904,-0.10706938803195953,0,0,0,0.000,0,0
1739401320.8834143,-0.707139834358861,0.6741992456407317,1.4179422979661545,-1.8795647983399348,-0.70807901028907,1.9496749730782361,0.18546535629007932,0.00012879889549976083,0.00039825184896598656,-0.0029796187081608384,-0.00031573158080691437,0.00023572055889789067,6.038969710588454e-05,-0.000934258180438894,0.2689092457294464,-23.61355972290039,19.577133178710938,17.97431182861328,0.8769632577896118,2.3540542125701904,-0.14094389975070953,0,0,0,0.000,0,0
1739401320.895346,-0.7071400614549984,0.6741968523031073,1.4179469289845552,-1.8795648397657396,-0.7080805735764669,1.949674254664162,0.18546421085180426,0.00021369764678174085,-0.0013154805377831888,0.0006782916355527566,-0.000946450573561154,-0.0005740222489674721,-0.0002483496411261819,3.1005586002466894e-05,0.2689092457294464,-23.61355972290039,19.529525756835938,17.97431182861328,0.8897806406021118,2.3604629039764404,-0.12721098959445953,0,0,0,0.000,0,0
1739401320.9063694,-0.7071388408034829,0.674199272084263,1.41794685332927,-1.8795629543519687,-0.7080821389918581,1.949674136926666,0.18546214655473275,0.0006025546700710386,-0.0003465055868776315,0.0002909418500636581,-0.00017620623029955047,-0.00036807529796162503,-0.0007691450377483798,0.0005203402869099336,0.2411382496356964,-23.61355972290039,19.529525756835938,17.94654083251953,0.9035135507583618,2.3604629039764404,-0.11347807943820953,0,0,0,0.000,0,0
1739401320.9173012,-0.7071356820967044,0.6741994170201873,1.4179497258956828,-1.8795647908539037,-0.708085319359665,1.9496749992416973,0.1854648100448016,0.002089641974522413,-7.309574184903328e-05,4.1034586955933415e-05,4.358792826837795e-05,-0.0024562504893480734,0.00014099801882301415,-0.0005129079779277652,0.2411382496356964,-23.58578872680664,19.477951049804688,17.97431182861328,0.9035135507583618,2.3540542125701904,-0.12721098959445953,0,0,0,0.000,0,0
1739401320.9273736,-0.7071429445243619,0.6741948105740531,1.417950040838129,-1.8795629718033862,-0.7080798028881896,1.9496757699841711,0.1854614114387181,-0.0014374084666724607,-0.0011861767162199654,0.0005528988410137234,0.001272902302577734,-0.00016025826691940486,0.00033755974824556324,-0.001118139903020763,0.2689092457294464,-23.58578872680664,19.477951049804688,17.97431182861328,0.8833719491958618,2.3476455211639404,-0.08051909506320953,0,0,0,0.000,0,0
1739401320.9383974,-0.7071400584291099,0.6741990293441309,1.4179540671515398,-1.8795651145842402,-0.7080806782322984,1.9496757699843925,0.1854676877308071,-0.00045330575421237906,0.0005634940402332392,0.00022684776787665318,-0.001055901402489733,-0.0012189492697254369,0.0003862088236103567,0.0019493853333537301,0.2689092457294464,-23.61355972290039,19.450180053710938,17.97431182861328,0.8897806406021118,2.3476455211639404,-0.13361968100070953,0,0,0,0.000,0,0
1739401320.9493463,-0.7071432841180333,0.6741948464185757,1.4179511220312135,-1.8795627185866248,-0.7080824456917477,1.949675012324314,0.18545983995105156,-0.0013251729210349023,-0.0013450019293949115,-0.0002362132028700084,-0.0006357458222852212,0.00017099180492958203,0.000506891555983334,-0.0003394045506289503,0.3165166676044464,-23.56198501586914,19.501754760742188,17.94654083251953,0.9035135507583618,2.3540542125701904,-0.09425200521945953,0,0,0,0.000,0,0
1739401320.9593983,-0.7071405264189242,0.6741931338871022,1.417950884743899,-1.8795668973043054,-0.7080805212537454,1.949675012324314,0.18546535417740673,-0.000661048354696839,-0.0008980871784720483,-0.00046812414595957927,-0.0012997113146390967,-0.00015199183259044204,0.00018730616235255781,0.0009164676248970007,0.2689092457294464,-23.53818130493164,19.501754760742188,17.99811553955078,0.8897806406021118,2.3540542125701904,-0.14094389975070953,0,0,0,0.000,0,0
1739401320.970344,-0.7071398247330317,0.6741944393333325,1.4179547697762171,-1.8795627866127764,-0.7080786527157835,1.9496754167716828,0.1854570610240633,-6.234350029168096e-05,-0.0004152411875164012,-0.0004227520370792808,-0.0006881693315228537,0.00043985146192288384,-0.0001679942957273743,-0.0016592596342092235,0.2689092457294464,-23.58578872680664,19.450180053710938,17.94654083251953,0.8769632577896118,2.3476455211639404,-0.06678618490695953,0,0,0,0.000,0,0
1739401320.9812925,-0.7071378352410161,0.6741963113123903,1.417951149870667,-1.8795594724308196,-0.7080812789067343,1.9496750123223203,0.18546210706536193,0.0010365377789849407,-0.0005568999381625431,-0.0010223231103225327,0.0006273902176956172,1.5802128192850197e-05,-0.0003414250656093939,-0.0008301506796775631,0.2411382496356964,-23.58578872680664,19.501754760742188,17.89893341064453,0.8961893320083618,2.3540542125701904,-0.11347807943820953,0,0,0,0.000,0,0
1739401320.9913611,-0.7071379346417926,0.6741963074238397,1.4179498332164424,-1.8795667939622884,-0.7080822625435306,1.949675012324314,0.18546063773427218,0.0005664628455984705,-0.0010831321954873038,-0.0002093332926354054,-0.0008757873594854349,-0.0009316561198530176,3.763181753328051e-05,-0.0008450980817978257,0.2411382496356964,-23.58578872680664,19.477951049804688,17.99811553955078,0.9035135507583618,2.3540542125701904,-0.10066069662570953,0,0,0,0.000,0,0
1739401321.0023065,-0.7071436429602004,0.6741969549913235,1.4179468989627015,-1.8795630600249944,-0.7080773379742757,1.9496742546642358,0.18546617385547573,-0.0014005281446372302,-6.729953116715696e-05,-0.0005486057390755748,-0.00013493797571281668,0.0008172161750289271,-0.0003185665721906457,0.0006654456619898315,0.2927129566669464,-23.58578872680664,19.553329467773438,17.94654083251953,0.8897806406021118,2.3604629039764404,-0.12080229818820953,0,0,0,0.000,0,0
1739401321.0123408,-0.7071415457025986,0.6741992672153186,1.4179511587912317,-1.8795620841130891,-0.7080797634268445,1.949675730738536,0.18545887519638593,-0.001069708647303532,0.00039922365112136525,0.001083909496685899,-0.00036142384189019003,0.00012115595573076586,-6.425986367990751e-05,-0.0024483249375939426,0.2927129566669464,-23.61355972290039,19.501754760742188,17.94654083251953,0.8833719491958618,2.3476455211639404,-0.07411040365695953,0,0,0,0.000,0,0
1739401321.0223637,-0.7071378264672731,0.674199269193801,1.41795290613083,-1.879558393935569,-0.7080797505066184,1.9496750123240927,0.18546621319187345,0.0006566743016037336,0.0003279394079436876,0.0006762165153264487,0.0004526381411669437,-0.00026132882331803914,-0.000177629813839286,0.0010376232838326398,0.2411382496356964,-23.61355972290039,19.477951049804688,17.92273712158203,0.8833719491958618,2.3540542125701904,-0.12080229818820953,0,0,0,0.000,0,0
1739401321.0343397,-0.7071385371442775,0.6741964022839844,1.4179461032042857,-1.8795629590378644,-0.708080521248576,1.949675765623742,0.18546173759113768,0.00040518427431759116,-0.00013990649637884376,-0.0009623188090121296,-0.0004309947723985173,-0.0001119592360701937,0.0003419043666843385,0.0007848433274999891,0.2411382496356964,-23.61355972290039,19.529525756835938,17.97431182861328,0.8897806406021118,2.3476455211639404,-0.07411040365695953,0,0,0,0.000,0,0
1739401321.0453115,-0.7071372102295786,0.6741992603581108,1.4179470577628996,-1.8795650900999699,-0.7080755244797572,1.949675012324306,0.18546110708563376,0.0014998867768947618,-0.00026975342435820853,-0.0004730845345537279,-0.0008310103611273746,0.0020094909336091575,-0.0005115734428126538,-0.0009692290148476093,0.2689092457294464,-23.61355972290039,19.553329467773438,17.97431182861328,0.8833719491958618,2.3540542125701904,-0.10066069662570953,0,0,0,0.000,0,0
1739401321.0563748,-0.7071417972093289,0.6742009964315566,1.4179508405888928,-1.8795648399112301,-0.7080798405549449,1.949675012324314,0.18546134957384988,-0.0006118227837648879,0.0015291487492366633,0.0014801123303804212,-0.0010729864014949817,0.0006083168845386626,-5.608296640250549e-06,0.0005947776110749024,0.2927129566669464,-23.63736343383789,19.501754760742188,17.97431182861328,0.8833719491958618,2.3540542125701904,-0.10706938803195953,0,0,0,0.000,0,0
1739401321.0674102,-0.7071401638520278,0.6741992721372901,1.4179462062242605,-1.8795609371809565,-0.7080805169060891,1.949675012324314,0.185458265130178,-0.0007522295371077067,-0.0006114845119921336,-0.000763104957249814,0.0016142309925937814,0.0007677403041576994,-0.00019307606641114517,-0.0002034832016025985,0.2689092457294464,-23.61355972290039,19.529525756835938,17.92273712158203,0.8897806406021118,2.3540542125701904,-0.08051909506320953,0,0,0,0.000,0,0
1739401321.0784013,-0.7071434834905411,0.6742027412368339,1.417945992078177,-1.8795647702121665,-0.7080769891215276,1.949675012324314,0.18546531234619676,-0.0015225505981847182,0.001008489828639323,-0.0006587511109167679,0.0005287687387648392,0.00010327340574119842,-4.626129902882733e-05,0.0011518561972062497,0.3165166676044464,-23.66513442993164,19.501754760742188,17.97431182861328,0.8897806406021118,2.3540542125701904,-0.11347807943820953,0,0,0,0.000,0,0
1739401321.0892894,-0.7071415715973023,0.6741970710977443,1.417948724326139,-1.8795623194397832,-0.708077040336272,1.9496742546642358,0.1854567056760397,-0.0008227930252733485,-3.828075114500018e-05,0.00016216310574802882,0.0004817652783785688,0.0005801469011557339,-0.00034589042374463916,-0.0019226917882669402,0.2927129566669464,-23.58578872680664,19.529525756835938,17.94654083251953,0.8961893320083618,2.3604629039764404,-0.06678618490695953,0,0,0,0.000,0,0
1739401321.099334,-0.7071399315174463,0.6742029825954128,1.4179519864999215,-1.8795630377741104,-0.7080798810928552,1.9496734970041574,0.18546317771346865,-2.4815892933842886e-05,0.0016760592243808697,0.0009019219749839019,-0.0015526396594300446,0.0009380114793368286,-0.0009142304300031565,-0.0003840390768612731,0.2411382496356964,-23.66513442993164,19.477951049804688,17.94654083251953,0.8833719491958618,2.3668715953826904,-0.11347807943820953,0,0,0,0.000,0,0
1739401321.1102924,-0.7071399027777577,0.6741926623880242,1.4179528229944782,-1.8795650381032714,-0.708081239663535,1.9496742546642358,0.18546484419395298,0.00033965683237440814,-0.0015589868714366447,-2.3163312146237794e-05,-0.0006445633089141058,5.666930954247203e-05,-0.0001857323945855363,0.0009654777542378507,0.2689092457294464,-23.56198501586914,19.477951049804688,17.97431182861328,0.8961893320083618,2.3604629039764404,-0.13361968100070953,0,0,0,0.000,0,0
1739401321.120326,-0.7071417834522566,0.6742009846088994,1.4179497493810767,-1.8795629579850213,-0.7080808744606951,1.949675012324314,0.18545790975524204,-0.000762777605107111,0.0014021105898616353,-0.0006350414924767584,0.00039107587613196413,-6.71649659444728e-06,-9.609944631011861e-05,-0.0005045269960594753,0.2927129566669464,-23.63736343383789,19.477951049804688,17.94654083251953,0.8897806406021118,2.3540542125701904,-0.07411040365695953,0,0,0,0.000,0,0
1739401321.130341,-0.7071415629333626,0.6741955603674876,1.4179527026887533,-1.879558288121143,-0.708076283186631,1.9496734970041574,0.18546385105134372,-0.00011071195439718009,-0.0006552065693040843,0.000867231434349939,0.0009877621874949903,0.00029816670203241803,-0.0003912918632380635,0.0009159419854227019,0.2927129566669464,-23.56198501586914,19.477951049804688,17.92273712158203,0.8897806406021118,2.3668715953826904,-0.12721098959445953,0,0,0,0.000,0,0
1739401321.1403625,-0.7071406461714286,0.6741972741963927,1.4179565527777878,-1.8795629569549746,-0.7080798027626563,1.949675012324314,0.18546759537589746,-0.0013495144788863113,-0.0001395636897790013,-0.00041245297318525005,-0.00023673579247102922,0.0001373282788316843,7.229161345349836e-06,0.000965274867013314,0.2411382496356964,-23.58578872680664,19.426376342773438,17.94654083251953,0.8833719491958618,2.3540542125701904,-0.12080229818820953,0,0,0,0.000,0,0
1739401321.15047,-0.7071398363325452,0.6741955603674884,1.417952914993233,-1.8795620180242176,-0.7080805212493133,1.9496766358816249,0.185463091511629,0.000513075982819708,-0.0005006159447270386,0.00022379811494967983,-0.0011572229657718987,-4.9602166369583654e-05,7.131028884743026e-05,-0.0010905676645349264,0.2689092457294464,-23.56198501586914,19.477951049804688,17.97431182861328,0.8897806406021118,2.3403213024139404,-0.12080229818820953,0,0,0,0.000,0,0
1739401321.1613545,-0.7071398547240876,0.674197300651022,1.417951978983656,-1.8795650906316157,-0.7080797635885716,1.9496766358816249,0.1854661123255999,0.00031038600579318023,0.00014709444398824999,0.00021726895597213886,-0.0006296664961394021,0.0006801984468453692,0.0008116201166613838,0.0004390784246472194,0.2689092457294464,-23.58578872680664,19.477951049804688,17.97431182861328,0.8833719491958618,2.3403213024139404,-0.14735259115695953,0,0,0,0.000,0,0
1739401321.1713786,-0.7071419305463694,0.6742009807338615,1.4179511587951206,-1.879565038102815,-0.7080812784242115,1.9496757699843925,0.18546146787604553,0.0001279956870477212,0.0008864671187281321,0.0011053100205047595,-0.0007049747594107738,2.0675332429932487e-05,0.0005733004876450395,0.0008012852623163672,0.2689092457294464,-23.63736343383789,19.501754760742188,17.97431182861328,0.8961893320083618,2.3476455211639404,-0.10706938803195953,0,0,0,0.000,0,0
1739401321.1823483,-0.7071398619760701,0.6741992631979119,1.417947295036351,-1.8795601753456663,-0.708083373416316,1.949675012324314,0.18545797275119247,0.0002248588466358765,-0.0002941566165859794,-0.001569883570999047,0.0006885446733947597,-0.001268588278413826,-0.00020267824888362036,-0.0006753160070477042,0.2689092457294464,-23.61355972290039,19.553329467773438,17.94654083251953,0.9099222421646118,2.3540542125701904,-0.07411040365695953,0,0,0,0.000,0,0
1739401321.1932967,-0.7071415489127341,0.6742009846579486,1.4179526937671318,-1.8795621501371453,-0.7080812658294345,1.949675016684965,0.18546218078453053,-0.0007958270520411941,0.00013828204439464658,0.000233501489603066,0.0005390184527682097,-0.0005231403195743152,-0.00019970104559592124,-0.0023749958749354604,0.2927129566669464,-23.63736343383789,19.477951049804688,17.97431182861328,0.8961893320083618,2.3540542125701904,-0.08692778646945953,0,0,0,0.000,0,0
1739401321.2034168,-0.7071398369269809,0.674199272137268,1.4179502041517629,-1.8795590033279779,-0.7080811219250802,1.9496734970042313,0.18546134945701317,0.00015116764349390515,0.0004550993228351906,0.0005048631224598569,0.0017680674496914598,0.0006021872819778062,-0.00026813750787784373,-0.0008643127917913013,0.2689092457294464,-23.61355972290039,19.501754760742188,17.92273712158203,0.8961893320083618,2.3668715953826904,-0.10706938803195953,0,0,0,0.000,0,0
1739401321.2143683,-0.7071416178189496,0.674199272137268,1.4179468508326654,-1.8795621737971226,-0.7080805212477638,1.9496750123243143,0.18545664032691897,0.00035308129652148834,-0.0002576894011539184,-0.0015567445568052613,0.00019943936004335682,0.00011654195304665286,3.4622428449640534e-05,-0.001905067108211365,0.2927129566669464,-23.61355972290039,19.529525756835938,17.97431182861328,0.8897806406021118,2.3540542125701904,-0.06678618490695953,0,0,0,0.000,0,0
1739401321.2252963,-0.7071381387932328,0.67419641078727,1.4179511468797306,-1.8795650792584644,-0.7080797640730883,1.9496750123243143,0.18546373110784278,-0.0003146441013236977,-0.00029455363937102994,0.0006003991257407207,-0.0011488918463858611,0.000182955348303275,0.0005107507519621194,0.0009384015899787724,0.2411382496356964,-23.61355972290039,19.501754760742188,17.97431182861328,0.8833719491958618,2.3540542125701904,-0.12721098959445953,0,0,0,0.000,0,0
1739401321.2353365,-0.7071443710825173,0.6741991916348047,1.4179470196610549,-1.8795594448504727,-0.7080797243427231,1.9496750123243143,0.18546214866653227,-0.0014475827129757318,-0.0004065890618298076,-0.0009736606656812459,0.0002779837286893758,0.0003438644019987662,0.00028223090735946145,-0.00033016394426419414,0.2927129566669464,-23.61355972290039,19.553329467773438,17.89893341064453,0.8833719491958618,2.3540542125701904,-0.11347807943820953,0,0,0,0.000,0,0
1739401321.246332,-0.7071398331265345,0.6741992633064958,1.4179501696689165,-1.879565113615051,-0.7080790190640591,1.9496757699843927,0.18546455260588296,0.00013546021221382145,0.000774052062009432,-7.321187654999012e-05,-0.0011345516946887923,-0.0006745154253926819,0.0003032151084329224,0.0023268643642559805,0.2689092457294464,-23.61355972290039,19.501754760742188,17.97431182861328,0.8769632577896118,2.3476455211639404,-0.12080229818820953,0,0,0,0.000,0,0
1739401321.2563658,-0.7071415369289553,0.6741951281020047,1.4179511457127174,-1.8795630377862087,-0.7080812789089508,1.9496734970041576,0.18546301296535792,0.0006014971296174961,-0.0006702526231941334,0.0010094116026908213,-4.037127220915781e-05,0.001195216524747438,-0.00041695502753860773,-0.000942058837617244,0.2927129566669464,-23.58578872680664,19.501754760742188,17.94654083251953,0.8961893320083618,2.3668715953826904,-0.12080229818820953,0,0,0,0.000,0,0
1739401321.2672975,-0.7071388504328072,0.6741971145841843,1.4179479680141855,-1.8795609342743784,-0.7080802327622899,1.9496752990341129,0.18546768711707537,-0.0004675677538178088,-0.0005610243788402335,-0.0008302727046307745,0.0006393563520985643,6.494464595471549e-05,-0.00045320364158062267,0.0014232848515810497,0.2411382496356964,-23.61355972290039,19.501754760742188,17.92273712158203,0.8833719491958618,2.3476455211639404,-0.13361968100070953,0,0,0,0.000,0,0
1739401321.2783415,-0.7071399380451473,0.6741970357656564,1.4179481121382684,-1.879561967898806,-0.7080808744640082,1.9496750123216557,0.1854565869858869,0.00046721569230131853,-0.00045388003566098354,-0.0005279490613403464,0.0008735087023982621,-0.00048306696959134855,-0.00034120787826177955,-0.0004868771002451578,0.2689092457294464,-23.58578872680664,19.529525756835938,17.94654083251953,0.8897806406021118,2.3540542125701904,-0.06678618490695953,0,0,0,0.000,0,0
1739401321.289297,-0.7071424740487704,0.6741992719905671,1.417954067598521,-1.8795640810070724,-0.7080805212506438,1.9496742546642358,0.18546246248297518,-0.0006099019069440637,0.0007271131452583259,0.0005407259294048764,-0.000286535543314506,-0.0003360337576808506,-0.00043481108301404346,-0.00120316045224417,0.2927129566669464,-23.61355972290039,19.450180053710938,17.97431182861328,0.8897806406021118,2.3604629039764404,-0.11347807943820953,0,0,0,0.000,0,0
1739401321.2993631,-0.7071364186772852,0.6741954812216752,1.41795293852885,-1.8795587208565283,-0.7080812789087283,1.9496757699843925,0.1854607121721579,0.001169662217567324,-0.0001836545017394691,0.0015428235398910464,0.0007418514846679777,0.00023325043886699765,-0.0003047910894384172,-0.0003668245839204065,0.2411382496356964,-23.56198501586914,19.477951049804688,17.89893341064453,0.8961893320083618,2.3476455211639404,-0.10066069662570953,0,0,0,0.000,0,0
1739401321.309375,-0.7071422416504075,0.6741971947221927,1.4179529061671188,-1.8795622871965394,-0.7080797635885716,1.9496734970041574,0.18546302561681538,-0.0015459494193370519,0.00011917522682778822,0.0009846121445150607,-0.0005955969847248433,-5.1213681708328824e-05,-0.00011320339711336558,0.00038160567219043626,0.2689092457294464,-23.58578872680664,19.477951049804688,17.94654083251953,0.8833719491958618,2.3668715953826904,-0.12080229818820953,0,0,0,0.000,0,0
1739401321.320331,-0.7071361409591606,0.6741970357773872,1.4179482712973188,-1.8795580752094851,-0.708081280523784,1.9496734970041574,0.18546411716538289,0.00047125112513884265,-0.0005421234724587865,-0.002358346568938958,0.002296069159858367,0.00045394943414771234,-0.00019652134532417416,0.0021871402527173745,0.2173345386981964,-23.58578872680664,19.501754760742188,17.92273712158203,0.8961893320083618,2.3668715953826904,-0.09425200521945953,0,0,0,0.000,0,0
1739401321.3303432,-0.7071400845193316,0.6741972212104708,1.417951842205991,-1.879562798986796,-0.7080766766082766,1.9496742532106857,0.1854607283276575,0.0003787734421415851,-3.9762563367422974e-05,0.0005623070453528748,0.0007708810806487512,0.0008098135087504883,-0.00043741635730091063,-0.0006628418617946445,0.2689092457294464,-23.58578872680664,19.450180053710938,17.94654083251953,0.8897806406021118,2.3604629039764404,-0.10066069662570953,0,0,0,0.000,0,0
1739401321.3403873,-0.7071380864754288,0.6741971937415115,1.4179469656443662,-1.8795612281781942,-0.7080812415358293,1.949674255148728,0.18546539415830865,0.00011314216589789394,-0.0006783896355274923,-0.0014329880801578273,-0.0001031054216798193,0.00022407758410413143,0.000184592849359881,-0.0002103263656879728,0.2411382496356964,-23.58578872680664,19.553329467773438,17.92273712158203,0.8961893320083618,2.3604629039764404,-0.14094389975070953,0,0,0,0.000,0,0
1739401321.3513079,-0.707140175043119,0.6741955616743212,1.4179508130062168,-1.8795621760987198,-0.7080797635879387,1.9496742546642443,0.18546488384224447,-0.0012361215046116853,0.0004044459238128989,-4.078731615677264e-05,-0.0005996467907395706,-0.0005079049573638215,-0.00016520077690607333,0.0006108732526222563,0.2689092457294464,-23.56198501586914,19.501754760742188,17.97431182861328,0.8833719491958618,2.3604629039764404,-0.13361968100070953,0,0,0,0.000,0,0
