IITGN-Robotics/Franka_IITGN_ROBOTICS/franka_ros/franka_iitgn/data/b_22.csv
time,fr3_joint1_pos,fr3_joint2_pos,fr3_joint3_pos,fr3_joint4_pos,fr3_joint5_pos,fr3_joint6_pos,fr3_joint7_pos,fr3_joint1_vel,fr3_joint2_vel,fr3_joint3_vel,fr3_joint4_vel,fr3_joint5_vel,fr3_joint6_vel,fr3_joint7_vel,fr3_joint1_eff,fr3_joint2_eff,fr3_joint3_eff,fr3_joint4_eff,fr3_joint5_eff,fr3_joint6_eff,fr3_joint7_eff,flexpin1,flexpin2,flexpin3,Force,ContactMic,ContactMic_gt
1739401346.0790007,-0.7070531621980677,0.6737619678440476,1.417919960387614,-1.8796059596103234,-0.7078052018411569,1.9499139845455224,0.1852480209029422,0.0006475710155863866,0.0008807025078705806,0.0001698601780367572,0.0012421592269352944,0.00014656768090993727,0.0003858113912451983,-0.00017889449068352644,0.2689092457294464,-23.66513442993164,19.477951049804688,17.92273712158203,1.0344339609146118,2.3604629039764404,-0.12721098959445953,,,,,,,,,
1739401346.089007,-0.7070505371227563,0.6737599698913066,1.4179200627108128,-1.8796140792782075,-0.7078058375635181,1.9499124692253662,0.1852511602879961,0.0002449652317053465,-0.0007365029586120074,0.0006757756687107317,-0.0015903038369949121,-0.00013490072999454978,-0.00016323141128736775,0.0014757617590178086,0.2689092457294464,-23.63736343383789,19.477951049804688,17.99811553955078,1.0472513437271118,2.3732802867889404,-0.15376128256320953,,,,,,,,,
1739401346.1009378,-0.707050563250622,0.6737636806738827,1.4179199992610554,-1.8796060523555247,-0.707807457649665,1.9499147421338208,0.18525040262794357,0.0003354496273342456,0.0008724094526798849,0.001384754431463416,0.0007296237322032138,3.2813459937965994e-06,-0.00021221523439307372,0.0005020222020075918,0.2689092457294464,-23.68893814086914,19.450180053710938,17.92273712158203,1.0536600351333618,2.3540542125701904,-0.14735259115695953,,,,,,,,,
1739401346.1119928,-0.7070530566559307,0.6737599698913078,1.4179220438208944,-1.8796077413080712,-0.7078067117649001,1.9499124692253658,0.1852511602880219,-0.0009846352613537119,-5.9552302582384484e-05,0.0016184381666824908,0.0004102354823840833,0.0005685342632014711,0.0003659931769479267,-0.0002989458835426131,0.2927129566669464,-23.63736343383789,19.450180053710938,17.94654083251953,1.0472513437271118,2.3732802867889404,-0.15376128256320953,,,,,,,,,
1739401346.1229274,-0.7070520060121155,0.673759967002375,1.417916111284188,-1.879613829429019,-0.7078009253327892,1.9499085326508996,0.18524481964850997,0.000497001015461939,9.259937856660929e-05,0.0006186846221689396,-0.0015043191576275673,0.0012658055622396655,-0.001262062585394632,-0.0016364358512523038,0.2927129566669464,-23.63736343383789,19.501754760742188,17.99811553955078,1.0344339609146118,2.3796889781951904,-0.12721098959445953,,,,,,,,,
1739401346.1359842,-0.7070532387274239,0.6737659122971581,1.4179140315954162,-1.8796127881637166,-0.707805959983752,1.9499132268794626,0.18524877899237924,-0.001631138435824782,0.002502367362673263,-0.0002069388788390228,-0.0011396243929243735,-9.539400059096533e-05,-0.0008264378341405329,-0.0010954444553814271,0.2689092457294464,-23.71670913696289,19.529525756835938,17.97431182861328,1.0408426523208618,2.3668715953826904,-0.13361968100070953,,,,,,,,,
1739401346.1460078,-0.7070515187946635,0.6737741304211545,1.4179089792814596,-1.8796082940772194,-0.7078056671941559,1.9499073749217808,0.18525383878205368,-0.0008402872220987314,0.0024397175969822194,-0.0009686148900957933,0.0004463857262784742,-0.0018850749971481531,-0.00018551116392742997,0.0006400748182929256,0.2411382496356964,-23.51041030883789,19.426376342773438,17.92273712158203,0.9291483163833618,2.3339126110076904,-0.12080229818820953,,,,,,,,,
1739401346.15603,-0.7070500458205756,0.6737931174442553,1.4179040118920894,-1.8796092838530356,-0.7078071146692663,1.9498952424336666,0.18526234133731284,-0.0005357121028378097,0.002034381646192913,-0.00099720567048757,0.0002713086498721358,-0.0007819534823407894,-0.0008601757471783783,0.002285832579156655,0.2173345386981964,-23.48660659790039,19.323226928710938,17.92273712158203,0.8897806406021118,2.3604629039764404,-0.12721098959445953,,,,,,,,,
1739401346.1669695,-0.7070534185640073,0.6738087692271263,1.4178823071378108,-1.8796131453866085,-0.7078104724165428,1.94989228766782,0.18526598315559686,-0.00015177271409510997,0.00019596682119446565,-0.0012990603834687438,-0.0008042491485889341,0.00066007254156769,0.0001481172543432483,0.0009963314942385915,0.1935308277606964,-23.48660659790039,19.402572631835938,17.94654083251953,0.8897806406021118,2.3403213024139404,-0.08051909506320953,,,,,,,,,
1739401346.1780016,-0.7070530263913103,0.6738249147282991,1.417866731243612,-1.8796167499236358,-0.7078081101456719,1.9498851361397467,0.18526991180321856,0.0006583470361239065,0.0019433924441695978,-0.0011510591184694307,0.0005191306842589659,-0.0007645431677030846,-0.0005899617961793387,0.0004857661134755498,0.2173345386981964,-23.53818130493164,19.450180053710938,18.02191925048828,0.8833719491958618,2.3604629039764404,-0.10066069662570953,,,,,,,,,
1739401346.1889474,-0.7070572909088703,0.6738346957621882,1.4178563165217835,-1.87961724979709,-0.7078136984959784,1.9498811252667019,0.1852786688445891,-0.0017857076821475356,0.0021792183276290976,-0.0009236650459962144,-0.00036599153958964675,-0.0010214663363431757,-0.00029238358733189895,0.0005582970788421847,0.2411382496356964,-23.56198501586914,19.450180053710938,17.99811553955078,0.9035135507583618,2.3540542125701904,-0.10706938803195953,,,,,,,,,
1739401346.1990511,-0.7070571941900711,0.6738427351802526,1.4178507205030915,-1.8796180410249677,-0.7078128195888802,1.9498815296333178,0.18527431236817224,0.0007160248821556947,0.0008319261104253267,0.0004858443400420324,-0.0021807034394023023,-0.0005867294063909683,0.00022062214146143855,-0.00116527360015201,0.2411382496356964,-23.58578872680664,19.426376342773438,17.99811553955078,0.8961893320083618,2.3476455211639404,-0.09425200521945953,,,,,,,,,
1739401346.2100613,-0.7070623576732068,0.6738537471833477,1.4178388671882167,-1.8796083160750976,-0.7078114220060732,1.9498793939472967,0.18528070267303162,-0.0007446670098206433,0.001715193363181747,-0.00038915157833920364,-0.0009053242633089364,7.360754203558195e-05,-0.00023154069017194165,0.0008987065345201733,0.2927129566669464,-23.61355972290039,19.477951049804688,17.89893341064453,0.8833719491958618,2.3403213024139404,-0.12080229818820953,,,,,,,,,
1739401346.2209942,-0.7070648125097422,0.6738620734906814,1.417833014615574,-1.8796059975391965,-0.7078124545493182,1.9498759921053501,0.18527995380494844,0.0006911840935557487,0.0016078346976553261,-0.0005963818305030283,0.00020399139678044695,-0.0007074336359125675,0.0004846745588755061,-0.00024395760162702112,0.2927129566669464,-23.63736343383789,19.501754760742188,17.87512969970703,0.8897806406021118,2.3604629039764404,-0.11347807943820953,,,,,,,,,
1739401346.231013,-0.7070666162726288,0.6738654296382642,1.4178198861990718,-1.8796161439916446,-0.707812417247513,1.9498740840022908,0.18528002529059667,0.0005557144376321312,2.447305748622781e-05,-0.0017304843861276628,-0.0017277241156594147,-0.00033941411140514445,-0.00029463808362371267,0.001300487550094567,0.3165166676044464,-23.63736343383789,19.553329467773438,17.97431182861328,0.8897806406021118,2.3732802867889404,-0.07411040365695953,,,,,,,,,
1739401346.2429326,-0.7070713819287462,0.6738746482400735,1.4178117372113541,-1.8796173225644162,-0.7078139317706075,1.9498755991542875,0.1852808774638034,-7.86369843142321e-05,0.0012059814709969273,-6.42979583244124e-07,0.0005328661126543335,-0.000277584227994356,0.0003895713736363066,0.00013859042541079097,0.3442876636981964,-23.71670913696289,19.604904174804688,17.99811553955078,0.8961893320083618,2.3604629039764404,-0.09425200521945953,,,,,,,,,
1739401346.2529662,-0.7070687000475859,0.673876975501696,1.4178061180624635,-1.8796162315796308,-0.7078136855047272,1.9498748413327032,0.1852795048958281,0.0008670875661437125,-0.0009361192637763249,-0.0011770102382632432,2.8676597428993152e-05,0.0013554580956001794,-0.00012741406319439295,-1.2753578245972485e-05,0.2927129566669464,-23.66513442993164,19.604904174804688,17.97431182861328,0.9035135507583618,2.3668715953826904,-0.10066069662570953,,,,,,,,,
1739401346.2640235,-0.7070720844874928,0.6738759516995558,1.4178067397800924,-1.8796141835285831,-0.7078128930527574,1.9498737818560785,0.18527292131778372,0.0003679985346552625,-0.00020155774354864333,0.0004368766440827432,4.8635814514949246e-05,0.0002267652301577348,-0.00022439444137743405,-0.003074873157267841,0.3165166676044464,-23.63736343383789,19.553329467773438,17.97431182861328,0.8833719491958618,2.3668715953826904,-0.05396880581974983,,,,,,,,,
1739401346.2750676,-0.7070663115267722,0.6738802111848412,1.4178104143757304,-1.8796141020381685,-0.7078159544120156,1.9498724660187634,0.1852777221425508,0.0011859578737114845,-0.0011456757985367516,0.00041958032137602206,-0.0009887012143124049,0.0002069013595322455,-0.0015717039742691576,-0.0015615577660518685,0.2689092457294464,-23.66513442993164,19.501754760742188,17.94654083251953,0.8833719491958618,2.3476455211639404,-0.09425200521945953,,,,,,,,,
1739401346.2869706,-0.7070673093847458,0.6738772718321547,1.417810487755147,-1.879614076605857,-0.7078128485034666,1.9498732976361013,0.18527990767137748,-0.0012799336451123275,-0.0002500603946352627,0.0005400823970282708,-0.00020363559019234419,0.0008436380174300174,-0.0017452004022799885,-0.0014834900356866442,0.2689092457294464,-23.63736343383789,19.501754760742188,17.94654083251953,0.8833719491958618,2.3668715953826904,-0.07411040365695953,,,,,,,,,
1739401346.297023,-0.7070669888462108,0.6738745150032339,1.4178122745267467,-1.8796212240758143,-0.7078160726218848,1.9498716494891535,0.1852831144390789,-0.0007954430097852097,-0.0005950152954092647,-0.00019940663970932925,-0.0023552896251928875,-0.0001860910559744315,-0.0007545485983195559,0.0004950824378386244,0.2689092457294464,-23.58578872680664,19.477951049804688,18.04572296142578,0.8833719491958618,2.3668715953826904,-0.12721098959445953,,,,,,,,,
1739401346.3089447,-0.707064277283055,0.6738728025242248,1.4178161365737298,-1.8796160249916982,-0.7078175879064066,1.9498745388521166,0.18528320937762777,0.0010028546334494798,-9.222936671135756e-06,0.00011412914967141276,0.0008934517328063091,-0.000742064471620794,0.00033673693993864094,0.0013243873820597786,0.2411382496356964,-23.56198501586914,19.426376342773438,17.97431182861328,0.8961893320083618,2.3604629039764404,-0.10066069662570953,,,,,,,,,
1739401346.3199341,-0.7070662722764293,0.6738713230257676,1.4178229664975268,-1.8796141784660751,-0.7078168303001634,1.9498769967348788,0.18528636064018758,-0.0006495259142611504,0.001308253614529227,0.0005989903399153635,0.0004215488740994781,-0.0009521015520955463,-0.0006359605283739524,0.0020920224179766652,0.2689092457294464,-23.53818130493164,19.374801635742188,17.94654083251953,0.8897806406021118,2.3476455211639404,-0.12721098959445953,,,,,,,,,
1739401346.3300207,-0.7070663517492833,0.6738682293054831,1.4178164249921952,-1.8796123946347285,-0.7078168298156468,1.949877978916132,0.18527874602411495,0.00026016784309879125,-0.0008044913131798712,-0.001340550477629153,0.00014604059445634337,-0.0006510018702410537,-0.00028783584303453146,-0.0008844037895984087,0.2689092457294464,-23.53818130493164,19.426376342773438,17.92273712158203,0.8897806406021118,2.3403213024139404,-0.06678618490695953,,,,,,,,,
1739401346.3409715,-0.7070663606163885,0.6738659837383072,1.417823227377327,-1.8796085426889573,-0.7078160668258815,1.949876225994835,0.18528324922309433,-0.000773662770845622,-0.0018536685466572305,0.0009712794452587205,0.0003767619574698122,-0.0004604731873893177,-2.2679757257469462e-05,-0.00035767342069591504,0.2689092457294464,-23.51041030883789,19.374801635742188,17.89893341064453,0.8833719491958618,2.3540542125701904,-0.10066069662570953,,,,,,,,,
1739401346.3510056,-0.7070662722779197,0.6738659660775195,1.4178212840198625,-1.8796093853872688,-0.7078153149799083,1.9498771144722284,0.18528088178069632,0.0006428096531715371,-0.0024250105905158155,0.001572053185922432,-0.0005800643634720107,0.0010004169567463216,0.0006061357341668313,0.00017797570883397646,0.2689092457294464,-23.51041030883789,19.402572631835938,17.92273712158203,0.8769632577896118,2.3476455211639404,-0.08051909506320953,,,,,,,,,
1739401346.362,-0.7070684445709275,0.6738765027206337,1.417815282721831,-1.879613863898555,-0.7078168303001635,1.9498747738981477,0.18528322322106336,-0.0007798604938928801,0.0010663053624221017,-0.0005534382661799539,0.0002036122416858459,0.00029615111109192584,-0.001122284347099459,-0.0008408787235013624,0.2689092457294464,-23.61355972290039,19.477951049804688,17.94654083251953,0.8897806406021118,2.3540542125701904,-0.10066069662570953,,,,,,,,,
1739401346.372968,-0.7070703689952086,0.6738764070219384,1.417813273751875,-1.8796181469654112,-0.707813494402349,1.9498760541813567,0.18528525012172836,6.0698547686107174e-05,-0.0006631737605598371,0.00016454996253576854,-0.002205918478629577,0.0013950246488106004,0.0006696002337551296,-0.00014456603815543817,0.2927129566669464,-23.61355972290039,19.477951049804688,17.99811553955078,0.8897806406021118,2.3476455211639404,-0.12080229818820953,,,,,,,,,
1739401346.3840227,-0.7070663900274524,0.6738782283948733,1.4178084124046977,-1.8796159946206379,-0.7078164796153228,1.9498734281528676,0.1852800838553404,0.00018752818231808124,0.00041669306393983464,-0.0002907745420977166,-0.00019436556426748506,-6.819313822707245e-05,-0.0004419157593941408,-0.0010095225523173877,0.2689092457294464,-23.63736343383789,19.529525756835938,17.97431182861328,0.8833719491958618,2.3668715953826904,-0.07411040365695953,,,,,,,,,
1739401346.3949327,-0.7070728235780812,0.6738767595079473,1.4178066293828782,-1.879611397686125,-0.7078153716707639,1.9498752280064795,0.18528481817687212,-0.0008941108750879068,8.643156016188361e-05,-0.00028708687541641176,0.0007246342841402506,0.0003030346388810884,0.000286376506432354,-0.0012556995766500045,0.3165166676044464,-23.61355972290039,19.553329467773438,17.94654083251953,0.8769632577896118,2.3604629039764404,-0.11347807943820953,,,,,,,,,
1739401346.4049902,-0.707071122556337,0.6738782630668197,1.4178104919628047,-1.8796151355017992,-0.7078203111935626,1.949875599148002,0.18527746670824238,-0.0016546872678807282,-3.869410026655903e-05,0.00023951983390915386,-0.0004478681319409063,-0.00031310118557603065,0.0011837985473794068,-0.0012348049028381282,0.2927129566669464,-23.63736343383789,19.501754760742188,17.99811553955078,0.8833719491958618,2.3604629039764404,-0.08692778646945953,,,,,,,,,
1739401346.415021,-0.7070709528182016,0.6738784604735738,1.4178063985348732,-1.879619710289262,-0.7078168701023172,1.9498750870200838,0.1852804588926448,-0.00015985230078953045,-0.00040710687244102883,-0.0007055715603153254,-0.0006620397059789139,-0.0010748438430218778,-6.149820583361747e-05,0.000391690461833171,0.2927129566669464,-23.63736343383789,19.553329467773438,18.02191925048828,0.8897806406021118,2.3604629039764404,-0.07411040365695953,,,,,,,,,
1739401346.4250207,-0.707062891530299,0.6738768251013463,1.417805350879168,-1.8796180419126145,-0.7078160740943096,1.9498719811349354,0.18529064023158617,0.0005259197719560357,-0.0001353685964985948,-0.000272104192180481,-0.0008531780677842988,0.0006127996601526373,-0.0004072751400487663,0.0019145985294563295,0.2173345386981964,-23.61355972290039,19.529525756835938,17.99811553955078,0.8833719491958618,2.3540542125701904,-0.12721098959445953,,,,,,,,,
1739401346.435045,-0.707070926715759,0.6738795665912825,1.4178076602093528,-1.8796233891784557,-0.7078210703062559,1.949870563460227,0.18528163983882429,-0.0011224786461211556,0.00046094107156256596,0.0007996018629682036,-0.0008774722368731997,-0.0016963576818333139,-0.0009838063920469741,-0.0023756084683919073,0.2927129566669464,-23.61355972290039,19.501754760742188,18.06952667236328,0.8897806406021118,2.3668715953826904,-0.08692778646945953,,,,,,,,,
1739401346.4460127,-0.7070684446602123,0.6738767292673965,1.417807503092202,-1.8796199032245857,-0.707817588038012,1.9498747230864668,0.18528933918349524,-0.0007588661495107048,-9.716734865571714e-05,9.914150033063149e-05,-0.000466821360042712,-0.0005793231362428472,0.0016388735674657394,0.0002792096995079061,0.2689092457294464,-23.58578872680664,19.501754760742188,18.02191925048828,0.8961893320083618,2.3668715953826904,-0.14094389975070953,,,,,,,,,
1739401346.456031,-0.7070662988041664,0.6738795814961401,1.4178121635137442,-1.8796141530630326,-0.7078183608885739,1.9498733304624343,0.18528333269679045,-3.453905407753583e-05,0.00025982877875631587,0.0014463197686611444,-0.00016617468958335835,8.742107849291966e-05,0.00019534693980118522,-0.0007219724483592184,0.2689092457294464,-23.61355972290039,19.477951049804688,17.94654083251953,0.8897806406021118,2.3403213024139404,-0.07411040365695953,,,,,,,,,
1739401346.4669495,-0.7070646023656723,0.6738752299478984,1.4178081107938496,-1.87961415169682,-0.7078203112012429,1.9498708309448798,0.18529191304489395,0.0012567652387508576,-0.00047692847640698753,-0.0010909691301892,-0.0002458125389082634,-0.0011929218354569198,-0.00048655838878428997,0.001203038012395487,0.2411382496356964,-23.58578872680664,19.501754760742188,17.94654083251953,0.8833719491958618,2.3604629039764404,-0.13361968100070953,,,,,,,,,
1739401346.4770482,-0.7070687460791426,0.6738735133203834,1.4178136570082491,-1.879614175736615,-0.7078207667849048,1.949874009697096,0.1852800845875658,-4.9015845484553873e-05,-0.001427534518731384,-1.6812935667490157e-05,-0.0006851934068860658,0.0004521510930208145,-0.00031669311293341387,-0.0027314207172678996,0.2689092457294464,-23.56198501586914,19.450180053710938,17.94654083251953,0.8961893320083618,2.3604629039764404,-0.07411040365695953,,,,,,,,,
1739401346.4880264,-0.7070687132578254,0.6738788540226669,1.4178104922980301,-1.8796117071296736,-0.7078171314886312,1.9498736241638228,0.18528728261506397,-0.00024208346627126873,0.0010248345334475638,-0.0014402451484528175,0.0013508650832852124,0.00010627926986317054,0.0008994076081325858,0.0011176797899920187,0.2927129566669464,-23.61355972290039,19.501754760742188,17.92273712158203,0.8833719491958618,2.3668715953826904,-0.13361968100070953,,,,,,,,,
1739401346.4990466,-0.7070679890529016,0.6738704887132545,1.4178161371443856,-1.8796134132734004,-0.7078175881815599,1.949871134718869,0.1852871769792178,9.704061079424638e-05,-0.0008143756871747889,-0.0003244924176693596,0.00042019840087184266,0.0012655328749002026,-0.00018203382430493915,0.0016883636729727784,0.2927129566669464,-23.53818130493164,19.426376342773438,17.94654083251953,0.8961893320083618,2.3668715953826904,-0.13361968100070953,,,,,,,,,
1739401346.510031,-0.7070679849061952,0.6738768509873553,1.4178211339063236,-1.8796106249868916,-0.7078214739460731,1.949871303192528,0.18528402098408578,0.0010153291135410638,1.4873358744627529e-05,0.002488232668005818,-0.00037919348512022513,-0.0016355704652623473,-0.0006270677670286779,-0.001914261874791419,0.2927129566669464,-23.61355972290039,19.402572631835938,17.89893341064453,0.8961893320083618,2.3604629039764404,-0.10706938803195953,,,,,,,,,
1739401346.5210476,-0.7070642835292766,0.6738758834106698,1.4178104918678953,-1.8796161776328493,-0.7078168308066168,1.9498754749322431,0.18528101436983652,0.0019117108113973782,0.0004073541352259655,0.0002875187389305187,0.0003498243778725429,0.0011555070185105883,0.00025617590677611034,-0.0012912337291978424,0.2411382496356964,-23.56198501586914,19.501754760742188,17.97431182861328,0.8897806406021118,2.3604629039764404,-0.08051909506320953,,,,,,,,,
1739401346.531996,-0.7070674886802979,0.6738768336745546,1.4178104919628047,-1.8796120811680888,-0.70781850697635,1.9498723853749351,0.18528866909856478,0.00015552884466045426,-0.0005729837387729523,-0.001272402975907144,0.0007115418171962236,0.00040853168023931324,-0.00023691603067072008,0.0009378757912013911,0.2411382496356964,-23.61355972290039,19.501754760742188,17.92273712158203,0.8769632577896118,2.3476455211639404,-0.13361968100070953,,,,,,,,,
1739401346.5429664,-0.7070669909661491,0.6738811462533727,1.4178104918497514,-1.879613940478186,-0.7078162311489161,1.949875999160474,0.1852887580505541,0.00015091155343969576,0.0006218314116296739,0.0004929038663051447,0.001618959615281045,-0.00036690701309807165,0.0019400879128204868,0.001046331670935087,0.2689092457294464,-23.63736343383789,19.501754760742188,17.94654083251953,0.8833719491958618,2.3540542125701904,-0.14735259115695953,,,,,,,,,
1739401346.5530038,-0.7070684219803923,0.6738832698212175,1.4178102509237975,-1.8796198237113544,-0.7078166921572605,1.9498751212905994,0.18528246621308878,-0.0002791045969513941,0.0006796802710564058,-0.0009497905860312741,-0.001649464766246872,0.0006132377777635801,0.000675585069954952,-0.0026603732219545604,0.2689092457294464,-23.66513442993164,19.501754760742188,18.02191925048828,0.9035135507583618,2.3540542125701904,-0.09425200521945953,,,,,,,,,
1739401346.5640259,-0.7070671710189749,0.6738818176558949,1.4178066293815161,-1.8796180861832155,-0.7078175881656379,1.9498708308026484,0.18528196635030864,-0.0004693001391366801,0.0006460175975983759,-0.0006254770773713477,-1.7925669456456188e-05,0.0006239801882292688,-0.001059172819800217,-0.0006080844887274515,0.2411382496356964,-23.61355972290039,19.553329467773438,17.99811553955078,0.8961893320083618,2.3604629039764404,-0.08051909506320953,,,,,,,,,
1739401346.5740592,-0.7070665137965139,0.6738796751207742,1.4178084120598953,-1.8796141785722575,-0.7078164528033057,1.9498747722023393,0.1852870031391029,-0.00018615409129788858,0.00012555721881131053,-0.0007574524239345855,0.0008515689682374139,-0.00018268474763923163,6.720677344492306e-05,-0.00010286368180725076,0.2689092457294464,-23.61355972290039,19.529525756835938,17.94654083251953,0.9035135507583618,2.3540542125701904,-0.13361968100070953,,,,,,,,,
1739401346.5849707,-0.7070680908713475,0.6738831369344394,1.4178104143755226,-1.8796162582563698,-0.707816830719549,1.949870830854513,0.18528512078079773,-0.00046254671520625336,-0.0002944599411503065,0.0009482741508033942,5.388619514271791e-05,0.00026812190501484146,8.631177321808669e-05,-0.002361787201538893,0.2927129566669464,-23.66513442993164,19.501754760742188,17.97431182861328,0.8897806406021118,2.3604629039764404,-0.08051909506320953,,,,,,,,,
1739401346.5969791,-0.707066360725555,0.6738797427296651,1.4178065487238591,-1.8796171865258573,-0.7078175881217499,1.9498709485202756,0.18528477888535455,0.0003281378869801692,-6.695781883224976e-05,-0.00016307138589889429,-0.00024150095410630748,0.0009396639563764319,0.0005251833363214236,-0.001272747579384907,0.2689092457294464,-23.61355972290039,19.553329467773438,17.97431182861328,0.8961893320083618,2.3604629039764404,-0.11347807943820953,,,,,,,,,
1739401346.6079874,-0.7070689385079765,0.6738781073740817,1.4178103770613004,-1.8796162583630949,-0.7078175886242096,1.949874767357393,0.18528957673814156,0.0006476887442086942,-0.001243335580721575,0.0002247776247515,-0.0011641373181992135,0.0008496733566874129,0.0007469599606637618,0.0010379206952529172,0.2927129566669464,-23.56198501586914,19.501754760742188,17.97431182861328,0.8961893320083618,2.3540542125701904,-0.12721098959445953,,,,,,,,,
1739401346.6189754,-0.7070699753147544,0.6738813848918754,1.4178104905893592,-1.8796160284581511,-0.7078211865902546,1.9498715928213795,0.18528608471240413,-0.0015290250337951987,0.0006176054724042161,1.7854418851912147e-05,-0.0004373861323153862,-0.001323687474518949,3.430955402475267e-05,0.0007306596641477559,0.3165166676044464,-23.63736343383789,19.501754760742188,17.97431182861328,0.8897806406021118,2.3540542125701904,-0.12080229818820953,,,,,,,,,
1739401346.6299388,-0.7070725622701289,0.673877709412406,1.4178081959671158,-1.8796123618775047,-0.707816427541625,1.9498715884428577,0.18528955089060595,-0.0011066587056818527,-0.0005582352229341033,-0.0003081171214593969,0.0005021265878297969,0.0003455820112605629,0.0003788998470012756,0.001184107006583984,0.3165166676044464,-23.58578872680664,19.501754760742188,17.92273712158203,0.8833719491958618,2.3540542125701904,-0.11347807943820953,,,,,,,,,
1739401346.6399806,-0.7070662855199036,0.6738760410434571,1.4178179206401955,-1.879610613112284,-0.7078169480397369,1.9498715884427837,0.18528010252006358,0.001857267787005756,-0.0007398696646876671,0.0010915167073645715,0.0005837114404782637,3.9996130435864625e-05,-0.0003505836687370913,-0.0008669175144491582,0.2689092457294464,-23.56198501586914,19.402572631835938,17.89893341064453,0.8897806406021118,2.3540542125701904,-0.07411040365695953,,,,,,,,,
1739401346.651057,-0.7070663518947132,0.6738776740915778,1.4178143542116524,-1.879610591632233,-0.7078201668985004,1.9498732120000946,0.18528798296139593,0.0011537624106980142,-0.0006978989351351209,-7.946665259199779e-05,0.0009241025000618164,-0.001027206878833557,0.00026274798766797407,0.001939266297709454,0.2689092457294464,-23.58578872680664,19.450180053710938,17.89893341064453,0.8897806406021118,2.3403213024139404,-0.10066069662570953,,,,,,,,,
1739401346.6619911,-0.7070684487875717,0.6738776740911293,1.4178179196706617,-1.8796123707113503,-0.7078143201995108,1.9498715884427837,0.185287083596552,-0.0008706590553363095,0.002239612150539264,0.0010480360587429493,0.00027445028878024053,0.000623807358013385,-0.0002795720669508707,0.0007335112695379603,0.2689092457294464,-23.58578872680664,19.402572631835938,17.92273712158203,0.8833719491958618,2.3540542125701904,-0.12080229818820953,,,,,,,,,
1739401346.6729336,-0.7070691450893383,0.6738742490496669,1.417812275544255,-1.8796121009394013,-0.7078171841735432,1.9498723461028622,0.18528244195399973,0.00034309032210989415,-0.0004860750507939673,-0.0003920740838872195,0.001706070637998063,0.0010147947105521786,9.440699996408661e-05,-0.0019692751698339554,0.2689092457294464,-23.53818130493164,19.477951049804688,17.94654083251953,0.8897806406021118,2.3476455211639404,-0.08051909506320953,,,,,,,,,
1739401346.6839545,-0.707067261615277,0.673877673770137,1.4178143543166313,-1.8796162594761217,-0.707820009701066,1.9498708307827055,0.18528715574270324,-0.0017618870491802193,-1.0704682314062805e-05,-0.00042042736808701905,-0.00033039549871032405,-1.2216147562043916e-06,-0.0004796384345769248,-0.0001699199600515356,0.2689092457294464,-23.58578872680664,19.450180053710938,17.97431182861328,0.8897806406021118,2.3604629039764404,-0.12080229818820953,,,,,,,,,
1739401346.6940076,-0.7070633568872399,0.6738742490496614,1.417810491849751,-1.8796162583613674,-0.7078200094299006,1.9498708831105143,0.18528545958642137,0.0016413561925141163,-0.001009758644782113,-0.0006927364817591348,-0.001206040495669549,0.000655041083268713,0.00022341577936698775,0.00010554456459253381,0.2173345386981964,-23.53818130493164,19.501754760742188,17.97431182861328,0.8897806406021118,2.3604629039764404,-0.08692778646945953,,,,,,,,,
1739401346.7040565,-0.7070651043989032,0.6738797044643222,1.4178140706992923,-1.879612395894474,-0.7078171880888685,1.9498708307835915,0.18529142322673636,0.0009763287611691383,0.0010277408716093269,0.0008259864832384986,0.0005602535847981634,0.0005701915363468547,-0.0003692060246238004,0.002844302534811195,0.2411382496356964,-23.61355972290039,19.426376342773438,17.92273712158203,0.8897806406021118,2.3604629039764404,-0.12080229818820953,,,,,,,,,
1739401346.7149918,-0.7070665121169,0.6738813974168162,1.417806629336219,-1.8796180410383676,-0.7078160732881272,1.9498715884427837,0.1852841591486339,-0.0001322665608981018,0.0007539743934985544,0.0002817353226093796,0.00021483283867519763,0.002003144148927794,7.891412663424082e-05,-0.00017463836161742398,0.2689092457294464,-23.63736343383789,19.553329467773438,17.99811553955078,0.8833719491958618,2.3540542125701904,-0.10706938803195953,,,,,,,,,
1739401346.7270017,-0.7070684309089091,0.6738835430749014,1.417810454057444,-1.8796162583613485,-0.7078175378187368,1.9498708307827055,0.18528880721466276,0.0004021630271600812,0.0013941029261092127,0.00087359963267702,0.001006534702708276,0.0018564954901467536,0.00012213654230476184,0.00011583313493874399,0.2689092457294464,-23.63736343383789,19.501754760742188,17.97431182861328,0.8833719491958618,2.3604629039764404,-0.10706938803195953,,,,,,,,,
1739401346.7379856,-0.7070656823126823,0.6738821027559517,1.4178040549219741,-1.8796179174139191,-0.7078186476011282,1.9498715735438936,0.185285655060427,0.0018553526692799034,-0.0005054212079692744,-0.0005079364120537965,-0.00042016268146886665,-0.0004554184236513024,0.0006434471418571858,-0.0014858843359147193,0.2173345386981964,-23.63736343383789,19.577133178710938,17.99811553955078,0.8961893320083618,2.3540542125701904,-0.08051909506320953,,,,,,,,,
1739401346.748005,-0.7070690572430335,0.6738832814476485,1.4178038221010305,-1.8796195941250315,-0.7078179455515475,1.9498700731223746,0.1852893479410564,-0.0004147300731254408,-0.0007529628348567231,-0.0012436882108347435,-0.0008747449072129323,-0.0005153543124297008,0.00010799929320261703,-0.0003333795691257141,0.2927129566669464,-23.66513442993164,19.577133178710938,18.02191925048828,0.8961893320083618,2.3668715953826904,-0.12080229818820953,,,,,,,,,
1739401346.7580328,-0.7070674925139774,0.6738833864164411,1.4178036324356273,-1.879618174536411,-0.7078184190366382,1.9498693154625486,0.1852880362777911,0.00016735168172911607,-0.00022899759027348893,-0.0008586267667103828,-0.00071353073402931,0.0006800119437172718,-0.00036174699538215043,-0.0007773100212258646,0.2411382496356964,-23.66513442993164,19.553329467773438,17.97431182861328,0.8897806406021118,2.3732802867889404,-0.10066069662570953,,,,,,,,,
1739401346.7689517,-0.7070691375691741,0.6738821009349744,1.4178073924088013,-1.879614192077813,-0.7078203674967382,1.949872346102862,0.18528966972156083,0.0005621108713963,0.00010859979421382128,0.0007678084356865598,0.00010007024925595206,-0.00027509573510761225,0.0005557403217881684,-2.8175660553852502e-05,0.2689092457294464,-23.63736343383789,19.501754760742188,17.97431182861328,0.8897806406021118,2.3476455211639404,-0.11347807943820953,,,,,,,,,
1739401346.781037,-0.7070674915671823,0.6738816497933386,1.4178071794994502,-1.8796162583146914,-0.7078172228325327,1.9498715884427835,0.1852864127392604,0.0002286203996393672,0.0012230819357373004,0.0008221942088506287,0.000520419969146732,0.0004759812251781022,0.00012544535524921006,-0.0004295391791845551,0.2411382496356964,-23.63736343383789,19.501754760742188,17.97431182861328,0.8897806406021118,2.3540542125701904,-0.08692778646945953,,,,,,,,,
1739401346.7919924,-0.7070712004560792,0.6738759718184264,1.417808089675875,-1.8796121122654763,-0.7078210734473561,1.9498708287961866,0.18528804941873775,-0.0006548479578972813,-0.0008316522820031651,-0.0013341239939664985,5.6654956336208416e-05,-0.0006729901216373757,-0.0008208390691099858,-0.000954455768649863,0.2927129566669464,-23.56198501586914,19.501754760742188,17.94654083251953,0.8897806406021118,2.3604629039764404,-0.10066069662570953,,,,,,,,,
1739401346.802013,-0.7070698165270236,0.6738781038132713,1.4178092006304734,-1.8796141699632447,-0.7078208911264918,1.9498723461027612,0.1852878300052584,-0.0008045516230931933,-0.00043955446773899997,-0.0011463059684250082,0.000244531192627802,-0.000614504505862736,0.00021455469430315625,-0.0004766557920369165,0.3165166676044464,-23.56198501586914,19.477951049804688,17.94654083251953,0.8961893320083618,2.3476455211639404,-0.08692778646945953,,,,,,,,,
1739401346.812937,-0.7070666298984601,0.6738775730491924,1.417813662256727,-1.87961239494965,-0.7078206782112827,1.9498732120000943,0.1852922387735783,0.00033327151455270123,-0.0005894480644235837,0.0004788297865157444,0.00059402445701118,0.0008309807798878038,0.00036761842487921883,0.0009658942844920473,0.2689092457294464,-23.58578872680664,19.450180053710938,17.92273712158203,0.8833719491958618,2.3403213024139404,-0.12721098959445953,,,,,,,,,
1739401346.8230464,-0.7070709733751945,0.6738759615686869,1.4178161256442325,-1.8796105666539624,-0.7078200833488318,1.9498700731226268,0.18528955163407326,1.5710281094782484e-05,0.00018621804690564336,0.0011335010884260227,0.0002337919586181082,-0.00017588983862438617,-0.00045590606420732946,0.0005486372454799871,0.2927129566669464,-23.56198501586914,19.426376342773438,17.92273712158203,0.8769632577896118,2.3668715953826904,-0.11347807943820953,,,,,,,,,
1739401346.8340201,-0.7070652322783922,0.6738759645138374,1.417811551748846,-1.8796121122668146,-0.7078222385942541,1.9498715884427835,0.1852880885698782,0.0021344365633815736,0.00017644854449590429,-0.0006781734325723842,0.0009336404194262226,-0.001630235924122569,2.921022072980538e-05,-0.0008587176898199085,0.2411382496356964,-23.56198501586914,19.477951049804688,17.94654083251953,0.8961893320083618,2.3540542125701904,-0.10066069662570953,,,,,,,,,
1739401346.8442042,-0.7070657803183558,0.6738767562990449,1.4178143202913094,-1.879615635433949,-0.707819426705284,1.9498708307827053,0.1852902986728191,0.00041956517451898737,-0.0007996020139687742,0.000250112232011089,0.00048658891039598704,0.00021824987027907271,-0.00048613443079894723,0.0005155639025311466,0.2173345386981964,-23.56198501586914,19.450180053710938,17.94654083251953,0.8833719491958618,2.3604629039764404,-0.12080229818820953,,,,,,,,,
1739401346.8550074,-0.7070674938585179,0.6738762794663231,1.41781226287395,-1.879616258405911,-0.707816967652678,1.9498715884427835,0.18528968721800118,-0.00010435060978577842,-0.0004187395829605427,-0.0005796663343031379,0.00033150220057912293,0.001390457417366213,-0.0005467125718551148,0.0014295990853532236,0.2411382496356964,-23.56198501586914,19.477951049804688,17.97431182861328,0.8897806406021118,2.3540542125701904,-0.11347807943820953,,,,,,,,,
1739401346.8660028,-0.7070694640729057,0.6738776741292626,1.417810491849685,-1.8796162582927087,-0.7078200697589777,1.9498693154625486,0.18528641273935917,0.0005520361897738532,0.00037729804620935685,-0.00010178668474385562,0.00036884384426739514,-0.0004407890610196652,-0.0010288157599834316,-0.0014573177079976105,0.2689092457294464,-23.58578872680664,19.501754760742188,17.97431182861328,0.8769632577896118,2.3732802867889404,-0.08692778646945953,,,,,,,,,
1739401346.876985,-0.707065462574067,0.6738833682669437,1.417808411919924,-1.8796177349206853,-0.7078146161348016,1.9498708307827053,0.18529121875312987,0.0014814945622718375,0.0004762227029319236,-0.0011011305938171904,-0.0003522346892341399,0.0006046207785503561,9.535287965561256e-05,0.0017474659341202897,0.2173345386981964,-23.66513442993164,19.529525756835938,17.99811553955078,0.8705545663833618,2.3604629039764404,-0.12721098959445953,,,,,,,,,
1739401346.8869872,-0.7070690576753773,0.6738796838054985,1.417803539861826,-1.879617039589258,-0.7078207973254032,1.9498708307827053,0.18528926637872012,-0.0007421745005156162,-0.0001267731668540225,-0.0004304283643569532,-4.1585172111889643e-05,0.00044554085227383513,3.596112530336646e-05,-0.0004805195305918786,0.2927129566669464,-23.61355972290039,19.553329467773438,17.94654083251953,0.8833719491958618,2.3604629039764404,-0.10706938803195953,,,,,,,,,
1739401346.898019,-0.7070694909151286,0.67388552869691,1.4178074944475059,-1.8796141921194855,-0.7078208403653983,1.9498700731226268,0.18529392966513095,0.0005352707923827628,0.0007519699410380357,0.001022346351926286,-6.885741808648944e-05,-0.0003041678257454049,-0.00028651983422166576,0.0029221356376979086,0.2689092457294464,-23.66513442993164,19.501754760742188,17.97431182861328,0.8833719491958618,2.3668715953826904,-0.14735259115695953,,,,,,,,,
1739401346.9090033,-0.7070711670002002,0.6738796721894528,1.4178073894653593,-1.8796161807354848,-0.7078219507913017,1.9498676919052378,0.18528720879869023,-0.00105823325424722,-0.0017478081354729417,0.0003692535277358886,-0.00018730128569693672,0.0003828502254209822,-0.0013298182535448988,0.0002022061315062598,0.2927129566669464,-23.61355972290039,19.501754760742188,17.97431182861328,0.8961893320083618,2.3870131969451904,-0.12080229818820953,,,,,,,,,
1739401346.9199905,-0.707069490599987,0.6738837269849758,1.4178052066545375,-1.8796135827746336,-0.7078199656117298,1.9498708292928164,0.18528727856337288,0.000586791450605703,-2.243614408148516e-05,0.00019693058497569635,0.0002330062729340995,-0.0003851824033333618,-0.0005459743651584602,-0.0004356720386280724,0.2689092457294464,-23.66513442993164,19.529525756835938,17.97431182861328,0.8769632577896118,2.3604629039764404,-0.09425200521945953,,,,,,,,,
1739401346.9300992,-0.707066630013303,0.6738825459246852,1.4178073933512358,-1.8796190428095658,-0.707820083349595,1.9498723461028369,0.1852840315212034,0.001979579769816461,0.0004254189409089192,0.00011969361663881711,-0.0005862690306721811,7.940191711168157e-05,0.0001741762989992863,-0.0015751996055433412,0.2689092457294464,-23.61355972290039,19.501754760742188,17.97431182861328,0.8769632577896118,2.3476455211639404,-0.06678618490695953,,,,,,,,,
1739401346.94098,-0.7070657804495074,0.6738807321224,1.4178073961874587,-1.8796141108881086,-0.7078209434809848,1.9498708173737045,0.1852904175132935,0.001923845923777679,-0.0006651173418691389,-0.0007123347949203207,-0.0004957819014027872,0.0022516181863073796,-0.0008352151029606754,-0.0004231752963697939,0.2173345386981964,-23.61355972290039,19.501754760742188,17.94654083251953,0.8961893320083618,2.3604629039764404,-0.12080229818820953,,,,,,,,,
1739401346.9510524,-0.7070694820969236,0.673884493169561,1.4178073924082866,-1.8796123873900588,-0.7078215855658666,1.9498708307824781,0.18528407040514652,-1.2156953954277209e-05,0.0012422624743158974,-0.0017446764545068182,0.0006192813105206283,-0.0006806928968811443,-0.0004192381629167222,-0.0016017625417736956,0.2689092457294464,-23.63736343383789,19.501754760742188,17.92273712158203,0.8897806406021118,2.3604629039764404,-0.09425200521945953,,,,,,,,,
1739401346.9620101,-0.7070657804656075,0.6738813704889938,1.4178098651097693,-1.879610610492,-0.7078197770128132,1.9498708308365407,0.18529082362931626,0.0006457827066494434,0.0008881702827470007,-0.0010239177009225815,0.0009754039074529313,0.00015185817950239913,-0.00046920074371081105,7.878906674907904e-05,0.2173345386981964,-23.63736343383789,19.477951049804688,17.89893341064453,0.8833719491958618,2.3604629039764404,-0.13361968100070953,,,,,,,,,
1739401346.9729402,-0.7070712029755689,0.673877686300872,1.4178115988239737,-1.8796141785714775,-0.7078197813136964,1.949871588442784,0.18529046747806008,-0.0016503210654490365,0.0002121932830825495,0.001057446035850402,-0.0002449971469676387,0.00048017057202503826,0.00015913102930403968,0.00023309394470367854,0.2927129566669464,-23.58578872680664,19.450180053710938,17.94654083251953,0.8833719491958618,2.3540542125701904,-0.09425200521945953,,,,,,,,,
1739401346.9839885,-0.7070694909272336,0.6738776745274011,1.4178133701302373,-1.879616257941434,-0.7078205390156702,1.949870073122627,0.1852951945830009,-0.0006281257677161078,0.00041095417885311916,0.0005893198023595475,-0.0007875929085237837,-0.0004011653232457415,-0.0006234840718160674,0.0031366985280957852,0.2689092457294464,-23.58578872680664,19.426376342773438,17.97431182861328,0.8897806406021118,2.3668715953826904,-0.16108550131320953,,,,,,,,,
1739401346.9949837,-0.7070694641092395,0.6738825713196426,1.4178158704010422,-1.8796141785714922,-0.7078208230825537,1.9498707905557024,0.18528565653663548,0.00021859560092286955,0.0008585213059513208,0.001103870927274867,0.00041710169144835096,0.0014983115999056707,-0.00017462684855572486,-0.001554256513867989,0.2689092457294464,-23.61355972290039,19.426376342773438,17.94654083251953,0.8833719491958618,2.3604629039764404,-0.08051909506320953,,,,,,,,,
1739401347.0049918,-0.7070672542403065,0.6738797104548085,1.4178101589580039,-1.8796141019370938,-0.7078214634912691,1.9498715884421023,0.18528879395600747,0.0002368635157070326,-0.0002746841397576128,0.0010087386925354182,0.00039243469294860235,0.0012599340624733315,0.0003571410463074237,-0.00034169850743260525,0.2411382496356964,-23.61355972290039,19.501754760742188,17.94654083251953,0.8897806406021118,2.3540542125701904,-0.10706938803195953,,,,,,,,,
1739401347.015029,-0.707069490814182,0.6738790875035303,1.4178076985727561,-1.879618040932091,-0.7078200817342438,1.949872346102862,0.18528803580684533,-0.00038613429894190373,8.15521921913152e-05,-0.0014975397411030361,-0.0011893014847779867,-0.0005986974048364104,0.0003367259033638676,-0.0004912680562563392,0.2689092457294464,-23.56198501586914,19.501754760742188,17.99811553955078,0.8769632577896118,2.3476455211639404,-0.10066069662570953,,,,,,,,,
1739401347.0260372,-0.707067488952786,0.6738834752113795,1.417814239874152,-1.8796162583613478,-0.7078215928575354,1.9498708307827053,0.1852857733460227,0.000634155188507472,0.0010365698407432983,0.001959331441337456,-0.0003258391971998377,-0.0012724082021785754,3.666876889127886e-05,-0.001292279791310473,0.2411382496356964,-23.66513442993164,19.450180053710938,17.97431182861328,0.8897806406021118,2.3604629039764404,-0.08051909506320953,,,,,,,,,
1739401347.0369263,-0.7070694909271732,0.6738828817995446,1.417803580135345,-1.879616262285934,-0.7078214809340773,1.949871587946154,0.18529257939878746,0.00033310472008845737,0.0013042046125836186,-2.5495453263529085e-05,-0.00037753310955568564,0.00028349261789695603,-0.00013078838302577723,0.00264234190388924,0.2689092457294464,-23.61355972290039,19.553329467773438,17.97431182861328,0.8897806406021118,2.3540542125701904,-0.12721098959445953,,,,,,,,,
1739401347.0469277,-0.7070674929863886,0.6738844452386095,1.4178056215707553,-1.8796198680904843,-0.7078211145850138,1.9498700309091024,0.18529041752122039,0.0001506658369332495,0.0009274823297836238,0.00016622774679204427,-0.00010534708520653767,0.00014048844047830354,-0.0003568651326283532,0.0011706022887830172,0.2411382496356964,-23.66513442993164,19.529525756835938,17.99811553955078,0.8897806406021118,2.3668715953826904,-0.12080229818820953,,,,,,,,,
1739401347.057058,-0.7070719010430746,0.6738824296006606,1.4178091662601562,-1.8796141786024343,-0.7078215986635475,1.9498695903978753,0.1852903293274807,-0.0009970959686090835,0.0004812678998736326,0.0018697870106928523,0.0001417412495560404,0.001036716890797274,-0.0006886858344700502,0.00026197165395116574,0.2927129566669464,-23.63736343383789,19.477951049804688,17.94654083251953,0.8897806406021118,2.3668715953826904,-0.10706938803195953,,,,,,,,,
1739401347.0679958,-0.7070673776511145,0.6738798301481085,1.417804490962702,-1.8796155695615717,-0.7078215986717455,1.9498693139699348,0.18529061457422683,0.0015851969451589174,-0.0013939225401143453,-0.000277464528233811,0.0002954764879513372,-0.000597739354818688,-0.0002852482459473446,0.0009561585964740699,0.2411382496356964,-23.58578872680664,19.529525756835938,17.97431182861328,0.8897806406021118,2.3732802867889404,-0.11347807943820953,,,,,,,,,
1739401347.0789645,-0.7070692525080114,0.673884283997899,1.4178071539850052,-1.8796140416327702,-0.7078215972181954,1.949870830782697,0.18528565508451578,-0.00011426237741499098,0.0011020536093510895,7.909009884119798e-05,0.0009517380141924162,-0.0007503575869155584,0.0005831512640429846,-0.0012971721901300745,0.2689092457294464,-23.63736343383789,19.501754760742188,17.97431182861328,0.8897806406021118,2.3604629039764404,-0.08051909506320953,,,,,,,,,
1739401347.0889971,-0.7070675711470155,0.6738804230941581,1.4178066771484477,-1.8796117066722347,-0.7078212454590113,1.9498715884427835,0.18529152948987143,-0.00023252824389459356,-0.0010509508836343867,-0.00028309611632447364,0.002032908102590151,-0.0011427741552631461,0.0003694837249158754,0.0010755820330509167,0.2411382496356964,-23.61355972290039,19.501754760742188,17.92273712158203,0.8897806406021118,2.3540542125701904,-0.12721098959445953,,,,,,,,,
1739401347.0999904,-0.7070680244250097,0.6738797103009324,1.4178073806304279,-1.8796162583574578,-0.7078166024571559,1.9498700731226268,0.18528891206348272,-0.00019616216631753412,-0.0006922854308130745,-0.0007738952877470706,0.0006745072654604687,0.0012203420160497853,-0.00024899428151687665,-0.0006722419802252272,0.2927129566669464,-23.61355972290039,19.501754760742188,17.97431182861328,0.8833719491958618,2.3668715953826904,-0.10706938803195953,,,,,,,,,
1739401347.1100054,-0.7070703421817438,0.6738780305749752,1.4178073659170698,-1.8796163368894003,-0.7078215985999653,1.9498700731226268,0.18529222612014995,-0.001458985206291765,-0.0007431201246432383,-0.0007319383425120154,-0.001843559954877646,-0.0009794442022546417,0.00017899747869529886,0.0012616705876756001,0.2411382496356964,-23.58578872680664,19.501754760742188,17.97431182861328,0.8897806406021118,2.3668715953826904,-0.10066069662570953,,,,,,,,,
1739401347.1209273,-0.7070695086039608,0.6738808927257901,1.4178073789125696,-1.8796184041290036,-0.7078209434809845,1.9498715884427835,0.18528251671117085,-0.00040147164715013473,0.0006857730404431665,-0.0006826559494443904,-0.0013866203601195159,-0.001437891247489285,-0.0008950475552782448,-0.0034695407031951936,0.2689092457294464,-23.58578872680664,19.529525756835938,17.97431182861328,0.8961893320083618,2.3540542125701904,-0.05396880581974983,,,,,,,,,
1739401347.1309469,-0.707071132696714,0.6738791760785975,1.417812177841819,-1.8796123959308126,-0.7078215594019622,1.9498715884427835,0.1852912934408906,-0.0006695878756428633,-0.00014298129211827714,0.001220676935221651,0.0009759302776481723,0.00020599903048382654,-0.00014338219372857146,0.0007938403057605219,0.2927129566669464,-23.56198501586914,19.450180053710938,17.92273712158203,0.8897806406021118,2.3540542125701904,-0.12721098959445953,,,,,,,,,
1739401347.141015,-0.7070691371524224,0.673879171390828,1.4178101020621652,-1.8796183020893336,-0.7078230291825552,1.949872346102862,0.18528945939627564,-0.00036648196447695305,0.00030975878272487286,0.0005006055460462281,-0.0012172171667074478,-0.0016643912899680373,-5.9542944638222936e-05,-0.0011956491545539452,0.2927129566669464,-23.56198501586914,19.477951049804688,17.97431182861328,0.8897806406021118,2.3476455211639404,-0.10066069662570953,,,,,,,,,
1739401347.1520066,-0.707067491666529,0.6738787073654412,1.4178122837758718,-1.8796162583728853,-0.7078250909584851,1.9498732120000943,0.18528641274662713,-2.340000043195116e-05,-8.48834184086375e-05,-1.7115224763238201e-06,-0.001654117279649408,-0.0005325545171341373,0.0006837751832640919,0.00022825012196810168,0.2411382496356964,-23.58578872680664,19.450180053710938,17.97431182861328,0.8961893320083618,2.3403213024139404,-0.08692778646945953,,,,,,,,,
1739401347.1630325,-0.7070666259796993,0.6738772199668476,1.417809510532762,-1.8796187572752512,-0.7078193271786672,1.9498715884427835,0.18528565507851538,0.0008154805149625985,-0.00028504811380098067,0.0005286831595594373,-0.0020863746132683035,0.0005618085986678846,-0.0003144887094600191,-0.0020172314335931904,0.2689092457294464,-23.53818130493164,19.477951049804688,17.99811553955078,0.8705545663833618,2.3540542125701904,-0.08051909506320953,,,,,,,,,
1739401347.1739438,-0.7070694997090411,0.6738781191616797,1.417809468156332,-1.8796132662039577,-0.7078184197573828,1.9498708307827053,0.18529148192088457,-0.0002545142230382493,-0.001470322295464364,-5.3428795398725946e-05,0.00015341390355035815,0.00012368819031808963,-0.0003887898844034836,-0.0004412802565431328,0.2689092457294464,-23.56198501586914,19.501754760742188,17.97431182861328,0.8897806406021118,2.3604629039764404,-0.12080229818820953,,,,,,,,,
1739401347.1840556,-0.7070688109928248,0.6738828902044067,1.4178073928748476,-1.8796141749207265,-0.7078200312238675,1.9498732520370148,0.18528879374463178,-0.00016794016371143202,0.0008782456924547605,-0.0006063390759922855,-0.0006206379134528198,0.0006050244215757458,-0.0002465526024155954,-0.00023256374653213649,0.2689092457294464,-23.61355972290039,19.501754760742188,17.94654083251953,0.8769632577896118,2.3668715953826904,-0.10706938803195953,,,,,,,,,
1739401347.1949832,-0.7070674929825503,0.6738806160586551,1.4178073920811762,-1.8796141672337805,-0.7078214804493647,1.9498708308544856,0.18529546633986457,4.034839773301872e-05,0.0004428403968178644,0.00022462316897461503,0.00023592823863429865,-0.0001942017805574413,6.736426338960325e-05,0.001281718797744172,0.2411382496356964,-23.58578872680664,19.501754760742188,17.94654083251953,0.8897806406021118,2.3604629039764404,-0.12721098959445953,,,,,,,,,
1739401347.205,-0.7070694791534845,0.6738790875527021,1.4178055411164603,-1.8796162579412419,-0.7078215986697435,1.9498689534195224,0.18528339252576864,0.0002293371319643398,0.00037818630174898016,-0.00011316832102252937,0.00016791992175003493,-0.0003489382796476935,-0.0008934579779712873,-0.0010136039260577093,0.2689092457294464,-23.56198501586914,19.529525756835938,17.97431182861328,0.8897806406021118,2.3732802867889404,-0.06037749722599983,,,,,,,,,
1739401347.2150874,-0.707066629904093,0.6738799500764057,1.4178101474712284,-1.879614178571486,-0.7078208410116673,1.9498723446068418,0.18528765454651255,0.00022315971294991442,-0.0005827680195218057,0.0010795032523506236,0.0008405688783968376,0.0003181595524688004,0.000203602503783994,-0.0020119900487707886,0.2689092457294464,-23.61355972290039,19.501754760742188,17.94654083251953,0.8833719491958618,2.3476455211639404,-0.13361968100070953,,,,,,,,,
1739401347.2261133,-0.7070673362045451,0.6738806562687623,1.41780531641315,-1.879618408053146,-0.7078194414063048,1.9498714859182764,0.1852919982775243,0.0003773262791120961,-0.0006679645412214837,-0.0003022711549323148,-0.0013562549743419163,0.0014817102209672215,0.000815030660772353,0.002112564228243843,0.2689092457294464,-23.61355972290039,19.529525756835938,17.97431182861328,0.8833719491958618,2.3668715953826904,-0.12080229818820953,,,,,,,,,
1739401347.2370222,-0.7070687668290231,0.6738821487781413,1.4178073922992276,-1.8796162583384906,-0.7078228329995757,1.9498723461108374,0.18529117955657307,0.0011819529831101768,-0.00043440339416996846,-0.0002090801574804365,-0.0009120254338724197,-0.0006398821736080031,0.00011359320740532186,-0.0003251943468438435,0.2689092457294464,-23.61355972290039,19.501754760742188,17.97431182861328,0.8961893320083618,2.3476455211639404,-0.12721098959445953,,,,,,,,,
1739401347.2480013,-0.7070729159646164,0.6738797784821804,1.4178112549100896,-1.8796122938552464,-0.7078202503037327,1.9498708263130384,0.1852896015871139,-0.0017174192421801756,-0.0010207645249452517,0.001175848052934127,0.0024368455031376192,-0.0006987009839977672,-0.0005047028091106405,-0.0005797158108277395,0.3165166676044464,-23.61355972290039,19.450180053710938,17.92273712158203,0.8961893320083618,2.3604629039764404,-0.08692778646945953,,,,,,,,,
1739401347.25893,-0.7070692525086625,0.6738845235677482,1.4178112204986342,-1.8796185267052674,-0.7078205390217277,1.9498715884427584,0.18528565509651648,0.00014701348807549239,6.996860730483869e-05,0.0014631608585678711,-0.0011268084631355898,0.0014448591831444327,-6.722860843059189e-05,-0.0015610855953919604,0.2689092457294464,-23.63736343383789,19.450180053710938,17.99811553955078,0.8897806406021118,2.3540542125701904,-0.08051909506320953,,,,,,,,,
1739401347.2690203,-0.7070710444982157,0.6738799501856427,1.4178074689370608,-1.8796123959026987,-0.7078215463259915,1.9498715884427835,0.18528873051305716,-0.0005974862798823983,-0.0008224539007401708,-0.00010352548269322972,0.0002909698867117605,-0.00011806627976599721,6.543725172509569e-05,0.00039131766131750127,0.2927129566669464,-23.61355972290039,19.501754760742188,17.92273712158203,0.8897806406021118,2.3540542125701904,-0.10706938803195953,,,,,,,,,
1739401347.2800958,-0.7070701155898614,0.6738817421276442,1.4178130376575269,-1.879614470953125,-0.7078170064217062,1.9498717061803537,0.18528491491518995,-0.0011861670054667186,0.0001574148838404252,0.0009340142913333749,0.0004901482285657119,0.0010620981548751603,0.00027436391843474407,-0.0012511628650854931,0.2411382496356964,-23.63736343383789,19.426376342773438,17.94654083251953,0.8897806406021118,2.3540542125701904,-0.07411040365695953,,,,,,,,,
1739401347.291005,-0.7070664294021395,0.67387918005971,1.4178092516146628,-1.8796144649939444,-0.7078208408242384,1.949872243634209,0.1852833132841688,0.0023413235868990395,0.00015441757515997814,0.0003219473266878113,0.0010597970616126559,-0.0007043825433627599,0.0009599498295506396,-0.0028913608218903058,0.2411382496356964,-23.56198501586914,19.477951049804688,17.92273712158203,0.8833719491958618,2.3604629039764404,-0.06037749722599983,,,,,,,,,
1739401347.302008,-0.7070715213334077,0.6738808662146543,1.4178052466414426,-1.8796138724654912,-0.7078183803499943,1.9498700731306025,0.18528879401020873,-0.0012568424068506836,-5.361687664523329e-05,-0.002028695598682438,0.000268745960235627,0.0008652615112938328,-0.0002541772333270859,-0.00028290445154453223,0.2927129566669464,-23.58578872680664,19.501754760742188,17.94654083251953,0.8897806406021118,2.3668715953826904,-0.10706938803195953,,,,,,,,,
1739401347.3120422,-0.7070712034533562,0.6738807436069438,1.4178073923718837,-1.8796123958892899,-0.7078200832970863,1.9498715884427837,0.18528645210709455,-0.0008027823015658989,0.00041959638720772026,-0.00060789551137856,0.0008796087392924053,0.00048577255122505907,0.0001740966217651772,-0.0011833433299963917,0.2927129566669464,-23.61355972290039,19.501754760742188,17.92273712158203,0.8769632577896118,2.3540542125701904,-0.08692778646945953,,,,,,,,,
1739401347.3221354,-0.7070691730358029,0.673882890537423,1.41780918358851,-1.8796162583613483,-0.7078200833515881,1.9498708307827055,0.1852904176759705,0.0006491677128723591,0.0012891375176191798,-0.0001798876379665594,-0.0009501524212961164,-7.34424680968459e-05,-0.00013650577778831345,0.00045606086078095806,0.2689092457294464,-23.61355972290039,19.477951049804688,17.97431182861328,0.8769632577896118,2.3604629039764404,-0.12080229818820953,,,,,,,,,
1739401347.3329277,-0.7070712034461782,0.6738821665967444,1.4178091764500118,-1.8796155691766498,-0.707819327109395,1.949872648080913,0.1852922871499506,-0.00019208805771256306,-0.000576160777502448,-9.487396912846332e-05,-0.0007642066900321239,0.0009318479110898941,0.0005948802346810152,0.0012505649670622716,0.2927129566669464,-23.61355972290039,19.477951049804688,17.97431182861328,0.8705545663833618,2.3540542125701904,-0.13361968100070953,,,,,,,,,
1739401347.3430846,-0.7070712034479728,0.6738791802089534,1.4178076233612291,-1.8796140761006799,-0.707820083351613,1.9498708308006505,0.18528879396198314,4.404771095311286e-05,-0.0007861746107323534,-0.0008070331974731693,0.0007951641790193873,0.0007247257686237306,-5.469296909658726e-05,0.0001634985374258222,0.2927129566669464,-23.56198501586914,19.501754760742188,17.94654083251953,0.8769632577896118,2.3604629039764404,-0.10706938803195953,,,,,,,,,
1739401347.3540256,-0.7070694114543818,0.6738806651156797,1.4178072305203675,-1.8796161476783022,-0.7078182675251008,1.9498715884427837,0.1852848979044679,8.388280157552706e-05,-0.0007310065168565495,0.0005004338951674997,-0.0002409784446472526,0.001540513968384419,-0.0007417333866736197,-0.002846582928816151,0.2689092457294464,-23.61355972290039,19.501754760742188,17.97431182861328,0.8705545663833618,2.3540542125701904,-0.07411040365695953,,,,,,,,,
1739401347.3649943,-0.7070674939670863,0.6738846028275803,1.4178053126174532,-1.8796141785708682,-0.7078193654219671,1.949874311675144,0.18529204963378576,0.0005995134097079866,-0.00021884526000867633,-0.0008093968989497297,3.021081399219751e-05,-6.486555160164478e-05,0.0008676466151836468,0.0017378243621329818,0.2411382496356964,-23.63736343383789,19.529525756835938,17.94654083251953,0.8705545663833618,2.3668715953826904,-0.13361968100070953,,,,,,,,,
1739401347.3750675,-0.7070674933134872,0.6738826169429311,1.4178091760300493,-1.879614178571493,-0.7078223563338425,1.9498708309980461,0.1852884815606993,0.00036109615821410006,0.00013125266327758097,0.0012625979695870735,0.0007214515466350947,-0.0003099736050703828,0.0001277376520169186,-0.0014450918515638818,0.2411382496356964,-23.61355972290039,19.477951049804688,17.94654083251953,0.8961893320083618,2.3604629039764404,-0.11347807943820953,,,,,,,,,
1739401347.3859684,-0.7070694909272421,0.6738824535112187,1.417809178899467,-1.8796162583976872,-0.7078215986717457,1.9498708248231498,0.1852913069397258,-0.0012348674694855686,0.0007487167259538916,0.0013698336642793576,-0.00024125768694381329,9.349433874942088e-05,-0.00034546039756472785,0.000311734564567572,0.2689092457294464,-23.63736343383789,19.477951049804688,17.97431182861328,0.8897806406021118,2.3604629039764404,-0.12721098959445953,,,,,,,,,
1739401347.3969755,-0.7070654625742185,0.673884894555543,1.4178053113101934,-1.8796162613047878,-0.7078223543399218,1.949871583973083,0.18528959114731516,0.0015300053469441833,0.001961632861355461,-0.00030994752571207894,-6.641343375583343e-05,-0.0008225870606911262,-0.00038188394679124975,0.0011827004713843726,0.2173345386981964,-23.63736343383789,19.529525756835938,17.97431182861328,0.8961893320083618,2.3540542125701904,-0.11347807943820953,,,,,,,,,
1739401347.4079707,-0.7070653458001707,0.6738838879494388,1.4178031668511477,-1.879612166306229,-0.707823222229045,1.9498700731226017,0.1852838284944645,0.00010301245941894357,-0.00047460593617432406,-0.0005447043398956621,0.0021843609760873383,-0.0001333645449069238,-0.00047250457873838187,-0.0008934559711420444,0.2411382496356964,-23.63736343383789,19.529525756835938,17.92273712158203,0.9035135507583618,2.3668715953826904,-0.07411040365695953,,,,,,,,,
1739401347.4180183,-0.7070694938343179,0.6738838761619241,1.4178073919358187,-1.8796209020574286,-0.7078204877989576,1.9498708263130382,0.18529193718962564,-0.0001920622061687721,0.0006202131667338083,-0.00018159847378458068,-0.0009552506458228039,0.0008225127848109115,-0.00042775346642697995,0.0009561654788468099,0.2689092457294464,-23.63736343383789,19.501754760742188,17.99811553955078,0.8833719491958618,2.3604629039764404,-0.13361968100070953,,,,,,,,,
1739401347.4280224,-0.7070674929864378,0.6738828814041049,1.4178119430786416,-1.8796085465516394,-0.7078215980197416,1.9498708307826296,0.18528565507858913,-0.00021148915168340255,-0.00018602510147036725,0.0015153261621151707,0.0008215333387245935,3.314805723260246e-05,0.00022356119029537911,-0.0021504978280335826,0.2411382496356964,-23.61355972290039,19.450180053710938,17.89893341064453,0.8897806406021118,2.3604629039764404,-0.08051909506320953,,,,,,,,,
1739401347.438993,-0.7070712475995615,0.6738844553771202,1.4178112538978358,-1.879616255515259,-0.7078205346729619,1.9498690877156142,0.18528577345268643,-0.001228823242261127,0.0016840369579931398,0.0008597214315308552,-0.00024147919327189372,0.0009724410797531562,-7.53854161358677e-05,-0.0013595068878832287,0.2927129566669464,-23.66513442993164,19.450180053710938,17.97431182861328,0.8897806406021118,2.3476455211639404,-0.08051909506320953,,,,,,,,,
1739401347.4499316,-0.7070712036662545,0.6738828893261534,1.4178112538939454,-1.8796209020613006,-0.707820841005661,1.9498719422693676,0.1852904350110728,-0.00010004232577271355,4.2984250062773176e-05,-0.0007042770538950617,-0.0018404992338520649,-2.4019826533565726e-06,-0.000259551830373378,0.0014899437499973091,0.2927129566669464,-23.61355972290039,19.450180053710938,17.99811553955078,0.8833719491958618,2.3476455211639404,-0.12080229818820953,,,,,,,,,
1739401347.4599366,-0.7070712034479765,0.6738777668094426,1.417809175085225,-1.8796126088516978,-0.7078232220675507,1.9498715884359448,0.18529131272040253,5.531700008911213e-06,-0.0003851622587823896,-2.0880315165337895e-05,-0.00026708657774873566,-0.0014687360638854078,0.00019418885657447544,0.0014714367824869199,0.2927129566669464,-23.58578872680664,19.477951049804688,17.92273712158203,0.9035135507583618,2.3540542125701904,-0.12721098959445953,,,,,,,,,
1739401347.469957,-0.7070694242092853,0.6738808915988465,1.417807404690722,-1.8796114120732925,-0.7078216382466672,1.9498723459373186,0.1852860108554368,-0.0005778183359107876,0.0007229013816902696,0.0001152745774390554,0.0015713304800413649,-0.0013026519518657643,-6.999394552113789e-05,-0.0008986204198509813,0.2689092457294464,-23.58578872680664,19.501754760742188,17.94654083251953,0.8897806406021118,2.3476455211639404,-0.08051909506320953,,,,,,,,,
1739401347.4799795,-0.707070342234451,0.6738800293327829,1.4178073922994143,-1.8796177858934484,-0.707821599162989,1.9498700731226242,0.18528331323609173,0.00036443084981041025,0.0007922724463115829,-0.0001492384390443922,-0.0008471701764421287,-0.000542427634641146,-0.00048562679924970935,-0.0006793372167533942,0.2411382496356964,-23.61355972290039,19.501754760742188,17.99811553955078,0.8897806406021118,2.3668715953826904,-0.06037749722599983,,,,,,,,,
1739401347.491015,-0.7070694997009659,0.6738806611749417,1.4178100937532223,-1.8796132262039313,-0.7078224755956244,1.9498715884427835,0.18529279873090487,-0.0009518822781994269,-6.378083731028788e-05,0.000564458737187451,0.0012013086928425786,-0.00042600649912136803,-0.0004271553341517592,0.0016824748388018567,0.2689092457294464,-23.61355972290039,19.477951049804688,17.94654083251953,0.8961893320083618,2.3540542125701904,-0.14094389975070953,,,,,,,,,
1739401347.502986,-0.7070674959298774,0.6738818500009159,1.4178094557643215,-1.87961419206162,-0.7078220755095771,1.9498708307827053,0.1852922424971481,-0.0004957944588860608,-0.0007687028634174849,0.0001793537950620076,0.0003022324863810635,-0.000337681653438444,-0.00017902565996113576,0.0018913172722998294,0.2411382496356964,-23.61355972290039,19.501754760742188,17.97431182861328,0.8897806406021118,2.3604629039764404,-0.12721098959445953,,,,,,,,,
1739401347.51398,-0.707069452335488,0.6738789417885657,1.4178053126222496,-1.8796141918935272,-0.707820836167397,1.9498708307827053,0.18529228763798888,-0.00043361110879572024,-0.0016775085290911735,-0.0008109653491321738,-7.58356055393178e-05,0.0002984541745818153,0.00033497648970801124,0.000624119356526039,0.2689092457294464,-23.56198501586914,19.529525756835938,17.97431182861328,0.8833719491958618,2.3604629039764404,-0.13361968100070953,,,,,,,,,
1739401347.5249252,-0.7070740644707042,0.6738800295494888,1.4178053126183672,-1.8796162573698825,-0.7078208403656177,1.9498708307827053,0.18528491702368471,-0.0015136753814605532,-0.0010314533741213063,0.0005004100462283167,0.0009909636917679423,0.0005563254149398587,0.00046625985297610854,-0.0010464742317579643,0.2927129566669464,-23.61355972290039,19.529525756835938,17.97431182861328,0.8833719491958618,2.3604629039764404,-0.07411040365695953,,,,,,,,,
1739401347.5349462,-0.7070694909756933,0.6738828916154931,1.417803530256284,-1.8796139235824243,-0.7078216384081645,1.9498697110795995,0.1852919328337822,0.0001802756882758517,-0.0003001946992383773,-9.194120350967277e-06,0.0005233523837634487,-0.0007634169348699259,-0.0011496475292565827,-0.0006366477143743422,0.2689092457294464,-23.61355972290039,19.553329467773438,17.94654083251953,0.8897806406021118,2.3668715953826904,-0.13361968100070953,,,,,,,,,
1739401347.5449555,-0.7070674929863894,0.6738826519371881,1.417807392408228,-1.8796162325322874,-0.7078232398903648,1.9498707905495711,0.18528676754112405,0.0003658564735422912,-0.0005075387887231788,0.00040519613813910375,0.0003503078321369675,-0.0012567943848555791,-0.0006135946506315894,-0.000822236048106807,0.2411382496356964,-23.61355972290039,19.501754760742188,17.97431182861328,0.9035135507583618,2.3604629039764404,-0.08692778646945953,,,,,,,,,
1739401347.5549598,-0.707072378441144,0.6738828895885944,1.417805062426031,-1.879616107409718,-0.7078208235693635,1.9498715705634342,0.18528990593856923,-0.0010489087529123578,8.586212661933462e-05,-0.001124065156095702,-0.0004070330625541658,0.000613551840876015,0.00045165389294296945,0.0003600701237521175,0.2689092457294464,-23.61355972290039,19.529525756835938,17.97431182861328,0.8833719491958618,2.3540542125701904,-0.11347807943820953,,,,,,,,,
1739401347.5649679,-0.7070694913031906,0.6738831294284096,1.4178045313810363,-1.8796123958919175,-0.7078215986714502,1.9498715884424809,0.18529131078198324,0.00013793363524478526,-5.1334191361826064e-05,-0.0001676629340134047,0.00016693477482152333,0.00021965710809103612,0.0005084314652125686,0.0008909057230779151,0.2689092457294464,-23.61355972290039,19.501754760742188,17.92273712158203,0.8897806406021118,2.3540542125701904,-0.12721098959445953,,,,,,,,,
1739401347.5750027,-0.7070694644362947,0.6738805748545516,1.4178076101742751,-1.8796162583613485,-0.7078215986717457,1.9498708307827053,0.18528577318631173,9.839385436112075e-05,0.00023590550024098596,0.0004777150605517295,-0.0009244520350097646,0.0007850162099830952,6.759245610330684e-05,-0.0006275236931792671,0.2689092457294464,-23.58578872680664,19.501754760742188,17.97431182861328,0.8897806406021118,2.3604629039764404,-0.08051909506320953,,,,,,,,,
1739401347.5850163,-0.7070667093767035,0.6738866008119522,1.4178129580829444,-1.879614178571493,-0.7078216384081755,1.9498715882772404,0.1852911926724831,0.0004738603660332121,-0.00033381060133823174,0.0005638394251496374,-0.0001859542519866744,0.0005072392909740926,-6.702082057933016e-05,0.0007834650585433646,0.2689092457294464,-23.66513442993164,19.426376342773438,17.94654083251953,0.8897806406021118,2.3540542125701904,-0.12721098959445953,,,,,,,,,
1739401347.5959976,-0.707070444585856,0.673880893068994,1.4178073832504074,-1.8796141696133166,-0.7078200838423865,1.9498693826105944,0.18529421599677937,-0.0005965597355139313,0.0012475872773374445,-0.0008974511355640722,-3.150862047498752e-05,0.0003834077850118484,-0.00046498627649692884,0.0025034792884352777,0.2689092457294464,-23.58578872680664,19.501754760742188,17.94654083251953,0.8769632577896118,2.3604629039764404,-0.14094389975070953,,,,,,,,,
1739401347.6069217,-0.7070636625029773,0.6738812900699087,1.4178080824326984,-1.8796162583612979,-0.7078208408501645,1.9498675679176156,0.18529797532933462,0.0015056811904288615,0.0010260578659854408,-0.0007556690712715705,-0.0004008332196506352,-0.00021969214098855567,-0.0005515144236543689,0.00267477458259261,0.2173345386981964,-23.58578872680664,19.501754760742188,17.97431182861328,0.8833719491958618,2.3604629039764404,-0.15376128256320953,,,,,,,,,
1739401347.6170363,-0.7070674928787849,0.6738808927621335,1.4178112509855685,-1.8796153627200256,-0.707820082867064,1.9498722434677738,0.18529355657677316,0.0008225201065282617,0.0008478513797059576,-0.00012993888529374588,-5.427065288381638e-05,0.0004013259511498704,0.0005695142350640969,0.0017067998842493714,0.2411382496356964,-23.58578872680664,19.450180053710938,17.97431182861328,0.8769632577896118,2.3604629039764404,-0.14735259115695953,,,,,,,,,
1739401347.627992,-0.7070694904911763,0.6738800326032903,1.41781125487509,-1.8796162583596632,-0.7078210132028624,1.9498712599764376,0.18529280018877553,-0.0006502234019870436,3.6851636059028435e-05,0.0006802093450281803,-0.0016854424676078128,-0.0009062888009234943,-0.0002783426932365997,0.0027514664180769473,0.2689092457294464,-23.61355972290039,19.450180053710938,17.97431182861328,0.8833719491958618,2.3476455211639404,-0.14094389975070953,,,,,,,,,
1739401347.638075,-0.7070694909272341,0.6738787033356559,1.4178071539896435,-1.879614178571493,-0.7078216030898206,1.9498719795717738,0.18528895498514888,-0.0006651206699451024,-0.00031462385282617306,-0.0013545784426935584,-0.0004842372511276575,-3.3107689457013935e-05,-0.0005675461069016301,-0.0001502857009194535,0.2689092457294464,-23.56198501586914,19.501754760742188,17.94654083251953,0.8897806406021118,2.3476455211639404,-0.10706938803195953,,,,,,,,,
1739401347.6489651,-0.707067493967535,0.6738805063489621,1.4178092516133163,-1.8796162583613485,-0.7078215986717705,1.949872346100793,0.18529360636269798,0.00025861699119177994,0.00023289490045244252,0.00025621402353911114,-0.0005807203860014788,0.00048654589555107515,0.0004989027086341281,0.000721551028978367,0.2411382496356964,-23.61355972290039,19.477951049804688,17.97431182861328,0.8897806406021118,2.3476455211639404,-0.12080229818820953,,,,,,,,,
1739401347.6599674,-0.7070693996806304,0.673882890305953,1.417810377673811,-1.879614178256557,-0.7078221620648336,1.9498700731226268,0.1852909807693978,-0.0002382624949520959,-9.762467323544822e-05,0.0012480386866498604,0.0008479209004666048,-0.0006237989263251014,-0.0001761903145600602,0.0006927612432574358,0.2689092457294464,-23.61355972290039,19.501754760742188,17.94654083251953,0.8961893320083618,2.3668715953826904,-0.08692778646945953,,,,,,,,,
1739401347.6710398,-0.7070712299373808,0.6738845924109144,1.4178035299919036,-1.8796162583613432,-0.7078216001401753,1.9498700731226268,0.18529521955594191,-0.0006548841999511241,-0.00040249111057463516,-0.0006297079226404044,-0.0017646084418952235,-0.0007182010326823026,-0.00031080769202421156,0.001876000517423973,0.2927129566669464,-23.63736343383789,19.553329467773438,17.97431182861328,0.8897806406021118,2.3668715953826904,-0.16108550131320953,,,,,,,,,
1739401347.6819437,-0.7070712034480225,0.6738799043072506,1.4178053126183672,-1.8796120896718134,-0.7078216030869072,1.9498715884427835,0.18528780371124348,-0.0020198544596549493,-0.0008655110974946324,-0.0003699039799926277,0.0010159870789767616,-0.0010699805412867386,0.0003775426333943728,0.0003514148405633546,0.2927129566669464,-23.56198501586914,19.529525756835938,17.92273712158203,0.8897806406021118,2.3540542125701904,-0.09425200521945953,,,,,,,,,
1739401347.692021,-0.7070694909272416,0.6738808927542096,1.417803529941348,-1.8796198237102006,-0.7078191774175107,1.9498708307827053,0.18528985885849691,-0.0004021619476959009,-0.0008925779799954356,-0.00046084120366220497,-0.0009288060308864029,0.0003424705278723816,0.00023520612765975292,-0.0008046579239008369,0.2689092457294464,-23.58578872680664,19.553329467773438,18.02191925048828,0.8961893320083618,2.3604629039764404,-0.10706938803195953,,,,,,,,,
1739401347.7020218,-0.707071194617655,0.6738846032035316,1.4178028202454402,-1.8796141665571893,-0.7078232221752212,1.9498708307827053,0.18529435343737344,-0.00014180239510261275,0.00047257354447911745,-0.00016028470522833006,-9.288679898905887e-05,-0.0005718936622909283,0.0002987330057937135,0.00034630832515482,0.2927129566669464,-23.63736343383789,19.553329467773438,17.97431182861328,0.9035135507583618,2.3604629039764404,-0.15376128256320953,,,,,,,,,
1739401347.7139785,-0.7070694909271917,0.6738807867781342,1.4178035269939024,-1.879614893815422,-0.7078211986395356,1.9498700731226268,0.18529142100597554,0.0005310469716890287,-0.0015400107883428334,-0.0011669616000027907,0.00026080107918401206,-0.0013882188849277761,0.00011442924176740239,0.0005965756910133556,0.2689092457294464,-23.58578872680664,19.553329467773438,17.94654083251953,0.8833719491958618,2.3668715953826904,-0.10066069662570953,,,,,,,,,
1739401347.724012,-0.7070672545678095,0.6738846385242042,1.4178034942930116,-1.8796139488176882,-0.7078223607490016,1.9498708307827053,0.18528763297143236,0.0014184260987736717,0.0004479428363481061,-0.0005668791264358634,0.00030338326378656313,-0.0004130142632442509,1.4725529534754775e-05,-0.0012757008142296137,0.2411382496356964,-23.63736343383789,19.553329467773438,17.94654083251953,0.8961893320083618,2.3604629039764404,-0.09425200521945953,,,,,,,,,
1739401347.73402,-0.707069729341783,0.6738836092096238,1.41780623426178,-1.879614178894651,-0.7078234292155048,1.949872346102862,0.1852919328394509,-0.00022588540029934987,0.0007769250742188562,0.0005612458553105584,-0.00031094446127901895,-0.0009581833325859318,0.0006604169031475978,0.0003907103488065138,0.2689092457294464,-23.61355972290039,19.477951049804688,17.94654083251953,0.8961893320083618,2.3476455211639404,-0.13361968100070953,,,,,,,,,
1739401347.745003,-0.7070694908195712,0.6738808927460033,1.4178073913741365,-1.8796162472457285,-0.7078212469368119,1.9498708292928164,0.18529095703934886,5.801124632902063e-05,-0.00038049225887207684,0.0005423386838864305,-0.0003774210970117415,0.0007957680443303582,-0.00027475785146207363,0.0006099177936791586,0.2689092457294464,-23.58578872680664,19.501754760742188,17.97431182861328,0.8897806406021118,2.3604629039764404,-0.08692778646945953,,,,,,,,,
1739401347.7559288,-0.7070674929863879,0.6738845943732136,1.4178112544390264,-1.8796159747439525,-0.7078240596604997,1.949870830782697,0.18528645278078748,-0.00045333942629260395,0.0005784846292759631,0.0021369228103787917,-0.0005019816576092233,-0.0001874737369214131,-0.0002245059592948901,-0.001666192350408837,0.2411382496356964,-23.63736343383789,19.450180053710938,17.99811553955078,0.8833719491958618,2.3604629039764404,-0.08692778646945953,,,,,,,,,
1739401347.7660058,-0.707071203556989,0.6738791802210664,1.417807417918022,-1.8796153144635033,-0.707820083406097,1.9498723456062323,0.18529193866649868,-0.0005483860106460971,-0.0009682127952059842,0.000173343170795281,0.0007320909960091553,5.8708985544655957e-05,0.0006262909252019654,-5.295953454624493e-06,0.2927129566669464,-23.56198501586914,19.501754760742188,17.97431182861328,0.8769632577896118,2.3476455211639404,-0.13361968100070953,,,,,,,,,
1739401347.7779992,-0.707069490963581,0.673882887739361,1.4178115865027299,-1.8796123873858765,-0.7078216099791556,1.94986974465362,0.18528807571844072,-0.0006474462609428326,0.0009375011224397091,0.0007943071315690074,0.00013792932568389211,-0.00037213971708995643,-0.0001803796812267279,-0.0018465901460190484,0.2689092457294464,-23.61355972290039,19.450180053710938,17.92273712158203,0.8897806406021118,2.3604629039764404,-0.10066069662570953,,,,,,,,,
1739401347.7880208,-0.70706749295005,0.6738806543596901,1.4178092770900022,-1.8796191193842497,-0.7078223569859854,1.9498715884366524,0.18528490179293733,-0.00010922723259675017,0.0004230548226151631,9.926062140061618e-05,-0.001489653788293324,0.00033603485465035583,0.0007905158206259879,-0.0012099819003660564,0.2411382496356964,-23.58578872680664,19.477951049804688,17.97431182861328,0.8961893320083618,2.3540542125701904,-0.07411040365695953,,,,,,,,,
1739401347.7990344,-0.7070711239751128,0.673880618019605,1.417809174104671,-1.8796162243644232,-0.7078211957506085,1.9498715884427835,0.1852899059325853,-0.0006986850027968872,0.00012107049870330611,-0.00028228880679598744,0.00017738050869867345,0.00047044902826983483,0.00027338677261225247,-0.0006435759782925847,0.2927129566669464,-23.58578872680664,19.477951049804688,17.97431182861328,0.8833719491958618,2.3540542125701904,-0.11347807943820953,,,,,,,,,
1739401347.8099694,-0.7070712034475242,0.6738808927403963,1.417807392408217,-1.8796141785713012,-0.7078223563338265,1.9498693154625486,0.1852913345934952,-0.00018536516754823088,-0.00041970583063099425,-0.00024034943072818513,0.0002216104860013709,-0.00015332470158113397,7.49937770325019e-07,0.002006739400005041,0.2927129566669464,-23.58578872680664,19.501754760742188,17.94654083251953,0.8961893320083618,2.3732802867889404,-0.12721098959445953,,,,,,,,,
1739401347.8209178,-0.7070674929863886,0.673882864191847,1.4178073924082226,-1.8796123846657982,-0.707820839558117,1.9498692752355458,0.18529542746009647,-1.3995893615778614e-05,0.0008814789145189601,-4.228510667559336e-05,0.0015818425424784037,0.0006417597057170962,-4.21698653759045e-05,-0.00019304279619298268,0.2411382496356964,-23.61355972290039,19.501754760742188,17.92273712158203,0.8833719491958618,2.3732802867889404,-0.12721098959445953,,,,,,,,,
1739401347.8319669,-0.7070694896190463,0.6738828819614489,1.4178070480258305,-1.8796141785714717,-0.7078242951126595,1.9498723461027863,0.18529046751032413,-0.0002920104187009609,-0.0012496433400607842,0.00039938246771147355,-0.0003024093406518233,-0.0002820666559408392,0.0004788239630811795,-0.0010961260126148384,0.2689092457294464,-23.61355972290039,19.501754760742188,17.94654083251953,0.9035135507583618,2.3476455211639404,-0.09425200521945953,,,,,,,,,
1739401347.8419983,-0.7070712034479506,0.6738808927417994,1.417804279465359,-1.879618039778624,-0.7078228312490845,1.9498708307827053,0.1852936457842928,-0.0008459694487108532,-0.0006725810202675024,-0.0006466058999037968,-0.0005781837563630439,-0.0013600367207970301,-2.9004460583653206e-05,0.000951424568113354,0.2927129566669464,-23.58578872680664,19.529525756835938,17.99811553955078,0.8961893320083618,2.3604629039764404,-0.12080229818820953,,,,,,,,,
1739401347.8520029,-0.7070653472191767,0.6738828906828003,1.4178053138606141,-1.8796141920669749,-0.70782236091855,1.949872346102862,0.18528729181333045,0.0012520590439038322,1.4652579545698386e-05,-0.000312438764011413,-0.00012410229528792796,-0.00036961549609224064,0.0011869354023773637,-0.002549091500224872,0.2411382496356964,-23.61355972290039,19.529525756835938,17.97431182861328,0.8961893320083618,2.3476455211639404,-0.09425200521945953,0,0,0,0.000,0,0
1739401347.8629844,-0.7070694938585679,0.6738828906828003,1.417803529941355,-1.8796134813281145,-0.7078227139597185,1.9498715869528946,0.1852913341055386,-0.000911123656815765,0.0007504234675792793,-0.0008016006720422721,0.001291005575853892,-0.00017367043297948265,-0.0004934895835725409,0.0005395553699378114,0.2689092457294464,-23.61355972290039,19.553329467773438,17.94654083251953,0.8961893320083618,2.3540542125701904,-0.12721098959445953,0,0,0,0.000,0,0
1739401347.8730452,-0.7070675018167559,0.6738828916639467,1.4178073894647834,-1.8796139494074888,-0.707822356991978,1.9498708307826802,0.18529468389490492,0.00025617188885208365,0.00022904597921216425,0.0003233887070660359,0.00020295103060626027,-0.0008323134141400404,5.5430229211955354e-05,0.0008847069367987037,0.2411382496356964,-23.61355972290039,19.501754760742188,17.94654083251953,0.8961893320083618,2.3604629039764404,-0.12080229818820953,0,0,0,0.000,0,0
1739401347.8840008,-0.7070657804657071,0.6738849981853074,1.417807357086935,-1.8796162583600549,-0.7078212459496128,1.9498708305619812,0.18529309502115365,0.0001826833852388172,0.00045103164146776585,-0.00010020662153816861,-0.000526662551458661,0.00019834079864862808,0.0003286268122202887,0.0009927279748515284,0.2173345386981964,-23.61355972290039,19.501754760742188,17.97431182861328,0.8897806406021118,2.3604629039764404,-0.11347807943820953,0,0,0,0.000,0,0
1739401347.8949888,-0.7070709650293937,0.673882917549038,1.4178073806342661,-1.8796142845353059,-0.7078239798871435,1.9498708307827042,0.18528739843543485,-0.000504060505570801,0.0008238278331739101,0.00040389671330607496,1.8351506092692928e-05,-0.0001452710117993971,0.000568910512852938,-0.0004143734624798543,0.2927129566669464,-23.61355972290039,19.501754760742188,17.94654083251953,0.9099222421646118,2.3604629039764404,-0.09425200521945953,0,0,0,0.000,0,0
1739401347.9059098,-0.7070684466593591,0.6738808927420988,1.417804358834968,-1.8796142050630444,-0.7078201800067055,1.9498701402706735,0.18529279921738973,0.00025225941095453257,-0.0007294026209727723,-0.0013887149143829557,-4.276433405644647e-05,0.0002791366119212133,-0.0006817771185281898,0.000438130595423197,0.2411382496356964,-23.58578872680664,19.529525756835938,17.94654083251953,0.8897806406021118,2.3540542125701904,-0.14094389975070953,0,0,0,0.000,0,0
1739401347.9159431,-0.707063634714596,0.6738808924148983,1.4178113310613165,-1.8796141785719416,-0.7078224020946315,1.9498715884182587,0.18528722053171862,0.0015141065246539645,-0.0002797893625066039,0.0015935248884091056,0.00021545791968648952,0.0002523921492423283,-6.734765342339432e-05,-0.0018202897664451561,0.2173345386981964,-23.58578872680664,19.450180053710938,17.94654083251953,0.8961893320083618,2.3540542125701904,-0.06678618490695953,0,0,0,0.000,0,0
1739401347.9260287,-0.7070695706908116,0.6738787469747297,1.4178091750865318,-1.879614178571493,-0.7078207690617051,1.949870830782705,0.18529584947634328,-0.0009525096383627618,-0.0011039348846586462,-0.0008282497020673384,3.186387187382078e-05,-0.00018683206522573538,-0.00012294597331858877,0.002394820704315323,0.2689092457294464,-23.58578872680664,19.477951049804688,17.94654083251953,0.8833719491958618,2.3604629039764404,-0.15376128256320953,0,0,0,0.000,0,0
1739401347.9360452,-0.7070674929877393,0.6738828644825571,1.4178133211694495,-1.8796104090729813,-0.7078215991611003,1.949871587946154,0.18529119415457806,-0.00040035204286997545,0.0007945717581212245,0.0010754081154470108,0.0012127209216734108,0.0012405435377427416,9.671005087978922e-05,-0.0003834987578758629,0.2411382496356964,-23.61355972290039,19.450180053710938,17.92273712158203,0.8897806406021118,2.3540542125701904,-0.12721098959445953,0,0,0,0.000,0,0
1739401347.9469755,-0.7070673451600297,0.673880177486062,1.4178091823269725,-1.879614892556271,-0.7078211277759768,1.949872345937316,0.18528489936266762,-6.724670618018689e-06,-0.0005771874362201516,-0.00028926841699743536,-0.0003639299936146821,0.0011003076611533261,0.0008030326627318709,0.00020956959799241118,0.2689092457294464,-23.58578872680664,19.477951049804688,17.94654083251953,0.8897806406021118,2.3476455211639404,-0.07411040365695953,0,0,0,0.000,0,0
1739401347.9570615,-0.7070694908909028,0.6738830384970461,1.4178119437449825,-1.8796121093498306,-0.7078215986637709,1.9498732120000917,0.1852909400683641,0.0004853259973808168,0.002270264550153861,0.0009482760080256791,0.0005965448403065036,0.000307881531369367,0.00039194640473028775,0.0006458223465295907,0.2689092457294464,-23.58578872680664,19.450180053710938,17.94654083251953,0.8897806406021118,2.3403213024139404,-0.09425200521945953,0,0,0,0.000,0,0
1739401347.9679449,-0.707072907138386,0.6738791890636465,1.417806679990797,-1.8796162583496676,-0.7078215936650725,1.9498708307827053,0.1852930089264509,-0.001271847204576107,-0.0007021285141802184,-0.0006415954425349808,-0.0007092034024743551,0.0002583552387360779,-8.796864229940933e-05,0.00013591669424390784,0.3165166676044464,-23.56198501586914,19.501754760742188,17.97431182861328,0.8897806406021118,2.3604629039764404,-0.13361968100070953,0,0,0,0.000,0,0
1739401347.9779801,-0.7070694879836528,0.6738808927420968,1.4178091750731767,-1.8796122853519774,-0.7078208454267414,1.949872346102862,0.1852864302539285,6.586067867052231e-05,0.000355519495024581,-0.0004991217077452871,0.0020022125427473355,0.0007777020698651828,0.00017802400668143458,-0.002148061371050285,0.2689092457294464,-23.58578872680664,19.477951049804688,17.92273712158203,0.8833719491958618,2.3476455211639404,-0.08692778646945953,0,0,0,0.000,0,0
1739401347.9889312,-0.7070694912542738,0.6738808924148983,1.4178070293180298,-1.8796148967700455,-0.7078215986717705,1.9498700731226268,0.18529346869107774,0.00033043338007521656,-0.0005362253180152595,0.0005302246997378993,-2.1814445521607607e-06,0.0004580212412823696,-0.00033549808517738445,0.0012880355763390504,0.2689092457294464,-23.58578872680664,19.477951049804688,17.94654083251953,0.8897806406021118,2.3668715953826904,-0.13361968100070953,0,0,0,0.000,0,0
1739401347.9989812,-0.7070677314049733,0.6738804159047834,1.4178091749398867,-1.8796155702749375,-0.7078219110063422,1.9498732120000943,0.18528606239838885,0.0002502033253495105,-0.0005027183192663783,0.0012439688429912586,-0.00041250488556859,-4.0574608100475825e-06,0.0005898492103423783,-0.0012097728402625583,0.2411382496356964,-23.58578872680664,19.477951049804688,17.97431182861328,0.8833719491958618,2.3403213024139404,-0.08051909506320953,0,0,0,0.000,0,0
1739401348.009954,-0.7070712031249616,0.6738808927338719,1.4178010662826948,-1.8796162583496956,-0.7078216001615857,1.9498708307827053,0.18529078565532156,-0.0005842231374780195,0.00012820937434844895,-0.0022345804292534153,-2.6084866113638278e-05,-0.0007184509345723904,-0.00025728723154274703,4.093378610250806e-05,0.2927129566669464,-23.58578872680664,19.553329467773438,17.97431182861328,0.8897806406021118,2.3604629039764404,-0.11347807943820953,0,0,0,0.000,0,0
1739401348.0200064,-0.7070712024668245,0.6738846028764826,1.4178052330952613,-1.8796162583613485,-0.7078258900446722,1.9498715482157807,0.18529117663843062,-0.0004423010817533701,0.0006395862495803206,3.691506712621574e-05,0.00011102388546818307,-0.0005703697834693954,-0.00021653644129506272,-3.288824374629378e-06,0.2927129566669464,-23.63736343383789,19.529525756835938,17.97431182861328,0.8897806406021118,2.3540542125701904,-0.12721098959445953,0,0,0,0.000,0,0
1739401348.030014,-0.7070694909272249,0.6738828108828863,1.4178035181662443,-1.8796162584703646,-0.7078216384808502,1.949870830782024,0.18529417538970075,-3.851049845895018e-06,-7.333241659535237e-05,-0.00020299420434790526,-0.0004042209341392199,0.000604131845714282,-0.0006007082241639461,0.0006703964082476496,0.2689092457294464,-23.61355972290039,19.553329467773438,17.97431182861328,0.8897806406021118,2.3604629039764404,-0.11347807943820953,0,0,0,0.000,0,0
1739401348.0409896,-0.707072915968704,0.6738828897003024,1.4178053126181678,-1.8796159522436684,-0.707822075509578,1.9498700731226268,0.18529236682592598,-0.0020218257722942005,0.0003430425427529887,0.00057434846108362,5.877074292812232e-05,-0.0015990168824334026,-0.00013519310061642435,-0.002078078512498592,0.3165166676044464,-23.61355972290039,19.529525756835938,17.97431182861328,0.8897806406021118,2.3668715953826904,-0.10066069662570953,0,0,0,0.000,0,0
1739401348.0519207,-0.7070674969109743,0.6738818552465757,1.4178073921861523,-1.8796162582546418,-0.7078177018364009,1.9498708307827053,0.18529122516884586,-1.3642328740344655e-05,0.00016690638600073653,7.740548628621852e-05,-0.0003378461446289149,0.001748108420466124,-0.00046099230687389925,-0.0020618958023831185,0.2411382496356964,-23.58578872680664,19.501754760742188,17.97431182861328,0.8833719491958618,2.3604629039764404,-0.10066069662570953,0,0,0,0.000,0,0
1739401348.061976,-0.707069517418217,0.6738813259938612,1.417811254875096,-1.8796165749580502,-0.7078216051950009,1.9498708307827053,0.18529512607422471,-0.0004156070490216419,-0.00031564133453134834,0.0005756829417288569,-0.0012674334816044305,0.00018711019838726852,0.0004390987511469227,-0.00016887652898947764,0.2689092457294464,-23.56198501586914,19.450180053710938,17.97431182861328,0.8897806406021118,2.3604629039764404,-0.13361968100070953,0,0,0,0.000,0,0
1739401348.0730128,-0.7070712034484213,0.6738830385454979,1.4178084599344831,-1.8796134290470117,-0.7078234292155404,1.9498700731226268,0.18528967855811915,-0.0010891360161643404,0.0007418638036773253,-0.00044848962659957365,-0.00017581287131816109,-0.0007550048276694114,-0.0001278315593892357,-6.091812542036905e-05,0.2927129566669464,-23.58578872680664,19.477951049804688,17.92273712158203,0.8961893320083618,2.3668715953826904,-0.07411040365695953,0,0,0,0.000,0,0
1739401348.0839653,-0.7070674929863886,0.6738774677166354,1.417809092667597,-1.8796162583632925,-0.7078215986737645,1.9498697446536228,0.18529630733623204,0.0001883938927860234,-0.00125832636955373,9.939660169860374e-05,-0.0006324801924409586,-4.420384524536809e-05,-0.0002738990655443813,0.0012906727712314377,0.2411382496356964,-23.53818130493164,19.477951049804688,17.97431182861328,0.8897806406021118,2.3604629039764404,-0.13361968100070953,0,0,0,0.000,0,0
1739401348.095022,-0.707065859938517,0.673880866250994,1.4178073924077572,-1.8796200608742222,-0.7078216001434653,1.9498715884366524,0.185284915156256,2.160385676345752e-06,-0.00014882074401550242,2.1348508285979413e-05,-0.001569267794327844,0.00022093142153287198,0.00044139393323995026,-0.0022774361725390263,0.2173345386981964,-23.58578872680664,19.501754760742188,18.02191925048828,0.8897806406021118,2.3540542125701904,-0.07411040365695953,0,0,0,0.000,0,0
1739401348.1059554,-0.7070712034484213,0.67388289449822,1.4178091750852417,-1.8796141665585282,-0.7078208410116755,1.949870884521751,0.18529053583490718,-0.00017215384318244507,0.001412354435349697,0.0008759890024790044,0.0003628709213415065,0.0004562678164110359,-0.0009909098026260458,-0.0012887135113274764,0.2927129566669464,-23.61355972290039,19.477951049804688,17.97431182861328,0.8833719491958618,2.3476455211639404,-0.12080229818820953,0,0,0,0.000,0,0
1739401348.118015,-0.7070674929863886,0.6738808927419687,1.417811241343255,-1.8796141785596847,-0.707820845372991,1.9498708307744548,0.18529297561106461,0.0006980418750608234,-0.0012400046199952455,7.55117276566434e-05,-1.1730391917356313e-05,-1.251714262109167e-06,8.729776820337647e-05,0.00011129785364925979,0.2411382496356964,-23.58578872680664,19.477951049804688,17.94654083251953,0.8833719491958618,2.3604629039764404,-0.13361968100070953,0,0,0,0.000,0,0
1739401348.1289234,-0.7070712034479728,0.6738792596940756,1.4178084598333924,-1.8796197923308142,-0.7078256279466114,1.9498708307827053,0.18529471882635984,-0.0008502105207059627,-0.0013190603914833522,-0.0005538311829376729,-0.0016350450200003403,-0.0019654019951205405,-0.00021266096492479007,0.0010297729493204965,0.2927129566669464,-23.56198501586914,19.477951049804688,18.02191925048828,0.8961893320083618,2.3604629039764404,-0.12721098959445953,0,0,0,0.000,0,0
1739401348.1390178,-0.7070709650293937,0.6738807449169342,1.4178071539775305,-1.879616031715995,-0.7078208412305967,1.9498715884427835,0.1852895718894246,0.00037431036996896853,-0.0006410493395501735,9.09609872249685e-05,-0.00046174139424548906,0.0011020060204395498,0.0003366010236911301,0.0002484641616728475,0.2927129566669464,-23.61355972290039,19.501754760742188,17.97431182861328,0.8833719491958618,2.3540542125701904,-0.10066069662570953,0,0,0,0.000,0,0
1739401348.14995,-0.7070640679435802,0.6738780306893998,1.4178091865265663,-1.8796141672325215,-0.7078209999573879,1.9498708307827053,0.18529897703961226,0.001283236041186211,-0.0006773670961152788,0.0009298835348454279,-0.00028155732303667585,-9.822799720742533e-05,0.0007617922411251298,0.00100882338945752,0.1935308277606964,-23.58578872680664,19.477951049804688,17.94654083251953,0.8833719491958618,2.3604629039764404,-0.15376128256320953,0,0,0,0.000,0,0
1739401348.1609747,-0.7070694909272416,0.673884603187375,1.417807392408287,-1.8796162583612845,-0.7078217178819325,1.9498700731226268,0.18528566099121185,5.697126464664776e-05,0.0005554537179155883,0.0006557622820901356,-0.0008861245685266659,-0.0008574845753127416,0.00013496032122841208,-0.00017857486092824924,0.2689092457294464,-23.63736343383789,19.501754760742188,17.97431182861328,0.8897806406021118,2.3668715953826904,-0.08051909506320953,0,0,0,0.000,0,0
1739401348.1719918,-0.7070695161099996,0.6738828641918468,1.4178073628648138,-1.8796162243482726,-0.7078248129625857,1.9498703480586688,0.18529384910098964,-0.00013018631980617028,-0.00030872400104945297,-0.0006066380696941667,-5.616852673748105e-05,-0.0009894197696330652,-0.0003520600891098876,0.00035481970633130863,0.2689092457294464,-23.61355972290039,19.501754760742188,17.97431182861328,0.8897806406021118,2.3604629039764404,-0.11347807943820953,0,0,0,0.000,0,0
1739401348.1829767,-0.707069490891045,0.6738860366219569,1.4178091671995647,-1.8796162583611564,-0.7078223563499687,1.9498708269011547,0.1852878314869437,-0.00029888221698041144,0.0007448558154829052,0.0011143395789623824,-1.700559834903089e-05,0.00036050189485440086,6.0470982143324556e-05,-0.00032947313774500165,0.2689092457294464,-23.63736343383789,19.477951049804688,17.97431182861328,0.8961893320083618,2.3604629039764404,-0.08692778646945953,0,0,0,0.000,0,0
1739401348.1929843,-0.7070675018167057,0.6738831291256544,1.4178073835777711,-1.8796155780069677,-0.7078220163645911,1.9498723461027963,0.18528930577050867,0.00038374508573773647,-0.0001193104651800435,0.0007750295599411423,-0.00023846663799709884,0.0005290142498562829,0.001043396277517619,0.001355394593683044,0.2411382496356964,-23.61355972290039,19.501754760742188,17.97431182861328,0.8961893320083618,2.3476455211639404,-0.10706938803195953,0,0,0,0.000,0,0
1739401348.2039218,-0.7070672545679589,0.6738831379357351,1.4178070293178802,-1.8796180410268457,-0.7078251793598337,1.9498675679257906,0.18529046814103034,0.0006599361730465308,4.1511839125480814e-05,-0.00019830371704679395,-0.0003042124564877767,-0.0005981501768905319,-0.0013459408878293711,-0.0007116397505718287,0.2411382496356964,-23.61355972290039,19.477951049804688,17.99811553955078,0.8897806406021118,2.3604629039764404,-0.09425200521945953,0,0,0,0.000,0,0
1739401348.2140107,-0.707065347036137,0.6738808928886979,1.4178073920690608,-1.879610330726623,-0.7078208410318804,1.949870068634541,0.1852939637026294,0.001741709097681113,-0.0006838939128682004,-0.0002470291478135671,0.0005834255153726224,0.0008951962497103299,-0.00028401234504355004,0.0009421607268252558,0.2411382496356964,-23.58578872680664,19.501754760742188,17.92273712158203,0.8833719491958618,2.3668715953826904,-0.14735259115695953,0,0,0,0.000,0,0
1739401348.2249815,-0.7070695026525459,0.6738791802212167,1.4178073924082206,-1.8796123183735949,-0.707820724745817,1.94987083078268,0.18528881406720082,-0.0005817017436692763,-0.0009534983079264934,-0.0006688936875504153,0.0006171709503598352,0.0008536157713046153,0.0005112385844394433,-0.0011987647072732846,0.2689092457294464,-23.56198501586914,19.501754760742188,17.92273712158203,0.8833719491958618,2.3604629039764404,-0.06678618490695953,0,0,0,0.000,0,0
1739401348.234983,-0.7070694909274401,0.6738792067121692,1.4178101209764056,-1.879610851856791,-0.7078232227176606,1.9498708307827053,0.1852950821944937,0.00032253445891829776,-0.0010629074708190485,0.0005168885260651843,0.0002580458999354155,-0.0007802176965419983,6.94485060156296e-05,0.0003500424359151267,0.2689092457294464,-23.56198501586914,19.501754760742188,17.89893341064453,0.9035135507583618,2.3604629039764404,-0.12080229818820953,0,0,0,0.000,0,0
1739401348.2460103,-0.7070674926593398,0.6738809722512952,1.417811258669731,-1.8796123957908424,-0.7078224755411162,1.9498723465873788,0.1852937376164544,0.0007573016356310387,0.0008175659344375743,0.0022172551963679224,3.461284704878468e-05,-0.0006133908805043063,0.0012306565192828284,-0.0003753241195458474,0.2411382496356964,-23.58578872680664,19.450180053710938,17.92273712158203,0.8961893320083618,2.3476455211639404,-0.12080229818820953,0,0,0,0.000,0,0
1739401348.25601,-0.7070657804656518,0.6738808839129758,1.4178113274799964,-1.8796162586883953,-0.7078200833536078,1.9498708307827135,0.18529134582643117,0.0015799805629833049,-0.0005426865963905982,-0.00035416196438944116,-0.0007599884748827254,0.0005339802289157237,0.0004640502944816766,0.0004299832883969813,0.2173345386981964,-23.58578872680664,19.450180053710938,17.97431182861328,0.8769632577896118,2.3604629039764404,-0.12721098959445953,0,0,0,0.000,0,0
1739401348.2669535,-0.7070711769570196,0.6738843476488394,1.4178119424370745,-1.8796141785714948,-0.7078223564953483,1.9498715884427837,0.1852887983852273,3.64078182105551e-05,0.0014018553832195195,0.00047948009284131266,3.85158619025588e-05,0.0002741879571814984,0.0003875652026393191,-0.0032045266894484676,0.2927129566669464,-23.61355972290039,19.450180053710938,17.94654083251953,0.8961893320083618,2.3540542125701904,-0.10706938803195953,0,0,0,0.000,0,0
1739401348.2779179,-0.7070694879836528,0.6738807602954056,1.417807491507892,-1.8796180410033747,-0.7078223563318249,1.949870502313701,0.18528542816416496,-0.00018373106982344796,0.0001246689617716127,-0.00019655370514961884,-0.0015238706297604552,-0.00013046692922557253,-0.00015080099470792901,-0.0013991892071758825,0.2689092457294464,-23.58578872680664,19.501754760742188,17.99811553955078,0.8961893320083618,2.3540542125701904,-0.07411040365695953,0,0,0,0.000,0,0
1739401348.2879531,-0.7070694909270919,0.673882864185118,1.4178070113353802,-1.8796141445584154,-0.7078227958854184,1.9498708307275243,0.18529246214802522,-0.00021647321330080715,0.0001965943204476425,-0.00039798543780367255,0.00040196719707792183,-0.0006791115598194678,9.65304536362659e-05,0.0015979456636773222,0.2689092457294464,-23.61355972290039,19.477951049804688,17.94654083251953,0.8961893320083618,2.3604629039764404,-0.13361968100070953,0,0,0,0.000,0,0
1739401348.2989812,-0.7070675253521074,0.6738787468293304,1.4178091750811703,-1.8796180411836585,-0.7078240618436376,1.9498715348067794,0.18529332873933468,0.00036961452167002455,-0.0005668242992808228,0.001189417711741423,-0.0015316723150396142,-0.00035299312777895047,-7.501956878794617e-05,0.0022516781281924827,0.2411382496356964,-23.58578872680664,19.477951049804688,17.99811553955078,0.8833719491958618,2.3540542125701904,-0.14094389975070953,0,0,0,0.000,0,0
1739401348.3090453,-0.7070694909277896,0.6738845598877315,1.4178091741040952,-1.8796163215042843,-0.7078223580216131,1.9498715884418751,0.18528950937427657,0.0003559827402266154,0.0013767559183432815,0.001033703433945933,-0.00010505233656045825,-0.00031705271076695204,0.0003798726581629641,-0.0015034859094537247,0.2689092457294464,-23.63736343383789,19.477951049804688,17.94654083251953,0.8961893320083618,2.3540542125701904,-0.07411040365695953,0,0,0,0.000,0,0
1739401348.3199744,-0.7070694909272416,0.6738800296596065,1.4178091741040897,-1.879616258409784,-0.7078215986717552,1.9498715884427835,0.1852928007548441,0.001007296847354582,-0.0006007338965564495,0.00019679327220322053,-0.00048718095971953836,0.0007207099867399116,-0.001872045676299178,-0.00033856543398056685,0.2689092457294464,-23.61355972290039,19.477951049804688,17.97431182861328,0.8897806406021118,2.3540542125701904,-0.14094389975070953,0,0,0,0.000,0,0
1739401348.3299806,-0.7070706719007765,0.6738829965981614,1.417807392408206,-1.8796134660347996,-0.707821616332381,1.9498700731226268,0.18528851033804092,-0.0003865674298433143,0.0013043055724921066,0.0005905963532251031,0.0002896417642252601,1.724824304158901e-05,-0.0005742827142368964,-0.0007097166245386735,0.2411382496356964,-23.61355972290039,19.501754760742188,17.97431182861328,0.8897806406021118,2.3668715953826904,-0.10066069662570953,0,0,0,0.000,0,0
1739401348.3400035,-0.7070666299581275,0.6738846032053251,1.4178091750852417,-1.8796165085063963,-0.7078275137637793,1.9498708307827053,0.1852892853131007,0.0003983114298725936,0.000890358976428662,0.0006870244657970082,-0.00024470093254510075,-0.0011783307926690613,-0.000612177495279329,-0.000712195728573694,0.2689092457294464,-23.63736343383789,19.477951049804688,17.97431182861328,0.9035135507583618,2.3604629039764404,-0.07411040365695953,0,0,0,0.000,0,0
1739401348.3509483,-0.7070674932649866,0.6738828906828003,1.417804451585365,-1.8796123193692895,-0.7078231816023269,1.9498700731226268,0.18529244615635143,0.00040450811410955344,0.0008399672387025259,-0.0004587750700820808,0.0016144631161821286,0.0006476251572848878,-0.0003672047611753759,-0.001229682566385957,0.2411382496356964,-23.61355972290039,19.501754760742188,17.92273712158203,0.9035135507583618,2.3668715953826904,-0.13361968100070953,0,0,0,0.000,0,0
1739401348.3610437,-0.7070694909272462,0.6738828906828003,1.417811254716278,-1.8796180411460879,-0.7078208807474091,1.9498708307827053,0.18529105985038316,4.736883439188169e-05,-0.00019621615550821317,0.0007078647832511669,-0.0001612895868348599,0.001131629969161818,5.149435709220664e-05,-0.001280190940783197,0.2689092457294464,-23.61355972290039,19.450180053710938,17.99811553955078,0.8833719491958618,2.3604629039764404,-0.08692778646945953,0,0,0,0.000,0,0
1739401348.3720176,-0.707072157449338,0.673880822135744,1.41780350297799,-1.8796162586883978,-0.7078215986181348,1.949871587946154,0.18528890249296126,-0.0007077805023373992,-0.0004215591801054519,-0.0009554294237639858,-0.0006794202094221136,0.00041380193884286325,0.0008767643608438991,-0.0019914111609625708,0.2927129566669464,-23.58578872680664,19.553329467773438,17.97431182861328,0.8897806406021118,2.3540542125701904,-0.08051909506320953,0,0,0,0.000,0,0
1739401348.3820546,-0.7070694909326269,0.6738828906824017,1.417807389464631,-1.8796159139439654,-0.707820841011667,1.949871586401081,0.18529051156995632,-0.0004549376476030789,-0.0010412600270626737,-0.00030353730783793813,-0.0009100008683154288,8.430878619163936e-05,-0.0006907287728289125,-0.0019547803196544467,0.2689092457294464,-23.61355972290039,19.501754760742188,17.97431182861328,0.8833719491958618,2.3540542125701904,-0.09425200521945953,0,0,0,0.000,0,0
