IITGN-Robotics/Franka_IITGN_ROBOTICS/franka_ros/franka_iitgn/data/b_23.csv
time,fr3_joint1_pos,fr3_joint2_pos,fr3_joint3_pos,fr3_joint4_pos,fr3_joint5_pos,fr3_joint6_pos,fr3_joint7_pos,fr3_joint1_vel,fr3_joint2_vel,fr3_joint3_vel,fr3_joint4_vel,fr3_joint5_vel,fr3_joint6_vel,fr3_joint7_vel,fr3_joint1_eff,fr3_joint2_eff,fr3_joint3_eff,fr3_joint4_eff,fr3_joint5_eff,fr3_joint6_eff,fr3_joint7_eff,flexpin1,flexpin2,flexpin3,Force,ContactMic,ContactMic_gt
1739401372.0056133,-0.707012794207945,0.673515367953214,1.4177709090100026,-1.8796499890795153,-0.7075766240183798,1.9500330323829485,0.1851130151965839,-0.0003112845890641249,0.0005962137056499185,0.00014131709603267965,-0.0020719776773097482,0.0009629303528154745,-7.92688302759927e-05,-0.0001697129974815568,0.2411382496356964,-23.61355972290039,19.477951049804688,17.99811553955078,1.0472513437271118,2.3668715953826904,-0.16108550131320953,,,,,,,,,
1739401372.015632,-0.7070175118789961,0.6735180944877925,1.4177670464364218,-1.879644255644557,-0.7075780146846085,1.9500322745613656,0.18510742428897722,-0.0007768684535878732,0.0001957567192537123,-0.0006996233486126354,0.0006596336489625591,-0.0003737289241425144,-6.694000931465536e-05,-0.0006158773789872484,0.3165166676044464,-23.66513442993164,19.529525756835938,17.92273712158203,1.0472513437271118,2.3732802867889404,-0.11347807943820953,,,,,,,,,
1739401372.026572,-0.7070136862616697,0.6735153905315219,1.4177709345180813,-1.8796400976479049,-0.7075773417865544,1.9500322745613647,0.18511064958642456,0.00019410655424076145,-0.0005646399143698524,0.00147959357533865,0.001952323264692142,0.000667377495141556,0.00011385644861389963,-0.0010050097192370131,0.2927129566669464,-23.61355972290039,19.477951049804688,17.89893341064453,1.0536600351333618,2.3732802867889404,-0.14094389975070953,,,,,,,,,
1739401372.0365925,-0.7070136849658303,0.6735122333543893,1.4177680413201885,-1.8796460912146546,-0.7075813180893755,1.9500345475415997,0.18511296811007588,0.00027920287756960736,-0.0013054378253635306,0.0006780151406614386,0.00017222728078251215,-0.0013585789248687636,0.00013957241310298294,0.00043168313554893615,0.2927129566669464,-23.61355972290039,19.529525756835938,17.94654083251953,1.0600687265396118,2.3540542125701904,-0.13361968100070953,,,,,,,,,
1739401372.0475957,-0.707011972480699,0.6735169740008747,1.4177671488974353,-1.879647479421387,-0.7075773468537917,1.9500322745613647,0.18511394588969118,-1.4925156910585921e-05,-0.0004960817419002936,-0.0013140697088693265,-0.0009499184295979637,0.0009648659087677516,2.8755856370478265e-05,0.0020400270723446474,0.2689092457294464,-23.63736343383789,19.529525756835938,17.97431182861328,1.0536600351333618,2.3732802867889404,-0.16749419271945953,,,,,,,,,
1739401372.0606267,-0.7070074264669378,0.6735150376391037,1.4177745585665695,-1.8796429464371414,-0.7075801186468531,1.9500322745613647,0.18510860513452745,0.0006930512525876781,-0.0012271354848679772,0.0014835236658391397,0.000730291042269667,-0.00023903250878889605,-1.6997608995927014e-05,-0.0011105237020810768,0.2411382496356964,-23.61355972290039,19.426376342773438,17.94654083251953,1.0408426523208618,2.3732802867889404,-0.12080229818820953,,,,,,,,,
1739401372.0706592,-0.7070131063833489,0.6735302680340995,1.4177621773348315,-1.8796481945143173,-0.7075734495270769,1.9500262607275305,0.18510862651491738,-0.000490540245530167,0.0033858082458652146,-0.0013345404461085782,-0.000594082986733553,0.0014213282311299727,0.0007783903899013648,-0.001361975822492161,0.2411382496356964,-23.56198501586914,19.426376342773438,17.97431182861328,0.9355570077896118,2.3476455211639404,-0.08051909506320953,,,,,,,,,
1739401372.0816023,-0.7070146395289775,0.6735465003156633,1.417748874144218,-1.8796482064388125,-0.7075796209253157,1.9500186871514553,0.18512573090297166,-0.0010092556685494657,0.00034464192953187435,-0.0017970311759920045,-0.0014407188953318819,-0.0006830813680864382,0.00043162540782512576,0.0017939965644176523,0.2173345386981964,-23.43503189086914,19.402572631835938,17.97431182861328,0.8833719491958618,2.3403213024139404,-0.10706938803195953,,,,,,,,,
1739401372.0925877,-0.7070132538814627,0.6735644066757224,1.4177342170150884,-1.8796483106930144,-0.7075826926506649,1.9500105245255699,0.18512797211926765,-0.0003314317431813209,0.0014325502170426025,-0.0030850870631445454,0.00038916139804376566,0.0005371878635399126,-1.9318978922444727e-05,0.0008441765555976817,0.1935308277606964,-23.51041030883789,19.426376342773438,17.94654083251953,0.8961893320083618,2.3540542125701904,-0.09425200521945953,,,,,,,,,
1739401372.1026764,-0.7070129301086812,0.6735715171199458,1.417725696263468,-1.8796500169641024,-0.7075836115561616,1.9499994894205495,0.18513177056583616,0.001283482681032414,0.0004359090666250879,-0.0005143061144411668,0.0023995872296332967,0.0001479946450239374,-0.0020467526322493572,3.332854199758744e-05,0.1935308277606964,-23.51041030883789,19.374801635742188,17.99811553955078,0.9035135507583618,2.3796889781951904,-0.08051909506320953,,,,,,,,,
1739401372.1126766,-0.7070192529060921,0.6735779573259499,1.4177150124914544,-1.8796549596591796,-0.7075844111921252,1.9500001730502925,0.18513462883333473,0.0005028731683592765,0.0001752431228156242,-0.0006708552663410722,0.0003493565138621119,0.001234301583959653,-0.0003184969798794322,0.0003819274952121286,0.2411382496356964,-23.51041030883789,19.426376342773438,18.02191925048828,0.8833719491958618,2.3604629039764404,-0.10066069662570953,,,,,,,,,
1739401372.1236408,-0.7070178583306597,0.6735909029515342,1.4177044232776541,-1.8796453007652956,-0.7075875133285642,1.9499962205346326,0.18513103286414967,0.0007894816891778006,-0.00032772801169947245,-0.0003179999470515497,0.00030730571351626784,-0.000625906949445199,-0.0018931556194195414,-0.00411656054301106,0.2173345386981964,-23.56198501586914,19.402572631835938,17.92273712158203,0.8961893320083618,2.3540542125701904,-0.06678618490695953,,,,,,,,,
1739401372.1356146,-0.7070235413173737,0.6735949837996776,1.4176913168423295,-1.8796428008211972,-0.7075859987112483,1.9500004008647167,0.18513390830004484,-0.0009317016259323783,0.00014602719545917954,-0.0016125355816260672,-3.567207271309281e-05,-8.08029942148764e-05,-0.0008096196286611773,-0.001790591062735492,0.2927129566669464,-23.56198501586914,19.477951049804688,17.89893341064453,0.8833719491958618,2.3540542125701904,-0.05396880581974983,,,,,,,,,
1739401372.145629,-0.7070301503769758,0.6736064651842856,1.4176827436088457,-1.879645337014615,-0.7075875141929144,1.9499977915458035,0.18514160199540572,-0.0013112158401150796,0.001228903942664681,0.00034350827742603567,-0.0007934148650117518,-0.0006352330914186938,-0.00016259107691635319,0.0008936765497617326,0.3442876636981964,-23.63736343383789,19.501754760742188,17.92273712158203,0.8961893320083618,2.3403213024139404,-0.10706938803195953,,,,,,,,,
1739401372.156608,-0.7070312104594576,0.673613676336437,1.4176637346280252,-1.8796531988268872,-0.7075867563713315,1.949994360174277,0.18513542224861917,-0.0003088860719784455,0.0005563868430629092,-0.003268717286595224,-0.0022716899265015616,-0.0008505157117030717,-0.00028296444385904253,-0.002376893901071275,0.3442876636981964,-23.63736343383789,19.628707885742188,17.99811553955078,0.8897806406021118,2.3732802867889404,-0.06678618490695953,,,,,,,,,
1739401372.1675696,-0.7070337138060142,0.6736226590552398,1.4176589757965345,-1.8796513093264382,-0.7075867578248808,1.9499899526521567,0.18514515525724715,-0.0009408176489114899,0.000476754219039262,0.0007710477537253676,4.386108220657216e-05,-0.000289042625201103,-0.0009470347238138143,0.0017722439778015612,0.3442876636981964,-23.68893814086914,19.577133178710938,17.97431182861328,0.8897806406021118,2.3796889781951904,-0.12080229818820953,,,,,,,,,
1739401372.1775734,-0.70703336947798,0.6736257956439149,1.4176547632264778,-1.8796522541025078,-0.7075870598029564,1.9499961620965298,0.18514369199282762,-0.00032800509955351954,0.0009877090769846678,-0.001118698557949059,-0.0008353762368065487,0.0013703841626922838,0.0004922667903888191,-0.0015522237135755386,0.3442876636981964,-23.68893814086914,19.577133178710938,17.99811553955078,0.8833719491958618,2.3540542125701904,-0.10066069662570953,,,,,,,,,
1739401372.187632,-0.7070313660804822,0.6736229278484326,1.4176516505589796,-1.8796515271248426,-0.7075893389876873,1.9499946453766561,0.18514218222467935,0.00032607951144821685,-0.00073262042844973,-0.00012087807204240868,-0.0006205694815978064,0.00034091414972537646,0.00016022535363276855,-0.0004583798827907071,0.3165166676044464,-23.63736343383789,19.577133178710938,17.97431182861328,0.8833719491958618,2.3668715953826904,-0.12080229818820953,,,,,,,,,
1739401372.1976368,-0.7070337566981407,0.6736240276629127,1.4176529627120682,-1.879649106895059,-0.7075866554121312,1.9499961606967893,0.18514537056900587,-0.0002861704871327844,-0.00027416769159866665,-0.00012892710703267751,0.00029381746752256584,0.0016463112037829672,0.001070232728830895,5.302015517602221e-05,0.3165166676044464,-23.61355972290039,19.529525756835938,17.94654083251953,0.8769632577896118,2.3540542125701904,-0.11347807943820953,,,,,,,,,
1739401372.2086024,-0.7070281889918172,0.6736255091712906,1.4176568256010804,-1.8796472053508948,-0.7075953435608755,1.9499954044902776,0.18514461362963605,0.0006049239407072151,-0.0001743284522433624,0.00017947350733746117,0.0016756128418171515,-0.002166572642297086,0.0013758025000035667,-0.000766913211142577,0.2689092457294464,-23.63736343383789,19.477951049804688,17.92273712158203,0.8961893320083618,2.3604629039764404,-0.10706938803195953,,,,,,,,,
1739401372.2186832,-0.7070302541503105,0.6736210717466373,1.417662833701927,-1.879649278020308,-0.707588896216614,1.9499929309081672,0.1851455241756738,-9.494765983294255e-05,-0.0006346114712089343,0.001508550692631669,0.0014459397767502885,0.0015331335279462409,-0.0015478819084189751,-0.00044791169950843734,0.2689092457294464,-23.56198501586914,19.426376342773438,17.97431182861328,0.8769632577896118,2.3540542125701904,-0.12080229818820953,,,,,,,,,
1739401372.2296002,-0.7070245553759796,0.6736210325174712,1.4176611554123273,-1.8796515740906437,-0.7075885965530645,1.9499913494775059,0.1851506064983507,0.0007809877933048499,-0.0018318951621079864,-0.000723852428903433,-8.794418318509563e-05,0.0005414985747253813,0.00046372227180366135,0.0014612532141291719,0.2173345386981964,-23.56198501586914,19.477951049804688,17.97431182861328,0.8769632577896118,2.3668715953826904,-0.15376128256320953,,,,,,,,,
1739401372.2405782,-0.7070235036733882,0.6736186138869377,1.417664150955063,-1.8796513453021377,-0.7075913677568274,1.9499936883825904,0.18514107157333187,0.00043634138232456115,-0.002031683711113271,-0.0001834183500243711,-0.00022931902394214033,-0.0004755176843365005,0.00018574396769966976,-0.0014499654064093204,0.1935308277606964,-23.53818130493164,19.450180053710938,17.97431182861328,0.8897806406021118,2.3476455211639404,-0.07411040365695953,,,,,,,,,
1739401372.2505956,-0.707026902348912,0.6736217042789249,1.4176678309214716,-1.8796514249913983,-0.7075900092585917,1.9499915514342594,0.18514326391554636,0.00010121531037124655,-7.134296299876344e-05,0.00072269684534532,-0.0019811217828121794,-0.00042210509427121495,-0.0008083711251806357,-0.0003140267108798151,0.2411382496356964,-23.53818130493164,19.402572631835938,17.97431182861328,0.8769632577896118,2.3540542125701904,-0.08051909506320953,,,,,,,,,
1739401372.2606053,-0.707028900507351,0.6736188677282547,1.4176656850471845,-1.879643997171835,-0.7075907540008792,1.9499961619107755,0.1851450869334137,0.000959993957115798,-0.0004178873992823929,-0.0005764982978899181,0.0005202666356046645,1.6044574217063625e-05,0.00014740755122064536,-0.0012294849462697573,0.2689092457294464,-23.51041030883789,19.402572631835938,17.87512969970703,0.8833719491958618,2.3540542125701904,-0.10706938803195953,,,,,,,,,
1739401372.2706604,-0.7070301717460611,0.6736203212118314,1.4176699914579827,-1.879650365136586,-0.7075861229895768,1.9499961038468445,0.1851457262602931,0.00035936860086011025,0.0005699466967829469,0.0014285836923607531,-0.0008681913814596672,0.0014957809794730668,-0.001044523731312316,-0.0012520426452647276,0.2689092457294464,-23.56198501586914,19.374801635742188,17.97431182861328,0.8833719491958618,2.3540542125701904,-0.11347807943820953,,,,,,,,,
1739401372.281678,-0.7070299783317763,0.6736224761344817,1.4176621900316573,-1.8796532064282674,-0.7075892517364615,1.9499961165516253,0.1851473906610273,1.5038066997962504e-05,0.0007224555341487378,0.0002016080185073618,-0.0019429672098452996,-0.00038299829262346193,0.0004102939677416742,0.0024421447729469584,0.2927129566669464,-23.56198501586914,19.477951049804688,17.99811553955078,0.8705545663833618,2.3540542125701904,-0.12721098959445953,,,,,,,,,
1739401372.2926328,-0.7070281878536541,0.6736251292597416,1.417664269385016,-1.8796492759550418,-0.7075907626683482,1.949994434574243,0.185143421847818,0.0004900141653057153,0.001407705500129831,0.0006345398912052723,0.00024452946110641716,3.613661146046948e-05,0.0008511421749548068,-0.0007647586917137652,0.2689092457294464,-23.58578872680664,19.450180053710938,17.97431182861328,0.8833719491958618,2.3403213024139404,-0.06678618490695953,,,,,,,,,
1739401372.3036127,-0.7070314524590681,0.6736265276891056,1.4176614747754857,-1.8796486300440411,-0.707590009422731,1.9499961604625557,0.185152733645608,-6.470491100237093e-05,0.0015043598589811824,-0.0005453012901805854,-0.00016833016132282745,0.0007002487938044925,0.0018083072468975789,0.0014216514523933553,0.3165166676044464,-23.61355972290039,19.477951049804688,17.94654083251953,0.8769632577896118,2.3540542125701904,-0.13361968100070953,,,,,,,,,
1739401372.314572,-0.7070325582986806,0.6736222685657668,1.417657996913971,-1.8796490263262713,-0.7075907665983174,1.9499911250768465,0.1851478408536722,-0.0003582018999581654,-0.0002990511954980977,-0.0006051448297800991,-0.0003170949320451172,-0.00043483898027067653,-0.0010503488251434323,-0.00022343498259997296,0.2927129566669464,-23.58578872680664,19.529525756835938,17.94654083251953,0.8833719491958618,2.3604629039764404,-0.12721098959445953,,,,,,,,,
1739401372.3246813,-0.7070297517234921,0.6736286818212874,1.4176551884353015,-1.8796492658336486,-0.7075898918466833,1.949995986198312,0.18515126918281452,-0.00017623982553501813,0.001080927323823031,-0.0009433719882843486,0.000199112138513071,0.0006542743271953436,0.0019369954809138506,-0.0004903400721134694,0.2927129566669464,-23.63736343383789,19.529525756835938,17.94654083251953,0.8769632577896118,2.3540542125701904,-0.12080229818820953,,,,,,,,,
1739401372.3366296,-0.707030207524103,0.6736304843290415,1.4176533223123773,-1.8796471903868832,-0.7075906493446006,1.9499906816892025,0.1851412489575434,0.0007114768220786933,0.0015617614501984385,-0.0011095990779389025,0.0005505891300788738,0.0011816419542595362,-0.0011681580182212991,-0.002217677575639691,0.2689092457294464,-23.68893814086914,19.553329467773438,17.94654083251953,0.8833719491958618,2.3604629039764404,-0.07411040365695953,,,,,,,,,
1739401372.3466835,-0.7070269860695706,0.6736272550158174,1.4176547644221027,-1.8796549816133217,-0.7075900094220913,1.9499906382723688,0.18515447143380465,0.0013724933825387114,-0.00015265836206664139,-0.00027193235484190994,-0.0005043019940470588,0.00146169430665389,-0.0002451790529559712,0.0015827065007467773,0.2411382496356964,-23.61355972290039,19.529525756835938,18.02191925048828,0.8769632577896118,2.3604629039764404,-0.14735259115695953,,,,,,,,,
1739401372.3576024,-0.7070271059237114,0.6736288244650795,1.4176527247257975,-1.8796532067975886,-0.7075947043033229,1.9499909532782917,0.18514519174932303,0.0016415222844468516,0.00037045255098933235,-0.0011764986234205168,-0.00041521346845456864,-0.0005452212861078537,0.0008323782035853068,-0.0012559532603323219,0.2173345386981964,-23.63736343383789,19.529525756835938,17.99811553955078,0.8897806406021118,2.3668715953826904,-0.08051909506320953,,,,,,,,,
1739401372.3676758,-0.7070280554456873,0.6736242379077586,1.4176564704638355,-1.8796532077787682,-0.7075898655751277,1.9499891208167492,0.1851489902359764,0.0008602420295702245,-0.001588610774858895,-0.0005593745088905503,1.1549479992411818e-05,0.00102778733963783,-0.0011539130700458126,2.1656127236655237e-05,0.2689092457294464,-23.56198501586914,19.501754760742188,17.99811553955078,0.8769632577896118,2.3732802867889404,-0.10066069662570953,,,,,,,,,
1739401372.3786764,-0.7070282216838485,0.6736252485671316,1.4176611161624186,-1.8796491068933312,-0.7075918779548104,1.9499899961961955,0.18515289866132398,0.0010360681768536665,-0.0011182602326268247,0.00015007790547810887,0.0009405111750191725,1.0134084824909949e-05,-0.00046564847464184995,0.0012482073678226004,0.2689092457294464,-23.58578872680664,19.477951049804688,17.94654083251953,0.8897806406021118,2.3668715953826904,-0.13361968100070953,,,,,,,,,
1739401372.3895686,-0.7070328379265058,0.6736252487414987,1.4176571887518348,-1.8796511857006946,-0.7075921632138646,1.9499913937794466,0.1851537694340733,3.484325289585552e-05,-0.0009357799353731089,-0.00012558789184549885,-0.0006411902623711578,0.0007483591337201568,0.0007407916909814505,0.0011863336200008017,0.2927129566669464,-23.58578872680664,19.501754760742188,17.97431182861328,0.8961893320083618,2.3540542125701904,-0.14094389975070953,,,,,,,,,
1739401372.3996356,-0.7070262933122562,0.6736235358997796,1.4176639121932135,-1.8796503580894734,-0.7075901271583073,1.9499922691764306,0.18515214733940846,0.0005226655400110647,-0.0006442712233860732,0.00038751019157276046,0.00025331917467474917,0.0009029061580137342,-0.00012179893548284419,0.00010278593409530456,0.2411382496356964,-23.56198501586914,19.450180053710938,17.99811553955078,0.8769632577896118,2.3476455211639404,-0.12721098959445953,,,,,,,,,
1739401372.4096959,-0.7070281971240728,0.673625275704855,1.417661142574348,-1.879651413279749,-0.7075918779576162,1.9499945109252532,0.18515278652608186,0.00047547790759001375,0.0005924926050137735,0.00011159344752226621,-0.000492752217566285,-0.0014154630688223283,1.2910801840987688e-05,0.0005455692800047306,0.2689092457294464,-23.58578872680664,19.450180053710938,17.97431182861328,0.8897806406021118,2.3668715953826904,-0.13361968100070953,,,,,,,,,
1739401372.420571,-0.7070310503297658,0.6736234565340661,1.4176660170138207,-1.8796454209617792,-0.7075922955407723,1.949992151465011,0.1851482508012187,-0.00015940907948152353,0.0006987546709313712,0.0023674359046966537,-0.00039054540161308416,-0.0009199417763566301,-0.0010125472323897376,8.36560390322324e-05,0.2689092457294464,-23.56198501586914,19.426376342773438,17.92273712158203,0.8961893320083618,2.3476455211639404,-0.09425200521945953,,,,,,,,,
1739401372.4306304,-0.7070291407030117,0.6736317669191002,1.4176631793725423,-1.8796437587534658,-0.7075915247435801,1.9499921514388618,0.18514872615824132,0.0005586010127273512,0.0024390749522880326,-0.00062615232006662,0.00014209329269195697,-0.0012739101727749298,-0.000620656126807265,0.0018814013411565913,0.2411382496356964,-23.63736343383789,19.426376342773438,17.87512969970703,0.8897806406021118,2.3476455211639404,-0.09425200521945953,,,,,,,,,
1739401372.4406555,-0.7070311651041626,0.6736253264374971,1.4176621016754904,-1.8796457534655724,-0.707590009422756,1.949991394263299,0.18514798902328147,-0.0013095201296813189,0.001252314242207753,-0.0007531513639167555,0.0007994447095709451,0.0007855772162356444,-0.00021869267859346493,0.0027976463414114195,0.2689092457294464,-23.58578872680664,19.477951049804688,17.89893341064453,0.8769632577896118,2.3540542125701904,-0.10706938803195953,,,,,,,,,
1739401372.4515986,-0.7070302111392851,0.6736235359010955,1.417662163538776,-1.879646582469173,-0.7075908854664265,1.949992969427257,0.18515290496941628,-0.0003717970319468358,-0.001234463107428389,-0.0002743573229348933,0.0006239150096934206,-0.0007829942323752732,0.0011650195312163793,0.001173705463647883,0.2689092457294464,-23.56198501586914,19.477951049804688,17.92273712158203,0.8833719491958618,2.3540542125701904,-0.13361968100070953,,,,,,,,,
1739401372.4616058,-0.7070300153248524,0.6736269285769172,1.4176600177729108,-1.8796475331949658,-0.7075907690215695,1.9499924535873117,0.18514771103542463,-0.0007205664861187007,9.627854060523895e-05,-0.00036801536090544037,0.0006614287140879851,0.0004686969277372167,0.00014061740218655175,-0.0007748798249473733,0.2927129566669464,-23.61355972290039,19.477951049804688,17.92273712158203,0.8833719491958618,2.3540542125701904,-0.09425200521945953,,,,,,,,,
1739401372.4716525,-0.7070311649831608,0.6736276304747988,1.4176596897063212,-1.8796490008200035,-0.7075907278370104,1.9499891208164952,0.18514872468646545,0.0004913680730777889,0.0005267106808501524,0.00020300475856883962,0.000640699440800615,0.00021167614669860517,0.00028646803516595864,-0.0009913999261533467,0.2689092457294464,-23.61355972290039,19.477951049804688,17.94654083251953,0.8833719491958618,2.3732802867889404,-0.09425200521945953,,,,,,,,,
1739401372.4816892,-0.7070245936561149,0.6736309683851722,1.4176575108586267,-1.8796514162656142,-0.7075907821021888,1.9499918647290622,0.1851537728549492,0.0011199084716084595,0.0007498405438931641,-0.00015904481067223724,-0.00028823631343734784,8.258301572577656e-05,0.0009551097076201917,0.00174455865248456,0.2173345386981964,-23.66513442993164,19.501754760742188,17.97431182861328,0.8833719491958618,2.3540542125701904,-0.14094389975070953,,,,,,,,,
1739401372.4926403,-0.7070266245767095,0.6736293610946651,1.4176579049420908,-1.8796532077787351,-0.7075913285137142,1.9499921514953542,0.18515254226605876,0.001262438193592388,-0.0015463686803971865,0.00021258499270423873,-0.00046708793221951055,-9.367994550882469e-05,1.710840936402071e-05,0.0006590056066620696,0.2173345386981964,-23.61355972290039,19.501754760742188,17.99811553955078,0.8897806406021118,2.3476455211639404,-0.13361968100070953,,,,,,,,,
1739401372.5036385,-0.7070270214279001,0.673628300887661,1.4176589687680605,-1.879650075284844,-0.7075908850346372,1.9499906361187043,0.1851543807961134,0.00025173727078492414,0.00043507351608028366,0.0012449398716953897,-0.00018045694050692848,-0.0011339144065588616,-0.00024524768204725974,0.002933459317023095,0.2411382496356964,-23.61355972290039,19.477951049804688,17.94654083251953,0.8833719491958618,2.3604629039764404,-0.13361968100070953,,,,,,,,,
1739401372.5136707,-0.7070291667273941,0.6736310687826385,1.4176589713803633,-1.879651425114128,-0.7075916410289298,1.949990636118704,0.18515174512463686,-0.00030754273256811555,0.0006911022252405675,0.0014888226387527528,-0.00030627808784887607,7.425981337692351e-05,-0.00042959080630749374,0.0006595214046131118,0.2411382496356964,-23.63736343383789,19.477951049804688,17.97431182861328,0.8897806406021118,2.3604629039764404,-0.12080229818820953,,,,,,,,,
1739401372.524649,-0.7070289287812163,0.6736284063907817,1.4176571772566804,-1.8796532076697687,-0.7075886917158255,1.9499913937787823,0.18514838731648792,1.389438807845823e-06,-1.241365410738904e-05,0.000455568177869007,-6.00692875522398e-05,0.0006120665552697668,-0.000270022315987186,9.335735474207975e-05,0.2411382496356964,-23.58578872680664,19.501754760742188,17.99811553955078,0.9035135507583618,2.3540542125701904,-0.09425200521945953,,,,,,,,,
1739401372.5355716,-0.7070302114286499,0.6736299249085489,1.4176580177423654,-1.8796513320970636,-0.7075883456418615,1.949990636118704,0.1851529050002822,0.00047662306579214535,-5.948258393294803e-06,0.0011536925968080195,-0.00037096529032257144,0.000964362139838222,-0.00021574297639442006,0.0006335111360718975,0.2689092457294464,-23.63736343383789,19.477951049804688,17.94654083251953,0.8897806406021118,2.3604629039764404,-0.13361968100070953,,,,,,,,,
1739401372.5456488,-0.7070291670746306,0.6736283987627463,1.4176611170224533,-1.8796505352356128,-0.7075907859251491,1.9499906366032207,0.1851473849046551,0.0009792691936661665,-0.0002994130263236681,0.0018140157352285497,0.000108992225998722,0.0008460193227793754,0.0002513385586881924,-0.0018096162609795292,0.2411382496356964,-23.58578872680664,19.477951049804688,17.97431182861328,0.8833719491958618,2.3604629039764404,-0.08692778646945953,,,,,,,,,
1739401372.556597,-0.7070311550021373,0.6736314145983178,1.417661117014377,-1.8796475625935292,-0.7075910734216423,1.949991393778785,0.18515013462796898,8.878361875925444e-05,0.0019064314646882168,0.0012852955191366502,0.0003551956356047494,-0.0003205218167209228,0.0001546288793798448,-0.001148011494136928,0.2689092457294464,-23.63736343383789,19.477951049804688,17.92273712158203,0.8769632577896118,2.3540542125701904,-0.07411040365695953,,,,,,,,,
1739401372.5666027,-0.7070304497757257,0.6736221714833314,1.4176617664623372,-1.8796490529302776,-0.7075915247609315,1.9499913545329255,0.1851490067465298,0.0003233938325733244,-0.0017090227995399093,0.0007606495834463504,-0.0002817852474294481,0.0001490371911260813,-0.000826852710485549,-0.00044810096710453355,0.2689092457294464,-23.53818130493164,19.450180053710938,17.94654083251953,0.8897806406021118,2.3540542125701904,-0.10066069662570953,,,,,,,,,
1739401372.5766468,-0.707031162185097,0.673626657235242,1.4176631969495888,-1.8796514162664966,-0.7075907670828345,1.949991354532261,0.18514825096437343,-0.00013002133282346244,-8.782977664775249e-05,-0.00045524461002291363,-0.0012248614765305486,-0.0006254333503735687,0.00022058504887690575,-0.0009793401199161538,0.2689092457294464,-23.56198501586914,19.450180053710938,17.97431182861328,0.8833719491958618,2.3540542125701904,-0.09425200521945953,,,,,,,,,
1739401372.5866702,-0.7070315595614601,0.6736208436787716,1.4176638671398136,-1.8796490273113056,-0.707592798897845,1.9499898784579608,0.18515338523131802,0.00033160936104856617,-0.001084848334799579,0.0002930499898558038,-0.0001507942756598159,-0.0002460798400596492,-8.526773875525845e-05,0.0011328807520258756,0.2689092457294464,-23.51041030883789,19.426376342773438,17.94654083251953,0.8961893320083618,2.3668715953826904,-0.13361968100070953,,,,,,,,,
1739401372.5976894,-0.707031262240034,0.6736266862314033,1.4176639224829135,-1.8796514211390463,-0.7075925734015779,1.949991393778782,0.1851486106669641,-0.0004166561008142486,0.0011498504588015428,-0.00041200956314536147,-0.0003462944491154071,-9.112497738838483e-05,-0.0003107039370238575,3.9792793926911275e-05,0.2689092457294464,-23.56198501586914,19.450180053710938,17.97431182861328,0.8897806406021118,2.3540542125701904,-0.09425200521945953,,,,,,,,,
1739401372.6086178,-0.7070345900373065,0.6736303675303856,1.4176613259074684,-1.8796500337496234,-0.7075926369301112,1.9499930173360929,0.18514412755622978,-0.001665451266313636,0.002188794915717102,0.00016652645867143846,-0.0007430340182411478,-0.00043402387808311557,0.0004829786703728574,-0.0033297061207902667,0.3165166676044464,-23.61355972290039,19.450180053710938,17.94654083251953,0.8897806406021118,2.3403213024139404,-0.06037749722599983,,,,,,,,,
1739401372.619562,-0.707028928345153,0.6736255723550675,1.4176639240775368,-1.8796531956818654,-0.7075908688376298,1.9499921514388605,0.185149009923932,0.00020167732431487025,-0.00042225083566578634,1.9101020663643586e-05,-0.0006831407220850768,-0.0006130293468680276,-0.0012674468820920424,-0.0006831779677567821,0.2411382496356964,-23.58578872680664,19.450180053710938,17.99811553955078,0.8833719491958618,2.3476455211639404,-0.10066069662570953,,,,,,,,,
1739401372.631634,-0.7070291670894334,0.6736282087339063,1.4176572155376084,-1.8796532077787167,-0.7075922824035653,1.9499906361187038,0.18515052367378743,-0.0004517065286552105,0.0015742939040540027,-0.0006383443247193834,-0.0008555333218284334,-0.000660287301162351,0.0001533167879115138,-0.0011656791926106579,0.2411382496356964,-23.61355972290039,19.501754760742188,17.99811553955078,0.8961893320083618,2.3604629039764404,-0.11347807943820953,,,,,,,,,
1739401372.6426413,-0.7070290193249872,0.6736293562458597,1.4176551089135836,-1.8796514241206195,-0.7075919837582254,1.9499898784586254,0.1851516631118399,-0.0007327463925956529,-0.0008447045019544017,-0.0006526125828247133,-0.0001374045686118708,-0.0012815855780533173,-0.0005248239396045202,-5.1964430986321114e-05,0.2689092457294464,-23.61355972290039,19.529525756835938,17.97431182861328,0.8833719491958618,2.3668715953826904,-0.08692778646945953,,,,,,,,,
1739401372.6536374,-0.7070326362872507,0.6736317712506066,1.41765308767258,-1.879651459114836,-0.7075926361070857,1.9499898784586254,0.18515032393018283,-0.0013959095155650482,0.00032938357126764326,-0.0007773368439212881,-0.0006648981485172603,-0.0004217425314948073,-0.0003240791205913931,-0.0011140168668889408,0.2927129566669464,-23.63736343383789,19.553329467773438,17.97431182861328,0.8961893320083618,2.3668715953826904,-0.12080229818820953,,,,,,,,,
1739401372.6646307,-0.7070310846852823,0.6736341158671588,1.4176571890290908,-1.879652165441838,-0.7075915421875122,1.9499906361187038,0.18515490875564158,-7.511969747061323e-05,0.00024098504796479754,0.001019091003748778,0.000158540599509243,-0.00022658445351967093,-0.00038957833515932994,0.001447681205447955,0.2689092457294464,-23.66513442993164,19.501754760742188,17.94654083251953,0.8897806406021118,2.3604629039764404,-0.11347807943820953,,,,,,,,,
1739401372.6756048,-0.7070311651401968,0.6736303967407383,1.417652372453183,-1.8796493453278302,-0.7075924132226115,1.9499906361187038,0.18515290572849652,-0.0002058183740037246,-0.0003490255661298331,-0.0002400833203200302,0.0007172047425828456,-0.00010468131196797687,0.00021080292557010635,0.00027267683374735774,0.2689092457294464,-23.61355972290039,19.553329467773438,17.94654083251953,0.8961893320083618,2.3604629039764404,-0.13361968100070953,,,,,,,,,
1739401372.6856318,-0.7070290192644227,0.673634037867829,1.417656234685871,-1.8796475626348914,-0.7075915639909847,1.9499921514388605,0.18514971782473968,-0.0002856637364816538,0.0005286084324226482,0.000594688775094304,0.000280791671992886,-0.0004960195570583083,-4.511854478042587e-05,0.0005733578346006957,0.2689092457294464,-23.66513442993164,19.501754760742188,17.92273712158203,0.8897806406021118,2.3476455211639404,-0.09425200521945953,,,,,,,,,
1739401372.6965635,-0.7070291393521972,0.673626668945127,1.4176543936160715,-1.8796486300561732,-0.707593342095177,1.949990649200656,0.1851466292572097,0.0015793054125858982,-0.0016210005735798573,-0.0004796391112551283,0.0004020161479594165,-0.00022985742628844473,6.311129216161825e-05,-0.0011600872158577967,0.2411382496356964,-23.56198501586914,19.529525756835938,17.94654083251953,0.8961893320083618,2.3604629039764404,-0.08051909506320953,,,,,,,,,
1739401372.706573,-0.7070328953215461,0.6736283987994449,1.4176551087924032,-1.879651425089653,-0.7075915378428107,1.9499913937790037,0.18514931706278923,-0.0006785129991584625,-0.0009299693849392361,-0.0015048093964461287,-0.00120225862853633,0.0013480001177061432,0.0005761515893396046,-0.0003678428663476458,0.2927129566669464,-23.58578872680664,19.529525756835938,17.97431182861328,0.8897806406021118,2.3540542125701904,-0.09425200521945953,,,,,,,,,
1739401372.716645,-0.7070311651409501,0.6736266949458006,1.4176568256131936,-1.8796490261122762,-0.707591069061107,1.949990636118704,0.18515138985992713,-0.0003245343216912404,-0.0013556227404297667,-1.382852647008521e-05,0.0003592795206401474,0.0009705331746437141,-0.0005270532355940618,0.00016569733019842312,0.2689092457294464,-23.56198501586914,19.477951049804688,17.94654083251953,0.8769632577896118,2.3604629039764404,-0.12080229818820953,,,,,,,,,
1739401372.7276273,-0.7070328782064635,0.6736281377042558,1.417658962537977,-1.8796475626330893,-0.7075954475953861,1.9499913894181313,0.18514943985902502,-0.0007589331272511964,-0.0019199711760193457,0.000511226948166947,0.0004533031765139976,5.990418056900155e-07,0.00019559337858938758,-0.0009906289971739748,0.2927129566669464,-23.56198501586914,19.477951049804688,17.92273712158203,0.8961893320083618,2.3540542125701904,-0.06678618490695953,,,,,,,,,
1739401372.7395928,-0.7070352618471764,0.6736288868193554,1.4176589713803578,-1.8796493453119103,-0.7075927021364795,1.9499921514388359,0.18515409463430108,-0.0016536847309124502,0.00038948977183822037,-0.0022450750692299378,0.00010079519515456621,-0.0007213704312327385,0.00036753660169854116,0.0015958939060840998,0.2927129566669464,-23.58578872680664,19.477951049804688,17.94654083251953,0.8897806406021118,2.3476455211639404,-0.13361968100070953,,,,,,,,,
1739401372.7496898,-0.7070290877767359,0.6736267744215131,1.4176646165243014,-1.8796494208601844,-0.7075916032412722,1.9499921509543439,0.18515565667972092,0.00039910301507893424,0.00010456935975837676,0.0002935511663747831,-0.00014627376704628506,0.00023080783414195692,0.00041543581919133285,0.0007849719539633091,0.2411382496356964,-23.56198501586914,19.402572631835938,17.94654083251953,0.8897806406021118,2.3476455211639404,-0.12080229818820953,,,,,,,,,
1739401372.7616074,-0.7070311651402026,0.6736284076871786,1.4176610552038653,-1.8796475273140467,-0.7075907807035815,1.9499921514388578,0.18515195913862612,0.0003464541451502547,0.001572082150695697,-0.0006383099726844899,-0.00013022458825030935,0.0009620966660846658,0.0003085880511002862,0.0004898713939293773,0.2689092457294464,-23.58578872680664,19.450180053710938,17.92273712158203,0.8833719491958618,2.3476455211639404,-0.11347807943820953,,,,,,,,,
1739401372.7716117,-0.7070253090208711,0.6736297080546895,1.4176611186011925,-1.8796486328540578,-0.707593200628109,1.949991393778782,0.18515563447945085,0.001053087410126032,0.0012156261884895634,-0.00027632445068692777,0.00022049470103695029,-0.0011248059531224974,0.0004954318415898416,0.000458709627777122,0.2173345386981964,-23.61355972290039,19.477951049804688,17.94654083251953,0.9035135507583618,2.3540542125701904,-0.14735259115695953,,,,,,,,,
1739401372.7827091,-0.7070302114178835,0.6736266949420108,1.4176610512187233,-1.8796514250977439,-0.7075943166528305,1.9499898784586254,0.18515291881952894,-0.000537219626843761,-0.0008453996844706433,0.00036350987376840055,0.0014009287078341041,-0.0006052784015690498,-0.0006224689534058156,0.0009092582199942907,0.2689092457294464,-23.56198501586914,19.450180053710938,17.97431182861328,0.8833719491958618,2.3668715953826904,-0.13361968100070953,,,,,,,,,
1739401372.7936141,-0.7070284519386769,0.6736304054075317,1.4176613703698977,-1.8796514241206193,-0.7075900096581341,1.949990631758053,0.1851546411168935,0.0004739597772325715,0.0003748805491877149,0.0010931919989012292,0.000187084406635559,0.0019475157368530709,-0.00032106208478545274,0.0016516434973714567,0.2411382496356964,-23.61355972290039,19.450180053710938,17.97431182861328,0.8769632577896118,2.3604629039764404,-0.12080229818820953,,,,,,,,,
1739401372.8036637,-0.7070310856556783,0.6736266956061014,1.4176551854483592,-1.8796513456288895,-0.7075918779556264,1.9499920991109778,0.1851521519449164,0.0003532903195020163,-0.0015710540998809131,-0.0008228068749547069,-0.0005568388193875453,-8.799488954627083e-05,-7.999438689997821e-05,4.6915835464033696e-05,0.2689092457294464,-23.56198501586914,19.529525756835938,17.97431182861328,0.8897806406021118,2.3476455211639404,-0.12721098959445953,,,,,,,,,
1739401372.8146446,-0.7070310857763589,0.6736304054075354,1.4176551089139653,-1.8796493070467515,-0.7075957637819407,1.9499891207982518,0.1851537889359342,-0.0005279318982160223,-0.0002864396873242699,0.0002948619396948533,0.0006791230796670733,-0.0011933019742328466,-0.0002241185567021489,-0.0007705325559165267,0.2689092457294464,-23.61355972290039,19.529525756835938,17.94654083251953,0.8897806406021118,2.3732802867889404,-0.14094389975070953,,,,,,,,,
1739401372.8256361,-0.7070326392414591,0.6736323566738908,1.4176515434504786,-1.8796532191158288,-0.7075931659761203,1.9499906361187038,0.18515176248905385,-0.0003601842198890148,0.00019206932739401254,-0.0011991124022445398,0.00035644738731881414,-0.00010823703737717076,-7.613630560858805e-05,0.00026447719826885256,0.2927129566669464,-23.63736343383789,19.577133178710938,17.99811553955078,0.9035135507583618,2.3604629039764404,-0.12080229818820953,,,,,,,,,
1739401372.8366172,-0.7070311621967631,0.6736307262309704,1.417655108913533,-1.879651731219469,-0.7075907691824401,1.9499898895486754,0.18515219127335447,-0.0004731363171956231,-0.0006320531193661047,0.0003736364695745666,-0.0018188418658213051,0.0008718269840462714,0.00026768080635717055,0.0007062228427112243,0.2689092457294464,-23.61355972290039,19.529525756835938,17.97431182861328,0.8833719491958618,2.3668715953826904,-0.12721098959445953,,,,,,,,,
1739401372.8466542,-0.7070307318941204,0.6736328720150548,1.4176504652135649,-1.879647563899819,-0.7075911083067774,1.949989120798735,0.18514953939919127,1.2624301330075997e-05,0.0002947178508081952,-0.000988340438326724,0.00022970575267452944,0.00045986805523463793,-0.0004002046579253285,0.0011505202425505213,0.2927129566669464,-23.61355972290039,19.553329467773438,17.92273712158203,0.8769632577896118,2.3732802867889404,-0.10066069662570953,,,,,,,,,
1739401372.8575695,-0.707029167187685,0.6736298512738926,1.417656464165118,-1.8796521124493455,-0.7075963293742223,1.9499930573730133,0.18514978367666055,0.00012947306067823898,-0.0017352780246354018,0.000519724312702244,-0.0007012749802351411,-0.002044009047163505,0.00048636431141459125,-0.000478771023124405,0.2411382496356964,-23.58578872680664,19.501754760742188,17.97431182861328,0.9035135507583618,2.3668715953826904,-0.10706938803195953,,,,,,,,,
1739401372.867641,-0.707032877661382,0.6736341237609076,1.4176567196371128,-1.8796507108024765,-0.7075915254428067,1.9499913938326174,0.18515529125516275,-0.0007411752396747096,0.0012607777358860763,0.000223253206808848,-0.00012932975424904852,-8.087733307635489e-05,3.676180604914148e-05,0.0011463671826046472,0.2927129566669464,-23.66513442993164,19.477951049804688,17.97431182861328,0.8897806406021118,2.3540542125701904,-0.15376128256320953,,,,,,,,,
1739401372.8785958,-0.7070328776613822,0.6736305113714782,1.4176576645212668,-1.8796475626227944,-0.7075907656292959,1.949990636118705,0.18515139114207516,-0.0005327207435401357,0.000769550269696138,-0.0003621017337808218,0.00033424742460587355,0.0016861190758923742,0.0001324957598364669,0.00017878758741149268,0.2927129566669464,-23.61355972290039,19.501754760742188,17.92273712158203,0.8833719491958618,2.3604629039764404,-0.12080229818820953,,,,,,,,,
1739401372.888653,-0.7070312446135106,0.6736288760350284,1.4176607774330994,-1.8796475273136202,-0.7075925865344415,1.9499898784586256,0.18514901014129567,-0.0009134135482081907,0.0008082668995137679,-0.0001268093901703483,0.0009690393179271958,-0.0002171124838972155,0.0002310023942997509,-0.0013481415052948036,0.2689092457294464,-23.56198501586914,19.450180053710938,17.92273712158203,0.8897806406021118,2.3668715953826904,-0.10066069662570953,,,,,,,,,
1739401372.900559,-0.7070289551636045,0.673630431947136,1.417661062942475,-1.8796494218411315,-0.7075953980999119,1.9499913937787823,0.18514829224322013,-0.000162267882162936,0.00032027610667986436,-0.0001697590321571305,0.0007032755139415132,-0.00020726587687789467,-0.0004709115315075508,-0.001787515960193878,0.2411382496356964,-23.61355972290039,19.450180053710938,17.94654083251953,0.8833719491958618,2.3540542125701904,-0.09425200521945953,,,,,,,,,
1739401372.910568,-0.7070313126387642,0.6736257589324163,1.4176650100300994,-1.8796528446890242,-0.7075915771506989,1.9499905183272987,0.18515145007226932,0.000420469085411327,-0.001852577896289823,0.001187573504188235,-0.0004094515643082181,0.0014059079129198875,-0.0006657803937248905,-0.0005270138437507197,0.2411382496356964,-23.56198501586914,19.426376342773438,18.02191925048828,0.8897806406021118,2.3604629039764404,-0.09425200521945953,,,,,,,,,
1739401372.920584,-0.707026937744425,0.6736266948230984,1.4176610820587212,-1.8796493452755716,-0.7075940695498807,1.9499921519213825,0.18514983940758903,0.0012978012932492156,-0.0011168589787763142,-0.0006355630523587617,0.0013672670743777571,-0.000858740350858044,0.0007578923664840265,-0.002931315674123523,0.2411382496356964,-23.56198501586914,19.450180053710938,17.94654083251953,0.8833719491958618,2.3476455211639404,-0.08051909506320953,,,,,,,,,
1739401372.9316344,-0.7070291658790174,0.6736321179282622,1.4176596866363194,-1.8796517312194474,-0.7075920088476222,1.9499913936172792,0.18515848943807403,-0.0004065655599791979,0.001576534202347176,-0.0005415964762753755,-0.0017954521833958654,-0.0017474254490190038,-0.000706957388964557,0.00273863215862184,0.2411382496356964,-23.63736343383789,19.477951049804688,17.97431182861328,0.8897806406021118,2.3540542125701904,-0.16749419271945953,,,,,,,,,
1739401372.9426174,-0.7070311651406435,0.673624457986627,1.4176610541177403,-1.879653491397846,-0.7075947043060558,1.9499906317580522,0.18515146346135372,-0.0005815521446607174,-0.0008188580129878952,0.0005354325143356552,-0.0009803844279587563,-0.001112024531219191,0.00031694042527656465,-0.0007598226764325977,0.2689092457294464,-23.56198501586914,19.450180053710938,17.97431182861328,0.8897806406021118,2.3604629039764404,-0.09425200521945953,,,,,,,,,
1739401372.95263,-0.707030016638433,0.6736304141242001,1.4176589360592864,-1.8796493454168892,-0.7075930705128793,1.9499913957166277,0.18515014990508333,-0.0003294840786211085,0.00014440048793758675,-0.0009254732450529741,0.00021979974849960446,-0.001550183131762859,0.0004329462629126331,-0.0005511605104354565,0.2927129566669464,-23.61355972290039,19.477951049804688,17.94654083251953,0.8897806406021118,2.3540542125701904,-0.07411040365695953,,,,,,,,,
1739401372.9626853,-0.7070345901296241,0.673632117928312,1.417658246313007,-1.8796491729346765,-0.7075915291661244,1.949991393778793,0.18515089675428634,-0.0013613329904003002,0.0007725436117354362,0.0009884944039739443,-0.00020292431234618749,0.0007638823438620196,0.0003304800182662817,-0.000894582589677623,0.3165166676044464,-23.63736343383789,19.477951049804688,17.97431182861328,0.8897806406021118,2.3540542125701904,-0.08051909506320953,,,,,,,,,
1739401372.9736464,-0.7070311739709678,0.6736342222689939,1.417659208369496,-1.879651411568122,-0.7075915253890098,1.9499898784586256,0.18515245601252706,-0.00016166238847165737,0.0013611777013078352,0.0020090223658201446,-0.0006657047183984675,0.0003056822431605735,0.0001221171608797268,6.238461559153122e-05,0.2689092457294464,-23.66513442993164,19.477951049804688,17.94654083251953,0.8897806406021118,2.3668715953826904,-0.12080229818820953,,,,,,,,,
1739401372.9839187,-0.7070311621972616,0.6736305545426864,1.4176533262378517,-1.8796514260582375,-0.707592400840422,1.949990636118704,0.18514293546503094,-0.00021055491417002468,-6.0596946000993036e-05,0.0008991419750813338,-0.0004200937141167968,-0.001530097400353919,0.0005316001233688137,-0.0028644457002445765,0.2689092457294464,-23.58578872680664,19.553329467773438,17.97431182861328,0.8961893320083618,2.3604629039764404,-0.04023589566349983,,,,,,,,,
1739401372.9956846,-0.707029167853879,0.6736349791086874,1.4176550824225798,-1.879646560818387,-0.7075958815181852,1.949990636118704,0.18514976629060304,0.00011240534582237865,0.000169278736310094,0.0002740588416669664,0.0012436472223646136,-0.0012762257063666002,-0.0006848436453942843,-0.0011180737497309507,0.2411382496356964,-23.63736343383789,19.529525756835938,17.94654083251953,0.8897806406021118,2.3604629039764404,-0.10706938803195953,,,,,,,,,
1739401373.0066922,-0.7070291673451542,0.6736249825396162,1.4176568693946885,-1.8796532077735453,-0.7075965209637063,1.9499906404793546,0.18515212584619653,0.001039519388562543,-0.00233574035023438,0.00018377281267481098,-0.0005287581039867483,0.00022570754132321522,0.0001240805300338601,-0.0004193219780957492,0.2411382496356964,-23.53818130493164,19.501754760742188,17.99811553955078,0.8961893320083618,2.3604629039764404,-0.08692778646945953,,,,,,,,,
1739401373.0176706,-0.7070328806048223,0.6736305113713452,1.4176570739074554,-1.8796506963505253,-0.7075933103680849,1.9499913937788067,0.1851486091568585,-0.0002840681786225656,0.0007438745257683376,-0.00045391608817630855,-0.0003287127546092156,1.9040246582614252e-05,0.0003617638637813107,0.0005681398145588309,0.2927129566669464,-23.61355972290039,19.501754760742188,17.94654083251953,0.9035135507583618,2.3540542125701904,-0.08692778646945953,,,,,,,,,
1739401373.028652,-0.7070311651406676,0.6736283294661367,1.4176586502178328,-1.8796512269178165,-0.7075950059054424,1.949990281237103,0.1851501785920068,-0.0004768579423273243,-0.0007707919174750227,-0.0005685792896161083,-0.00024111993363698015,-0.0017760051174141728,-0.000122232018861178,-0.0010313985254881153,0.2689092457294464,-23.58578872680664,19.477951049804688,17.97431182861328,0.8833719491958618,2.3604629039764404,-0.10706938803195953,,,,,,,,,
1739401373.0395896,-0.7070311641595045,0.6736313479620472,1.4176588771885388,-1.8796559509540294,-0.7075908080215102,1.9499917469894885,0.18515144721199076,-0.0003424615476048119,0.001939672977752588,-0.0016910993550941426,-0.0016020732268203198,0.0016849894129965749,0.0010816488921567985,0.00033450472684992856,0.2689092457294464,-23.58578872680664,19.477951049804688,17.99811553955078,0.8833719491958618,2.3540542125701904,-0.12080229818820953,,,,,,,,,
1739401373.049667,-0.7070309267220221,0.6736291159105973,1.4176628338424968,-1.879647562774259,-0.7075915770728013,1.9499898784765703,0.18515308825644958,-0.0007975403574529183,-0.0002472741975107053,0.00023658751888139447,0.0012916333625841688,-0.0004351815645931495,-0.00040082215207684743,-0.00029137016345910974,0.2689092457294464,-23.56198501586914,19.426376342773438,17.92273712158203,0.8897806406021118,2.3668715953826904,-0.10706938803195953,,,,,,,,,
1739401373.059681,-0.707029166762387,0.6736249942489784,1.4176610511702634,-1.879647550861135,-0.7075931468469685,1.9499913937787823,0.18514712087553503,-0.00026656681563137904,-0.0006583229553876828,-0.0004250791294912096,0.0009397091548914854,0.00017431312504507114,0.00035673245574770706,-0.00247103588331778,0.2411382496356964,-23.53818130493164,19.450180053710938,17.92273712158203,0.9035135507583618,2.3540542125701904,-0.08051909506320953,,,,,,,,,
1739401373.0706317,-0.7070290877269358,0.6736267744188739,1.4176589802107256,-1.8796462458703156,-0.7075929507295309,1.9499905968728473,0.18514827052315982,0.00019232956922658694,0.0005415077230666112,-0.0009786494276465706,0.0012997656861020062,-0.00023532226472043762,0.00013506125025865312,-0.0024170994144564633,0.2411382496356964,-23.56198501586914,19.477951049804688,17.94654083251953,0.8897806406021118,2.3604629039764404,-0.09425200521945953,,,,,,,,,
1739401373.0806465,-0.7070311651393051,0.6736284074680244,1.4176609677729675,-1.8796532077262955,-0.7075921859335291,1.949992151438196,0.1851554647583149,-0.00040276347614926194,-0.00039889380764805227,-0.0003826025494526272,-0.0009574152196355875,0.0007832009688437422,0.00039282928752979704,0.0010657602058678109,0.2689092457294464,-23.58578872680664,19.450180053710938,17.99811553955078,0.8833719491958618,2.3476455211639404,-0.12721098959445953,,,,,,,,,
1739401373.091571,-0.7070311563103332,0.6736304155460446,1.4176589802102546,-1.8796485640788163,-0.7075918462711486,1.9499906360648687,0.1851516077758513,6.496228957179298e-05,0.0010032300427832346,0.00019270686593981986,0.0003903223560742619,-0.0008863911186040045,-0.00021993751333355792,0.00016495324540257827,0.2689092457294464,-23.61355972290039,19.477951049804688,17.97431182861328,0.8833719491958618,2.3604629039764404,-0.11347807943820953,,,,,,,,,
1739401373.101573,-0.7070284431135934,0.673631120772457,1.41766104833599,-1.8796531989000156,-0.7075915249226943,1.9499921514388596,0.18515250877595274,0.0002102536268468139,0.0007822155257931403,0.00042062635103827484,-0.00114396327646488,0.002206207018963464,-9.92352305952415e-05,-2.531537313625197e-05,0.2411382496356964,-23.61355972290039,19.450180053710938,17.99811553955078,0.8897806406021118,2.3476455211639404,-0.12080229818820953,,,,,,,,,
1739401373.1115732,-0.7070328763409245,0.6736291328730436,1.4176589713803598,-1.8796513762848412,-0.7075944190470775,1.9499898784586254,0.18514986764996982,-0.0003773859721687067,0.0011190541693141462,-0.0005288490763122114,-0.0005065013257481286,-0.0015306040248932293,4.010962742762245e-05,-0.0011099726203386054,0.2927129566669464,-23.58578872680664,19.477951049804688,17.94654083251953,0.8833719491958618,2.3668715953826904,-0.08051909506320953,,,,,,,,,
1739401373.1235588,-0.7070291671997905,0.673631120667364,1.4176571882673235,-1.8796493448873102,-0.7075909240868763,1.9499913806968299,0.1851529181815182,2.8373696705065114e-05,0.00010768152618949446,-0.0004990853800452217,6.588434216234473e-05,0.0021101378139847535,-0.000149322082284779,-0.0011066225902175,0.2411382496356964,-23.61355972290039,19.501754760742188,17.94654083251953,0.8833719491958618,2.3540542125701904,-0.13361968100070953,,,,,,,,,
1739401373.1335974,-0.7070313240863704,0.6736326335950802,1.4176552207642221,-1.8796493462567156,-0.7075896110058154,1.9499906884464389,0.18515519836344932,-0.0010436232606944216,0.000375762782998317,0.00010721456438249795,-0.0006759314352031382,0.0014169768833730276,0.00044616303570188466,0.0009921343643312622,0.2689092457294464,-23.61355972290039,19.529525756835938,17.94654083251953,0.8705545663833618,2.3604629039764404,-0.11347807943820953,,,,,,,,,
1739401373.1436498,-0.707032877664074,0.673632833330751,1.4176548351755773,-1.8796471995447146,-0.7075921862384749,1.94999063611959,0.18515496507100973,-0.000984324367431981,-0.00033477490993444065,-0.00042754626920763774,-5.519179603795594e-06,-0.00034857450906731547,0.0005314906200052896,4.422504852377441e-05,0.2927129566669464,-23.63736343383789,19.529525756835938,17.94654083251953,0.8833719491958618,2.3604629039764404,-0.11347807943820953,,,,,,,,,
1739401373.1545925,-0.7070311386496978,0.6736306974116452,1.4176571494559866,-1.8796578219959093,-0.7075962348997432,1.9499914330246388,0.18514990238885098,9.905394817266494e-06,-0.00012175303498198546,0.0011597057229335752,-0.0031872746014276645,8.559753653104716e-05,0.000309174555789845,-0.00042441635991249184,0.2689092457294464,-23.61355972290039,19.501754760742188,18.02191925048828,0.8897806406021118,2.3540542125701904,-0.10706938803195953,,,,,,,,,
1739401373.1646109,-0.7070311651402024,0.6736333459082857,1.4176543007527564,-1.879651423841523,-0.7075961340305096,1.9499905968735118,0.18515640606576003,0.00013426190381633692,0.0010344682458156191,-0.0009741945387463259,0.00046018438149662117,0.0008038355698272925,3.458480558598054e-05,0.0011229889426934542,0.2689092457294464,-23.61355972290039,19.501754760742188,17.97431182861328,0.8897806406021118,2.3604629039764404,-0.12080229818820953,,,,,,,,,
1739401373.175652,-0.7070257156673824,0.673626778359992,1.4176588650732433,-1.8796484170383774,-0.7075940047036036,1.9499906303042813,0.18515216123569694,0.0023564319662133636,-0.0013943407449052482,0.00040110696841250473,0.000287439467165181,0.0019600754601520037,-3.229034387374166e-05,8.621872150250021e-05,0.1935308277606964,-23.56198501586914,19.477951049804688,17.94654083251953,0.8833719491958618,2.3604629039764404,-0.12721098959445953,,,,,,,,,
1739401373.1866205,-0.7070274546789173,0.6736284074671495,1.4176607289175736,-1.8796493453066703,-0.7075973529075072,1.949989878297087,0.18514781001443145,0.001240189071777167,-0.0008268619365480693,0.0009498566815937288,9.648952943560018e-05,-0.001359498344109613,-0.0003196286819952291,-0.001138888681828532,0.2173345386981964,-23.58578872680664,19.450180053710938,17.94654083251953,0.8897806406021118,2.3668715953826904,-0.05396880581974983,,,,,,,,,
1739401373.1975675,-0.707029167199798,0.6736295603295473,1.4176571886652307,-1.879649176205164,-0.7075916992556774,1.9499930573730124,0.18515570302935616,0.0006392748729622267,-0.0008936622705220655,-0.0003594925675424569,0.0012867680395816966,0.0009641702544158912,0.0007110456691286878,0.0006444765529388279,0.2411382496356964,-23.56198501586914,19.501754760742188,17.97431182861328,0.8897806406021118,2.3668715953826904,-0.12721098959445953,,,,,,,,,
1739401373.2076592,-0.7070309267220719,0.6736306438746363,1.4176589684369678,-1.879649345273825,-0.7075944194971577,1.949992151492696,0.1851512536190922,-0.00013389195270774724,-0.0003434559424364982,-0.0007051740547710234,0.001253592900299146,0.0015536252691781352,0.0005661830255055927,-0.00037014165222058076,0.2689092457294464,-23.61355972290039,19.477951049804688,17.94654083251953,0.8769632577896118,2.3476455211639404,-0.08051909506320953,,,,,,,,,
1739401373.217666,-0.707029167187685,0.673628407478794,1.4176610511701138,-1.8796514263615074,-0.7075944365522269,1.9499921514388634,0.18515577984746295,0.0015729715654067538,-0.0007619942018079177,0.0005623294864026681,-0.001184373058993806,-0.00046200233455117814,-9.548056534073828e-05,0.0021335664802661094,0.2411382496356964,-23.58578872680664,19.450180053710938,17.97431182861328,0.8833719491958618,2.3476455211639404,-0.15376128256320953,,,,,,,,,
1739401373.227716,-0.707032639242803,0.6736312280442935,1.4176610511702634,-1.8796447016119493,-0.7075965384726607,1.9499898784586256,0.18515029922817872,-0.0009247045267933762,0.001287043962997348,0.0004412801234283402,0.0006749835823693445,-0.000996135012765775,-0.0007748817803405372,-0.00015488472727303486,0.2927129566669464,-23.61355972290039,19.450180053710938,17.92273712158203,0.8961893320083618,2.3668715953826904,-0.10706938803195953,,,,,,,,,
1739401373.2377179,-0.7070328776573446,0.6736249824391476,1.4176589713804078,-1.8796467442013123,-0.7075915982252517,1.9499921514388607,0.18515085140619417,-0.0007920402835368414,-0.0017962345416385214,-0.00016714417923596964,0.0006102735066682245,0.0011198804296682977,0.0009605564381361259,1.0785008420919262e-05,0.2927129566669464,-23.53818130493164,19.477951049804688,17.92273712158203,0.8769632577896118,2.3476455211639404,-0.10706938803195953,,,,,,,,,
1739401373.2485793,-0.707027127396399,0.6736288495434772,1.4176589709443426,-1.8796477917732273,-0.7075964937050905,1.9499895252459156,0.18515516327851586,0.0007668924194040749,-0.0005335694489640025,-0.001412810587053312,-0.0001294963121662826,-0.0001751541082189781,-0.0006967172551704105,0.0001395239828313293,0.2411382496356964,-23.56198501586914,19.477951049804688,17.92273712158203,0.8897806406021118,2.3668715953826904,-0.11347807943820953,,,,,,,,,
1739401373.2585814,-0.7070291675153321,0.6736266983739533,1.4176582561246678,-1.8796492791904924,-0.7075931049954207,1.9499913935614475,0.18515268025228465,-8.237433095819361e-05,-0.000563314758339737,-0.000515921313840396,-0.0004396387557272048,0.0007709747145123855,0.00031293549568675783,0.001193843615315269,0.2411382496356964,-23.56198501586914,19.477951049804688,17.97431182861328,0.8897806406021118,2.3540542125701904,-0.12721098959445953,,,,,,,,,
1739401373.2685857,-0.7070270230678354,0.6736345021141118,1.4176571886912757,-1.8796514249564085,-0.7075923563245317,1.9499898784586218,0.18514710309750054,0.001009349514957833,0.0012081019082801293,-0.00021057295765172085,-0.00019971338217333957,-1.400766111158348e-05,-0.00015667564151980093,-0.0008031083593349369,0.2411382496356964,-23.63736343383789,19.501754760742188,17.97431182861328,0.8833719491958618,2.3668715953826904,-0.08051909506320953,,,,,,,,,
1739401373.2787054,-0.7070333107625356,0.6736304438216345,1.4176550416279812,-1.8796492008064993,-0.7075937130956967,1.949990518381134,0.18515577180457574,-0.0003231556659851386,-6.745330281879676e-05,-0.0012017803254914736,-0.0008616030831320032,0.0004268440868496961,-0.0001996155369679857,0.002945599538148806,0.2689092457294464,-23.61355972290039,19.501754760742188,17.97431182861328,0.8769632577896118,2.3604629039764404,-0.14735259115695953,,,,,,,,,
1739401373.2896495,-0.7070283038391038,0.6736312949807979,1.417656083818046,-1.8796475625859963,-0.7075959219686548,1.9499906361180392,0.18514876435628283,0.0016400594423394378,0.0008551782708628619,-0.0006965658443960961,0.0004107031815616456,0.0017572861923167067,0.0006537902730024833,-0.0031342990053490703,0.2689092457294464,-23.58578872680664,19.477951049804688,17.92273712158203,0.8897806406021118,2.3604629039764404,-0.09425200521945953,,,,,,,,,
1739401373.300687,-0.7070311651244988,0.6736284870648547,1.417657162196135,-1.8796514210681636,-0.7075931083838105,1.9499906361187038,0.18515374605648793,-0.00041709360954770083,-0.0008677918298970719,-0.0005059691707204665,0.0010037619540973716,0.0006851892840544233,1.858375736755667e-05,0.0008658011629875577,0.2689092457294464,-23.58578872680664,19.501754760742188,17.97431182861328,0.8897806406021118,2.3604629039764404,-0.12721098959445953,,,,,,,,,
1739401373.3116436,-0.7070291671997979,0.6736291493591735,1.4176589712712417,-1.879653492922323,-0.7075955221929806,1.9499906361187038,0.18515770115100338,0.00026403835031689243,-0.0009899783423776582,0.0012622005384205956,-0.0008935728334361426,0.00033064822181565456,0.00021596640000034114,0.0012812995152067055,0.2411382496356964,-23.58578872680664,19.477951049804688,17.97431182861328,0.8833719491958618,2.3604629039764404,-0.13361968100070953,,,,,,,,,
1739401373.3226814,-0.7070328776613822,0.6736332678602563,1.4176607331698063,-1.8796514251367846,-0.7075962931142701,1.9499913936172766,0.1851471472112619,-0.001155383388941858,-0.00025195688857874456,0.0008726429175429323,0.0003927057744523226,-0.0005481011796424992,0.0002810942873989041,-0.0014719935160685772,0.2927129566669464,-23.61355972290039,19.450180053710938,17.97431182861328,0.8897806406021118,2.3540542125701904,-0.08051909506320953,,,,,,,,,
1739401373.3335679,-0.707031084832,0.6736325516525337,1.4176551077743205,-1.879649344330764,-0.7075958209107521,1.9499906361187036,0.18515019536410818,0.00042266582192432186,0.0001633915075330741,-4.942395332858951e-05,0.0006293217779532219,-0.0006029968669438491,0.0004348641889803866,-0.0014087265701124487,0.2689092457294464,-23.61355972290039,19.529525756835938,17.94654083251953,0.8897806406021118,2.3604629039764404,-0.10066069662570953,,,,,,,,,
1739401373.3436053,-0.707029167198438,0.6736284429333127,1.4176548704949348,-1.8796475626348745,-0.7075947734256904,1.949991393778782,0.18515532124480974,0.00011967799409302892,-0.0010807963830710473,-0.0009973825461360884,0.00023895783788278131,-0.0002915707771687152,0.0002452526331083359,0.0012514030278255824,0.2411382496356964,-23.58578872680664,19.529525756835938,17.92273712158203,0.8769632577896118,2.3540542125701904,-0.11347807943820953,,,,,,,,,
1739401373.3536444,-0.7070327952450832,0.6736304057351812,1.41765897137637,-1.8796449312002035,-0.7075962916608703,1.9499903341406528,0.18515213042368978,-0.00027113083339315273,-0.0007886707218685805,0.0003964947211727712,0.0009581877669450989,-0.0004066487231211513,0.00040914272153177875,-0.0022852684058883893,0.2927129566669464,-23.61355972290039,19.477951049804688,17.92273712158203,0.8897806406021118,2.3540542125701904,-0.08692778646945953,,,,,,,,,
1739401373.3645976,-0.7070340261631349,0.6736281740945095,1.417658971053359,-1.8796514132768156,-0.7075954782814318,1.9499898784526437,0.18515612934756467,-0.00031519234560010203,0.0011084564799065909,0.000777522286267239,-0.00039248622893101325,0.0002787842972632954,0.00025799396403727284,-0.0009045395776514088,0.2689092457294464,-23.53818130493164,19.477951049804688,17.97431182861328,0.8833719491958618,2.3668715953826904,-0.12080229818820953,,,,,,,,,
1739401373.3766222,-0.7070311386658483,0.6736321445462493,1.417657184778801,-1.8796501093843552,-0.7075954176626884,1.9499913936172766,0.18514579227619662,0.0009561671887185277,0.0002434506390683683,-0.0010110090391887074,-0.000785427074291458,0.00023886444299128779,2.2894553736454355e-05,-0.0019446058470284108,0.2689092457294464,-23.63736343383789,19.501754760742188,17.97431182861328,0.8833719491958618,2.3540542125701904,-0.06037749722599983,,,,,,,,,
1739401373.3866353,-0.7070304498847643,0.6736267038854317,1.4176610245702717,-1.8796493351659702,-0.707592671762891,1.9499921514388596,0.18515452039854333,0.000444219777309607,-0.0012543125772366231,0.0006698205870271053,-0.0009156712234221498,-0.0004426579390545662,0.0003283473408605802,0.0015038601547373116,0.2689092457294464,-23.56198501586914,19.450180053710938,17.94654083251953,0.8769632577896118,2.3476455211639404,-0.10706938803195953,,,,,,,,,
1739401373.3986683,-0.7070274512955248,0.673625936099583,1.4176564734475012,-1.8796511768716653,-0.7075968937792578,1.9499906361187038,0.18514932106058904,0.0018129826747097723,-0.0011959228655913142,-0.0005106458626433991,-0.0019282458362507612,-0.00011959831664645336,0.00034171135980982437,-0.000864414314625373,0.2173345386981964,-23.53818130493164,19.501754760742188,17.97431182861328,0.8961893320083618,2.3604629039764404,-0.08692778646945953,,,,,,,,,
1739401373.4095542,-0.7070309267220655,0.6736350172177167,1.4176610511689174,-1.8796464721876882,-0.7075947757841953,1.9499871552262649,0.18514942262603953,0.00011048579230366363,0.0012652685748198722,0.0010042713846986461,-0.00012948049785655152,-0.0005331862616901402,-0.0012722868260005792,-0.0012959265293370071,0.2689092457294464,-23.63736343383789,19.450180053710938,17.94654083251953,0.8769632577896118,2.3540542125701904,-0.10066069662570953,,,,,,,,,
1739401373.419605,-0.7070291671957604,0.6736331237227771,1.4176589586255042,-1.8796493334894968,-0.7075923412717419,1.9499905183093538,0.18515140763010335,0.00025574202385356907,0.0017479801431037599,-0.00036123966007055666,0.00028519261630813097,0.0002222106206240139,0.0006711702056559177,-0.0004984693753035526,0.2411382496356964,-23.61355972290039,19.477951049804688,17.94654083251953,0.8961893320083618,2.3604629039764404,-0.08051909506320953,,,,,,,,,
1739401373.430664,-0.7070328775523659,0.673632118052624,1.4176551089134612,-1.8796514208500648,-0.7075955222920436,1.9499906361180388,0.18515528251878668,-0.00026248279596786933,0.00035545068354442006,-0.0011087588024242443,0.0005767100678374658,-0.0012806801531946427,0.0001573094625801873,-0.0013982662231068793,0.2927129566669464,-23.63736343383789,19.529525756835938,17.97431182861328,0.8833719491958618,2.3604629039764404,-0.11347807943820953,,,,,,,,,
1739401373.441635,-0.7070311651406503,0.6736341246994344,1.4176571887033886,-1.8796514251017418,-0.7075962930605851,1.9499906361187038,0.18515059452681526,-0.0012039673866522504,0.0009134199217042995,-0.0004564731527741767,-3.0401360534720347e-05,-0.0014210647784584842,0.00030005140623496913,-0.0010407742018832067,0.2689092457294464,-23.66513442993164,19.501754760742188,17.97431182861328,0.8897806406021118,2.3604629039764404,-0.10066069662570953,,,,,,,,,
1739401373.4516404,-0.707031165140651,0.6736321445283818,1.4176610511702634,-1.8796514251017657,-0.7075947777943371,1.9499906361187038,0.18515164922530766,-0.00044366142161634045,0.0004930172398864216,0.00061225053749571,-0.0010533218530703286,0.0009688647142310899,0.00015137342395265128,-0.0017017392597915562,0.2689092457294464,-23.63736343383789,19.450180053710938,17.97431182861328,0.8769632577896118,2.3604629039764404,-0.11347807943820953,,,,,,,,,
1739401373.4616554,-0.7070311652496672,0.6736328361278898,1.417653326236514,-1.879651107210327,-0.7075970640200496,1.9499895745425075,0.18515036330717827,5.362571593256135e-05,0.00013718050618978744,-0.0011148121783637153,-0.0004766013106844129,-0.000896299731145903,-0.0003733666175969333,-0.00042555774672202353,0.2689092457294464,-23.63736343383789,19.553329467773438,17.97431182861328,0.8961893320083618,2.3604629039764404,-0.08051909506320953,,,,,,,,,
1739401373.4725728,-0.7070311651043129,0.6736355182018987,1.4176571887033886,-1.8796521138647553,-0.7075973791898168,1.9499913937727895,0.1851548085109974,0.0002498474847723673,0.0010426227774230801,0.00027886721502881997,-0.0005404591958709634,-0.002059801475558447,0.00021415504542500065,-0.0011053534412057834,0.2689092457294464,-23.61355972290039,19.501754760742188,17.97431182861328,0.8897806406021118,2.3540542125701904,-0.11347807943820953,,,,,,,,,
1739401373.4825816,-0.7070328776613816,0.6736329421778379,1.4176589713804078,-1.87965142511343,-0.707592356558421,1.9499910405660723,0.18515456428725333,-0.0009075644891633718,-0.00017380637820875978,0.0003823094489789197,-0.0003828144197610655,-7.838711946167655e-05,0.00033055392524262663,0.0009874294583888123,0.2927129566669464,-23.63736343383789,19.477951049804688,17.97431182861328,0.8833719491958618,2.3540542125701904,-0.10706938803195953,,,,,,,,,
1739401373.493606,-0.7070291995776298,0.6736349792829137,1.4176582556522666,-1.879651425101766,-0.7075923536331522,1.94999063611671,0.1851545623457686,-0.00020300096537379485,0.0012941794995468586,0.0008429011039947859,-0.0008733925002068113,-2.7155539322054227e-05,0.00016726411164415535,-0.0001686193499767123,0.2411382496356964,-23.63736343383789,19.477951049804688,17.97431182861328,0.8833719491958618,2.3604629039764404,-0.10706938803195953,,,,,,,,,
1739401373.504599,-0.7070328413595132,0.6736350726443451,1.4176571886912677,-1.879653207778785,-0.7075962924145879,1.9499898784586254,0.1851518642414615,-0.0004635437881832298,0.002001114124878356,-0.00034762894925410707,-0.0011063457812314362,-0.0008536819703615576,-0.0001723432781668844,-0.0010288210949889645,0.2927129566669464,-23.66513442993164,19.501754760742188,17.99811553955078,0.8897806406021118,2.3668715953826904,-0.09425200521945953,,,,,,,,,
1739401373.514679,-0.7070317291589593,0.6736321192418591,1.417654089152844,-1.8796511876279944,-0.7075931672771253,1.949991393778782,0.18515618784657145,0.00011274906607242627,0.0011790358976047212,-0.0006721958273506181,-0.0005514925257426702,0.00016282784970217813,0.0006972567528976579,0.0009663445502481051,0.3165166676044464,-23.63736343383789,19.501754760742188,17.97431182861328,0.9035135507583618,2.3540542125701904,-0.12080229818820953,,,,,,,,,
1739401373.525626,-0.707032886366533,0.6736294445384478,1.417657100382714,-1.8796453370664303,-0.7075947777675274,1.9499906361187038,0.1851593265682117,-0.0009442930495948984,0.00046807538504550945,-0.0008881201191279224,0.0005750470263614825,0.00012991463898950792,0.0004145132602648005,0.0009520795103266692,0.2927129566669464,-23.58578872680664,19.501754760742188,17.92273712158203,0.8769632577896118,2.3604629039764404,-0.14735259115695953,,,,,,,,,
1739401373.535634,-0.7070274546792142,0.6736325603496731,1.4176562350275765,-1.8796465909352005,-0.7075955352929102,1.949988214864394,0.18514492394373572,0.0012092418886582806,0.0010959467886297403,-0.0018194172595810253,0.0015807571261904725,8.04207640720903e-05,0.00010270998542365439,-0.004215467352781782,0.2173345386981964,-23.61355972290039,19.501754760742188,17.92273712158203,0.8833719491958618,2.3540542125701904,-0.05396880581974983,,,,,,,,,
1739401373.5475554,-0.707031165140651,0.6736281430030365,1.4176582502324082,-1.8796493364397686,-0.7075937050742555,1.9499906359392534,0.18515217845498608,-0.00015298641287726257,-0.0009478685017685047,-0.0018193712093920642,-0.0005837866344279193,0.0012720655210058868,0.00024833107691323096,-0.002239675765613012,0.2689092457294464,-23.56198501586914,19.477951049804688,17.94654083251953,0.8769632577896118,2.3604629039764404,-0.08692778646945953,,,,,,,,,
1739401373.5576267,-0.7070311739709687,0.673630556310869,1.4176589713681949,-1.8796510807192235,-0.7075947385303147,1.9499913937787792,0.1851557027398711,-0.0004268892587953603,0.0007587864265577688,-0.0009410868943260423,-0.00108583202517193,0.0005554090849428189,0.0005610850304016304,-0.00010960958697743778,0.2689092457294464,-23.58578872680664,19.477951049804688,17.97431182861328,0.8769632577896118,2.3540542125701904,-0.12080229818820953,,,,,,,,,
1739401373.5696232,-0.7070311621972284,0.6736291238529607,1.417658971053359,-1.8796513456282582,-0.7075962931144207,1.9499888188204961,0.185151372546024,-0.0007176519210186503,-0.0003972263797646613,-0.00023304404810463192,0.000187302451438417,-0.0007657845857972863,-0.0006795877466608759,-0.0003771707765346491,0.2689092457294464,-23.58578872680664,19.477951049804688,17.97431182861328,0.8897806406021118,2.3668715953826904,-0.08051909506320953,,,,,,,,,
1739401373.5805948,-0.7070291936907457,0.6736293876332963,1.4176590508532667,-1.8796514116061132,-0.7075946997931979,1.94999063611671,0.1851600843907056,6.491593652648378e-05,0.00204165384301015,-0.0006429981236069283,0.000303238139190074,-0.000936210800132794,0.0003694015125072541,0.0017137578372887392,0.2411382496356964,-23.58578872680664,19.477951049804688,17.94654083251953,0.8769632577896118,2.3604629039764404,-0.15376128256320953,,,,,,,,,
1739401373.5916147,-0.7070274546792162,0.673630762877409,1.417657176966419,-1.8796486035768842,-0.7075955354001408,1.9499906361187038,0.1851482267978885,0.00047382631364996895,0.00034684750539125625,-0.0006005789691881269,0.00018129654364269733,-0.0006378419066778043,0.0001414097340149438,-0.0010582406908198623,0.2173345386981964,-23.61355972290039,19.501754760742188,17.94654083251953,0.8833719491958618,2.3604629039764404,-0.08051909506320953,,,,,,,,,
1739401373.602613,-0.7070307318941703,0.6736307497919416,1.4176589713803414,-1.8796492393439104,-0.7075923550326425,1.9499906230367516,0.18515390025681375,-0.0011053252780622055,5.0768843797969836e-05,0.0010031232048745534,7.12639911635776e-05,0.00013473149076466049,0.0002599346549626267,-0.000946057949350321,0.2927129566669464,-23.61355972290039,19.477951049804688,17.94654083251953,0.8833719491958618,2.3604629039764404,-0.11347807943820953,,,,,,,,,
1739401373.613549,-0.7070328776492693,0.6736311247351537,1.4176589715257626,-1.8796506274291314,-0.7075955354364627,1.949989874097901,0.18515269354747713,-0.0010205949451643453,0.00045750549657421754,0.0008090486208373554,0.00039968061699544933,-0.000809214309558131,-0.000930519876806969,-0.00010939481476547326,0.2927129566669464,-23.61355972290039,19.477951049804688,17.97431182861328,0.8833719491958618,2.3668715953826904,-0.09425200521945953,,,,,,,,,
1739401373.6235979,-0.7070311654676996,0.6736329509337519,1.417656950284812,-1.8796478873148275,-0.7075955310937653,1.9499909893313399,0.18515594469709296,0.0005033290850152698,0.0011302176483937512,0.000551312419855024,0.00032726657373340496,0.0006722704897724822,0.0005220166817321124,3.4904869848700545e-06,0.2689092457294464,-23.63736343383789,19.501754760742188,17.94654083251953,0.8833719491958618,2.3604629039764404,-0.12721098959445953,,,,,,,,,
1739401373.634621,-0.7070328894351411,0.673635232636771,1.4176502267936397,-1.8796493452673413,-0.7075955354543917,1.9499906346671476,0.18515218307290987,-0.0003214334857391437,0.0007992822091463,-0.000730204834379884,-0.0006404263187092156,-0.0026992012102054724,-0.000327811111690322,-0.00021631280475550702,0.2927129566669464,-23.63736343383789,19.553329467773438,17.94654083251953,0.8833719491958618,2.3604629039764404,-0.08692778646945953,,,,,,,,,
1739401373.6446729,-0.7070328776615816,0.6736315983165877,1.4176548583416588,-1.8796493453119096,-0.7075945452626373,1.9499906186760763,0.18515694551333756,-0.00010410662347836325,0.0008858458839977584,0.00040279222411483554,-0.0006683934664161498,-0.0007118234451442204,-0.0015133527244867323,-0.000480712037167767,0.2927129566669464,-23.58578872680664,19.529525756835938,17.94654083251953,0.8769632577896118,2.3604629039764404,-0.12721098959445953,,,,,,,,,
1739401373.6555958,-0.707031138758714,0.673629476280187,1.4176551048785166,-1.8796492658390507,-0.7075955223711514,1.9499891206369433,0.1851514254724846,0.0005183601451284043,-0.000934085233216131,-0.001286893315040761,0.0005366819325739572,0.00018754698523740836,-0.0003998058614783686,-0.0007667862188317158,0.2689092457294464,-23.58578872680664,19.529525756835938,17.94654083251953,0.8833719491958618,2.3732802867889404,-0.08051909506320953,,,,,,,,,
1739401373.6656506,-0.7070291671993513,0.6736298208965293,1.4176551088044484,-1.879652250178537,-0.7075961228873887,1.949993004254138,0.1851577031734169,-0.00033662056029058307,-0.0001206555404009292,-0.0009978150328191623,-0.00022216469859731927,0.00032717003542985626,0.0002852421240755414,0.0012073109626058911,0.2411382496356964,-23.56198501586914,19.529525756835938,17.99811553955078,0.8897806406021118,2.3403213024139404,-0.13361968100070953,,,,,,,,,
1739401373.6775818,-0.7070291673088143,0.6736291270280352,1.4176607054796755,-1.8796478687471674,-0.7075962950758266,1.949990623036678,0.18515694551333767,0.0010911524787811711,-0.0006513602650589294,-0.0008429960692343299,0.000913856615606842,-0.00022246395256296224,-0.0006409582559768584,0.0020958226735312653,0.2411382496356964,-23.58578872680664,19.450180053710938,17.92273712158203,0.8897806406021118,2.3604629039764404,-0.12721098959445953,,,,,,,,,
1739401373.687585,-0.7070295125633371,0.6736311240468352,1.417657188701437,-1.8796492393498254,-0.7075962924684834,1.94999063611863,0.18515531751395045,-3.2301762524823e-05,-6.141385887929794e-05,-0.00016483830655992192,0.00028111082837156947,-0.0004690089097808782,9.40095035793597e-05,0.0007649403723016504,0.2411382496356964,-23.61355972290039,19.501754760742188,17.94654083251953,0.8897806406021118,2.3604629039764404,-0.11347807943820953,,,,,,,,,
1739401373.6995447,-0.7070274193597453,0.6736304878278874,1.4176617311047297,-1.8796490409153768,-0.7075935999341183,1.9499882192250448,0.18515389793467862,0.0015504150786341115,-0.00014956444025369307,0.0005401279599132515,0.00020134986586396112,0.0005257626526133435,0.00043690931524490904,0.00033259106175914264,0.2173345386981964,-23.61355972290039,19.450180053710938,17.97431182861328,0.8769632577896118,2.3540542125701904,-0.08051909506320953,,,,,,,,,
1739401373.7095528,-0.7070284872647336,0.6736307246085615,1.4176610158605072,-1.879651424952373,-0.7075935466173324,1.9499898782433585,0.18515897102677512,0.0006602617681301709,0.0012920465240125168,0.0007079026063006136,-0.001185130473613002,0.0022739493309268635,-5.438011357301246e-05,0.0005209564945247405,0.2411382496356964,-23.61355972290039,19.450180053710938,17.97431182861328,0.8769632577896118,2.3668715953826904,-0.14735259115695953,,,,,,,,,
1739401373.7197082,-0.7070274546752285,0.6736349532796827,1.4176627547012721,-1.8796514132189917,-0.707589022624688,1.9499913952323311,0.18515218258900656,0.0009244746640606135,0.0006079392014528768,-9.050163955697248e-05,-0.0007414701347345993,0.00284073573755431,0.0008619756157733991,0.0010040545049327025,0.2173345386981964,-23.63736343383789,19.426376342773438,17.97431182861328,0.8641458749771118,2.3540542125701904,-0.08692778646945953,,,,,,,,,
1739401373.7306573,-0.7070295955405466,0.6736314475100474,1.4176580441965976,-1.8796453458980216,-0.7075955354304823,1.9499899809279513,0.18515304897578913,-6.573613905276333e-05,0.000591878396618895,5.7661170101463055e-05,0.001439481564131616,-0.00020801657199403877,-0.0014910523502098174,3.506570257989013e-06,0.2173345386981964,-23.61355972290039,19.477951049804688,17.92273712158203,0.8833719491958618,2.3540542125701904,-0.09425200521945953,,,,,,,,,
1739401373.7416253,-0.7070288493204444,0.6736277370746789,1.4176610511286907,-1.8796514233692179,-0.707592958504228,1.9499916412347487,0.18515596853782634,0.00041772236204998736,0.0005340549039965182,0.0006356550874040076,-0.00027102132521935376,0.0012352526203143238,-0.00036552253930223884,-0.00024339698405666683,0.2411382496356964,-23.56198501586914,19.450180053710938,17.97431182861328,0.8705545663833618,2.3476455211639404,-0.10066069662570953,,,,,,,,,
1739401373.7536654,-0.7070311739691743,0.6736304058494795,1.4176551488999893,-1.879649574900162,-0.7075953778189745,1.9499919813706017,0.18515694552554166,0.00028699494067986945,0.00014978183038117363,-0.0005795615818253908,-0.0003263263034233197,5.4439420436435326e-05,0.0001834009964527285,-0.00041950506882640554,0.2689092457294464,-23.61355972290039,19.501754760742188,17.94654083251953,0.8833719491958618,2.3476455211639404,-0.12721098959445953,,,,,,,,,
1739401373.764574,-0.7070314035592467,0.6736304319599475,1.417656187255625,-1.8796493453123424,-0.707595496208263,1.9499921514385405,0.18514791803508895,-0.00022660979457585985,-0.0008208915145497353,0.0006291897526725453,0.0007437616876072172,0.0011353770877088809,0.0005029286910365406,-0.0005755567241906247,0.2689092457294464,-23.61355972290039,19.553329467773438,17.94654083251953,0.8833719491958618,2.3476455211639404,-0.08692778646945953,,,,,,,,,
1739401373.7755768,-0.7070291712347457,0.6736304055530367,1.417655029456824,-1.8796514116062626,-0.7075954177166248,1.9499891207985471,0.18515294955543682,0.0001010453962556828,-0.001652246766391083,0.00042963866997495137,-0.0008114083527989933,-0.000940234807847352,-0.0004972092479138945,0.001202048858205133,0.2411382496356964,-23.61355972290039,19.529525756835938,17.94654083251953,0.8833719491958618,2.3732802867889404,-0.12080229818820953,0,0,0,0.000,0,0
1739401373.7856038,-0.7070301208741827,0.6736284113912667,1.4176540892605147,-1.879645416793656,-0.7075955354524224,1.9499906361187038,0.18515304843340605,0.00035314494062834795,-0.002822704064917726,-0.0004777523323086367,0.001137204160441095,-0.0007925243712207155,-0.00026316848915055647,-0.00025161830887033903,0.2411382496356964,-23.58578872680664,19.501754760742188,17.92273712158203,0.8833719491958618,2.3604629039764404,-0.09425200521945953,0,0,0,0.000,0,0
1739401373.7966554,-0.7070282135416321,0.6736325640387297,1.4176589581369499,-1.8796466089242347,-0.7075962871387881,1.949989980927943,0.18515456429593938,0.00130783750737783,-0.0002482017490769822,0.0009730379718562185,0.0009165863957573142,-0.0013953930711202286,-0.0008553739895948493,-9.250105440964434e-05,0.2411382496356964,-23.61355972290039,19.477951049804688,17.92273712158203,0.8897806406021118,2.3540542125701904,-0.10706938803195953,0,0,0,0.000,0,0
1739401373.8066607,-0.7070291671836477,0.6736284166606018,1.4176589409646445,-1.8796454170574477,-0.707595509453935,1.949990738079578,0.1851553219560269,-0.0002522810543141538,-0.0008727191337597747,0.0019657071228925756,0.0005593440202548121,-0.000570939175806159,-0.0006054575572941136,0.0008472115285473338,0.2411382496356964,-23.58578872680664,19.477951049804688,17.92273712158203,0.8833719491958618,2.3476455211639404,-0.11347807943820953,0,0,0,0.000,0,0
1739401373.8166625,-0.7070298824191964,0.6736260198240785,1.4176551089133613,-1.8796475626227793,-0.7075947777941912,1.9499898392047903,0.18515531756812212,0.0008622424676956446,-0.0011364307244175675,-0.001024772741071596,0.0010035425843173944,-0.00046812036924028953,-0.00027721639343506604,-0.0002451929569335673,0.2411382496356964,-23.53818130493164,19.529525756835938,17.92273712158203,0.8769632577896118,2.3668715953826904,-0.11347807943820953,0,0,0,0.000,0,0
1739401373.8276417,-0.7070327717016067,0.6736286473083254,1.4176551089135332,-1.8796493453119103,-0.7075950208976292,1.949989878458404,0.18515723763901862,-0.00012890401788480691,-0.0012449420372526573,-0.0009531847172448756,0.000737831359183785,0.0013376155905043946,1.3949324266102533e-05,0.000793595019392401,0.2927129566669464,-23.58578872680664,19.529525756835938,17.94654083251953,0.8833719491958618,2.3668715953826904,-0.12080229818820953,0,0,0,0.000,0,0
1739401373.8385515,-0.7070311651388566,0.6736277663618954,1.4176589713804078,-1.8796471995446984,-0.7075946208021974,1.9499903341406528,0.1851512674716864,2.1613632978053406e-06,0.0002674847141366166,0.000975154278890846,8.050013877827196e-05,0.0009235822822727748,-0.00016175617816390836,-0.0010122662319960213,0.2689092457294464,-23.56198501586914,19.477951049804688,17.94654083251953,0.8769632577896118,2.3540542125701904,-0.08051909506320953,0,0,0,0.000,0,0
1739401373.848555,-0.707031165140651,0.6736269344970761,1.4176612895888425,-1.8796493452997975,-0.7075943534506959,1.9499910917947496,0.1851514259036204,-0.0006669487316374346,-0.0006564041724848741,0.001124391880291408,0.0005900733569810435,-0.0002623946139606628,-0.00033880110402145314,-0.001511089714093122,0.2689092457294464,-23.56198501586914,19.450180053710938,17.94654083251953,0.8833719491958618,2.3476455211639404,-0.08051909506320953,0,0,0,0.000,0,0
1739401373.858574,-0.7070291325326247,0.6736304881549362,1.417656745817325,-1.8796474821808848,-0.7075923565200108,1.9499894074904005,0.1851580574899237,0.0007561779459126735,-0.0005013446422195423,-0.0012334128565429662,0.0005318844619653842,0.00024228938138170313,-0.0009716077624607465,0.0017470500225128236,0.2411382496356964,-23.61355972290039,19.477951049804688,17.92273712158203,0.8833719491958618,2.3668715953826904,-0.13361968100070953,0,0,0,0.000,0,0
1739401373.869659,-0.7070289287806318,0.6736286841513692,1.4176589712337013,-1.8796514251004033,-0.7075944756009458,1.949987155218289,0.18514903981962805,0.0011131528618186955,0.00018584188445347865,-0.0011373924576433053,-0.0006589730889942002,2.555775975180189e-05,-0.0004101134364893424,-0.002361635553611195,0.2411382496356964,-23.58578872680664,19.477951049804688,17.97431182861328,0.8833719491958618,2.3540542125701904,-0.06037749722599983,0,0,0,0.000,0,0
1739401373.87969,-0.7070283041163559,0.6736333573576672,1.4176589713804069,-1.879649356540586,-0.7075912796168374,1.9499917981483887,0.18515770317339125,0.001014541582055135,0.00039768870538702884,-0.0007002414717951321,-0.0007630626103292058,0.0016928924905377676,3.905845889503619e-05,0.0023743694171632097,0.2689092457294464,-23.61355972290039,19.477951049804688,17.94654083251953,0.8833719491958618,2.3476455211639404,-0.13361968100070953,0,0,0,0.000,0,0
1739401373.8906066,-0.7070291671513463,0.6736306708031206,1.4176569502848095,-1.8796491068935215,-0.7075947762687147,1.9499898392067858,0.18515142541848115,0.00046589549144536967,0.0005455069309151165,-0.0001449118252863884,-0.00019399582193578265,-2.6186068528408462e-05,-0.000652637392919273,-0.00034525722289262305,0.2411382496356964,-23.61355972290039,19.501754760742188,17.94654083251953,0.8769632577896118,2.3668715953826904,-0.08051909506320953,0,0,0,0.000,0,0
1739401373.9016128,-0.7070291643653749,0.6736328793626627,1.4176550428267118,-1.8796532089290636,-0.7075955375802306,1.9499913937787083,0.18515614836211605,0.0008994416069146981,0.0008147183521624136,-0.0007893772837354544,-0.000720283545562109,-0.0010602591150419012,0.00015620632961991826,0.001962490708560761,0.2411382496356964,-23.61355972290039,19.501754760742188,17.99811553955078,0.8833719491958618,2.3540542125701904,-0.12080229818820953,0,0,0,0.000,0,0
1739401373.9125621,-0.7070272162604717,0.6736286581090453,1.4176568260371474,-1.8796486300561794,-0.7075947647123978,1.9499906223907293,0.1851561878530364,0.0019392045798081207,0.0009270339782535477,1.582086959322983e-05,0.00014953995015148063,0.0004173799100064453,-0.001142753354179497,0.0018045508864267042,0.2173345386981964,-23.58578872680664,19.477951049804688,17.94654083251953,0.8769632577896118,2.3604629039764404,-0.12080229818820953,0,0,0,0.000,0,0
1739401373.922569,-0.7070328776573446,0.6736268038574442,1.4176533232567432,-1.8796485245001617,-0.7075955223722425,1.9499910405658398,0.18515694551333764,-0.0008982825809225013,-0.0024825033162574816,-0.0023208892015642996,0.0006609218693464854,-0.0005838979829454632,0.0008061897848432066,-0.0008777172972324916,0.2927129566669464,-23.56198501586914,19.553329467773438,17.94654083251953,0.8833719491958618,2.3540542125701904,-0.12721098959445953,0,0,0,0.000,0,0
1739401373.9326503,-0.7070311651406508,0.6736335944659659,1.417658256124519,-1.8796493452702088,-0.7075947605873539,1.9499921494828485,0.18514984824300904,9.82444862586358e-05,0.0011600209692854513,-0.0006030856760437313,0.00012276144683991396,-0.0008269160052957506,-0.0005627486624492893,-0.0001745867689329709,0.2689092457294464,-23.61355972290039,19.477951049804688,17.94654083251953,0.8897806406021118,2.3476455211639404,-0.09425200521945953,0,0,0,0.000,0,0
1739401373.9436336,-0.7070311654676998,0.6736324391083034,1.4176562712641247,-1.879651151022754,-0.7075955354335874,1.9499913937787785,0.18515758517999437,6.282789135031192e-05,-0.00036794957405776694,-0.0002165400372606171,0.0005219144870871685,-0.0006259219636300493,0.00035010165129733357,0.0012410202577164398,0.2689092457294464,-23.63736343383789,19.477951049804688,17.97431182861328,0.8833719491958618,2.3540542125701904,-0.13361968100070953,0,0,0,0.000,0,0
1739401373.954676,-0.7070311680840958,0.6736324397497265,1.4176589708986158,-1.879651411601621,-0.7075961739233741,1.9499906361187038,0.18515054928297486,-6.102859353701362e-06,-6.092825881468314e-05,0.0011017749391923678,-0.00017847273932950874,-0.00016063055719158853,0.00030724302025252905,-0.0021622495398761314,0.2689092457294464,-23.63736343383789,19.477951049804688,17.94654083251953,0.8897806406021118,2.3604629039764404,-0.07411040365695953,0,0,0,0.000,0,0
1739401373.965617,-0.7070311650316402,0.6736341513363475,1.417657109230528,-1.8796514251173182,-0.707594817369038,1.949989980927943,0.18515456413321066,0.000492715702982775,0.001756194679560111,0.0005451435172514546,-0.0011765444806392947,-0.0013104719825980083,-0.00035336969919351816,0.0005153709326194997,0.2689092457294464,-23.66513442993164,19.501754760742188,17.97431182861328,0.8769632577896118,2.3540542125701904,-0.10706938803195953,0,0,0,0.000,0,0
1739401373.9765613,-0.7070345901821128,0.6736274497747904,1.4176547895680955,-1.8796514221219878,-0.707596291176651,1.9499863844762588,0.18515774254191503,-0.0018503383751042385,-0.0014435427688160713,-0.0016906923458186653,3.3046547343130246e-07,1.658194915323273e-05,-0.001360531006106005,0.0016986792321145177,0.3165166676044464,-23.56198501586914,19.529525756835938,17.97431182861328,0.8897806406021118,2.3604629039764404,-0.13361968100070953,0,0,0,0.000,0,0
1739401373.986596,-0.707027445848749,0.6736314782494126,1.417656841263133,-1.8796468195799552,-0.7075955354543835,1.949990636046702,0.18515666027592534,0.0016344177381931021,0.0014962152788204589,1.1879227664435602e-05,0.0008854762964108313,3.7512685670631183e-05,0.0008205968280715694,2.361115488645364e-05,0.2173345386981964,-23.61355972290039,19.501754760742188,17.92273712158203,0.8833719491958618,2.3604629039764404,-0.12080229818820953,0,0,0,0.000,0,0
1739401373.997655,-0.7070296004461292,0.6736287296279205,1.4176589713745238,-1.8796514162588644,-0.707594475816287,1.9499898610160213,0.18514699509008142,4.309080017854611e-05,-0.0003761487852842743,0.0003016915322956794,-0.00029376797306378803,0.0006632357252430244,4.0728688644620244e-05,-0.0016488299302373647,0.2173345386981964,-23.58578872680664,19.477951049804688,17.97431182861328,0.8833719491958618,2.3668715953826904,-0.07411040365695953,0,0,0,0.000,0,0
1739401374.0076625,-0.7070311680962031,0.6736335082667217,1.4176628342833473,-1.8796493453118603,-0.7075955339410491,1.949991040565974,0.18515908185110763,0.00029141222789678484,0.0007698383929529653,0.0013631187513975132,-3.9348575631536676e-06,-0.0006751338928147851,0.0003134827354568001,0.0005640745048798158,0.2689092457294464,-23.61355972290039,19.426376342773438,17.94654083251953,0.8833719491958618,2.3540542125701904,-0.12721098959445953,0,0,0,0.000,0,0
1739401374.0186653,-0.7070311298193966,0.6736299096715259,1.4176589713804102,-1.879649279007505,-0.707597912311146,1.94999063611671,0.1851600844028648,-0.0004992739953710817,-0.00014885467615049477,0.00018393095971555373,-0.0001438865113402484,-0.0009453648317989613,0.0008230737067729925,0.0021537279975422895,0.2689092457294464,-23.56198501586914,19.477951049804688,17.97431182861328,0.9035135507583618,2.3604629039764404,-0.15376128256320953,0,0,0,0.000,0,0
1739401374.0286736,-0.7070311651400528,0.6736327900838295,1.4176589054030515,-1.8796513896351343,-0.707594777794264,1.9499921514388605,0.18515142103057655,-5.826932783733167e-05,-7.750312285611865e-06,0.0005077425515161509,-0.0008940044630974735,0.0004702648459917234,0.001280288856930154,-0.0025107275725428533,0.2689092457294464,-23.61355972290039,19.450180053710938,17.97431182861328,0.8769632577896118,2.3476455211639404,-0.08051909506320953,0,0,0,0.000,0,0
1739401374.0396357,-0.7070298834366817,0.6736296365723037,1.4176631967921203,-1.8796482160778036,-0.7075915988799499,1.9499898784586254,0.18515606937975526,-2.906393130674089e-05,0.00015614381159781041,0.0022489578419185793,-0.00010230190836009521,0.0009501025980274925,-8.051290777310899e-05,-0.00048333681563684323,0.2411382496356964,-23.56198501586914,19.450180053710938,17.92273712158203,0.8769632577896118,2.3668715953826904,-0.12080229818820953,0,0,0,0.000,0,0
1739401374.0515442,-0.707030731895518,0.6736351490339401,1.4176571887558775,-1.8796492570786023,-0.7075931274216565,1.949991393778782,0.185156984827443,-0.000264531013949581,0.0007482445146712044,0.0002818577693426442,0.00023380121811897878,-0.0004054140285810423,0.0003531564827515312,-0.0003590853944511729,0.2927129566669464,-23.66513442993164,19.501754760742188,17.94654083251953,0.8897806406021118,2.3540542125701904,-0.12721098959445953,0,0,0,0.000,0,0
1739401374.0625453,-0.7070269961286989,0.6736342666447462,1.417659253950576,-1.879651416125595,-0.7075970507567025,1.949988214864394,0.1851545599082657,0.0013367349486688935,0.001929162996335971,0.0005133935636597674,-0.001234977550979672,-0.001388169879893068,0.00018943248877346746,-0.00038675462278968495,0.2411382496356964,-23.63736343383789,19.477951049804688,17.97431182861328,0.8961893320083618,2.3540542125701904,-0.10706938803195953,0,0,0,0.000,0,0
1739401374.0725818,-0.7070333108956072,0.6736313774090096,1.417655034107454,-1.8796453109038158,-0.7075944758162869,1.949987860987717,0.18515298930100962,-0.0005336194813473316,-0.00046246097507240383,-0.0010773331272604645,0.0009892527976924754,-0.00015322445415768556,0.00010633629927987628,0.0005057798534078217,0.2689092457294464,-23.58578872680664,19.501754760742188,17.92273712158203,0.8833719491958618,2.3540542125701904,-0.06678618490695953,0,0,0,0.000,0,0
1739401374.083584,-0.7070326037882899,0.6736284439312165,1.4176589684248058,-1.8796471638836676,-0.7075951805156904,1.9499901651484814,0.18515223168601203,-0.0004515293787952792,-0.0010380951414976991,0.001681483045632615,0.00017663633069311675,0.00044514962085631725,-0.0005523549048481582,-0.001141710355902434,0.2927129566669464,-23.58578872680664,19.477951049804688,17.94654083251953,0.8833719491958618,2.3604629039764404,-0.08692778646945953,0,0,0,0.000,0,0
1739401374.0935986,-0.70702916719516,0.6736333812252291,1.4176589360590868,-1.879651424955807,-0.7075970449543612,1.9499898784506495,0.18515770803454779,-0.0002655247973447381,0.00066399460543529,0.00038133318749775547,-0.0007467756712140624,-0.0011255983054679793,-0.0006048418569014654,0.0012075436465046013,0.2411382496356964,-23.61355972290039,19.477951049804688,17.97431182861328,0.8961893320083618,2.3668715953826904,-0.13361968100070953,0,0,0,0.000,0,0
1739401374.1036694,-0.7070311648136021,0.6736337463704903,1.4176571893568881,-1.87964934204142,-0.7075947777942394,1.9499906346651534,0.18515456429603092,-0.00042081625557517893,0.0014437021907939363,0.00034494797925402733,0.0002765873001240498,-0.00043134987914868607,0.000551971590207449,-0.0001514718923107615,0.2689092457294464,-23.61355972290039,19.501754760742188,17.94654083251953,0.8769632577896118,2.3604629039764404,-0.10706938803195953,0,0,0,0.000,0,0
1739401374.1146593,-0.7070291671997961,0.6736304058987954,1.417654831249101,-1.8796511749094111,-0.7075955354544163,1.9499887787835675,0.18515218307855952,0.000517994691897022,0.0004971785143133373,-0.00047059178632461487,-0.0006144795817347242,0.001329230193647046,0.00016199861325126417,-0.0008692690392126993,0.2411382496356964,-23.61355972290039,19.529525756835938,17.97431182861328,0.8833719491958618,2.3403213024139404,-0.08692778646945953,0,0,0,0.000,0,0
1739401374.126613,-0.7070285584687849,0.6736362617453469,1.4176589713788401,-1.8796502636635435,-0.707597050774573,1.9499906302805763,0.18515142541848117,0.0014465908075434247,0.0005581382533630514,0.0012205436279638271,-0.00026864490657269545,-0.0006175965716792562,0.00023687376808544997,-0.002402812519321673,0.2173345386981964,-23.66513442993164,19.477951049804688,17.94654083251953,0.8961893320083618,2.3604629039764404,-0.08051909506320953,0,0,0,0.000,0,0
1739401374.1376004,-0.7070284519582506,0.6736305241787375,1.4176571882673235,-1.8796468473445431,-0.7075953660431351,1.949990636118693,0.1851544063313756,7.254702176725286e-05,-8.344474950973337e-05,0.0005488932995373657,0.0009537204458881256,0.0007193065755602766,0.00046590607986002905,0.0007787327127567954,0.2411382496356964,-23.61355972290039,19.501754760742188,17.92273712158203,0.8833719491958618,2.3604629039764404,-0.10706938803195953,0,0,0,0.000,0,0
1739401374.1476629,-0.7070291671876853,0.6736346183274073,1.4176589709443352,-1.8796439962875933,-0.7075955339979971,1.9499904747746266,0.18515380663319508,0.0006998486709195453,0.0012927028121122077,0.0007744429842294013,0.0019901517670954964,0.00023358103181065381,0.00040794135490332335,-0.0009463382492844335,0.2411382496356964,-23.63736343383789,19.477951049804688,17.87512969970703,0.8833719491958618,2.3604629039764404,-0.10066069662570953,0,0,0,0.000,0,0
1739401374.1586206,-0.7070311677570413,0.6736328260552099,1.4176565868675655,-1.8796504714274438,-0.7075947775789889,1.9499905837899842,0.18514822641919154,-0.0007203863310494583,0.0006639353108316245,-0.0007935012162272044,0.0009265779364581621,-0.00017695072502718216,0.0009870961733254998,-0.0013149295990161022,0.2689092457294464,-23.61355972290039,19.477951049804688,17.97431182861328,0.8769632577896118,2.3604629039764404,-0.08051909506320953,0,0,0,0.000,0,0
1739401374.1695466,-0.7070291671998423,0.6736307044804487,1.4176603318405423,-1.8796458220946788,-0.7075947777943343,1.949988214863508,0.18515380495654496,0.0015837209389708553,0.0006672588577355503,0.00040422348337972123,0.0006502613032631176,-0.00023378605868727085,-0.00047374933172937507,-0.00019916621872499002,0.2411382496356964,-23.58578872680664,19.450180053710938,17.89893341064453,0.8769632577896118,2.3540542125701904,-0.10066069662570953,0,0,0,0.000,0,0
1739401374.179616,-0.707029167199798,0.6736335844802415,1.4176609726744895,-1.879649345203132,-0.7075961361310681,1.9499871551544845,0.18515694567533847,-3.622889973908837e-05,0.0006270960076302005,0.0007249051533938372,-0.0006385858316395271,0.00018705771669906633,6.2617576784248835e-06,0.0005383216834079325,0.2411382496356964,-23.61355972290039,19.450180053710938,17.94654083251953,0.8897806406021118,2.3540542125701904,-0.12721098959445953,0,0,0,0.000,0,0
1739401374.1896398,-0.7070291553170247,0.6736299013862729,1.4176522743802078,-1.8796514246656988,-0.7075962756692332,1.9499906360469224,0.18514980186117316,0.0009607989054348735,0.0003424511275569977,-0.0014587540506650722,0.0001910101548644407,2.68727047811597e-05,-0.0008183832017346534,-0.00021990102031206344,0.2411382496356964,-23.56198501586914,19.529525756835938,17.97431182861328,0.8897806406021118,2.3604629039764404,-0.06678618490695953,0,0,0,0.000,0,0
1739401374.2006183,-0.707031165140584,0.6736306503854862,1.4176610511542624,-1.8796514076816744,-0.7075955354543177,1.9499906361187036,0.18515694551333767,8.520971399676516e-05,0.000760137441614597,0.001344492581349374,-0.0007061199569869835,0.0007927146051417071,0.0005019923860158153,0.0004454539859216144,0.2689092457294464,-23.58578872680664,19.450180053710938,17.94654083251953,0.8833719491958618,2.3604629039764404,-0.12721098959445953,0,0,0,0.000,0,0
1739401374.211567,-0.7070313129670099,0.6736308480810499,1.4176568243050005,-1.8796475626465334,-0.7075955354544163,1.9499898740979746,0.18515770127723952,-0.00022744735229780565,-0.0008131005173055345,0.00011551555705402106,0.0013530549519056622,-0.00025088682606791814,-8.635998339372012e-05,0.0011507144435165882,0.2411382496356964,-23.58578872680664,19.477951049804688,17.92273712158203,0.8833719491958618,2.3668715953826904,-0.13361968100070953,0,0,0,0.000,0,0
1739401374.221626,-0.707029882491874,0.6736291346465212,1.417659281713363,-1.8796475626348914,-0.7075940333797363,1.949989839212695,0.18515770333539416,-0.0001816535699764418,-0.000897534110830594,0.0006256296472332057,0.0009090302535198938,0.0008649434524482498,2.3413982833255605e-05,0.00022505355152292373,0.2411382496356964,-23.58578872680664,19.477951049804688,17.92273712158203,0.8705545663833618,2.3668715953826904,-0.13361968100070953,0,0,0,0.000,0,0
1739401374.232616,-0.7070313129710478,0.6736287518895143,1.417658970401013,-1.879651427936189,-0.7075979964452306,1.9499895633984008,0.18515620097609353,0.00033933278748805385,-0.001938537886447443,3.21788660499517e-05,-0.0009447175613246097,0.0007985393225433733,0.00022192767264754722,0.0009403170476943482,0.2411382496356964,-23.58578872680664,19.477951049804688,17.97431182861328,0.8769632577896118,2.3604629039764404,-0.12080229818820953,0,0,0,0.000,0,0
1739401374.2436147,-0.7070291760664545,0.6736311294994195,1.4176610507341816,-1.879651425101814,-0.7075937182107167,1.9499898784404588,0.18514897113246437,0.0002657995382814413,-0.00014293493057807185,0.0017381539068436855,-0.00027126386289839027,0.0007057383993275402,-0.0008237312485452047,-0.002348608047840037,0.2411382496356964,-23.61355972290039,19.450180053710938,17.97431182861328,0.8769632577896118,2.3668715953826904,-0.08692778646945953,0,0,0,0.000,0,0
1739401374.2536569,-0.7070313129670599,0.6736276850721238,1.4176543141849336,-1.8796493453119105,-0.7075920033213371,1.9499906361187038,0.18515456573590963,0.0005000934972170252,-0.0012766532759971928,-0.001690565179681931,0.0001820658171361749,0.00048284504210842555,7.121767930251567e-05,-0.00023039776749764042,0.2411382496356964,-23.56198501586914,19.529525756835938,17.94654083251953,0.8833719491958618,2.3604629039764404,-0.10706938803195953,0,0,0,0.000,0,0
1739401374.2645547,-0.7070335930624746,0.6736315903224201,1.4176571886899296,-1.879653207778785,-0.7075955337795434,1.94998488224603,0.18515765489286048,-0.001391589332841687,8.692058922614757e-06,0.0005317757008899778,-0.0009645073821163779,0.0004114132474630936,-0.001142842772164294,0.0012815847082738548,0.2927129566669464,-23.58578872680664,19.501754760742188,17.99811553955078,0.8833719491958618,2.3732802867889404,-0.13361968100070953,0,0,0,0.000,0,0
1739401374.2746217,-0.7070291672038365,0.6736336240581475,1.4176570973477556,-1.8796493448758453,-0.7075964123237747,1.9499898783808634,0.18515456429567603,0.0004885548880715613,0.000315399497943076,0.00024140212375274204,0.000450658816867255,-0.0006713795868894302,0.0003527938152312122,0.0006449491051868694,0.2411382496356964,-23.61355972290039,19.501754760742188,17.94654083251953,0.8897806406021118,2.3668715953826904,-0.10706938803195953,0,0,0,0.000,0,0
1739401374.2855427,-0.707029167199798,0.6736307354542844,1.4176551085849372,-1.8796475508611268,-0.7075920545639961,1.9499913936172752,0.18515456429594856,-8.824269341988194e-05,-0.0006233308061384312,-0.0005566732687704194,0.0010621478417935086,0.000772123532545646,0.0006955333962064395,-0.0002539041075563265,0.2411382496356964,-23.61355972290039,19.529525756835938,17.92273712158203,0.8897806406021118,2.3540542125701904,-0.10706938803195953,0,0,0,0.000,0,0
1739401374.296722,-0.7070257509523145,0.6736331907955625,1.4176571887033866,-1.8796514211771138,-0.7075956378998072,1.9499913932942645,0.18515304946182273,0.00118000575160757,0.0014279099042664588,-0.0010498450520031784,-0.00044999180166094646,-0.0005719812466167302,0.0009269076425091521,-0.0014612329178705957,0.1935308277606964,-23.63736343383789,19.501754760742188,17.97431182861328,0.8961893320083618,2.3540542125701904,-0.09425200521945953,0,0,0,0.000,0,0
1739401374.3076487,-0.7070291407088943,0.6736312816866526,1.4176589713804078,-1.8796475641610968,-0.7075947777863623,1.949989874097972,0.18515066775840555,0.0005219939310912975,-0.000189232712344653,0.00044360461028415687,-3.6967332464854746e-05,0.00039050116551526243,-4.840048885661373e-05,-0.002536415825460888,0.2411382496356964,-23.58578872680664,19.477951049804688,17.92273712158203,0.8769632577896118,2.3668715953826904,-0.07411040365695953,0,0,0,0.000,0,0
