IITGN-Robotics/Franka_IITGN_ROBOTICS/franka_ros/franka_iitgn/data/b_24.csv
time,fr3_joint1_pos,fr3_joint2_pos,fr3_joint3_pos,fr3_joint4_pos,fr3_joint5_pos,fr3_joint6_pos,fr3_joint7_pos,fr3_joint1_vel,fr3_joint2_vel,fr3_joint3_vel,fr3_joint4_vel,fr3_joint5_vel,fr3_joint6_vel,fr3_joint7_vel,fr3_joint1_eff,fr3_joint2_eff,fr3_joint3_eff,fr3_joint4_eff,fr3_joint5_eff,fr3_joint6_eff,fr3_joint7_eff,flexpin1,flexpin2,flexpin3,Force,ContactMic,ContactMic_gt
1739401398.439189,-0.7069544539507121,0.6732890078526845,1.4176173663585956,-1.8796422350658764,-0.7073651167619845,1.950162493509895,0.1849907290733819,-0.00040401068388288956,0.00023335091216663254,0.00020291363532743737,-0.0008281716842999594,-0.0004081475170010178,-0.00019787210047663814,-0.0004932364941994051,0.2689092457294464,-23.66513442993164,19.477951049804688,18.02191925048828,1.0408426523208618,2.3668715953826904,-0.11347807943820953,,,,,,,,,
1739401398.4502704,-0.7069559280649771,0.6732815837256653,1.4176156670776288,-1.8796433135167683,-0.7073649452260751,1.9501593546324276,0.1849924158613951,0.00012743600242945603,-0.0015705926413103664,6.004561234415268e-05,-0.0016885123988740105,0.000323991861716626,-0.0008561549782058957,0.0002983336847854201,0.2927129566669464,-23.56198501586914,19.501754760742188,17.99811553955078,1.0408426523208618,2.3934218883514404,-0.15376128256320953,,,,,,,,,
1739401398.4602919,-0.7069524468989254,0.6732832171005675,1.4176135049096297,-1.8796386737575368,-0.7073681109478535,1.950160112292506,0.18499316326783563,0.0006780579145300161,-0.0009529125347190417,-0.0009511814403540317,-0.0001731232437327695,-1.5146106383887113e-05,-0.0005867221468134164,0.0013486642139730475,0.2411382496356964,-23.58578872680664,19.529525756835938,17.97431182861328,1.0408426523208618,2.3870131969451904,-0.16108550131320953,,,,,,,,,
1739401398.4713044,-0.7069524560218176,0.6732840153967513,1.4176137580482226,-1.8796366690516948,-0.707358758550104,1.950160174240386,0.18498744124198532,-7.85701013274843e-06,-0.000607337038325047,-0.0018242891052525543,0.000745236057543922,0.0011681473761991012,-0.0012312299710900909,0.00022754107362800468,0.2411382496356964,-23.51041030883789,19.426376342773438,17.94654083251953,0.9492899179458618,2.3476455211639404,-0.10066069662570953,,,,,,,,,
1739401398.4832602,-0.7069546801703424,0.6733122841358374,1.4176049588813053,-1.879639450977365,-0.7073649807333507,1.9501503618721256,0.18499913873660273,-0.0010623639399693651,0.002395767593044015,0.0007943974075325527,-0.0003624590322897946,0.00027234271500021053,-0.0014924295307348378,0.00224808375315033,0.1935308277606964,-23.56198501586914,19.323226928710938,17.94654083251953,0.8897806406021118,2.3476455211639404,-0.13361968100070953,,,,,,,,,
1739401398.4932818,-0.7069534930553489,0.6733216865090207,1.4175849508778817,-1.8796434314885215,-0.7073687375664753,1.9501408122062762,0.18500460407458963,-0.0010185688598624298,0.00047981651962533776,-0.00282021385848979,-0.0003383325901443478,-0.00027549754355693176,-0.000638460684676196,0.0008863150219943256,0.1697271168231964,-23.45883560180664,19.402572631835938,17.99811553955078,0.8833719491958618,2.3476455211639404,-0.12721098959445953,,,,,,,,,
1739401398.5051973,-0.7069555009041172,0.6733384770528025,1.4175720327515529,-1.8796451770279983,-0.7073748792959837,1.9501345239115553,0.18500544414082337,0.00011290022174245771,0.0025206087563294055,-0.0008325843802847102,0.0004383624089706336,-0.0012851453747498693,-0.0010310363002395077,0.000839377586324731,0.1935308277606964,-23.51041030883789,19.402572631835938,18.02191925048828,0.8833719491958618,2.3604629039764404,-0.06678618490695953,,,,,,,,,
1739401398.5153148,-0.7069586272753722,0.6733497861730627,1.4175603642668886,-1.8796500679735302,-0.7073706602348513,1.9501290138689462,0.18501224162477814,-0.0002435295377469769,0.0016812186939237476,-0.0008464184407793352,-0.0011793718168167304,-0.0001654228119299811,0.0001391343032235776,0.0005922622794228913,0.1935308277606964,-23.53818130493164,19.426376342773438,18.04572296142578,0.8833719491958618,2.3668715953826904,-0.12080229818820953,,,,,,,,,
1739401398.5273077,-0.7069610447482414,0.6733593269053043,1.4175488347777279,-1.8796418748684267,-0.7073732405669095,1.9501268611550544,0.1850171431019711,0.0007747922661292402,0.0009296649295610476,-0.0016411191587864433,0.0012971437315497205,-0.0005180181558303793,-0.00019247982021656455,0.0013142256917593677,0.2173345386981964,-23.56198501586914,19.426376342773438,17.94654083251953,0.8769632577896118,2.3540542125701904,-0.13361968100070953,,,,,,,,,
1739401398.5373142,-0.7069640763229513,0.6733673090522544,1.4175392555173074,-1.8796365268670343,-0.7073735425352903,1.9501242292849583,0.1850107889021921,-0.0012636959781267,0.00023947389084778435,-0.0020970867258259516,0.0007917426287338543,-0.0005751023031076876,-0.0019533027910663397,-0.001646596141765118,0.2689092457294464,-23.61355972290039,19.501754760742188,17.87512969970703,0.8705545663833618,2.3668715953826904,-0.06678618490695953,,,,,,,,,
1739401398.5476725,-0.7069706343805834,0.6733742184178862,1.4175324919067502,-1.8796359817393418,-0.7073718857269747,1.9501279181657076,0.18501062671975602,-0.0007692923351723623,-0.0008113466651753191,-8.175874388319183e-05,-0.00019742796431387145,0.0009746064913994679,0.00031268995382062643,-0.0017290334824396265,0.3165166676044464,-23.63736343383789,19.477951049804688,17.92273712158203,0.8641458749771118,2.3476455211639404,-0.06678618490695953,,,,,,,,,
1739401398.5582294,-0.7069748514662075,0.6733886058922638,1.4175202533703382,-1.8796362343497723,-0.7073750593298843,1.9501249850120392,0.1850163090205025,-0.0011063253349176136,0.0025929947187412657,-0.0010495364579844414,0.0008508286981272668,0.0006729591601722317,-0.0003094142858324669,0.0005533771468318527,0.3442876636981964,-23.68893814086914,19.553329467773438,17.89893341064453,0.8833719491958618,2.3604629039764404,-0.11347807943820953,,,,,,,,,
1739401398.568235,-0.7069777465917956,0.6733929003125239,1.4175067716313936,-1.8796439886659797,-0.7073754162098748,1.9501227134613428,0.1850155515791849,-0.0007669520538348729,0.0012608985511996442,-0.001158186203263268,-3.2531647193333787e-06,-0.0006699071585964746,-0.0005651027690399121,0.0006940182937369276,0.3680913746356964,-23.68893814086914,19.604904174804688,17.97431182861328,0.8833719491958618,2.3796889781951904,-0.10706938803195953,,,,,,,,,
1739401398.5792654,-0.7069797716907787,0.6733953619122256,1.417501701915881,-1.8796421177603617,-0.7073757775503567,1.9501215978615536,0.18501596196910364,-0.001462258600162521,-2.2082733188969372e-05,-0.0004311779623753226,0.0005927227467278376,0.000527511701673919,1.9765540022981937e-05,-0.0010947773895893119,0.3680913746356964,-23.68893814086914,19.577133178710938,17.97431182861328,0.8833719491958618,2.3796889781951904,-0.08051909506320953,,,,,,,,,
1739401398.589273,-0.7069790146908548,0.6733976638572403,1.4174979229961415,-1.8796418897246188,-0.707379069243056,1.9501234496510398,0.1850210906689251,-0.0008366245494744706,0.0004943161560045251,-0.0004969856811777801,-1.7314370724586707e-06,-0.00018014781055537092,0.000336759298793071,0.0024146580015721366,0.3442876636981964,-23.66513442993164,19.577133178710938,17.97431182861328,0.8769632577896118,2.3732802867889404,-0.11347807943820953,,,,,,,,,
1739401398.5992892,-0.7069769907543952,0.673395978627985,1.4175009185648886,-1.8796398351283623,-0.7073758736653973,1.9501248598370124,0.1850216037146878,0.00020225733530638938,0.0007114441800235973,0.0006261947758945037,0.0005671843345999112,-0.0007307151676434953,0.0014462106532681708,0.0017108242554075893,0.3165166676044464,-23.63736343383789,19.501754760742188,17.94654083251953,0.8897806406021118,2.3604629039764404,-0.12080229818820953,,,,,,,,,
1739401398.610335,-0.7069755931812234,0.6733979252153585,1.4175024495874895,-1.8796380263120913,-0.7073793670694359,1.950125701437837,0.18501879986852005,-0.0006262120311061818,0.0005445432359512918,0.00025707215900895374,0.00047497820523702896,-0.0005547640834871061,0.0021004460680395876,0.0003208321754805107,0.2927129566669464,-23.66513442993164,19.477951049804688,17.92273712158203,0.8833719491958618,2.3540542125701904,-0.09425200521945953,,,,,,,,,
1739401398.6212788,-0.7069716487180301,0.6733926868598036,1.417504845907875,-1.8796398086737256,-0.7073751108634071,1.9501264819933737,0.1850171911681189,0.0004924923812509336,-0.0014808051977137312,-0.00039539360881316954,0.0009273059760301611,0.0005305888824372676,0.0013485806784769658,0.0006781790144156658,0.2411382496356964,-23.58578872680664,19.450180053710938,17.94654083251953,0.8833719491958618,2.3476455211639404,-0.08051909506320953,,,,,,,,,
1739401398.6322541,-0.7069734038603706,0.6733926998154175,1.4175048737572622,-1.8796425771233862,-0.7073772375539248,1.9501242074303582,0.18501774318939657,0.00031504172965794166,-0.00034149726490073233,0.0005948925194572724,0.0003320092657066214,-0.00045821771379877434,-0.00021455316168791607,0.0015765559124949363,0.2689092457294464,-23.56198501586914,19.450180053710938,17.97431182861328,0.8641458749771118,2.3668715953826904,-0.09425200521945953,,,,,,,,,
1739401398.6432471,-0.7069709205359975,0.6733910266979778,1.41751047938726,-1.8796436743288392,-0.7073746578663178,1.9501263759487732,0.18501795195435797,0.0002401506280683849,-0.0001433654815277844,8.534293714703114e-05,-0.0002504275176229204,0.0009832113413518156,-0.0001838403190244611,0.0007163351577991976,0.2411382496356964,-23.56198501586914,19.402572631835938,17.99811553955078,0.8769632577896118,2.3476455211639404,-0.08692778646945953,,,,,,,,,
1739401398.6532817,-0.7069716487052579,0.673389578834499,1.4175133136808113,-1.8796421188917265,-0.7073780566929868,1.9501220323863193,0.18502230467116815,-0.001042211804790926,-0.00038274182276890176,0.0009803481054459248,0.00030082681026351397,-0.001707297489281208,-0.00042995150089857536,0.0013506712378357042,0.2411382496356964,-23.53818130493164,19.374801635742188,17.97431182861328,0.8961893320083618,2.3540542125701904,-0.12721098959445953,,,,,,,,,
1739401398.6633186,-0.706973645980119,0.673391454415428,1.417513587433439,-1.8796365521707168,-0.707376945839265,1.9501257424156915,0.18501672187139168,0.00015665370246461548,0.0002796701068291872,0.0001785296479278924,0.00012859290292591044,0.0008639258275761025,-0.0004426610742728188,-0.0010001437444388292,0.2689092457294464,-23.53818130493164,19.374801635742188,17.89893341064453,0.8897806406021118,2.3540542125701904,-0.08051909506320953,,,,,,,,,
1739401398.674279,-0.7069735657138595,0.6733916638438563,1.4175078245544181,-1.879640857482028,-0.7073763504281723,1.9501209028103021,0.18501735207605655,-6.284665294849229e-05,0.0004241547736990219,-0.0017506174077742875,-0.0016570923672758835,-0.0016179023185905774,-0.0009301518899158187,-0.0006252013800833551,0.2689092457294464,-23.53818130493164,19.450180053710938,17.92273712158203,0.8897806406021118,2.3540542125701904,-0.12080229818820953,,,,,,,,,
1739401398.6842937,-0.7069736466570719,0.6733930774146045,1.4175095307022159,-1.879639809561507,-0.7073808668628484,1.9501204101231495,0.18501759886201055,-0.00013949140658833022,0.00012417961232608202,-0.000889423231247967,0.00037108180350271574,0.00046642987754376305,-0.0002826177486982076,-0.001047785079588349,0.2689092457294464,-23.56198501586914,19.426376342773438,17.94654083251953,0.8961893320083618,2.3604629039764404,-0.08692778646945953,,,,,,,,,
1739401398.6952865,-0.7069736466584428,0.6733933898100948,1.4175056721182546,-1.879641888564527,-0.7073776382611835,1.9501234596954022,0.18501881931375624,1.0686070165888137e-05,0.0005902455534703636,0.0002495162547118408,-3.315905430979283e-05,-0.0003159026606280657,-0.00024069893035455107,-0.0005905886709968639,0.2689092457294464,-23.56198501586914,19.477951049804688,17.97431182861328,0.8769632577896118,2.3604629039764404,-0.09425200521945953,,,,,,,,,
1739401398.7062695,-0.7069736726588227,0.6733988240645716,1.4175074301324841,-1.8796439843483774,-0.707381356955268,1.9501215921751107,0.18501957692183263,-0.0007452722043054277,0.0018678894420114933,9.622525335807402e-05,-0.0011236140603000555,-0.0010161267478139815,0.00011816931675957083,0.00034761615421703956,0.2689092457294464,-23.63736343383789,19.450180053710938,17.99811553955078,0.8961893320083618,2.3604629039764404,-0.10066069662570953,,,,,,,,,
1739401398.717208,-0.7069716477184207,0.6733975936165351,1.4175031702994945,-1.8796398174936984,-0.7073755804153713,1.9501242568744943,0.18502033317782152,0.00011639396737261122,-4.239585585388253e-05,0.001112770050819458,-4.8079143966376714e-05,0.00014125546838575362,0.0006442347402554627,-0.0006114457056974813,0.2411382496356964,-23.61355972290039,19.501754760742188,17.94654083251953,0.8833719491958618,2.3540542125701904,-0.10706938803195953,,,,,,,,,
1739401398.7272637,-0.7069790696407413,0.6734009682350349,1.4175037795811005,-1.8796419778472846,-0.7073766664717905,1.9501238570805526,0.18502347351335713,-0.001658615179905014,0.0010863889826252435,0.0006922671256087443,-0.00025950528693288196,-6.430569663136471e-06,0.00046514140184829723,0.00013175205809918796,0.3442876636981964,-23.63736343383789,19.501754760742188,17.94654083251953,0.8833719491958618,2.3604629039764404,-0.13361968100070953,,,,,,,,,
1739401398.738272,-0.7069753241667823,0.6733988253607085,1.4174986258710383,-1.8796418912052701,-0.707377424840706,1.950124450718205,0.18502241056388333,-0.0004670285647072321,8.927873148118882e-05,-0.0009910394065189444,0.0007054194440211256,-0.0001751856357893957,-0.0015523746578155557,-0.00020678890733179364,0.2927129566669464,-23.63736343383789,19.529525756835938,17.97431182861328,0.8897806406021118,2.3540542125701904,-0.13361968100070953,,,,,,,,,
1739401398.7492104,-0.7069753592859738,0.673398852166614,1.4174985999804914,-1.8796436974902513,-0.7073769506169547,1.9501214951217485,0.1850220766606545,-0.0009274027268406004,-0.0007390282789825843,-0.001130410434325976,0.0004036054867953197,0.0017691759644733835,-0.0012840774347491215,-0.0004775804724694916,0.2927129566669464,-23.63736343383789,19.529525756835938,17.99811553955078,0.8961893320083618,2.3476455211639404,-0.12080229818820953,,,,,,,,,
1739401398.7593155,-0.7069781672202186,0.6734019247905944,1.4175009053250054,-1.8796455425250078,-0.7073782115083723,1.9501199788762171,0.18502033658810058,-0.0010103144803326049,0.0013204079558325073,0.0004120244292989914,0.0004616054983758159,0.0010372994511615927,0.0006020624325452129,0.0002238394749206913,0.2927129566669464,-23.63736343383789,19.501754760742188,18.02191925048828,0.8705545663833618,2.3604629039764404,-0.10706938803195953,,,,,,,,,
1739401398.770232,-0.7069758345581245,0.6733993469157666,1.4175006669075543,-1.879648540504745,-0.7073766078385453,1.9501214616912514,0.18502354701578433,-0.0010808425951662941,0.0012664099831994054,-0.0001968198319390721,-0.00037371551205207896,0.0007393545854079054,0.0009508507279267964,0.0009146855515361703,0.2689092457294464,-23.61355972290039,19.501754760742188,18.02191925048828,0.8833719491958618,2.3604629039764404,-0.10706938803195953,,,,,,,,,
1739401398.780273,-0.7069736553622884,0.6734009715897233,1.4175006670152248,-1.8796398090409359,-0.7073798591396279,1.9501207363918105,0.18502349258203793,-0.0006637827921260231,0.001094552898147643,-0.0013254622279050541,0.000847503524423226,-0.0004279752274264345,-8.179887740009597e-05,0.0020470542563863505,0.2689092457294464,-23.63736343383789,19.501754760742188,17.94654083251953,0.8833719491958618,2.3540542125701904,-0.13361968100070953,,,,,,,,,
1739401398.7912254,-0.7069716500016082,0.6733962987226323,1.4175045293730837,-1.879639808568749,-0.7073773107276577,1.95011998023284,0.18502033902392687,-0.0004947448386218565,1.619568064332335e-05,-0.00020966162084742012,0.0011047180723255802,-0.00010907175029741911,0.00017209216514691388,0.0003742050275815245,0.2411382496356964,-23.56198501586914,19.450180053710938,17.94654083251953,0.8705545663833618,2.3604629039764404,-0.10706938803195953,,,,,,,,,
1739401398.8012836,-0.7069699361968803,0.673395115045094,1.4175091833205804,-1.8796401232946756,-0.7073791674174493,1.9501214935180577,0.18502347351345613,0.0010517167598540645,-0.0005147379896507232,0.0010036307678949023,0.00095053398895031,-0.0010507985914351091,0.0003808507072078493,-0.00036448799253592555,0.2173345386981964,-23.58578872680664,19.426376342773438,17.94654083251953,0.8769632577896118,2.3476455211639404,-0.13361968100070953,,,,,,,,,
1739401398.812232,-0.7069716487175898,0.6733940740313572,1.4175065538643938,-1.8796436795406664,-0.7073801921885421,1.9501256972753631,0.18502322818326886,0.0014318455660620906,-0.0007559394441851429,-0.0006628003008423999,-0.000539933224797323,-0.00017290724603739584,0.0013781082336991237,0.0005366210037982149,0.2411382496356964,-23.53818130493164,19.426376342773438,17.99811553955078,0.8769632577896118,2.3403213024139404,-0.11347807943820953,,,,,,,,,
1739401398.8222446,-0.7069755921832784,0.6733973696018681,1.4175091823435293,-1.8796421138995805,-0.7073783690757616,1.950121849212831,0.185027552043163,-0.0009780535818879573,-0.0001813497710362018,-0.001029249484264141,-0.0002659975274562432,-0.00020834571887473337,-0.00031852146359914415,0.0017656570757146341,0.2927129566669464,-23.58578872680664,19.426376342773438,17.94654083251953,0.8705545663833618,2.3540542125701904,-0.14094389975070953,,,,,,,,,
1739401398.8322768,-0.7069753501892777,0.6733973666562364,1.4175054205431838,-1.879639573023631,-0.707376311024458,1.9501199834737282,0.1850220365189799,-0.0005271897041619005,-1.6119871553960905e-05,-0.0014255406891371762,0.0005533167220279907,0.001245734188951579,-0.000733677303217424,0.0005876555706504458,0.2927129566669464,-23.58578872680664,19.477951049804688,17.94654083251953,0.8833719491958618,2.3604629039764404,-0.09425200521945953,,,,,,,,,
1739401398.8422854,-0.7069751163452836,0.673391699150082,1.417509289334707,-1.8796346901219614,-0.7073798872426292,1.9501227302886903,0.18502382898815467,-0.0006922641557971354,-0.001288038974060267,-0.0001017981661336766,0.0018073751412707435,0.00016195394380532962,1.9915729975728147e-05,0.00016704195730722073,0.2927129566669464,-23.53818130493164,19.426376342773438,17.87512969970703,0.8833719491958618,2.3403213024139404,-0.13361968100070953,,,,,,,,,
1739401398.853304,-0.7069736466570719,0.6733937184953581,1.4175076698094222,-1.8796380260329946,-0.7073798858496267,1.9501203490733054,0.18502509853533416,0.00012616607252780997,-0.0002776138545152078,0.0009417969916441561,0.0010933374500714324,7.810392738242665e-06,-0.000631888595193303,0.00043795470886965585,0.2689092457294464,-23.56198501586914,19.450180053710938,17.92273712158203,0.8833719491958618,2.3604629039764404,-0.14735259115695953,,,,,,,,,
1739401398.8642673,-0.7069753595001663,0.6733923186215265,1.4175076685505998,-1.879638102526127,-0.707379228266475,1.9501192205398816,0.18501957713835931,-0.0002066491364182793,-0.0018543862514188475,0.0013303182741456867,9.137574814687609e-05,0.00037614550839028244,-0.0007622755780752925,-0.0014899344365302517,0.2927129566669464,-23.58578872680664,19.450180053710938,17.92273712158203,0.8769632577896118,2.3668715953826904,-0.10066069662570953,,,,,,,,,
1739401398.8752065,-0.7069753592148416,0.6733982496703808,1.4175034385965357,-1.8796436965458603,-0.7073783763442282,1.9501238429651637,0.1850211054597081,-0.0006188745590974105,0.001118333643038494,0.0004885168915232949,-1.3790276248624956e-06,0.0005956351128936271,0.001421445288208706,-0.0002269668779830813,0.2927129566669464,-23.58578872680664,19.477951049804688,17.99811553955078,0.8705545663833618,2.3403213024139404,-0.11347807943820953,,,,,,,,,
1739401398.8852334,-0.7069716525694986,0.6733988558172387,1.417502896196631,-1.8796467580376137,-0.707382307104027,1.9501207360526496,0.18502024099713751,0.0012580158944340719,5.389512810168575e-05,-0.0017634370717756378,-0.0023295067726114313,-0.0006195521427426157,-0.0006579316190533012,0.0004129439532594048,0.2411382496356964,-23.63736343383789,19.501754760742188,17.99811553955078,0.8769632577896118,2.3540542125701904,-0.09425200521945953,,,,,,,,,
1739401398.8952587,-0.7069746046753057,0.6734019247906562,1.4175028435627774,-1.8796419908700222,-0.7073791282433758,1.9501192617459409,0.18502523474496776,-0.000805774436729688,0.0008416365272348965,-0.00017158061808810685,0.00048596001677156397,0.000984382524822063,-1.1522206384532947e-05,0.00233139588334223,0.2689092457294464,-23.63736343383789,19.501754760742188,17.97431182861328,0.8769632577896118,2.3668715953826904,-0.14735259115695953,,,,,,,,,
1739401398.9063041,-0.7069716487229978,0.6734015681061075,1.417504922120822,-1.8796478289946685,-0.7073798877876862,1.9501192205380207,0.18502247163303617,0.0005586506326786096,0.00045471393024257593,0.0019630724022188274,-9.19857417230642e-05,0.00033180096331093735,-0.00031929950708949235,0.0014060017770274216,0.2411382496356964,-23.66513442993164,19.477951049804688,18.02191925048828,0.8833719491958618,2.3668715953826904,-0.12080229818820953,,,,,,,,,
1739401398.9172654,-0.7069720422276405,0.6733979468428777,1.4175006678636277,-1.8796457458466505,-0.7073791281895515,1.95012110673129,0.18502972257531555,0.000251036968804423,-0.000598919708646449,0.0009213177223371012,0.00012389625354739008,-0.00017378869562490373,0.000868526030341768,0.002295733788740305,0.2173345386981964,-23.61355972290039,19.501754760742188,17.99811553955078,0.8769632577896118,2.3540542125701904,-0.14735259115695953,,,,,,,,,
1739401398.9272707,-0.7069716487532556,0.6733996073522597,1.4175006634015535,-1.8796436795740268,-0.707380029587569,1.950119220544069,0.1850186175179372,0.0002865784105175265,-0.0003354404295969158,3.763890608261802e-05,-4.6201023127560685e-05,-0.0009267651845362489,0.00024226170464244695,-0.0025603567877542314,0.2411382496356964,-23.61355972290039,19.501754760742188,17.99811553955078,0.8833719491958618,2.3668715953826904,-0.08051909506320953,,,,,,,,,
1739401398.9382014,-0.7069753595001665,0.6734003285311717,1.417498157787754,-1.8796437475650893,-0.7073817543832968,1.9501199781978666,0.1850282958613214,-0.0009565163312663616,-0.00047798253713253263,-0.0007540187693490041,0.0001320880589577214,-0.00014638506560521588,-5.7655998693056e-05,0.001207804728856298,0.2927129566669464,-23.61355972290039,19.501754760742188,17.99811553955078,0.8961893320083618,2.3604629039764404,-0.14735259115695953,,,,,,,,,
1739401398.9482963,-0.7069770716999105,0.6733983305943564,1.4174985045445079,-1.8796442607719317,-0.7073801878336516,1.950120740436628,0.18502454047848124,-0.0013241534999380703,-0.0004756623229498465,-0.0014502710818795942,0.0013102540100854358,0.0002132858426011829,0.0004297586941532061,-0.0007060104639672125,0.3165166676044464,-23.58578872680664,19.529525756835938,17.97431182861328,0.8769632577896118,2.3540542125701904,-0.13361968100070953,,,,,,,,,
1739401398.9603055,-0.7069716486065546,0.6733980941381035,1.4175024495827613,-1.8796421958893907,-0.7073776143289159,1.9501207358579706,0.18501809091223226,0.0011753821570118536,-0.001446303595622296,-0.000256260921666602,0.0004829310636695369,-0.00017734841851463318,6.794978216752168e-05,-0.002767800408531445,0.2411382496356964,-23.58578872680664,19.477951049804688,17.97431182861328,0.8641458749771118,2.3540542125701904,-0.08692778646945953,,,,,,,,,
1739401398.970387,-0.7069726145835582,0.6733992606108411,1.4175023836058713,-1.879639808605475,-0.707379128243384,1.9501248313781308,0.18502199325598176,0.00021284634018353796,0.0012558566789464226,-2.567670870871235e-05,-0.0005124152253828594,7.796717950513392e-05,0.0013231755933119172,-0.0014729205513419876,0.2411382496356964,-23.58578872680664,19.450180053710938,17.94654083251953,0.8769632577896118,2.3476455211639404,-0.08051909506320953,,,,,,,,,
1739401398.9813027,-0.7069739599524247,0.6733949171320711,1.4175063134552006,-1.8796398199064384,-0.7073801710870253,1.950122359434098,0.18501983927604043,-0.0004809154136292569,0.00018687978350748527,0.0010393407264860269,-0.0001581188162810792,0.0005141383251112506,0.0005213588514503544,-0.0011938606946434536,0.2689092457294464,-23.53818130493164,19.426376342773438,17.94654083251953,0.8897806406021118,2.3403213024139404,-0.06678618490695953,,,,,,,,,
1739401398.9923108,-0.7069716496823354,0.673396382598584,1.4175063208804277,-1.879643954653018,-0.70738170642461,1.9501214935180233,0.18502055258388234,0.00042223096502755396,0.000203700314224444,-0.0006079366827992025,-0.001643915095874447,-0.0005057029893900484,0.000324129577467386,-0.0008868256690416001,0.2411382496356964,-23.56198501586914,19.426376342773438,17.97431182861328,0.8705545663833618,2.3476455211639404,-0.08051909506320953,,,,,,,,,
1739401399.0042696,-0.7069737246595883,0.6733946347551872,1.4175102894565124,-1.879641988251682,-0.7073809452885469,1.9501207358579449,0.18502182062906097,-0.0011071601638937944,-0.0010668574024535575,0.0024792989915951,-0.0008040506989111058,0.001037198958894405,4.3384015323522456e-05,-0.0001281825078573585,0.2689092457294464,-23.53818130493164,19.374801635742188,17.94654083251953,0.8833719491958618,2.3540542125701904,-0.08051909506320953,,,,,,,,,
1739401399.0151975,-0.7069762951930016,0.6733966725267861,1.4175066879317535,-1.8796419734420498,-0.7073798863361291,1.9501199843027777,0.18502356483447838,-0.0023533313800938012,-0.0011127892884987012,5.472413533018914e-05,-2.0807286832022156e-05,0.0007947967823215907,0.00032825544920406366,-0.0006858513876082963,0.2927129566669464,-23.56198501586914,19.450180053710938,17.97431182861328,0.8833719491958618,2.3604629039764404,-0.09425200521945953,,,,,,,,,
1739401399.0262659,-0.7069736505262023,0.6733944752507748,1.4175067144227071,-1.8796436714569762,-0.7073823012170584,1.950122359415359,0.18502671086203987,-0.0016612144673744552,-6.624232151303461e-05,0.0014527618626216147,-0.0014889612079016239,-0.0006061013773738533,0.0007654742522209549,0.0011498827917315018,0.2689092457294464,-23.56198501586914,19.450180053710938,17.99811553955078,0.8769632577896118,2.3403213024139404,-0.12080229818820953,,,,,,,,,
1739401399.036303,-0.7069736196769818,0.6733983246711891,1.4175045953874434,-1.8796398852031524,-0.7073838282920218,1.9501207358579449,0.18502052625868096,-0.0015554933175479782,0.000714758423577135,0.0002947557449422238,0.0009803066469253646,-0.001984417466646965,-0.00022327053252663094,-0.00013493852946912168,0.2689092457294464,-23.58578872680664,19.477951049804688,17.94654083251953,0.8897806406021118,2.3540542125701904,-0.08051909506320953,,,,,,,,,
1739401399.0473003,-0.7069700401983279,0.6734003280991776,1.417500666922359,-1.8796440036547184,-0.7073802405218717,1.9501207358579449,0.18502506784589962,0.0012777336471770546,0.0004901799513143139,-0.0007512503891805057,-0.0006564067047657218,-0.0007350970663124851,-0.00013861095578010684,-0.00046643587898134075,0.2173345386981964,-23.61355972290039,19.501754760742188,17.99811553955078,0.8833719491958618,2.3540542125701904,-0.13361968100070953,,,,,,,,,
1739401399.0582917,-0.7069737243270646,0.6733983335378265,1.417502446530772,-1.8796441851879007,-0.7073790752096363,1.950121495044251,0.18502551728056713,-6.0190668481014146e-05,-0.0017122537257357956,0.0007227945287671029,-7.515927933990103e-05,0.0010174986930250054,0.000705660262457577,0.000522578795780042,0.2689092457294464,-23.58578872680664,19.477951049804688,17.97431182861328,0.8769632577896118,2.3476455211639404,-0.12080229818820953,,,,,,,,,
1739401399.0691931,-0.7069781552288655,0.673404053386991,1.4175006669061911,-1.8796466680134767,-0.7073792638539311,1.9501192205377966,0.18501760878330648,-2.565419009254691e-05,0.0006637246871528084,-0.0006377458216774992,-0.0007050673385287264,1.7181192794496917e-05,-0.000253302656270062,-0.0010541479384341304,0.2927129566669464,-23.66513442993164,19.501754760742188,17.99811553955078,0.8769632577896118,2.3668715953826904,-0.08051909506320953,,,,,,,,,
1739401399.0792098,-0.7069764547468368,0.6734050860440867,1.4174985989991262,-1.8796436965961816,-0.7073799090521934,1.9501199781978666,0.1850252345653711,-0.00023275173015033958,0.0014949222411674225,0.0003490864222287744,0.0010810933824226088,0.00020864572629360396,6.976668167350085e-05,-0.0008221361511177139,0.2689092457294464,-23.63736343383789,19.529525756835938,17.99811553955078,0.8833719491958618,2.3604629039764404,-0.14735259115695953,,,,,,,,,
1739401399.0892484,-0.7069737257771125,0.6733983345523399,1.4175022013170466,-1.8796380372298518,-0.7073798860115175,1.9501207358579449,0.1850266196130916,-0.0007816131526561543,-0.0012037899648716496,0.0005259625749179499,0.0006592525585464102,0.00118946478558084,-0.0005756089335499314,0.00035925765543825833,0.2689092457294464,-23.58578872680664,19.477951049804688,17.92273712158203,0.8833719491958618,2.3540542125701904,-0.12080229818820953,,,,,,,,,
1739401399.0993066,-0.7069738806658826,0.6734004405316562,1.4175024495706143,-1.8796440680304491,-0.7073791286740655,1.9501214930335065,0.1850212124688821,0.00039954233085342324,-0.0009182400532018284,0.00025213693693166135,-0.0015001095024818835,0.0008483825065362232,-2.5301026863864954e-05,0.00023085990343453875,0.2689092457294464,-23.58578872680664,19.477951049804688,17.97431182861328,0.8769632577896118,2.3476455211639404,-0.11347807943820953,,,,,,,,,
1739401399.1093087,-0.7069765327019465,0.6733983605487625,1.4175024492440658,-1.87964211799416,-0.7073791281895433,1.9501214935180207,0.18502289348286896,-0.0015184729820499712,-0.0006650860322209805,0.0005011258475518732,-0.0013438890003493378,0.0005747261580264208,0.00043391079685103017,0.0009650090364579019,0.2689092457294464,-23.58578872680664,19.477951049804688,17.97431182861328,0.8769632577896118,2.3476455211639404,-0.12721098959445953,,,,,,,,,
1739401399.1193361,-0.706973647135308,0.6734031510759233,1.4175024494701678,-1.8796418893072981,-0.7073763519752735,1.9501192210465306,0.18502243371510219,5.6662891872192575e-05,0.0006822037783176822,-0.00011954684578470177,0.00020727710995150516,0.001187694130820559,-0.0002756743623135646,0.001425482995453466,0.2689092457294464,-23.61355972290039,19.477951049804688,17.97431182861328,0.8897806406021118,2.3668715953826904,-0.12080229818820953,,,,,,,,,
1739401399.1302657,-0.706971661236294,0.6733992786978922,1.4175024495455422,-1.8796418698120168,-0.7073799255557665,1.9501199781978693,0.18502655878739366,0.001532707203875514,0.0004302296380385048,-0.0005773222806893458,-0.0015717627000658913,0.00028492964030065967,-0.0004857666161428948,0.0022586726156170237,0.2411382496356964,-23.58578872680664,19.477951049804688,17.94654083251953,0.8833719491958618,2.3604629039764404,-0.14735259115695953,,,,,,,,,
1739401399.1412094,-0.7069716747180405,0.6733966210581156,1.4175101745169767,-1.8796380286287695,-0.7073791717962722,1.950119507247587,0.18502005288215803,0.000783913956337271,-0.001236167758435985,0.0010112235971371276,0.001259487901722377,-3.985103003491182e-05,-0.0007939232115854119,-0.0011539537859332155,0.2411382496356964,-23.56198501586914,19.374801635742188,17.92273712158203,0.8769632577896118,2.3604629039764404,-0.10066069662570953,,,,,,,,,
1739401399.1532688,-0.706974350059817,0.6733950125335693,1.4175112341551062,-1.8796395701501825,-0.7073826647313705,1.9501207358552863,0.18502699623004157,0.00024093259415396617,-0.00033344813533730844,0.0006262830439178857,0.0011446389980590036,-0.0008831226905438192,-0.0001624208448340593,0.0011569261161779594,0.2689092457294464,-23.53818130493164,19.374801635742188,17.94654083251953,0.8769632577896118,2.3540542125701904,-0.12721098959445953,,,,,,,,,
1739401399.1653018,-0.7069781673285377,0.6733929482188278,1.4175104275457298,-1.8796380271976791,-0.7073799033706567,1.9501214935180233,0.18502211672562627,-2.0501537411920547e-06,-0.0014048225522380346,-5.99208893210352e-05,0.0007052067058656894,0.001651390549635312,-0.0002784829601911016,-0.0008003330076075919,0.2927129566669464,-23.51041030883789,19.374801635742188,17.92273712158203,0.8833719491958618,2.3476455211639404,-0.12080229818820953,,,,,,,,,
1739401399.1763005,-0.7069709532247807,0.6734003574791496,1.4175045294825757,-1.8796425799578111,-0.7073798859034871,1.9501207358579449,0.18502433109944713,0.000942488739550668,0.0016665713481941917,-0.0013258877116665117,-0.00092165487596073,0.00048655451444212073,0.00025542795741583706,0.0011204894486287055,0.2173345386981964,-23.61355972290039,19.450180053710938,17.97431182861328,0.8833719491958618,2.3540542125701904,-0.10066069662570953,,,,,,,,,
1739401399.1872947,-0.7069682265707996,0.6734004354803655,1.4175063120501026,-1.879641993236156,-0.7073791419713507,1.9501203826452351,0.1850288289834807,0.0020490706289624117,0.0005856608409493576,0.0006023468617131651,-0.0005118724583739391,0.0013238146679320209,-0.0002710894905130099,0.002068935965112759,0.1935308277606964,-23.61355972290039,19.426376342773438,17.97431182861328,0.8769632577896118,2.3540542125701904,-0.14735259115695953,,,,,,,,,
1739401399.1973078,-0.7069699361969075,0.6734013755840699,1.4175045293730832,-1.879642585628431,-0.7073796390319327,1.9501199781918848,0.18502720394572642,0.00033694419735006,0.0009749583746244161,0.0008586346129872266,4.340323745789641e-05,-0.0003440478614446034,4.9788289512151684e-05,0.0003258399424356892,0.2173345386981964,-23.58578872680664,19.450180053710938,17.97431182861328,0.8769632577896118,2.3604629039764404,-0.13361968100070953,,,,,,,,,
1739401399.2082448,-0.7069760621524116,0.6734059126012526,1.4174985869656145,-1.8796439576312844,-0.7073831170946996,1.9501199781978666,0.1850282716812588,-0.0007220169587848,0.0025166679650126065,-0.0015493926303931634,-0.0005999434788104794,0.00018708585076574548,0.0003417937898975551,0.0024064949664227868,0.2927129566669464,-23.66513442993164,19.529525756835938,17.97431182861328,0.8833719491958618,2.3604629039764404,-0.13361968100070953,,,,,,,,,
1739401399.219272,-0.7069736476253881,0.6734006435294847,1.4175026880018058,-1.879642220137743,-0.7073798873752448,1.9501192205377882,0.1850219757306722,0.00041486110602888016,0.000569398540744271,0.0009147577778138329,-0.0006757657152372695,-0.00042167342247979124,-0.001038238116152769,-0.00084017460367897,0.2689092457294464,-23.61355972290039,19.477951049804688,17.97431182861328,0.8833719491958618,2.3668715953826904,-0.08051909506320953,,,,,,,,,
1739401399.2292967,-0.7069744684213708,0.6734023688489685,1.417500584493947,-1.8796398095191724,-0.7073849227616473,1.9501207358579449,0.1850267562043063,-8.150131526995824e-05,0.0006436732635494518,0.0005586350604177275,0.0012246965680458991,-0.002512946196797633,2.530431612006134e-05,0.0018893882910401105,0.2411382496356964,-23.63736343383789,19.501754760742188,17.94654083251953,0.8897806406021118,2.3540542125701904,-0.12080229818820953,,,,,,,,,
1739401399.2393436,-0.7069784128271134,0.6734003704312713,1.4174967220216392,-1.8796410228216405,-0.7073822671394775,1.9501199781978666,0.18502673735287264,-0.0010635418770830259,-0.000761505355511673,0.00034182383022139835,-0.0001028160019422866,-0.0009479407100933152,-9.470988162428507e-05,-0.00013083846344917962,0.2927129566669464,-23.61355972290039,19.553329467773438,17.92273712158203,0.9035135507583618,2.3604629039764404,-0.12080229818820953,,,,,,,,,
1739401399.250363,-0.7069762991689984,0.6734012713445077,1.4175017829779608,-1.879642891866233,-0.7073830705782084,1.9501199781978666,0.18502593826009173,-7.577235014204626e-05,1.0674469512359885e-05,0.0012276795853524759,-0.0003529179778926216,-0.0013235911049117057,0.0002364130939989423,0.0016739519139288145,0.2927129566669464,-23.61355972290039,19.501754760742188,17.97431182861328,0.8833719491958618,2.3604629039764404,-0.14094389975070953,,,,,,,,,
1739401399.2613196,-0.7069780985953921,0.6734003415774302,1.4174963618825815,-1.8796436739107014,-0.7073843326381996,1.9501199781978666,0.18502312316389063,-0.0010278586677338376,-0.0009099410471512195,-0.0014108972577461043,0.00012725081679834443,-0.001496558833688603,0.00020115448579723183,-0.000995702061698103,0.3165166676044464,-23.61355972290039,19.529525756835938,17.99811553955078,0.8897806406021118,2.3604629039764404,-0.12080229818820953,,,,,,,,,
1739401399.271358,-0.7069699404941471,0.6734027841813854,1.4175059701373995,-1.8796380287261987,-0.7073801878901457,1.9501199781978666,0.18502468368900118,0.002157339621061793,-0.0006011392542287333,0.0006911024568658074,0.0015219225910172935,-0.0008526466694278222,-4.707219096331595e-05,0.0008268945074865792,0.2173345386981964,-23.61355972290039,19.426376342773438,17.92273712158203,0.8769632577896118,2.3604629039764404,-0.09425200521945953,,,,,,,,,
1739401399.283262,-0.7069746998925259,0.6733988440099534,1.4175044154128138,-1.879642001174305,-0.7073834186287211,1.9501192205377882,0.18502791562295579,0.0007708978160651182,-0.00013874657066429346,-0.0001900113232647107,-0.0005600734032983566,-0.0014862209532239946,-0.00021040978431801505,0.000935868532266781,0.2411382496356964,-23.56198501586914,19.450180053710938,17.97431182861328,0.8833719491958618,2.3668715953826904,-0.13361968100070953,,,,,,,,,
1739401399.2951944,-0.7069700270909881,0.6734031780430059,1.4175062855589344,-1.8796465140087388,-0.7073791282679683,1.9501199781978666,0.18502437661170543,0.0017006940441062278,0.0012748876729399019,-0.0002447295357779031,-0.0011763900499361093,0.0013116770747951488,-0.0005453170802886837,0.001082955134125863,0.2173345386981964,-23.61355972290039,19.426376342773438,17.99811553955078,0.8769632577896118,2.3604629039764404,-0.10066069662570953,,,,,,,,,
1739401399.3052435,-0.7069738817333767,0.6734011542527941,1.4175074829503957,-1.8796382564729421,-0.7073856397222943,1.9501149819852706,0.18502361618956695,0.0010330628096904856,0.0012666797670368563,0.0007321188850067744,0.0013816331095409732,-0.0021809231683215923,-0.0015078731168896584,-0.00015045574570373365,0.2689092457294464,-23.58578872680664,19.450180053710938,17.92273712158203,0.8961893320083618,2.3668715953826904,-0.09425200521945953,,,,,,,,,
1739401399.3162024,-0.7069736814330558,0.6733994390498933,1.4175063120556597,-1.879639812803318,-0.7073791674433728,1.950119671851189,0.18502675636712712,0.0002726979433036542,0.0006707806390821148,0.00019032940556338202,0.0009989422003088726,0.00024897427710445007,-0.0002982764786318018,0.0014577661921317273,0.2689092457294464,-23.56198501586914,19.426376342773438,17.94654083251953,0.8769632577896118,2.3540542125701904,-0.12080229818820953,,,,,,,,,
1739401399.3262699,-0.7069784313986842,0.6734003614741577,1.4175080950541703,-1.8796398170722302,-0.7073806435116916,1.9501199781438094,0.18502592996104042,-0.0009492684091367739,0.0006077113450536635,0.0005393834479293567,0.0021554594451194415,-0.0003561877972226245,0.00015660970792389,0.0013235668667710722,0.2927129566669464,-23.61355972290039,19.402572631835938,17.94654083251953,0.8897806406021118,2.3604629039764404,-0.11347807943820953,,,,,,,,,
1739401399.3372555,-0.7069757613736877,0.67339896397597,1.4175047677916628,-1.879639911936373,-0.7073795706260914,1.9501212602291833,0.18502548823018236,0.0006620699444054098,0.000554170226568201,-0.000590416809886073,0.0010636026420060105,0.00039391473850341596,0.0014621759011327676,0.0014691079518801156,0.2689092457294464,-23.56198501586914,19.450180053710938,17.94654083251953,0.8897806406021118,2.3604629039764404,-0.10706938803195953,,,,,,,,,
1739401399.3472607,-0.7069761690786758,0.6734012571758111,1.4175026880058443,-1.8796400419379886,-0.707381754364316,1.9501207352336338,0.18502361749568122,-0.0004850690208694885,0.001535427589727808,0.0003055416610572762,0.0011143384545996959,-0.0008350197829718125,7.97032903747944e-06,-0.0006270984249210163,0.2927129566669464,-23.58578872680664,19.477951049804688,17.94654083251953,0.8961893320083618,2.3540542125701904,-0.09425200521945953,,,,,,,,,
1739401399.358196,-0.7069738836980292,0.6734003314952027,1.4175024495845734,-1.879641891194342,-0.7073798328697063,1.9501207358579413,0.1850218754589217,0.00045947711238004225,1.4089393222542967e-05,0.000204724754692899,-6.059262865252505e-07,0.0010866322541703288,0.00012525234564770229,-0.002219385277754458,0.2689092457294464,-23.61355972290039,19.477951049804688,17.97431182861328,0.8833719491958618,2.3540542125701904,-0.08051909506320953,,,,,,,,,
1739401399.368353,-0.7069745836391149,0.6734002833240894,1.4174963618762813,-1.8796400721701312,-0.707381063224421,1.9501199781978666,0.18502925605594203,9.558080765832138e-05,-0.0005740367042735553,-0.0009995028090055585,0.00017151865678947112,-0.0004833576209350704,-0.00024997835217851415,0.0018316915776356163,0.2689092457294464,-23.58578872680664,19.529525756835938,17.94654083251953,0.8833719491958618,2.3604629039764404,-0.14094389975070953,,,,,,,,,
1739401399.3792295,-0.7069773965494486,0.673402394569744,1.4175006668559622,-1.8796419000127174,-0.7073792460952625,1.9501199781978666,0.18502589047056595,-0.0001377373310721208,0.00032370363370331514,-0.00012166778679230615,-0.0004852691642150117,4.0280818552587515e-05,-4.393705705384417e-05,-8.329727907700307e-05,0.3165166676044464,-23.63736343383789,19.501754760742188,17.97431182861328,0.8769632577896118,2.3604629039764404,-0.11347807943820953,,,,,,,,,
1739401399.3892643,-0.7069765706902212,0.6734043543787699,1.4174983395282936,-1.879639910608171,-0.7073846346002695,1.9501199781978666,0.18502589030738217,-0.0010179738144351705,0.0002642806279864943,0.0005961807540926175,0.0006257802077152324,-0.0014564579997593157,2.2086008110627924e-05,0.0011629827143981519,0.2689092457294464,-23.66513442993164,19.529525756835938,17.94654083251953,0.8833719491958618,2.3604629039764404,-0.11347807943820953,,,,,,,,,
1739401399.4012637,-0.706974773059597,0.6734033861862901,1.4175006576343903,-1.8796381024217235,-0.7073806565639482,1.9501192205377882,0.18502989524459607,0.0006746975828571738,0.0001269871097936758,0.0013040279984731988,0.0012033629142961348,0.0011241756427834637,-0.0005607982856327585,0.00038961908659627194,0.2411382496356964,-23.61355972290039,19.501754760742188,17.92273712158203,0.8897806406021118,2.3668715953826904,-0.14735259115695953,,,,,,,,,
1739401399.4121974,-0.7069766978392337,0.6734011454840989,1.417500547860426,-1.879639972214788,-0.7073809454877729,1.9501199781978666,0.18502589195058933,-0.0013033454345473885,-0.0012486504569308129,-0.0009518075482157094,0.0012805508127882274,0.0007338909924346736,-0.00031372748113512173,-0.0005412186144928567,0.2689092457294464,-23.58578872680664,19.501754760742188,17.97431182861328,0.8833719491958618,2.3604629039764404,-0.11347807943820953,,,,,,,,,
1739401399.4222589,-0.706974378997,0.6734007892721541,1.4175024451680769,-1.8796418747657484,-0.7073830822604451,1.9501207358579449,0.1850259503751079,0.00040457602964534697,-0.0004801620085316805,0.0005220597054760783,0.0006793873999773133,-0.001025663020202653,0.000324423682089079,-0.0005077127449628741,0.2689092457294464,-23.58578872680664,19.477951049804688,17.94654083251953,0.8833719491958618,2.3540542125701904,-0.08692778646945953,,,,,,,,,
1739401399.4332447,-0.7069768053790572,0.673401221011282,1.4175024494324806,-1.8796418883624895,-0.7073834844856425,1.9501207358579449,0.18502675637314864,-3.824528238041957e-05,-0.00047514437885655934,-0.0007820999178565243,0.0006077788865220064,-0.00016594750105025316,0.0004117514514290119,6.648069159788687e-05,0.2689092457294464,-23.58578872680664,19.477951049804688,17.97431182861328,0.8769632577896118,2.3540542125701904,-0.12080229818820953,,,,,,,,,
1739401399.4442925,-0.7069765736816523,0.673398064649026,1.4175031677824015,-1.8796455305569963,-0.7073791274376175,1.9501192220640158,0.18502752176503084,-0.0009415153471462743,-0.00011583316661158507,-0.0002474350140568398,-0.0009112747535659481,0.0021777590479488454,-8.266886890863964e-05,0.0014564221613380987,0.2689092457294464,-23.53818130493164,19.477951049804688,18.02191925048828,0.8769632577896118,2.3668715953826904,-0.10066069662570953,,,,,,,,,
1739401399.4543278,-0.7069719207572932,0.6733997684005492,1.4175080950582242,-1.8796437730752817,-0.7073798860111202,1.9501214935180318,0.1850275140991423,0.0001927146457952833,-0.0006563074814790661,-8.134732753004405e-05,-0.0005837431166517385,0.0004465331803347325,6.987350643808198e-05,0.00039709185718512943,0.2411382496356964,-23.56198501586914,19.402572631835938,17.99811553955078,0.8833719491958618,2.3476455211639404,-0.12721098959445953,,,,,,,,,
1739401399.4652894,-0.7069738716981189,0.673397565858019,1.4175063159746895,-1.8796419514280878,-0.7073800428330465,1.9501192205377882,0.18502436198602648,-0.0006658370414419731,-0.0008117816333331575,-0.00177136902472038,9.902517075167298e-05,0.001513423209543404,-0.0003402313742177285,-0.0010504810676359943,0.2411382496356964,-23.56198501586914,19.426376342773438,17.94654083251953,0.8833719491958618,2.3668715953826904,-0.10066069662570953,,,,,,,,,
1739401399.4762676,-0.7069781802151226,0.6734014635752108,1.4175031648753256,-1.8796439783161263,-0.7073817423400613,1.9501192205377882,0.18502361748958782,-0.0010211452211583278,0.0007826584358533239,-0.00022595784134606502,-0.00021633708187931402,-0.0001824911199879533,-0.0004708113925741441,-0.0003610976082719552,0.2927129566669464,-23.58578872680664,19.477951049804688,17.99811553955078,0.8897806406021118,2.3668715953826904,-0.09425200521945953,,,,,,,,,
1739401399.4862869,-0.7069760995157304,0.6733990681017727,1.4175042658063735,-1.879644262035583,-0.7073823071225375,1.9501214935180233,0.18502084426875962,-0.00014107355574653578,-0.00126575790010077,-0.0006265053990911356,-0.001709518560311586,0.00047133209195233293,0.0005776732084258453,0.00015809328435380243,0.2689092457294464,-23.56198501586914,19.477951049804688,17.97431182861328,0.8769632577896118,2.3476455211639404,-0.06678618490695953,,,,,,,,,
1739401399.497198,-0.7069778065456637,0.6734068590899227,1.417504530836886,-1.8796418887919157,-0.7073804010703735,1.9501204338798939,0.18502842965453437,-0.0010701274214091798,0.0028063297853705652,-0.00022349215382153656,-0.0004920833555136597,0.0001842775183526007,-5.8033337718257796e-05,0.001987529288818927,0.2927129566669464,-23.66513442993164,19.450180053710938,17.97431182861328,0.8833719491958618,2.3476455211639404,-0.13361968100070953,,,,,,,,,
1739401399.5072231,-0.7069768056925635,0.6733994420525571,1.4175024525266915,-1.879640601645956,-0.7073826624249363,1.9501207358399997,0.18502088150471901,-0.0008161665285265588,-0.0007415675255127245,0.0006829196417802839,-7.686478535992259e-05,-0.0011819638952217182,0.00037291965906646843,-0.002802120581338681,0.2689092457294464,-23.56198501586914,19.477951049804688,17.94654083251953,0.8769632577896118,2.3540542125701904,-0.07411040365695953,,,,,,,,,
1739401399.5172312,-0.7069785182253469,0.6734026748775963,1.4175035279292074,-1.879641887159029,-0.7073817038537015,1.9501207358579444,0.18502675636112154,-0.0016361886306407564,-0.0008622065322922537,0.0007070490587550509,0.0004798751861205458,0.0004085078725616965,0.00027576021246564426,0.0015271809825206577,0.2927129566669464,-23.61355972290039,19.501754760742188,17.94654083251953,0.8897806406021118,2.3540542125701904,-0.12080229818820953,,,,,,,,,
1739401399.527239,-0.7069748077637629,0.6733993865117974,1.417498443119687,-1.879641604585842,-0.7073854852811237,1.9501214935180233,0.18502827168728594,-3.249444133965351e-05,-0.0006306299967880867,-0.0005043249462777894,0.0005162660703379958,0.0004314925384379325,-0.0001733027370185229,0.0006788848369172938,0.2411382496356964,-23.58578872680664,19.501754760742188,17.97431182861328,0.9035135507583618,2.3476455211639404,-0.13361968100070953,,,,,,,,,
1739401399.5372407,-0.706976805276626,0.67340149214414,1.417502449570674,-1.8796439555961597,-0.707381415723445,1.9501207358579449,0.1850216385120622,-0.000177776559348857,0.00013053800772842302,0.00022649701323379824,-0.0009014547575179551,0.00034114388836952803,0.00016810192015726433,-0.00040968796767009287,0.2689092457294464,-23.58578872680664,19.477951049804688,17.97431182861328,0.8961893320083618,2.3540542125701904,-0.08051909506320953,,,,,,,,,
1739401399.547266,-0.7069768047416315,0.6734027851976827,1.4174985871163528,-1.8796440609263352,-0.7073841244023827,1.9501207358579449,0.1850286710131373,-0.0009695698852418589,0.00016937953518712088,-0.0006226283933789614,-5.2126837094499236e-05,0.0004073900214306275,0.0005550985473779829,0.0002770494002584563,0.2689092457294464,-23.61355972290039,19.529525756835938,17.97431182861328,0.8833719491958618,2.3540542125701904,-0.14735259115695953,,,,,,,,,
1739401399.558194,-0.7069768057046104,0.67340149161706,1.4174985867771912,-1.8796418883708659,-0.7073806958614329,1.9501199781978666,0.18502123626536224,-0.0006888387512699741,-0.000960801257990538,0.0005264262361214625,0.0009539247992329945,0.0016663416261717338,0.00019176829891904312,-0.0014431842189920362,0.2689092457294464,-23.58578872680664,19.529525756835938,17.97431182861328,0.8897806406021118,2.3604629039764404,-0.07411040365695953,,,,,,,,,
1739401399.5701888,-0.7069750457543521,0.6734014145828732,1.4174975764645767,-1.8796436719804284,-0.7073814186126741,1.9501199389520099,0.1850299347357402,0.00018249441895804177,-0.0010368081880591249,-0.0007453042071087466,-0.0002577855802720363,-0.0005239592637048882,0.0003334633801424864,0.0022301479968711577,0.2411382496356964,-23.58578872680664,19.501754760742188,17.99811553955078,0.8961893320083618,2.3604629039764404,-0.14735259115695953,,,,,,,,,
1739401399.5802314,-0.7069748077677932,0.6734005929256435,1.4174992338255308,-1.8796446446774977,-0.7073795222634582,1.950119960754599,0.1850195746875632,0.0001400280063562931,-0.00042479066673380513,0.00014388354624959008,-0.0002164217305006913,0.000491324836788931,-0.00014822318421750703,-0.002532111061135027,0.2411382496356964,-23.61355972290039,19.477951049804688,17.97431182861328,0.8769632577896118,2.3604629039764404,-0.06037749722599983,,,,,,,,,
1739401399.590312,-0.7069726112131393,0.6734030969984638,1.417500657391527,-1.879641913883968,-0.707382193534836,1.9501214935179247,0.18502275207976004,0.0016347960345342403,0.0007845637616544385,-0.0003403196591871714,0.0005670548482195623,-0.002534701127652468,0.00019206232039712474,-0.0009286930167253411,0.2411382496356964,-23.63736343383789,19.501754760742188,17.97431182861328,0.8897806406021118,2.3476455211639404,-0.08692778646945953,,,,,,,,,
1739401399.601254,-0.7069775122811602,0.6734007818950759,1.4175016986791167,-1.8796419167029754,-0.7073806456180197,1.9501199781978666,0.18502199393235416,-0.001604416626927931,-0.00026679076157885503,6.376258621572092e-05,-0.0006628419277728867,0.0005119112735055289,2.986591922447208e-05,-0.001192851825087642,0.2689092457294464,-23.58578872680664,19.477951049804688,17.97431182861328,0.8897806406021118,2.3604629039764404,-0.08051909506320953,,,,,,,,,
1739401399.6112645,-0.7069748077757287,0.6733980675305207,1.4175024495705109,-1.8796386440764306,-0.7073791283510819,1.9501207358579449,0.18502827168728625,-0.0005398390072174064,0.0006559537998580293,-0.0009061850242576895,0.00072686779144746,0.00140505048095739,0.00018706896811395633,0.001448868060091066,0.2411382496356964,-23.53818130493164,19.477951049804688,17.89893341064453,0.8769632577896118,2.3540542125701904,-0.13361968100070953,,,,,,,,,
1739401399.6222575,-0.7069768057046159,0.6733993885336987,1.4175045382034008,-1.8796374431971745,-0.7073794864089243,1.9501207358579449,0.1850252907743918,0.00017170211821243293,0.0005995703234784344,-0.0004238143291005364,0.0005768556306586352,0.0006271271648488123,1.4484463635276295e-05,7.811896540416922e-06,0.2689092457294464,-23.58578872680664,19.450180053710938,17.92273712158203,0.8769632577896118,2.3540542125701904,-0.10706938803195953,,,,,,,,,
1739401399.6333313,-0.7069746659878068,0.6734007905618805,1.417507882799545,-1.8796387911826424,-0.7073802408573585,1.9501214935180233,0.18502675636802127,-2.6492216638207674e-05,-0.00020972974696089756,0.0007866820689964264,-0.0004890644772889818,-0.00028090899496546816,0.00027032561307835655,0.00019756836147350875,0.2689092457294464,-23.58578872680664,19.402572631835938,17.92273712158203,0.8769632577896118,2.3476455211639404,-0.12080229818820953,,,,,,,,,
1739401399.6441953,-0.7069763419697005,0.6734030613727816,1.4175026879982175,-1.879638062752186,-0.707383188334621,1.9501207358579449,0.1850219895444466,-0.001187391050375213,0.0010786835950397223,-6.916062844548336e-05,4.944592652076046e-05,-0.0011047646358141679,-0.00012988002466395406,-0.0019108756337427517,0.2689092457294464,-23.63736343383789,19.477951049804688,17.92273712158203,0.8833719491958618,2.3540542125701904,-0.08051909506320953,,,,,,,,,
1739401399.6543162,-0.7069765716985777,0.6733989229137994,1.4175006786813111,-1.8796380268367427,-0.7073811324595746,1.9501192205377882,0.18502915513611312,-0.0003438199649995285,-0.0005789212669761972,-0.0007474706758966339,0.000935557160845629,0.0004251830673977602,-0.00042518281379040065,0.0013562671951083919,0.2689092457294464,-23.58578872680664,19.501754760742188,17.92273712158203,0.8897806406021118,2.3668715953826904,-0.14094389975070953,,,,,,,,,
1739401399.6653466,-0.7069748077624419,0.673401483795722,1.4175045293731496,-1.879638038174232,-0.7073791282461359,1.9501207358579449,0.18502437520401122,0.0006273181853542497,0.0002056292592277472,0.0011503501305910528,0.001066434942975385,0.0005384479239249112,0.0008229610669202765,-0.0005426205106916747,0.2411382496356964,-23.58578872680664,19.450180053710938,17.92273712158203,0.8769632577896118,2.3540542125701904,-0.10066069662570953,,,,,,,,,
1739401399.6763012,-0.7069784921893012,0.6734034905248222,1.4175021199180318,-1.8796446689626072,-0.7073809650299241,1.9501207358579449,0.18502644971652046,-0.001128269696803361,0.001056618714807131,-0.0004029854345222419,-0.00040958722824289653,-0.0001340735198725303,0.0003116080778698371,4.480764819806793e-05,0.2927129566669464,-23.61355972290039,19.477951049804688,17.97431182861328,0.8833719491958618,2.3540542125701904,-0.12721098959445953,,,,,,,,,
1739401399.6872241,-0.7069764109101547,0.6734064989761953,1.4175007329869982,-1.8796421945233732,-0.707379885867895,1.9501207358579449,0.18502569008823772,-0.0003894332419437925,0.0009005517080524213,-0.0009632047030534765,-0.0009883262097992156,0.000820769846402313,0.0006041706236404591,0.001177135874005586,0.2927129566669464,-23.66513442993164,19.529525756835938,17.97431182861328,0.8833719491958618,2.3540542125701904,-0.12080229818820953,,,,,,,,,
1739401399.6972804,-0.7069785182134511,0.6733976740285424,1.4174985871284664,-1.8796363537589325,-0.7073832261080844,1.9501214935180233,0.18502989523857782,-0.0016479733398316828,-0.0014615512299398566,-0.001496739473797417,0.00264213342165568,-0.0005376626620119939,0.0005683592864510595,0.002751245992756314,0.2927129566669464,-23.56198501586914,19.529525756835938,17.89893341064453,0.8833719491958618,2.3476455211639404,-0.14735259115695953,,,,,,,,,
1739401399.708292,-0.7069726237318407,0.6734051683665409,1.41749830323799,-1.87964574016502,-0.7073802401743347,1.9501214935180233,0.18502361895229705,0.0013364432106855492,0.00029475456467183543,-0.001492846221373596,-0.0014312171415253655,0.0014553796873694957,0.00048260529859984124,-0.0008252937979020686,0.2411382496356964,-23.63736343383789,19.529525756835938,17.99811553955078,0.8769632577896118,2.3476455211639404,-0.09425200521945953,,,,,,,,,
1739401399.7192106,-0.7069768046936441,0.6734014916208458,1.4175024210920402,-1.879644668974218,-0.7073852368962574,1.9501199781978666,0.18502675782977274,-0.0004859540954430268,-0.00039107146616491325,-0.00017177877160538438,-0.0009079702336600184,-0.00025447062309434865,0.0001336447075630608,0.0004776080668220246,0.2689092457294464,-23.58578872680664,19.477951049804688,17.97431182861328,0.8897806406021118,2.3604629039764404,-0.12080229818820953,,,,,,,,,
1739401399.7292812,-0.7069749556624833,0.673404890720034,1.4175053102665325,-1.8796456833479913,-0.7073837201940627,1.950119624985157,0.18502827217485598,0.00019577633193534777,0.00023215301720302196,0.0015559527213827595,0.0002264817762741287,0.0002633661719841296,-0.000523653592483321,0.00102791556602011,0.2411382496356964,-23.63736343383789,19.477951049804688,18.02191925048828,0.8769632577896118,2.3604629039764404,-0.13361968100070953,,,,,,,,,
1739401399.740238,-0.7069768055984532,0.673406589964637,1.4175024495993762,-1.8796418884648765,-0.7073805999081691,1.950120735855951,0.18502656781720786,-0.0001438203303292472,0.0012078341655363271,-0.00014049533974187366,-0.0003944947955229796,-0.0004743818173889448,0.0005304262412496299,0.0014070961942562322,0.2689092457294464,-23.61355972290039,19.477951049804688,17.97431182861328,0.8769632577896118,2.3540542125701904,-0.10706938803195953,,,,,,,,,
1739401399.7502422,-0.7069768057046141,0.6734050904297787,1.4175014605876404,-1.879640117695888,-0.7073815324987383,1.9501214935180233,0.18502676955514594,-0.0005982793387445973,0.0007889366898908943,0.0003346445034447804,4.5497302916921176e-05,-0.0010267564931148473,0.0005067179248184973,-0.0004202324941504277,0.2689092457294464,-23.63736343383789,19.477951049804688,17.92273712158203,0.8961893320083618,2.3476455211639404,-0.12080229818820953,,,,,,,,,
1739401399.761196,-0.7069747171369238,0.6734056677595394,1.417502422094379,-1.879642807062008,-0.7073831829883177,1.9501214542721665,0.18502751386491623,0.0005590926988115697,0.0008234549717175829,-0.0008109655439440423,-0.0013578698029829883,0.00022636090106377627,0.0004725279750787404,-0.0003585766090978148,0.2411382496356964,-23.61355972290039,19.477951049804688,17.97431182861328,0.8833719491958618,2.3476455211639404,-0.12721098959445953,,,,,,,,,
1739401399.7712164,-0.7069727016968034,0.6734014985376958,1.417504529372928,-1.879639842587008,-0.7073810024101611,1.9501207358577233,0.18502361743548956,0.0007001053831036724,-0.0010682229408579312,0.00011743459762496604,0.001360309338028807,0.00024227183026749368,0.0003358552145766659,-0.0008833999537748896,0.2411382496356964,-23.58578872680664,19.450180053710938,17.94654083251953,0.8833719491958618,2.3540542125701904,-0.09425200521945953,,,,,,,,,
1739401399.7822049,-0.7069802307341895,0.6734034900969156,1.4175044194846846,-1.8796400381571996,-0.7073832217537366,1.9501189185597372,0.18502437514974016,-0.002196603028786599,0.00011010228167230912,-0.00045706175981402786,0.0003530615110096454,6.334947402797028e-05,-0.00023367478805881695,-0.0012373645661785289,0.3165166676044464,-23.61355972290039,19.450180053710938,17.94654083251953,0.8833719491958618,2.3604629039764404,-0.10066069662570953,,,,,,,,,
1739401399.7922616,-0.706973095243031,0.6734022049508032,1.4175024482209977,-1.8796418981332785,-0.7073823528179844,1.9501207358041097,0.185029895244597,0.00046938973669221045,0.0005915049575039141,-0.0009170943275647331,-0.000443504089139217,0.0011642016858446746,0.00022219357140133953,0.0017521597363232395,0.2173345386981964,-23.58578872680664,19.477951049804688,17.97431182861328,0.8769632577896118,2.3540542125701904,-0.14735259115695953,,,,,,,,,
1739401399.802273,-0.7069748048748318,0.6733997800673087,1.4175024404258532,-1.8796401411760906,-0.7073830654282325,1.9501207358579444,0.18502437368710553,0.00030076329088627097,-0.0003911583946219542,-0.00022157879673131422,-0.00011609547796483587,0.0007125872253897323,0.0003201987873624098,-0.0013950464012308763,0.2411382496356964,-23.56198501586914,19.477951049804688,17.94654083251953,0.8833719491958618,2.3540542125701904,-0.10066069662570953,,,,,,,,,
1739401399.8133054,-0.7069765707382022,0.6734014142618863,1.4175052446287688,-1.8796418896202227,-0.7073842436112052,1.9501199781978666,0.18502199393234314,0.000261763271922044,-0.0003462539390000874,0.0004549756436659522,-0.0011068519198300865,-0.00017296060829191426,-0.0001484182126075072,-0.002109263628858506,0.2689092457294464,-23.58578872680664,19.450180053710938,17.97431182861328,0.8833719491958618,2.3604629039764404,-0.08051909506320953,,,,,,,,,
1739401399.8242798,-0.7069767797029094,0.6733980675421141,1.417504529377121,-1.8796398085687533,-0.7073818721984902,1.950119978036361,0.18502827168728625,-0.0003298266646443039,-0.0009845318230225768,0.0001334380042609438,-0.0005601162265477201,-0.00017213847199731857,0.0004345752710284293,0.0007200262354721257,0.2689092457294464,-23.53818130493164,19.450180053710938,17.94654083251953,0.8961893320083618,2.3604629039764404,-0.13361968100070953,,,,,,,,,
1739401399.835212,-0.706974803911708,0.6734034905248718,1.4175014605876401,-1.8796398086737247,-0.707381338594996,1.950120735857944,0.18502751456892452,0.000826182068097268,0.0009318268291521354,-0.0009586167334847237,0.0005312269228785099,0.0005740908427344194,-0.0004623196444548205,-0.0008971784243571938,0.2411382496356964,-23.61355972290039,19.477951049804688,17.94654083251953,0.8833719491958618,2.3540542125701904,-0.12721098959445953,,,,,,,,,
1739401399.8452213,-0.7069758607030839,0.6733993865532366,1.417498441649388,-1.8796419685582382,-0.7073838418293577,1.9501183146036352,0.18502275159243892,6.112556594708085e-05,-0.0008042943202135114,-0.0006174594210871583,-0.00013877528167361631,0.0003761170195837097,-0.000588707680329287,-0.0002863236351864885,0.2689092457294464,-23.58578872680664,19.501754760742188,17.97431182861328,0.8897806406021118,2.3476455211639404,-0.08692778646945953,,,,,,,,,
1739401399.8552692,-0.7069748077477591,0.6734034125970821,1.4174996504008364,-1.8796440276790614,-0.7073853532281638,1.9501199781440315,0.185028232196143,-7.1969860814507635e-06,0.0008422524287544024,-0.0011031462988668173,-0.0007817369470367846,-0.0018505390766686437,2.8265032551079753e-05,0.00033477880688273775,0.2411382496356964,-23.61355972290039,19.501754760742188,17.97431182861328,0.8897806406021118,2.3604629039764404,-0.13361968100070953,,,,,,,,,
1739401399.8653672,-0.7069767190366821,0.6734034944481377,1.4175045292428146,-1.8796445895298743,-0.7073852411688849,1.9501199723836646,0.18502211256762735,0.00036797602200054733,0.0008689753011301019,0.0010422582630913646,-0.001312710744787894,-0.0015095714102387348,-1.6671395593918805e-05,0.00016746567568029383,0.2689092457294464,-23.61355972290039,19.450180053710938,17.99811553955078,0.8897806406021118,2.3604629039764404,-0.08051909506320953,,,,,,,,,
1739401399.876225,-0.7069748077632736,0.6734014851897768,1.417500666868523,-1.879642205854153,-0.7073831061353901,1.9501199781978338,0.1850287455816749,-0.00010845973489265518,-0.0004035831731984216,0.00044802857111674835,-0.00039179050725546413,-0.0006837993931866921,0.0004376379545042562,0.0017642934258404637,0.2411382496356964,-23.58578872680664,19.501754760742188,17.97431182861328,0.8833719491958618,2.3604629039764404,-0.13361968100070953,,,,,,,,,
1739401399.8862784,-0.706976796930825,0.673403611066756,1.4174960230537184,-1.8796421944816604,-0.707380695892042,1.9501207358579449,0.18502513281784427,-0.00016384154367621268,0.00024577730134938184,-0.0015712961413973329,-0.0008699587269197284,0.001354592894075705,0.0003849713877319031,-0.00035089143176580777,0.2689092457294464,-23.58578872680664,19.529525756835938,17.97431182861328,0.8897806406021118,2.3540542125701904,-0.10706938803195953,,,,,,,,,
1739401399.8963003,-0.7069723932326223,0.6734018957640749,1.4174995832410775,-1.8796425812227364,-0.7073809848959975,1.9501207358579449,0.18503020595808134,0.0013677533212855457,-0.0003619031634335692,-0.0008784874565043303,-0.00015302488586790917,-0.0004442946715075705,-0.0001540792313017333,0.00013563016177210957,0.2173345386981964,-23.58578872680664,19.501754760742188,17.97431182861328,0.8833719491958618,2.3540542125701904,-0.14094389975070953,,,,,,,,,
1739401399.9072134,-0.7069748048708688,0.6733997800655634,1.4175014595640376,-1.8796439556366658,-0.7073802440752059,1.9501220574372045,0.18502407243805474,-0.00017129835701168298,-0.0013498924093671909,0.000169678671586001,-0.0008895843125292134,-0.000162539848746333,0.001115780304257861,-9.112600959124454e-06,0.2411382496356964,-23.56198501586914,19.477951049804688,17.97431182861328,0.8833719491958618,2.3339126110076904,-0.12080229818820953,,,,,,,,,
1739401399.9182024,-0.7069748077637464,0.6734052020826259,1.4175003830222566,-1.8796440351132464,-0.707379133252071,1.9501223594092738,0.1850290894540359,0.0006248830835508191,0.0007309163621559713,-0.001131647569047475,-0.0014031734202899695,0.0014903653201451296,0.0011764201488981014,0.001277569063937279,0.2411382496356964,-23.63736343383789,19.501754760742188,17.97431182861328,0.8769632577896118,2.3403213024139404,-0.11347807943820953,,,,,,,,,
1739401399.9282987,-0.7069748077637629,0.6734034905248555,1.417502367162121,-1.8796398096548879,-0.707380945487834,1.9501207358579447,0.18502827239152128,0.00010702918167723589,0.0008789688338001651,0.00017418103569329132,0.0005558459556033613,0.00017849576304474718,6.336300734563127e-05,0.00032835908565918967,0.2411382496356964,-23.61355972290039,19.477951049804688,17.94654083251953,0.8833719491958618,2.3540542125701904,-0.13361968100070953,,,,,,,,,
1739401399.93929,-0.7069767797042358,0.673403244965727,1.4175045170497418,-1.8796418883586077,-0.707384882552713,1.9501207358579449,0.1850223493526446,-0.0003450245698649784,0.00048323934935794465,-0.00039134801649142614,0.00047413537614489186,8.975919031774506e-05,1.2296408133417415e-05,-0.0014149453182301253,0.2689092457294464,-23.61355972290039,19.450180053710938,17.97431182861328,0.8897806406021118,2.3540542125701904,-0.08051909506320953,,,,,,,,,
1739401399.9502513,-0.7069748074426238,0.6733980674341725,1.4175046352237726,-1.8796390293124547,-0.707382187203988,1.9501214935180233,0.18502817821280776,0.0008064886742781243,-0.001309480675816827,0.00038129774276857403,0.0004802612711099103,-0.001728418465707937,0.0010498807415756802,5.11508983917859e-05,0.2411382496356964,-23.53818130493164,19.450180053710938,17.92273712158203,0.8897806406021118,2.3476455211639404,-0.12080229818820953,,,,,,,,,
1739401399.96128,-0.7069784922249616,0.6734014965086025,1.4175025291668961,-1.879643747687013,-0.7073800173413061,1.9501167992834785,0.18502373598717095,-0.000946521279789796,0.00035808727310916613,-0.0005757350352123783,-0.0007635312932914212,3.461258746485918e-05,-0.0005432066730402508,-0.001643671890620983,0.2927129566669464,-23.58578872680664,19.477951049804688,17.99811553955078,0.8833719491958618,2.3604629039764404,-0.09425200521945953,,,,,,,,,
1739401399.9722562,-0.7069755143526578,0.6733997908740749,1.4175006761601794,-1.8796419773223845,-0.7073850448600897,1.9501223594092738,0.18503026595957572,0.00022398915367129434,-3.953056181984829e-05,-0.0006802997432548579,-0.0005101765638617975,-0.0008770732318352503,0.0005279388495286144,0.001979323474761439,0.2411382496356964,-23.56198501586914,19.501754760742188,17.94654083251953,0.8897806406021118,2.3403213024139404,-0.14735259115695953,,,,,,,,,
1739401399.9831767,-0.7069730981904595,0.6734015720569394,1.4175047707351538,-1.8796425666145198,-0.7073819100732736,1.9501199781978666,0.18502513427454645,0.0006855325153864189,0.001155288683941145,0.0007680997030316853,0.0002600141625565583,0.00011192718609381272,9.012673291524431e-05,-0.0004407734212364291,0.2173345386981964,-23.58578872680664,19.450180053710938,17.94654083251953,0.8641458749771118,2.3604629039764404,-0.10706938803195953,,,,,,,,,
1739401399.9933138,-0.7069768057046657,0.6733980662599327,1.4175024499143638,-1.8796419528039487,-0.7073838226583644,1.9501199258700577,0.185025890469922,-0.0007741039355807764,-0.0019359411994059497,0.0005479634638589431,-1.3258039508236378e-05,0.0004871079727892158,-0.00043505574213118816,-0.0012725685256307412,0.2689092457294464,-23.53818130493164,19.477951049804688,17.94654083251953,0.8897806406021118,2.3604629039764404,-0.11347807943820953,,,,,,,,,
1739401400.004217,-0.7069768057046159,0.6734034902038721,1.4175024495832294,-1.8796400504866042,-0.7073841244739179,1.9501207358576496,0.1850243751497405,-0.00011129713543468991,0.0012403055535026165,0.0009801175790501904,-0.0014519910616305927,-0.0015299635092113964,0.00043557124069727076,0.00014008620459185497,0.2689092457294464,-23.61355972290039,19.477951049804688,17.94654083251953,0.8833719491958618,2.3540542125701904,-0.10066069662570953,,,,,,,,,
1739401400.0142937,-0.7069768057046159,0.6734034905248664,1.4175006665670467,-1.8796485271760546,-0.7073808199455752,1.9501214935180233,0.1850243751497405,-0.0002598217712294406,0.0008144767673101117,-0.00068521346488061,-0.0022177281319339538,-0.0008725826327757128,0.0008803119863002351,-0.0015494421406015845,0.2689092457294464,-23.61355972290039,19.501754760742188,18.02191925048828,0.8897806406021118,2.3476455211639404,-0.10066069662570953,,,,,,,,,
1739401400.0243566,-0.7069745477599626,0.6734014662626463,1.4175004071083221,-1.8796408182703261,-0.7073802395498334,1.9501192205377882,0.18502675636712956,0.0001270467985400259,-0.0007053103817075651,-0.00045826645487091744,-0.00029274601925720096,0.00033421859885908396,0.0003480771452955548,0.00013052509570921945,0.2411382496356964,-23.58578872680664,19.501754760742188,17.92273712158203,0.8833719491958618,2.3668715953826904,-0.12080229818820953,,,,,,,,,
1739401400.0352485,-0.7069784922234993,0.6733997797421465,1.4175006394326422,-1.8796371952695434,-0.7073800359421185,1.9501199781978666,0.18502989529876868,-0.0012447871726475016,-0.0015901599964146147,0.0012626348995838864,0.0013949994555378683,0.00014273141376529893,-0.00015302373117217897,0.0004443537335021894,0.2927129566669464,-23.56198501586914,19.501754760742188,17.89893341064453,0.8833719491958618,2.3604629039764404,-0.14735259115695953,,,,,,,,,
1739401400.0461853,-0.7069748077636161,0.6734096287629228,1.417499563612965,-1.879641874868473,-0.707380682971742,1.9501199781978666,0.1850212494359878,1.6324305151635258e-05,0.0022101367016525964,0.0005539475216811716,-0.0006664819164310923,0.0002456193396223024,-0.00045750307582403954,-0.001142362269114848,0.2411382496356964,-23.68893814086914,19.501754760742188,17.94654083251953,0.8897806406021118,2.3604629039764404,-0.07411040365695953,,,,,,,,,
1739401400.0562747,-0.7069748077637629,0.6734034905369847,1.417499883989211,-1.8796425799928016,-0.7073846410591642,1.9501192205377882,0.18503065290489829,-0.0005008857679509577,-1.1216819227094049e-05,-0.00021550414602681297,0.00014289543025639402,-0.0006009429389626273,-0.0005543203425003667,0.0013825654008278484,0.2411382496356964,-23.61355972290039,19.501754760742188,17.97431182861328,0.8833719491958618,2.3668715953826904,-0.15376128256320953,,,,,,,,,
1739401400.0672193,-0.7069741057535022,0.6734044923685489,1.4174999221026428,-1.8796400386696543,-0.7073811045975907,1.9501205788745182,0.18503100832496455,0.0005786333997094213,0.00013157709061719378,-0.0008946026511444472,0.0020573166149052287,-0.0007811848289231046,-0.0007696988094817995,0.0010775000689718026,0.2411382496356964,-23.63736343383789,19.501754760742188,17.94654083251953,0.8833719491958618,2.3540542125701904,-0.15376128256320953,,,,,,,,,
1739401400.0772223,-0.7069748048629431,0.6733978335271006,1.417500666893595,-1.8796422069143983,-0.7073832363035756,1.9501207358552863,0.185023621883586,0.0011901765520504275,-0.0018527095715363687,-0.0005276982432776411,0.00017406924458895077,0.0009274918815555029,0.00042167758829518955,-0.0013909258670145078,0.2411382496356964,-23.53818130493164,19.501754760742188,17.94654083251953,0.8833719491958618,2.3540542125701904,-0.09425200521945953,,,,,,,,,
1739401400.0882127,-0.7069770441231785,0.6733979124497634,1.417504492743617,-1.879640500181492,-0.7073783751243672,1.95011846287771,0.1850236177063736,-0.00033461201210365063,0.0001389768698396316,0.0003386922354473385,0.00021724249271316484,0.0016414457594381856,-0.0002932774536590545,-0.0018839689213001553,0.2689092457294464,-23.56198501586914,19.450180053710938,17.94654083251953,0.8705545663833618,2.3732802867889404,-0.09425200521945953,,,,,,,,,
1739401400.098238,-0.7069730926851869,0.673401492445393,1.417500666905588,-1.879642579969521,-0.7073841263402811,1.9501223594152557,0.18502518985258495,0.0010240374541733578,-0.000577976553714764,-0.0009437215568791411,-0.0006863579093430207,0.0006460482114147604,0.00083395186263184,4.014155142321611e-05,0.2173345386981964,-23.58578872680664,19.501754760742188,17.97431182861328,0.8833719491958618,2.3403213024139404,-0.10706938803195953,,,,,,,,,
1739401400.1092715,-0.7069745737603281,0.6733997800632866,1.4175046206196997,-1.879639808677629,-0.7073834845574007,1.9501199389520099,0.1850212757637383,-0.0003373365806001681,-0.0002177230845237216,-0.0007105144479105717,0.00018348961602430284,0.0014842872741395606,-0.00043596462653623376,-0.001586350668482416,0.2411382496356964,-23.56198501586914,19.450180053710938,17.94654083251953,0.8769632577896118,2.3604629039764404,-0.07411040365695953,,,,,,,,,
1739401400.1202204,-0.7069767280292035,0.6734034944494575,1.4175066751408103,-1.8796398088836825,-0.7073846013527144,1.9501192205375666,0.18502371112888488,-0.00021797236669884035,0.000923408772781193,0.0009052747501432601,0.0005424158905237489,-0.0013300242121101562,-0.0006693604277935159,-0.0027977059558723116,0.2689092457294464,-23.61355972290039,19.450180053710938,17.94654083251953,0.8833719491958618,2.3668715953826904,-0.10706938803195953,,,,,,,,,
1739401400.1302493,-0.7069748077624474,0.6733976740325719,1.4175055095746916,-1.879643954757938,-0.7073845364827357,1.9501192205377882,0.18502900143996373,0.00020992362936709367,-0.0008730826043346953,-4.72481005382482e-05,-0.0009320750979677066,0.00026529467864419185,-0.000591762858556433,0.001061465448106137,0.2411382496356964,-23.56198501586914,19.450180053710938,17.97431182861328,0.8833719491958618,2.3668715953826904,-0.10066069662570953,,,,,,,,,
1739401400.1402895,-0.7069730952430315,0.67339975395591,1.4175006669560077,-1.8796446435227219,-0.707382756180684,1.9501199781978666,0.18502137253236192,0.00016691079142000498,6.823999329121796e-05,-0.0008027873297862326,-0.0010847552750525076,0.0009599589427727824,-0.0004079063921390212,1.3846095181996917e-06,0.2173345386981964,-23.56198501586914,19.501754760742188,17.97431182861328,0.9035135507583618,2.3604629039764404,-0.07411040365695953,,,,,,,,,
1739401400.151253,-0.7069768057046159,0.673403490512934,1.4175006669062085,-1.8796425891778668,-0.7073823639727592,1.9501199781978666,0.1850298952629106,-0.0008877469077156452,0.000822493483527028,-0.0012467685122210764,-0.00036043071786283256,0.0005487097851581805,-3.353865545289547e-05,0.00090164523616845,0.2689092457294464,-23.61355972290039,19.501754760742188,17.94654083251953,0.8769632577896118,2.3604629039764404,-0.14735259115695953,,,,,,,,,
1739401400.1622179,-0.7069741057535022,0.6733997570063465,1.4174950217623148,-1.8796407809979534,-0.7073841396384594,1.9501192205377882,0.1850291526984133,0.0009927811728725634,-0.0007093237916064209,-0.0015071170659624663,0.0011456606697016012,-0.0018580750153538376,6.041751565009435e-05,0.001292108908991234,0.2411382496356964,-23.56198501586914,19.577133178710938,17.92273712158203,0.8833719491958618,2.3668715953826904,-0.14094389975070953,,,,,,,,,
1739401400.173255,-0.7069768057006529,0.6734035935996234,1.4175015979481385,-1.879642113390096,-0.7073823121884496,1.9501175569435567,0.18502913823466394,-0.0004364487080182678,-4.559258044903753e-05,0.0009298410139423625,-7.805651559035042e-05,0.0013431560517606059,-0.00033166004883707865,0.0021191836405033263,0.2689092457294464,-23.61355972290039,19.477951049804688,17.94654083251953,0.8769632577896118,2.3540542125701904,-0.14094389975070953,0,0,0,0.000,0,0
1739401400.1841931,-0.706978440224207,0.6734026410864306,1.417499454105278,-1.8796418884679171,-0.7073826673914863,1.950120735851963,0.18503015551336896,-0.0006291412919467344,0.00012923406577053202,-0.0009046401422144146,0.0009422427400839212,0.0007841516696225086,0.000596947215308858,-0.0010870554793269399,0.2927129566669464,-23.56198501586914,19.477951049804688,17.97431182861328,0.8705545663833618,2.3540542125701904,-0.11347807943820953,0,0,0,0.000,0,0
1739401400.194278,-0.7069719994004068,0.6734023950530118,1.41750033707723,-1.8796437590077135,-0.7073811339134147,1.9501207358579447,0.18502397314469524,0.0015655887309442619,-0.00020137727650884147,-0.0005553524001185263,-0.00036587976692470104,0.0003909295080399856,0.0004975902791382635,-0.0006922654030475706,0.2411382496356964,-23.63736343383789,19.501754760742188,17.99811553955078,0.8897806406021118,2.3540542125701904,-0.09425200521945953,0,0,0,0.000,0,0
1739401400.205243,-0.7069768056887625,0.673402001835999,1.4175006667536079,-1.8796457373304696,-0.7073813175993796,1.95011846287771,0.18503148954032267,-0.0006162373537426283,-0.0013257275637973468,0.0011493741903791422,-0.0011321114447971864,-0.0005620763396007331,-0.0001237599591275971,0.000639644639076957,0.2689092457294464,-23.56198501586914,19.501754760742188,17.99811553955078,0.8833719491958618,2.3732802867889404,-0.13361968100070953,0,0,0,0.000,0,0
1739401400.216253,-0.7069746999103342,0.6734044707277673,1.4175006258676373,-1.879642815249909,-0.7073814621683547,1.9501207358579449,0.18502199983738576,0.0011645477753638122,0.0006793383557989406,-0.00047671846316984357,-0.0006640894501791123,-0.0007005737394508767,0.0006303452582825221,-0.001719397259958395,0.2411382496356964,-23.61355972290039,19.501754760742188,17.97431182861328,0.8833719491958618,2.3540542125701904,-0.08051909506320953,0,0,0,0.000,0,0
1739401400.2262836,-0.7069744941421919,0.6734079162477266,1.4174998566539307,-1.8796398085739785,-0.7073796384484105,1.9501183146036352,0.18502589063244548,0.0005172368966370805,0.0015294227155381972,-0.0007542484649741258,0.0004680288204302924,0.000907007631310254,-0.0005053168308938123,-0.0004164791824266151,0.2411382496356964,-23.66513442993164,19.477951049804688,17.94654083251953,0.8769632577896118,2.3476455211639404,-0.11347807943820953,0,0,0,0.000,0,0
1739401400.237279,-0.7069758687261875,0.6734072098208114,1.4174981944026028,-1.879642806711647,-0.707383593051649,1.9501199781260863,0.1850259503750336,0.00023843303707206674,0.00164871163009304,-0.000897317435547264,-0.00045736954121809205,0.00033070528496086587,-0.00026854722470394816,-0.0009255220159851894,0.2689092457294464,-23.66513442993164,19.501754760742188,17.97431182861328,0.8833719491958618,2.3604629039764404,-0.08692778646945953,0,0,0,0.000,0,0
1739401400.2481847,-0.7069767276981865,0.6734044461797002,1.4175044927296596,-1.8796401716950784,-0.7073814183970222,1.9501181606843174,0.18502990397556698,-0.0005148441031763858,0.001254344532857416,0.00020210109413848175,0.001821707641983166,-0.00017079395853299425,-0.0010281219902053104,0.0005440299283829221,0.2689092457294464,-23.61355972290039,19.450180053710938,17.92273712158203,0.8833719491958618,2.3668715953826904,-0.12080229818820953,0,0,0,0.000,0,0
1739401400.2582648,-0.7069768028117216,0.673401847825743,1.417502449581366,-1.8796407273457456,-0.7073796003108319,1.950119220483942,0.18502767263924094,-0.0008518158922707107,0.00021731538195842587,-0.0006715424779716928,0.0011418584308261828,0.001364552459835613,-0.0005097547564498571,0.0014137135878289925,0.2689092457294464,-23.58578872680664,19.477951049804688,17.94654083251953,0.8705545663833618,2.3668715953826904,-0.12721098959445953,0,0,0,0.000,0,0
1739401400.2702847,-0.7069747297626173,0.6734034655063066,1.4175080825172992,-1.8796439016753972,-0.7073796565483965,1.9501223594152555,0.18502831173850182,0.0006868247809566886,0.00020573388765399029,0.0009977306325422586,0.0019603949212947695,0.000358307677253836,0.0008408482894081526,0.0016237452848500353,0.2411382496356964,-23.61355972290039,19.402572631835938,17.99811553955078,0.8769632577896118,2.3403213024139404,-0.13361968100070953,0,0,0,0.000,0,0
1739401400.2812932,-0.7069727812054002,0.6734056366189912,1.4175024495831585,-1.879638944665989,-0.7073832408080749,1.9501214935180233,0.18502844281579972,0.0007860739875052978,0.001127748562538517,0.0005826715530722074,0.0005890252771196855,0.0005433379621576788,0.0010511520961739042,0.0009860768938572389,0.2411382496356964,-23.61355972290039,19.477951049804688,17.92273712158203,0.8833719491958618,2.3476455211639404,-0.13361968100070953,0,0,0,0.000,0,0
1739401400.2922177,-0.7069768057008025,0.6734002133138064,1.4174995794392504,-1.879641876241214,-0.7073837249856988,1.9501199781978666,0.18502630581370114,-0.000668158434885113,8.005130164209274e-05,-0.0005573541778882282,0.00019417751347527228,-0.0004689319227861242,-0.0002643931739428713,0.00011823597241096659,0.2689092457294464,-23.53818130493164,19.477951049804688,17.94654083251953,0.8769632577896118,2.3604629039764404,-0.08692778646945953,0,0,0,0.000,0,0
1739401400.3031812,-0.7069768057046159,0.6734034915181311,1.4175035403612937,-1.8796400754710858,-0.7073837698314337,1.9501214935180233,0.18503001812599523,0.00022322696353492332,0.0007660709988413523,-8.925485774158835e-05,-0.0002114044560355663,0.0007159640505976263,0.0008130482817899906,0.0003035802573958414,0.2689092457294464,-23.61355972290039,19.450180053710938,17.94654083251953,0.8769632577896118,2.3476455211639404,-0.14735259115695953,0,0,0,0.000,0,0
1739401400.3131828,-0.7069730923541006,0.6734014925840355,1.4175024495664785,-1.8796449079684028,-0.7073854113946164,1.9501160416234,0.18503065339430133,0.0008959341303238365,-0.0002030783537884023,6.331307368816766e-05,-0.001858223971594537,-0.0008188359848103407,-0.0008364914067078563,0.0032874416855823195,0.2173345386981964,-23.58578872680664,19.477951049804688,17.97431182861328,0.8897806406021118,2.3668715953826904,-0.15376128256320953,0,0,0,0.000,0,0
1739401400.3232434,-0.7069748430849848,0.6734034905248718,1.4174999238028707,-1.8796437083541713,-0.7073814224944791,1.950119624769816,0.18502769240578146,-5.2501986486011955e-05,-0.0005358057197858975,-0.0003925284023019583,-0.001623837411813868,-0.00013727072581708156,-0.00023547515066911273,-0.000761107504504961,0.2411382496356964,-23.61355972290039,19.501754760742188,17.99811553955078,0.8833719491958618,2.3604629039764404,-0.10066069662570953,0,0,0,0.000,0,0
1739401400.3342586,-0.7069782841151288,0.6734014925840187,1.417502119913837,-1.8796398199066486,-0.7073846367065196,1.9501188280772266,0.18502815377429915,-0.0010549459674195156,-0.0008119064499225827,0.0006078784838083039,0.0010277880930982105,-2.827072174240855e-05,-0.00017411289013210377,0.001475303191509735,0.2927129566669464,-23.58578872680664,19.477951049804688,17.94654083251953,0.8833719491958618,2.3668715953826904,-0.13361968100070953,0,0,0,0.000,0,0
1739401400.3442929,-0.7069730952390669,0.6734034905248718,1.4175004185211895,-1.879640038879937,-0.7073810541373452,1.9501199781912202,0.185023578159037,0.0005525088816121396,0.00014647213108744946,-0.0005379205424643638,0.00011817122390454649,-0.000813699730946511,-0.000706221652738128,-0.0018358294484043729,0.2173345386981964,-23.61355972290039,19.501754760742188,17.94654083251953,0.8897806406021118,2.3604629039764404,-0.09425200521945953,0,0,0,0.000,0,0
1739401400.3552678,-0.7069768057046159,0.6734051250444628,1.417500657408278,-1.8796398173882511,-0.7073806723467366,1.9501199781440315,0.18502342942706063,-0.0003989090942248106,9.843545156659121e-06,5.951955248539078e-05,0.001618991037980615,0.0008006677200963863,0.00039882805045359936,-0.0009773209623740687,0.2689092457294464,-23.63736343383789,19.501754760742188,17.94654083251953,0.8769632577896118,2.3604629039764404,-0.08051909506320953,0,0,0,0.000,0,0
1739401400.3663423,-0.7069748074427705,0.6734052029372845,1.41749967791046,-1.8796401011094122,-0.7073793047412932,1.9501199781978658,0.18502827236165645,0.000533563479527203,0.0016316987320355017,0.0003238678313434328,0.0021814812726535663,0.0013747620581729975,0.00035984683312163,0.0002793918016397454,0.2411382496356964,-23.63736343383789,19.501754760742188,17.92273712158203,0.8769632577896118,2.3604629039764404,-0.13361968100070953,0,0,0,0.000,0,0
1739401400.37725,-0.7069785182253464,0.6734014896950874,1.4175025545151327,-1.8796374216139697,-0.70738338194186,1.9501199781978666,0.18502930876697898,-0.0010044877110795924,-0.00017687924685048142,0.0008911311866743237,0.0019468123976194795,0.00029619009333431217,0.0004574149605935219,0.0003550398851966904,0.2927129566669464,-23.58578872680664,19.477951049804688,17.92273712158203,0.8769632577896118,2.3604629039764404,-0.14094389975070953,0,0,0,0.000,0,0
1739401400.3881748,-0.7069769887095825,0.6734014935651488,1.4174985840644898,-1.8796398879291785,-0.707383542860991,1.9501207358579449,0.18502600894429325,-0.0011930139772034114,-0.0010274150909398664,-0.0001495917955868241,0.00038213288988313564,3.3336582977202585e-05,0.0004698546983276143,0.0009519536978564368,0.2411382496356964,-23.58578872680664,19.529525756835938,17.94654083251953,0.8769632577896118,2.3540542125701904,-0.11347807943820953,0,0,0,0.000,0,0
1739401400.3982852,-0.7069765692501168,0.673404444199238,1.4174985779588314,-1.8796418968659026,-0.7073837381061759,1.9501207358579449,0.18502361749568128,-0.00045811625763979513,0.0006200620891153642,-0.002020836018107433,-0.0008510131476397362,-1.5596059758603276e-06,-1.940158913904442e-05,-0.001663739276135977,0.2689092457294464,-23.61355972290039,19.529525756835938,17.97431182861328,0.8769632577896118,2.3540542125701904,-0.09425200521945953,0,0,0,0.000,0,0
1739401400.409258,-0.7069746987095219,0.6733998184787362,1.4175025290560355,-1.8796399201960696,-0.7073854111805273,1.9501207358579449,0.18502235569072537,0.000565854890396984,-0.00037030782301332617,0.0009201769108945232,0.0007691022663552293,-0.0010827350272350589,-0.0003546640154644321,-0.0012789292026731897,0.2689092457294464,-23.56198501586914,19.477951049804688,17.94654083251953,0.8897806406021118,2.3540542125701904,-0.08051909506320953,0,0,0,0.000,0,0
1739401400.4202447,-0.706976779581385,0.673398147342537,1.417504529335548,-1.8796381062005882,-0.7073832282884083,1.9501199781978666,0.1850289488727599,8.76217699572977e-05,-0.0014766401611292996,0.0008472790688629039,0.0012638852282409983,-0.0003143902607246857,-0.0005705493789321164,0.00092108115757815,0.2689092457294464,-23.53818130493164,19.450180053710938,17.92273712158203,0.8833719491958618,2.3604629039764404,-0.12721098959445953,0,0,0,0.000,0,0
1739401400.431261,-0.7069748077279495,0.6733998065546912,1.4175062846870183,-1.8796418776979749,-0.7073814229709546,1.9501214935180233,0.18502751408947932,-0.0008143500846142292,-0.00022082990406568893,0.002185730798892084,0.00015038007754540915,-5.7508546297687404e-05,0.0007939993176116849,0.002910372087526617,0.2411382496356964,-23.56198501586914,19.426376342773438,17.94654083251953,0.8833719491958618,2.3476455211639404,-0.12721098959445953,0,0,0,0.000,0,0
1739401400.4421818,-0.7069768066500962,0.6734034905613601,1.417502449583073,-1.8796440652071305,-0.7073838965428821,1.950119624985157,0.1850301181522706,-0.0008661308734054666,0.0010222938331281722,-0.0012540330788648251,-0.0010431901899915017,-0.0006460470939231226,-0.000750139860006295,-0.00017051490064679355,0.2689092457294464,-23.61355972290039,19.477951049804688,17.97431182861328,0.8769632577896118,2.3604629039764404,-0.12080229818820953,0,0,0,0.000,0,0
1739401400.4541879,-0.7069768057046212,0.6734034915060184,1.4175066374933438,-1.8796444079858416,-0.7073807132860838,1.950120735855951,0.1850338519229423,0.00023018494939724068,0.001073309694951049,0.0006421183893628853,-2.1171531695222238e-05,0.0006455212237350875,0.00042344803922594214,0.002657828783078604,0.2689092457294464,-23.61355972290039,19.450180053710938,17.97431182861328,0.8769632577896118,2.3540542125701904,-0.15376128256320953,0,0,0,0.000,0,0
1739401400.4642608,-0.7069767275964783,0.6733997541719292,1.4175006669544477,-1.8796422210850927,-0.7073827458861562,1.9501213757804534,0.18502677389554933,-1.4998751076130195e-05,-0.00011600094148239931,-0.00013206718386993944,-0.0008972871519208224,1.7206691006494128e-05,0.0003214862279594285,-0.0001299526679082681,0.2689092457294464,-23.56198501586914,19.501754760742188,17.97431182861328,0.8705545663833618,2.3476455211639404,-0.08051909506320953,0,0,0,0.000,0,0
1739401400.4762154,-0.7069785183339224,0.6734033864162081,1.4175006841630802,-1.8796419903997073,-0.7073846150828149,1.950119972383001,0.18502751459590758,-0.000529389450160487,-0.0007092743209154176,-0.00015386290761644212,1.3646556631351212e-05,-0.0009084819505965239,-7.872918515481909e-05,-0.0005520843369016904,0.2927129566669464,-23.61355972290039,19.501754760742188,17.97431182861328,0.8833719491958618,2.3604629039764404,-0.12721098959445953,0,0,0,0.000,0,0
1739401400.4862502,-0.7069748077637634,0.6734059183007525,1.4175024495833248,-1.8796398085693222,-0.7073830996011314,1.9501199781978338,0.18502513297233703,4.322737923732365e-05,0.0016234450719048988,-0.001071636795037134,0.0008265424675650568,-0.001099489381005953,-0.0002546562758443735,-0.0004814682526644261,0.2411382496356964,-23.63736343383789,19.477951049804688,17.94654083251953,0.8705545663833618,2.3604629039764404,-0.10706938803195953,0,0,0,0.000,0,0
1739401400.4972456,-0.706977515236999,0.6734014925880564,1.4175045191605469,-1.879639911552781,-0.7073828369227714,1.9501192205377882,0.18503072597352616,-0.0004421274849232211,-0.0011963286978275076,0.0010204110470968131,0.0010235945995497602,-0.000710750124901338,-0.0003055289234469512,0.0006201391525600949,0.2689092457294464,-23.58578872680664,19.450180053710938,17.94654083251953,0.8769632577896118,2.3668715953826904,-0.12721098959445953,0,0,0,0.000,0,0
1739401400.5072913,-0.7069767017151117,0.6734052040267494,1.4174999160019783,-1.8796476220479634,-0.707385410409784,1.9501199781978666,0.18502199983728573,0.00010126417002141334,0.0005910891861544326,-0.0008771606302786449,-0.0018124871677615128,-0.001564996913923601,-2.0106977293900198e-05,-0.002054867224496053,0.2689092457294464,-23.63736343383789,19.501754760742188,18.02191925048828,0.8897806406021118,2.3604629039764404,-0.08051909506320953,0,0,0,0.000,0,0
1739401400.5182164,-0.7069748077620018,0.6734017310026144,1.417502308285427,-1.8796466570844617,-0.7073846535751538,1.9501199781978666,0.18502675636722954,-0.00015405925117589878,-0.0002100318147438186,0.0008287905367274334,-0.001992379210019296,4.3681616138619695e-05,0.0005406029856941519,-0.0005700701755541952,0.2411382496356964,-23.58578872680664,19.477951049804688,17.99811553955078,0.8833719491958618,2.3604629039764404,-0.12080229818820953,0,0,0,0.000,0,0
1739401400.529181,-0.7069768057046159,0.6733997928670912,1.4174965446411874,-1.8796436965510464,-0.7073796399199788,1.9501199781260863,0.18502839064826096,-0.00038377657961427824,6.359062564869537e-05,-0.0006348502221161925,-0.000250308350375062,-6.4263320908499255e-06,-0.00013995536332344981,4.552725551203911e-05,0.2689092457294464,-23.56198501586914,19.553329467773438,17.99811553955078,0.8769632577896118,2.3604629039764404,-0.13361968100070953,0,0,0,0.000,0,0
1739401400.5392926,-0.7069713856657397,0.673398818120215,1.4174998881776908,-1.8796407621959073,-0.7073838963448629,1.950120735857941,0.1850260688545063,0.001148259212548125,-0.0006830159100742431,-0.0003312907295531045,-0.00044259689892281473,-0.0007558318757742589,0.00025543132460779336,-0.0011025441873685005,0.1935308277606964,-23.53818130493164,19.501754760742188,17.94654083251953,0.8769632577896118,2.3540542125701904,-0.08692778646945953,0,0,0,0.000,0,0
1739401400.5503154,-0.7069748039118602,0.6734056403270979,1.417502449091862,-1.8796418969686435,-0.7073854113967621,1.9501199781978666,0.1850282385194378,0.0001091598977184269,0.0001673365596307514,0.00011933808200849391,0.0004014410202059317,-0.0010058992253555907,0.0003763472212366054,0.0005130339329829385,0.2411382496356964,-23.61355972290039,19.477951049804688,17.97431182861328,0.8897806406021118,2.3604629039764404,-0.09425200521945953,0,0,0,0.000,0,0
1739401400.5612955,-0.706974781763361,0.6734015027710061,1.417500657748839,-1.879641883401409,-0.7073838834253324,1.9501192205377882,0.18502619925928732,0.0008445254817339502,0.0005829698556813101,-0.00107719475778257,0.00016670366504725504,-0.00021491579718462206,0.0005774776081544409,0.00018062203929207078,0.2411382496356964,-23.58578872680664,19.501754760742188,17.94654083251953,0.8769632577896118,2.3668715953826904,-0.10706938803195953,0,0,0,0.000,0,0
1739401400.5722728,-0.7069748077636161,0.6733980675426138,1.4175049841525647,-1.8796405005995802,-0.7073807045647083,1.9501199781978666,0.18502989963852196,0.00018993902298864077,-0.0010300902643709327,0.0006291456648854608,0.00045341578600691107,0.0005974460193240074,-0.00033866700836022307,0.0010407097336269417,0.2411382496356964,-23.53818130493164,19.450180053710938,17.94654083251953,0.8769632577896118,2.3604629039764404,-0.14735259115695953,0,0,0,0.000,0,0
1739401400.5823135,-0.7069747990969695,0.6734000989200428,1.4175004196650134,-1.8796401515456462,-0.7073835432943562,1.9501199738372157,0.18502377691694447,-3.056784198679876e-05,-0.0004768692867760199,-0.00136217400294974,0.0004965805688005439,-0.0006562150869010417,-0.00012932022005482317,-0.0009017926465138303,0.2411382496356964,-23.58578872680664,19.501754760742188,17.94654083251953,0.8769632577896118,2.3604629039764404,-0.09425200521945953,0,0,0,0.000,0,0
1739401400.5932577,-0.7069789514717788,0.6734034896993825,1.4175044927422213,-1.8796410105410608,-0.7073857680536035,1.9501207358579202,0.185023973127538,-0.0012287135867491872,0.0004838039296396452,0.0008473046393168586,0.0010234129750998026,-0.0017738475436634602,0.00042429304219624873,-0.00119309659023761,0.2689092457294464,-23.61355972290039,19.450180053710938,17.92273712158203,0.8897806406021118,2.3540542125701904,-0.09425200521945953,0,0,0,0.000,0,0
1739401400.6032846,-0.7069768055289785,0.6733997800632735,1.4175006268845047,-1.8796404987487978,-0.7073797772239266,1.9501207358579449,0.18502473496395724,-0.0007543975427139033,-0.0008810930383991927,-0.0014618665887506646,0.0003652592772885978,0.0012344482428631946,0.00030559499858488765,-0.000531000213070493,0.2689092457294464,-23.56198501586914,19.501754760742188,17.94654083251953,0.8769632577896118,2.3540542125701904,-0.10066069662570953,0,0,0,0.000,0,0
1739401400.614229,-0.7069745855340986,0.673398934735312,1.417502201994943,-1.8796418886774335,-0.7073796579315162,1.9501199777133498,0.18502831264309558,0.00011615429494535288,-0.0002823365540422977,-0.000377267609558201,0.00013572787465330474,0.000976997317949781,0.00021983137975924136,0.0005105825358946231,0.2411382496356964,-23.58578872680664,19.477951049804688,17.97431182861328,0.8769632577896118,2.3604629039764404,-0.13361968100070953,0,0,0,0.000,0,0
1739401400.6252465,-0.7069768057033613,0.6734044706757023,1.4175024495818298,-1.8796419904328234,-0.7073799144181547,1.950122359415253,0.1850275140274391,-0.0003152037984423273,0.0017884991295945547,0.0005490409339988731,-0.0003787426448270268,0.0003962403152472484,0.0012764702793826017,-0.0006391065796600958,0.2689092457294464,-23.61355972290039,19.477951049804688,17.97431182861328,0.8705545663833618,2.3403213024139404,-0.12721098959445953,0,0,0,0.000,0,0
1739401400.6352804,-0.7069747210958294,0.673399776555027,1.4175024455132867,-1.8796428067133757,-0.7073824209227889,1.9501207358579449,0.18502211289332612,0.0005608008448387003,-0.0008913291066686625,0.0004971153128515249,-0.0008633291345903262,0.0009298203090504207,-0.00022775691707577878,-0.0017920757681698062,0.2411382496356964,-23.56198501586914,19.477951049804688,17.97431182861328,0.8641458749771118,2.3540542125701904,-0.08051909506320953,0,0,0,0.000,0,0
1739401400.6462464,-0.7069748872351548,0.6734034905248123,1.4174993952273303,-1.879639846376605,-0.7073824835494499,1.9501207358579449,0.1850305599177501,-0.0007297181366682317,8.796081601486491e-05,-0.00018578160330010862,0.00018485740037249237,0.0018059363106714456,0.0009361422106470008,0.001738707152839604,0.2411382496356964,-23.61355972290039,19.501754760742188,17.94654083251953,0.8769632577896118,2.3540542125701904,-0.14094389975070953,0,0,0,0.000,0,0
1739401400.6572044,-0.7069748077639123,0.6734017402689806,1.41749858711396,-1.879642687665953,-0.7073816721692764,1.9501192205377882,0.18502503922766703,-4.43264562287854e-05,-0.0003845158210693926,-0.00021928521824383332,0.0002739369815779943,0.0004928847206366565,-0.00022993471421537803,-0.0004925525905959763,0.2411382496356964,-23.58578872680664,19.529525756835938,17.97431182861328,0.8568216562271118,2.3668715953826904,-0.09425200521945953,0,0,0,0.000,0,0
1739401400.6673222,-0.7069761046755015,0.6734075872355885,1.4175006664539926,-1.8796425809161528,-0.707383882835804,1.9501192205377882,0.1850264176145322,0.0008428131494578744,0.0011890919163860792,-2.303940067914879e-05,0.0006934958461599152,0.00030598125352165515,0.0002740306033837275,0.0009514066211188239,0.2689092457294464,-23.63736343383789,19.501754760742188,17.97431182861328,0.8769632577896118,2.3668715953826904,-0.08051909506320953,0,0,0,0.000,0,0
1739401400.6781917,-0.7069730952390743,0.6734034125371905,1.4174999770942565,-1.8796425427508319,-0.7073845364835536,1.9501181608996587,0.185025548864447,0.0013023879710786239,0.00042488021953683835,0.001221034852113549,0.0002699688602654269,-0.0006470516124083676,-2.4207612827548006e-05,-0.00027221773985582304,0.2173345386981964,-23.61355972290039,19.477951049804688,17.97431182861328,0.8833719491958618,2.3668715953826904,-0.08051909506320953,0,0,0,0.000,0,0
1739401400.6882496,-0.706974105753502,0.6734014955234957,1.4175078470134472,-1.8796398123812235,-0.7073838980268605,1.9501198211606048,0.18502930206778562,0.000791880232679391,0.0006481208805871314,0.002500915920393697,0.0012532564696603483,-0.00045395627704766214,-0.00016916397692787373,0.0019463585071549765,0.2411382496356964,-23.58578872680664,19.402572631835938,17.94654083251953,0.8769632577896118,2.3604629039764404,-0.14094389975070953,0,0,0,0.000,0,0
1739401400.6982625,-0.706976412190602,0.673401571093918,1.4174997127405935,-1.8796398117181266,-0.7073831930973199,1.9501181445373699,0.1850283888527994,-2.186412662684087e-05,-0.00012467244016890945,-0.0006492421411569588,0.0013874537665867566,-0.00013485035651916705,-0.0006459713389380022,0.0006925783517924536,0.2927129566669464,-23.58578872680664,19.501754760742188,17.94654083251953,0.8769632577896118,2.3476455211639404,-0.10706938803195953,0,0,0,0.000,0,0
1739401400.7082767,-0.7069768049260242,0.6733999399914828,1.417496324213171,-1.879644677430867,-0.7073804556936909,1.9501192203195672,0.18502692771307333,-7.029867331679609e-05,-0.00022340779189060323,-0.00207549341352338,-0.0006900471887216883,0.0009875917951772362,-0.0005390491177693571,0.0003693760205032839,0.2689092457294464,-23.56198501586914,19.529525756835938,17.97431182861328,0.8568216562271118,2.3668715953826904,-0.12080229818820953,0,0,0,0.000,0,0
1739401400.7192388,-0.7069768057046114,0.6734014925849215,1.4175045289834627,-1.8796418884093389,-0.7073835431809256,1.9501184628777086,0.1850267565306118,-0.000847282634586061,-0.0009993770168275089,0.0012906150154560437,0.00025092433419057807,-2.6334703440983342e-05,3.1123714167389106e-05,-0.0010913180546657255,0.2689092457294464,-23.58578872680664,19.450180053710938,17.97431182861328,0.8769632577896118,2.3732802867889404,-0.12080229818820953,0,0,0,0.000,0,0
1739401400.7302895,-0.7069748078001016,0.6734034905248718,1.4175014565176973,-1.879638026031699,-0.707384654165371,1.9501207358579449,0.18502823219614392,0.0001365999122401525,0.0012672108945235953,-0.0010953415941071418,0.0014939311877427293,-0.0003123519968568906,0.00015513724460486866,9.439045948544207e-06,0.2411382496356964,-23.61355972290039,19.477951049804688,17.92273712158203,0.8833719491958618,2.3540542125701904,-0.13361968100070953,0,0,0,0.000,0,0
1739401400.741195,-0.706973095207366,0.673403517015825,1.4175024250112764,-1.8796443599403772,-0.7073838573152657,1.950119978036361,0.18502084426853668,4.133920103928848e-05,0.0006597458187675156,0.00010983606500527572,-0.0017237918473971207,-0.0005827124482563773,0.000313372048441039,-0.0028878416664622456,0.2173345386981964,-23.61355972290039,19.477951049804688,17.99811553955078,0.8769632577896118,2.3604629039764404,-0.06678618490695953,0,0,0,0.000,0,0
