IITGN-Robotics/Franka_IITGN_ROBOTICS/franka_ros/franka_iitgn/data/b_25.csv
time,fr3_joint1_pos,fr3_joint2_pos,fr3_joint3_pos,fr3_joint4_pos,fr3_joint5_pos,fr3_joint6_pos,fr3_joint7_pos,fr3_joint1_vel,fr3_joint2_vel,fr3_joint3_vel,fr3_joint4_vel,fr3_joint5_vel,fr3_joint6_vel,fr3_joint7_vel,fr3_joint1_eff,fr3_joint2_eff,fr3_joint3_eff,fr3_joint4_eff,fr3_joint5_eff,fr3_joint6_eff,fr3_joint7_eff,flexpin1,flexpin2,flexpin3,Force,ContactMic,ContactMic_gt
1739401426.8158176,-0.7069189740408736,0.6730555714831197,1.4174511881593739,-1.8795925597215852,-0.7071411549880124,1.9502878205169032,0.1848773437539202,0.001241536630393298,-0.0007955138632688124,0.0006938166811204152,-0.0009088028176364227,-0.0012697192538977334,0.0003869587460427568,9.017606901808993e-05,0.2689092457294464,-23.61355972290039,19.477951049804688,17.99811553955078,1.0536600351333618,2.3604629039764404,-0.16749419271945953,,,,,,,,,
1739401426.8258607,-0.7069155507551396,0.6730576775738053,1.4174466132227315,-1.879591093373487,-0.7071396440285066,1.9502878248774802,0.18487411949761587,0.0007910801128565433,-0.00136378149961827,-0.0007712044433281733,6.931315882344636e-05,-0.0001828279659465702,0.0016406112661969045,-0.0010675342404091672,0.2173345386981964,-23.61355972290039,19.529525756835938,17.97431182861328,1.0408426523208618,2.3604629039764404,-0.12721098959445953,,,,,,,,,
1739401426.8377876,-0.706917288853418,0.6730638026099746,1.4174511895846906,-1.8795908043953264,-0.7071396381416527,1.950281913375431,0.18487022493632152,0.000559904519852524,0.002016865150750867,0.000246986613986703,0.001674221116279862,-0.00045331473712949987,-0.0017634742694399668,-0.001469543969577698,0.2411382496356964,-23.68893814086914,19.477951049804688,17.94654083251953,1.0408426523208618,2.3732802867889404,-0.09425200521945953,,,,,,,,,
1739401426.8488317,-0.7069172113874111,0.6730600918313611,1.4174494065846528,-1.879592568955199,-0.7071396000032033,1.9502893008718016,0.18487486158233757,1.3063300946432603e-05,-0.0001600527766850215,0.0003477413926432521,0.0006251385949690861,0.000471349000891979,0.0008259157618305287,0.0003497429660215773,0.2411382496356964,-23.63736343383789,19.501754760742188,17.99811553955078,1.0408426523208618,2.3476455211639404,-0.13361968100070953,,,,,,,,,
1739401426.8588808,-0.7069186448043472,0.6730702431614658,1.4174395847184056,-1.879590065111716,-0.7071402652468115,1.9502775900692055,0.18487966021926389,-1.6807607692255434e-05,0.0018402322888388572,-0.0028128904532243996,0.0013923313455523824,-0.0008462705349072717,-0.0004661861462338895,0.002522254548470758,0.2173345386981964,-23.56198501586914,19.426376342773438,17.92273712158203,0.9291483163833618,2.3668715953826904,-0.13361968100070953,,,,,,,,,
1739401426.8698645,-0.7069184637517059,0.6730900923962385,1.4174341808796465,-1.8795900772298175,-0.7071409133293014,1.9502726676327893,0.18488754069114327,-0.0024980822398732007,0.0019795348536068313,-0.0005281203334826718,-8.108293156366076e-06,-0.00045271977831151997,-0.0006249857970214764,0.0033547540602222674,0.1697271168231964,-23.53818130493164,19.323226928710938,17.92273712158203,0.8897806406021118,2.3275039196014404,-0.14735259115695953,,,,,,,,,
1739401426.8818934,-0.7069202715245352,0.673102981110302,1.4174147189948876,-1.8795960312102096,-0.7071426169590701,1.9502640313957649,0.18488274130621637,-0.0006909595863013936,0.0015879992330385742,-0.001098372844070908,0.00016741072129339838,0.00027019443122248184,-0.0009963110478766345,-0.0020406513819492436,0.1935308277606964,-23.53818130493164,19.374801635742188,17.97431182861328,0.8769632577896118,2.3540542125701904,-0.07411040365695953,,,,,,,,,
1739401426.8928716,-0.7069237265460092,0.6731113239810229,1.417396648289051,-1.8795993171013394,-0.7071455649346897,1.9502582206932362,0.1848897563895538,-0.0015018474431825973,0.0008384457728985806,-0.0010722843217296782,-0.001025642770378893,0.001635646754868192,0.00036262165169392466,-0.00018228327298550317,0.2411382496356964,-23.51041030883789,19.402572631835938,18.04572296142578,0.8897806406021118,2.3668715953826904,-0.09425200521945953,,,,,,,,,
1739401426.9037976,-0.7069237265831902,0.6731159500327737,1.4173819909704783,-1.8795957754024983,-0.7071468524044155,1.950253467721182,0.18489494358304673,-9.680008351655491e-05,-0.0007275455497516957,-0.001551469380182548,0.0009764564857183806,8.306276192680307e-05,4.440739828459402e-05,-0.0009292832590376034,0.2411382496356964,-23.48660659790039,19.426376342773438,17.99811553955078,0.8961893320083618,2.3668715953826904,-0.10066069662570953,,,,,,,,,
1739401426.913866,-0.7069268074677272,0.6731294827225053,1.4173728715142455,-1.879596721284685,-0.7071464992826572,1.950252390560583,0.18489730284604203,-0.0006424639988542942,0.0019107412683387658,-0.0016715757225389777,-0.0006866066560859893,0.0017043386114017768,-0.0010021979537331689,-0.0018396365924750091,0.2411382496356964,-23.58578872680664,19.501754760742188,17.97431182861328,0.8961893320083618,2.3668715953826904,-0.08051909506320953,,,,,,,,,
1739401426.9249003,-0.7069268856289223,0.6731329939401779,1.4173678729795747,-1.8795883069224002,-0.7071492796700529,1.9502555661886491,0.1849021230545781,0.00029278178402010187,0.0016238600372626244,-0.0005032404173007236,0.0002794066446291083,-0.0005353313722557162,-3.772999735355252e-05,-0.0004808583544452501,0.2411382496356964,-23.58578872680664,19.477951049804688,17.89893341064453,0.8833719491958618,2.3476455211639404,-0.12080229818820953,,,,,,,,,
1739401426.935809,-0.7069336729452472,0.6731497498947925,1.4173579246210457,-1.8795865423224118,-0.7071505971282521,1.9502527812782007,0.1849005185660193,-0.0011115700866179763,0.002394638280821978,-0.0005688922774205588,0.0012861363587843419,-0.00018685706066587317,0.0011706276145712852,-0.0020932226770313937,0.2927129566669464,-23.71670913696289,19.529525756835938,17.87512969970703,0.9035135507583618,2.3604629039764404,-0.10706938803195953,,,,,,,,,
1739401426.947884,-0.7069361961589112,0.6731544936749312,1.4173455656789453,-1.8795925837024072,-0.7071494496891768,1.9502497560241052,0.18490193441472952,-4.8644338943428897e-05,6.800508387944619e-06,-0.0004886215450095421,-0.00035864542007140246,-0.0012232528895351014,0.0007399305593460344,-0.0014328274260087843,0.3165166676044464,-23.66513442993164,19.577133178710938,17.94654083251953,0.8897806406021118,2.3668715953826904,-0.10706938803195953,,,,,,,,,
1739401426.958808,-0.7069387415685527,0.673161730073357,1.4173362742575524,-1.8796003207943601,-0.7071486883113758,1.9502471665121475,0.18490243766595438,0.0003275808969740862,0.001110063321720289,-0.00015968338457460793,-0.0018528229460397314,-1.8706307700654717e-05,-0.00010555305624385027,-0.0005128260519181437,0.3165166676044464,-23.68893814086914,19.577133178710938,18.02191925048828,0.8833719491958618,2.3796889781951904,-0.08692778646945953,,,,,,,,,
1739401426.9698439,-0.7069407439611406,0.6731573641156994,1.4173341116735398,-1.8795957489519595,-0.7071450253647348,1.9502486818262403,0.18490490121246042,-9.513350940270783e-05,-0.0012145194887385278,3.0648875672144424e-05,0.000215724075029791,0.0013517857979655772,0.0003600173014381363,-0.00022137995491708752,0.3442876636981964,-23.61355972290039,19.553329467773438,17.99811553955078,0.8833719491958618,2.3668715953826904,-0.14094389975070953,,,,,,,,,
1739401426.979901,-0.7069370606769346,0.67316403937467,1.417335433375519,-1.8795946537759836,-0.7071454946259137,1.9502509155606187,0.18490364625175695,0.0006651413566587485,0.001083989471979116,0.00019067198832590815,-0.001066829285238178,0.0016443488025620727,0.0009365015468807112,0.0001763954240604469,0.2927129566669464,-23.66513442993164,19.529525756835938,17.94654083251953,0.8833719491958618,2.3476455211639404,-0.09425200521945953,,,,,,,,,
1739401426.9899292,-0.7069396730759706,0.6731623054141447,1.4173375885976771,-1.8795930921995778,-0.7071505231976614,1.9502494329720386,0.18490768423294407,-0.0010124149931660447,-2.245746836538408e-05,0.0004408867315319536,0.0006648077007091985,0.00068790066491673,0.000475313722225196,0.002060512928102506,0.3165166676044464,-23.63736343383789,19.501754760742188,17.92273712158203,0.8897806406021118,2.3604629039764404,-0.12721098959445953,,,,,,,,,
1739401427.0008116,-0.7069387472025178,0.6731665065207653,1.417336996028665,-1.879597540133372,-0.7071497522623806,1.9502486774655527,0.18490849964285686,0.00014099102114550096,0.0013580303527948054,-0.0009117559215586159,-0.00022260787477902362,-0.00031201297495259556,-0.00029568573077574684,0.0015244645089445303,0.3165166676044464,-23.66513442993164,19.477951049804688,18.02191925048828,0.8833719491958618,2.3668715953826904,-0.10706938803195953,,,,,,,,,
1739401427.01187,-0.7069370334996027,0.6731572150623435,1.4173375787948654,-1.8795978450136868,-0.707149739234188,1.9502447452517,0.18490688179189105,1.6898149146895246e-05,-9.950489167582502e-05,-0.0006746353256649085,-2.0863126372812422e-05,0.00038512252894383204,-0.0015131163896410552,-7.738197178999663e-06,0.2927129566669464,-23.56198501586914,19.501754760742188,17.99811553955078,0.8833719491958618,2.3732802867889404,-0.12080229818820953,,,,,,,,,
1739401427.0228631,-0.7069316108382583,0.6731606015992406,1.4173393742185059,-1.8795960814853503,-0.7071505099761456,1.950247924148217,0.18490529767127525,0.00035325634380728617,-4.551142648958283e-05,-0.0007423612738868473,-0.00020309766277064263,-0.0006006912610625587,0.0002568793587339139,-0.0001956750465226057,0.2173345386981964,-23.61355972290039,19.477951049804688,17.99811553955078,0.8897806406021118,2.3732802867889404,-0.10706938803195953,,,,,,,,,
1739401427.034799,-0.7069354001569624,0.6731568912468627,1.4173491441709287,-1.8795958636901458,-0.7071489946560628,1.9502494218822102,0.1849044217000001,-0.00041753283778648285,0.0006929817193405148,0.0017065243633873949,-0.00043648524602771515,-1.9105795995973265e-05,0.0008186621921454693,-0.0008189878052434567,0.2689092457294464,-23.56198501586914,19.350997924804688,17.99811553955078,0.8769632577896118,2.3604629039764404,-0.10066069662570953,,,,,,,,,
1739401427.044882,-0.7069353468726797,0.673156149950049,1.4173499512804206,-1.8795919632793512,-0.7071522527973279,1.9502525783636866,0.18490291645344095,-0.0005431531092897257,-1.4086282401177598e-05,0.0003381541188511428,-0.0004602143878515019,-0.0018176452589799795,0.0009226253382806433,-0.0014656237737895926,0.2689092457294464,-23.53818130493164,19.350997924804688,17.94654083251953,0.9035135507583618,2.3339126110076904,-0.08692778646945953,,,,,,,,,
1739401427.0548916,-0.7069354549626016,0.6731595750079605,1.4173503108987564,-1.8795921823354809,-0.7071529709689788,1.950250197146397,0.18491168949595715,-0.00029699579578125273,0.0011303762791113094,-0.0005205498218374382,-0.0007164345093501939,-0.0004438216016763027,0.00029774592754576283,0.0024065660766917703,0.2411382496356964,-23.58578872680664,19.374801635742188,17.92273712158203,0.8833719491958618,2.3540542125701904,-0.16108550131320953,,,,,,,,,
1739401427.0658727,-0.7069353221678569,0.6731565704699574,1.4173446696794345,-1.879588329630304,-0.7071497412691593,1.9502470182320089,0.18490798015239035,0.0006301522937431773,-0.000866184379635337,-7.662895672026841e-05,0.0022601128731800967,0.0006969660466443635,0.00015414008058810727,-0.0003264965409289697,0.2689092457294464,-23.56198501586914,19.450180053710938,17.89893341064453,0.8833719491958618,2.3540542125701904,-0.13361968100070953,,,,,,,,,
1739401427.0768807,-0.7069391427402937,0.6731565037288777,1.4173397289029905,-1.8795957583493461,-0.7071482609130435,1.9502501971284518,0.18490914758142923,-0.0005649944012404329,-8.950137672487804e-05,-0.0005595991249821258,0.0007801319981259646,5.004677568554042e-05,0.0014701451597274678,0.0009181986962976044,0.2927129566669464,-23.58578872680664,19.477951049804688,17.99811553955078,0.8961893320083618,2.3540542125701904,-0.10066069662570953,,,,,,,,,
1739401427.087811,-0.7069362580030807,0.6731627869465364,1.4173415701127616,-1.8795946890021153,-0.7071509912115636,1.9502501971463968,0.18490924615020504,0.0009045710050585594,0.000715122764675725,0.0008623609125469627,0.0006411500796031939,9.282179276970498e-05,0.0003468142124014744,0.0004639379666710019,0.2689092457294464,-23.61355972290039,19.450180053710938,17.97431182861328,0.8897806406021118,2.3540542125701904,-0.11347807943820953,,,,,,,,,
1739401427.097859,-0.7069370722485276,0.6731623502415559,1.4173375895812654,-1.8795942601183648,-0.7071505104749425,1.950250197146397,0.1849085563286048,-6.0810781677252286e-05,0.0010311812415893153,-0.000817183043305484,-0.0010169572696369286,-0.0007364425544547125,0.0010366131185672444,0.0011607117472921245,0.2927129566669464,-23.63736343383789,19.501754760742188,17.94654083251953,0.8897806406021118,2.3540542125701904,-0.13361968100070953,,,,,,,,,
1739401427.1088004,-0.7069398418618352,0.6731672260640559,1.4173337261312338,-1.8795930885580965,-0.7071512852969362,1.9502459017439142,0.18491134799858963,0.0009589026691212113,0.0009684071039752346,-0.0006099191469543705,8.81634299648492e-05,-0.00010201014281015927,-0.0005288341605056407,0.002224028126494862,0.2927129566669464,-23.66513442993164,19.553329467773438,17.92273712158203,0.8961893320083618,2.3540542125701904,-0.12080229818820953,,,,,,,,,
1739401427.1188865,-0.706936235342116,0.6731675783165008,1.417335507758461,-1.879591912414616,-0.7071491155008954,1.950249086200866,0.18490057468018742,-2.8482548301593015e-05,0.0016330773035447672,-0.00035027391938046473,0.00014615805249916842,-0.0009338999646470294,0.0007935432302687784,-0.0004844507401535557,0.2411382496356964,-23.66513442993164,19.529525756835938,17.94654083251953,0.8769632577896118,2.3604629039764404,-0.06678618490695953,,,,,,,,,
1739401427.128903,-0.70693730500143,0.6731607096898673,1.4173346030058798,-1.8796005276687489,-0.7071555606444878,1.950250197140414,0.18491164544946992,-0.0007600498809329348,-0.0021442580590243137,0.0005952043937778552,-0.0006377408075160456,0.00033793195473760774,0.001371965183945579,0.001634954327429258,0.2927129566669464,-23.61355972290039,19.501754760742188,18.02191925048828,0.8961893320083618,2.3540542125701904,-0.12080229818820953,,,,,,,,,
1739401427.1398776,-0.7069334044524754,0.6731675538770543,1.4173333655477065,-1.8795978448514528,-0.7071544015571759,1.9502448079368828,0.18490358926353356,0.0010543947418252047,-0.0004670101906996256,0.00032406159913947236,0.001369506353629669,-0.0018155020071747338,-0.0003475518920546025,-0.0014201805051538045,0.2411382496356964,-23.66513442993164,19.529525756835938,17.99811553955078,0.8833719491958618,2.3604629039764404,-0.08051909506320953,,,,,,,,,
1739401427.14994,-0.70693551081621,0.6731633755574521,1.4173324098028266,-1.8795988228159488,-0.7071485176221118,1.9502448476426557,0.18490771844362233,0.00017786768639453904,-0.0013087556493540397,-0.00031336266664018606,0.0002844822520108055,0.0013035426548786515,-0.0011675365655707246,-0.00010691919552422,0.2411382496356964,-23.63736343383789,19.529525756835938,17.99811553955078,0.8833719491958618,2.3604629039764404,-0.12721098959445953,,,,,,,,,
1739401427.1608276,-0.7069333519396584,0.6731601693417647,1.4173383516584446,-1.8796006308796533,-0.7071544882969468,1.9502482089119726,0.18490140118817885,0.0009390682766559543,-0.0011035159420761244,0.0007920262923001454,-0.0015864599242493486,-0.0010016014436729174,-0.000690470622793477,-0.0023479415247046496,0.2411382496356964,-23.56198501586914,19.450180053710938,18.02191925048828,0.8961893320083618,2.3668715953826904,-0.07411040365695953,,,,,,,,,
1739401427.170828,-0.7069353481566928,0.6731618549304943,1.4173400201174386,-1.879598224489678,-0.7071537286815796,1.9502494330180866,0.18490291661612002,-0.0006895939901117931,0.0005016515260770173,0.0005618256237372725,0.000509110531352922,0.00031935519976796997,0.00137508027331495,-0.0016538206988202361,0.2689092457294464,-23.58578872680664,19.450180053710938,18.02191925048828,0.8897806406021118,2.3604629039764404,-0.08692778646945953,,,,,,,,,
1739401427.1818082,-0.7069353309297663,0.6731584568704069,1.4173384536720952,-1.8795925143854941,-0.7071508385179015,1.9502462474361066,0.18491118620364028,-0.0005416220001527867,-0.0006050104166441329,0.0010059822866661983,0.0012611956427923962,-0.0005270204276455543,0.0003297272943149301,0.0008600041383340078,0.2689092457294464,-23.53818130493164,19.450180053710938,17.92273712158203,0.8833719491958618,2.3604629039764404,-0.12080229818820953,,,,,,,,,
1739401427.1919014,-0.7069335598235208,0.6731611534108076,1.4173408259014035,-1.8795903447241051,-0.7071497538062557,1.9502501825568368,0.1849095039449693,0.00042037768646338694,0.0008840900342614818,0.00032927431931074473,0.0005361652555698193,5.887080710550402e-05,-7.722073373449235e-07,0.0005781693005039782,0.2411382496356964,-23.58578872680664,19.426376342773438,17.92273712158203,0.8833719491958618,2.3540542125701904,-0.13361968100070953,,,,,,,,,
1739401427.201908,-0.7069376695768596,0.6731584558589061,1.4173443162757626,-1.8795908945654198,-0.7071514309972013,1.9502451951193531,0.1849108677554589,0.00036617909081516567,-0.0008998156408624811,0.0020170373699548044,0.0013070843302963266,0.0003528318071197228,-0.0009694142771220443,0.0016211483327003957,0.2689092457294464,-23.53818130493164,19.402572631835938,17.92273712158203,0.8961893320083618,2.3604629039764404,-0.12721098959445953,,,,,,,,,
1739401427.2128673,-0.7069316481222941,0.6731618819120159,1.4173442933222675,-1.8795892427271486,-0.7071515828607476,1.9502489680275628,0.18490645985311877,0.002140146820456934,0.000666848019490425,0.0008058386216189167,0.0009332861956571424,-0.0001693657888210537,-0.0007197364199983176,0.0005666730219317452,0.2173345386981964,-23.58578872680664,19.402572631835938,17.89893341064453,0.8897806406021118,2.3604629039764404,-0.08692778646945953,,,,,,,,,
1739401427.22293,-0.7069354338617966,0.6731618789140742,1.417343233414815,-1.8795911014898248,-0.7071513265232522,1.9502487842875735,0.1849120324273116,0.0008575477552386852,0.0009541203358179739,0.0003233687205002009,-0.0002778020881894188,-7.74746267195698e-05,0.00014121640185627574,0.001892620274528374,0.2689092457294464,-23.58578872680664,19.426376342773438,17.92273712158203,0.8961893320083618,2.3540542125701904,-0.13361968100070953,,,,,,,,,
1739401427.2338636,-0.7069381404692572,0.6731601693912734,1.4173366024799339,-1.8795901037629599,-0.7071497528070467,1.9502505618554167,0.18490930414060286,-4.517998008523684e-05,-0.00035199481767115876,-0.0007217857760872175,-0.00011223716314945806,0.00038350813614176514,0.0006232767099327581,-0.0014520601772494467,0.2689092457294464,-23.56198501586914,19.477951049804688,17.92273712158203,0.8833719491958618,2.3476455211639404,-0.14094389975070953,,,,,,,,,
1739401427.2458029,-0.7069333615016632,0.673163406869964,1.4173393709445563,-1.8795910344978513,-0.7071505160266252,1.9502470182297906,0.1849061511515253,0.00011434637681713309,0.0004566773303982545,0.0003617240771615224,0.0003986045234173493,0.0005478338923564967,0.0005845594655435898,-0.00015959801831496803,0.2411382496356964,-23.63736343383789,19.477951049804688,17.92273712158203,0.8897806406021118,2.3540542125701904,-0.08692778646945953,,,,,,,,,
1739401427.255916,-0.7069340378168373,0.6731638786151138,1.417337588598101,-1.8795942753215324,-0.7071520596970178,1.9502451833117476,0.18491079269266283,0.0021637622260228854,0.00041064279922876505,0.0003914583733447592,-8.387489097229291e-05,-0.0010585868416265688,-0.00012785615837063134,0.0009582707530190065,0.2411382496356964,-23.61355972290039,19.501754760742188,17.97431182861328,0.8897806406021118,2.3604629039764404,-0.11347807943820953,,,,,,,,,
1739401427.266868,-0.7069362469969777,0.6731659858836497,1.4173366157610783,-1.8795966701254274,-0.7071497538511171,1.9502461021109276,0.1849058790630126,-0.0006477814899333014,0.0014955005949057114,0.0006846229183885995,-0.00041957754273411045,0.0015240658327204946,0.0007173072909800648,-0.0018033283031336225,0.2411382496356964,-23.61355972290039,19.477951049804688,17.99811553955078,0.8833719491958618,2.3604629039764404,-0.08051909506320953,,,,,,,,,
1739401427.27783,-0.7069335916180992,0.6731656693873187,1.4173352792044311,-1.8795964759184196,-0.7071505158631066,1.9502497234152367,0.18490251944993222,-6.697384972010222e-05,0.00017115322989880443,-7.817051743015582e-05,0.000658394870922764,0.0008163580718531516,-0.000457193613344927,-0.0016086176158702247,0.2411382496356964,-23.63736343383789,19.529525756835938,17.99811553955078,0.8897806406021118,2.3476455211639404,-0.08051909506320953,,,,,,,,,
1739401427.28793,-0.7069354639544971,0.6731666878952216,1.4173327156379805,-1.8796005543451926,-0.7071523405200035,1.9502486280240274,0.18490500311478933,-0.0006514956571298624,-0.00045948952066341006,-0.0007071197649427959,-0.0005899150742564379,-0.001234640447784032,-0.00011009207175301,-0.0021104389677081884,0.2411382496356964,-23.61355972290039,19.529525756835938,18.02191925048828,0.8961893320083618,2.3668715953826904,-0.07411040365695953,,,,,,,,,
1739401427.2988746,-0.7069356598875215,0.6731619859650589,1.4173345656877239,-1.8795968360770365,-0.7071506293550899,1.950250078762501,0.18490970863793124,-0.0005058108448439543,-0.0006782705962598837,-9.547556741697623e-05,0.00045612344067543734,0.000904646491175684,0.0015738925239835886,0.00025684057981267843,0.2689092457294464,-23.58578872680664,19.501754760742188,17.97431182861328,0.8897806406021118,2.3540542125701904,-0.10706938803195953,,,,,,,,,
1739401427.3088953,-0.7069381562029855,0.6731703987852535,1.4173354705448333,-1.879597053064407,-0.7071505116134852,1.950247804973037,0.18491244465821405,-0.00047017417182913606,0.0012528083565507399,0.0015346133901330875,0.0003113291668980791,0.0015301630601959578,0.0003510762718862478,0.0009288127812837146,0.2689092457294464,-23.66513442993164,19.529525756835938,17.97431182861328,0.8897806406021118,2.3732802867889404,-0.12721098959445953,,,,,,,,,
1739401427.3197918,-0.7069383401593605,0.6731656226697377,1.4173344929880785,-1.8795970571273977,-0.7071545265686361,1.9502448026065258,0.1849126683988407,-0.0028035442045104973,-0.0002540521806884279,0.00014927488407752226,-0.0003419499297720772,-0.00013596277186267677,0.0012453657192649811,-0.00039348865016940974,0.2689092457294464,-23.63736343383789,19.501754760742188,17.97431182861328,0.8961893320083618,2.3604629039764404,-0.14094389975070953,,,,,,,,,
1739401427.3299112,-0.7069353252028819,0.6731619724323762,1.417334501439139,-1.879596985356935,-0.7071537345691062,1.9502439531872582,0.18490622663345319,0.0007303572407974515,-0.0011841860086475918,-0.00019657666684635706,-0.0004962077319875227,-0.00033070154559011245,-0.0011607443432007868,-0.002231250277967974,0.2689092457294464,-23.58578872680664,19.501754760742188,17.97431182861328,0.8897806406021118,2.3668715953826904,-0.11347807943820953,,,,,,,,,
1739401427.340923,-0.7069357798064398,0.6731666352782489,1.4173362747730647,-1.8795926037003754,-0.7071537288087647,1.9502473005006282,0.1849117395923826,2.2567965048258783e-05,0.0011128594495509129,-0.000748675711304489,0.00027662375190701434,0.0014406559419847392,0.0018292278166996418,0.0011384287922905777,0.2411382496356964,-23.63736343383789,19.477951049804688,17.94654083251953,0.8897806406021118,2.3476455211639404,-0.12080229818820953,,,,,,,,,
1739401427.3519263,-0.7069389474929121,0.6731601708238103,1.4173406475060795,-1.8795925106413938,-0.7071559301167455,1.9502457328587273,0.18491028723575195,-0.000989037445039002,-0.0016862448979479317,0.000362379606125299,0.0008369025463258468,-0.0002293803038180865,-0.0008251296136042392,8.664459426614894e-05,0.2689092457294464,-23.56198501586914,19.450180053710938,17.92273712158203,0.8961893320083618,2.3604629039764404,-0.12080229818820953,,,,,,,,,
1739401427.3628519,-0.7069390940321533,0.6731619985749145,1.4173401371478516,-1.879591113455438,-0.7071498720423237,1.9502489634546067,0.1849076992328207,-0.0011042574253245676,0.00040703752058277796,0.0012225119869771685,0.0010063787691168302,0.001415822409701462,0.0006035284674839202,-0.0013602469292033513,0.3165166676044464,-23.58578872680664,19.426376342773438,17.89893341064453,0.8833719491958618,2.3604629039764404,-0.08692778646945953,,,,,,,,,
1739401427.3738604,-0.7069399582807354,0.6731586947278633,1.4173384486704903,-1.8795931235148766,-0.7071546633860714,1.9502451485979306,0.18491078173870007,-0.0011020324934316837,-0.0006889981443179768,-0.0008473768035756016,-0.0006596152693704248,-0.0009437568157079937,0.0011048279495582012,0.0006069081866959094,0.2927129566669464,-23.53818130493164,19.477951049804688,17.92273712158203,0.8961893320083618,2.3604629039764404,-0.11347807943820953,,,,,,,,,
1739401427.3848372,-0.7069364559763516,0.673161886192367,1.4173411589076466,-1.8795931143517932,-0.7071531432372222,1.950244031677643,0.18490701533922613,0.0007072197388470763,-0.0001823013210335287,0.00035912510668596043,0.0015836903341700302,0.0008943735392614655,-0.0022743024179717763,-0.0009052579388692476,0.2411382496356964,-23.58578872680664,19.426376342773438,17.92273712158203,0.8833719491958618,2.3668715953826904,-0.08051909506320953,,,,,,,,,
1739401427.394914,-0.7069375179035239,0.6731639917947843,1.4173392826962607,-1.8795988483412451,-0.7071544079133109,1.9502447234445475,0.18491483025742686,-0.0008410288914495833,0.00014006007435045077,-0.001779514049475536,-0.00343322194932866,-0.0014821099821527646,0.0002587793247244688,0.001590841625873158,0.2689092457294464,-23.58578872680664,19.450180053710938,17.99811553955078,0.8833719491958618,2.3604629039764404,-0.14735259115695953,,,,,,,,,
1739401427.404958,-0.70693847123494,0.6731601654297582,1.4173410908815023,-1.8795919121016216,-0.7071538613241709,1.9502454420191588,0.18491083828058139,-0.0013136175891700994,-0.0007419123188989133,0.0014854166192814948,0.001245057274828941,0.0013545770228617746,-0.0020564298047310403,0.000323970493551303,0.2689092457294464,-23.56198501586914,19.426376342773438,17.94654083251953,0.8897806406021118,2.3540542125701904,-0.11347807943820953,,,,,,,,,
1739401427.4158835,-0.7069381419130358,0.6731641919273984,1.4173414482184583,-1.8795970315303248,-0.7071505517483688,1.9502446754754619,0.18491321982170672,-0.0007254687872960938,0.0003515632347424296,0.00026345848994528286,-0.0001224486353183428,0.00022874008110745843,-0.0015281085436311616,0.0019992535077144992,0.2689092457294464,-23.61355972290039,19.450180053710938,17.97431182861328,0.8897806406021118,2.3604629039764404,-0.13361968100070953,,,,,,,,,
1739401427.4268293,-0.7069364819752642,0.6731642192505436,1.4173354193196996,-1.8795963679425776,-0.707150843514716,1.9502478645646517,0.18490769972685203,-0.0008453659907140089,0.0006139009926237154,-0.001094628429734398,5.158529283824133e-05,-3.278674556294125e-05,5.760623190292863e-05,-0.0008418596522576441,0.2411382496356964,-23.61355972290039,19.501754760742188,17.97431182861328,0.8833719491958618,2.3604629039764404,-0.08692778646945953,,,,,,,,,
1739401427.4368696,-0.7069336700842214,0.6731655923793535,1.4173351896947175,-1.8795925875223036,-0.7071553334740047,1.9502446755294685,0.18490856562408442,-0.0001479023828469049,0.000394524019758782,-0.0010819561338094195,0.0012382382272924076,-7.779960964773912e-05,-0.0008519055417244557,0.00012182270303530795,0.2411382496356964,-23.63736343383789,19.501754760742188,17.94654083251953,0.8897806406021118,2.3604629039764404,-0.09425200521945953,,,,,,,,,
1739401427.4477954,-0.7069394557454491,0.6731679670749815,1.417334489160529,-1.8795968019108833,-0.7071509503231439,1.9502446713301023,0.18491245778735244,-0.0014820340660958097,0.0008399361431359774,-0.0007264188985729632,-0.00017286981524791556,0.0015948429374634937,-9.787194648288074e-05,-6.476855027233848e-05,0.2927129566669464,-23.63736343383789,19.501754760742188,17.97431182861328,0.8833719491958618,2.3604629039764404,-0.12721098959445953,,,,,,,,,
1739401427.4599476,-0.7069362468996189,0.6731686347881322,1.4173344894715103,-1.8795969888198854,-0.7071545782550757,1.9502446711147376,0.18490694158071813,-0.0002576765781208265,0.0005488756206490444,-0.0005454695166764302,-0.00025262201541576077,-0.0011048258318466903,-0.0021810747641432854,-0.0007307558102196757,0.2411382496356964,-23.63736343383789,19.501754760742188,17.97431182861328,0.8833719491958618,2.3604629039764404,-0.08051909506320953,,,,,,,,,
1739401427.4708703,-0.7069398544333737,0.6731666179498761,1.4173299114339633,-1.8795949710153397,-0.7071521194449608,1.9502443863609498,0.1849132198217076,-0.0007673257477386892,0.0001489818489972728,-0.001202792783641081,-0.0008065423660486579,0.00013931846454651994,0.0005013446836340655,0.00034574855324663687,0.2927129566669464,-23.63736343383789,19.553329467773438,17.97431182861328,0.8897806406021118,2.3668715953826904,-0.13361968100070953,,,,,,,,,
1739401427.4808762,-0.7069384711385103,0.673170737768777,1.4173298531411436,-1.8795939896981928,-0.7071505995118071,1.950243926544619,0.18490618440669535,0.00021711864046842485,0.0015898184757111244,-0.0008767303098492101,0.00021558502152228717,-0.0006026892746859099,-0.0007779256337818423,-0.0016332952631267596,0.2689092457294464,-23.66513442993164,19.529525756835938,17.94654083251953,0.8769632577896118,2.3668715953826904,-0.07411040365695953,,,,,,,,,
1739401427.4918652,-0.7069401911546384,0.6731663356046214,1.4173323315723156,-1.879594296989242,-0.7071553378978624,1.9502461864351148,0.18490930323282165,-0.0014942971430775074,0.0007063070112790448,-0.001640384911742759,-1.7653008975660888e-05,0.00045183175820074175,0.00048344289422498,0.00015194442426986077,0.2927129566669464,-23.61355972290039,19.501754760742188,17.94654083251953,0.8897806406021118,2.3476455211639404,-0.11347807943820953,,,,,,,,,
1739401427.502859,-0.7069401953276852,0.6731605199195532,1.4173365014177952,-1.8795911365766074,-0.7071545266018556,1.9502436281984097,0.1849101994147818,-0.0014483379300394069,-0.0010421862630323063,-0.0009541187710414656,6.069848400359413e-05,-0.00029693395206386024,0.00015913721069320133,0.0001085181788085842,0.2927129566669464,-23.56198501586914,19.477951049804688,17.92273712158203,0.8833719491958618,2.3732802867889404,-0.10706938803195953,,,,,,,,,
1739401427.513869,-0.7069384799180415,0.6731615367940976,1.4173401343017642,-1.8795942736074578,-0.707153425267688,1.9502461864375598,0.18490732791391024,-0.00022521982543724118,-0.0011786757478652351,0.0003462347159661542,0.0005189494470618743,0.00039088321725565885,-0.000930513472591544,-0.001963393574140123,0.2689092457294464,-23.53818130493164,19.426376342773438,17.97431182861328,0.8769632577896118,2.3476455211639404,-0.08692778646945953,,,,,,,,,
1739401427.524858,-0.7069375439043443,0.6731632981567388,1.4173422009097565,-1.8795957493578639,-0.7071559867635122,1.9502455654085378,0.1849076938923828,0.00012643089083211312,-0.00044842857150886504,0.0007038431123069625,-0.0015798974830062641,-0.0015536717368124012,-0.0005439219069973124,-0.0017349773304659551,0.2689092457294464,-23.56198501586914,19.426376342773438,17.99811553955078,0.8833719491958618,2.3540542125701904,-0.08692778646945953,,,,,,,,,
1739401427.5349073,-0.7069391821529947,0.6731606795815461,1.4173401428387353,-1.87959316902832,-0.7071539074647905,1.9502494889033661,0.18490852625548568,-8.556578447289551e-05,-0.0002825532574187582,0.0006643365328265192,0.0007074463617500219,-0.00023573615540894963,0.002233936378747364,-0.0013038604518395922,0.2927129566669464,-23.53818130493164,19.426376342773438,17.92273712158203,0.8897806406021118,2.3476455211639404,-0.09425200521945953,,,,,,,,,
1739401427.545019,-0.7069364732932696,0.673164066088583,1.4173401601253555,-1.8795929194759655,-0.7071545670226659,1.9502487259672172,0.18490942133765476,-0.0005467826837556209,0.00039954347738857716,-0.00023142049609284853,-0.00015496110841518575,-0.00043912972501543486,0.0014098445227434821,-0.0003049865139283077,0.2411382496356964,-23.58578872680664,19.426376342773438,17.94654083251953,0.8833719491958618,2.3540542125701904,-0.11347807943820953,,,,,,,,,
1739401427.5558698,-0.7069384798823104,0.6731625903635594,1.4173449794141948,-1.8795960581741644,-0.7071533078331692,1.9502465276774135,0.1849124619916194,0.00028823415342559965,-0.00038302430920050156,0.0014672252964425979,-0.0012870110778631784,-8.693437502742623e-05,-0.0003838570898486166,-0.0003059069868057637,0.2689092457294464,-23.56198501586914,19.402572631835938,17.97431182861328,0.8769632577896118,2.3540542125701904,-0.12721098959445953,,,,,,,,,
1739401427.5668356,-0.7069384712512313,0.6731632894778928,1.417341424189822,-1.8795943020862633,-0.7071553335285693,1.9502454289549302,0.18491008094423825,-0.00013743829859624737,0.0001260243148393555,0.0012962688219589243,-0.0004301040283687428,0.001563151859476298,-0.00017387282050438502,-0.0005220423624287349,0.2689092457294464,-23.56198501586914,19.450180053710938,17.97431182861328,0.8897806406021118,2.3540542125701904,-0.10706938803195953,,,,,,,,,
1739401427.57693,-0.7069363779399374,0.6731656977837057,1.4173406485032083,-1.8795949903976015,-0.7071538232782869,1.9502446711147374,0.18491321982170852,0.00037460694192904766,0.0003879368222185995,3.023181803048618e-05,0.00037659679891240865,-0.0002620318872116031,-0.0004913862428022084,0.0011603378030334939,0.2411382496356964,-23.63736343383789,19.450180053710938,17.97431182861328,0.8769632577896118,2.3604629039764404,-0.13361968100070953,,,,,,,,,
1739401427.5877922,-0.7069362479731647,0.6731648519609567,1.4173345536031727,-1.8795985222015361,-0.7071560426306218,1.950246841625654,0.18490699034735358,0.0005299936097547588,-0.0005048899320231482,-0.0006579032448736678,-0.00021599297259524043,-0.0009155809683363226,6.577494530794675e-05,-0.0014958031513962154,0.2411382496356964,-23.61355972290039,19.529525756835938,17.97431182861328,0.8961893320083618,2.3540542125701904,-0.08051909506320953,,,,,,,,,
1739401427.59787,-0.7069404177634947,0.6731685160212814,1.4173288453813628,-1.8795968364785178,-0.7071560956098328,1.9502446711865167,0.184910080946694,-0.0010939597162100728,5.3811801281010487e-05,-0.0014924066709299964,-9.92117014438701e-05,-0.0007328685642359139,0.0004081017318221611,-0.0002266727982481004,0.2927129566669464,-23.63736343383789,19.577133178710938,17.97431182861328,0.8961893320083618,2.3604629039764404,-0.10706938803195953,,,,,,,,,
1739401427.6088498,-0.7069342989094991,0.673162153951706,1.4173324093667268,-1.879597065664437,-0.707158750652222,1.9502439706276349,0.18491646693633004,0.0014032663452031664,-0.0017931876577632077,-0.00015745627872066123,-0.0016359378270251919,-0.0004162059649899289,0.000153345869660477,0.001498516146741395,0.2411382496356964,-23.58578872680664,19.529525756835938,17.97431182861328,0.8897806406021118,2.3668715953826904,-0.16108550131320953,,,,,,,,,
1739401427.6189,-0.7069384018688959,0.6731685053806814,1.4173354906005002,-1.879592205306932,-0.7071531813111616,1.9502481534610485,0.18490858317570366,0.0009667121249085442,0.0003431254395701655,0.0006460750261630527,0.0006795542369634297,0.0003024729859102853,0.0015350769067767809,-6.485747145120108e-06,0.2689092457294464,-23.63736343383789,19.450180053710938,17.94654083251953,0.8705545663833618,2.3668715953826904,-0.09425200521945953,,,,,,,,,
1739401427.6289203,-0.7069364810102299,0.6731650380567634,1.4173306255631986,-1.8795969877352992,-0.707154265074751,1.9502450245428609,0.18491321982260026,0.0014684182528023658,-0.00041836966799980145,-8.103154568497297e-06,-0.001102981405492083,0.0012961077204860154,-0.0002520108829724337,0.00015272216381367534,0.2411382496356964,-23.58578872680664,19.553329467773438,17.97431182861328,0.8897806406021118,2.3604629039764404,-0.13361968100070953,,,,,,,,,
1739401427.6398034,-0.7069342979452483,0.6731687252767301,1.417336161472789,-1.8795928171222345,-0.7071545809363715,1.9502440442748452,0.1849103267266971,0.0012146882013714284,0.0008643858539158019,4.207869900511491e-05,0.0012399615822800854,0.0006245803770730284,-0.0002607221288525327,7.723325727000208e-05,0.2411382496356964,-23.63736343383789,19.477951049804688,17.94654083251953,0.8833719491958618,2.3668715953826904,-0.12080229818820953,,,,,,,,,
1739401427.6498282,-0.7069401885498615,0.673165040957752,1.4173335085533707,-1.8795970617447935,-0.7071545341784973,1.9502439134568734,0.1849116913553858,-0.000599474639726581,-0.001659854382939981,0.00033747867745929466,-0.00042038359270811705,0.0005912377515150302,-0.000567064189557482,-0.0005339317438399279,0.2927129566669464,-23.58578872680664,19.501754760742188,17.97431182861328,0.8833719491958618,2.3668715953826904,-0.12080229818820953,,,,,,,,,
1739401427.6608465,-0.7069384799179593,0.673164958784154,1.4173383426675086,-1.879594960366002,-0.7071577536400888,1.9502446711147365,0.18490694206655106,4.828079015610102e-05,-0.00040115554787720215,0.0010142341630600495,0.0005060647494315066,-0.0009730211265238794,0.0004606450976356768,-0.0014031715737288846,0.2689092457294464,-23.58578872680664,19.450180053710938,17.94654083251953,0.8833719491958618,2.3604629039764404,-0.08051909506320953,,,,,,,,,
1739401427.670857,-0.706938453953311,0.67316503218394,1.4173355565778059,-1.8795963501312523,-0.707156566580718,1.950243913454658,0.1849136981033323,0.0008474234654313484,0.000577956735889784,-0.0009006371494967776,-0.0006855991741238339,-0.0005203716181731799,-0.00011998485200317153,0.002101952576746455,0.2689092457294464,-23.58578872680664,19.477951049804688,17.97431182861328,0.8961893320083618,2.3668715953826904,-0.13361968100070953,,,,,,,,,
1739401427.6808753,-0.7069364733099391,0.6731648953120126,1.4173401371227783,-1.879598848330632,-0.7071560956205005,1.9502446711147365,0.1849148040186191,0.0008937665098986104,0.00022865317884133876,0.0009755227511883085,-0.0005526342431885593,-0.0010634139150318116,-0.0007475275734233925,0.00010686519157692483,0.2411382496356964,-23.61355972290039,19.426376342773438,17.99811553955078,0.8961893320083618,2.3604629039764404,-0.14735259115695953,,,,,,,,,
1739401427.6909719,-0.7069370723930066,0.6731626222180004,1.4173422230952168,-1.8795943093468506,-0.7071545758772092,1.950246190795544,0.18490964488598963,0.00028332111352496765,-0.0008432739201309678,0.0012461695020209032,-0.00011990505073216907,0.00021565452373205552,0.00037230794775294595,-0.0005996852319662252,0.2927129566669464,-23.56198501586914,19.402572631835938,17.97431182861328,0.8833719491958618,2.3476455211639404,-0.09425200521945953,,,,,,,,,
1739401427.702862,-0.706936970804337,0.6731641039775501,1.4173383511891122,-1.8795967311882595,-0.7071545794666457,1.9502478500829845,0.18490932329025525,-0.000577906325537914,-0.00018934832117146612,-0.0014455633613194357,2.8391505972447323e-05,0.0006795308798375418,0.000480112196158688,-0.0009189057571040579,0.2173345386981964,-23.58578872680664,19.450180053710938,17.97431182861328,0.8833719491958618,2.3604629039764404,-0.10066069662570953,,,,,,,,,
1739401427.7138677,-0.7069336363841673,0.6731678479274998,1.4173400557724154,-1.879594653197971,-0.7071560956125231,1.9502489096732358,0.18491333822313372,0.0011111041483196347,0.0021319417085444788,0.00032262589126297314,0.00023591143113395734,0.001063689671875563,0.0011148303414416283,-0.0004178021739526291,0.2411382496356964,-23.58578872680664,19.426376342773438,17.94654083251953,0.8961893320083618,2.3604629039764404,-0.13361968100070953,,,,,,,,,
1739401427.7248545,-0.7069343759303267,0.67316501497366,1.4173362453421972,-1.8795932030919995,-0.707155338436963,1.95024618645882,0.18491246216229856,0.001061117627066788,0.0004768485528721684,-0.0013182069560993956,0.0004449537442499194,-0.000868805110845607,0.0011067119899094823,0.0008474588672094573,0.2411382496356964,-23.58578872680664,19.477951049804688,17.92273712158203,0.8897806406021118,2.3476455211639404,-0.12721098959445953,,,,,,,,,
1739401427.73486,-0.7069401923317581,0.6731650396729051,1.4173342507366495,-1.8795970656657253,-0.707155337952471,1.9502450243274474,0.18491246362426517,-0.0006175150258476481,-0.0007472458258239198,-0.0002801831499418577,-0.0010126515981666523,-0.0008003648250407945,0.0007092288286123348,-0.0003060143612783917,0.2927129566669464,-23.58578872680664,19.501754760742188,17.97431182861328,0.8897806406021118,2.3604629039764404,-0.12721098959445953,,,,,,,,,
1739401427.744919,-0.7069380777411804,0.6731650369992818,1.4173335478683904,-1.8795988190187194,-0.7071552916750403,1.9502447888543002,0.18490694179743775,0.00028766744147708213,-0.0007300628575225229,-0.0011990873275521715,-0.0006038783695825538,0.000660458905666904,-9.011882935334791e-05,-0.002042855076769051,0.2927129566669464,-23.58578872680664,19.501754760742188,17.99811553955078,0.8897806406021118,2.3604629039764404,-0.08051909506320953,,,,,,,,,
1739401427.7558928,-0.7069363738753056,0.6731707493606096,1.4173302635578549,-1.8795967594429046,-0.7071538226858636,1.9502446711154011,0.18491003097321151,0.0004965419587430726,0.0016153541301349174,-0.0014585497019243198,-0.00024055216768026277,0.0005054770875079805,-0.0007416285566642334,-7.287963319776753e-05,0.2689092457294464,-23.66513442993164,19.529525756835938,17.97431182861328,0.8769632577896118,2.3604629039764404,-0.13361968100070953,,,,,,,,,
1739401427.7668636,-0.7069394159198175,0.6731650399952176,1.4173306266775867,-1.8795978251143253,-0.7071601404241453,1.9502446711147365,0.18490754662275594,-0.0004655272992494312,-0.0012245789472035279,-0.0010543181909831935,0.0001932915847622117,-0.001385105327880159,-0.00028057610957825976,-0.0016175235257135565,0.2689092457294464,-23.58578872680664,19.553329467773438,17.99811553955078,0.9035135507583618,2.3604629039764404,-0.08692778646945953,,,,,,,,,
1739401427.7778115,-0.7069401144429001,0.6731650409581892,1.4173341740995586,-1.8795968349869139,-0.7071537691777551,1.9502446711147365,0.18490932474593344,-0.00011540569173587107,-0.00154681082267989,0.0016335735804613677,0.0006415724287049938,0.0002990925727343808,0.00019800003705610584,-0.001452273167757237,0.2927129566669464,-23.58578872680664,19.501754760742188,17.97431182861328,0.8769632577896118,2.3604629039764404,-0.10066069662570953,,,,,,,,,
1739401427.7888262,-0.706938479917585,0.6731678741436379,1.4173341591625515,-1.8795970543267366,-0.7071560951216497,1.9502439149082083,0.18490996283874953,-0.00034460562532265287,0.00035446305096839493,0.0004397486638058378,0.0004020202088512979,0.0006781223162925475,-1.3956027633766342e-05,-0.0005485140338054963,0.2689092457294464,-23.58578872680664,19.501754760742188,17.97431182861328,0.8961893320083618,2.3668715953826904,-0.10706938803195953,,,,,,,,,
1739401427.7997842,-0.7069384885848186,0.6731650409741881,1.4173313013009896,-1.8795949820965807,-0.7071553379524436,1.9502431950404446,0.1849156010384309,-0.0003257267900174585,-0.0007849269022433484,-0.0015148249122777196,-0.0006696585428587447,0.0004115669937995211,-0.0014470113644296644,0.0003798597678986871,0.2689092457294464,-23.58578872680664,19.501754760742188,17.94654083251953,0.8897806406021118,2.3732802867889404,-0.15376128256320953,,,,,,,,,
1739401427.8098238,-0.7069401924389033,0.6731687552716873,1.417333167977428,-1.8796006187372052,-0.7071538226322897,1.9502439139398395,0.18491560103909763,-0.0010257160085373634,0.0006576230014696378,-8.918904433062943e-05,-0.0020863983179522753,0.0008738313013000735,-0.0004377917109312133,0.0029627685413507166,0.2927129566669464,-23.63736343383789,19.477951049804688,18.02191925048828,0.8769632577896118,2.3668715953826904,-0.15376128256320953,,,,,,,,,
1739401427.819919,-0.7069384800250227,0.6731670427510211,1.417335159574545,-1.8795960666888902,-0.707154580292368,1.950245428774823,0.18490769972685203,-0.0006248698852915049,0.0006775252892810488,-0.00038872923057888973,0.000464088043876187,-0.0004699062553771789,0.00018032267057873302,-0.0020732905245190616,0.2689092457294464,-23.61355972290039,19.450180053710938,17.97431182861328,0.8833719491958618,2.3540542125701904,-0.08692778646945953,,,,,,,,,
1739401427.8308935,-0.706938479918027,0.6731680012341663,1.4173410130265505,-1.8795929195646053,-0.7071553320655678,1.9502446711147365,0.18490859928285733,0.0004455412074976162,0.0008971277013013119,0.0010222756649896413,0.0008686862418134546,-0.00041039267352869574,-0.0009396491528424016,-0.000951920410056107,0.2689092457294464,-23.61355972290039,19.426376342773438,17.94654083251953,0.8897806406021118,2.3604629039764404,-0.09425200521945953,,,,,,,,,
1739401427.8418612,-0.7069419049594877,0.673165040971894,1.4173401343021217,-1.8795988370011698,-0.707155342313086,1.9502454281287924,0.1849113051697451,-0.0012196261979145135,-0.00013760958073221206,0.00024523233101635133,-0.0012462201334809068,0.00023687415084634486,-0.00020506936412578378,0.0011035083446328696,0.3165166676044464,-23.58578872680664,19.426376342773438,17.99811553955078,0.8897806406021118,2.3540542125701904,-0.10706938803195953,,,,,,,,,
1739401427.852856,-0.7069426071124116,0.6731646544568449,1.417340098979197,-1.8795893542274207,-0.707155337952471,1.9502470523321218,0.18491196191486037,-0.002190282464364395,0.00037772300162550323,0.0007215870066737006,0.0015878475820893714,5.4617235100963785e-05,0.0006233600503848646,-0.0004984566448944135,0.3165166676044464,-23.56198501586914,19.426376342773438,17.89893341064453,0.8897806406021118,2.3403213024139404,-0.11347807943820953,,,,,,,,,
1739401427.862858,-0.7069384446207582,0.6731649630865083,1.4173404188620111,-1.8795985392506736,-0.7071538226322897,1.9502454287748145,0.18491008096326447,-0.0001293027558345299,0.00027552682496750116,0.0002001023793637796,-0.0007229147655907267,0.0010627963852854346,0.00012621977342877,0.00017255941154421838,0.2689092457294464,-23.58578872680664,19.450180053710938,17.99811553955078,0.8769632577896118,2.3540542125701904,-0.10706938803195953,,,,,,,,,
1739401427.8738055,-0.7069385580259635,0.6731650408507576,1.417339256527654,-1.879592153865659,-0.707154580292368,1.950246186434893,0.1849099628387414,-0.0002659099991015454,0.0003973116038323985,-5.0493343475241934e-05,0.0012626702630421564,-0.0006300767738489494,-2.6306289421029814e-05,-0.0007382877798220654,0.2689092457294464,-23.58578872680664,19.477951049804688,17.94654083251953,0.8833719491958618,2.3476455211639404,-0.10706938803195953,,,,,,,,,
1739401427.8838756,-0.7069364820854924,0.6731622441518822,1.417336271108913,-1.8795949590583645,-0.7071541758449994,1.9502439134546579,0.1849132198197084,-5.158997265055753e-05,-0.0012008533037640603,-0.0012470538091820462,0.0004949274965056322,0.00013128179035290548,-0.0005205298781154723,-0.0002360351348494579,0.2411382496356964,-23.58578872680664,19.477951049804688,17.94654083251953,0.8769632577896118,2.3668715953826904,-0.13361968100070953,,,,,,,,,
1739401427.8948617,-0.7069384795970335,0.6731650322756132,1.4173344398071936,-1.8795949090313675,-0.7071560956145185,1.9502454287748145,0.18491151578911239,0.00019912783601705477,-0.0007580041064620503,-0.0007503202762861764,-0.0002615314605400548,-0.0007685347871946634,-0.00020032039979264317,0.0010341315536123593,0.2689092457294464,-23.58578872680664,19.501754760742188,17.94654083251953,0.8961893320083618,2.3540542125701904,-0.10706938803195953,,,,,,,,,
1739401427.9068835,-0.7069387919225837,0.6731650409581457,1.4173323434940626,-1.879597038790768,-0.7071521148864696,1.9502439134546579,0.18491590964798668,-0.0002776656590010115,-0.0007721412880998334,-0.00039239374514716044,-6.903848787784584e-05,0.0009298300474113036,-0.0002894960800071492,-0.00023860202007746994,0.2689092457294464,-23.58578872680664,19.501754760742188,17.97431182861328,0.8897806406021118,2.3668715953826904,-0.14735259115695953,,,,,,,,,
1739401427.9168987,-0.7069405946173619,0.6731670388990477,1.4173344891081234,-1.8795970652456644,-0.7071559197600515,1.9502439134546579,0.18491171772545706,-0.0011147804805697959,0.00016731741813212327,-0.0006103104100064569,-0.0016922548096664812,0.00025496347692850643,-0.0009127622632229532,3.249172720439368e-05,0.2689092457294464,-23.61355972290039,19.501754760742188,17.97431182861328,0.8769632577896118,2.3668715953826904,-0.12080229818820953,,,,,,,,,
1739401427.9278634,-0.7069345373909124,0.6731670388990477,1.417331592666999,-1.879594186428621,-0.7071538240976782,1.9502454287748145,0.1849132183636906,0.0019122623572200013,-0.00023340781163878817,-0.0008460606695844372,0.001584887958459235,0.0002863388627340492,0.0005175285483576317,0.0003378074585414835,0.2173345386981964,-23.61355972290039,19.501754760742188,17.94654083251953,0.8769632577896118,2.3540542125701904,-0.13361968100070953,,,,,,,,,
1739401427.9387848,-0.7069364811198826,0.6731678489992374,1.417329521364062,-1.8795969891317974,-0.7071595769894886,1.9502446711147363,0.1849136053932135,0.0009320069288176021,0.0005354528500123442,-0.0012444135358194433,-0.00047339241238929,-0.0015821253385219234,0.0001409030892119884,0.0017196184075208099,0.2411382496356964,-23.58578872680664,19.529525756835938,17.97431182861328,0.8897806406021118,2.3604629039764404,-0.10066069662570953,,,,,,,,,
1739401427.9488273,-0.7069347694564264,0.6731670649469822,1.4173336403499972,-1.8795947814125487,-0.7071597117569249,1.950246186434893,0.18491321989422643,0.00041008730340598974,-0.00016984294437145679,0.000782588501929413,0.0003877561462016879,-0.0018696589555066878,0.00044140867358540063,0.0010173512627148717,0.2173345386981964,-23.61355972290039,19.477951049804688,17.94654083251953,0.8897806406021118,2.3476455211639404,-0.13361968100070953,,,,,,,,,
1739401427.9588904,-0.7069399584353362,0.6731670389003711,1.417333452605217,-1.879598081778414,-0.7071550244046813,1.9502439134546579,0.1849085656240881,-0.0005161659624111652,0.0005343634093365179,-0.0008954864396094853,-0.0009673313398217002,0.00038836171609318387,-0.00016877775930793378,-0.0005064893525086132,0.2927129566669464,-23.61355972290039,19.501754760742188,17.99811553955078,0.8961893320083618,2.3668715953826904,-0.09425200521945953,,,,,,,,,
1739401427.9708197,-0.7069384799175848,0.6731669605769153,1.4173392218323508,-1.8795960707818222,-0.7071547372737789,1.9502439134546579,0.18491083909186443,-0.0013786436336095545,0.00040820780391933936,0.0003116757416764544,-0.00010605794454342698,8.716933287077221e-05,-0.0005458480424418604,-0.0011155327635235998,0.2689092457294464,-23.61355972290039,19.426376342773438,17.97431182861328,0.8833719491958618,2.3668715953826904,-0.11347807943820953,,,,,,,,,
1739401427.9808505,-0.7069371852714023,0.6731619244165,1.4173362705202475,-1.8795926121984814,-0.7071560956134109,1.9502446711147363,0.18491055483796282,-0.0005581258770386923,-0.001278235041024185,-0.0004190689604057024,0.0023221378914232856,-0.00026180682046206114,-0.00044401232632075853,0.0005274209314827416,0.2411382496356964,-23.56198501586914,19.477951049804688,17.94654083251953,0.8961893320083618,2.3604629039764404,-0.10706938803195953,,,,,,,,,
1739401427.9918787,-0.7069347694604111,0.6731672728945423,1.4173383398496848,-1.8795948972837586,-0.7071553335911226,1.9502443179020266,0.18490462853454806,0.00032204318218252053,0.00032660385791229645,0.0001459092839457343,-0.0004079632811532963,4.810692444974607e-05,-0.00108106794516453,-0.002465694022095326,0.2173345386981964,-23.61355972290039,19.450180053710938,17.97431182861328,0.8897806406021118,2.3604629039764404,-0.06678618490695953,,,,,,,,,
1739401428.0018916,-0.7069364819771723,0.6731649109602572,1.417338245659437,-1.8795942932951386,-0.7071521193015545,1.9502454287688331,0.18491357588037294,0.00044232240626486955,0.0003128920681467369,-9.726406476450833e-05,-0.0002390197690476212,0.0012532522738645834,0.00023151252624235995,0.0007999948985844828,0.2411382496356964,-23.58578872680664,19.450180053710938,17.94654083251953,0.8897806406021118,2.3540542125701904,-0.13361968100070953,,,,,,,,,
1739401428.012859,-0.7069394557613223,0.6731672698701398,1.417338116038695,-1.8795940470013475,-0.7071552354649594,1.950246186434893,0.18491277076442947,-0.00019023064480418292,-0.0001718745887019139,8.589268331055926e-05,-0.00032865977336646085,-9.257257258713875e-05,0.00026637291664710985,-0.0005801963902030951,0.2927129566669464,-23.61355972290039,19.450180053710938,17.97431182861328,0.8769632577896118,2.3476455211639404,-0.12080229818820953,,,,,,,,,
1739401428.024815,-0.7069347694522824,0.6731649629583584,1.4173383516221194,-1.8795969776416064,-0.7071553379604217,1.9502446711147363,0.18490860528376177,0.001104435748506593,-4.164502537476079e-05,0.0007971996222241062,-0.00016472440104395872,0.00047388500546076157,-0.00042777597114027695,-0.0001369551874221542,0.2173345386981964,-23.58578872680664,19.450180053710938,17.97431182861328,0.8897806406021118,2.3604629039764404,-0.09425200521945953,,,,,,,,,
1739401428.0348992,-0.7069364819771722,0.6731686736321933,1.4173400549325872,-1.8795931776885524,-0.7071530649722113,1.9502439134546579,0.18491171717945928,0.0010009496847609646,0.0010269002384548454,0.00027510289887854446,-0.0001913279123862575,0.0012749967878533976,-0.00031659355352667463,0.0010557457670194931,0.2411382496356964,-23.63736343383789,19.426376342773438,17.92273712158203,0.8705545663833618,2.3668715953826904,-0.12080229818820953,,,,,,,,,
1739401428.046855,-0.7069384811663287,0.6731633284370243,1.4173383516230014,-1.8795929167119632,-0.707154580292368,1.9502446711147363,0.18491174399276666,0.00020669177320791572,-0.0006966751026207549,0.00041885984345983886,0.0006428267062071625,0.0009300800325529048,-5.065135264472716e-05,-0.001431428249669106,0.2689092457294464,-23.56198501586914,19.450180053710938,17.94654083251953,0.8833719491958618,2.3604629039764404,-0.12080229818820953,,,,,,,,,
1739401428.0568855,-0.7069401924387635,0.6731650438471258,1.4173362718685865,-1.8795988473862617,-0.7071539796157161,1.9502439134546579,0.1849095842032165,-0.001167617121784647,-0.0012905585654106723,6.845142758333113e-05,-0.0010305822545251756,0.0019562312371899397,-0.00038225122173006547,-0.0012955371434469965,0.2927129566669464,-23.58578872680664,19.477951049804688,17.99811553955078,0.8769632577896118,2.3668715953826904,-0.06678618490695953,,,,,,,,,
1739401428.0668893,-0.7069371839874329,0.6731635653298637,1.417336894184957,-1.8795925851195951,-0.7071545802950265,1.9502446711147363,0.18491015473539094,-0.0003587336656048058,-0.0004487280650984158,0.0007654204469691231,0.0018290146802362604,-0.00029959611259547505,-0.0002481143800660438,-0.0008816435267881428,0.2411382496356964,-23.56198501586914,19.450180053710938,17.94654083251953,0.8833719491958618,2.3604629039764404,-0.08051909506320953,,,,,,,,,
1739401428.0778463,-0.7069401924427193,0.673166960899245,1.417336272770174,-1.8795947696295932,-0.7071556911651561,1.9502439134546579,0.1849132200565308,-0.00048624937619278424,-0.0003720297448986259,0.00010040927242971088,0.0008340387572303712,-0.0003003140201313147,-0.0006008626920046763,-0.0006870152702404962,0.2927129566669464,-23.61355972290039,19.477951049804688,17.97431182861328,0.8897806406021118,2.3668715953826904,-0.13361968100070953,,,,,,,,,
1739401428.0878491,-0.706937183987433,0.6731672757900782,1.4173344538353194,-1.879594722130676,-0.707156805520252,1.9502454287748145,0.18491020380557963,-0.0005405886737493206,0.0003410444452843905,-0.0004041215736786006,0.0019732990068380774,-0.00047891732407925793,0.00019126502264360867,-0.0007808239583252999,0.2411382496356964,-23.61355972290039,19.501754760742188,17.94654083251953,0.8833719491958618,2.3540542125701904,-0.10706938803195953,,,,,,,,,
1739401428.098784,-0.7069384799219881,0.6731670273446606,1.4173344093564666,-1.8795948834152447,-0.7071553394723932,1.9502461859503764,0.18491008094493466,-0.0001634314062958037,-0.00024340339487046724,-0.00012553318483135467,6.340956773611523e-05,-0.00011946096256660609,-0.00012202032301669214,-0.0012155137641341428,0.2689092457294464,-23.61355972290039,19.501754760742188,17.94654083251953,0.8897806406021118,2.3476455211639404,-0.10706938803195953,,,,,,,,,
1739401428.1088123,-0.7069364559767922,0.6731650525137235,1.4173362600584853,-1.8795985422233328,-0.707155455690042,1.9502439134546499,0.1849168851696738,2.4449668399516788e-06,8.128504195683997e-05,-0.0001793469568623812,0.00015462780334972955,0.0008441813305220438,0.00018091177477884494,0.0008638542975604876,0.2411382496356964,-23.58578872680664,19.477951049804688,17.99811553955078,0.8897806406021118,2.3668715953826904,-0.12721098959445953,,,,,,,,,
1739401428.1198783,-0.7069384760659703,0.6731691449298951,1.417336205856171,-1.8795960449567939,-0.7071545802930326,1.9502454287748145,0.18491497552867642,-0.0005294132357607512,0.0006866560257416148,0.0011458713877189675,0.0005951757357640513,0.0010661687788931624,0.00037149324684504,0.0019444534959787705,0.2689092457294464,-23.61355972290039,19.450180053710938,17.97431182861328,0.8833719491958618,2.3540542125701904,-0.14735259115695953,,,,,,,,,
1739401428.1308513,-0.7069347694564193,0.6731670389109363,1.4173362453305274,-1.8795942630922535,-0.7071548611152881,1.950244710360593,0.18491479946818437,0.0011738647434699008,-0.00017909025867173802,-0.0005571869351357659,0.000920808787772245,-5.672306770048162e-05,0.00022874236711164302,0.0032399516239942938,0.2173345386981964,-23.61355972290039,19.477951049804688,17.94654083251953,0.8897806406021118,2.3604629039764404,-0.13361968100070953,,,,,,,,,
1739401428.1409576,-0.7069387919225855,0.6731629349274129,1.4173362718331448,-1.879597849353877,-0.707156566554729,1.9502446711154011,0.18490963386188344,0.00020155786240875486,-0.000939609298259888,-0.0005686640053759505,-0.0021738670567292805,-1.6038564606750985e-05,-0.0005699241863772218,-0.00016514306670938511,0.2689092457294464,-23.58578872680664,19.477951049804688,17.99811553955078,0.8961893320083618,2.3604629039764404,-0.09425200521945953,,,,,,,,,
1739401428.151796,-0.7069401924405178,0.673165040946306,1.417336204875091,-1.8795968275335682,-0.7071554992991821,1.950244828098163,0.18491387991895286,-0.0011103492466370498,-0.0007782640004725939,-0.0008317651616457709,-5.084596080347491e-05,-0.0003507372896834988,0.0007286590543460529,-0.0008088281039682007,0.2927129566669464,-23.58578872680664,19.450180053710938,17.97431182861328,0.8897806406021118,2.3604629039764404,-0.11347807943820953,,,,,,,,,
1739401428.1618586,-0.7069402011055498,0.6731671556557699,1.417336041881928,-1.8795939654795697,-0.7071553379551787,1.950244671117395,0.1849119224227653,-0.0004780055834122791,-0.0011254265716098908,-0.0004820497073236904,0.001282887163911465,0.0005059160058568033,-0.00018226058482594316,0.00017808237805536705,0.2927129566669464,-23.58578872680664,19.477951049804688,17.94654083251953,0.8897806406021118,2.3604629039764404,-0.09425200521945953,,,,,,,,,
1739401428.172819,-0.706938477029143,0.6731639524585216,1.4173362718322955,-1.8795946766030742,-0.7071553381677871,1.9502446711147365,0.1849066585360502,-3.527457419754657e-05,-0.000608611160560939,-0.0010346628113434555,-0.00016316161194685798,0.0007950368181867639,0.00043829582075515146,-0.0023926991352615974,0.2689092457294464,-23.56198501586914,19.477951049804688,17.94654083251953,0.8897806406021118,2.3604629039764404,-0.07411040365695953,,,,,,,,,
1739401428.1828332,-0.7069384799179763,0.6731663715665284,1.417339116917654,-1.8795942602583549,-0.7071553379524499,1.9502461864348932,0.1849164186123409,-0.0003473468156887945,0.001030468325107774,0.0002249013736517823,0.0003977379626450712,0.0006618199803328591,0.00041516687179103136,0.0004347220635732272,0.2689092457294464,-23.61355972290039,19.450180053710938,17.94654083251953,0.8897806406021118,2.3476455211639404,-0.13361968100070953,,,,,,,,,
1739401428.192852,-0.7069408918810783,0.6731650399839163,1.4173401313699894,-1.8795949817694202,-0.7071560960970413,1.9502454287748148,0.18491748508186592,-0.00046462362888744104,-0.000434916190505628,0.001122080863920787,7.373659813926904e-05,-0.0002990406061431798,0.00016450432594419435,0.0018746649802271827,0.2927129566669464,-23.58578872680664,19.426376342773438,17.94654083251953,0.8961893320083618,2.3540542125701904,-0.13361968100070953,,,,,,,,,
1739401428.2038286,-0.7069334399366577,0.6731650409581892,1.4173347187448193,-1.8795928967662152,-0.7071545801288464,1.950243913454658,0.18491122604073734,0.0011710971227499088,0.0001420012633434578,-0.000398149848577041,-0.0004972538786673097,-0.00012844307034979522,-0.0003026833044077166,-8.998554520252982e-05,0.2411382496356964,-23.58578872680664,19.501754760742188,17.92273712158203,0.8833719491958618,2.3668715953826904,-0.08051909506320953,,,,,,,,,
1739401428.214903,-0.7069394940226713,0.6731659769718755,1.4173362719398683,-1.879596062278266,-0.7071553381139509,1.950244671276242,0.1849165765390642,-0.0015289406100446488,-0.0003560310030130344,-0.0005115538176255661,-0.0004937465004908616,0.0006618263087246013,0.00011290587008881385,0.001548659320052948,0.2689092457294464,-23.58578872680664,19.477951049804688,17.97431182861328,0.8897806406021118,2.3604629039764404,-0.13361968100070953,,,,,,,,,
1739401428.2257938,-0.7069409204551218,0.6731671469942606,1.4173362453063023,-1.8795949858352181,-0.7071553379524472,1.9502472460730236,0.18491171768421502,-0.0018733869016412785,-0.0003168129958445963,8.319454576918415e-05,-0.0006106551556116986,0.00023995848562178115,0.000879004730519796,0.00022088284656064,0.2927129566669464,-23.58578872680664,19.477951049804688,17.94654083251953,0.8897806406021118,2.3476455211639404,-0.12080229818820953,,,,,,,,,
1739401428.23586,-0.7069384799303542,0.6731663369244529,1.417334486212686,-1.8795908279523983,-0.7071592745269126,1.9502454268546927,0.18490774133091345,1.8964165614957705e-05,-0.0005830180545118223,0.0003525998048671053,0.002352499168673561,-0.001060610045435784,0.0003383371205614233,-0.0012136180091799375,0.2689092457294464,-23.61355972290039,19.501754760742188,17.92273712158203,0.8961893320083618,2.3540542125701904,-0.08692778646945953,,,,,,,,,
1739401428.2458699,-0.7069364790882413,0.673165352950867,1.417332408058474,-1.8796009928099933,-0.7071558525630686,1.950244671114704,0.18491642299292085,0.0004996013162679834,-3.2396012619798835e-05,-0.00041524180924661677,-0.0014048142365010183,0.0002569618753095478,0.00044102366019430436,0.0007208792354402359,0.2411382496356964,-23.58578872680664,19.529525756835938,17.99811553955078,0.8897806406021118,2.3604629039764404,-0.13361968100070953,,,,,,,,,
1739401428.256813,-0.7069422979345349,0.6731694534318008,1.417335450614036,-1.879596836089575,-0.7071577577379413,1.9502439134546579,0.18491003250810165,-0.0014013632278346935,0.0012165510859652466,0.0012102137219174344,-0.00010115093470264568,0.00013730528705056154,-0.0004212719594381747,6.351612746024267e-05,0.2927129566669464,-23.63736343383789,19.477951049804688,17.97431182861328,0.8833719491958618,2.3668715953826904,-0.13361968100070953,,,,,,,,,
1739401428.266819,-0.7069384800249955,0.6731653789988009,1.417332339096006,-1.8795949858642116,-0.7071553356367853,1.9502431557945796,0.18491353021074544,-0.00044955262312527906,0.00011130193590097918,-0.00028424122504341345,0.0006517161671339888,-0.001326089096139114,-0.00037816943520961404,0.0020713420906881027,0.2689092457294464,-23.58578872680664,19.501754760742188,17.94654083251953,0.8897806406021118,2.3732802867889404,-0.12721098959445953,,,,,,,,,
1739401428.2768402,-0.7069326576477973,0.673170857488135,1.4173360362373004,-1.87959291954653,-0.7071564450560848,1.9502454287748145,0.1849124767940087,0.0019358493379564795,0.00034225031559713924,0.0013314316395515533,-4.255931515550256e-05,-0.0008655084194350302,0.00045170881392983336,0.00020637346233653216,0.2173345386981964,-23.63736343383789,19.477951049804688,17.94654083251953,0.8961893320083618,2.3540542125701904,-0.12721098959445953,,,,,,,,,
1739401428.286845,-0.7069405859130437,0.6731670389347142,1.4173330664242625,-1.8795928175073022,-0.7071545846589365,1.9502454287748145,0.184914444047397,-0.00020516640819386104,0.0003748326234411941,-0.000538782193685411,0.0009234250509069044,0.00019355668762931073,3.719934847598043e-05,0.0017144534854135398,0.2689092457294464,-23.61355972290039,19.477951049804688,17.94654083251953,0.8833719491958618,2.3540542125701904,-0.13361968100070953,,,,,,,,,
1739401428.2968583,-0.7069384684692964,0.6731673509036099,1.417329548180918,-1.8795974971939702,-0.7071553771985247,1.9502439134546579,0.18491591165226395,0.00017275921236912766,0.0010737164108162909,-0.0011486255044436866,-0.0007998772660651591,0.0005736255010655577,-0.00045830781900340224,0.0007034013637220306,0.2689092457294464,-23.61355972290039,19.529525756835938,17.99811553955078,0.8897806406021118,2.3668715953826904,-0.14735259115695953,,,,,,,,,
1739401428.306886,-0.7069364733103143,0.6731658469717368,1.4173401333031703,-1.879594752465763,-0.7071553379526678,1.9502439134546579,0.18491359272156863,0.000986848984439351,0.0001243206614678571,0.0022586791666860534,0.0004029281660135722,-0.00027338689110760223,-0.0003272397963286744,0.001669228198022523,0.2411382496356964,-23.58578872680664,19.426376342773438,17.94654083251953,0.8897806406021118,2.3668715953826904,-0.10066069662570953,,,,,,,,,
1739401428.317858,-0.7069427693652611,0.6731667243576639,1.417336433990943,-1.879590693648493,-0.70715387953609,1.9502446711147363,0.1849148126552539,-0.002060855105804598,0.0011176408824280898,0.000261952664287124,0.001995554695053975,-0.0010684253286396268,-0.0004518184883037301,0.0023686308042366122,0.2927129566669464,-23.63736343383789,19.450180053710938,17.89893341064453,0.8769632577896118,2.3604629039764404,-0.13361968100070953,,,,,,,,,
1739401428.3287864,-0.706932039466751,0.6731651318589174,1.4173383515762854,-1.8795970656616274,-0.7071569615100782,1.9502404325622194,0.18491323738231935,0.0014069072410477167,0.00028453626490003035,1.4331232832659588e-05,-0.0014682433632910558,0.0011543250978936354,-0.0022434689587889117,0.0006389937144454828,0.2173345386981964,-23.58578872680664,19.450180053710938,17.97431182861328,0.9035135507583618,2.3604629039764404,-0.13361968100070953,,,,,,,,,
1739401428.3388684,-0.7069364819309396,0.6731678490007769,1.4173383251324951,-1.8795901409722515,-0.7071553379524463,1.9502446715274728,0.18491156301837589,-0.00011269469975940523,0.0017059307431220028,-0.0005674563180836586,0.001582615296996702,0.00024175680917422614,-0.00036280102162574096,0.00014253627812392934,0.2411382496356964,-23.58578872680664,19.450180053710938,17.92273712158203,0.8897806406021118,2.3604629039764404,-0.08051909506320953,,,,,,,,,
1739401428.3498638,-0.7069413399598272,0.6731650410057491,1.4173383525678083,-1.8795919245422192,-0.7071552982160164,1.9502446711147434,0.18491325987865298,-0.0014062174377059609,0.00022683329956710164,0.0006917495899208361,-5.487465024699392e-05,0.0008527112494085949,0.0005903350273655636,0.0007223192466295457,0.2689092457294464,-23.58578872680664,19.450180053710938,17.94654083251953,0.8897806406021118,2.3604629039764404,-0.13361968100070953,,,,,,,,,
1739401428.3598688,-0.7069384018260326,0.6731633544378438,1.4173362717972602,-1.879598822465733,-0.7071568816225833,1.950243913454658,0.18490856562431054,0.00010506913856349826,0.0001850487516174418,-0.0006471108349940823,-0.0018175758289098961,-0.0008185250435828092,-0.00013542837287375492,-0.0006920587511612176,0.2689092457294464,-23.56198501586914,19.477951049804688,17.99811553955078,0.8897806406021118,2.3668715953826904,-0.09425200521945953,,,,,,,,,
1739401428.3709068,-0.7069384799532502,0.6731687254195456,1.4173404179864413,-1.8795977724180528,-0.7071518326005439,1.9502454287748148,0.18491592296611636,-0.0006360287231068997,0.0007379850648489723,0.0012527522816603671,-0.0006173106772032178,0.00046569579894168453,0.0004875389982110747,0.0015881413396431816,0.2689092457294464,-23.63736343383789,19.450180053710938,17.97431182861328,0.8833719491958618,2.3540542125701904,-0.14735259115695953,,,,,,,,,
1739401428.3828452,-0.7069364819771724,0.6731695574314128,1.4173362718452582,-1.879594199648173,-0.707158511782067,1.950243913454658,0.1849135891160381,0.0008615979346418135,0.0018079136964074957,7.479622235217578e-05,0.0010916524124492157,-0.0003114352836286844,-0.0005943607660658585,0.0005361423031632142,0.2411382496356964,-23.63736343383789,19.477951049804688,17.97431182861328,0.8897806406021118,2.3668715953826904,-0.13361968100070953,,,,,,,,,
1739401428.3928645,-0.7069347694564411,0.6731633282993501,1.417334489296546,-1.879596374050345,-0.7071588188628017,1.9502454287748148,0.18491374783500475,-0.00012371003439916068,-0.0007432798218688845,-0.0003893699075113677,-0.00036152797881304374,-0.0009716197274792275,9.213999997289367e-05,0.0018242374050633208,0.2173345386981964,-23.56198501586914,19.501754760742188,17.97431182861328,0.8833719491958618,2.3540542125701904,-0.13361968100070953,,,,,,,,,
1739401428.4037805,-0.7069385463634409,0.6731724618813624,1.4173344625566058,-1.8795919747699588,-0.7071546981076999,1.9502446711147365,0.18491475991637898,-0.0003001099345929577,0.0015051698365122533,0.0010539062521539976,0.002022565606691338,0.00013540338645349852,0.00014510186005073705,0.0011914853324936831,0.2689092457294464,-23.68893814086914,19.501754760742188,17.94654083251953,0.8833719491958618,2.3604629039764404,-0.10706938803195953,,,,,,,,,
1739401428.413847,-0.7069385579202906,0.6731671441845373,1.4173293095976915,-1.879592896715245,-0.7071552982180117,1.9502446711147365,0.18490698163715574,-0.00036050682532738875,0.0014490241957745838,-0.0003810068489132568,0.0006948063155295788,0.0006032496295346987,0.0009304073645145918,-0.0015684042594359122,0.2689092457294464,-23.61355972290039,19.529525756835938,17.92273712158203,0.8897806406021118,2.3604629039764404,-0.08051909506320953,,,,,,,,,
1739401428.423848,-0.7069347695647594,0.6731687398658374,1.4173361539345126,-1.8795967595428584,-0.7071503061998742,1.9502446711147365,0.1849102015310359,0.0004085930152602242,0.0006668820083194757,0.0007853578204554196,9.759833607002197e-05,0.0015989895885173955,0.0004089021682795222,-0.002062833189110954,0.2173345386981964,-23.63736343383789,19.477951049804688,17.97431182861328,0.8833719491958618,2.3604629039764404,-0.10706938803195953,,,,,,,,,
1739401428.4338963,-0.7069364704214496,0.6731670388988521,1.4173316006595291,-1.87959786356797,-0.7071538220693343,1.9502446711147365,0.18491882465817266,0.00039357268384130565,-0.0009294997495548197,-0.0003197688500654833,-0.001518828968112809,0.0013771127688792528,-0.00030590207479008036,0.002329949862159695,0.2411382496356964,-23.61355972290039,19.501754760742188,18.02191925048828,0.8769632577896118,2.3604629039764404,-0.14094389975070953,,,,,,,,,
1739401428.4448724,-0.7069401144375511,0.6731651189950005,1.417332329841215,-1.8795988518317985,-0.7071561091244822,1.9502437955555825,0.18491490331090626,-0.0014129800722588412,-0.0006270826759764119,-0.0014019284510240607,-0.002073430181930564,-0.0012293406624861274,-0.0006860444559633342,0.0005653692249945365,0.2927129566669464,-23.58578872680664,19.529525756835938,17.99811553955078,0.8961893320083618,2.3668715953826904,-0.12080229818820953,,,,,,,,,
1739401428.4558856,-0.706935470182292,0.6731673537929797,1.4173355565410686,-1.8795970571274885,-0.7071553379525226,1.950245428774149,0.18491803937147822,0.0010732833539993324,-0.00014851782878753155,-0.000556098537843477,-0.0007125732136334104,-0.00020660991656846963,-0.0003167864964202069,0.002174017137545955,0.2173345386981964,-23.61355972290039,19.477951049804688,17.97431182861328,0.8897806406021118,2.3540542125701904,-0.17390288412570953,,,,,,,,,
1739401428.4668581,-0.706936480590161,0.6731658469717531,1.4173382456555985,-1.8795963679427221,-0.7071545817459182,1.9502454287748145,0.18491186246644725,0.00038238993748014024,-0.00014058767937905677,0.0003089639289032415,0.0002664062156120207,0.00034709623287668416,0.00041479025341806784,0.00018638749629327182,0.2411382496356964,-23.58578872680664,19.450180053710938,17.97431182861328,0.8833719491958618,2.3540542125701904,-0.12080229818820953,,,,,,,,,
1739401428.4777806,-0.706938479597025,0.6731672253156592,1.4173323401182762,-1.8795931690418701,-0.7071553379524546,1.9502454287748145,0.18491083909275616,-0.00034391782246573073,0.0004184203336590071,-0.0003694935282623613,0.001341210851047622,0.0014607911402355496,0.000451177276639132,0.0003667779241873751,0.2689092457294464,-23.58578872680664,19.501754760742188,17.92273712158203,0.8897806406021118,2.3540542125701904,-0.11347807943820953,,,,,,,,,
1739401428.488843,-0.7069401927597433,0.6731670419319686,1.4173401341550578,-1.8795991771043525,-0.7071538226322897,1.9502454287748145,0.1849125810597164,-0.0006870626289793515,0.0001317768931414986,0.0009483631884838852,-0.0015766129540690146,-8.824628679277849e-05,4.8131558725637266e-05,-0.0013113937105284775,0.2927129566669464,-23.61355972290039,19.426376342773438,17.97431182861328,0.8769632577896118,2.3540542125701904,-0.10066069662570953,,,,,,,,,
1739401428.4988792,-0.7069364819771741,0.6731616420241268,1.4173362610046436,-1.8795919754519927,-0.7071542777177149,1.950239674902141,0.1849151993594154,0.0005253374242543615,-0.0004995262238897884,-0.0019854385800237256,0.0017647332357420458,0.0013447179375657133,-0.0010165794308658477,-3.0959234899299772e-06,0.2411382496356964,-23.53818130493164,19.477951049804688,17.94654083251953,0.8833719491958618,2.3668715953826904,-0.14735259115695953,,,,,,,,,
1739401428.5089064,-0.7069347694564411,0.6731633284379056,1.4173419168682877,-1.8795970646699411,-0.7071547357989507,1.950244688485559,0.18491095724629275,0.0005923130174715954,-0.00169064407112301,0.0016169400556899603,-0.0002995302716655479,-0.0005283519126113565,-0.00010976141379691334,-0.0007117616778976,0.2173345386981964,-23.56198501586914,19.402572631835938,17.97431182861328,0.8833719491958618,2.3604629039764404,-0.11347807943820953,,,,,,,,,
1739401428.519862,-0.7069380605145917,0.673167042750956,1.4173383516234486,-1.8795901165122255,-0.7071554816912741,1.9502431556331723,0.18491250165344317,-0.00011612695923767478,0.0002002369467472624,-0.00021355741273912322,0.0015108580801966507,0.0005492501158844083,-0.0007923506927910353,0.0005663258009110759,0.2927129566669464,-23.61355972290039,19.450180053710938,17.92273712158203,0.8897806406021118,2.3732802867889404,-0.12721098959445953,,,,,,,,,
1739401428.5308418,-0.7069354727386363,0.6731653542467461,1.417338325132496,-1.8795967734927113,-0.7071545802931793,1.9502454289363194,0.18491429940902854,0.0016094755788239993,0.0002846969242243046,0.0006076045267379614,0.00033140919160097766,-0.00021442479477223826,0.00020808724410024558,0.0001327945934723888,0.2173345386981964,-23.58578872680664,19.450180053710938,17.99811553955078,0.8833719491958618,2.3540542125701904,-0.13361968100070953,,,,,,,,,
1739401428.5417795,-0.7069364819811422,0.6731634328687418,1.417334247758068,-1.8795925130576372,-0.7071561086944769,1.9502439090940082,0.18491658096288358,0.0005568201421062657,-0.0011969724671101007,-0.0007095919044013405,0.0011460209294046262,-0.0006264004593246992,-0.00029989817782342265,0.0017665205662565763,0.2411382496356964,-23.56198501586914,19.501754760742188,17.92273712158203,0.8961893320083618,2.3668715953826904,-0.13361968100070953,,,,,,,,,
1739401428.5528557,-0.706938479383038,0.6731666453907653,1.4173372442116228,-1.8795949820849571,-0.7071559366670268,1.9502455857581675,0.1849142136100958,-0.0005101337082142955,0.00012388793312101285,-0.0003574026006948182,-6.512684081118095e-05,0.0005536060039816053,0.0007536228765780872,0.001156590929098582,0.2689092457294464,-23.63736343383789,19.501754760742188,17.94654083251953,0.8961893320083618,2.3540542125701904,-0.11347807943820953,,,,,,,,,
1739401428.562874,-0.7069364790882381,0.6731688322979615,1.417340131512553,-1.8795985609461645,-0.7071556911642588,1.9502446711156227,0.18491420421142268,0.0005184862000572903,0.00022987259078185385,0.001502473182358793,-0.0008805242523814993,0.00025452728818507346,4.72061216246188e-05,0.0016721936556097477,0.2411382496356964,-23.63736343383789,19.426376342773438,18.02191925048828,0.8897806406021118,2.3604629039764404,-0.14094389975070953,,,,,,,,,
1739401428.5739038,-0.7069384808809859,0.6731670514182058,1.41733448882951,-1.8795932031521776,-0.7071555123804697,1.950243913454658,0.18491170450222075,-5.053514008464559e-05,-0.000213556758538089,-0.0008049650408211838,0.0013462856298421758,-0.0014858202845676903,-0.00029569453610085055,-0.00040087536533860445,0.2689092457294464,-23.61355972290039,19.501754760742188,17.92273712158203,0.8897806406021118,2.3668715953826904,-0.12080229818820953,,,,,,,,,
1739401428.5849438,-0.7069401924387618,0.6731641309449644,1.4173344803262549,-1.879596980633041,-0.7071561948647465,1.9502454287748148,0.18491654357834095,-0.0011313678626055992,-0.002274188156852361,0.0009960322130293513,0.0005273952828099684,-0.0007374451810296071,0.0007406232430882147,0.0037486433903249493,0.2927129566669464,-23.58578872680664,19.501754760742188,17.97431182861328,0.8961893320083618,2.3540542125701904,-0.13361968100070953,0,0,0,0.000,0,0
1739401428.5968504,-0.7069343759463902,0.6731670749520509,1.4173324005000127,-1.8795949858753953,-0.70715458023842,1.9502446667540858,0.184914843397782,0.0005041155462232778,-0.0002902891610772552,-0.00035024278062116034,0.000603497154512991,0.00012525909774467053,0.00012435052462491443,0.0006080116531681327,0.2411382496356964,-23.61355972290039,19.529525756835938,17.94654083251953,0.8833719491958618,2.3604629039764404,-0.14735259115695953,0,0,0,0.000,0,0
1739401428.6068604,-0.706938483722379,0.6731649338314463,1.4173323335778485,-1.8795949830064593,-0.707154882916441,1.9502439134546334,0.18491633380892009,-0.000756141065716466,-0.00028829492881359323,-0.0009027046695117754,-4.565710224856763e-05,9.368151831225317e-05,-0.0004442169168674335,0.0007249535282887672,0.2689092457294464,-23.61355972290039,19.501754760742188,17.94654083251953,0.8769632577896118,2.3668715953826904,-0.12080229818820953,0,0,0,0.000,0,0
1739401428.6178339,-0.7069330598246624,0.6731649328563826,1.417338351465926,-1.8795987714983773,-0.7071545817519036,1.9502446711147363,0.18491566097036571,0.0010563440985375374,-0.00016023145369000033,0.0001758912724081338,-0.0006491204475375474,0.001340482753571705,0.00027762247522237533,0.0005452566089994405,0.1935308277606964,-23.61355972290039,19.450180053710938,17.99811553955078,0.8833719491958618,2.3604629039764404,-0.12721098959445953,0,0,0,0.000,0,0
1739401428.6278548,-0.7069354714667506,0.673167307426978,1.4173380775565478,-1.8795981595766644,-0.7071556911651807,1.9502439129701412,0.18491444135591728,0.0005059934392947254,0.0011796207699717495,-0.00014588729299453676,-0.0008411728704025997,-0.0005362848028155684,-0.0007508608907267728,0.0002993894552643701,0.2173345386981964,-23.61355972290039,19.450180053710938,17.99811553955078,0.8897806406021118,2.3668715953826904,-0.14094389975070953,0,0,0,0.000,0,0
1739401428.63789,-0.706940192450645,0.6731650409627422,1.417339040698528,-1.8795940675111653,-0.7071592759864446,1.9502446711147283,0.18491571555529346,-0.00046096965215948905,0.00048003172176030605,0.0001561960779350608,0.000985176791141591,-0.0007301399863067451,7.099696407902188e-05,0.0010890211785698363,0.2927129566669464,-23.58578872680664,19.450180053710938,17.94654083251953,0.8961893320083618,2.3604629039764404,-0.12721098959445953,0,0,0,0.000,0,0
1739401428.6488507,-0.7069364819771723,0.6731650669585747,1.4173361805908669,-1.879594985870691,-0.7071538228655837,1.9502446711147363,0.18490958508810568,0.00035232179730069005,-0.0007372130141314865,2.120047739434377e-05,-0.0005846240345254003,6.679590918065397e-06,0.00026690334948591544,-0.00019051197482529013,0.2411382496356964,-23.58578872680664,19.477951049804688,17.94654083251953,0.8769632577896118,2.3604629039764404,-0.06678618490695953,0,0,0,0.000,0,0
1739401428.6588771,-0.7069364820841697,0.673168057002718,1.4173411066810404,-1.8795922194790469,-0.7071541758450034,1.9502446711147363,0.18491471951942,6.84867853164937e-05,0.00032325132518741035,0.0009318303856603427,0.0014784615341869633,0.0006468318304500393,1.9033656805716625e-05,0.001250556499007268,0.2411382496356964,-23.58578872680664,19.450180053710938,17.94654083251953,0.8769632577896118,2.3604629039764404,-0.10706938803195953,0,0,0,0.000,0,0
1739401428.6708753,-0.7069364819771728,0.6731634190813282,1.4173382722347818,-1.8795940586540156,-0.7071561108827709,1.950246186434893,0.18490860514141258,0.00028845373503584223,-0.0004551124905063074,0.0005395884137699887,0.001261249834364826,6.440558099300378e-05,0.0010162253941128833,-0.0022689436217365436,0.2411382496356964,-23.56198501586914,19.450180053710938,17.94654083251953,0.8833719491958618,2.3476455211639404,-0.09425200521945953,0,0,0,0.000,0,0
1739401428.6808949,-0.7069363726032738,0.6731691709307216,1.4173383587090587,-1.8795928970409472,-0.7071560956211649,1.9502446711147363,0.18491428819549416,-0.00010749873283393371,0.0005259412200766578,0.00010515190955177759,0.0006581240311050576,-0.0005852755559513634,5.0843894518147665e-05,0.0014711796747016261,0.2689092457294464,-23.61355972290039,19.450180053710938,17.92273712158203,0.8961893320083618,2.3604629039764404,-0.13361968100070953,0,0,0,0.000,0,0
1739401428.6918027,-0.7069408944371213,0.6731691536086586,1.4173362713975686,-1.8795922194423258,-0.707158673850261,1.950246186434893,0.1849104408126378,-0.0009526184122239243,0.0004485664521343587,0.00021048435463402209,0.00046019161256469253,0.00015266390770817884,0.00013132068672017962,-0.0008038147089961176,0.2927129566669464,-23.61355972290039,19.477951049804688,17.94654083251953,0.8897806406021118,2.3476455211639404,-0.10706938803195953,0,0,0,0.000,0,0
1739401428.7028275,-0.7069357799708743,0.6731623179389304,1.4173383525682546,-1.8795967470748973,-0.7071553379712775,1.950243611476607,0.18491190632985352,0.001492451056103579,-0.002359228728975154,0.000999474614848138,0.0001260639458415516,0.0008456250218756322,-0.0006246067816809832,-0.00028495033103881806,0.2411382496356964,-23.53818130493164,19.450180053710938,17.99811553955078,0.8897806406021118,2.3604629039764404,-0.11347807943820953,0,0,0,0.000,0,0
1739401428.7138426,-0.7069384799140623,0.6731650409621576,1.4173316281336308,-1.879594948981522,-0.7071558093872429,1.9502454287688331,0.18491686201630483,-0.0004931855002205857,-0.0006784709097126289,-0.0010866182038649665,0.0007922929226646565,-0.0006847163062030578,-0.0002581560937655934,0.0014796397789331177,0.2689092457294464,-23.58578872680664,19.501754760742188,17.94654083251953,0.8897806406021118,2.3540542125701904,-0.16108550131320953,0,0,0,0.000,0,0
1739401428.724875,-0.7069401924387564,0.6731687514197789,1.417336180429509,-1.879594959945529,-0.7071560558840786,1.950246186434893,0.18491131445490905,0.00020744657231591717,-0.0006003024630313696,0.00017503232548602064,-0.00043738078664017435,0.0010134598437721795,-5.52485082044117e-06,3.292654513283422e-05,0.2927129566669464,-23.63736343383789,19.477951049804688,17.94654083251953,0.8961893320083618,2.3476455211639404,-0.11347807943820953,0,0,0,0.000,0,0
1739401428.7358294,-0.7069401837600745,0.6731694633808023,1.417333808174771,-1.879594294264955,-0.7071545846529439,1.9502446711147363,0.1849155970983752,-0.0008272350175334314,0.00012138806467017259,-0.00017274229251492464,0.0011665889284826175,0.000599958468811135,6.960677868496484e-05,0.0013495117733384378,0.2927129566669464,-23.63736343383789,19.477951049804688,17.94654083251953,0.8833719491958618,2.3604629039764404,-0.11347807943820953,0,0,0,0.000,0,0
1739401428.7458742,-0.7069347694562941,0.6731687556047364,1.417334489005836,-1.8795970628195953,-0.7071553379525202,1.9502446711147363,0.18491489627697746,0.001724288735703566,0.0008549642540944284,0.0004128411534140033,-0.0006082807759796058,0.0010267480194413722,6.247955151294028e-05,0.00040425040235124573,0.2173345386981964,-23.63736343383789,19.501754760742188,17.97431182861328,0.8897806406021118,2.3604629039764404,-0.14735259115695953,0,0,0,0.000,0,0
1739401428.7567816,-0.7069364819771722,0.6731687605145856,1.4173337739008365,-1.8795963769009305,-0.7071540306272546,1.9502446711147363,0.1849127860932991,0.000935130612183818,0.0002843631187862966,-0.0012214474923522402,-0.0005082814640989976,0.0009700328144634251,0.00010516734234200647,0.0002739691317702786,0.2411382496356964,-23.63736343383789,19.501754760742188,17.97431182861328,0.8769632577896118,2.3604629039764404,-0.12080229818820953,0,0,0,0.000,0,0
1739401428.766877,-0.7069313448429685,0.6731650409583486,1.4173343821995021,-1.8795932031871918,-0.7071575078127885,1.9502439134546579,0.18491420187041196,0.002274461255867313,-0.0006528662439964087,-0.00043354758483442747,0.0007714512017038055,-0.0007032659923567083,-0.00024243942525264945,0.002165611066068153,0.1697271168231964,-23.58578872680664,19.501754760742188,17.92273712158203,0.8961893320083618,2.3668715953826904,-0.11347807943820953,0,0,0,0.000,0,0
1739401428.7778523,-0.7069384799180276,0.6731650765883451,1.4173385812111068,-1.8795968360774693,-0.7071577596992447,1.9502454287748145,0.18491339145652663,-0.0005214840724325105,-0.00011787216363545458,0.001479446770140516,-0.00015671588178686304,-8.920564417992096e-06,0.0005131861281635534,-0.0005467982386808832,0.2689092457294464,-23.58578872680664,19.450180053710938,17.97431182861328,0.8833719491958618,2.3540542125701904,-0.13361968100070953,0,0,0,0.000,0,0
1739401428.7888155,-0.7069364819771723,0.6731653790703336,1.4173383516247453,-1.879594756181339,-0.7071560958458133,1.9502446711147363,0.18491236017026896,0.0001443358640078156,-0.0001571453300957271,0.0009420953057148403,0.0004098665977939945,0.0010431483474909618,0.00012872686616461994,-0.0010701006803145992,0.2411382496356964,-23.58578872680664,19.450180053710938,17.94654083251953,0.8961893320083618,2.3604629039764404,-0.08692778646945953,0,0,0,0.000,0,0
1739401428.7998981,-0.7069364819771723,0.6731622329228779,1.4173357201887615,-1.8795919256763136,-0.7071597334883942,1.9502446711147363,0.18491208397273737,0.0003886197689223857,-0.0009647627932016498,-0.00014766119729568884,0.0005332196476012036,-0.0010602617569098226,-0.0003000708539954744,-0.0012100173291327491,0.2411382496356964,-23.58578872680664,19.450180053710938,17.94654083251953,0.8897806406021118,2.3604629039764404,-0.08692778646945953,0,0,0,0.000,0,0
1739401428.8108459,-0.7069347694564411,0.673168080204823,1.4173379872887495,-1.879594679717442,-0.7071545803006389,1.9502454287748145,0.18490742915051403,0.00022977337893190447,0.0016721611165421528,0.00034476893954674093,0.0010362927957889218,-0.00010070398171983336,0.00022841170272914216,-0.0018518116199901433,0.2173345386981964,-23.61355972290039,19.426376342773438,17.94654083251953,0.8833719491958618,2.3540542125701904,-0.08051909506320953,0,0,0,0.000,0,0
1739401428.8217862,-0.7069364819771723,0.6731650409640729,1.4173364999925235,-1.879598836583415,-0.7071578805139127,1.9502454287748145,0.18491192393636255,0.00034010098346562006,-0.0004391178604856592,-0.0009072386359057807,-0.0015611740755538412,-0.0016180373725112461,0.000305674246603625,-0.0016265891119657007,0.2411382496356964,-23.58578872680664,19.477951049804688,17.99811553955078,0.9099222421646118,2.3540542125701904,-0.11347807943820953,0,0,0,0.000,0,0
1739401428.8329034,-0.7069384799180253,0.6731650409581947,1.4173382460834147,-1.87959487533318,-0.7071553379551787,1.9502454287748145,0.1849105540285833,0.00010279272674164642,-0.00015291678124890846,0.00045993080030383015,-6.279500620985935e-06,0.0003634096044401829,0.000185702550581505,-0.0020057759884039884,0.2689092457294464,-23.58578872680664,19.450180053710938,17.94654083251953,0.8897806406021118,2.3540542125701904,-0.10066069662570953,0,0,0,0.000,0,0
1739401428.84384,-0.7069364819771723,0.6731672848267392,1.4173336394175606,-1.8795913184824016,-0.7071545807768846,1.9502454287748145,0.18490998041686182,0.0006017242377767386,0.0010189089213102857,-0.0016700235561425848,0.002125892297113534,0.001541557808747975,0.0005483510492161534,0.00019753865559283537,0.2411382496356964,-23.61355972290039,19.477951049804688,17.89893341064453,0.8833719491958618,2.3540542125701904,-0.06678618490695953,0,0,0,0.000,0,0
1739401428.85384,-0.7069401928667463,0.6731670389032125,1.417334488130848,-1.8795932027772135,-0.7071545998345516,1.9502439134546579,0.18491322006317334,-0.0004668056776867848,-0.0006475565866838945,1.6130826475528528e-05,0.0005282787527147329,0.0006202350753420866,2.2463013963363362e-05,-0.0007309534497096374,0.2927129566669464,-23.61355972290039,19.501754760742188,17.92273712158203,0.8833719491958618,2.3668715953826904,-0.13361968100070953,0,0,0,0.000,0,0
1739401428.8638694,-0.7069364819771794,0.6731650410651921,1.4173354641095295,-1.879597065560745,-0.7071561350202178,1.9502446711147363,0.18491295523212237,0.0013561216054499088,-0.000808535980431568,-0.0007064267062299366,-0.0002268718380687111,-0.0007988304890717954,0.00018441259261667455,-0.00045149726470657435,0.2411382496356964,-23.58578872680664,19.450180053710938,17.97431182861328,0.8961893320083618,2.3604629039764404,-0.12721098959445953,0,0,0,0.000,0,0
1739401428.8748264,-0.7069414370330793,0.6731650669585753,1.417334484743285,-1.8795940555085255,-0.7071545807771071,1.9502425006038189,0.18491708847871313,-0.0003905330897553884,-0.001320170285796542,-0.0004979417228385918,0.0004317705894172478,0.0006856792280164333,-0.0009168030948068172,0.00038123189369309077,0.2927129566669464,-23.58578872680664,19.501754760742188,17.97431182861328,0.8833719491958618,2.3668715953826904,-0.12721098959445953,0,0,0,0.000,0,0
1739401428.8858774,-0.7069347694634668,0.6731687775273031,1.4173362453776084,-1.8795932031818636,-0.7071549259307642,1.950244671106761,0.18491440078137997,0.001345430959819934,0.0004188364647735866,0.0012295190042563566,0.0008671126002270846,0.00018959976056922645,6.751171682592555e-05,-0.00044572945667634134,0.2173345386981964,-23.63736343383789,19.477951049804688,17.92273712158203,0.8769632577896118,2.3604629039764404,-0.10706938803195953,0,0,0,0.000,0,0
1739401428.897839,-0.7069364820128381,0.6731679539995478,1.417334125085086,-1.8795946592406207,-0.7071553379586745,1.9502446711147363,0.1849136080163331,0.000688050631571708,0.00021629540083857417,0.0007883099751053613,0.0003593004583516444,-0.000247386578232322,0.00027818367268617785,-0.0013386967697447002,0.2411382496356964,-23.58578872680664,19.477951049804688,17.97431182861328,0.8897806406021118,2.3604629039764404,-0.10066069662570953,0,0,0,0.000,0,0
1739401428.9087746,-0.7069401664383764,0.6731670504602536,1.4173344092436102,-1.8795904468287907,-0.7071595766664692,1.9502454287748145,0.18491327694476237,-0.0005672661223549517,-0.0003811415368358984,0.0005590284542568053,0.0011413339205766475,-0.0013048949499337207,0.00052625398017507,-0.0015493549324304492,0.2927129566669464,-23.61355972290039,19.501754760742188,17.92273712158203,0.8897806406021118,2.3540542125701904,-0.13361968100070953,0,0,0,0.000,0,0
1739401428.918897,-0.7069356834322666,0.6731650412793828,1.4173351378245327,-1.8795960929219981,-0.7071553365525097,1.9502454287748145,0.184914483638878,0.0012568450934830242,-0.0010960123761063869,-0.001121742264997947,-0.0011053032728908614,-9.272147428113664e-06,0.0006591263844947582,-0.0011063941400799911,0.2689092457294464,-23.58578872680664,19.529525756835938,17.99811553955078,0.8897806406021118,2.3540542125701904,-0.10706938803195953,0,0,0,0.000,0,0
1739401428.9299252,-0.7069347954094624,0.6731670388990532,1.4173361924069405,-1.8795967581366633,-0.7071569616712389,1.9502439134546579,0.1849116831912182,0.0013213018875266346,-0.0003042568651149949,-0.00042023387195313236,0.0004430767732201797,0.0010797735339605112,-0.00011181045166848911,-0.001030604214243822,0.2173345386981964,-23.61355972290039,19.477951049804688,17.97431182861328,0.9035135507583618,2.3668715953826904,-0.08051909506320953,0,0,0,0.000,0,0
1739401428.9408655,-0.7069371913584171,0.6731673538400936,1.4173362718334441,-1.879597037357261,-0.7071545758772094,1.9502446710609012,0.18491249587824032,0.00018837808169866314,-0.00042139511124500775,0.0009504815476360548,0.0002306556164504725,5.540141416899495e-05,-0.0002863198320994298,0.00045365243914186743,0.2411382496356964,-23.61355972290039,19.477951049804688,17.97431182861328,0.8833719491958618,2.3604629039764404,-0.08692778646945953,0,0,0,0.000,0,0
1739401428.9518704,-0.7069406899543319,0.6731670398638027,1.4173419169774872,-1.8795961473125253,-0.7071577598527534,1.9502439134546576,0.18491329171807708,-0.0014812053900141384,-0.0008230984986568413,0.0029000487388682744,-0.00013901537883516087,-6.497989915754378e-05,-0.0002283351873688503,-0.0002472299765078935,0.2689092457294464,-23.61355972290039,19.402572631835938,17.97431182861328,0.8833719491958618,2.3668715953826904,-0.06678618490695953,0,0,0,0.000,0,0
1739401428.9628515,-0.7069401144500921,0.6731635624408892,1.4173369605983777,-1.879594985870691,-0.7071563980930411,1.950246186434893,0.18491487328552897,-0.000315582424731691,-0.0006216882631018178,-0.00037080457192818734,-0.00031314465468721135,-0.0003637380109599093,0.00031317218374159883,0.0010872051969806095,0.2927129566669464,-23.56198501586914,19.477951049804688,17.94654083251953,0.8897806406021118,2.3476455211639404,-0.10706938803195953,0,0,0,0.000,0,0
1739401428.9738288,-0.706938479917585,0.6731673770123066,1.4173383398535804,-1.879597065245816,-0.7071554731386037,1.9502446318688798,0.1849104685456447,-0.00019718872831739912,0.0005181471118640817,-0.00033095342619864716,-0.00011919688150228007,-0.001514050708523945,-0.0003855707387431051,-0.0013323990804446988,0.2689092457294464,-23.61355972290039,19.450180053710938,17.97431182861328,0.8897806406021118,2.3604629039764404,-0.07411040365695953,0,0,0,0.000,0,0
1739401428.984794,-0.7069365599783123,0.6731615555720798,1.4173383519383187,-1.8795967782691645,-0.7071554557446146,1.9502439134544365,0.1849119361008755,0.0006901375614504344,-0.0005967838079906372,0.0002731058157819542,-0.0007468063844671255,-0.0003949971724890854,-0.0003257205682539227,0.0006020223737324482,0.2411382496356964,-23.53818130493164,19.450180053710938,17.99811553955078,0.8897806406021118,2.3668715953826904,-0.09425200521945953,0,0,0,0.000,0,0
1739401428.9948056,-0.7069364992050824,0.6731671172201582,1.4173383381279512,-1.8795939870741432,-0.7071546253544204,1.9502445533771664,0.1849171281866673,0.0007602089425492799,0.00012741744397582003,-0.0004006984926536218,0.00037890209558666464,-0.00034757792449643607,-0.0003430832320839943,0.0010758139945743505,0.2411382496356964,-23.61355972290039,19.477951049804688,17.94654083251953,0.8833719491958618,2.3604629039764404,-0.12721098959445953,0,0,0,0.000,0,0
1739401429.0059006,-0.7069363953095306,0.6731709354530274,1.41733832484044,-1.8795948972102576,-0.7071559765655038,1.9502454287728208,0.18491714120980696,0.0005947915865852475,0.0010379759402364228,-0.00010411835793467785,2.2821104772610296e-05,-0.00017913585404589572,0.0004289246966202403,0.001839739380745629,0.2411382496356964,-23.63736343383789,19.450180053710938,17.97431182861328,0.8961893320083618,2.3540542125701904,-0.12721098959445953,0,0,0,0.000,0,0
1739401429.0168438,-0.7069402020683637,0.6731636693711104,1.4173344803262062,-1.8795964400048069,-0.707154580292144,1.9502446711147363,0.18491964088458238,-0.0008204433122895032,-1.3302190143619141e-05,-0.0006499519817412827,0.000688087578830696,0.001873932423053731,6.233775219755123e-05,0.004283280560721376,0.2927129566669464,-23.56198501586914,19.501754760742188,17.94654083251953,0.8833719491958618,2.3604629039764404,-0.14735259115695953,0,0,0,0.000,0,0
1739401429.0278795,-0.706934769313832,0.6731709383425567,1.41733650127645,-1.8795988482109869,-0.7071560922905159,1.9502454287748145,0.1849159157341954,0.0004032073581929457,0.000422610899525621,-8.3030041312991e-05,-0.0018364008462809613,-5.2730241131527416e-05,0.0005535679527241063,0.0012552781274324785,0.2173345386981964,-23.63736343383789,19.477951049804688,17.99811553955078,0.8897806406021118,2.3540542125701904,-0.14735259115695953,0,0,0,0.000,0,0
1739401429.038841,-0.706936455655799,0.6731678490472485,1.4173334107029234,-1.8795960158093845,-0.7071564493140094,1.950244671276242,0.1849071192141693,0.00020415889366043853,-0.0002456756324620969,0.0003443357607807607,0.0018470319413069413,0.0007935705099603025,0.00014672432592250715,-0.002835850033965036,0.2411382496356964,-23.58578872680664,19.477951049804688,17.99811553955078,0.8961893320083618,2.3604629039764404,-0.08051909506320953,0,0,0,0.000,0,0
1739401429.0508373,-0.7069364771621385,0.6731670736177386,1.417333535466107,-1.8795980190091215,-0.7071585169226662,1.9502454287748157,0.18491956255327655,0.00041416290557565194,0.0006052828980966341,-0.0012895811661523464,-0.0009490049564172758,0.00046640799327165217,-0.0002757804072044562,0.0024799709190584363,0.2411382496356964,-23.61355972290039,19.501754760742188,17.97431182861328,0.8897806406021118,2.3540542125701904,-0.17390288412570953,0,0,0,0.000,0,0
1739401429.06084,-0.7069385966747205,0.6731653558518821,1.4173362704109984,-1.8795988455137085,-0.7071577592785365,1.9502446711147365,0.18491094307129152,-0.0012357058696377537,-0.000504460468486748,-0.00026529819660983884,-0.001441639109355293,1.6935005596959358e-05,-0.0002333696910661783,-0.0013109561860842592,0.2411382496356964,-23.58578872680664,19.477951049804688,17.99811553955078,0.8833719491958618,2.3604629039764404,-0.07411040365695953,0,0,0,0.000,0,0
1739401429.0708518,-0.7069419049953002,0.6731636707276345,1.4173341259573413,-1.879594998111587,-0.7071553772521394,1.950245730752866,0.184917542151045,-0.0017683369580320826,-0.0006165866228673102,5.04968133501036e-05,0.0004252558121145381,0.0010189970516617476,0.0004587904114724269,0.000869444640950877,0.3165166676044464,-23.56198501586914,19.477951049804688,17.97431182861328,0.8897806406021118,2.3604629039764404,-0.13361968100070953,0,0,0,0.000,0,0
1739401429.081806,-0.7069384799180254,0.6731687524203539,1.4173323433772491,-1.879591889729502,-0.7071585299490084,1.9502396236734638,0.1849124832175493,0.00038247959080478554,-0.00015110274355617005,-0.00016682690991059345,0.001646999305736981,-0.00041065760433844624,-0.0019724093930819837,-0.0005629316516944465,0.2689092457294464,-23.63736343383789,19.501754760742188,17.94654083251953,0.8897806406021118,2.3732802867889404,-0.08692778646945953,0,0,0,0.000,0,0
1739401429.092855,-0.7069364819771723,0.6731651449597317,1.4173381117513197,-1.8795949983741371,-0.7071559946508141,1.950247849969308,0.18491167383469423,0.0007410753344050278,-0.0005714061616996363,5.584591079640217e-05,0.00011754938088845402,-0.0013423658617210438,0.0008511446050230467,-0.0005864865072353629,0.2411382496356964,-23.58578872680664,19.450180053710938,17.97431182861328,0.8833719491958618,2.3604629039764404,-0.10706938803195953,0,0,0,0.000,0,0
1739401429.1038156,-0.7069384799180253,0.6731670658626006,1.417333410810193,-1.879597039837098,-0.7071545802950293,1.9502454287807962,0.18491440521839528,-0.0006834627945940407,6.124614998299639e-05,-0.0004921938352901825,-0.0005767045820163145,0.0016949310778405762,0.00020815933663887386,0.0005476895712290961,0.2689092457294464,-23.61355972290039,19.477951049804688,17.97431182861328,0.8833719491958618,2.3540542125701904,-0.10706938803195953,0,0,0,0.000,0,0
1739401429.1147947,-0.7069364819415064,0.6731642904516766,1.417338347682713,-1.8795931989645722,-0.7071553771983029,1.9502454287748148,0.1849117007468597,0.0012267544384086007,-0.0001285100284351604,6.317445487738271e-05,-0.0001990103741860734,0.0007952279316492359,0.0004633288967245678,0.000640039740462911,0.2411382496356964,-23.56198501586914,19.450180053710938,17.92273712158203,0.8897806406021118,2.3540542125701904,-0.08051909506320953,0,0,0,0.000,0,0
1739401429.1267765,-0.7069405131101099,0.6731650410706227,1.4173362630032538,-1.8795913921775833,-0.7071545802925895,1.950243913454658,0.18491801582852346,-0.0018442640794277304,-0.0015606232027573982,-8.716845382339724e-05,0.002393573843534124,0.0011717598700905349,-0.00033801627129090685,0.0005276970210822346,0.2927129566669464,-23.58578872680664,19.477951049804688,17.89893341064453,0.8833719491958618,2.3668715953826904,-0.13361968100070953,0,0,0,0.000,0,0
