IITGN-Robotics/Franka_IITGN_ROBOTICS/franka_ros/franka_iitgn/data/b_26.csv
time,fr3_joint1_pos,fr3_joint2_pos,fr3_joint3_pos,fr3_joint4_pos,fr3_joint5_pos,fr3_joint6_pos,fr3_joint7_pos,fr3_joint1_vel,fr3_joint2_vel,fr3_joint3_vel,fr3_joint4_vel,fr3_joint5_vel,fr3_joint6_vel,fr3_joint7_vel,fr3_joint1_eff,fr3_joint2_eff,fr3_joint3_eff,fr3_joint4_eff,fr3_joint5_eff,fr3_joint6_eff,fr3_joint7_eff,flexpin1,flexpin2,flexpin3,Force,ContactMic,ContactMic_gt
1739401566.7738802,0.5254905476922881,0.09593090321632772,-0.953148587009204,-2.0694489443122968,0.13795288612625428,2.1375474716754,-1.2754970520562903,-0.000671926272439808,-0.0013116310038865427,0.0011816661916238848,-0.0007786370296425061,0.0003003860797531017,0.0003593928375524734,-0.0009622482406472161,0.2689092457294464,-21.84811782836914,-2.4333655834198,22.61603546142578,0.6087137460708618,2.2487685680389404,0.012864691205322742,,,,,,,,,
1739401566.7848108,0.5254909808858287,0.09593624718500256,-0.9531542234850299,-2.069448954729355,0.13795363373163252,2.137547184941675,-1.2754930343416795,-0.0006556634971521403,0.00033790744004313044,0.00034455838814001304,-0.0011170485253652373,0.0006992814996945118,-0.0003532560185118116,-0.0008075356510375308,0.2927129566669464,-21.92349624633789,-2.35798716545105,22.61603546142578,0.6013895273208618,2.2551772594451904,-0.020094294100999832,,,,,,,,,
1739401566.7958806,0.5254905480875257,0.09593453466382534,-0.9531535082292437,-2.069443308325777,0.13795307323183228,2.1375482307677602,-1.275493806127539,-0.0001577638275404453,-0.00027357158353938013,3.185769697324392e-05,0.0011385546324532412,-0.0003592687848479436,-0.0004001353170148069,-0.0001411434125797723,0.2689092457294464,-21.89969253540039,-2.35798716545105,22.54065704345703,0.6151224374771118,2.2423598766326904,-0.013685601763427258,,,,,,,,,
1739401566.806887,0.5254926251620775,0.09593245780200743,-0.9531542494840151,-2.06944330832577,0.13794933800091083,2.137549095208787,-1.275492993569835,-0.00035885422009867684,3.943328465927379e-05,-0.0006614963601439333,-0.0001055705577372647,-0.0017638473416099346,0.0001762465680248263,0.0010531407723295611,0.2411382496356964,-21.87192153930664,-2.35798716545105,22.54065704345703,0.6013895273208618,2.2350356578826904,-0.020094294100999832,,,,,,,,,
1739401566.8188832,0.5254912162022732,0.09593232969852401,-0.9531486736194339,-2.0694452920907693,0.13795292682872576,2.1375474716514735,-1.2754938984286717,-0.0006768155976046716,0.0012791418619249894,0.0013171559101054961,0.0007561517432695219,-0.0013509976043744086,-0.000534260789407807,0.0012311447096880349,0.2173345386981964,-21.79654312133789,-2.4333655834198,22.54065704345703,0.6343485116958618,2.2487685680389404,-0.04023589566349983,,,,,,,,,
1739401566.8308566,0.5254887149167426,0.09597272499452557,-0.9531502857745464,-2.0694389766782844,0.13795542012276168,2.13755683170753,-1.2754912525834012,-0.0006521987493631314,0.0030484434250123552,0.0008801016005994659,0.00025072746025029237,0.0005766926435671245,0.00040670272686594915,0.002660154149033175,0.2173345386981964,-21.74496841430664,-2.38179087638855,22.44147491455078,0.6673074960708618,2.2487685680389404,-0.04756011441349983,,,,,,,,,
1739401566.8428428,0.5254895812009371,0.09599898054033688,-0.9531524408039067,-2.0694428423665965,0.13796094553023705,2.1375637406423604,-1.2754922616059021,0.0008968494141007753,0.0018349202859710007,0.00012063584200122378,0.00022933341522912725,0.0012618379640043362,0.0006730924226343539,-0.0012232238925623182,0.1935308277606964,-21.69339370727539,-2.38179087638855,22.49304962158203,0.6608988046646118,2.2679946422576904,-0.06678618490695953,,,,,,,,,
1739401566.853933,0.5254829580808128,0.09602455126814197,-0.9531580856248068,-2.069453289209582,0.1379634385212774,2.137564232854874,-1.2754954403547165,0.00014618586472842185,0.0020611004274787683,-0.0015263198892040179,-0.0015255853176064174,-0.00020765389438748456,0.0011464520808607602,-0.0019163192273281024,0.2411382496356964,-21.74496841430664,-2.3064124584198,22.59223175048828,0.6673074960708618,2.2679946422576904,-0.0008682189509272575,,,,,,,,,
1739401566.8659296,0.5254760898359101,0.09604787712484872,-0.953159877307556,-2.0694548011875322,0.13796574235506812,2.1375668929669,-1.275497760949727,-0.00019216033115146544,0.0024432743031708253,-0.0005143079359923154,0.00020944868321088217,0.0022920901592722687,8.873924910475717e-05,7.007445582051399e-05,0.2927129566669464,-21.84811782836914,-2.2826087474823,22.56842803955078,0.6608988046646118,2.2817275524139404,-0.020094294100999832,,,,,,,,,
1739401566.8768995,0.525477759813083,0.09605907169459983,-0.9531524417709879,-2.0694551174777245,0.13796068746120643,2.1375642726660424,-1.275499852487179,-0.0007815863382245047,0.001016946818691791,0.0012563329812271618,0.0009320755121077354,0.00016320961423278582,0.0004076602334720433,-0.0028462397733492496,0.2689092457294464,-21.82431411743164,-2.38179087638855,22.56842803955078,0.6737161874771118,2.2679946422576904,-0.013685601763427258,,,,,,,,,
1739401566.8878505,0.5254797901860356,0.09607279062304988,-0.9531485773599463,-2.069455611466849,0.13796389039504653,2.1375690007180252,-1.275497288724462,0.00011094231974990567,0.0011475442882321037,-0.0009521086974475895,-0.0009776558679244999,0.0016662585562783412,0.0012676164445071907,-0.0002310401409282274,0.2411382496356964,-21.87192153930664,-2.4333655834198,22.54065704345703,0.6737161874771118,2.2679946422576904,-0.027418512850999832,,,,,,,,,
1739401566.8979115,0.5254850053861648,0.09608469447769014,-0.9531397107853089,-2.069456707551425,0.13796499785964167,2.1375690403674183,-1.2755001949035256,-2.7566275949247854e-05,0.0020586112312661587,0.0010246642363928703,-0.0014131937435139152,0.0007575897353830047,6.850476569708254e-05,-0.0010403666412747736,0.1697271168231964,-21.89969253540039,-2.50874400138855,22.59223175048828,0.6673074960708618,2.2679946422576904,-0.0008682189509272575,,,,,,,,,
1739401566.9088159,0.525484936415644,0.09609547828535836,-0.9531435680375563,-2.0694531768014013,0.1379642328883633,2.1375681353860587,-1.2754955407044781,-0.0009005583403230797,0.0011428731045415737,0.0006741788651411798,0.00038472768405952725,-0.0006951124042509264,-0.00028335551339266356,0.000655081489071469,0.1697271168231964,-21.97507095336914,-2.4571692943573,22.54065704345703,0.6737161874771118,2.2753188610076904,-0.04023589566349983,,,,,,,,,
1739401566.91985,0.5254835272323883,0.09610046791499492,-0.9531414311368701,-2.0694630633323983,0.13796185622120413,2.1375666573730276,-1.2754962983645564,0.00021556439181336575,0.0007227625369778868,0.0004878632603465642,-0.0010240067164857124,-0.001739557027237621,-8.490118815436765e-05,0.00018753779665954206,0.1935308277606964,-21.97507095336914,-2.4571692943573,22.63983917236328,0.6938577890396118,2.2881362438201904,-0.03382720425724983,,,,,,,,,
1739401566.9309943,0.5254815113755046,0.09610527350747004,-0.953148612417041,-2.069461699086103,0.13796231831439973,2.1375674169718266,-1.2754978536664527,8.218168151160497e-05,-0.0005310910346162488,-0.0007729057876709729,0.00011311144053216586,-0.00042465436018392403,4.317570056693764e-05,0.0006204052155698775,0.2173345386981964,-21.92349624633789,-2.38179087638855,22.61603546142578,0.6673074960708618,2.2817275524139404,-0.04756011441349983,,,,,,,,,
1739401566.9428525,0.5254797902337895,0.0961040213904006,-0.9531464406059071,-2.069464557771863,0.1379657613672144,2.137572766397143,-1.275504450903314,-0.00011916959060853427,-0.002381406672780072,0.0006200650048722044,0.00021057841371716692,0.0005779233672020786,0.0014877188177063734,-0.002560929611394599,0.2411382496356964,-21.89969253540039,-2.38179087638855,22.61603546142578,0.6608988046646118,2.2753188610076904,-0.0008682189509272575,,,,,,,,,
1739401566.9528933,0.525483214791617,0.09610511414421362,-0.9531424986202144,-2.069458366338655,0.13796225545151003,2.137568174709678,-1.275497056258216,0.00046469596930371823,-0.00034811421974208435,0.0011635109075765649,0.0007218610316859028,-0.0002968301159356979,-0.0004829086686072082,0.000465665354699262,0.1935308277606964,-21.87192153930664,-2.4333655834198,22.56842803955078,0.6544901132583618,2.2753188610076904,-0.027418512850999832,,,,,,,,,
1739401566.963915,0.5254797636952631,0.09610513205932888,-0.9531452713709412,-2.0694602537629994,0.1379650168518355,2.1375712502859234,-1.2754955742061207,-0.0004483965502109044,0.000773209906964383,0.0002683689678548054,-0.0006329702938236545,0.00031774184973325524,0.002176232661557177,0.000266811645368393,0.2411382496356964,-21.87192153930664,-2.4333655834198,22.56842803955078,0.6673074960708618,2.2615859508514404,-0.04023589566349983,,,,,,,,,
1739401566.974815,0.5254797813194128,0.09609765164253703,-0.9531531504918602,-2.0694541618837135,0.13796724158925988,2.137569044897996,-1.2755047106643016,-0.00021451175470306908,-0.0010897073209999706,-0.00133061421003609,-3.782395124160825e-05,-0.00042544726759060107,-0.001070072616757105,-0.002445584133774171,0.2411382496356964,-21.77273941040039,-2.35798716545105,22.51685333251953,0.6480814218521118,2.2679946422576904,0.0064559997990727425,,,,,,,,,
1739401566.9858153,0.525473695526714,0.09609349943889986,-0.9531531535488517,-2.0694559443704907,0.13796436452547445,2.1375722194435447,-1.2755002474522295,-0.0015441114263140584,-0.00029399930420664726,4.945496723194774e-05,0.00012441987432500502,0.0007420733226676135,-0.0005814479165649229,-0.001740521877144534,0.2927129566669464,-21.74496841430664,-2.35798716545105,22.54065704345703,0.6737161874771118,2.2679946422576904,-0.0008682189509272575,,,,,,,,,
1739401566.996864,0.525481457424822,0.09609786194805829,-0.953158911011853,-2.069456768673449,0.13796354104889644,2.137573453114403,-1.2754980924726524,0.0009560661291534633,9.200497101128209e-05,-0.0017573895267850516,-0.0010774523067779245,-0.0007741065210572528,0.0012884945864325452,-0.0005509542291393736,0.2173345386981964,-21.77273941040039,-2.2826087474823,22.54065704345703,0.6801248788833618,2.2615859508514404,-0.020094294100999832,,,,,,,,,
1739401567.0068977,0.5254778063627169,0.09609278526486864,-0.9531538790971832,-2.0694505964840575,0.13796667715973102,2.1375690580462186,-1.2754958955332063,-0.00016641362586025026,-0.0013895266409895699,0.0009525988853951288,0.000668686080829993,-0.00029698828629676417,-0.0024552313832384544,0.0011526014166415713,0.2689092457294464,-21.74496841430664,-2.35798716545105,22.46924591064453,0.6544901132583618,2.2679946422576904,-0.04023589566349983,,,,,,,,,
1739401567.017878,0.5254776351527037,0.09610021847612119,-0.9531501889659766,-2.0694505841969058,0.13796820834622442,2.1375712112016707,-1.275497061894674,-0.0002153116421951174,0.0015709052817144465,-0.0004711947890904167,0.0008072036797410508,-6.33160153017626e-05,-0.0006951205787156025,0.0011776925128466926,0.2411382496356964,-21.84811782836914,-2.38179087638855,22.46924591064453,0.6673074960708618,2.2615859508514404,-0.027418512850999832,,,,,,,,,
1739401567.0278869,0.5254748398663128,0.09609479571097045,-0.9531471427434562,-2.0694541504951274,0.13796460163521226,2.1375697982610156,-1.2754997909396586,-0.001196340712369869,0.0005551453844880002,-0.0009184105930793498,0.0005717325372559766,-0.00023711512748279186,-0.0006209817505083137,0.00011157359147280998,0.2689092457294464,-21.77273941040039,-2.4095618724823,22.51685333251953,0.6737161874771118,2.2615859508514404,-0.0072769103571772575,,,,,,,,,
1739401567.0388517,0.5254810693095588,0.0960968196928272,-0.9531492133389399,-2.0694516905046725,0.1379634884649304,2.137569568221723,-1.2754991906415916,0.00077733321626121,0.00020024801300141866,0.00014786870018194975,0.000553060235681385,-0.001777267707999839,-0.0006773992782230461,-0.0005585425871619451,0.1935308277606964,-21.79654312133789,-2.38179087638855,22.49304962158203,0.6801248788833618,2.2679946422576904,-0.04023589566349983,,,,,,,,,
1739401567.0508344,0.5254812642762571,0.09610226025102833,-0.9531480989849943,-2.0694595773851883,0.13796516752730226,2.137571216049718,-1.2754996116887674,0.00035241552737960886,-0.0003290279179380183,-0.0002635380675024867,-0.0006496837346087484,0.0012820276984882473,0.0005086897821061496,-0.0007961049794465147,0.2173345386981964,-21.87192153930664,-2.4095618724823,22.59223175048828,0.6673074960708618,2.2615859508514404,-0.0072769103571772575,,,,,,,,,
1739401567.0608966,0.5254790749291355,0.09610924233779727,-0.9531473809366227,-2.0694632251581164,0.13796460147332473,2.1375735069037662,-1.2754986815211071,-0.0006787845190285005,0.00032862030029515366,-0.00014396691132580555,-0.0009585353714262391,-0.002022952436512775,0.001381516608580409,0.0009371800512254828,0.2411382496356964,-21.89969253540039,-2.4095618724823,22.63983917236328,0.6737161874771118,2.2615859508514404,-0.013685601763427258,,,,,,,,,
1739401567.0708995,0.5254821434766331,0.09610511466566767,-0.9531478576270659,-2.069463814891935,0.13796500956874794,2.1375736388174063,-1.275499595016547,-0.0007373352585818263,-0.0013844492832757295,0.00014558264347643677,-0.0007568057477880284,-0.0020001754343608917,-0.0003849401231002747,0.000617818874588865,0.1935308277606964,-21.87192153930664,-2.4095618724823,22.61603546142578,0.6673074960708618,2.2679946422576904,-0.03382720425724983,,,,,,,,,
1739401567.081898,0.5254797093991138,0.09611190300881191,-0.9531453596943071,-2.0694628574481295,0.13797016260333506,2.137569411264254,-1.2755001965897128,-0.0008765493367041174,-0.0005204911868551795,0.0013381250025794314,-0.0005597386707499004,0.0020137240881156282,-0.001018195347748349,0.0001616978160173246,0.2411382496356964,-21.92349624633789,-2.4333655834198,22.59223175048828,0.6608988046646118,2.2679946422576904,-0.0008682189509272575,,,,,,,,,
1739401567.0928965,0.525481476179202,0.09611236027264934,-0.953144414955287,-2.0694591719906485,0.1379674507642702,2.137573802577188,-1.2754955412428395,-0.00022820241337918445,0.0009420785542632825,0.0013805125290654809,0.0005173847545535727,-0.0026219827984992478,0.0012458384402527442,0.001839178671244657,0.2173345386981964,-21.89969253540039,-2.4333655834198,22.54065704345703,0.6737161874771118,2.2679946422576904,-0.04023589566349983,,,,,,,,,
1739401567.1029007,0.5254766867106393,0.0961065892406525,-0.9531492221411448,-2.0694559486350608,0.13796758286421468,2.137573795818671,-1.2755026158498737,-0.0008327023566973074,-0.0004900350137234319,-0.0006027075998133824,0.0024229916527674237,-0.0016514662045275554,-5.214176539503873e-05,-0.00020673872795073911,0.2411382496356964,-21.84811782836914,-2.38179087638855,22.54065704345703,0.6737161874771118,2.2679946422576904,0.019273381680250168,,,,,,,,,
1739401567.1129036,0.5254822526704894,0.0961019404615903,-0.9531509960038451,-2.0694560270398847,0.1379688730729795,2.1375706236874032,-1.2755018977429728,0.0018022175551510252,-0.0017871033217607495,-0.0009935536997974746,0.0014224316729851394,-0.00038291973206210593,-0.0002969151519289549,0.0007039325474120084,0.1935308277606964,-21.79654312133789,-2.35798716545105,22.54065704345703,0.6737161874771118,2.2679946422576904,-0.013685601763427258,,,,,,,,,
1739401567.1238391,0.5254790618067569,0.09610375703134223,-0.953150636940546,-2.0694583541167177,0.13797130209138972,2.1375729429855177,-1.2755068735320425,-0.0004858980792539352,-3.862562481479198e-05,-0.00022997822772993006,0.0003013073371852643,-9.807780180205792e-05,0.0006823705590260586,-0.0034040189147196776,0.2411382496356964,-21.84811782836914,-2.35798716545105,22.56842803955078,0.6544901132583618,2.2753188610076904,0.019273381680250168,,,,,,,,,
1739401567.1338904,0.5254797635739141,0.09610457004697602,-0.9531513227193715,-2.0694598191927445,0.13796873562496992,2.1375705907404856,-1.275501073954174,1.8699140773995303e-05,-0.0004064375005631382,-0.001554188224775315,-0.0008811232132753312,-0.0010437802078468166,-0.000515557196358099,-7.38330343883146e-05,0.2411382496356964,-21.82431411743164,-2.35798716545105,22.59223175048828,0.6673074960708618,2.2679946422576904,0.0064559997990727425,,,,,,,,,
1739401567.1439183,0.5254803527870698,0.09610413607856919,-0.9531509388621902,-2.069455945867316,0.13796811840559003,2.1375745665063093,-1.2754975733107754,0.0021325873396159456,0.00028637537923081234,0.00012188771599627246,-0.00034822765262921954,0.0001629712804975309,0.0002689444959835253,0.0015599521182799976,0.1935308277606964,-21.82431411743164,-2.3302161693573,22.54065704345703,0.6544901132583618,2.2615859508514404,-0.05396880581974983,,,,,,,,,
1739401567.1549106,0.5254787202844017,0.0960996915889209,-0.953151370892021,-2.069450595534605,0.1379697887043218,2.1375745665069736,-1.2754953744166573,0.00021836311545555507,0.0008650587908239475,0.0008724130863211427,0.0015700759888561994,0.0002945193876150038,-0.00027949923932687706,0.002636240052391642,0.2411382496356964,-21.79654312133789,-2.38179087638855,22.46924591064453,0.6673074960708618,2.2615859508514404,-0.08051909506320953,,,,,,,,,
1739401567.1659272,0.5254748924792629,0.09609901632632446,-0.9531531199574192,-2.069452132168552,0.1379705590585525,2.137574566560809,-1.2754940370640904,-0.0012134795080453072,0.0006147938150168162,-0.0013031316458899107,-0.00037208056503416497,0.0006199400748506203,4.660245575066023e-05,0.0023665217186914817,0.2689092457294464,-21.79654312133789,-2.3302161693573,22.51685333251953,0.6608988046646118,2.2615859508514404,-0.05396880581974983,,,,,,,,,
1739401567.175932,0.525477549744077,0.09609584814080667,-0.953153087895105,-2.069455944371111,0.13796980334417785,2.1375753242208875,-1.2754985670564352,0.0003503918622241915,-0.0008213448538618363,-0.0014824921350599513,-0.0002710546681111624,-0.00014771760351260259,0.00013625282081371166,-0.0006802752643373783,0.2689092457294464,-21.77273941040039,-2.3302161693573,22.54065704345703,0.6673074960708618,2.2551772594451904,-0.05396880581974983,,,,,,,,,
1739401567.1869032,0.525476625551593,0.09610347957434667,-0.9531472483311197,-2.069451331262371,0.1379705595461801,2.1375739266383005,-1.2755006939805844,-0.0008731367002101194,0.0007119000372678309,0.00040644059932652265,0.00159503437892756,-0.0007750236313791044,0.0009580019670190894,0.0004459163923100773,0.2411382496356964,-21.84811782836914,-2.4095618724823,22.51685333251953,0.6608988046646118,2.2679946422576904,-0.03382720425724983,,,,,,,,,
1739401567.198826,0.5254792416553391,0.09610169824931045,-0.9531492881350985,-2.0694602495244108,0.13796828607839184,2.1375745723756747,-1.2754972726658058,-0.00016182794961866042,-0.0005383159800989429,7.436010379198145e-05,-0.00030462401312047175,-0.0007022183320072389,0.00030332026108234627,0.001779606346615191,0.2173345386981964,-21.82431411743164,-2.4095618724823,22.56842803955078,0.6801248788833618,2.2615859508514404,-0.05396880581974983,,,,,,,,,
1739401567.208874,0.5254828930355054,0.09610169824892205,-0.9531499374249942,-2.0694587660595696,0.13796904422601242,2.137575782250753,-1.2754986796009973,0.0001154374006599582,0.0006688648070130158,-0.0003936387906312233,-0.000383698588719963,0.000135107823132178,0.0009866916818990546,0.0008930458145265081,0.1935308277606964,-21.82431411743164,-2.38179087638855,22.56842803955078,0.6737161874771118,2.2551772594451904,-0.013685601763427258,,,,,,,,,
1739401567.2198884,0.5254789591170469,0.09610724538743903,-0.9531492225972468,-2.0694621421099946,0.13797130463640528,2.137573966532765,-1.275500111382883,0.00047121954742025186,-0.00023277669985121856,-0.0004980146284243004,-0.0011009149197447577,0.0006038922706782723,0.0004972161694902702,-0.0018252787459469625,0.2411382496356964,-21.87192153930664,-2.38179087638855,22.59223175048828,0.6544901132583618,2.2679946422576904,-0.013685601763427258,,,,,,,,,
1739401567.2309012,0.5254766905946441,0.0961079016838691,-0.9531492247735369,-2.0694605521288265,0.13797226021961306,2.137574566561699,-1.2755019115321924,0.00027356868611180086,0.0004898360366820729,-0.0004965966269074762,-3.892385861476977e-05,-0.00024083409065382791,-0.000391187805501514,-0.00139857576079095,0.2411382496356964,-21.89969253540039,-2.38179087638855,22.59223175048828,0.6544901132583618,2.2615859508514404,-0.013685601763427258,,,,,,,,,
1739401567.2409296,0.5254795130143725,0.09610614472935652,-0.9531516092864185,-2.0694605528065875,0.13797207488229857,2.137577745959714,-1.2754960685594563,0.000621210493227167,-0.000601986835060678,0.0002456673172942953,-0.00021713090302537052,0.0013830523238650555,0.0005055801490442526,0.0010254737377544511,0.2411382496356964,-21.87192153930664,-2.38179087638855,22.59223175048828,0.6480814218521118,2.2615859508514404,-0.04023589566349983,,,,,,,,,
1739401567.2519002,0.5254765716973607,0.09610538939729119,-0.9531471424171026,-2.06946668221485,0.1379698004234587,2.13757532429267,-1.2755032719962847,-0.0012635385381417129,0.0002683528601390868,0.0009056049218290706,-0.0021091632042597886,-0.00038376733658271615,0.00038101953529385576,0.0002713452177575264,0.2411382496356964,-21.87192153930664,-2.4095618724823,22.63983917236328,0.6673074960708618,2.2551772594451904,-0.013685601763427258,,,,,,,,,
1739401567.2629085,0.5254792417640514,0.09611030484744484,-0.9531530846240189,-2.069462688557026,0.1379720617026059,2.1375729430034984,-1.2755025723395452,0.0005833085827380942,0.0006741316430294536,-0.0009497474882098711,-0.0009140086544286173,0.0011146546257470328,-0.0006199680376272208,-0.0002987803387105848,0.2173345386981964,-21.89969253540039,-2.3302161693573,22.61603546142578,0.6480814218521118,2.2753188610076904,-0.020094294100999832,,,,,,,,,
1739401567.2748144,0.525479318625926,0.09610586170398976,-0.9531485157317244,-2.069461331623231,0.13797127965915612,2.1375745665608092,-1.275496606721412,0.0018837551581732536,-0.0009139794722041474,0.00027223664674447967,-0.0006202410625308582,0.00033220005379887925,0.0010386345808331991,0.0011151582145853855,0.2173345386981964,-21.84811782836914,-2.38179087638855,22.56842803955078,0.6544901132583618,2.2615859508514404,-0.04023589566349983,,,,,,,,,
1739401567.2849383,0.5254765833513368,0.09610649166020274,-0.9531510048301752,-2.0694581702591037,0.1379737483944554,2.1375745817423337,-1.275499087373096,-0.00047539221216869146,0.00029541760870578816,4.0493179746374204e-05,0.0012277958761043417,-0.00013039681299094468,-0.0001270628508013332,0.00043090415020770746,0.2411382496356964,-21.84811782836914,-2.35798716545105,22.54065704345703,0.6608988046646118,2.2615859508514404,-0.04023589566349983,,,,,,,,,
1739401567.2969198,0.525481145079148,0.0961044664586981,-0.9531502541117998,-2.0694563870860794,0.13796904375647134,2.137573808900816,-1.2754972668468125,-0.0002265396591061377,0.001385377923047886,0.0002159476959510021,-6.956629525831527e-05,-0.0007757411148973927,-0.001218751267766976,0.00035452169173608974,0.2173345386981964,-21.84811782836914,-2.35798716545105,22.51685333251953,0.6737161874771118,2.2679946422576904,-0.05396880581974983,,,,,,,,,
1739401567.3079166,0.5254800087301584,0.09609992939051891,-0.9531492218258573,-2.069458107784348,0.13796904422601253,2.1375753242208875,-1.2754974676136042,-0.000657456411059788,-0.0017381680158686382,-0.0006872885625195133,-0.0008321877794447456,-0.000799604088513948,-0.0001819705530539143,-0.0009935981536660413,0.1935308277606964,-21.79654312133789,-2.38179087638855,22.56842803955078,0.6737161874771118,2.2551772594451904,-0.027418512850999832,,,,,,,,,
1739401567.3189058,0.5254782928864727,0.09610214993775022,-0.9531471511976055,-2.069456686370364,0.13796980188609353,2.1375745665608092,-1.2755013339852888,0.00034051465007907183,8.721325270511496e-05,3.0323228938148998e-05,-0.0005018278788776307,-0.0011124995714799652,-0.0005816147764893763,-0.00048397019733524923,0.2173345386981964,-21.79654312133789,-2.4095618724823,22.54065704345703,0.6673074960708618,2.2615859508514404,-0.027418512850999832,,,,,,,,,
1739401567.329911,0.5254765715354507,0.09609808469315988,-0.9531471423673382,-2.06945594451465,0.13797056100426447,2.1375745665608092,-1.2754994431760593,-0.0007851376640515251,0.00015348854502434794,2.566336601870928e-05,2.3622318351689413e-05,6.524343379868371e-05,-0.00011044378065375532,-0.0007161774387726971,0.2411382496356964,-21.77273941040039,-2.4095618724823,22.54065704345703,0.6608988046646118,2.2615859508514404,-0.04756011441349983,,,,,,,,,
1739401567.340811,0.5254782830749857,0.09610172553079026,-0.9531491426842843,-2.069455944849624,0.13797131720625844,2.137574618888618,-1.2755048455362243,0.0004261699184050846,0.001035188028229492,0.00037445693470259056,0.00013176477300620888,-0.0007943846146492631,0.00035047306138702916,-0.002188524525598327,0.2173345386981964,-21.82431411743164,-2.38179087638855,22.54065704345703,0.6544901132583618,2.2615859508514404,-0.0008682189509272575,,,,,,,,,
1739401567.3508828,0.5254807742056863,0.0961003554180651,-0.9531530875634202,-2.0694580243003347,0.13796981500892685,2.137575324223546,-1.2755007647521057,0.001443729942580103,4.619300115507179e-05,-0.00167530143824423,-0.0008903692480916797,-4.218457286926555e-05,0.00011556965209136364,-2.62021268534292e-05,0.2173345386981964,-21.77273941040039,-2.3302161693573,22.56842803955078,0.6673074960708618,2.2551772594451904,-0.027418512850999832,,,,,,,,,
1739401567.3609166,0.5254799965909204,0.09609969072245093,-0.953151720089917,-2.0694541618334434,0.13797022965536537,2.1375739266383005,-1.2754986855127675,0.00021846578500263873,-0.0008693641940394055,-0.0008447805581678978,0.0007566029592502794,-7.479628151219823e-05,-0.00015943619829385478,0.0010266958766574725,0.1935308277606964,-21.79654312133789,-2.35798716545105,22.51685333251953,0.6737161874771118,2.2679946422576904,-0.05396880581974983,,,,,,,,,
1739401567.3718688,0.525477931824569,0.09610924365300641,-0.9531516102796336,-2.069458060929784,0.13797136825502387,2.1375738089027245,-1.2755044650080358,-0.0006466103881917045,0.002345549795224957,0.00015322943317466352,0.00013790968720118018,-6.084242187418454e-06,-0.0001601193115466789,-0.002226482446425848,0.2173345386981964,-21.89969253540039,-2.38179087638855,22.56842803955078,0.6544901132583618,2.2679946422576904,0.019273381680250168,,,,,,,,,
1739401567.382903,0.5254785224727229,0.09610625489545374,-0.9531494597534127,-2.0694627865132897,0.13796980334447428,2.1375738089007306,-1.275502690223359,-0.0001285671442384844,2.8078789833603993e-06,0.0005180845564955475,-5.217165505672089e-05,0.0006726131113933551,-0.0007768447030205093,0.0005641687722620249,0.2173345386981964,-21.84811782836914,-2.38179087638855,22.59223175048828,0.6673074960708618,2.2679946422576904,-0.020094294100999832,,,,,,,,,
1739401567.393868,0.5254765715358495,0.09610928147693952,-0.9531496073345814,-2.0694605488552495,0.13796984125459621,2.1375785032967807,-1.2755018243962166,-0.00038341911918760875,0.0009307880503804492,0.00027384067921743275,0.0008285408656578169,-0.0004456406277568883,0.0009425366260350124,-0.00017392360381742454,0.2411382496356964,-21.89969253540039,-2.4095618724823,22.59223175048828,0.6673074960708618,2.2551772594451904,-0.027418512850999832,,,,,,,,,
1739401567.4048166,0.525476890735035,0.09610783458786192,-0.9531510138152415,-2.0694615896669197,0.137971661864837,2.1375729430573362,-1.2754983587720299,0.0004094297250562287,0.0006535926053642515,0.00015861119113059032,-0.0007004133153143737,-0.00023486925267889933,-0.0009631939579376491,4.8853091412384946e-05,0.2411382496356964,-21.89969253540039,-2.35798716545105,22.61603546142578,0.6608988046646118,2.2753188610076904,-0.03382720425724983,,,,,,,,,
1739401567.4148607,0.5254765719732679,0.09610830745041257,-0.9531517205260162,-2.0694627744539997,0.13796828657215945,2.1375769878151187,-1.2755042055984294,0.00019454202895736116,0.000411688961221212,-0.0017402472687402556,0.0008630636582104656,-0.0011576398891572019,0.0006596605985743564,-0.0004863999518341537,0.2411382496356964,-21.87192153930664,-2.35798716545105,22.59223175048828,0.6801248788833618,2.2679946422576904,-0.0072769103571772575,,,,,,,,,
1739401567.4258273,0.525474318823237,0.09610264925185476,-0.9531454656662026,-2.06946111445304,0.1379723801557488,2.1375745666146444,-1.2755023377267614,-0.0009150578561618805,-0.0019627912541240436,0.00036786443100358685,0.00023324478116656282,0.00047428966501391777,-0.00015022917512632136,-0.000897788994576801,0.2411382496356964,-21.82431411743164,-2.4333655834198,22.56842803955078,0.6544901132583618,2.2615859508514404,-0.020094294100999832,,,,,,,,,
1739401567.4358456,0.5254782830368359,0.09611029605706449,-0.9531485127900798,-2.0694582716015466,0.13797169320306935,2.137575677433598,-1.2755018113082939,0.0005133133019157738,0.0012510552014372122,-0.00011541732544423085,0.000106462975223826,-0.000328012089145658,-0.0006834198335673737,-0.00041754128958448856,0.2173345386981964,-21.89969253540039,-2.38179087638855,22.56842803955078,0.6737161874771118,2.2551772594451904,-0.027418512850999832,,,,,,,,,
1739401567.445897,0.5254817090975887,0.09610248307395118,-0.9531491868318686,-2.069456192250655,0.13796980773341744,2.1375729430054924,-1.2754986855186754,0.0018192073937996246,-0.0004015400343441286,-0.0004937968823633245,1.8215574805469197e-05,-0.0005769901379957143,-0.0010902748129318937,-0.0004365880877646045,0.1697271168231964,-21.82431411743164,-2.38179087638855,22.54065704345703,0.6673074960708618,2.2753188610076904,-0.05396880581974983,,,,,,,,,
1739401567.4559257,0.525480076049723,0.09610409642035488,-0.9531453596896712,-2.069458129854775,0.13797162249576939,2.1375738089007306,-1.275505711433457,0.00096196060904697,-4.920847109736101e-05,0.001750736717924991,0.0003991798713259094,0.00017887880140040585,-0.000845661814250926,-0.0018393098786496595,0.1935308277606964,-21.82431411743164,-2.4333655834198,22.54065704345703,0.6608988046646118,2.2679946422576904,0.0064559997990727425,,,,,,,,,
1739401567.4668798,0.5254799818601158,0.09610461101261898,-0.9531453596902694,-2.0694581464485595,0.1379701562085934,2.137575037511089,-1.2755004662203275,0.0006562179175033176,0.0011675673449341036,0.0012612749934339273,-0.0012527368933906912,0.0008772968222369398,0.000116788633788476,-0.0011561655077594558,0.1935308277606964,-21.82431411743164,-2.4333655834198,22.56842803955078,0.6673074960708618,2.2615859508514404,-0.04023589566349983,,,,,,,,,
1739401567.4778504,0.5254790429024639,0.09609807065816325,-0.9531491959932396,-2.0694532434810875,0.1379730982395609,2.137575324223546,-1.2755003090769472,-0.00012986917096378188,-0.0007347724464949617,0.00026431443441747186,0.0013954567489651896,0.0004338129743256278,-0.0003279329242790876,-0.0012064241471126083,0.1935308277606964,-21.77273941040039,-2.38179087638855,22.51685333251953,0.6407572031021118,2.2551772594451904,-0.04023589566349983,,,,,,,,,
1739401567.4888144,0.5254768982517739,0.0960997191456395,-0.9531499462430513,-2.069455944505278,0.1379745180905558,2.137578503135275,-1.2755073464291404,-0.0006145923591243399,-0.0004838446321909977,-0.0013588277838048493,-0.0007228749485149529,0.0021319407553784483,-0.0007933419201253153,-0.0022963612378719294,0.2411382496356964,-21.79654312133789,-2.38179087638855,22.54065704345703,0.6407572031021118,2.2551772594451904,0.019273381680250168,,,,,,,,,
1739401567.4989097,0.5254728610793497,0.0960996915394909,-0.9531513227378643,-2.0694541618334434,0.13797010720222586,2.13757536788123,-1.2755021263743005,-0.0019226120923332961,-0.0011359487035835164,-0.0005664158794408296,0.00014733109979495014,-8.492618552403866e-05,-0.0007797458664797108,0.0001872552952805168,0.2927129566669464,-21.79654312133789,-2.35798716545105,22.51685333251953,0.6737161874771118,2.2551772594451904,-0.03382720425724983,,,,,,,,,
1739401567.5098333,0.5254778508096515,0.09610511452133882,-0.9531450230964135,-2.069458766047008,0.1379737877811689,2.137576839541783,-1.2755013294862778,0.00039843843374179366,0.0019673602864286577,0.001133749481211857,-0.0013621841819218623,0.0009762454774819129,0.0008065697669372878,0.0007587980755380099,0.1935308277606964,-21.87192153930664,-2.4095618724823,22.56842803955078,0.6608988046646118,2.2423598766326904,-0.04023589566349983,,,,,,,,,
1739401567.5198455,0.5254751846024909,0.09610039309479726,-0.9531513679123925,-2.0694620322215957,0.1379701065436772,2.1375785176707778,-1.2755043626029028,-0.0005501455946918692,-0.0013912255526926706,0.0004354979508107411,-0.00034107401273671546,-0.0007068549315178199,0.0008539434137778139,-0.0015230684721088026,0.2173345386981964,-21.79654312133789,-2.38179087638855,22.59223175048828,0.6737161874771118,2.2551772594451904,-0.0072769103571772575,,,,,,,,,
1739401567.5298548,0.5254838548123169,0.09610582622927305,-0.9531472479313748,-2.0694616029193478,0.13796980255212513,2.137577745529278,-1.2755028782228037,0.0020422668002847196,0.0014652797962551789,0.0013913863896452836,-0.0010545035277001766,0.0001044879977387073,-0.0004640398097208446,0.0009075734798346046,0.1697271168231964,-21.87192153930664,-2.4095618724823,22.61603546142578,0.6673074960708618,2.2615859508514404,-0.027418512850999832,,,,,,,,,
1739401567.5399058,0.5254799926886156,0.09610363877555499,-0.9531454666370165,-2.0694615896545807,0.13797315596099058,2.137574570975296,-1.2754971702168798,0.0007629488336846702,-0.00035947487560223843,0.0005434145789423401,-0.0009200646870700613,-4.400356626366625e-05,-0.0009115306292387432,0.0022070997065327547,0.1935308277606964,-21.84811782836914,-2.4333655834198,22.61603546142578,0.6480814218521118,2.2615859508514404,-0.06678618490695953,,,,,,,,,
1739401567.5508597,0.5254765712083301,0.09610606157425353,-0.9531471426949409,-2.0694605855042325,0.1379713697036863,2.1375753242209123,-1.2754986855187493,-6.323513503459996e-05,0.0008554301896130229,0.0009129905531626045,-0.00016406242376373794,-0.0007958778894856147,-0.000639586228254749,0.0012009226086890554,0.2411382496356964,-21.87192153930664,-2.4095618724823,22.59223175048828,0.6544901132583618,2.2551772594451904,-0.05396880581974983,,,,,,,,,
1739401567.5619156,0.5254821070227987,0.0961083106740645,-0.9531474170882904,-2.069462777029739,0.1379710859184861,2.137575329066055,-1.2755077900686227,0.000918682918842543,-1.8221589399226704e-05,-0.0006772028973054517,-0.000754729505948191,0.0015827478406002272,-0.0007292141091375165,-0.002537197576295142,0.1935308277606964,-21.87192153930664,-2.4095618724823,22.59223175048828,0.6608988046646118,2.2551772594451904,-0.0072769103571772575,,,,,,,,,
1739401567.5729518,0.5254697616805407,0.0961102308146352,-0.9531471423688392,-2.0694601499242906,0.13797632812538652,2.1375738090622636,-1.2755049459052608,-0.001850031698206753,0.00016284883626722474,0.00022202057189907,-3.196947969368708e-07,0.002772064199095217,-0.0004410896318882901,-0.0010500816938309333,0.2927129566669464,-21.89969253540039,-2.4095618724823,22.59223175048828,0.6480814218521118,2.2679946422576904,-0.0008682189509272575,,,,,,,,,
1739401567.5839221,0.5254782840503001,0.09610828460951036,-0.9531471423309497,-2.0694564145462597,0.13797209492567294,2.1375745665608092,-1.2754989518204976,-0.00015701133329269716,0.00019876304530357715,0.0009024224734364664,0.0024144285216018474,0.0004475762474754821,-0.0005284153489002628,0.00022824044607042772,0.2173345386981964,-21.87192153930664,-2.4095618724823,22.51685333251953,0.6608988046646118,2.2615859508514404,-0.03382720425724983,,,,,,,,,
1739401567.5939353,0.5254795992125648,0.09610902110865459,-0.9531491868358724,-2.0694606038814114,0.13797090860437153,2.1375757953326726,-1.27550424561471,0.0012145053715304057,0.0009952819657368436,-0.0005889671509697011,0.0005344572782745084,-0.00062768114037952,0.0012045659845116117,-0.0007549018671025487,0.1935308277606964,-21.87192153930664,-2.38179087638855,22.56842803955078,0.6673074960708618,2.2551772594451904,-0.03382720425724983,,,,,,,,,
1739401567.6048782,0.525479993735711,0.09610744131157418,-0.9531492221565459,-2.0694583554788997,0.13797178964699192,2.1375745665687873,-1.2755002960479425,0.0015510122021575971,-0.0008691784995535013,-0.000580870502817879,0.0005076687629055345,0.0009234004242092938,-0.0001918109387925042,0.0012935325792984374,0.1935308277606964,-21.89969253540039,-2.38179087638855,22.56842803955078,0.6544901132583618,2.2615859508514404,-0.04023589566349983,,,,,,,,,
1739401567.615822,0.5254789994572191,0.09610492084954128,-0.9531493234557713,-2.0694599271919487,0.1379705639213386,2.137575795171167,-1.2755002567482268,0.00029171868856836037,0.00015437396595364503,-0.00030167939288505154,-0.0012699160271487644,0.0006769568801903946,0.000545775003970706,0.0008941666086107869,0.2173345386981964,-21.82431411743164,-2.4095618724823,22.59223175048828,0.6608988046646118,2.2551772594451904,-0.04023589566349983,,,,,,,,,
1739401567.6268342,0.525473726323849,0.09609821724288403,-0.9531500829117484,-2.069458910553095,0.13797405530421508,2.1375753243850513,-1.2755053443727113,-0.0006608160574081484,-0.0017216516684119033,-0.00012494036804230045,-0.0011692111646798714,0.0007564998282594308,-0.0005564722357042598,-0.0010185692574437,0.2411382496356964,-21.77273941040039,-2.4095618724823,22.54065704345703,0.6673074960708618,2.2551772594451904,-0.03382720425724983,,,,,,,,,
1739401567.6368797,0.5254817091584268,0.09610480680789243,-0.9531471689080401,-2.0694582712845087,0.1379698040642593,2.1375768409945968,-1.2755054760307591,0.0003748164212326417,0.0015915887008761723,0.0003076342173171515,-0.0011754475197133579,-0.0003575072154778307,-0.0004728556191603744,-0.0018884123725179543,0.1697271168231964,-21.82431411743164,-2.4095618724823,22.56842803955078,0.6673074960708618,2.2423598766326904,0.0064559997990727425,,,,,,,,,
1739401567.6468859,0.5254746000855022,0.09609915009385665,-0.9531510048346126,-2.0694559448538064,0.13797056116631162,2.137575364920319,-1.2755004093650466,-0.0006993961962227326,-0.00018509104811307664,-0.0006983464813829828,-0.0001399049614657457,-0.001516669619206325,-0.0005083521513457999,0.0005018488918641646,0.2689092457294464,-21.74496841430664,-2.35798716545105,22.54065704345703,0.6608988046646118,2.2551772594451904,-0.04023589566349983,,,,,,,,,
1739401567.6579099,0.5254765715355504,0.09610393450511119,-0.9531519943021542,-2.0694582796389343,0.13796992020761623,2.1375746844601142,-1.275505946909163,-0.0003931854774200768,-0.00017084626677092154,-0.001628531844086067,-0.0005168313344507954,0.0003119535217783177,0.000653047696508381,-0.002088266839800926,0.2411382496356964,-21.82431411743164,-2.35798716545105,22.54065704345703,0.6673074960708618,2.2615859508514404,0.0064559997990727425,,,,,,,,,
1739401567.6679242,0.5254765714263846,0.09610180741217696,-0.9531463223206765,-2.0694602587373017,0.13797294092757503,2.137576082044468,-1.2754994044194818,0.00013877214078734256,0.00021275167954237025,-3.7985753413324495e-05,-0.0016508867513635298,0.00039985207520970654,-0.0006996507009838384,0.0029486957082653616,0.2411382496356964,-21.82431411743164,-2.4333655834198,22.56842803955078,0.6407572031021118,2.2487685680389404,-0.04756011441349983,,,,,,,,,
1739401567.678886,0.5254728610738161,0.09610272855244965,-0.9531499374183153,-2.069452098569167,0.13797131715207947,2.1375768439016953,-1.2754986855185304,-0.0014653249162789584,0.0014521444324293296,0.0004216118908852177,0.0011081696950412598,-0.0007071035083294357,0.0008239419840636151,0.000874112241089435,0.2927129566669464,-21.82431411743164,-2.38179087638855,22.51685333251953,0.6544901132583618,2.2423598766326904,-0.05396880581974983,,,,,,,,,
1739401567.6888945,0.5254782605086181,0.0961048593271722,-0.9531492251126963,-2.0694609943045936,0.13797162249566944,2.13757456849895,-1.275502645895988,-6.124433418864546e-05,0.0003099759188089277,0.0005397500649244835,-0.000700295426179653,0.00053038744500398,-0.0002509827812231329,-0.0014994880544741843,0.2173345386981964,-21.82431411743164,-2.38179087638855,22.56842803955078,0.6608988046646118,2.2615859508514404,0.0064559997990727425,,,,,,,,,
1739401567.7008147,0.5254783959066907,0.09610446743348366,-0.9531464300550071,-2.069459806994103,0.13797086548963355,2.1375768395410546,-1.2755019944436259,0.0002157415437698575,-0.00014753332888111606,0.001159312143440029,-0.0003870285855685065,-0.00047293429649509117,-0.0006511524785746896,-0.0015636905409677354,0.2173345386981964,-21.84811782836914,-2.4095618724823,22.59223175048828,0.6673074960708618,2.2423598766326904,-0.027418512850999832,,,,,,,,,
1739401567.7108908,0.5254783193780345,0.09611202029563744,-0.9531471776845384,-2.069460580562232,0.1379713218025458,2.1375741666894315,-1.2754985679974802,0.0008123338820099413,0.001472597027295446,0.0008362837040791628,-0.00021121102414238784,-0.0007068095504816872,-0.00011503879172076781,0.0008118587854831908,0.2173345386981964,-21.92349624633789,-2.4095618724823,22.56842803955078,0.6544901132583618,2.2679946422576904,-0.05396880581974983,,,,,,,,,
1739401567.7208984,0.5254758552991153,0.0961083108203982,-0.9531470275737558,-2.069462414991175,0.1379721944299988,2.1375789091663697,-1.2755007800243494,-0.0007697333609729933,-0.00022752383053009875,0.0008862121222291205,-0.0008269816713216195,0.00010661284643433946,0.0011676069994917115,3.3545008986848434e-06,0.2411382496356964,-21.87192153930664,-2.4095618724823,22.61603546142578,0.6480814218521118,2.2551772594451904,-0.04023589566349983,,,,,,,,,
1739401567.7318466,0.5254799965728202,0.09610656030070064,-0.9531453475888156,-2.069460055248378,0.13796828705264264,2.1375741621875126,-1.275504559313601,-0.0003387859002868313,-0.0001560491730897024,0.00044965078012599967,0.0004477818543770359,-0.00036144628517001333,0.00012452769226053403,-0.001283298389768651,0.1935308277606964,-21.84811782836914,-2.4333655834198,22.59223175048828,0.6801248788833618,2.2679946422576904,-0.0072769103571772575,,,,,,,,,
1739401567.7418818,0.5254817355885476,0.09610823189880655,-0.9531496858256426,-2.0694600552479234,0.13797095339318985,2.1375722027920054,-1.2754986850402223,0.0015677842954307539,0.00017895551166362115,0.00046883083959300194,-0.0007714873536150904,-0.0004409178039560187,0.00018117680164820486,0.0018721708803908093,0.1697271168231964,-21.87192153930664,-2.4095618724823,22.59223175048828,0.6608988046646118,2.2817275524139404,-0.05396880581974983,,,,,,,,,
1739401567.7528493,0.5254782840562816,0.09610659862401583,-0.9531471464152482,-2.069462045936018,0.13797067765389498,2.1375743616686367,-1.2755011846352111,-7.14307867464947e-05,-0.0010583748948998018,0.00023161416244046537,-0.0006205833131821683,-0.0003872630083099026,-0.00020417296437535417,0.00030532355163602064,0.2173345386981964,-21.84811782836914,-2.4095618724823,22.59223175048828,0.6608988046646118,2.2753188610076904,-0.03382720425724983,,,,,,,,,
1739401567.7628813,0.5254799926522776,0.09610194067826765,-0.9531492880255527,-2.0694582840859517,0.13797055971018232,2.1375745796667864,-1.275506632684223,0.0001740232608898029,-0.001468408919291961,0.00046050425839717717,-0.0003784834447823616,-0.0012433085206275613,-1.9028692691841544e-05,-0.00029032021344689124,0.1935308277606964,-21.79654312133789,-2.4095618724823,22.54065704345703,0.6608988046646118,2.2615859508514404,-0.013685601763427258,,,,,,,,,
1739401567.773836,0.5254804311315171,0.09610488577360578,-0.9531453862296737,-2.0694571319235524,0.13797268213380062,2.1375748685389335,-1.2755007802596585,0.0002267697076746072,0.00033624707418112947,0.0013128830940435632,0.0012763549213218347,0.00012020982294453953,-0.001764732615113773,3.9897986952713675e-05,0.2173345386981964,-21.82431411743164,-2.4333655834198,22.51685333251953,0.6608988046646118,2.2679946422576904,-0.04023589566349983,,,,,,,,,
1739401567.783878,0.5254767193981208,0.09610487690169713,-0.9531492234657886,-2.0694567289988313,0.13797162253161657,2.1375745796607064,-1.275503016257194,-0.0008163648456737287,0.0003777964206968634,-3.44049082105534e-05,0.0010745211567556624,-0.0005928828699110099,-0.0013429834935106328,0.00027216139240669507,0.2689092457294464,-21.82431411743164,-2.38179087638855,22.51685333251953,0.6608988046646118,2.2615859508514404,-0.013685601763427258,,,,,,,,,
1739401567.7948823,0.5254764655837011,0.09610277337197688,-0.9531477350820888,-2.069459022919979,0.13797132304462117,2.137577750481944,-1.275503462486703,-0.0006189940049931849,-0.00041845870778938355,0.0009761966194736266,-0.0004259763550540937,-0.0005089715032852418,-0.00047426379652617834,-0.0009649893832659605,0.2411382496356964,-21.79654312133789,-2.4333655834198,22.56842803955078,0.6544901132583618,2.2615859508514404,-0.013685601763427258,,,,,,,,,
1739401567.804896,0.5254765685901673,0.09610011426690246,-0.9531494527667792,-2.0694544090992517,0.13797334715732112,2.1375770140209935,-1.2755067612573807,-0.0003284206163169286,-0.0007706325361450569,0.0012748041208407908,0.0009287699021469759,0.0012207828031131872,0.0006896419919525645,-0.0034651011952576026,0.2411382496356964,-21.77273941040039,-2.38179087638855,22.51685333251953,0.6673074960708618,2.2423598766326904,0.012864691205322742,,,,,,,,,
1739401567.815885,0.5254782840561155,0.09609972987483763,-0.9531493369525764,-2.069456687426772,0.13796970892827035,2.1375791631721888,-1.2755003121994861,0.0005847160894527266,-0.0008974955708967824,-0.00024696159165086607,0.00032285705721461674,0.0006233673919931198,0.0010351891720899718,5.532011801740171e-05,0.2173345386981964,-21.79654312133789,-2.38179087638855,22.54065704345703,0.6801248788833618,2.2615859508514404,-0.04023589566349983,,,,,,,,,
1739401567.8268704,0.5254782830749857,0.09610636104983913,-0.9531510046167786,-2.069455944514656,0.13797520665729746,2.1375745672866144,-1.2755026902934667,0.0004231033164153813,0.0004108235505333124,-6.510640229388922e-05,0.00046008456476531994,0.0007351821541537933,0.00013312326268015708,-0.0005212355688451668,0.2173345386981964,-21.84811782836914,-2.35798716545105,22.54065704345703,0.6608988046646118,2.2615859508514404,-0.020094294100999832,,,,,,,,,
1739401567.8378215,0.5254765676108097,0.09610485034076484,-0.9531472483311001,-2.0694607959729243,0.13796970391217134,2.1375753306811145,-1.2755067446055954,-0.0015656321408243398,0.0006582891050677617,-0.0011413500356334608,-0.0011795248802815928,-3.418741424287392e-05,0.0005265771994624273,-0.0018801852087346493,0.2411382496356964,-21.82431411743164,-2.4095618724823,22.59223175048828,0.6801248788833618,2.2551772594451904,-0.013685601763427258,,,,,,,,,
1739401567.84789,0.5254761824404425,0.09610488577835237,-0.953149213001572,-2.069454161963246,0.137971858362743,2.1375753377874656,-1.275497130702018,2.210110171357323e-05,0.0005102676387572481,-0.00012308650142282327,0.0007706143701789593,0.0003069709509979075,5.7999374569940696e-05,0.00158322151367296,0.2173345386981964,-21.82431411743164,-2.38179087638855,22.51685333251953,0.6608988046646118,2.2551772594451904,-0.04023589566349983,,,,,,,,,
1739401567.858837,0.5254775687885311,0.0961083020514188,-0.9531456864119743,-2.069458036547825,0.13797318161994004,2.137574607906315,-1.2755018644151954,0.0001075141901828203,0.0010342689218350663,-0.00011069053219032641,0.000799697317417074,-0.0008891778286621756,0.000620307521936362,0.00025222662332330403,0.2173345386981964,-21.87192153930664,-2.4333655834198,22.56842803955078,0.6480814218521118,2.2615859508514404,-0.05396880581974983,,,,,,,,,
1739401567.868907,0.525479996455734,0.09611187958765689,-0.9531513228401511,-2.069463851637155,0.1379730103565768,2.1375763838597166,-1.2755028884488318,0.0001683447689803802,0.0001938316692152042,-0.0006652905522966762,0.0007531922186155366,-0.0007913586210017885,0.0005140460890636991,-0.000773120979603782,0.1935308277606964,-21.95126724243164,-2.35798716545105,22.61603546142578,0.6673074960708618,2.2551772594451904,-0.027418512850999832,,,,,,,,,
1739401567.8798532,0.5254781780923184,0.09611615007682463,-0.9531499374510152,-2.069463031890517,0.13797442178957336,2.1375753249267264,-1.2755018629855936,-0.0001709121774321297,0.0014778262160286776,-0.0006282105698293399,-6.092491976135651e-05,-0.000663161098427198,-0.0006001711234436167,0.0002385872076027984,0.2173345386981964,-21.95126724243164,-2.38179087638855,22.59223175048828,0.6673074960708618,2.2551772594451904,-0.05396880581974983,,,,,,,,,
1739401567.8898613,0.5254782836182725,0.09610807409360658,-0.9531471423794019,-2.0694600547330637,0.13797562248383977,2.1375760876951784,-1.275504963327605,7.281358475317451e-06,0.0009485333480957418,0.0010673135311599312,0.0003200625889984654,0.0007070635576825373,0.0003636029069728344,-2.5054952632423406e-05,0.2173345386981964,-21.87192153930664,-2.4095618724823,22.59223175048828,0.6480814218521118,2.2487685680389404,-0.0008682189509272575,,,,,,,,,
1739401567.9008727,0.5254782850372761,0.0961127315693464,-0.9531508910871977,-2.06946032044536,0.137972706218581,2.1375738617130886,-1.2755058252948932,-0.00011900592232823293,0.0007320179313861482,-0.000447271963919981,-0.0006869162510636705,-0.0011066007738682179,-0.0005544955822694052,-0.002063756757191725,0.2173345386981964,-21.92349624633789,-2.38179087638855,22.59223175048828,0.6737161874771118,2.2679946422576904,0.0064559997990727425,,,,,,,,,
1739401567.9118364,0.5254782850372841,0.09611336005114046,-0.9531493016757636,-2.0694627865159814,0.13797107205938777,2.1375753242211855,-1.2754994431788058,0.0005980310197079628,0.001444714713969506,0.001028419217318007,0.00018710897284319886,-0.0018331037250539568,0.0003776777989958379,0.0014746097787496737,0.2173345386981964,-21.89969253540039,-2.38179087638855,22.59223175048828,0.6608988046646118,2.2551772594451904,-0.04756011441349983,,,,,,,,,
1739401567.921863,0.5254828575998292,0.09610109655633649,-0.9531494615582161,-2.069458271938835,0.13797483079407985,2.1375745670453257,-1.2755018243962168,0.0018368477058240888,-0.0012431774804307675,0.001063107263285543,0.0004500850181406653,-0.000511194844676918,-0.0015787771395715095,0.00011981822329665899,0.1935308277606964,-21.77273941040039,-2.38179087638855,22.56842803955078,0.6608988046646118,2.2615859508514404,-0.027418512850999832,,,,,,,,,
1739401567.9329414,0.5254745736429997,0.09610836343305763,-0.9531510049472336,-2.069456301651951,0.13796982107564146,2.1375765547693204,-1.2755003090760602,-0.0003411621227205426,0.000759527056015035,-0.000748458253586219,0.0005288764659943953,-0.0020734848379921895,-0.0004706772007882069,0.001156144840716136,0.2689092457294464,-21.87192153930664,-2.35798716545105,22.54065704345703,0.6673074960708618,2.2487685680389404,-0.04023589566349983,,,,,,,,,
1739401567.9438307,0.5254765716444173,0.09610117528138086,-0.9531478576351389,-2.069462804640065,0.13797290946139631,2.137574041942209,-1.2754986855187493,0.00024022347579887563,-0.0006297438260390002,0.0009007912428770105,-0.0013948108188999342,-0.0005577413193251478,-0.0015296143245896489,0.0022324898722596346,0.2411382496356964,-21.77273941040039,-2.4095618724823,22.59223175048828,0.6544901132583618,2.2753188610076904,-0.05396880581974983,,,,,,,,,
1739401567.9538891,0.525478284056134,0.09610454248899374,-0.9531500004589115,-2.069454908040002,0.1379706054220483,2.137576596456363,-1.2755014079600462,-2.5642793276220167e-05,0.001072943129271164,0.0008539224355679131,0.0004681496617262155,-0.0005803753399154109,0.0013744475481255818,0.0010392502597590864,0.2173345386981964,-21.82431411743164,-2.4095618724823,22.51685333251953,0.6608988046646118,2.2487685680389404,-0.04023589566349983,,,,,,,,,
1739401567.9648485,0.5254767193617599,0.09610383346139702,-0.9531510053227009,-2.0694581346451444,0.13797301039209625,2.137577657532337,-1.2755067438207348,-0.00032914565441308913,0.0007747634856043836,-0.0007025151944628282,-0.0010074359213699943,-0.0008128205248120975,0.00022411341814942807,-0.0009456025997112789,0.2689092457294464,-21.82431411743164,-2.35798716545105,22.56842803955078,0.6673074960708618,2.2487685680389404,0.012864691205322742,,,,,,,,,
1739401567.9749038,0.5254758558799373,0.09610075403122895,-0.9531503580201671,-2.069456191761228,0.13797649861359307,2.137575980891882,-1.275500309724741,-0.001214637402472398,-0.0002619160944852807,-0.001084626238244407,-0.0001766294663795423,0.001533824146649816,-0.00035003182407519556,0.0006443183947953804,0.2411382496356964,-21.79654312133789,-2.4095618724823,22.54065704345703,0.6480814218521118,2.2615859508514404,-0.04023589566349983,,,,,,,,,
1739401567.9858027,0.5254765715313611,0.09610435050163967,-0.9531494605938755,-2.0694582720405106,0.13797061276452188,2.137577751297382,-1.275505830140064,-0.0006622332122871637,0.00048438013833573324,-0.00022726307489601193,-0.00015285638104841313,-0.0017873055431351492,-0.00018131292847082967,-0.0014114716323802856,0.2411382496356964,-21.84811782836914,-2.38179087638855,22.56842803955078,0.6608988046646118,2.2615859508514404,0.0064559997990727425,,,,,,,,,
1739401567.9968035,0.5254748116860781,0.09610799109289807,-0.953149460579761,-2.0694591548462147,0.1379732617545985,2.137576385528006,-1.2755004263291296,-0.0008351155958597867,-7.663157619899777e-05,0.00020405757400799224,0.00015887209793402797,-0.0008337822492380367,5.998279537909617e-05,0.0009140594478036663,0.2689092457294464,-21.87192153930664,-2.38179087638855,22.59223175048828,0.6480814218521118,2.2551772594451904,-0.04023589566349983,,,,,,,,,
1739401568.0069265,0.5254783105484294,0.09610375725140374,-0.9531464415895468,-2.0694560394720636,0.13797605909206492,2.137577251386271,-1.2754987029620142,0.0005887527744965931,-0.00010122404482895055,0.0010178944229359268,0.0012668821718360601,0.0012736492742741951,0.0007390719233059918,0.0007885716301799934,0.2173345386981964,-21.84811782836914,-2.38179087638855,22.54065704345703,0.6544901132583618,2.2423598766326904,-0.05396880581974983,,,,,,,,,
1739401568.0178854,0.5254765715355505,0.09610945532075613,-0.9531510046731116,-2.069459159198873,0.13797365033513898,2.1375793216643406,-1.2755003090761585,-0.0005920999817149626,0.0009135818917081797,-0.00028471729887629457,-0.000900214956325216,-2.777156588854848e-05,0.0026482826755657093,7.45674922060694e-05,0.2411382496356964,-21.87192153930664,-2.35798716545105,22.54065704345703,0.6480814218521118,2.2615859508514404,-0.04023589566349983,,,,,,,,,
1739401568.02887,0.5254768893178234,0.09610802437300325,-0.9531492222661593,-2.0694608814975104,0.13797162461069767,2.13757638824651,-1.2755053052886558,-0.0004497723210938929,9.007156403958029e-05,-8.892714921839956e-05,-0.0005189289729611809,-0.0010985620553520584,-0.0013165307754626388,-0.0006036025339089086,0.2411382496356964,-21.87192153930664,-2.38179087638855,22.59223175048828,0.6608988046646118,2.2551772594451904,-0.03382720425724983,,,,,,,,,
1739401568.0398421,0.5254784165126922,0.09610636153517219,-0.9531453567468308,-2.0694581352499517,0.13797199647543043,2.1375769921817755,-1.2754994432027544,-0.0005398805957165137,-0.001038114977289934,0.0008017697089915187,0.00042486683002519764,0.0002994583324637908,-0.0011708796770581206,0.0006245253950014488,0.2173345386981964,-21.84811782836914,-2.4333655834198,22.56842803955078,0.6608988046646118,2.2679946422576904,-0.04756011441349983,,,,,,,,,
1739401568.050861,0.5254763301756257,0.0961068379815673,-0.9531478571869109,-2.0694623324204104,0.137972153913749,2.137578558349315,-1.2754994431788282,-0.00039229221358106904,6.268825909306946e-05,6.178498618166558e-05,1.8419487852839006e-05,0.0005824867341831572,0.001257985388287509,-0.0007986841654485828,0.2411382496356964,-21.84811782836914,-2.4095618724823,22.61603546142578,0.6608988046646118,2.2679946422576904,-0.04756011441349983,,,,,,,,,
1739401568.0618205,0.525479432557896,0.09611022984075412,-0.9531463604814422,-2.0694589515197057,0.13797341607663255,2.1375746850251187,-1.275501824467997,0.0012699785816634747,0.0008867166542024787,0.0017404832913337524,0.00011935373787586327,-0.0011269534777254078,-0.0003674697102566422,0.0006799404657123732,0.2411382496356964,-21.89969253540039,-2.38179087638855,22.54065704345703,0.6737161874771118,2.2615859508514404,-0.027418512850999832,,,,,,,,,
1739401568.0738795,0.5254774457530081,0.09610488090684252,-0.9531471423511342,-2.069458134318745,0.13797848738258947,2.1375762448946025,-1.2755072609718547,0.0008499937937918598,-0.0005127937663813559,0.0014617266532806561,0.00047774129392156044,0.0020174911566485355,6.628138655171366e-05,-0.003558150799254988,0.2411382496356964,-21.82431411743164,-2.4095618724823,22.56842803955078,0.6343485116958618,2.2487685680389404,0.0064559997990727425,,,,,,,,,
1739401568.083917,0.5254745647691651,0.09610659700054566,-0.9531513679243557,-2.069458393648056,0.1379760609485153,2.137576592293363,-1.2755073444991558,-0.0014755808086122843,0.00044510038841264745,0.0006306700968445191,-0.0002151676204077856,0.0007993213067485134,0.001784150441196644,-0.00039425636773555853,0.2689092457294464,-21.84811782836914,-2.38179087638855,22.56842803955078,0.6544901132583618,2.2487685680389404,0.019273381680250168,,,,,,,,,
1739401568.094883,0.5254799965768135,0.0961026510751976,-0.9531469128274787,-2.0694609150207746,0.1379716780299398,2.1375750774596844,-1.2755003090760602,0.0017950029807492906,-0.0008461949816447128,0.001292124313408513,-0.001920657182432897,-0.0012187776571300352,-0.0004242157871622959,0.00023024956469687376,0.1935308277606964,-21.79654312133789,-2.4095618724823,22.59223175048828,0.6544901132583618,2.2615859508514404,-0.04023589566349983,,,,,,,,,
1739401568.1058002,0.525476571535401,0.09610447021094953,-0.9531510048328673,-2.069458028376513,0.13797458054358042,2.137578809961378,-1.2755010667361384,6.18510624523293e-05,0.0006489376225410712,-0.0006371828427991345,-0.0010089286179583816,-0.0008322181309604354,-0.00020765433277348936,0.0008643813633800506,0.2411382496356964,-21.84811782836914,-2.35798716545105,22.56842803955078,0.6673074960708618,2.2615859508514404,-0.03382720425724983,,,,,,,,,
1739401568.1158698,0.5254765712083521,0.09610480638891146,-0.9531472228212945,-2.0694523822089486,0.13797423035622824,2.137578576778905,-1.2755003090760602,-0.0003391028659926282,-0.0005405204179281229,0.0004541014690426844,0.001837619825202624,-0.0003912268440370567,0.0022001658382613813,0.0005451077613838163,0.2411382496356964,-21.82431411743164,-2.4095618724823,22.49304962158203,0.6673074960708618,2.2679946422576904,-0.04023589566349983,,,,,,,,,
1739401568.1268353,0.5254755025060408,0.09610373083751297,-0.9531471555587111,-2.0694560548510936,0.13797497084129134,2.137575382928164,-1.2755034479536376,-0.0008061903017310882,-0.0011976332413691163,5.7026845422412475e-05,-0.00032035498694927547,-0.00024763936863918376,-8.950261972788108e-06,-0.0008798960823919095,0.2173345386981964,-21.84811782836914,-2.4095618724823,22.54065704345703,0.6608988046646118,2.2551772594451904,-0.013685601763427258,,,,,,,,,
1739401568.1368554,0.5254765600415869,0.0961046109685142,-0.9531471688584651,-2.0694581070576468,0.1379695752084341,2.1375772334541545,-1.2754988032563193,-6.35795515616745e-06,0.00035248977049982463,0.0011553294633030466,-0.0010229440843514083,-0.001152728169024314,0.0012026469189173096,0.000559136191610579,0.2411382496356964,-21.82431411743164,-2.4095618724823,22.56842803955078,0.6737161874771118,2.2423598766326904,-0.05396880581974983,,,,,,,,,
1739401568.1469688,0.5254763213428701,0.0961048740823038,-0.9531492221575926,-2.0694545038229166,0.13797411250281422,2.1375745844945997,-1.2755034305130284,0.000126326774899959,0.00022033442760175254,0.0009071858585221947,0.0002437878723487903,-3.7105393620226655e-05,0.00033548928270428133,8.841926800778065e-05,0.2411382496356964,-21.82431411743164,-2.38179087638855,22.51685333251953,0.6673074960708618,2.2615859508514404,-0.013685601763427258,,,,,,,,,
1739401568.157842,0.5254782837276709,0.09610485557456662,-0.9531501761585092,-2.069455944512393,0.1379777708159382,2.137573940420211,-1.2755043229205059,-0.0002943498750550881,-0.00016891287457708443,-0.001277903875008185,0.0017858266314383603,0.0011919160847316103,-0.0009270268948652596,-0.0005658500863843965,0.2173345386981964,-21.82431411743164,-2.38179087638855,22.54065704345703,0.6673074960708618,2.2679946422576904,-0.0072769103571772575,,,,,,,,,
1739401568.1679223,0.5254782840561266,0.09610288394025635,-0.9531510048503191,-2.06945696504809,0.1379738407164222,2.1375793921016197,-1.2755073971275261,0.000378374886819222,-0.0006768917930973157,-0.00033360571009937595,-0.0005021964897289975,0.00026867587166692534,-0.0002368487743179526,-0.00036452441373030834,0.2173345386981964,-21.79654312133789,-2.35798716545105,22.54065704345703,0.6737161874771118,2.2487685680389404,-0.0072769103571772575,,,,,,,,,
1739401568.178826,0.5254782560026124,0.09611030876124596,-0.9531510047978244,-2.0694583645229723,0.13797458515891137,2.137578846531277,-1.2754987246211165,5.524071131732749e-05,0.0012603114126073468,-0.0012739745215456168,0.0003042146103785441,-0.0006311202213381494,0.0008315390621639571,0.0014530578534231468,0.2173345386981964,-21.89969253540039,-2.35798716545105,22.56842803955078,0.6673074960708618,2.2615859508514404,-0.05396880581974983,,,,,,,,,
1739401568.1889741,0.525476574478365,0.096106887784814,-0.9531492222661596,-2.069459819305975,0.13797503121109372,2.137578100015044,-1.2754994433409954,0.00022232851286564114,0.0006044210551752397,0.001154301072209193,0.0007188804405426105,5.892791284225677e-05,-0.0011373890185189849,0.00044194468517380007,0.2411382496356964,-21.84811782836914,-2.38179087638855,22.59223175048828,0.6544901132583618,2.2679946422576904,-0.04756011441349983,,,,,,,,,
1739401568.2009172,0.5254743198043926,0.0961120212836333,-0.9531453640509208,-2.069458173820544,0.13797562458670415,2.1375782571491073,-1.2754988425021767,-0.0018791226703222114,0.0023307558222409822,0.0011284177798970446,0.001104763256704043,0.0011818541241351056,0.001674751006268995,0.0009026543645513491,0.2411382496356964,-21.92349624633789,-2.4333655834198,22.54065704345703,0.6480814218521118,2.2615859508514404,-0.05396880581974983,,,,,,,,,
1739401568.2119582,0.5254765719187773,0.0961083107722997,-0.9531455981088567,-2.0694666703441746,0.13797458362641846,2.1375788637467976,-1.2755049632740896,-0.0005087355465527707,2.7455337255875205e-05,-0.0003271514004283484,-0.0013639009251659524,0.0006238098621608085,0.0009904911944536453,-0.0010249489354773465,0.2411382496356964,-21.87192153930664,-2.4333655834198,22.63983917236328,0.6673074960708618,2.2615859508514404,-0.0008682189509272575,,,,,,,,,
1739401568.2228768,0.5254765712083543,0.09610194453950707,-0.9531472218414939,-2.0694621466842658,0.13797608730214805,2.137574729598035,-1.275503481331458,5.380042613187784e-05,-0.0021006219857785586,0.0008603039411142721,0.0013650406475510285,0.002052704730211849,0.0012052782875032167,-0.0005342346436259613,0.2411382496356964,-21.79654312133789,-2.4095618724823,22.59223175048828,0.6544901132583618,2.2615859508514404,-0.013685601763427258,,,,,,,,,
1739401568.2348373,0.5254761382889184,0.09610186186023158,-0.9531492221575926,-2.069458392077888,0.13797537357505546,2.1375764364030867,-1.2755022953466848,0.00022521592456014247,-0.0012564510314871484,0.0004766843778612679,-0.00013461088729400174,0.0008703919962800662,-0.0006930358036190518,-0.0005625720963037897,0.2173345386981964,-21.79654312133789,-2.38179087638855,22.56842803955078,0.6608988046646118,2.2551772594451904,-0.027418512850999832,,,,,,,,,
1739401568.2458804,0.5254728610617038,0.09610831081462323,-0.9531471423672885,-2.0694541740453416,0.13797534281908871,2.13757598587815,-1.2754991963635665,-0.0012181785106300743,0.0007152573672555688,0.0019732495127360384,0.0007435705930088516,0.00038349106090592843,0.000709481907011582,0.00018264721732724255,0.2927129566669464,-21.87192153930664,-2.4095618724823,22.51685333251953,0.6608988046646118,2.2615859508514404,-0.05396880581974983,,,,,,,,,
1739401568.25684,0.5254758562796635,0.0961058850880014,-0.9531538041313904,-2.0694605487240962,0.13797702628136135,2.137576795706265,-1.2755038026227814,-0.00021279419742043892,0.00023843858699169624,-0.002472434285942391,-0.0010213630663263558,9.146191265912182e-05,-0.0002568484475210665,-0.0005911154999700447,0.2411382496356964,-21.84811782836914,-2.3302161693573,22.59223175048828,0.6737161874771118,2.2551772594451904,-0.013685601763427258,,,,,,,,,
1739401568.2688031,0.5254782840547862,0.09610659797356404,-0.9531531594330467,-2.0694580239867775,0.13797458469688217,2.137577118637409,-1.275499443179495,0.0006840043714506808,0.00039878785763143094,-0.001174855197126532,0.0006301940328317848,6.420645381460393e-05,0.00014494972921791165,0.0006668133222544181,0.2173345386981964,-21.84811782836914,-2.35798716545105,22.56842803955078,0.6673074960708618,2.2679946422576904,-0.04756011441349983,,,,,,,,,
1739401568.2788289,0.5254792377304486,0.09610278261014081,-0.9531453862177109,-2.0694559449626726,0.13797559589252223,2.1375806925983967,-1.27550665303193,0.0008770766383233833,-0.00045705938204471065,0.0010985634374102186,0.00022948072011658995,-0.0002312265939512306,0.00124003540256927,-0.0007419141540988583,0.2173345386981964,-21.79654312133789,-2.4333655834198,22.54065704345703,0.6737161874771118,2.2487685680389404,-0.013685601763427258,,,,,,,,,
1739401568.2888777,0.5254782840251769,0.09610215124183359,-0.9531492221572937,-2.0694580243003204,0.13797352221932088,2.137578222965563,-1.2755054632965976,0.0008077873293484618,-0.0002739498765183436,-0.00020906803704154594,-1.388252244848519e-05,0.0004314326110465951,0.0003711601224432082,-0.0012760808470199075,0.2173345386981964,-21.79654312133789,-2.38179087638855,22.56842803955078,0.6673074960708618,2.2615859508514404,-0.027418512850999832,,,,,,,,,
1739401568.2989087,0.5254804298233435,0.09610457008261884,-0.9531510048341632,-2.0694581698635877,0.1379768581210708,2.137575385257141,-1.275507688505847,0.0005908148149578595,-2.3445760696923993e-06,-0.00013542577164471384,-0.0005455205485986364,0.0009176944140667441,-0.00045509806382034845,-0.001963798427315206,0.2173345386981964,-21.82431411743164,-2.35798716545105,22.54065704345703,0.6480814218521118,2.2679946422576904,-0.013685601763427258,,,,,,,,,
1739401568.3098025,0.5254765702635444,0.09610588670654326,-0.9531492486480972,-2.0694598083716707,0.13797411273683713,2.137577517580126,-1.2754971722089143,-0.0005210351078675741,-0.0005870826822168223,-0.00044854986274812133,-0.001063547703193621,0.00037608106873692686,-0.00050432722006571,0.0024915647203529122,0.2411382496356964,-21.84811782836914,-2.38179087638855,22.59223175048828,0.6673074960708618,2.2679946422576904,-0.06678618490695953,,,,,,,,,
1739401568.3218744,0.5254761382889178,0.09610271690055094,-0.9531473807859173,-2.0694605517764857,0.13797534281802615,2.137577799981337,-1.275509555039025,0.0003813095957892724,-0.001136871070806771,0.001416587278717285,-0.0010001597350798256,-0.00015136921647517884,-3.992889744722233e-06,-0.0026531937802240554,0.2173345386981964,-21.82431411743164,-2.4095618724823,22.59223175048828,0.6608988046646118,2.2615859508514404,-0.0008682189509272575,,,,,,,,,
1739401568.333555,0.5254761647637228,0.09610445832374934,-0.9531471823905324,-2.069459807430954,0.13797378796824816,2.137573985342691,-1.275507999870035,0.0005295156358392514,-0.0004391199267132551,-0.00039002479928958205,-0.0001308059973641296,-7.878588590141627e-05,-0.00011920162036550429,-0.00238664681214494,0.2173345386981964,-21.84811782836914,-2.38179087638855,22.59223175048828,0.6737161874771118,2.2679946422576904,0.012864691205322742,,,,,,,,,
1739401568.3449266,0.5254782840441686,0.0961065719806152,-0.9531499109104136,-2.0694598436068055,0.1379745851586136,2.1375740593310835,-1.2754986855267259,0.0003085265787873584,1.2891992936929085e-05,-3.43007487749174e-05,0.0007605245558364331,-0.00034354676466311947,-0.0007472591205576105,0.0019463769439341317,0.2173345386981964,-21.84811782836914,-2.38179087638855,22.59223175048828,0.6673074960708618,2.2753188610076904,-0.05396880581974983,,,,,,,,,
1739401568.3559957,0.5254765744788401,0.09611030876121844,-0.9531493045747389,-2.0694604969400934,0.1379745866214717,2.1375775533783767,-1.2755018646484781,-0.0008079443009719876,0.0003034314292777165,0.00021947451661505528,0.00041454378235945925,0.00023659778589193731,-0.0005519823563156027,0.00018588140941978393,0.2411382496356964,-21.89969253540039,-2.38179087638855,22.56842803955078,0.6673074960708618,2.2487685680389404,-0.05396880581974983,,,,,,,,,
1739401568.3668509,0.5254782459004548,0.09610951729279073,-0.9531520835076073,-2.069461711917273,0.13797498850242385,2.137573967992036,-1.2755045869462156,0.000547556039945716,0.0007680065728074168,-0.0008338511060113362,-0.0005827479121975451,0.00030584793729194045,-0.0025720229100302796,-0.00046487788204056693,0.2173345386981964,-21.84811782836914,-2.38179087638855,22.61603546142578,0.6608988046646118,2.2679946422576904,-0.04023589566349983,,,,,,,,,
1739401568.3778455,0.5254782575645327,0.09610375719438281,-0.9531492329982117,-2.069458134643002,0.13797608168030437,2.137575836034774,-1.2755010668085844,0.0006235176764236884,-0.0007942756505086243,0.0007724222953045688,0.0006279280186548826,0.0006643621395370479,-0.0007715947753629032,-0.0001683625192724905,0.2173345386981964,-21.84811782836914,-2.38179087638855,22.56842803955078,0.6544901132583618,2.2551772594451904,-0.03382720425724983,,,,,,,,,
1739401568.3878627,0.5254756177155799,0.09610831047959914,-0.9531492526090828,-2.0694591232979804,0.13797382749865228,2.1375760191449107,-1.2755049690879956,-0.0006722059429694661,0.0006617185223847557,-0.0005880959705886084,0.00096563583801198,-2.9538310717148165e-05,-0.00010388318966895701,-0.00212268728022387,0.2411382496356964,-21.87192153930664,-2.38179087638855,22.56842803955078,0.6737161874771118,2.2615859508514404,-0.0008682189509272575,,,,,,,,,
1739401568.3989391,0.5254767193456068,0.09610488577894676,-0.953150175831976,-2.0694617088317866,0.1379768581390718,2.1375800474762583,-1.2755097657455914,3.2770629356016845e-05,-0.00023871250412563466,-0.0008774718035525286,-0.0009260333878331125,0.0005977781817355515,0.0008541913501796674,-0.002514789740101878,0.2689092457294464,-21.82431411743164,-2.38179087638855,22.61603546142578,0.6480814218521118,2.2551772594451904,0.012864691205322742,,,,,,,,,
1739401568.409835,0.5254781771152104,0.09610499095879044,-0.9531471413879365,-2.069458024350788,0.13797853652519568,2.13757523920306,-1.275498698014496,0.00015228747569862662,-5.7221862846376745e-05,0.0007515520467343008,0.0006372834276303439,0.0004388165094385877,-0.00012587645538675375,0.001646968188043143,0.2173345386981964,-21.82431411743164,-2.4095618724823,22.56842803955078,0.6608988046646118,2.2679946422576904,-0.05396880581974983,,,,,,,,,
1739401568.4199417,0.5254817090957834,0.0961009937367245,-0.9531493281209403,-2.0694604998417425,0.13797352226342396,2.137574181033816,-1.2755051202574323,0.0024225888291035842,-0.0008612357694570074,-0.0009573364841274915,-6.554928403567082e-05,-0.0007996139992264017,-0.0013820756954482925,-0.0016774424455758027,0.1697271168231964,-21.79654312133789,-2.38179087638855,22.56842803955078,0.6673074960708618,2.2679946422576904,-0.0008682189509272575,,,,,,,,,
1739401568.4309175,0.5254766510082606,0.09610659828899144,-0.9531492221577421,-2.069454164899873,0.1379773697138046,2.1375804948616133,-1.2755004268145163,0.0002992022794228972,0.00110585816774113,-1.9717148287941972e-05,0.00033536056700724616,-0.0002406340918373178,0.0003690524084362773,6.206568328698795e-05,0.2411382496356964,-21.84811782836914,-2.38179087638855,22.51685333251953,0.6407572031021118,2.2487685680389404,-0.04023589566349983,,,,,,,,,
1739401568.4418352,0.5254765451539126,0.09609996776240026,-0.953149222157144,-2.069454244701975,0.13797494009109496,2.1375781672076313,-1.2755074011801975,-0.0003137210038014023,-0.0004762327392106983,0.00036585292819634005,0.00038063704420736484,0.0008971944906882697,0.001055471093467381,-0.0021728404769756366,0.2411382496356964,-21.79654312133789,-2.38179087638855,22.51685333251953,0.6673074960708618,2.2679946422576904,0.019273381680250168,,,,,,,,,
1739401568.4528887,0.5254763331163751,0.0961028600742897,-0.9531512550264991,-2.069462774304664,0.13798198908578557,2.137578204994999,-1.2755018260122326,-0.00021574866556527654,0.000507730044586799,-0.0012318221030737128,-0.0012379606376265147,0.0029827229960394885,0.0013860480730395776,0.0008104596686679203,0.2411382496356964,-21.79654312133789,-2.35798716545105,22.59223175048828,0.6407572031021118,2.2679946422576904,-0.027418512850999832,,,,,,,,,
1739401568.4638426,0.5254799936329755,0.09610275490082076,-0.9531513767914832,-2.0694580244189553,0.13797609611274111,2.1375765922468797,-1.275501903678997,0.0009430820794626845,-0.0003992617843855698,-7.181871471744416e-05,4.362938915810689e-05,0.001194772894353008,0.0012442524119586952,0.00046972700835458815,0.1935308277606964,-21.82431411743164,-2.38179087638855,22.56842803955078,0.6544901132583618,2.2487685680389404,-0.05396880581974983,,,,,,,,,
1739401568.473885,0.525474573594498,0.09610488281986722,-0.9531499639403234,-2.06945668930961,0.13797458515876282,2.137577201106834,-1.275502690347949,-0.00016882316011603221,-0.00017634714153214815,-0.0009475098651540043,-0.0001175980051492666,0.0004440898645874438,0.00015905106578262756,-0.0004787858856634373,0.2689092457294464,-21.82431411743164,-2.38179087638855,22.54065704345703,0.6673074960708618,2.2753188610076904,-0.020094294100999832,,,,,,,,,
1739401568.4848084,0.525473859319957,0.09610488281985072,-0.9531517318678447,-2.0694607959771285,0.13797579518957329,2.1375800795076367,-1.275498686164772,-0.0014073081145198076,0.0004278987555325337,-0.00036775379029221444,-0.00022428347497472528,-0.00045053649020873696,0.000541878081818064,0.0012620248665365817,0.2689092457294464,-21.82431411743164,-2.35798716545105,22.59223175048828,0.6480814218521118,2.2551772594451904,-0.05396880581974983,,,,,,,,,
1739401568.495786,0.5254761382848882,0.09610854660895982,-0.9531510087628529,-2.069459099260143,0.13797352220333786,2.137576033219851,-1.2755005597207612,-0.00010747047332817521,0.001120242775953329,-0.00020024441853081423,0.0008394947169780986,-0.0001008330654604602,-0.001971912023551964,0.0007693159919454574,0.2173345386981964,-21.87192153930664,-2.35798716545105,22.56842803955078,0.6673074960708618,2.2615859508514404,-0.04756011441349983,,,,,,,,,
1739401568.5058672,0.5254804293872788,0.09610488579093182,-0.9531478576232253,-2.069458539152265,0.1379742307883335,2.1375750444929538,-1.2755019988789726,0.0012522396705324347,-0.0006471694470411876,0.0008008250858359535,0.000816711498061137,-0.0003198319138607245,-0.0013406747627891535,-0.0005863113504761805,0.2173345386981964,-21.82431411743164,-2.4095618724823,22.54065704345703,0.6673074960708618,2.2679946422576904,-0.027418512850999832,,,,,,,,,
1739401568.515871,0.5254799965889738,0.09610461347095044,-0.953147142371326,-2.0694590136497135,0.1379745282912253,2.1375777999633887,-1.2754994431798128,0.0012059802503696089,-0.0011054178772858273,0.0006751316073751403,0.0007643904968721966,0.0008462013807603859,-1.7484027688803043e-05,0.001905989596338985,0.1935308277606964,-21.82431411743164,-2.4095618724823,22.56842803955078,0.6673074960708618,2.2615859508514404,-0.04756011441349983,,,,,,,,,
1739401568.5259068,0.5254764920625414,0.09610925786738143,-0.953149222157144,-2.069458293222156,0.13797503461688904,2.1375774604352116,-1.2754995609163977,-0.0006704839308404144,0.0008768204948257025,-0.0002062529501812554,0.00015439079057447363,-0.0006649863994741969,-0.0006550841409428563,0.0017107305121966596,0.2411382496356964,-21.87192153930664,-2.38179087638855,22.54065704345703,0.6544901132583618,2.2679946422576904,-0.04756011441349983,,,,,,,,,
1739401568.5359216,0.5254782840547862,0.09610843360239854,-0.9531492851910611,-2.069456030132046,0.13797453516975822,2.1375747387875994,-1.275505015603597,7.009398068649178e-05,3.17892083373058e-05,-0.0005292714589349068,0.0020950390778970316,0.0006006843835654958,-0.0006527858947396753,-0.001591521795861243,0.2173345386981964,-21.87192153930664,-2.4095618724823,22.54065704345703,0.6407572031021118,2.2615859508514404,-0.0008682189509272575,0,0,0,0.000,0,0
1739401568.5468419,0.5254782840561322,0.09610831114588564,-0.9531492222055791,-2.0694544101003087,0.1379737870877062,2.137579295606754,-1.2755018243965122,0.00019655700762857218,0.0008802162047255347,-0.00046263344350125395,0.0019636172079624237,-0.0010587119895376848,0.00021670587925112675,0.0005991995020376882,0.2173345386981964,-21.87192153930664,-2.38179087638855,22.51685333251953,0.6737161874771118,2.2615859508514404,-0.027418512850999832,0,0,0,0.000,0,0
1739401568.5578022,0.5254774355986436,0.09610487506129614,-0.9531493016300046,-2.0694599295319778,0.13797414338785302,2.1375785772716465,-1.2754994431788278,-0.00025950681207321017,-0.0013678114037998176,-0.0007984629936919549,-0.0003076419389473148,0.0004630199538035055,0.0019538379363377395,0.0012114831406756354,0.2689092457294464,-21.82431411743164,-2.38179087638855,22.59223175048828,0.6737161874771118,2.2679946422576904,-0.04756011441349983,0,0,0,0.000,0,0
1739401568.567827,0.525476571551557,0.09610288783803896,-0.953150925361752,-2.069458134189408,0.13797532969786497,2.1375785316739027,-1.2755073847434448,-0.0002061495320491854,-0.0005297136732880344,-0.0002430562851216842,0.00027324714966944666,0.000630033871825751,0.0008471084767927485,-0.00046581895478153444,0.2411382496356964,-21.79654312133789,-2.35798716545105,22.56842803955078,0.6608988046646118,2.2679946422576904,-0.0072769103571772575,0,0,0,0.000,0,0
1739401568.57789,0.5254745735945482,0.0961002246932362,-0.95315136792301,-2.069459806979198,0.1379753428186929,2.13757845953397,-1.2754994432326665,-0.00012596873176911976,-0.0019640281169799527,-0.0014781505714773057,-0.0009362628937343173,-0.0005677154411126667,-0.00012765540823375034,0.002030237022559951,0.2689092457294464,-21.77273941040039,-2.38179087638855,22.59223175048828,0.6608988046646118,2.2679946422576904,-0.04756011441349983,0,0,0,0.000,0,0
1739401568.588873,0.5254782839471158,0.09610657208485573,-0.9531510048705019,-2.069456058921017,0.13797530393796012,2.1375792819565658,-1.2754956643792932,0.0009425016406863431,0.00019641906755906227,-0.0003709674833708451,1.8632512141728203e-05,-0.0008106264032470402,0.0002153613484200459,0.0024550102934431254,0.2173345386981964,-21.84811782836914,-2.35798716545105,22.54065704345703,0.6608988046646118,2.2615859508514404,-0.08051909506320953,0,0,0,0.000,0,0
1739401568.5998921,0.5254748394849271,0.09610417549012097,-0.9531502567215318,-2.069460599644762,0.13797610047877396,2.137574286391687,-1.27550030913056,-0.0012817582392875605,0.00027868210302431443,-0.0006372592629486922,-0.0007792336869526996,0.0005199458777430808,-0.0019473207139097538,0.0005327556662061279,0.2411382496356964,-21.82431411743164,-2.38179087638855,22.56842803955078,0.6544901132583618,2.2679946422576904,-0.04023589566349983,0,0,0,0.000,0,0
1739401568.6108212,0.5254782830717265,0.09610559606629956,-0.9531500168876876,-2.0694591628334695,0.13797382726474355,2.137578171023862,-1.2755011190639471,0.0003495224551609081,-0.0001204450126218175,0.0007269052983561399,-0.00045323814417745124,-0.00014693570117822253,-0.0002884340949969907,-0.00023358833306920244,0.2173345386981964,-21.82431411743164,-2.38179087638855,22.54065704345703,0.6737161874771118,2.2679946422576904,-0.03382720425724983,0,0,0,0.000,0,0
1739401568.620831,0.5254766065296065,0.09610261211391774,-0.9531512815309112,-2.0694566874421945,0.13797865570066603,2.137576741667756,-1.275500596879895,0.0002995762832066583,-0.0014961446523257952,-0.0007128779657938634,-0.000444114766299433,0.0001402968273366083,-5.71352382052819e-05,0.0004293321985857514,0.2411382496356964,-21.79654312133789,-2.35798716545105,22.54065704345703,0.6608988046646118,2.2551772594451904,-0.04023589566349983,0,0,0,0.000,0,0
1739401568.6327982,0.5254782840563297,0.09610659732379434,-0.9531471423688503,-2.0694581077382956,0.1379749710781775,2.13757507886452,-1.2755033914283083,3.0843167309036975e-05,0.00027625734546156725,0.00034344912513042746,-0.0009609953922418801,-3.2106181121458415e-05,-0.00039609186897571544,-0.00064606365810434,0.2173345386981964,-21.84811782836914,-2.4095618724823,22.56842803955078,0.6608988046646118,2.2615859508514404,-0.013685601763427258,0,0,0,0.000,0,0
1739401568.6428175,0.525476571535401,0.09611030865299222,-0.9531492485390809,-2.0694581067180295,0.13797683901556235,2.137579955886669,-1.2754986855177919,-4.01188264315911e-05,0.0013547343988438982,-0.00011844023206515308,6.95361755953087e-05,-0.0007690675453386503,0.0007450276658114815,0.0016802289036996088,0.2411382496356964,-21.89969253540039,-2.38179087638855,22.56842803955078,0.6480814218521118,2.2551772594451904,-0.05396880581974983,0,0,0,0.000,0,0
1739401568.652874,0.5254799965768634,0.09610565503717738,-0.9531498127414165,-2.0694574585989205,0.13797215397031165,2.1375792171940495,-1.2755066268680255,5.629337990580225e-05,-7.903452570568667e-05,-0.00012191024413799034,0.00018927970037711014,-0.0006434638646867557,0.0005752166840184137,-0.0001626587263868606,0.1935308277606964,-21.84811782836914,-2.35798716545105,22.51685333251953,0.6608988046646118,2.2615859508514404,-0.013685601763427258,0,0,0,0.000,0,0
1739401568.662904,0.5254799965768634,0.09611030874529373,-0.9531510136442927,-2.069461247749174,0.13797532964207834,2.1375792952000237,-1.2755003089683898,8.182709449197005e-05,0.0011811952654310874,-0.0008065379626944679,-0.0005960684059460909,-0.0011914933617087657,0.000825844314568537,3.2963626049840715e-05,0.1935308277606964,-21.89969253540039,-2.35798716545105,22.56842803955078,0.6608988046646118,2.2615859508514404,-0.04023589566349983,0,0,0,0.000,0,0
1739401568.6729064,0.525474573594548,0.09610799513655473,-0.9531407159907487,-2.0694580641460076,0.13797610047832398,2.1375747039192885,-1.275508445619778,-0.0003640459344467628,-6.941784466794566e-05,0.0017798432541128422,-0.0005491849985284429,0.0005030459983259873,0.0008507074384108949,-0.001048509937018926,0.2689092457294464,-21.87192153930664,-2.4571692943573,22.56842803955078,0.6544901132583618,2.2615859508514404,-0.0072769103571772575,0,0,0,0.000,0,0
1739401568.6839235,0.5254817090975945,0.09610257215364608,-0.9531464271061676,-2.0694610189225546,0.13797854160151804,2.1375800862670924,-1.2754994433303666,0.0020021084092986807,-0.001421865047913316,0.001195243386450528,-0.00014265409928478382,-0.00033651535779275995,0.001008421537344314,0.0008894067460944635,0.1697271168231964,-21.79654312133789,-2.4095618724823,22.56842803955078,0.6608988046646118,2.2551772594451904,-0.04756011441349983,0,0,0,0.000,0,0
1739401568.6948428,0.5254782830749857,0.09610872916395238,-0.9531471423632507,-2.069460258752345,0.13797685232475865,2.137574742521106,-1.2755034480074736,-0.00033281111306232927,-0.0010363847637053312,0.0010631258918304622,0.000630461518474356,-0.0010697288932415355,-0.0015721127115537032,0.0008012164111420456,0.2173345386981964,-21.84811782836914,-2.4095618724823,22.56842803955078,0.6480814218521118,2.2615859508514404,-0.013685601763427258,0,0,0,0.000,0,0
1739401568.704866,0.5254765744788236,0.09610659833577008,-0.9531530875674578,-2.0694587691373045,0.13797276309106887,2.137577656724884,-1.275500326518664,0.00023237379607016548,-0.0008540199289533398,-0.0007896618384768433,-0.00013918192759506775,-0.001105043661169024,-0.0007701329711051698,-0.0006358338382000518,0.2411382496356964,-21.84811782836914,-2.3302161693573,22.56842803955078,0.6737161874771118,2.2487685680389404,-0.04023589566349983,0,0,0,0.000,0,0
1739401568.715799,0.525475853336241,0.09610588801100034,-0.953149223138307,-2.069457052895181,0.137974988496407,2.1375769136600535,-1.2755019158832355,-0.0004253808376744623,0.000265994018906486,-0.00018651917876090477,0.0004910001434234508,-0.0005160082591101011,0.0014176745706987,0.0008246965190595693,0.2411382496356964,-21.84811782836914,-2.38179087638855,22.54065704345703,0.6608988046646118,2.2551772594451904,-0.04756011441349983,0,0,0,0.000,0,0
1739401568.7268336,0.5254782577791571,0.09610682336657383,-0.9531471158763407,-2.0694571696389232,0.137974583698744,2.137574180049532,-1.2755053167158033,0.0009733267738560171,0.0009218130445496787,0.0010885737403631252,-0.0010850321715680554,-0.0007792307079850676,0.0002943221783890218,0.0003981672686508963,0.2173345386981964,-21.84811782836914,-2.4095618724823,22.51685333251953,0.6673074960708618,2.2679946422576904,-0.0008682189509272575,0,0,0,0.000,0,0
1739401568.7378426,0.5254761382887719,0.09610735954799808,-0.9531471158761856,-2.069454193392463,0.13797686525439387,2.1375785770859843,-1.275504205831052,0.0002413139969870006,-2.2167625525883173e-05,0.0016699844899109178,0.0011219631010052382,7.1101181169728825e-06,-0.0009576813961783337,0.00045503081392197267,0.2173345386981964,-21.87192153930664,-2.4095618724823,22.51685333251953,0.6480814218521118,2.2679946422576904,-0.0072769103571772575,0,0,0,0.000,0,0
1739401568.7478733,0.5254765714990621,0.09610565123199573,-0.9531510048337144,-2.0694560309972365,0.13797468321311596,2.1375800475324085,-1.2755003090760637,-0.0003258900743224641,0.0001782809640828696,-0.0013066854677553723,2.1704861554044965e-05,-0.001394772391676393,0.001207823322406508,0.00018860378609008053,0.2411382496356964,-21.84811782836914,-2.35798716545105,22.54065704345703,0.6544901132583618,2.2551772594451904,-0.04023589566349983,0,0,0,0.000,0,0
1739401568.758863,0.5254751410239261,0.09610358642944201,-0.9531499285825635,-2.0694559857002575,0.13797610485889772,2.1375776669772546,-1.2755034611970952,0.00016645944381050033,-0.0006473217944170939,-0.00030105871413847534,0.000490375678946217,-0.0005421794975293992,0.00041769460284995526,-0.0002292570186359639,0.2411382496356964,-21.79654312133789,-2.38179087638855,22.54065704345703,0.6544901132583618,2.2487685680389404,-0.013685601763427258,0,0,0,0.000,0,0
1739401568.769856,0.5254765715273256,0.09610417553029892,-0.9531493291424299,-2.069459127254477,0.13797532532182874,2.137579316018268,-1.2755049764096564,-0.00029978085591115015,-9.79096941189811e-05,-0.001103760005152219,-0.001396941396725454,-0.00020376572405374837,0.0008407305373827049,-0.0011646978775617487,0.2411382496356964,-21.82431411743164,-2.38179087638855,22.56842803955078,0.6608988046646118,2.2615859508514404,-0.0008682189509272575,0,0,0,0.000,0,0
1739401568.7798638,0.5254782752258143,0.09610820655476655,-0.953149937414693,-2.0694541633218226,0.13797382831305588,2.1375773436265475,-1.275506626868248,-0.0004230927628131023,0.0017777916724665002,0.00024516442193046786,0.0012092558167015465,-0.0004530181981169799,-0.0018744654750092278,-0.0020105508633568494,0.2173345386981964,-21.87192153930664,-2.38179087638855,22.51685333251953,0.6737161874771118,2.2753188610076904,-0.013685601763427258,0,0,0,0.000,0,0
1739401568.7918267,0.525475776661399,0.09610004343500025,-0.9531471433524724,-2.069460992455312,0.13797680564774312,2.1375760339177066,-1.2755022304391972,-0.0012847206653206654,-0.0015440794814062949,0.0013817554233850919,0.00039178149994235613,0.00010191007821122995,-0.00014301394698865952,-0.0002879945131406354,0.2411382496356964,-21.79654312133789,-2.4095618724823,22.56842803955078,0.6480814218521118,2.2615859508514404,-0.027418512850999832,0,0,0,0.000,0,0
1739401568.8028371,0.5254817090960988,0.09610487688431617,-0.9531510755130457,-2.069459022923634,0.13797609993886037,2.137579974292391,-1.2755034087085448,0.0009608418732948727,-0.0005726820173319324,-0.0002358216139742293,-0.00023096519979151517,0.00029725040327481446,0.0013598509705426663,6.0392957785650745e-05,0.1697271168231964,-21.82431411743164,-2.35798716545105,22.56842803955078,0.6544901132583618,2.2551772594451904,-0.013685601763427258,0,0,0,0.000,0,0
1739401568.812852,0.5254745732674991,0.0961048857788019,-0.9531470499001757,-2.0694667100388133,0.13797685813906263,2.1375771642579644,-1.275501942133122,-0.00116012026640032,-0.0006044056377939359,0.0010920086429480709,-0.00158299313021271,-0.0001376074341942838,-0.0010957175729322862,0.0010878292728292278,0.2689092457294464,-21.82431411743164,-2.38179087638855,22.63983917236328,0.6480814218521118,2.2679946422576904,-0.027418512850999832,0,0,0,0.000,0,0
1739401568.8228981,0.525475617861079,0.09610563371011342,-0.953145359653482,-2.0694590545040517,0.13797534217087393,2.137576292524605,-1.2754979283451817,-0.0009188305466577222,-0.0012255482217779154,0.0008299323190019447,0.0006828992137763875,-0.0003778094077766227,-0.0011373320761336758,0.0022226938417533215,0.2411382496356964,-21.84811782836914,-2.4333655834198,22.56842803955078,0.6608988046646118,2.2753188610076904,-0.06037749722599983,0,0,0,0.000,0,0
1739401568.8338995,0.5254761411179597,0.09610489454250348,-0.9531492221571438,-2.0694601746344614,0.1379753430355981,2.137577042099902,-1.2754986463267306,0.0010789366083612867,-0.0007333118755103448,0.001023283856189121,0.0003438082797527165,0.000249165765617751,-0.0013829241091918689,0.0005784338183376183,0.2173345386981964,-21.82431411743164,-2.38179087638855,22.59223175048828,0.6608988046646118,2.2679946422576904,-0.05396880581974983,0,0,0,0.000,0,0
1739401568.844867,0.5254782811005959,0.09610872916578389,-0.953151004834163,-2.0694609155106654,0.1379732321911591,2.1375775155259444,-1.2755000998767525,0.0007955166010705343,0.00019377849972768534,-0.0006301778144933816,-0.00036338816280911094,9.81855702115777e-05,0.0004263877673367901,0.0005955518136727789,0.2173345386981964,-21.84811782836914,-2.35798716545105,22.59223175048828,0.6801248788833618,2.2679946422576904,-0.05396880581974983,0,0,0,0.000,0,0
1739401568.8558457,0.5254782840561155,0.09610831097678932,-0.9531492211759975,-2.069460881937837,0.13797382917899648,2.137575802583959,-1.275507284973761,0.0009376919620300097,6.864944012186766e-05,-0.0003645434584067901,-8.124769113650217e-05,-0.0002547356414531126,-0.000354571471327173,-0.0012624336631731179,0.2173345386981964,-21.87192153930664,-2.38179087638855,22.59223175048828,0.6737161874771118,2.2615859508514404,-0.020094294100999832,0,0,0,0.000,0,0
1739401568.8668277,0.525476571535401,0.09610659829968458,-0.9531492342579442,-2.0694631447869853,0.13797697791313565,2.1375758539661764,-1.2755003285365023,0.000795274254482896,-0.0006425972572676396,0.0006105743796988639,-0.001005572955267771,-0.00010647182392620902,0.0006566132732097993,0.0008642782187088995,0.2411382496356964,-21.84811782836914,-2.38179087638855,22.59223175048828,0.6480814218521118,2.2551772594451904,-0.04023589566349983,0,0,0,0.000,0,0
1739401568.8777893,0.5254765714990621,0.09610659829968371,-0.9531501709257966,-2.069458179077481,0.1379745458451846,2.137578419780442,-1.275498685518859,-0.00036132604310979024,9.430157843228772e-06,-0.00039997708721763577,0.00014762471799781898,-0.0004937813919148165,0.0009151360248177044,0.0010576851813916045,0.2411382496356964,-21.84811782836914,-2.38179087638855,22.54065704345703,0.6673074960708618,2.2679946422576904,-0.05396880581974983,0,0,0,0.000,0,0
1739401568.8877976,0.5254782752258138,0.09610933679295784,-0.9531471423833558,-2.069453400071056,0.13797382749809262,2.137580079023333,-1.2755050997460118,0.0010037662336626276,0.0020337585571715403,0.0012658320962957688,0.001814069803453201,-0.00012811099505279083,0.00015317386942165765,-0.0011402049447702212,0.2173345386981964,-21.87192153930664,-2.4095618724823,22.49304962158203,0.6737161874771118,2.2551772594451904,-0.0008682189509272575,0,0,0,0.000,0,0
1739401568.8989108,0.5254724543181397,0.09610393863649015,-0.9531530846240189,-2.0694569613346,0.13797653213387373,2.137578577110577,-1.275506587317933,-0.001664143810043641,-0.00036432472308977205,-0.0013452060633558699,-0.0015435090677546962,-0.00013572707336796143,0.0007441748499134518,-0.0016857327342863775,0.2689092457294464,-21.82431411743164,-2.3302161693573,22.54065704345703,0.6673074960708618,2.2679946422576904,0.012864691205322742,0,0,0,0.000,0,0
1739401568.9098625,0.5254738582863712,0.09610488480283741,-0.9531489837385649,-2.0694638184386966,0.13797809693379737,2.1375793349323904,-1.275497927858672,-0.0010305173698371885,0.0006862766641288053,0.0012746181079757155,-0.0008060019898705666,0.0003782260565099785,0.0002246841197976835,0.0010055892096153527,0.2689092457294464,-21.82431411743164,-2.38179087638855,22.61603546142578,0.6737161874771118,2.2615859508514404,-0.06037749722599983,0,0,0,0.000,0,0
1739401568.9208975,0.5254782840440183,0.0961018856060353,-0.9531510043940603,-2.06945803496513,0.13797458523114,2.137577696839578,-1.275503604937064,0.0007035853331740756,-0.0008815879016409543,0.0002761592518849055,0.000850999116973249,0.0001282657359465896,-0.0004543625567586992,0.00028391240807919526,0.2173345386981964,-21.77273941040039,-2.35798716545105,22.56842803955078,0.6673074960708618,2.2753188610076904,-0.013685601763427258,0,0,0,0.000,0,0
1739401568.9318497,0.525476571535401,0.0961047802275583,-0.9531471690157087,-2.0694611145158595,0.13797458370074428,2.137576258487293,-1.2755029242330675,0.0005839233179697327,-0.00010975124287205035,0.0007308033891753387,-0.0006416391235684372,-0.0007945275631912012,-0.001498834968150482,-0.0015258289388645884,0.2411382496356964,-21.82431411743164,-2.4095618724823,22.56842803955078,0.6673074960708618,2.2487685680389404,-0.05396880581974983,0,0,0,0.000,0,0
1739401568.941915,0.5254799975580098,0.09610830973603526,-0.9531483122873354,-2.069460136694866,0.13798026351046613,2.137579334854629,-1.2755042071390492,0.000508919843033073,0.00019612617112335276,-3.751353698594386e-05,0.0002721446206309457,0.00028534351980278905,8.965921868236505e-05,-0.000485993682584974,0.1935308277606964,-21.87192153930664,-2.4333655834198,22.59223175048828,0.6544901132583618,2.2615859508514404,-0.0072769103571772575,0,0,0,0.000,0,0
1739401568.952789,0.5254746530674131,0.09610841637313954,-0.953151017605734,-2.0694570163764254,0.13797535584411966,2.137580850252547,-1.2755043632265994,-3.4154902595824144e-05,0.0013723063981651332,-0.0008562846763021069,-5.858273075174524e-05,0.00021862686285946772,0.0010476933529705978,-0.0010147909691742441,0.2689092457294464,-21.87192153930664,-2.35798716545105,22.54065704345703,0.6608988046646118,2.2487685680389404,-0.03382720425724983,0,0,0,0.000,0,0
1739401568.9629092,0.5254761382902661,0.09610488578074007,-0.9531460601630078,-2.069460258715908,0.13797764112134558,2.1375755008272423,-1.2755072821145026,-0.0013533450782622553,-0.0009684110916230984,-0.0010889158280021926,3.3435728443127494e-05,0.002426967784572434,-0.0015390001723389235,-0.0003467698539959713,0.2173345386981964,-21.82431411743164,-2.4095618724823,22.56842803955078,0.6544901132583618,2.2551772594451904,-0.020094294100999832,0,0,0,0.000,0,0
1739401568.972916,0.5254782751894757,0.0961065979749061,-0.9531472217128046,-2.0694615941012984,0.13797842352210912,2.137575398280162,-1.2755034480314003,0.0005420458722989365,0.00019113284818882777,0.0012422712524858648,0.0001659108728150157,0.0004773046195432351,1.6019667193978163e-05,-0.00023450608387805906,0.2173345386981964,-21.84811782836914,-2.4095618724823,22.61603546142578,0.6608988046646118,2.2679946422576904,-0.013685601763427258,0,0,0,0.000,0,0
1739401568.9829566,0.525473501201365,0.09611044168646013,-0.9531472303447608,-2.069463924895955,0.13797534287108706,2.137580086239915,-1.2755041031442895,-0.0019203714813123952,0.0005573219252639228,-2.047571654902302e-05,-0.0003520860510566323,-0.00041515052718930326,0.0011743557975471676,-0.001323944679548447,0.2689092457294464,-21.87192153930664,-2.4095618724823,22.61603546142578,0.6608988046646118,2.2551772594451904,-0.020094294100999832,0,0,0,0.000,0,0
1739401568.9939034,0.5254765626990295,0.0961069653104379,-0.953147461567419,-2.069459132505591,0.1379753447690953,2.1375750942802654,-1.275500276190732,-7.919437819985076e-05,-0.00015375618104332853,-6.900039110867921e-05,-0.00038218224290183423,0.0001836985129623661,-0.0006639925330320207,0.0017230943213295085,0.2411382496356964,-21.84811782836914,-2.4095618724823,22.56842803955078,0.6608988046646118,2.2615859508514404,-0.04023589566349983,0,0,0,0.000,0,0
1739401569.0048738,0.525474573594498,0.09610831959148278,-0.9531496329547593,-2.069460552272639,0.13797610047900444,2.1375800925685304,-1.2754994301505251,-0.001226566368257874,0.00031383881784651283,-9.9004282958604e-05,-1.2530332237914443e-05,0.0009499724045158108,0.0003587590941180499,0.0015467797250561278,0.2689092457294464,-21.87192153930664,-2.4095618724823,22.59223175048828,0.6544901132583618,2.2551772594451904,-0.04756011441349983,0,0,0,0.000,0,0
1739401569.015825,0.5254721864653177,0.09610902110914799,-0.9531507693730826,-2.0694581702446415,0.13797771895998182,2.137579974854899,-1.2754986855186756,-0.0021725378657978475,0.0010388455023969062,0.00013224090630390572,0.0002972414742854519,0.000565858867912187,0.00039477927399536464,0.00012758057748367467,0.2689092457294464,-21.87192153930664,-2.35798716545105,22.54065704345703,0.6407572031021118,2.2551772594451904,-0.05396880581974983,0,0,0,0.000,0,0
1739401569.0268059,0.5254782846604156,0.09610943945842759,-0.9531510048328339,-2.0694580243505665,0.13797653646681873,2.1375792171941566,-1.2754944644088348,-0.0008211459608516114,0.001605772835993337,-0.0002221027761311986,-0.0002542785574488499,0.000885617131058058,-0.0007128839275188195,0.0017536117918567121,0.2173345386981964,-21.84811782836914,-2.35798716545105,22.56842803955078,0.6544901132583618,2.2615859508514404,-0.05396880581974983,0,0,0,0.000,0,0
1739401569.0378633,0.5254765715354112,0.09610196575136866,-0.9531489837385648,-2.0694598073164996,0.13797458500420995,2.137576600015781,-1.2755049457597063,-3.407493616722896e-05,-0.0012334513586219089,0.00016570200426585267,0.0012841317138408803,-0.0019613268246917335,-0.0006273654109582104,-0.00025572368815882985,0.2411382496356964,-21.82431411743164,-2.38179087638855,22.59223175048828,0.6673074960708618,2.2817275524139404,-0.0008682189509272575,0,0,0,0.000,0,0
1739401569.0489097,0.5254758575394072,0.09610562240521624,-0.9531471423668397,-2.069457142386675,0.13797460076633222,2.1375785378642846,-1.2755054363236136,-0.0005688813688877604,-0.00015145277370914813,0.0014206972449129739,0.0006923711984943968,-0.001138085154379116,0.00032940891625232553,-0.0016070221661959264,0.2411382496356964,-21.82431411743164,-2.4095618724823,22.51685333251953,0.6673074960708618,2.2679946422576904,-0.0008682189509272575,0,0,0,0.000,0,0
1739401569.0598707,0.5254782840440405,0.0961045613385719,-0.9531513666161606,-2.0694610049040247,0.13797276454952423,2.1375793349317234,-1.2754986517885576,0.0002641500199768316,-0.0010898770330927344,-0.00011590260345496772,-9.912771943145789e-05,-0.0015658600984225853,0.000364393885669462,0.0015672848015486688,0.2173345386981964,-21.82431411743164,-2.38179087638855,22.56842803955078,0.6737161874771118,2.2615859508514404,-0.027418512850999832,0,0,0,0.000,0,0
1739401569.0708442,0.5254765685919617,0.09610488576631322,-0.9531530847734088,-2.069454162002352,0.13797370939125844,2.1375789812172195,-1.275505133333203,-0.00016159020855621844,0.0002519912640056399,-0.0003723640611587424,0.0009588371468302984,-0.0007591727914085169,0.00030489088181137917,-0.002143235128298235,0.2411382496356964,-21.82431411743164,-2.3302161693573,22.51685333251953,0.6737161874771118,2.2615859508514404,-0.0008682189509272575,0,0,0,0.000,0,0
1739401569.0818634,0.5254780453104876,0.09610488577895245,-0.9531492221571448,-2.0694581068296714,0.13797737453514217,2.137574625427597,-1.2755040349450149,0.0006665792936925004,0.00018112688403126804,0.0008014252784933528,-7.45613579772467e-05,-0.00024196178244364369,-0.0013247142280721712,-0.0001094808637310973,0.2173345386981964,-21.82431411743164,-2.38179087638855,22.56842803955078,0.6801248788833618,2.2615859508514404,-0.04756011441349983,0,0,0,0.000,0,0
1739401569.092865,0.5254773264558824,0.0961056551454372,-0.9531502023224137,-2.0694598161351694,0.13797458792113815,2.1375771454987347,-1.2755003091019808,-0.00060442811033238,0.0008169677859179465,-0.0012751937996181109,-0.0010014251294979178,0.0011224019090788429,1.1207879224474804e-05,0.0008809153220708281,0.2173345386981964,-21.84811782836914,-2.38179087638855,22.59223175048828,0.6407572031021118,2.2679946422576904,-0.04023589566349983,0,0,0,0.000,0,0
1739401569.1038244,0.5254813133631343,0.09610117516769852,-0.9531510313669882,-2.069461018759231,0.13797383186895976,2.137579334924309,-1.2755070621420357,0.0009668811209484899,-0.002873086692739103,-0.0003795258811327358,-0.0009422980335894744,-0.0003069957101435413,0.00156436315012652,-0.0017599613748305759,0.1697271168231964,-21.77273941040039,-2.35798716545105,22.56842803955078,0.6737161874771118,2.2615859508514404,0.012864691205322742,0,0,0,0.000,0,0
