IITGN-Robotics/Franka_IITGN_ROBOTICS/franka_ros/franka_iitgn/data/b_27.csv
time,fr3_joint1_pos,fr3_joint2_pos,fr3_joint3_pos,fr3_joint4_pos,fr3_joint5_pos,fr3_joint6_pos,fr3_joint7_pos,fr3_joint1_vel,fr3_joint2_vel,fr3_joint3_vel,fr3_joint4_vel,fr3_joint5_vel,fr3_joint6_vel,fr3_joint7_vel,fr3_joint1_eff,fr3_joint2_eff,fr3_joint3_eff,fr3_joint4_eff,fr3_joint5_eff,fr3_joint6_eff,fr3_joint7_eff,flexpin1,flexpin2,flexpin3,Force,ContactMic,ContactMic_gt
1739401601.4613388,0.5254655297025609,0.0959719610588066,-0.9531676823155161,-2.0690202832064437,0.1376906075575947,2.137583345618979,-1.2753534075752333,0.0005965978719258165,0.0018106457153739776,0.000691828688331129,-0.00032367845640766935,-0.00033467858901864715,0.0001838944212246007,-0.00031703400224164117,0.2927129566669464,-21.77273941040039,-2.3064124584198,22.56842803955078,0.6801248788833618,2.2679946422576904,-0.027418512850999832,,,,,,,,,
1739401601.4713397,0.5254632648733817,0.0959854565666383,-0.9531662116272059,-2.069024825525165,0.13769469812681748,2.137584103303973,-1.2753532315521283,-0.0007731579019334804,0.0007900795134268485,-1.5495220155689713e-05,-0.0002731807192330475,0.0006692057550177722,0.00041332804340143134,0.0006261314476646942,0.2927129566669464,-21.82431411743164,-2.3302161693573,22.59223175048828,0.6544901132583618,2.2615859508514404,-0.06678618490695953,,,,,,,,,
1739401601.481425,0.5254686886894705,0.09600066125867561,-0.9531599573676764,-2.069022070516652,0.13769464687576585,2.1375838345212936,-1.2753521668396266,0.00024812853655324825,0.0002903447653765148,0.00023537136734470325,-3.6357024999899765e-05,-0.0007495831963581924,0.00022931018524026717,-0.0008417131198356644,0.2173345386981964,-21.84811782836914,-2.4095618724823,22.59223175048828,0.6801248788833618,2.2679946422576904,-0.04023589566349983,,,,,,,,,
1739401601.4923637,0.5254686877083399,0.09600912157357541,-0.9531581742447558,-2.0690221726103135,0.13769504396640037,2.137587228503595,-1.2753542732628864,-0.00029486735486446136,0.0008989131945283774,-0.0010219906341281209,0.001574181971401302,0.0005118165555012052,-0.00041691754853818833,0.0004762975210032219,0.2173345386981964,-21.87192153930664,-2.4333655834198,22.59223175048828,0.6801248788833618,2.2753188610076904,-0.020094294100999832,,,,,,,,,
1739401601.5023882,0.5254713542304197,0.09601975742606891,-0.9531549005972467,-2.0690203217246785,0.13769591973870338,2.1375810097287107,-1.275354919035463,-0.00026767347231014223,0.00021294396678123812,-0.0005412997843579808,0.0005840435441648927,4.570153982328236e-05,-0.0023334873494113796,0.0004372200065217107,0.1935308277606964,-21.89969253540039,-2.4333655834198,22.56842803955078,0.6737161874771118,2.2881362438201904,-0.05396880581974983,,,,,,,,,
1739401601.512468,0.5254721127982539,0.09602573524180745,-0.9531531127936488,-2.06902694014641,0.1376934204218149,2.1375888709510815,-1.2753533310476144,0.0005762418482052332,-0.0011920849615507053,0.0010381567394226138,-0.0008651343810679708,-0.0008684821341652216,0.0011529653766999294,0.0009447793645159348,0.1697271168231964,-21.92349624633789,-2.4571692943573,22.61603546142578,0.6938577890396118,2.2615859508514404,-0.027418512850999832,,,,,,,,,
1739401601.5244403,0.525473173732449,0.09603409006752522,-0.9531570058867153,-2.0690317022484113,0.13769580161514638,2.13758467122189,-1.2753589064387534,0.0023826693367770034,0.0005662437968240526,-0.00017844167968778812,3.5981193168837405e-05,0.0003916765228253432,-0.0012702592196932841,-0.0024562916433907376,0.1697271168231964,-21.95126724243164,-2.4095618724823,22.63983917236328,0.6737161874771118,2.2881362438201904,-0.020094294100999832,,,,,,,,,
1739401601.5354342,0.5254686877103197,0.0960376809533616,-0.9531607854109957,-2.0690313653874672,0.13769436344724945,2.137585728435439,-1.2753545241969968,-0.0002081171002833117,0.0005378189129024613,-0.0013695828795205161,-0.00010863938054117266,-0.0010668010956037181,-0.0001326723914332772,-0.000702487944664076,0.2173345386981964,-21.92349624633789,-2.35798716545105,22.63983917236328,0.6938577890396118,2.2881362438201904,-0.027418512850999832,,,,,,,,,
1739401601.546405,0.5254704002290546,0.09603371031140362,-0.9531587708934739,-2.069033855794804,0.1376965988291156,2.1375888716755305,-1.2753553060465332,3.649029242244598e-05,-0.0007532273791199672,-0.000292576193019825,-0.0005306300972912158,-0.0002853595414261956,0.0006348830732541872,0.0004993214315010423,0.1935308277606964,-21.89969253540039,-2.38179087638855,22.66364288330078,0.6673074960708618,2.2615859508514404,-0.04756011441349983,,,,,,,,,
1739401601.5573509,0.5254686877083233,0.09603033958620452,-0.95315667911052,-2.0690267209830977,0.13769442288642864,2.1375881140154767,-1.2753534665322457,0.0004924428347910094,-0.0004606319870463797,0.00024011006760321939,0.0004946573797923672,0.0001253118363432926,-0.00020445158111634151,2.0128495535334264e-05,0.2173345386981964,-21.82431411743164,-2.4095618724823,22.56842803955078,0.6865335702896118,2.2679946422576904,-0.05396880581974983,,,,,,,,,
1739401601.567413,0.5254621162237899,0.09602653790331067,-0.9531587579373308,-2.069024617828559,0.1376950439800639,2.1375872481182445,-1.2753620626940296,-0.0015799674566371576,-0.001798431783345556,0.0003409703774800298,0.00044383947012426625,-0.0010185011761699042,-0.0004499779932886303,-0.0017870571915454847,0.2689092457294464,-21.79654312133789,-2.38179087638855,22.54065704345703,0.6801248788833618,2.2753188610076904,0.0064559997990727425,,,,,,,,,
1739401601.5784125,0.5254646328589635,0.09602353913709057,-0.9531626227366136,-2.069021678163315,0.13769581477403808,2.137590386995712,-1.2753538594774214,-0.0006723402270018157,-0.001183449796396674,-0.00028896343341489506,0.0010852605345412652,-0.0010291110791255476,0.00031848185690899647,0.00018948566884001983,0.2689092457294464,-21.74496841430664,-2.3302161693573,22.54065704345703,0.6737161874771118,2.2487685680389404,-0.05396880581974983,,,,,,,,,
1739401601.5894508,0.5254649507499536,0.09602690448568844,-0.9531655713474302,-2.069024617778519,0.1376938124195505,2.1375881140154767,-1.2753604391925726,-0.0007400076858152167,0.0008944876866451958,-0.0005891483170233728,-0.0008482664446582516,-0.0024423952191537012,-0.00028810327779869274,-0.0008356974956854451,0.2689092457294464,-21.79654312133789,-2.3302161693573,22.54065704345703,0.6865335702896118,2.2679946422576904,-0.0072769103571772575,,,,,,,,,
1739401601.6004071,0.5254642224180465,0.09602255271593585,-0.9531648468490072,-2.069023902034178,0.13769580016967695,2.1375889283640146,-1.2753516620164373,-0.0003631288529695553,6.03377303744298e-05,0.0005086172743184929,0.0005908155249494796,-0.00029125290635608294,0.0008275655909766213,0.0005561193182451517,0.2689092457294464,-21.74496841430664,-2.3302161693573,22.54065704345703,0.6737161874771118,2.2615859508514404,-0.08051909506320953,,,,,,,,,
1739401601.6123807,0.5254603767717793,0.09602470932779668,-0.9531635769931088,-2.0690216656478717,0.13770081109126767,2.137588871675875,-1.275358884643727,-0.001680097623902757,0.00039467498456674386,-5.195258214554889e-05,0.0014516691734233155,0.0009126517960583635,-0.0004100961587378222,-0.0005545478379592843,0.2927129566669464,-21.77273941040039,-2.35798716545105,22.54065704345703,0.6673074960708618,2.2615859508514404,-0.020094294100999832,,,,,,,,,
1739401601.6224093,0.5254618512616162,0.09602446766721577,-0.9531610386898748,-2.069019994913969,0.13769727754022199,2.1375881140154767,-1.2753565483253357,-0.001967026120691065,-0.0009231643236363592,-0.00031773761500401604,-4.2838790648752265e-05,-0.002777916056739854,-0.0007687834569355891,-0.0012442170704040148,0.2689092457294464,-21.77273941040039,-2.38179087638855,22.49304962158203,0.6608988046646118,2.2679946422576904,-0.04023589566349983,,,,,,,,,
1739401601.6333797,0.5254621162061436,0.096030210292362,-0.9531627645126631,-2.0690235724885246,0.13769655934706287,2.1375899487562875,-1.2753619696374532,-0.00124758767750216,0.0023219693159298796,-0.0009130989651335543,-0.0010697175049196514,-0.00011977202822722693,0.00012258056358151672,-0.0013107265666830311,0.2689092457294464,-21.84811782836914,-2.35798716545105,22.54065704345703,0.6673074960708618,2.2615859508514404,-0.0072769103571772575,,,,,,,,,
1739401601.6434555,0.525467122965499,0.09603162476520825,-0.9531538422952739,-2.0690262781004,0.13769687770553632,2.137590440132825,-1.275356776477038,-9.56321672347753e-05,0.0007756517716481681,0.001896386889926078,-0.0016234063403783342,-0.0005064239488439918,-0.0009063045835995431,0.0016017713100140156,0.2689092457294464,-21.87192153930664,-2.4571692943573,22.59223175048828,0.6737161874771118,2.2753188610076904,-0.07411040365695953,,,,,,,,,
1739401601.6544104,0.525466971275119,0.09603626756551677,-0.9531590027744861,-2.06903029039449,0.1376985432153034,2.13759144993131,-1.2753549162323774,-0.000654333300297527,0.0008369058782529492,-0.00013674895542215487,-0.0018500510515416374,0.0004884739539905605,0.0019032672917103858,0.0008919216409417712,0.2411382496356964,-21.92349624633789,-2.38179087638855,22.61603546142578,0.6608988046646118,2.2679946422576904,-0.05396880581974983,,,,,,,,,
1739401601.6644354,0.5254649743032336,0.09603385491237021,-0.9531574076157964,-2.069028507315526,0.13769504982626246,2.1375916636416714,-1.2753596859110412,-0.0014085344799895736,-2.25209981870274e-05,-0.0002564195326797951,0.000894293434187565,-0.0008103149941496794,-0.000635687674738547,-0.0019172805682281268,0.2689092457294464,-21.89969253540039,-2.4095618724823,22.59223175048828,0.6801248788833618,2.2679946422576904,-0.013685601763427258,,,,,,,,,
1739401601.6744494,0.5254664271469308,0.09603767059005076,-0.9531569219565277,-2.0690302904447533,0.13769797655937904,2.1375920506500563,-1.2753568413715364,-0.00020474333518171844,0.000832645041544041,0.001316351782901813,-0.000279154741731914,3.137796485980541e-05,-7.049015269568594e-05,0.001802356224851735,0.2173345386981964,-21.95126724243164,-2.4095618724823,22.61603546142578,0.6673074960708618,2.2615859508514404,-0.027418512850999832,,,,,,,,,
1739401601.6863732,0.525467972439825,0.09603851271911269,-0.9531607844124359,-2.0690264781567618,0.13769731696136078,2.1375876013488995,-1.2753549191086833,-0.00015714368664987704,8.862305536438801e-05,-1.9195838465450995e-05,0.0010238350928320175,1.023475340474454e-06,-0.0012740069135463003,0.0025863814945881053,0.2173345386981964,-21.92349624633789,-2.35798716545105,22.56842803955078,0.6608988046646118,2.2753188610076904,-0.05396880581974983,,,,,,,,,
1739401601.696397,0.5254686866141228,0.096038750616718,-0.9531587589016788,-2.069026725089329,0.13769580163320363,2.1375888731310995,-1.2753573003329401,0.0001655352747881037,3.24131990405885e-05,0.00037978080212279145,0.0005862935356245357,-0.0018098803359962918,-0.00026481413375180015,-0.0006088233722506783,0.2173345386981964,-21.92349624633789,-2.38179087638855,22.56842803955078,0.6737161874771118,2.2615859508514404,-0.03382720425724983,,,,,,,,,
1739401601.7083359,0.5254669485876163,0.09603617799251274,-0.9531587593444484,-2.0690305740620945,0.13769743505886012,2.1375882375672557,-1.2753594650296567,0.0007671995462020799,-0.0007333649348054256,0.0013130849876008578,-0.00145557030655548,-0.0007155629760397421,1.5158741473057533e-05,-0.0013724508529442102,0.2411382496356964,-21.84811782836914,-2.38179087638855,22.59223175048828,0.6608988046646118,2.2679946422576904,-0.027418512850999832,,,,,,,,,
1739401601.718474,0.5254676516175577,0.09603628280351938,-0.9531634556932205,-2.0690262579016583,0.13769813603207331,2.137588911083615,-1.275357300340883,-0.000370058668734683,0.00014273551089392055,-0.0012044445041392371,0.0005193593423390588,0.0004893503415545316,0.0002043801403917721,-0.0005836533125904843,0.2173345386981964,-21.84811782836914,-2.35798716545105,22.59223175048828,0.6673074960708618,2.2615859508514404,-0.03382720425724983,,,,,,,,,
1739401601.7294028,0.5254667363270992,0.09603161560081959,-0.9531627387847329,-2.0690246389652236,0.1376976887758716,2.1375886387473377,-1.2753636181249057,-0.00015540441085312753,-0.0011344889310252635,-0.0012984264903536428,0.001342966826437772,0.0008794511994742417,0.0007025465560373924,-0.0013850511974059063,0.2411382496356964,-21.82431411743164,-2.3302161693573,22.54065704345703,0.6608988046646118,2.2679946422576904,-0.0072769103571772575,,,,,,,,,
1739401601.7404063,0.5254662642753273,0.09602767178786989,-0.9531612262116665,-2.069026725090687,0.13769597757998925,2.1375925261191764,-1.2753606541758196,0.0002524770951657016,-0.000444700189906762,-4.972609658235376e-05,-0.0004089106679947798,-0.0003126664359707913,-7.649283612978403e-05,-0.0015864166772690648,0.2173345386981964,-21.77273941040039,-2.38179087638855,22.56842803955078,0.6737161874771118,2.2615859508514404,-0.03382720425724983,,,,,,,,,
1739401601.751409,0.5254637568683119,0.09602947524502108,-0.9531587602836687,-2.0690207489249866,0.13770081109226914,2.1375931291986903,-1.2753612150319888,-0.0025506992919772428,9.825720417477526e-05,-0.00019963366640899586,0.0007557645059398895,0.0002677264985050629,-0.0004558031183352879,-4.718331176444901e-06,0.2411382496356964,-21.79654312133789,-2.38179087638855,22.49304962158203,0.6673074960708618,2.2615859508514404,-0.0008682189509272575,,,,,,,,,
1739401601.7623336,0.5254669710994838,0.0960277594770269,-0.9531610523300633,-2.069020518336143,0.13769980812565433,2.1375929847996575,-1.2753596758978463,0.0003855595371693751,0.0007503535201552322,-0.0004369461227378143,8.039858402756472e-05,0.0008448592946431392,0.0011053767343656997,-0.0007583727281546757,0.2411382496356964,-21.77273941040039,-2.38179087638855,22.51685333251953,0.6801248788833618,2.2551772594451904,-0.013685601763427258,,,,,,,,,
1739401601.7733715,0.5254639439905237,0.0960309751218256,-0.953159500849714,-2.069020736588877,0.13769813422218377,2.1375928804410154,-1.2753548948896818,-0.000967020001738154,0.0007582272790264014,-0.0001387827131969343,0.0004057837184740234,-0.0006065976521300952,0.0011110179867443453,0.00031575831089084326,0.2689092457294464,-21.82431411743164,-2.38179087638855,22.49304962158203,0.6673074960708618,2.2679946422576904,-0.05396880581974983,,,,,,,,,
1739401601.7834375,0.5254646328468487,0.096031511160893,-0.9531588959385541,-2.069021675142781,0.13769870527029163,2.1375943410187226,-1.2753633357753473,-0.0018386224695705429,0.0009138785267070623,0.0005832207737981304,-0.0008609189512015334,-0.0007630054507418424,0.0003567720446790931,-0.00243831149019531,0.2689092457294464,-21.79654312133789,-2.4095618724823,22.54065704345703,0.6801248788833618,2.2551772594451904,-0.013685601763427258,,,,,,,,,
1739401601.7944074,0.5254741106886945,0.09603161610003884,-0.9531598506468213,-2.06902785843393,0.13770081111194404,2.1375872662873023,-1.2753570940615826,0.0029871699075398384,-0.00014519524848562924,0.0005111231043916995,-0.0014980130549821255,-0.0004072837517360898,-0.0016557503049816728,-0.001567263893457923,0.1419561207294464,-21.82431411743164,-2.38179087638855,22.59223175048828,0.6673074960708618,2.2753188610076904,-0.04756011441349983,,,,,,,,,
1739401601.8044174,0.5254600495092024,0.09603185231363547,-0.9531619247512326,-2.0690263587850644,0.13769975323610129,2.13759463200876,-1.2753589201996245,-0.002853813396992573,-0.0005226088756529614,-0.0005349294069202561,0.0006597482578477153,-0.00028982964031715734,0.00045173499804373367,0.00044655689246456565,0.2927129566669464,-21.82431411743164,-2.38179087638855,22.56842803955078,0.6673074960708618,2.2487685680389404,-0.020094294100999832,,,,,,,,,
1739401601.8144205,0.5254665418866614,0.0960377541133281,-0.9531591169394287,-2.069027802383284,0.13769799138040914,2.1375919983923377,-1.2753586987065284,-0.00023704689399585465,6.659353239221079e-05,0.00040329468844375,0.0005245025016177001,-0.0010415336607166965,-5.1204899413671205e-05,0.0022470136668151634,0.2173345386981964,-21.87192153930664,-2.4095618724823,22.56842803955078,0.6865335702896118,2.2753188610076904,-0.04756011441349983,,,,,,,,,
1739401601.8253777,0.5254679719317301,0.09604288333761671,-0.9531594905612777,-2.0690320740726693,0.13770249751521177,2.1375942797542025,-1.2753603369734896,-0.00012273958035861725,0.0017174532400143678,-0.00016698491643411876,-0.0007737519436104593,0.0013653356867220612,0.0026415787823702054,-0.000993688274095847,0.2173345386981964,-21.95126724243164,-2.38179087638855,22.63983917236328,0.6544901132583618,2.2551772594451904,-0.020094294100999832,,,,,,,,,
1739401601.8354743,0.5254660205200075,0.09603764599451198,-0.9531628440133075,-2.0690291965325422,0.13769899120464246,2.137592103158013,-1.2753534038197656,-1.5522800091373056e-05,-0.0010970062808448992,-0.00021197672727971486,-8.553897802434241e-05,0.00020083757409852592,-7.021738600989085e-05,0.0026481433107978705,0.2411382496356964,-21.87192153930664,-2.35798716545105,22.59223175048828,0.6737161874771118,2.2615859508514404,-0.06678618490695953,,,,,,,,,
1739401601.846397,0.5254668681282273,0.09603991860095411,-0.9531636984659299,-2.0690320844633603,0.1377027391236444,2.1375924897583105,-1.2753590983162806,-0.0003439549528159941,0.0007329124124521285,-0.0013206685390241707,5.565263846533301e-05,0.0016664659625236907,-0.00019662771293021145,-0.001866708157353198,0.2411382496356964,-21.89969253540039,-2.35798716545105,22.63983917236328,0.6544901132583618,2.2679946422576904,-0.020094294100999832,,,,,,,,,
1739401601.857388,0.5254677297454292,0.09603999763172866,-0.9531598513183385,-2.0690267247516254,0.13769656531399388,2.1375889894378264,-1.2753565428891873,0.00019936106571756583,0.00016956651159358418,-0.0007921269774870052,0.0016324613708164305,-0.0010800399585426123,-0.0012093025938502652,0.0005499459508617871,0.2173345386981964,-21.89969253540039,-2.38179087638855,22.56842803955078,0.6673074960708618,2.2615859508514404,-0.04023589566349983,,,,,,,,,
1739401601.8684044,0.5254649654675744,0.09603489106957852,-0.953162634808595,-2.069028813920415,0.13770161249416596,2.137594339000601,-1.2753609165671866,-0.00035495353392377485,0.00013769166726774768,-0.000503266290549233,-0.0007632776778985387,0.0004255726815287877,0.0012258394570549011,-0.0019976374118125,0.2689092457294464,-21.82431411743164,-2.3302161693573,22.59223175048828,0.6608988046646118,2.2551772594451904,-0.0072769103571772575,,,,,,,,,
1739401601.8793995,0.5254637683649728,0.0960378944651548,-0.9531594993933873,-2.069023912059174,0.1376961069468722,2.1375888891985793,-1.2753603498257369,-0.0007733744842056474,0.0006454942625007596,-0.0001656975973976332,0.0016519800042443836,-0.0008491096215719906,-0.00029298061185298676,-0.0003165792884073361,0.2411382496356964,-21.87192153930664,-2.38179087638855,22.54065704345703,0.6801248788833618,2.2615859508514404,-0.020094294100999832,,,,,,,,,
1739401601.8894064,0.5254676501465892,0.09603454833752502,-0.9531587589379289,-2.069024673607845,0.1376973189514884,2.137593637867702,-1.2753556768480745,-0.00012603477646896044,-0.0012554095246360038,-0.0006395306284432546,-0.0014844449803765511,-0.0007689563523624661,0.00010054540332917326,0.0007112679061223994,0.2173345386981964,-21.82431411743164,-2.38179087638855,22.54065704345703,0.6608988046646118,2.2615859508514404,-0.04756011441349983,,,,,,,,,
1739401601.8994234,0.52546630249919,0.09603075892408704,-0.9531610537735119,-2.069026725090883,0.13769860022882707,2.137590154794035,-1.2753597230408005,0.0011389280139141175,-0.0007082462621077918,1.757291016798914e-05,-0.00029341139542210027,-0.0007175427978806902,-0.0005288091908075874,-0.000543864659303623,0.2173345386981964,-21.77273941040039,-2.38179087638855,22.56842803955078,0.6544901132583618,2.2551772594451904,-0.04023589566349983,,,,,,,,,
1739401601.9104495,0.5254669359282708,0.096028731878174,-0.9531571628946092,-2.069020637383777,0.13769774229537085,2.137593220092224,-1.275361315110636,0.000337637076899259,-6.771155154180705e-05,0.00116492532793676,0.0008928722471870732,-0.0017800838239179198,0.0007910614933987574,-0.0016935280672071768,0.2411382496356964,-21.77273941040039,-2.4333655834198,22.51685333251953,0.6673074960708618,2.2551772594451904,-0.0008682189509272575,,,,,,,,,
1739401601.921354,0.5254686081262256,0.0960279430901197,-0.9531587980344649,-2.069028450811004,0.1376952014538031,2.1375935048603165,-1.2753611344387565,0.0013225455508624664,-0.0003488728345654909,-0.00012404139832884357,-0.001240817702709152,-0.0012433827835409718,-0.0008862570269501179,0.000336704201622822,0.2173345386981964,-21.77273941040039,-2.38179087638855,22.59223175048828,0.6801248788833618,2.2615859508514404,-0.04023589566349983,,,,,,,,,
1739401601.9314063,0.5254683429975348,0.09603449567942546,-0.9531587599002864,-2.069024644282418,0.13769683686348128,2.13759044392414,-1.2753594341641492,0.0009018554023359753,0.0012607298792271606,0.0010036696340372294,0.0016518684983882208,-0.0016858448154205583,-0.0012335719529757562,-0.0009068007116904771,0.2173345386981964,-21.82431411743164,-2.38179087638855,22.54065704345703,0.6673074960708618,2.2487685680389404,-0.020094294100999832,,,,,,,,,
1739401601.9423993,0.5254659420021313,0.09603154680259955,-0.9531587628975768,-2.069024645300862,0.13769976780059257,2.1375928278463534,-1.2753637365113786,0.0006702653049035851,-0.0007179893422174838,-0.00028063616602795,0.0013951781870987362,0.0003583584057598963,0.0009138901619395428,-0.0013795053216491364,0.2411382496356964,-21.79654312133789,-2.38179087638855,22.54065704345703,0.6673074960708618,2.2551772594451904,-0.0072769103571772575,,,,,,,,,
1739401601.9524274,0.5254649733046562,0.09603619513281961,-0.9531587590114108,-2.069022858553908,0.1376981978295186,2.1375919631828624,-1.275358111652248,-0.0002018592648379302,0.0012920888918077226,5.4633466646864674e-05,-0.000582757684339188,-0.0009230544906364106,0.0006411559171467156,0.0005681016992887392,0.2689092457294464,-21.84811782836914,-2.38179087638855,22.51685333251953,0.6938577890396118,2.2487685680389404,-0.05396880581974983,,,,,,,,,
1739401601.9644918,0.525469327472612,0.09603383769716219,-0.9531616151695395,-2.0690285077677193,0.13770058053163597,2.1375897034546507,-1.2753607433599983,-0.0006582406921292199,9.521103594053575e-05,-0.0002850311449747741,-0.0011937354522067096,0.0004938621921642621,0.0001498501338720796,-0.0006388614386854817,0.1935308277606964,-21.84811782836914,-2.35798716545105,22.59223175048828,0.6737161874771118,2.2679946422576904,-0.013685601763427258,,,,,,,,,
1739401601.9753792,0.525466188568915,0.096036287009607,-0.9531597130475609,-2.069026725090723,0.13769900343309516,2.1375925784649588,-1.2753611975724515,0.00032175337662305857,0.0004419944818012675,-0.0001621583169542567,0.0006298607224464015,-0.0005971158943205627,0.0009256739628774591,-0.0004883726260020757,0.2173345386981964,-21.84811782836914,-2.4095618724823,22.56842803955078,0.6865335702896118,2.2615859508514404,-0.0008682189509272575,,,,,,,,,
1739401601.9864066,0.5254640715514668,0.09603560911665211,-0.9531597313969907,-2.0690285077677424,0.13770134256490485,2.137589293553523,-1.2753567422279717,-0.00040690508410602883,-0.0009757789573219763,0.00017773501297502963,0.0002062781443695504,-0.0008186459802424165,-0.0008226349001579244,0.0009843680007229304,0.2411382496356964,-21.84811782836914,-2.38179087638855,22.59223175048828,0.6673074960708618,2.2679946422576904,-0.04756011441349983,,,,,,,,,
1739401601.99642,0.5254655086321891,0.09603799968749409,-0.9531617669573733,-2.0690332750921585,0.1376998272458685,2.137590158596087,-1.2753550368591353,0.0008376162486887322,-0.0008971179214656006,-0.0005398391853771049,-0.00040450133226589387,-0.0007335627268581034,-0.0011098637821989421,0.0013684494293717561,0.2173345386981964,-21.87192153930664,-2.38179087638855,22.61603546142578,0.6801248788833618,2.2551772594451904,-0.05396880581974983,,,,,,,,,
1739401602.0083306,0.525466940466134,0.09604163123194111,-0.9531609757328252,-2.0690303286738305,0.1377005717831135,2.1375881728603314,-1.275360349823707,0.0006675984484582336,0.0002927340055259366,-0.0003364524887424884,0.0002842735592033331,0.0003244856171348208,-0.001158843660642884,-0.0011963573122043196,0.2411382496356964,-21.92349624633789,-2.38179087638855,22.61603546142578,0.6737161874771118,2.2679946422576904,-0.020094294100999832,,,,,,,,,
1739401602.0184467,0.5254659302301242,0.09603799969087622,-0.9531587858943484,-2.0690280652049053,0.1376949755256599,2.137588626365353,-1.2753615162992995,0.0003660135105422734,-0.0009644987809066588,5.348587543464728e-05,0.001072127859438045,-0.001394068191837888,-0.000494175734904421,-0.0015764548735294546,0.2411382496356964,-21.87192153930664,-2.38179087638855,22.61603546142578,0.6938577890396118,2.2679946422576904,-0.0072769103571772575,,,,,,,,,
1739401602.0294123,0.5254654720132151,0.0960371148244559,-0.9531627310783845,-2.0690292995039994,0.13770089787641787,2.1375891801705564,-1.275362427280042,0.0003184877705213047,0.0009077503133414629,-0.0010290350828671437,-0.0015088737043911756,0.0004932624124275535,-0.0010593480794094765,-0.001396622405018347,0.2173345386981964,-21.84811782836914,-2.35798716545105,22.59223175048828,0.6801248788833618,2.2679946422576904,-0.0008682189509272575,,,,,,,,,
1739401602.0404177,0.5254664261476816,0.09603315783301031,-0.9531605775650555,-2.0690302904492306,0.13770023498339587,2.1375919639257774,-1.2753604435781143,5.511758742962158e-06,-0.001254797154318251,-0.0009513675321594321,-0.0006613423215633726,-0.0007947488556690066,-0.0008461820966901996,-4.044328824957615e-05,0.2173345386981964,-21.82431411743164,-2.35798716545105,22.61603546142578,0.6737161874771118,2.2753188610076904,-0.0072769103571772575,,,,,,,,,
1739401602.0513816,0.5254638370069887,0.09603652467866147,-0.9531634321460064,-2.069026727925146,0.13769982578184992,2.137593640046247,-1.2753615516610466,-0.0009230061952076911,-2.5173376014165386e-05,-0.0018490966938234793,-0.0004688121274851072,-0.00041212588410142987,0.000192321369873221,-0.0007019383509201432,0.2411382496356964,-21.84811782836914,-2.3302161693573,22.56842803955078,0.6801248788833618,2.2615859508514404,-0.0072769103571772575,,,,,,,,,
1739401602.0614197,0.5254619983231498,0.09603086418961583,-0.9531551513745729,-2.0690266976186393,0.13769864557932285,2.1375901194243245,-1.2753580594528486,-0.001053865732175286,-0.0012597310764104028,0.00021072788816493208,-0.000566573484728724,-9.343973442775284e-05,0.0005791155401251157,-8.07284213803075e-05,0.2689092457294464,-21.77273941040039,-2.4333655834198,22.56842803955078,0.6544901132583618,2.2551772594451904,-0.027418512850999832,,,,,,,,,
1739401602.0723443,0.5254664620880479,0.09603457461377295,-0.9531587589017472,-2.0690267250905676,0.13769739597966932,2.1375943976830643,-1.2753557749550086,0.0011423183673712274,0.0015005122388417262,0.000364271582009405,-0.0015412427673359974,-0.0016704224746288926,0.0001684998890642504,0.0025506592810863172,0.2173345386981964,-21.82431411743164,-2.38179087638855,22.56842803955078,0.6737161874771118,2.2551772594451904,-0.07411040365695953,,,,,,,,,
1739401602.0824306,0.5254647370459097,0.09603078526730964,-0.9531644040442017,-2.0690244998506513,0.1377005907024818,2.137592882387058,-1.2753611974099326,0.0006880282467298521,0.00021348243502946154,-0.0014380207221674783,-0.0020742266249141957,0.00010096464796552317,0.00013743862510077456,-0.0012568273819198047,0.2411382496356964,-21.77273941040039,-2.3064124584198,22.56842803955078,0.6737161874771118,2.2679946422576904,-0.0008682189509272575,,,,,,,,,
1739401602.0933707,0.5254654809458137,0.0960301509761473,-0.9531609744944587,-2.069027791518297,0.1377013820031977,2.137594397707215,-1.2753564542799547,-0.00011536693008497778,-0.0002406471991854945,-0.0007380833452159963,-0.0008727282307478218,-0.0007391530811314221,0.00030213250299995195,0.0002491020009227217,0.2173345386981964,-21.77273941040039,-2.38179087638855,22.59223175048828,0.6673074960708618,2.2551772594451904,-0.05396880581974983,,,,,,,,,
1739401602.1034029,0.5254641010283838,0.09603257658866876,-0.9531605429472694,-2.069024661641178,0.13770134256669303,2.1375939267569355,-1.2753663144282963,0.0003471084949401626,-0.0001328525704841903,0.0011052373486513574,9.42828546531879e-05,-0.0007106401918552203,-0.0010540020764481354,-0.0032336563766210175,0.2411382496356964,-21.79654312133789,-2.35798716545105,22.54065704345703,0.6673074960708618,2.2551772594451904,0.0064559997990727425,,,,,,,,,
1739401602.1144123,0.5254659013792925,0.09603433785087774,-0.9531588698243688,-2.069025980291669,0.13770210022610352,2.1375925804063494,-1.275357697967222,-0.0001184522901110323,0.0012593298483706006,0.0003863346723285447,0.00018450203465765111,4.2001793867905244e-05,-0.000266130848143905,0.00016275646601383018,0.2411382496356964,-21.82431411743164,-2.38179087638855,22.56842803955078,0.6608988046646118,2.2615859508514404,-0.06037749722599983,,,,,,,,,
1739401602.125389,0.525461839062035,0.0960359962956119,-0.9531569582532904,-2.0690267255414256,0.1377013367336548,2.1375936400411555,-1.27536291426615,-0.0011121236119025731,0.00014616373329524038,0.002061172635943016,0.0007072089659475058,-0.0009048912658954738,-7.199203247953685e-05,-0.00010878160640414442,0.2689092457294464,-21.82431411743164,-2.4095618724823,22.56842803955078,0.6673074960708618,2.2615859508514404,-0.013685601763427258,,,,,,,,,
1739401602.1363835,0.5254617595775218,0.0960362599334651,-0.953159714034095,-2.069030290444764,0.1377021002260706,2.1375927646494883,-1.2753602687744463,-0.002103560139326421,-0.0005808701914865052,-0.00012107394721204716,-0.0007622607440020837,-0.000873288137013357,-5.1082996343686343e-05,4.7361455393503854e-05,0.2689092457294464,-21.84811782836914,-2.4095618724823,22.61603546142578,0.6608988046646118,2.2679946422576904,-0.04756011441349983,,,,,,,,,
1739401602.147355,0.5254637831367492,0.09603636616710737,-0.953156307068661,-2.0690313108370337,0.13770204024587657,2.1375914695355545,-1.2753587196699245,-0.00022531311222822502,7.036377603215872e-05,0.0013522039748215325,-0.001321943020584854,0.0020674783086665634,-0.0014481588594243092,-0.00032592822451229055,0.2411382496356964,-21.84811782836914,-2.4571692943573,22.61603546142578,0.6737161874771118,2.2679946422576904,-0.03382720425724983,,,,,,,,,
1739401602.1583266,0.5254637607885587,0.09603799969176766,-0.9531590840290727,-2.069030315960328,0.13770058469814855,2.1375943976992398,-1.275354207169565,-0.0008251335070677609,-0.0007498996164650379,0.0009029582846501561,-0.00028741285493918105,4.225598368028436e-05,0.0006516361765897456,0.0031598285301803787,0.2411382496356964,-21.87192153930664,-2.38179087638855,22.61603546142578,0.6737161874771118,2.2551772594451904,-0.06037749722599983,,,,,,,,,
1739401602.1684368,0.5254657869490161,0.09603628858124086,-0.9531570402020654,-2.0690305768969495,0.1377021021762799,2.137593995007094,-1.275364132682467,-0.0003023304129314789,-0.0013254668837623588,0.00012366609314257284,0.00038458098729282365,-0.0002667911075839081,0.00030332928974854864,-0.001823286260207458,0.2173345386981964,-21.84811782836914,-2.4095618724823,22.59223175048828,0.6608988046646118,2.2679946422576904,-0.0072769103571772575,,,,,,,,,
1739401602.178455,0.5254654690628889,0.09603999774071025,-0.9531566988747567,-2.069030290479802,0.13770165116684752,2.1375928824059005,-1.275356469308685,-0.0009100891493017848,5.806312577788514e-05,0.0016591182190960263,0.0003802008061052397,-0.00013380684163087842,-0.00049616781880814,-0.001076497109691516,0.2173345386981964,-21.89969253540039,-2.4095618724823,22.61603546142578,0.6737161874771118,2.2679946422576904,-0.05396880581974983,,,,,,,,,
1739401602.1893437,0.5254657075124233,0.0960400390859103,-0.9531595003927388,-2.069028507730058,0.13770135573575865,2.1375928823870587,-1.275361550791914,-0.00035125475416326825,0.0002340817925121949,-0.0003996442641027514,0.0007505689205319752,-0.00031656940295221505,4.312745335416463e-05,-0.0010866046453833797,0.2173345386981964,-21.87192153930664,-2.38179087638855,22.59223175048828,0.6673074960708618,2.2679946422576904,-0.0008682189509272575,,,,,,,,,
1739401602.1994035,0.52546621375975,0.0960379997949337,-0.9531630628887475,-2.0690285077677406,0.13770054748829588,2.1375943977072156,-1.275363633411029,-9.912518836665543e-05,0.00048823844241878276,-0.0012724370174644227,0.0006925491516951935,-0.00040965953102566435,0.00014537376746167209,-0.00041593036517051753,0.2173345386981964,-21.87192153930664,-2.35798716545105,22.59223175048828,0.6737161874771118,2.2551772594451904,-0.020094294100999832,,,,,,,,,
1739401602.2104752,0.5254676179149128,0.09603628717059073,-0.9531617550141871,-2.069024576380072,0.13770134305349974,2.1375939950070943,-1.275359335756294,0.00044206974862771896,-0.0008468950078149549,-0.00019381946567233112,-0.0010724859287665205,0.00025720445248745454,0.000660698315808159,-0.0005289744560516962,0.2173345386981964,-21.84811782836914,-2.38179087638855,22.56842803955078,0.6673074960708618,2.2679946422576904,-0.020094294100999832,,,,,,,,,
1739401602.2213902,0.5254655603525912,0.09603457464985936,-0.9531634675208998,-2.0690267250409087,0.13770285772417432,2.137594397713496,-1.2753598173789593,1.9717795853599834e-06,0.0007298254559484882,-0.0011570669163760384,-0.0006934430621594614,-0.000463830120244932,0.00017585697026006197,0.0006826893002017579,0.2173345386981964,-21.82431411743164,-2.35798716545105,22.56842803955078,0.6544901132583618,2.2551772594451904,-0.013685601763427258,,,,,,,,,
1739401602.2323563,0.5254686479724088,0.09602678331673302,-0.9531587860093865,-2.069024645300867,0.13770378368854885,2.1375966388606744,-1.2753618919540026,-9.190290320273064e-05,-0.0013211351692660313,0.001583936426504854,0.0007499141326972033,0.0005840456021893304,0.001188224022310703,-0.0020979818269032716,0.2173345386981964,-21.74496841430664,-2.38179087638855,22.54065704345703,0.6737161874771118,2.2487685680389404,-0.0072769103571772575,,,,,,,,,
1739401602.2424064,0.5254627389240423,0.09602886621214743,-0.9531605545688915,-2.06902365630528,0.13770146109362658,2.137595155392417,-1.275355095019733,-0.00015586182801952662,-0.0011334837024686653,0.0007472508966141083,-4.72071547141232e-05,-0.0007888040264864768,0.0003646102092217218,0.0011183403747102427,0.2689092457294464,-21.74496841430664,-2.35798716545105,22.54065704345703,0.6673074960708618,2.2487685680389404,-0.05396880581974983,,,,,,,,,
1739401602.2524204,0.5254654690741073,0.0960325504020174,-0.9531619561558938,-2.0690254185018837,0.1377013367356621,2.137593639885632,-1.2753596349200447,0.0005782118944281814,-0.00013115410419821361,0.000695570362525889,-0.0005709337156285293,0.0006061833545702546,-0.0003493554374531584,-0.001060579721522097,0.2173345386981964,-21.79654312133789,-2.38179087638855,22.56842803955078,0.6673074960708618,2.2615859508514404,-0.05396880581974983,,,,,,,,,
1739401602.2624521,0.525461797841778,0.09603244378336312,-0.9531637385537335,-2.0690267295019242,0.13769982724576973,2.1375936812552836,-1.2753614072141535,-0.000878991646613273,0.0003952156003538999,0.00020024833019741892,0.0005617989263688584,-0.001110425982640194,0.00020267403636724935,0.0016022990981017886,0.2689092457294464,-21.82431411743164,-2.35798716545105,22.56842803955078,0.6801248788833618,2.2615859508514404,-0.027418512850999832,,,,,,,,,
1739401602.273378,0.5254637565369957,0.09603053972339083,-0.9531630630171696,-2.069026725090748,0.1377013406219017,2.1375936356867187,-1.2753623554063096,-0.0015175454419805692,-0.0016933355978322507,0.00027900572417998673,-4.185546983276168e-05,0.0004290142153720444,0.0005684400611922096,-0.000255103088683813,0.2411382496356964,-21.77273941040039,-2.35798716545105,22.56842803955078,0.6673074960708618,2.2615859508514404,-0.027418512850999832,,,,,,,,,
1739401602.2833934,0.5254654779968394,0.09603555046116463,-0.9531616343163313,-2.069024636143501,0.13770732771369243,2.1375928823869845,-1.2753588704014884,0.0005804106902262683,-0.00043127960109768586,-2.6303153457636825e-05,0.0012588137136666712,0.0018854427302393553,-1.8517793778069302e-05,0.0006137095161359183,0.2173345386981964,-21.84811782836914,-2.35798716545105,22.54065704345703,0.6480814218521118,2.2679946422576904,-0.03382720425724983,,,,,,,,,
1739401602.2934217,0.5254621029784646,0.09603799967884549,-0.9531570419916264,-2.0690313313749344,0.13769982730873437,2.137594892205009,-1.2753644498678578,-0.0009912884933777006,-0.00014933656021385474,0.00021655048417014335,-0.0006858659710481618,-0.0006767593939706359,0.0018121392815909315,-0.0008792294662764257,0.2689092457294464,-21.87192153930664,-2.4095618724823,22.63983917236328,0.6801248788833618,2.2551772594451904,-0.013685601763427258,,,,,,,,,
1739401602.3043258,0.5254657079504323,0.09604071001058911,-0.9531611887202041,-2.069026949682563,0.1377013425660255,2.137591258832539,-1.2753546717323616,0.0005588844433978757,0.000780051041465072,0.0001636422653960435,0.00044466124301825185,-0.00016385748550187048,-0.00069173198166077,0.0012482100294076575,0.2173345386981964,-21.89969253540039,-2.38179087638855,22.54065704345703,0.6673074960708618,2.2817275524139404,-0.06037749722599983,,,,,,,,,
1739401602.3143995,0.5254637683145769,0.09603799970338592,-0.9531552482337422,-2.0690302975173545,0.13770074725842463,2.1375943977072156,-1.2753555807751769,-0.0004810570209660965,0.0008913996327502469,0.0015530275520287472,0.00033625696507457185,0.0004431953267315152,-0.00017938353077429303,0.0010227545221885652,0.2411382496356964,-21.87192153930664,-2.4333655834198,22.61603546142578,0.6737161874771118,2.2551772594451904,-0.06037749722599983,,,,,,,,,
1739401602.326391,0.5254678532433629,0.09603999763217486,-0.953160784413051,-2.0690302904448012,0.1377045935183714,2.1375928823870587,-1.2753548711359026,0.0005831926958174238,-0.0006073780465919128,-0.0012319629330244802,-0.0002833436949390628,0.0012341319523228394,-0.0013115473867574222,0.0016360932006357126,0.2173345386981964,-21.89969253540039,-2.35798716545105,22.61603546142578,0.6673074960708618,2.2679946422576904,-0.06678618490695953,,,,,,,,,
1739401602.336413,0.5254637840586713,0.09603823798271519,-0.9531567870379289,-2.069026725090723,0.13770636582964246,2.137595155367294,-1.2753647151921617,-0.0007848695198853186,-0.0008163847277541268,0.000925096749023896,0.0007799224050553022,0.0025262977093190994,0.0006246403396971305,-0.0020053937944845782,0.2411382496356964,-21.87192153930664,-2.4095618724823,22.56842803955078,0.6608988046646118,2.2487685680389404,-0.0072769103571772575,,,,,,,,,
1739401602.3464603,0.5254638244543756,0.09603810516859694,-0.9531569499268604,-2.069024720812803,0.13769709084026954,2.1375943977072156,-1.2753600904726128,-0.0013388306374104977,0.0004343052631697807,0.0008639253303228071,0.000774372219322907,-0.0015883361321083255,-2.494314931343112e-05,-0.00037218941629512656,0.2411382496356964,-21.87192153930664,-2.4095618724823,22.54065704345703,0.6673074960708618,2.2551772594451904,-0.04756011441349983,,,,,,,,,
1739401602.3573914,0.5254703909085469,0.09603799969191715,-0.9531609445165137,-2.069024617829194,0.13770593853928387,2.137595881200596,-1.2753620491603443,0.0016726541580720797,0.0010500016010040864,-2.9494127125174888e-05,0.0013876002413494982,0.0009486125113610373,0.0010531312675675596,0.00030555843409371637,0.1935308277606964,-21.87192153930664,-2.38179087638855,22.54065704345703,0.6544901132583618,2.2551772594451904,-0.03382720425724983,,,,,,,,,
1739401602.3683736,0.5254616287753634,0.09603415634071033,-0.9531566791227902,-2.0690267263503115,0.13770058931124202,2.137592882395433,-1.2753644519084297,-0.001452179849507212,0.0010502594310269277,0.0015098441549739167,-0.0006679017590052263,-0.0010545916129123423,0.00011319747774543132,-0.001451609297710784,0.2411382496356964,-21.84811782836914,-2.4095618724823,22.56842803955078,0.6737161874771118,2.2679946422576904,-0.013685601763427258,,,,,,,,,
1739401602.3793213,0.5254654778758119,0.09603268217021742,-0.9531610523300557,-2.06902672509073,0.1377021002261284,2.137596977907245,-1.2753668304933994,-0.0005954683026616289,-0.00020532617515510172,0.00023339520226159062,-0.0005016087916603475,0.00023753228651132976,0.0006111917414858105,-0.002625958161146449,0.2173345386981964,-21.79654312133789,-2.38179087638855,22.56842803955078,0.6608988046646118,2.2615859508514404,0.0064559997990727425,,,,,,,,,
1739401602.3904476,0.5254654700388012,0.09603086321572818,-0.9531605420603069,-2.0690202802464817,0.13770607048255917,2.1375951554238206,-1.2753586412579938,0.00016385858188971622,-0.0003937081528947344,0.0015655411064023832,0.0018291594944194606,0.001589483550914164,0.0003067796804008924,0.0009311555428690293,0.2173345386981964,-21.77273941040039,-2.35798716545105,22.51685333251953,0.6544901132583618,2.2487685680389404,-0.05396880581974983,,,,,,,,,
1739401602.4013917,0.5254620236144717,0.0960305221493104,-0.9531605430207841,-2.0690227802026904,0.13770412755130376,2.1375936400471374,-1.2753589278870192,-0.0002664095037948833,-0.0005899511750469385,0.0006429762903244267,0.0006801540699939918,0.0013952657511511605,-0.0002740059678139917,-2.5722944409551154e-05,0.2689092457294464,-21.77273941040039,-2.35798716545105,22.51685333251953,0.6480814218521118,2.2615859508514404,-0.06037749722599983,,,,,,,,,
1739401602.4133575,0.5254654603922081,0.09603085541734817,-0.9531637025242272,-2.069022939152804,0.13770529334174136,2.1375936400471374,-1.275362826203084,-0.0001392808177036646,-0.0004223292058142089,-0.0008805169711350013,0.00037360400373858673,-0.0006447525884429942,-4.14568074430279e-05,-0.0022071313779818014,0.2173345386981964,-21.77273941040039,-2.35798716545105,22.51685333251953,0.6608988046646118,2.2615859508514404,-0.027418512850999832,,,,,,,,,
1739401602.4233792,0.5254644717924626,0.09603454704371102,-0.9531612971149228,-2.069024642248844,0.13770132946121708,2.1375928824435855,-1.2753659652421772,-0.000288808457952116,0.0005555624514743745,0.001004924435814129,0.0011815829554107518,-0.0008355706357354715,0.00011376376538496202,-0.0012110793873494007,0.2411382496356964,-21.82431411743164,-2.35798716545105,22.54065704345703,0.6673074960708618,2.2679946422576904,-0.0008682189509272575,,,,,,,,,
1739401602.434385,0.5254657074801221,0.09603842300353914,-0.9531629765726949,-2.069028498610358,0.13770210022602952,2.1375943977072156,-1.2753644499772023,0.0006471327673113935,0.001349746027586148,-0.0007313790943793082,-0.0009929823210165425,-0.0006941019795837526,0.00040759355279961206,-0.0009194441013362253,0.2173345386981964,-21.84811782836914,-2.3302161693573,22.59223175048828,0.6608988046646118,2.2551772594451904,-0.013685601763427258,,,,,,,,,
1739401602.4443994,0.5254637594842512,0.09603928737966173,-0.9531588698303766,-2.0690268266775793,0.13770060018235614,2.1375928823870587,-1.2753596866957566,-0.00021538467069556668,0.00220469268320286,0.0008415030899843487,0.00036429497766854696,-0.0001105706423231917,-0.00018175236836696294,0.0005982784203458168,0.2411382496356964,-21.89969253540039,-2.38179087638855,22.56842803955078,0.6737161874771118,2.2679946422576904,-0.05396880581974983,,,,,,,,,
1739401602.4553342,0.5254654700386684,0.09604013584595147,-0.9531588758208821,-2.0690302904453346,0.13770245564647896,2.1375936400471374,-1.2753599741969275,-0.00039185650097437087,-0.0003684024391419652,-0.0001376381846481402,-0.00041631161860156856,-5.704924651892137e-05,0.00024224795959204573,0.0006260604117422505,0.2173345386981964,-21.87192153930664,-2.38179087638855,22.61603546142578,0.6608988046646118,2.2615859508514404,-0.04756011441349983,,,,,,,,,
1739401602.4663496,0.5254666175597289,0.0960379997395509,-0.9531587712258628,-2.0690302904447613,0.13770134256803152,2.1375943977072156,-1.2753675887968303,0.00020054969979325715,0.00010992860805750832,0.0001846441557111183,7.619050245606695e-05,-0.0008720000387652518,0.00022922621839527568,-0.0017237941399591806,0.2411382496356964,-21.87192153930664,-2.38179087638855,22.61603546142578,0.6673074960708618,2.2551772594451904,0.012864691205322742,,,,,,,,,
1739401602.4774237,0.5254654690736559,0.096037999691322,-0.9531576594393161,-2.0690302904447613,0.13770593861745664,2.1375928823870587,-1.275358172167417,-0.0007052506295828887,-0.0009560806114744522,-0.0003021686790883727,0.0005924309389495957,-0.00019017647867040568,-0.0003039351296789664,0.001272592767281305,0.2173345386981964,-21.87192153930664,-2.4095618724823,22.61603546142578,0.6544901132583618,2.2679946422576904,-0.06678618490695953,,,,,,,,,
1739401602.4884198,0.525461749929128,0.0960399976321748,-0.9531605685643875,-2.0690274393653136,0.13770134502719733,2.1375936400471374,-1.2753596831264822,-0.0011444275117231861,0.0008587966201318276,-0.00013226913781147097,0.0009143929931779952,-0.0005592210766176447,0.000250374622054882,0.0016053486699097595,0.2689092457294464,-21.89969253540039,-2.35798716545105,22.56842803955078,0.6673074960708618,2.2615859508514404,-0.05396880581974983,,,,,,,,,
1739401602.4984517,0.5254654677733892,0.09603699911495868,-0.9531608653561014,-2.0690303215224564,0.1377045413486698,2.1375912187928274,-1.275358929826981,-0.0005303578394089835,-0.00019936968893288952,-0.0008735048847048387,-0.0002905805184186894,-0.0005059166312804868,-0.0008029528573817392,0.000889749488353561,0.2173345386981964,-21.84811782836914,-2.35798716545105,22.61603546142578,0.6673074960708618,2.2551772594451904,-0.06037749722599983,,,,,,,,,
1739401602.5093796,0.5254654818124015,0.09603492037171962,-0.9531597302370876,-2.0690276434439436,0.13770454136668533,2.1375912203011103,-1.2753604451472116,-4.0556511308399235e-05,0.0005827401428188065,0.0012040347710105012,-0.0002856135686740908,2.588388971000796e-05,-0.00048466880612313624,-0.00058061461021011,0.2173345386981964,-21.82431411743164,-2.38179087638855,22.56842803955078,0.6673074960708618,2.2551772594451904,-0.04756011441349983,,,,,,,,,
1739401602.5203316,0.5254693283266669,0.09603257656661228,-0.9531629454840884,-2.069027414175627,0.13770134258408248,2.1375936400292006,-1.2753593345557122,0.001065387594436482,-0.0010531127635464035,-0.0012652237381124282,-0.0007186478899556041,0.000706929357702304,7.557464325091222e-05,0.0016692562073206225,0.1935308277606964,-21.79654312133789,-2.3302161693573,22.56842803955078,0.6673074960708618,2.2615859508514404,-0.05396880581974983,,,,,,,,,
1739401602.5303822,0.5254654783239381,0.09603456295785733,-0.9531627280967515,-2.069026736463424,0.13770378368855068,2.1375943977072143,-1.2753596874692021,0.0004952903341589429,-0.0005615884098744542,0.00031062450484219383,-0.0007639803209680154,0.00035928067571488467,0.0003748042524523874,0.000557908274372477,0.2173345386981964,-21.82431411743164,-2.35798716545105,22.56842803955078,0.6737161874771118,2.2551772594451904,-0.05396880581974983,,,,,,,,,
1739401602.5404303,0.525463757663328,0.09603257670894029,-0.9531634585924732,-2.069024928918265,0.13770321332452828,2.1375928823870582,-1.2753604982986988,-0.0005417294354620061,0.0003014328685250622,-0.00014362265077879586,0.0010180409686436566,0.00016774170807956444,-0.0004672922616140298,0.00026330069956786973,0.2411382496356964,-21.79654312133789,-2.35798716545105,22.51685333251953,0.6544901132583618,2.2679946422576904,-0.04756011441349983,,,,,,,,,
1739401602.551404,0.5254698350887251,0.09603086386349745,-0.9531655357586221,-2.0690228505656623,0.1377037340216964,2.137594397707215,-1.2753620687048222,0.0012091401478926983,3.9103821351380594e-05,-0.0009809345185789564,0.0009573248332695596,0.0005420163448874173,-0.00014710268902803884,-0.0005342047289381205,0.1935308277606964,-21.77273941040039,-2.3302161693573,22.51685333251953,0.6480814218521118,2.2551772594451904,-0.03382720425724983,,,,,,,,,
1739401602.561437,0.5254657072000296,0.09602810213846509,-0.9531605416266825,-2.0690274002467453,0.13769705140153765,2.1375887674589893,-1.2753628263646006,0.0008052997977604647,-0.0017006627108147351,0.0006987136417125651,-0.0005835608758684722,-0.0006012494857789769,-0.001982778253305034,-0.000649141671060851,0.2173345386981964,-21.77273941040039,-2.35798716545105,22.54065704345703,0.6673074960708618,2.2679946422576904,-0.027418512850999832,,,,,,,,,
1739401602.5723994,0.5254627123079206,0.09602886619574377,-0.9531597303833069,-2.0690267336095434,0.1377036550131797,2.137593640023908,-1.2753620685430165,0.00014440450832458479,-0.0015970200488180425,0.0006549246338844923,0.00023578743645490477,0.0007748681277311381,-0.0005246011200966529,-0.0010552252069931033,0.2689092457294464,-21.74496841430664,-2.38179087638855,22.56842803955078,0.6480814218521118,2.2615859508514404,-0.03382720425724983,,,,,,,,,
1739401602.582433,0.5254654779039744,0.0960325767090054,-0.9531637028737765,-2.0690285077678863,0.13770210071431688,2.1375943977072147,-1.2753620687045195,-0.00030513366575742035,-0.00021837526159013522,-0.0014766774893162787,-0.0009929106631666436,-0.0005004069573447572,0.0009523197445149634,0.000409735531987092,0.2173345386981964,-21.79654312133789,-2.35798716545105,22.59223175048828,0.6608988046646118,2.2551772594451904,-0.03382720425724983,,,,,,,,,
1739401602.5933232,0.5254647455325113,0.09603799969132172,-0.9531576778135729,-2.0690256621821055,0.13770352190726864,2.137593640047137,-1.275355095721906,0.000900371578195159,0.0010919224883851936,-0.00011754127131739236,0.0006505363358236383,0.0020996127519041603,-0.00023109302508036314,0.0030911350775900738,0.2411382496356964,-21.87192153930664,-2.4095618724823,22.56842803955078,0.6608988046646118,2.2615859508514404,-0.05396880581974983,,,,,,,,,
1739401602.6033876,0.5254637595948126,0.09603589330162614,-0.9531587708977352,-2.069029196526526,0.1377028710579217,2.137592016489826,-1.2753613111840665,-1.8997319165414808e-05,-0.0002561732111432851,-0.0008456542496848204,-0.0006728863038719909,-0.00012879625586158152,-0.0008601112821737713,0.0002131770882691815,0.2411382496356964,-21.84811782836914,-2.38179087638855,22.59223175048828,0.6544901132583618,2.2753188610076904,-0.04023589566349983,,,,,,,,,
1739401602.6134531,0.5254617674262907,0.09603628705566111,-0.9531587589005112,-2.0690267334926022,0.1377028578864049,2.1375936420821073,-1.275364587310362,-0.0005021280156517842,0.00023873024653488548,-0.0004987991839033527,0.00036751994423340264,-4.845757147418288e-05,0.00010583874333279806,-0.0011925116856658518,0.2689092457294464,-21.84811782836914,-2.38179087638855,22.56842803955078,0.6544901132583618,2.2615859508514404,-0.04023589566349983,,,,,,,,,
1739401602.62346,0.5254654690576549,0.09603999763217284,-0.9531556340395246,-2.0690291965326684,0.13770241321479762,2.1375936400471716,-1.2753675714123696,0.00038564294696486796,0.0010316555218640713,0.0013030489512422748,0.00023198461195823958,0.0011979539549829758,-0.0003413245680616463,-0.001306242702733828,0.2173345386981964,-21.89969253540039,-2.4333655834198,22.59223175048828,0.6673074960708618,2.2615859508514404,0.012864691205322742,,,,,,,,,
1739401602.6343994,0.5254669475748164,0.09603799972749225,-0.9531566791146162,-2.0690323567779942,0.13770712358575626,2.1375936400471374,-1.2753613117065186,0.0004473474090089523,0.00021703686362852656,0.0007693064893240554,-0.0004725576451170457,0.0016946637550163224,-0.000275749673850126,0.0006642479550769136,0.1935308277606964,-21.87192153930664,-2.4095618724823,22.61603546142578,0.6544901132583618,2.2615859508514404,-0.04023589566349983,,,,,,,,,
1739401602.645392,0.5254654690561844,0.09604216862302602,-0.953158758900308,-2.069029196205029,0.13770314452598115,2.1375936400471374,-1.2753581721674205,-0.00011199338189529483,0.0006389758019217411,-0.0006059759151720374,0.000325670119643651,0.0007963214798343991,0.0001283279738842467,0.00254800799829289,0.2173345386981964,-21.89969253540039,-2.38179087638855,22.59223175048828,0.6801248788833618,2.2615859508514404,-0.06678618490695953,,,,,,,,,
1739401602.6564229,0.5254654686295156,0.096040859236469,-0.9531626214782177,-2.069027056722098,0.13770210029900132,2.1375940444945054,-1.2753643336743403,-0.00011706331104936144,0.0003142597667913289,-0.0004309969034279364,0.0005991826251285919,0.00026674707886515867,0.00020468112687728674,-0.00024536120631190526,0.2173345386981964,-21.87192153930664,-2.3302161693573,22.56842803955078,0.6608988046646118,2.2551772594451904,-0.013685601763427258,,,,,,,,,
1739401602.6673465,0.5254637565367718,0.09603552396132962,-0.953156679110453,-2.0690267543816323,0.1377020946104202,2.1375951558740423,-1.275364490148368,0.00011054136405113822,-3.848908800642577e-05,0.0018143420376063738,0.00023096973082359178,-0.0006418283032878253,0.0004932233497680926,-0.0010413953585809044,0.2411382496356964,-21.82431411743164,-2.4095618724823,22.56842803955078,0.6608988046646118,2.2487685680389404,-0.013685601763427258,,,,,,,,,
1739401602.6774354,0.5254685684990337,0.09603628718666721,-0.9531615128052815,-2.069024645301363,0.13770059855711111,2.1375938661409113,-1.2753565027592253,0.0008593532238348331,0.0003132806971032475,-0.0014772172411705883,0.0015909001887039664,-0.0015690460851065747,0.0001888865288277757,0.002641600281601247,0.2173345386981964,-21.84811782836914,-2.35798716545105,22.54065704345703,0.6737161874771118,2.2487685680389404,-0.05396880581974983,,,,,,,,,
1739401602.688421,0.5254654691099947,0.09603257670900656,-0.953160541593775,-2.069025293532083,0.1377021138775941,2.137593640025304,-1.2753653682746728,0.00013457391220887877,-0.0015205303299752149,0.00015690824083073468,-0.00023130939881996172,3.399812112473853e-05,-2.2965300958566128e-05,-0.002261552321658867,0.2173345386981964,-21.79654312133789,-2.35798716545105,22.59223175048828,0.6608988046646118,2.2615859508514404,-0.0072769103571772575,,,,,,,,,
1739401602.6984227,0.5254637566457913,0.09603456588086326,-0.9531587683382907,-2.0690266426199906,0.13770122446075653,2.1375936537831866,-1.2753588256667505,-0.0009370464121823393,0.0006630422719734348,0.0008661462797395089,-0.0006517594771336085,-0.00017237778435908135,3.547521595265705e-05,0.0001711045270143454,0.2411382496356964,-21.82431411743164,-2.38179087638855,22.56842803955078,0.6673074960708618,2.2615859508514404,-0.06037749722599983,,,,,,,,,
1739401602.7093945,0.5254654690575056,0.09603257670898978,-0.9531606615075774,-2.069026724084747,0.1377028622738644,2.137593640047163,-1.2753652075819037,0.0008902493667637778,0.00019922814926729974,-0.00033944498513510327,7.554332159800644e-06,5.147139578735421e-05,-0.00015958382449921305,-0.0007298325989910182,0.2173345386981964,-21.79654312133789,-2.35798716545105,22.56842803955078,0.6544901132583618,2.2615859508514404,-0.0072769103571772575,,,,,,,,,
1739401602.7194397,0.5254617590319862,0.09603258549844293,-0.953157759372857,-2.0690246538041195,0.13770529900878076,2.137595155367294,-1.2753644499220214,-0.001427510654206342,0.0003768464752369893,0.000986985792858722,-0.00019489166177663503,0.00035303331793545763,0.0002181840349822713,-0.0007923289191371196,0.2689092457294464,-21.79654312133789,-2.4095618724823,22.54065704345703,0.6608988046646118,2.2487685680389404,-0.013685601763427258,,,,,,,,,
1739401602.730413,0.5254589495919039,0.09603457464990896,-0.9531612686695172,-2.069026725090771,0.13770326646693093,2.1375945215577716,-1.2753687942230107,-0.001580894393173886,0.0002528436848634568,3.284649827840693e-05,-0.0007180909826125896,0.0009647849096535054,0.0003481016657829218,-0.002541241373190177,0.2689092457294464,-21.82431411743164,-2.38179087638855,22.56842803955078,0.6544901132583618,2.2551772594451904,-0.013685601763427258,,,,,,,,,
1739401602.7413497,0.525468920865447,0.09603628706233132,-0.9531606225730858,-2.0690264773896105,0.13770210022840995,2.1375936400478364,-1.2753604263307632,0.0009550560342460174,7.254083753698362e-06,-0.0006595356260879139,5.286791102930295e-05,-1.297503035989824e-05,0.0001196849500486967,0.0006089945140368715,0.1697271168231964,-21.84811782836914,-2.35798716545105,22.56842803955078,0.6608988046646118,2.2615859508514404,-0.04756011441349983,,,,,,,,,
1739401602.7514222,0.5254657074765378,0.09603456328339742,-0.9531604650210148,-2.0690217557841386,0.13770596497996493,2.1375936400471374,-1.2753644499217025,-0.0001778089929018495,5.5330189830956944e-05,-0.0008484463968718471,-4.591151569349934e-05,8.523770234190157e-05,-0.00033862022311195337,-0.0009170391637574769,0.2173345386981964,-21.82431411743164,-2.35798716545105,22.54065704345703,0.6673074960708618,2.2615859508514404,-0.013685601763427258,,,,,,,,,
1739401602.763426,0.5254637827080809,0.0960345483428069,-0.9531605415768949,-2.0690236522190277,0.1377013425381154,2.1375936400471374,-1.2753652075820998,-0.00037844037048733993,-0.0007796675637669323,0.00026657718607919463,0.0011305577478849015,-2.202548760882935e-05,0.00027484066222937707,-0.002163865468816953,0.2411382496356964,-21.82431411743164,-2.35798716545105,22.54065704345703,0.6673074960708618,2.2615859508514404,-0.0072769103571772575,,,,,,,,,
1739401602.7743485,0.5254677121217861,0.09603799973949959,-0.9531609448480901,-2.0690291965306575,0.13770285642808922,2.1375936407254605,-1.275361311044444,-6.854571880968979e-05,0.0012362533407938973,0.0006092552492085051,-0.0001692634402191245,0.00044330122208054585,3.8772414575043065e-05,-4.482999386336013e-05,0.2173345386981964,-21.87192153930664,-2.38179087638855,22.59223175048828,0.6544901132583618,2.2615859508514404,-0.04023589566349983,,,,,,,,,
1739401602.784441,0.5254654690954919,0.09603681595620434,-0.9531566801467873,-2.0690287402020906,0.1377021008761388,2.1375936400471485,-1.2753616730874715,0.000873093247457409,-0.0006087069173955164,0.0011325599459606748,-0.00019218713691721885,-3.649663736299834e-06,-0.0004213240132672598,0.00017767222005728763,0.2173345386981964,-21.82431411743164,-2.4095618724823,22.59223175048828,0.6608988046646118,2.2615859508514404,-0.04023589566349983,,,,,,,,,
1739401602.7954278,0.5254636786809893,0.0960387910788066,-0.9531545740789921,-2.0690285419221017,0.1377017506411757,2.1375936400471374,-1.275358708495136,-0.0007545675350164256,0.001132196900689228,0.0014768960772525747,0.0005521858378685904,-0.00010692805894686215,0.0003943499521932082,0.0016532242860565567,0.2411382496356964,-21.87192153930664,-2.4095618724823,22.59223175048828,0.6673074960708618,2.2615859508514404,-0.027418512850999832,,,,,,,,,
1739401602.8063889,0.5254644371240196,0.0960387136045714,-0.9531612699358947,-2.0690285077683206,0.1377005849128576,2.1375940499512933,-1.2753605655969786,-0.0007350590048291899,6.523413116516646e-05,-0.00018407047185347582,-0.00039774508883840486,-0.0018613587881958478,0.0005398533042446627,0.0015392891409175876,0.2411382496356964,-21.87192153930664,-2.35798716545105,22.59223175048828,0.6737161874771118,2.2679946422576904,-0.04756011441349983,,,,,,,,,
1739401602.8183734,0.525465469058786,0.0960400768469595,-0.953160622634312,-2.069028508082678,0.13770058490594683,2.137592882389255,-1.275365978816949,5.994939882881974e-05,-9.792209115640969e-05,9.464039021646911e-05,-0.00026258890864281324,-0.0025198902863332877,-8.832051258656379e-05,-0.0013871659595731552,0.2173345386981964,-21.89969253540039,-2.35798716545105,22.59223175048828,0.6737161874771118,2.2679946422576904,-0.0008682189509272575,,,,,,,,,
1739401602.829383,0.5254681411939396,0.096034574613922,-0.9531566791229421,-2.0690267250907235,0.13770245564639272,2.1375936400471374,-1.2753687944383771,0.0015701671080791872,-0.00105713636606934,0.0012389547492741332,0.0009995952201479758,0.0006152246906823988,-0.0010619443103362116,-0.001501378165853625,0.1935308277606964,-21.82431411743164,-2.4095618724823,22.56842803955078,0.6608988046646118,2.2615859508514404,-0.013685601763427258,,,,,,,,,
1739401602.839396,0.5254675112755135,0.09604194844429882,-0.9531587678941503,-2.069024654748944,0.13770338145477973,2.137591827327612,-1.2753613155876857,1.5725214647566935e-05,0.0020861289822452066,0.0003535678329663854,0.0015514854535608876,0.0005442452581762868,-0.0016248331960414565,0.0002426254712388368,0.2173345386981964,-21.92349624633789,-2.38179087638855,22.54065704345703,0.6801248788833618,2.2679946422576904,-0.04023589566349983,,,,,,,,,
1739401602.8503838,0.5254669827649524,0.0960345747958866,-0.9531574086110329,-2.0690269886921135,0.13770210609670686,2.137595526234683,-1.2753613110444695,0.0009523377627182986,-0.0007212647978270166,0.0018290018055416152,-0.00016088822561084924,0.0005925295002052667,0.00036436763806408983,0.00010828630349691904,0.1935308277606964,-21.82431411743164,-2.4095618724823,22.56842803955078,0.6608988046646118,2.2487685680389404,-0.04023589566349983,,,,,,,,,
1739401602.8613634,0.5254617582738065,0.09603457464986018,-0.9531634559194062,-2.0690216508434935,0.137702857886215,2.137594397224792,-1.2753546912745375,-0.001068705147140612,-0.0005894676161295648,-0.0009870352665993067,0.001621096678304195,-0.0007509932933735054,3.070361730524008e-05,0.002399987614613796,0.2689092457294464,-21.82431411743164,-2.35798716545105,22.54065704345703,0.6544901132583618,2.2551772594451904,-0.06037749722599983,,,,,,,,,
1739401602.8724434,0.5254617547440112,0.09603457855627563,-0.9531587589537712,-2.069022862606945,0.1377029761976013,2.137593006011504,-1.2753596874093711,-0.0010026252590284042,0.0005385795849268086,0.0006441973518542875,0.0016930919810702282,0.00046253326239507637,-0.00017265873395572702,0.0004787328110637015,0.2689092457294464,-21.82431411743164,-2.38179087638855,22.51685333251953,0.6544901132583618,2.2679946422576904,-0.05396880581974983,,,,,,,,,
1739401602.8833306,0.5254617585958995,0.0960325738945412,-0.9531608653556447,-2.0690246451878136,0.1377028623289262,2.1375944389160626,-1.2753602018258872,-0.0009234493638310405,8.084503163876698e-05,-0.000280626839496197,-0.000605250449221307,0.0007184470193552479,0.0004587585942157681,-0.0008215572736318971,0.2689092457294464,-21.79654312133789,-2.35798716545105,22.54065704345703,0.6544901132583618,2.2551772594451904,-0.05396880581974983,,,,,,,,,
1739401602.8933961,0.5254659052474253,0.09603257670895862,-0.953160555018056,-2.069022862623847,0.1377025741198977,2.1375951162917155,-1.2753644499307317,0.0006365390832094209,-0.0003863504391585503,-0.0001695633787520491,0.0017856812020425863,-5.472141218331041e-05,0.0004623616088205571,-0.001298733565092449,0.2411382496356964,-21.79654312133789,-2.35798716545105,22.51685333251953,0.6608988046646118,2.2487685680389404,-0.013685601763427258,,,,,,,,,
1739401602.9034016,0.5254637654034805,0.09603471254211073,-0.9531566821086274,-2.0690246439442204,0.1377016511748399,2.1375943977065535,-1.2753624749241013,-0.0008809182145433655,-0.0001170441392708524,0.001984746760867505,0.0007375259370004337,-0.0005200000869540758,-0.0006836452505678331,0.0011047143801700744,0.2411382496356964,-21.79654312133789,-2.4095618724823,22.54065704345703,0.6737161874771118,2.2551772594451904,-0.05396880581974983,,,,,,,,,
1739401602.9143875,0.5254644717925615,0.09603552486159139,-0.9531607874090293,-2.0690285077677344,0.13770454135464721,2.137594562539813,-1.275362793547451,-6.110909092079325e-05,0.00012560744395989886,0.0005119217293211816,-0.0003064440933706772,7.125226317721878e-05,-0.0002649603979492868,-0.00025516280092322506,0.2411382496356964,-21.82431411743164,-2.35798716545105,22.59223175048828,0.6673074960708618,2.2551772594451904,-0.020094294100999832,,,,,,,,,
1739401602.9244127,0.5254617586080341,0.09603457509999752,-0.9531629825684879,-2.069030293279184,0.1377028579403536,2.1375943962564565,-1.2753629458591609,-0.00033829640476030473,-0.0006490602064934353,-0.0016433674298372888,-0.0007067686588118608,-6.927895130404838e-05,-1.5078540209622905e-06,-0.0006438039237651347,0.2689092457294464,-21.82431411743164,-2.3302161693573,22.61603546142578,0.6544901132583618,2.2551772594451904,-0.05396880581974983,,,,,,,,,
1739401602.9353576,0.5254637555737972,0.09603628717059307,-0.9531598111818782,-2.0690269712924705,0.13770390362461477,2.1375929375573572,-1.2753581721858105,-0.00025026873410961896,-0.0007147457767250898,-0.0004410345274782498,-0.0005033017963037634,0.0011936483120976865,0.0003838448365983199,0.0016376286130138427,0.2411382496356964,-21.84811782836914,-2.38179087638855,22.59223175048828,0.6737161874771118,2.2679946422576904,-0.06678618490695953,,,,,,,,,
1739401602.9463108,0.5254671815782203,0.09603871163568987,-0.9531634678054808,-2.0690302526587354,0.13770146174571768,2.1375928823879926,-1.2753596870026167,0.0006144658111828885,0.0012207297631759287,-0.0016053293730736119,-7.007564691264233e-05,5.742598673315093e-05,-0.0005083844934470727,0.000864796571726324,0.1935308277606964,-21.87192153930664,-2.3302161693573,22.61603546142578,0.6673074960708618,2.2679946422576904,-0.05396880581974983,,,,,,,,,
1739401602.956355,0.5254654693845542,0.09603921405701187,-0.9531588672753323,-2.0690228881334423,0.13770333511747848,2.1375943977072156,-1.2753613126998733,0.0007913003963714297,-5.7853505751837724e-05,0.0004463541282570035,0.0018889813822709467,0.0006250455046307763,-8.008432043693012e-05,-0.0008201585502270547,0.2173345386981964,-21.84811782836914,-2.38179087638855,22.51685333251953,0.6865335702896118,2.2551772594451904,-0.04023589566349983,,,,,,,,,
1739401602.966396,0.5254617585959267,0.09604000853516939,-0.9531617002216308,-2.069028481240882,0.13770245588114488,2.1375936400471374,-1.2753604451472396,-0.000880860133351541,0.00019924932820185304,-0.0005850831984109437,5.4614643213002855e-05,-0.0002772448177069826,-0.0008084530022712597,-0.0010043210683857526,0.2689092457294464,-21.89969253540039,-2.38179087638855,22.59223175048828,0.6608988046646118,2.2615859508514404,-0.04756011441349983,,,,,,,,,
1739401602.9764667,0.5254654693845542,0.09603281402398031,-0.9531598369981735,-2.069028507767293,0.13770297685317962,2.137593659888098,-1.2753614159382824,0.00010854746915943593,-0.0015643023736305957,0.0001577395915980846,-0.0004666496073235589,0.0012679008434858777,-0.00010499900393873103,0.0019168216752971242,0.2173345386981964,-21.79654312133789,-2.4095618724823,22.59223175048828,0.6544901132583618,2.2615859508514404,-0.04023589566349983,,,,,,,,,
1739401602.9864872,0.5254653910563708,0.09603628815121355,-0.9531634829502936,-2.0690285077677424,0.1377056251631297,2.137593640047473,-1.275360429196274,5.039226966122034e-06,-0.000685217685372877,-0.0011529417836591504,-0.0006778989496747741,-2.404099716335876e-05,-0.000440528797542122,-0.0004984674418185784,0.2173345386981964,-21.84811782836914,-2.35798716545105,22.59223175048828,0.6673074960708618,2.2615859508514404,-0.04756011441349983,,,,,,,,,
1739401602.998354,0.5254647102106502,0.09603629107701235,-0.9531658596111002,-2.0690246412309268,0.13770531268414124,2.1375936400471374,-1.2753628263645105,-0.00013915728447490186,0.0012777504793155595,-0.0017277225578697817,0.0006061397385997071,0.0007325136666886188,-0.0003566308567382605,0.00017477056002127283,0.2411382496356964,-21.84811782836914,-2.3302161693573,22.54065704345703,0.6608988046646118,2.2615859508514404,-0.027418512850999832,,,,,,,,,
1739401603.0083723,0.5254637305061118,0.09603542448650093,-0.9531609547855047,-2.0690225357930525,0.1377021048488294,2.137592886965742,-1.2753679287394273,-0.0013995754628377917,0.00012709965537817673,-0.0005839052578065714,0.001833774909654823,0.00012306708175386405,0.00017723712859293796,-0.0017073212635108654,0.2411382496356964,-21.79654312133789,-2.38179087638855,22.51685333251953,0.6608988046646118,2.2679946422576904,0.0064559997990727425,,,,,,,,,
1739401603.0183914,0.5254654417727151,0.09603457469808671,-0.9531658832801385,-2.069024942142594,0.13770134272861845,2.1375943997422633,-1.2753628263831884,-0.00027135013842844043,0.000134337505891224,-0.0025168314771779774,0.00019105068055004244,0.0005570067676348559,0.0004773625972659267,-0.0001828093964844737,0.2173345386981964,-21.82431411743164,-2.3302161693573,22.54065704345703,0.6673074960708618,2.2551772594451904,-0.027418512850999832,,,,,,,,,
1739401603.030333,0.5254654690573514,0.09603069194718186,-0.9531612735390423,-2.069026724640183,0.13770338513899102,2.137594752667184,-1.2753683464594572,0.00037327252325393043,-0.0007490850487706525,-0.0014174753251730008,0.00046053516566207237,0.002004691508388635,0.0003177398368325835,-0.0032076128134226633,0.2173345386981964,-21.79654312133789,-2.35798716545105,22.56842803955078,0.6544901132583618,2.2615859508514404,0.019273381680250168,,,,,,,,,
1739401603.0404015,0.5254644713288559,0.09603277893717176,-0.9531628080296801,-2.06902525164935,0.1377022187025096,2.1375936415796457,-1.275367917268493,-0.0006608262470317257,-0.0009691108800697654,-0.0007281323382217843,-0.0002861891005957994,0.0003411020387183533,-0.0002833498190080344,-0.0019715366474294766,0.2411382496356964,-21.79654312133789,-2.35798716545105,22.54065704345703,0.6608988046646118,2.2615859508514404,0.0064559997990727425,,,,,,,,,
1739401603.0514455,0.5254669475788514,0.09603457465100093,-0.9531636981447343,-2.069026642564793,0.13770134256669397,2.137592882387067,-1.275354652034812,0.00033709374966680813,0.00036886595195281883,-0.0018570922944729437,-2.0758368164511037e-05,0.0005927588058480788,-0.00047251183638373875,0.003124588990136794,0.1935308277606964,-21.82431411743164,-2.35798716545105,22.56842803955078,0.6673074960708618,2.2679946422576904,-0.06037749722599983,,,,,,,,,
1739401603.062435,0.5254637604600388,0.09603671037470458,-0.953161925083668,-2.069026724977203,0.13770303919218585,2.1375937425164544,-1.2753659521360774,-0.00029915397087630576,0.00017522423756244918,-0.0002708697018081322,0.00047937928444499495,4.5456479928260036e-05,-0.00016614613318487485,0.0002725183383391923,0.2411382496356964,-21.82431411743164,-2.38179087638855,22.56842803955078,0.6801248788833618,2.2487685680389404,-0.0008682189509272575,,,,,,,,,
1739401603.074346,0.5254616505060142,0.09603286391079471,-0.9531566834586941,-2.0690285077677415,0.13770286245473318,2.137595913019396,-1.2753664479661406,-0.00046887145940186425,-0.001343825218262239,0.001307285324455112,-0.0008339035360085551,-0.000937965335746249,1.1564819974758923e-05,-0.0020702617754799475,0.2411382496356964,-21.79654312133789,-2.4095618724823,22.59223175048828,0.6544901132583618,2.2423598766326904,-0.0008682189509272575,,,,,,,,,
1739401603.0843725,0.5254654778759346,0.0960362871722118,-0.9531574116089541,-2.0690287373560037,0.13770378368857555,2.137594397707215,-1.275359687489858,0.0012743996115210112,0.0001777298414721153,0.0009847195080712207,-0.0010711801140466993,-0.0003997740669122382,-0.0003947314438947854,0.0006767246032245881,0.2173345386981964,-21.84811782836914,-2.4095618724823,22.59223175048828,0.6737161874771118,2.2551772594451904,-0.05396880581974983,,,,,,,,,
1739401603.0963774,0.5254661839923002,0.09603457464985936,-0.9531606235253571,-2.069029398819635,0.1377005851406907,2.137594397707215,-1.275366061400206,0.0006705296310803739,-0.0005754256601294891,0.0003440729246314786,-0.0006295777831367993,-0.0005284955584666216,-0.00019605207544960265,-0.00152650369889256,0.2173345386981964,-21.82431411743164,-2.35798716545105,22.56842803955078,0.6737161874771118,2.2551772594451904,-0.0072769103571772575,,,,,,,,,
1739401603.1073222,0.5254654690588506,0.09603639264383027,-0.9531609485124022,-2.0690267336106873,0.1377050373899325,2.137594397707215,-1.2753612592148713,0.00075786142629034,-0.0006575443713247321,-0.0003357102881227568,-9.54721802198734e-06,0.0018787708420480672,0.00022284876414915922,-0.0002719745139084179,0.2173345386981964,-21.84811782836914,-2.38179087638855,22.56842803955078,0.6480814218521118,2.2551772594451904,-0.04023589566349983,,,,,,,,,
1739401603.1174095,0.5254609484957316,0.09604087384246285,-0.9531634566927425,-2.0690312628273113,0.13770054609722898,2.137594397707215,-1.2753554891589856,-0.002010960998403969,0.0017054473002218328,0.00031659533451191836,-0.001614793263344909,-0.000937126631271243,0.0006811115761767761,0.0013413017732065422,0.2411382496356964,-21.87192153930664,-2.35798716545105,22.59223175048828,0.6737161874771118,2.2551772594451904,-0.05396880581974983,,,,,,,,,
1739401603.128303,0.5254659022881346,0.0960379997075464,-0.9531604905741693,-2.069024653819689,0.13770454091654982,2.1375928823870582,-1.275360565804521,0.0005065846950575686,0.0008341427104387065,-0.0006840511073004507,0.0006487457801914879,0.00022391801384311934,-0.0003813730076141001,0.000870790079164804,0.2411382496356964,-21.87192153930664,-2.35798716545105,22.54065704345703,0.6673074960708618,2.2679946422576904,-0.04756011441349983,,,,,,,,,
1739401603.138428,0.5254654955605714,0.09603799972749233,-0.9531609445146969,-2.069026725090771,0.13770457936482722,2.137593376941379,-1.2753596919574812,0.0004007499601208358,0.0008046259419106327,0.0007406328669055546,0.0005130406789146255,-0.0007969432303028184,0.00023538526935781194,0.0026028872595406467,0.2173345386981964,-21.87192153930664,-2.38179087638855,22.56842803955078,0.6801248788833618,2.2679946422576904,-0.05396880581974983,,,,,,,,,
1739401603.1493905,0.5254641427818618,0.09603258549844314,-0.9531587679434996,-2.0690248767060666,0.13770566908217086,2.1375928823898502,-1.2753712092297893,-0.00024207816027702186,-0.0007500193249743597,0.0007011538857163354,0.00044957824457661987,0.002177289219111577,8.889557766402363e-05,-0.001554591947866648,0.2689092457294464,-21.79654312133789,-2.38179087638855,22.54065704345703,0.6608988046646118,2.2679946422576904,0.012864691205322742,,,,,,,,,
1739401603.1603312,0.5254617557204488,0.09603871261234356,-0.9531605419104834,-2.069028507429887,0.13770378907320494,2.137594752667173,-1.2753644514323477,-0.0003238192189029044,0.0019223149839804167,-0.0005848363091565587,-0.0006154830824418808,0.001298896549556633,0.0009034016143196662,8.459110162720791e-05,0.2689092457294464,-21.87192153930664,-2.35798716545105,22.59223175048828,0.6737161874771118,2.2615859508514404,-0.013685601763427258,,,,,,,,,
1739401603.1703932,0.5254617570151366,0.09603803486114168,-0.9531606588303859,-2.0690246481352847,0.1377038354988316,2.1375943992522854,-1.2753631548336302,-0.00068200482223463,0.0007999000683337607,-0.0005745976713256776,0.0007040183004363632,4.84100604134527e-05,2.9773488966315382e-06,0.000485933140962221,0.2689092457294464,-21.87192153930664,-2.35798716545105,22.54065704345703,0.6673074960708618,2.2551772594451904,-0.03382720425724983,0,0,0,0.000,0,0
1739401603.181349,0.5254672604151591,0.09603112787157293,-0.95316561676142,-2.069028507428597,0.13770361561450453,2.137592882387067,-1.2753585342165756,4.752003217774843e-05,-0.001419423670251563,-0.0016193136144210198,-4.9185748546507694e-05,0.0008577908348921363,0.00022508796756001514,0.0006568103685839655,0.1935308277606964,-21.77273941040039,-2.3302161693573,22.59223175048828,0.6480814218521118,2.2679946422576904,-0.06678618490695953,0,0,0,0.000,0,0
1739401603.1913862,0.5254637565381093,0.09603473293989018,-0.9531567875314259,-2.069024645300862,0.13770134402866124,2.137594438430848,-1.2753609578378653,-0.00018849305734896659,-0.00015922682250783725,-9.943457549559752e-05,0.0004943663294659752,9.199408048719568e-05,-0.0005343970481587533,0.0009413194629692234,0.2411382496356964,-21.82431411743164,-2.4095618724823,22.54065704345703,0.6673074960708618,2.2551772594451904,-0.04023589566349983,0,0,0,0.000,0,0
1739401603.2023818,0.5254654690218395,0.09603629107790038,-0.9531597612146615,-2.0690237808638403,0.13770270480960284,2.1375943658806693,-1.2753628263626067,7.573228263498238e-05,0.0008212292498451366,-0.0005234769225246845,0.0005428106580653061,0.0008618336588921755,0.001231020146501589,0.0007634394926358927,0.2173345386981964,-21.84811782836914,-2.38179087638855,22.51685333251953,0.6673074960708618,2.2679946422576904,-0.027418512850999832,0,0,0,0.000,0,0
1739401603.2134233,0.5254617499291276,0.09603386446970939,-0.9531587980273288,-2.069024951386048,0.13770287111175783,2.1375936400555116,-1.2753586548914537,-0.0010739058310998881,-0.0013892961786187053,0.0010173067800019425,-0.0015619669793057577,-6.797560389790733e-05,-0.000796490955851094,-0.0009391339316705148,0.2689092457294464,-21.82431411743164,-2.38179087638855,22.54065704345703,0.6544901132583618,2.2615859508514404,-0.06678618490695953,0,0,0,0.000,0,0
1739401603.2244124,0.5254661838852039,0.09603652741118314,-0.9531629699149278,-2.069026954680712,0.13770378368862443,2.1375936400471374,-1.2753666486738646,0.0008980821825520036,0.0009640092402918721,-1.7789286675866356e-05,0.0006863049208335865,-0.00012328774534658363,-0.0009440146729403268,0.000169966425718964,0.2173345386981964,-21.84811782836914,-2.35798716545105,22.56842803955078,0.6737161874771118,2.2615859508514404,-0.013685601763427258,0,0,0,0.000,0,0
1739401603.2353544,0.5254638360136691,0.09603244378516479,-0.9531570060484719,-2.0690246453021635,0.1377016996836932,2.1375943453794064,-1.2753648365089985,0.0002170661465273995,-0.0009339534610981734,0.001310581965082712,0.0011687830889457473,-0.0005125721750173035,-0.0001429490489176212,-0.0018174118303472967,0.2411382496356964,-21.82431411743164,-2.4095618724823,22.54065704345703,0.6673074960708618,2.2551772594451904,-0.020094294100999832,0,0,0,0.000,0,0
1739401603.2454112,0.52546375653812,0.09603871149134428,-0.9531550136920233,-2.0690305740620945,0.1377045983974384,2.1375943453785204,-1.2753581726834244,2.7859525183927467e-05,0.00030788457233510056,0.0013637289385695956,-0.0010544122055298664,0.0004706880113294448,-0.000568627725691312,0.003234349361971988,0.2411382496356964,-21.87192153930664,-2.4333655834198,22.59223175048828,0.6673074960708618,2.2551772594451904,-0.06678618490695953,0,0,0,0.000,0,0
1739401603.2563148,0.5254637564297767,0.09603807912580434,-0.9531596052187947,-2.0690285081293354,0.13770287502432113,2.1375936995697242,-1.2753683474648323,0.00019274224066384782,-6.919967747601627e-05,0.0001025256550101555,8.789318309721821e-05,0.00020022388047865583,0.0001271039950225712,-0.002367698821748726,0.2411382496356964,-21.87192153930664,-2.4095618724823,22.59223175048828,0.6544901132583618,2.2615859508514404,0.019273381680250168,0,0,0,0.000,0,0
1739401603.2663553,0.5254626619976073,0.09603652448672514,-0.9531587863755286,-2.0690285842971687,0.13770672069015355,2.1375928823880663,-1.2753598083337025,-0.001746028153015189,0.0011585021175343215,0.001689231115919961,-0.0006943680943739717,0.0016354022464624366,-0.0004410447858202183,-4.747751256021853e-05,0.2173345386981964,-21.84811782836914,-2.38179087638855,22.59223175048828,0.6608988046646118,2.2679946422576904,-0.05396880581974983,0,0,0,0.000,0,0
1739401603.277393,0.5254638321418797,0.09603482680612675,-0.9531548964706003,-2.0690267250911547,0.13770139524696548,2.1375936400471374,-1.2753628671440964,0.0001549161569623853,-0.0008310765146894651,0.002208576886631425,0.0005704238425665511,-0.0002715226360686751,-0.00023485184782331213,0.00041198215825450875,0.2411382496356964,-21.79654312133789,-2.4333655834198,22.56842803955078,0.6673074960708618,2.2615859508514404,-0.027418512850999832,0,0,0,0.000,0,0
1739401603.2874148,0.5254654690587858,0.09603457490524042,-0.9531567150858217,-2.0690276437587043,0.1377029823735585,2.137595155367294,-1.2753628268619208,0.0003746139586150364,-0.001167963150329445,0.0014855665502375385,0.0006180768811920622,0.0006805824762019712,0.0006113358289861166,0.0006866756939666718,0.2173345386981964,-21.82431411743164,-2.4095618724823,22.56842803955078,0.6544901132583618,2.2487685680389404,-0.027418512850999832,0,0,0,0.000,0,0
1739401603.2974174,0.5254637565367742,0.0960362871706035,-0.9531578377547486,-2.0690246188202486,0.13770138206349303,2.13759365836187,-1.2753585182577558,-0.00019503918080618666,-1.651038588338248e-05,0.00150280387962369,4.9280105662437854e-05,0.001014097017391146,-0.00046118529033803185,0.0037287437368144893,0.2411382496356964,-21.84811782836914,-2.4333655834198,22.54065704345703,0.6673074960708618,2.2615859508514404,-0.06678618490695953,0,0,0,0.000,0,0
1739401603.3093774,0.5254610564667744,0.0960404532462841,-0.953156682201641,-2.0690267237456905,0.13770505473356465,2.13759439770725,-1.2753607736168668,-0.0014126342726034596,0.0013488973293170688,0.0017536093102989794,0.0002121309520424602,0.0017183317858982564,0.0002434769400475469,0.0007190307756711516,0.2689092457294464,-21.87192153930664,-2.4095618724823,22.56842803955078,0.6673074960708618,2.2551772594451904,-0.05396880581974983,0,0,0,0.000,0,0
1739401603.320363,0.5254654343890108,0.09603245552760052,-0.9531605417253797,-2.069024679325605,0.13770316795659118,2.13759363956262,-1.2753621898842047,0.0008369045058751327,-0.001170802653571999,0.00020340569644662252,0.00022797676713877526,-0.001105061776218452,0.0005757760088600185,0.00014533981584300543,0.2173345386981964,-21.79654312133789,-2.35798716545105,22.54065704345703,0.6608988046646118,2.2615859508514404,-0.03382720425724983,0,0,0,0.000,0,0
1739401603.3303854,0.5254657045865663,0.09603628716853832,-0.9531620329919575,-2.0690246076544923,0.13770392465267658,2.1375945213316556,-1.2753615307938295,0.00012586702981211973,0.00033518609184190546,1.005392012220127e-05,6.146101297645822e-05,-0.00026466271750102846,0.00042744985536322935,0.00015187885517436214,0.2173345386981964,-21.84811782836914,-2.38179087638855,22.54065704345703,0.6544901132583618,2.2551772594451904,-0.04756011441349983,0,0,0,0.000,0,0
1739401603.3413665,0.5254626737726956,0.09603628717059051,-0.9531628915710464,-2.069022938813895,0.13770636527559604,2.1375943977079133,-1.2753589298331833,-0.0006134065707190548,-9.883895913198891e-05,0.00045046556602167706,0.00027242281479594407,0.0025884028723781667,0.0008603002715226665,0.0006666361416268856,0.2173345386981964,-21.84811782836914,-2.3302161693573,22.51685333251953,0.6608988046646118,2.2551772594451904,-0.06037749722599983,0,0,0,0.000,0,0
1739401603.3523521,0.5254654691507422,0.096034583439296,-0.9531605819216011,-2.0690262825281005,0.1377035353117378,2.137595881200596,-1.2753620614206203,0.0007910586577272206,-0.0008820362974463416,-9.609893364229062e-05,-0.0009060369796504537,0.0007738090943264863,0.0008182694067451692,0.0007927879644279939,0.2173345386981964,-21.82431411743164,-2.35798716545105,22.59223175048828,0.6608988046646118,2.2551772594451904,-0.03382720425724983,0,0,0,0.000,0,0
1739401603.3623576,0.5254654693845557,0.0960345746500082,-0.9531619966841642,-2.0690287174343602,0.1377014610637582,2.1375966388857974,-1.275370089526535,0.0010011208314252423,-3.3401260583735065e-05,0.0006286714327474826,-0.0008245557309411751,-0.0005511058019319118,0.0009118294216919228,-0.0011200043836348474,0.2173345386981964,-21.82431411743164,-2.38179087638855,22.56842803955078,0.6673074960708618,2.2487685680389404,0.0064559997990727425,0,0,0,0.000,0,0
1739401603.3723679,0.5254636782146472,0.09603632634326495,-0.953157677592798,-2.0690267254393993,0.1377005850704686,2.137595155392417,-1.275361311099625,-0.0013216528700339817,0.0010209559892288872,0.0005266962076840294,-0.00024112436003272345,-0.0013670729913390295,-5.6129607629562474e-05,0.0006433224603295436,0.2411382496356964,-21.84811782836914,-2.4095618724823,22.56842803955078,0.6737161874771118,2.2487685680389404,-0.04023589566349983,0,0,0,0.000,0,0
1739401603.382388,0.5254637601390411,0.09603258061608597,-0.9531570859512478,-2.069026724751567,0.13770289737732788,2.137595913027372,-1.2753604451472125,-1.6129142210940317e-05,-0.001609816443864774,0.0014591061850252561,-0.000686620775200254,-0.0007108817657990129,-2.14346420579736e-05,0.0016371382489819928,0.2411382496356964,-21.79654312133789,-2.4333655834198,22.56842803955078,0.6544901132583618,2.2423598766326904,-0.04756011441349983,0,0,0,0.000,0,0
1739401603.3924456,0.5254637565368352,0.09603844969760576,-0.9531587629346507,-2.0690267591037927,0.13769819369688668,2.137595881200596,-1.2753660847518482,-7.194522151378205e-05,0.0006730826382635149,0.0010578836031322535,-0.0005011606624262762,-0.002228451652542115,0.0006520519577460197,-0.0004889014878648331,0.2411382496356964,-21.84811782836914,-2.38179087638855,22.56842803955078,0.6673074960708618,2.2551772594451904,-0.027418512850999832,0,0,0,0.000,0,0
1739401603.4033103,0.5254637565367742,0.09603628718279805,-0.9531605342429775,-2.069034149397369,0.1377021002624997,2.1375936583702444,-1.2753659672470903,-0.0005782431159250414,-0.0006854343330994669,-0.0001252995294302633,-0.0022540008761692976,-0.0003114328385239684,-1.7800041056535144e-05,-0.0016158924530215728,0.2411382496356964,-21.84811782836914,-2.35798716545105,22.63983917236328,0.6608988046646118,2.2615859508514404,-0.0008682189509272575,0,0,0,0.000,0,0
1739401603.4133742,0.5254634533625316,0.09603457464985955,-0.9531612421817629,-2.0690267252308634,0.13770613432058798,2.1375928823873687,-1.2753686749286053,-0.00036388872562357363,-2.14553172490258e-05,-0.0013384401870587068,0.0009264543085960978,0.0014246061953272773,-0.0007524343143916884,-0.0025013500988779556,0.2411382496356964,-21.82431411743164,-2.38179087638855,22.56842803955078,0.6673074960708618,2.2679946422576904,0.012864691205322742,0,0,0,0.000,0,0
1739401603.423426,0.5254654655172432,0.09603807912178622,-0.9531619968096448,-2.0690267291848965,0.13770288296405814,2.137595123540518,-1.275362825935265,9.90186915328579e-05,0.00042052892137188394,-0.0019419774080829289,-0.0005430047265415687,0.0015985456386233333,0.001139696760087861,0.000685607403016216,0.2173345386981964,-21.87192153930664,-2.38179087638855,22.56842803955078,0.6673074960708618,2.2615859508514404,-0.027418512850999832,0,0,0,0.000,0,0
1739401603.4344332,0.5254672772558354,0.09603810516471091,-0.9531609544032005,-2.0690260853949316,0.137700589278749,2.1375936400499285,-1.2753644484684703,-0.0005966489864466414,0.0005328437623762633,0.0005701060637143304,0.0011088837224161223,-0.0010409440454380175,-0.00045212697513832525,0.001038618996739625,0.2173345386981964,-21.87192153930664,-2.38179087638855,22.56842803955078,0.6737161874771118,2.2615859508514404,-0.013685601763427258,0,0,0,0.000,0,0
1739401603.4453847,0.5254654690677127,0.0960366066653994,-0.9531574077721068,-2.0690208669684274,0.1377045398905602,2.1375943977072156,-1.2753680089481791,0.0005712089886697619,0.0007304897365903002,9.349335254129297e-05,0.0023211745580875576,7.228859712371646e-05,-5.855817394089763e-05,-0.0023294556948153813,0.2173345386981964,-21.84811782836914,-2.4095618724823,22.51685333251953,0.6673074960708618,2.2551772594451904,0.012864691205322742,0,0,0,0.000,0,0
1739401603.4564385,0.525463522533354,0.09603458637091176,-0.9531620236691208,-2.069026801571193,0.13770134263824582,2.1375943977072156,-1.2753624309154648,-0.00030136834064782597,-0.0010016890834381419,-0.0010092258531710324,-0.0006142835349774628,-0.00046607310234641727,-0.0001812311762093442,-0.000382178772235057,0.2411382496356964,-21.82431411743164,-2.38179087638855,22.56842803955078,0.6673074960708618,2.2551772594451904,-0.03382720425724983,0,0,0,0.000,0,0
1739401603.4673953,0.5254655750199974,0.0960362871706567,-0.9531587593628781,-2.0690284803310672,0.13770503722741748,2.1375943977637424,-1.2753604451492562,-0.00011655956861879741,0.000739994705853378,-0.0005218603730919968,-8.301346729724918e-05,0.0016683534544918773,0.000998242251622999,0.0018002489355365382,0.2173345386981964,-21.84811782836914,-2.38179087638855,22.59223175048828,0.6480814218521118,2.2551772594451904,-0.04756011441349983,0,0,0,0.000,0,0
1739401603.4783182,0.5254654689511061,0.09603503026396866,-0.9531605687069029,-2.0690267220381124,0.1377027251349815,2.1375929235952085,-1.2753596482412763,0.0005341150812183019,0.0004965151092779785,-0.0001720307828892417,-0.00010110487198639634,-0.0009335902111776286,-0.00037866793240505693,0.00044409821263422563,0.2173345386981964,-21.79654312133789,-2.35798716545105,22.56842803955078,0.6737161874771118,2.2679946422576904,-0.05396880581974983,0,0,0,0.000,0,0
1739401603.4883337,0.5254654690575036,0.09603628721214169,-0.9531609548417075,-2.0690302904447093,0.13770134699017494,2.137592016490524,-1.2753633090879726,0.00101562986002473,0.0009738995496355396,0.000480725853271777,-0.0016730825635836786,-0.0007888253409764689,-0.000530206745011736,-0.00016787005220960557,0.2173345386981964,-21.84811782836914,-2.38179087638855,22.61603546142578,0.6673074960708618,2.2753188610076904,-0.027418512850999832,0,0,0,0.000,0,0
1739401603.4983888,0.5254654707169752,0.09603628717059123,-0.9531574359628023,-2.069026725090723,0.13770454784930275,2.1375943977072156,-1.2753659652503528,-0.00017805867309545257,0.0001356130833614238,0.0017234890482467698,0.0007011712788316066,0.0010168965523721192,-0.0004251754076721227,-0.00010866246857010691,0.2173345386981964,-21.84811782836914,-2.4095618724823,22.56842803955078,0.6673074960708618,2.2551772594451904,-0.0008682189509272575,0,0,0,0.000,0,0
1739401603.508468,0.5254654721099891,0.09603470377311464,-0.9531609758396971,-2.069026725090723,0.13770135578402132,2.1375943721974084,-1.2753607323578275,0.0003996744127668998,-0.00019566617134121264,0.0006662035553251244,-0.00036031495285732845,-0.00032756354987020385,6.079253523039494e-05,0.0007150321177541403,0.2173345386981964,-21.79654312133789,-2.38179087638855,22.56842803955078,0.6673074960708618,2.2551772594451904,-0.04023589566349983,0,0,0,0.000,0,0
1739401603.519418,0.5254646630457419,0.09603329202924024,-0.9531567608081464,-2.0690264782617405,0.13770285788625647,2.1375943977070713,-1.2753704530563081,0.0001173209446670763,-0.00032972914170423457,0.0016553783519698043,-0.0004511799780929379,-0.0005732389087423587,0.00023764164909642667,-0.0026416855990313145,0.2173345386981964,-21.79654312133789,-2.38179087638855,22.56842803955078,0.6544901132583618,2.2551772594451904,0.0064559997990727425,0,0,0,0.000,0,0
1739401603.531371,0.5254637565322242,0.09603628717462853,-0.953157407600387,-2.069026688309125,0.13770490699217988,2.1375937636715854,-1.2753663305424925,-0.00015833737879691076,-9.85925397320641e-05,0.0006205670189248807,-0.0004182016932201976,0.0003064086685112368,-0.00014893007843872364,-0.000751743482075144,0.2411382496356964,-21.84811782836914,-2.4095618724823,22.56842803955078,0.6737161874771118,2.2615859508514404,-0.0008682189509272575,0,0,0,0.000,0,0
1739401603.542373,0.5254671815782366,0.09603626118913694,-0.9531558768746333,-2.069028854816111,0.13770138208335841,2.137594397707448,-1.275368506197038,0.00035272236553827156,0.0011172865277898046,0.00173280169714113,-0.001037596608932143,-0.000784107629841833,0.0009236686248161716,-0.0017582437709385552,0.1935308277606964,-21.84811782836914,-2.4333655834198,22.63983917236328,0.6673074960708618,2.2551772594451904,-0.0072769103571772575,0,0,0,0.000,0,0
1739401603.5533147,0.5254637565367741,0.09603795115315467,-0.9531606225385103,-2.069022420006293,0.13770146104012415,2.1375920164898266,-1.275362832380019,-0.00011617945313429033,0.0011837237458609414,-0.0011242109970528596,0.0016037409567136803,-0.00046838473349763467,-0.0007792494233762083,0.0014351663536942571,0.2411382496356964,-21.87192153930664,-2.35798716545105,22.54065704345703,0.6673074960708618,2.2753188610076904,-0.027418512850999832,0,0,0,0.000,0,0
1739401603.5633814,0.5254637653670919,0.09603799676804903,-0.9531591884298802,-2.0690267220929996,0.13770361570944398,2.1375951554238206,-1.2753614966158664,-0.0009777595604887539,6.646363342526591e-05,0.0009115347644093908,0.00045773673237227446,0.00044096899932166076,0.0006289304609486497,0.00012572250952695837,0.2411382496356964,-21.87192153930664,-2.4095618724823,22.56842803955078,0.6480814218521118,2.2487685680389404,-0.0072769103571772575,0,0,0,0.000,0,0
1739401603.5734026,0.5254600547986598,0.09603800099341098,-0.9531605429522436,-2.0690267250906724,0.1377028580486996,2.1375943978767973,-1.27536477832807,-0.001983345033087088,-0.00012462621387454673,-0.0002609199996179551,-0.00046265774418285455,-0.0009224822183096491,-0.0005461265442133705,2.4669803008445088e-05,0.2927129566669464,-21.87192153930664,-2.35798716545105,22.56842803955078,0.6544901132583618,2.2551772594451904,-0.020094294100999832,0,0,0,0.000,0,0
1739401603.5844214,0.5254617849800247,0.09603661541809218,-0.9531587502335379,-2.069027413855507,0.13770533849985245,2.1375962202471688,-1.2753624749424937,-0.0012079812881923204,7.177210752161211e-05,8.155995159885357e-06,0.00044047754825684004,-0.00015952047398583053,-0.00016424200598967505,0.0027963991207098555,0.2689092457294464,-21.84811782836914,-2.38179087638855,22.56842803955078,0.6608988046646118,2.2679946422576904,-0.05396880581974983,0,0,0,0.000,0,0
1739401603.5954154,0.5254610575669558,0.09604034335186909,-0.9531548964333845,-2.069026618040635,0.13770287318087132,2.137593640065979,-1.2753649056197838,-0.0015802507586939172,0.0011258244316698406,0.001663733123602609,0.0009408179514281896,-0.00030574124641188764,-0.0005692140908997402,0.00017777751142222591,0.2689092457294464,-21.89969253540039,-2.4333655834198,22.56842803955078,0.6544901132583618,2.2615859508514404,-0.0008682189509272575,0,0,0,0.000,0,0
1739401603.6063864,0.5254618120670818,0.09603800099411103,-0.9531606495034328,-2.069026750600328,0.13770572664272815,2.1375928823870587,-1.2753631884056342,1.3611100877647506e-05,-0.00033268399206760077,-0.00062609817407562,0.00028286065819234634,0.0018138754077363605,-0.0007380718463229773,-0.0008859396892362293,0.2689092457294464,-21.87192153930664,-2.35798716545105,22.56842803955078,0.6673074960708618,2.2679946422576904,-0.027418512850999832,0,0,0,0.000,0,0
1739401603.6173115,0.5254654955487604,0.09603724069787692,-0.9531618377383708,-2.069028791385219,0.1376998273247884,2.1375937636715854,-1.2753623196400405,0.0012540945847953695,0.0005479784812244315,-0.0011096085690759333,-0.0012469608985014413,-0.002259053151529968,-0.0004170074788548336,0.0005546167114234776,0.2173345386981964,-21.84811782836914,-2.38179087638855,22.56842803955078,0.6801248788833618,2.2615859508514404,-0.020094294100999832,0,0,0,0.000,0,0
1739401603.6274586,0.5254637565372228,0.09603837936513634,-0.9531606226850818,-2.0690257361301283,0.1377013427285415,2.1375951553693873,-1.2753642745134652,-0.0005899637748413333,0.0011583877155091414,-0.0006307427982663034,0.0010907931949163466,-0.0012020799425713784,-0.00012951401144755819,-0.0005723529799712722,0.2411382496356964,-21.84811782836914,-2.35798716545105,22.56842803955078,0.6673074960708618,2.2487685680389404,-0.027418512850999832,0,0,0,0.000,0,0
1739401603.6383162,0.5254637653670919,0.09603256795182069,-0.9531612700789989,-2.0690224201601914,0.13770285983636268,2.1375943978767964,-1.2753655782728004,0.0004842400169167744,-0.0008629037870739177,0.00014002293816531096,0.001158766409922727,-0.00041579849547645353,-0.00014781955805833513,-0.0011420640006781083,0.2411382496356964,-21.79654312133789,-2.35798716545105,22.54065704345703,0.6544901132583618,2.2551772594451904,-0.013685601763427258,0,0,0,0.000,0,0
1739401603.6483462,0.525467499469825,0.09603458343914768,-0.9531612681946043,-2.0690246439065376,0.1377065325127167,2.137592869305109,-1.2753604451663203,0.0006408781643267591,0.0002847029915892228,-0.0009309896874221828,0.0005823759008918016,0.0015407676791287968,-0.0007062944737423178,0.0011109733696420938,0.1935308277606964,-21.82431411743164,-2.38179087638855,22.54065704345703,0.6544901132583618,2.2679946422576904,-0.04756011441349983,0,0,0,0.000,0,0
1739401603.6583924,0.525463756651174,0.09603257670915513,-0.9531587620517855,-2.0690285191054105,0.13770501546709218,2.1375943977069936,-1.2753719735428224,0.0002839654605790432,-0.0006498677992387888,-0.00026085392506124925,-0.0005032939359908359,0.0016623836021597614,-0.0002948741646118811,-0.00206269808899647,0.2411382496356964,-21.79654312133789,-2.38179087638855,22.59223175048828,0.6673074960708618,2.2551772594451904,0.012864691205322742,0,0,0,0.000,0,0
1739401603.6683986,0.5254617327045593,0.09603457464985936,-0.9531612700785944,-2.0690227261786696,0.13770500413189457,2.1375951553672934,-1.275362066404646,-0.0014196542978908919,-0.0008165797288290008,0.0008349014574075475,0.000245256698249491,-0.0008091694299206761,0.0008510100696902167,-0.00031976915987234065,0.2689092457294464,-21.82431411743164,-2.35798716545105,22.54065704345703,0.6673074960708618,2.2487685680389404,-0.03382720425724983,0,0,0,0.000,0,0
1739401603.679319,0.5254616505058459,0.09602957819179019,-0.9531587619023678,-2.0690267250798895,0.13770342944689157,2.137593640103664,-1.27536131253432,-0.0008832575958532022,-0.0017385153448170152,-0.000570550611030276,-0.0007745468075523177,-0.0017956357215000887,-0.00023836045757015412,-2.5103082675489346e-05,0.2411382496356964,-21.74496841430664,-2.38179087638855,22.56842803955078,0.6737161874771118,2.2615859508514404,-0.04023589566349983,0,0,0,0.000,0,0
1739401603.689335,0.5254637560731186,0.09603628718264737,-0.953159487845713,-2.0690290866441274,0.13770380340103644,2.1375943977072165,-1.2753661026305414,-4.271708384642704e-05,-1.580280376093599e-05,0.00023483072746520033,-0.0007919349117746512,0.00015215520569689881,-0.0008278921873674831,1.5736003061118985e-05,0.2411382496356964,-21.84811782836914,-2.38179087638855,22.59223175048828,0.6737161874771118,2.2551772594451904,-0.027418512850999832,0,0,0,0.000,0,0
1739401603.6994193,0.5254654690574975,0.09603640143326711,-0.953160895347463,-2.0690267251005263,0.1377067251322736,2.137594562539813,-1.2753645694871756,0.00018377410079869775,0.000817085870423543,-0.0011147848538970652,0.0008886290169365357,0.0011150309121059556,0.0004575088715745385,0.00027778521067836723,0.2173345386981964,-21.84811782836914,-2.35798716545105,22.56842803955078,0.6608988046646118,2.2551772594451904,-0.04023589566349983,0,0,0,0.000,0,0
1739401603.71038,0.5254671815782366,0.09603799983664882,-0.9531566011113094,-2.0690270312084045,0.13770240885300056,2.13759364055681,-1.2753614879114512,0.0004996398794896381,0.00015687619980786429,0.0013281397978861826,-0.0005425093579278205,0.0003027374957035807,0.000570394228756011,0.0007380397173469051,0.1935308277606964,-21.87192153930664,-2.4095618724823,22.56842803955078,0.6673074960708618,2.2615859508514404,-0.04023589566349983,0,0,0,0.000,0,0
1739401603.7203894,0.5254637594802134,0.09603439361933165,-0.9531587948743556,-2.069027331444392,0.13770215728692364,2.1375951553673023,-1.2753652676500713,0.00012034283202308669,-0.0006233054929692081,-0.0004884182247993661,-0.00030480985911322247,-0.0002576766579387023,0.0008807143936210514,-0.00015320304641539955,0.2411382496356964,-21.84811782836914,-2.38179087638855,22.56842803955078,0.6608988046646118,2.2487685680389404,-0.0008682189509272575,0,0,0,0.000,0,0
1739401603.730407,0.525459652565189,0.09604018071518369,-0.9531606225225155,-2.0690287373662724,0.1377025273012889,2.1375951568935214,-1.275363692250019,-0.0008687219329666997,0.00023161243464454685,-0.0005110517889871473,-0.0005058243089156118,0.0003151007233158456,0.0005472978000179605,-0.0006426872341234371,0.2689092457294464,-21.87192153930664,-2.35798716545105,22.59223175048828,0.6673074960708618,2.2487685680389404,-0.020094294100999832,0,0,0,0.000,0,0
1739401603.741311,0.525465469670105,0.09603802610811413,-0.9531634685737451,-2.0690285077690382,0.13770361701558298,2.137593682781523,-1.2753596894736516,-0.0005160605171575408,0.0004908496339647655,-0.0004698840570540745,5.4463301061387934e-05,0.0009135932139462653,-0.0003445594876856497,0.0016279740644720964,0.2173345386981964,-21.87192153930664,-2.35798716545105,22.59223175048828,0.6480814218521118,2.2615859508514404,-0.05396880581974983,0,0,0,0.000,0,0
1739401603.751326,0.5254654690575158,0.09603469216833,-0.9531587589498769,-2.0690270567182116,0.13770285788620673,2.13759201649055,-1.275362013491749,-8.170037889144931e-05,0.0008050786126034581,0.00012453141981471402,8.503808228656846e-05,5.521334145503409e-05,-0.000921741180336745,0.0006311249104314137,0.2173345386981964,-21.82431411743164,-2.38179087638855,22.56842803955078,0.6544901132583618,2.2753188610076904,-0.07411040365695953,0,0,0,0.000,0,0
1739401603.76133,0.5254617585959213,0.09603628717258071,-0.9531569222772965,-2.069029505665282,0.137703372733679,2.1375936400471374,-1.2753636920225766,-0.00045092481523878615,-0.001223289365945785,0.0008308791846276493,-0.0007353944461614238,-0.00036379239761363265,-0.00067260820782918,0.00047265071926365647,0.2689092457294464,-21.84811782836914,-2.4095618724823,22.56842803955078,0.6544901132583618,2.2615859508514404,-0.020094294100999832,0,0,0,0.000,0,0
