IITGN-Robotics/Franka_IITGN_ROBOTICS/franka_ros/franka_iitgn/data/b_28.csv
time,fr3_joint1_pos,fr3_joint2_pos,fr3_joint3_pos,fr3_joint4_pos,fr3_joint5_pos,fr3_joint6_pos,fr3_joint7_pos,fr3_joint1_vel,fr3_joint2_vel,fr3_joint3_vel,fr3_joint4_vel,fr3_joint5_vel,fr3_joint6_vel,fr3_joint7_vel,fr3_joint1_eff,fr3_joint2_eff,fr3_joint3_eff,fr3_joint4_eff,fr3_joint5_eff,fr3_joint6_eff,fr3_joint7_eff,flexpin1,flexpin2,flexpin3,Force,ContactMic,ContactMic_gt
1739401636.9178634,0.5254809810482838,0.09589485962827231,-0.9531860656107012,-2.0690643469480237,0.13770293537546807,2.137573802359644,-1.2753366154398798,0.00038883175474762124,0.0022118474276405006,-0.0001892898987621672,0.00047320131258529947,0.0016049877009345326,0.00024737037057773117,0.0010444055528017666,0.1935308277606964,-21.72116470336914,-2.35798716545105,22.51685333251953,0.6673074960708618,2.2679946422576904,-0.04756011441349983,,,,,,,,,
1739401636.9288766,0.5254768908859474,0.09591557982888718,-0.9531882261568542,-2.069069992600503,0.1377029885181384,2.1375769515346392,-1.2753357418508733,0.000363313023345787,0.0022481320792644174,-0.0007625030483025305,-4.523198621418699e-05,-0.000905610577108333,0.00038313620833805976,0.0018705253468394888,0.2411382496356964,-21.74496841430664,-2.3302161693573,22.59223175048828,0.6938577890396118,2.2817275524139404,-0.06678618490695953,,,,,,,,,
1739401636.9399052,0.5254721508175988,0.09593380886267028,-0.9531885200349823,-2.0690733304543323,0.13770533606169677,2.137577709921526,-1.2753424827532922,0.00021676007754960723,0.0017956486798613312,-0.0009880136165732049,0.0012631207097024062,6.417679947802757e-06,0.000127746410046795,-0.001239296410189131,0.2689092457294464,-21.77273941040039,-2.3302161693573,22.59223175048828,0.6801248788833618,2.2753188610076904,-0.0072769103571772575,,,,,,,,,
1739401636.9499073,0.5254750654187924,0.09594987873367525,-0.9531923740802073,-2.0690763519555095,0.1377045478796233,2.1375800925924446,-1.275345257005081,-1.0464840473649079e-05,0.0019447958722457535,-0.0023904665332324347,0.00013802187183011927,-0.00048161827563494283,-0.00025096335234542876,-0.0020745693878994366,0.2173345386981964,-21.84811782836914,-2.3064124584198,22.59223175048828,0.6938577890396118,2.2551772594451904,-0.013685601763427258,,,,,,,,,
1739401636.9599078,0.5254750654053145,0.09596239202283949,-0.953181596887526,-2.0690743604571105,0.13770374979999173,2.1375840982165473,-1.2753425892991022,0.0006938485991808129,0.0017665162584723521,0.0009483308497673267,-0.0006810646525102514,-0.001982369557918381,0.0013431319053925784,-0.0014643513261021167,0.2173345386981964,-21.84811782836914,-2.4095618724823,22.59223175048828,0.6865335702896118,2.2615859508514404,-0.04023589566349983,,,,,,,,,
1739401636.970877,0.5254750683487536,0.09597260963817107,-0.9531804910973545,-2.0690707817838,0.13770574872140534,2.1375801667294203,-1.2753452586879293,3.691317311284379e-05,0.0012150203998478634,0.000714200834364384,0.0018863326108508904,0.0001811924249131292,0.0002469086042081349,-0.00035111820012499284,0.2173345386981964,-21.89969253540039,-2.4333655834198,22.51685333251953,0.6801248788833618,2.2679946422576904,-0.013685601763427258,,,,,,,,,
1739401636.9809031,0.5254746728764597,0.0959808726009241,-0.9531758649829823,-2.06907821257911,0.13770442795054705,2.1375836833730113,-1.2753391495372026,-0.001192920291947344,0.0033596630832359352,0.0012315362961008794,-0.0004555979077590764,-0.001369201229276237,0.0005415859825590637,-0.0001316501909810865,0.1935308277606964,-21.92349624633789,-2.48494029045105,22.61603546142578,0.6938577890396118,2.2551772594451904,-0.06678618490695953,,,,,,,,,
1739401636.9918292,0.5254756833393314,0.09598048791405651,-0.9531773092470783,-2.069078212684139,0.13770778046136026,2.137583345637247,-1.2753452746699665,-0.00021652522053158108,-3.348750714456507e-05,-0.0003018065698060126,0.0008073403742894444,-0.0016155014811812382,-0.0005972782853935939,1.5379525255660923e-05,0.1697271168231964,-21.87192153930664,-2.4333655834198,22.61603546142578,0.6938577890396118,2.2679946422576904,-0.013685601763427258,,,,,,,,,
1739401637.001848,0.5254767778785069,0.09599349175833062,-0.9531773198806996,-2.069081299265787,0.13770436123613863,2.1375809644265056,-1.2753491441815623,0.00023688395784315659,0.0002668270237870863,-0.0001821542430375833,-0.0001587174328900052,-0.001231150012507112,5.571279032069655e-05,-0.0015701914505747237,0.1935308277606964,-21.92349624633789,-2.4333655834198,22.61603546142578,0.6865335702896118,2.2881362438201904,-0.013685601763427258,,,,,,,,,
1739401637.0118988,0.5254724168709018,0.09599686721683413,-0.9531829493262942,-2.069078727158897,0.13770618529563097,2.137581722086584,-1.2753460150699296,-0.000585153079273504,0.00040516718392495155,-0.0004843912682079539,7.05670102314265e-05,-0.0005436798923037119,-0.0003678258505121969,6.065340856888394e-05,0.2411382496356964,-21.92349624633789,-2.35798716545105,22.56842803955078,0.6801248788833618,2.2817275524139404,-0.0072769103571772575,,,,,,,,,
1739401637.0219119,0.5254733528370287,0.09599526434070006,-0.9531801949665399,-2.06908320463592,0.13770866576907637,2.1375824797466625,-1.2753397371314463,-0.0009669281142232213,0.0005848683277461386,-0.0005667156707542301,-0.0004297683542621186,0.0005769428660951001,0.00019698228992275863,0.002454614623246397,0.2411382496356964,-21.89969253540039,-2.4333655834198,22.63983917236328,0.6865335702896118,2.2753188610076904,-0.06037749722599983,,,,,,,,,
1739401637.033858,0.5254736447399759,0.09599370743343937,-0.9531819209745397,-2.0690798682041236,0.13771262243045163,2.1375824797466625,-1.2753405079093576,-0.00033608005993349913,-0.0014839180000643544,-0.0015759260461632638,-0.0002307706088734893,0.0008101514216494853,-0.0003120734829342677,0.0010913923257917213,0.2411382496356964,-21.84811782836914,-2.38179087638855,22.59223175048828,0.6801248788833618,2.2753188610076904,-0.05396880581974983,,,,,,,,,
1739401637.043976,0.5254733519232535,0.09599031196801382,-0.9531811731944207,-2.0690759141276045,0.1377092664597368,2.1375841170319476,-1.2753469338907115,-0.000635215935186344,5.797311496863987e-06,0.0006752887932610067,0.00034926708501317445,-4.0500896313828505e-05,0.0009074490261691239,-0.001696801727466513,0.2411382496356964,-21.79654312133789,-2.38179087638855,22.54065704345703,0.6801248788833618,2.2615859508514404,-0.0008682189509272575,,,,,,,,,
1739401637.0558982,0.5254733883512036,0.09599224283838588,-0.9531822033939363,-2.069077829423507,0.13770866154480713,2.1375841033040506,-1.275345563781247,-0.0003289563479750378,-0.00030305694697113476,0.0006310717043124164,-0.0006555743757488532,-0.0006185821143811218,-0.0002957201553403246,-0.0001930198260040088,0.2411382496356964,-21.82431411743164,-2.38179087638855,22.56842803955078,0.6865335702896118,2.2615859508514404,-0.020094294100999832,,,,,,,,,
1739401637.0659056,0.5254733646585402,0.09599079573213283,-0.9531858258353174,-2.069079529344137,0.1377086659335742,2.1375841033039733,-1.275345257232411,0.00041964535063375815,0.0009178900395925095,-7.147060618394294e-05,-0.0021495830147811182,0.00027582967459422825,-0.00012757568745179796,0.0007955858545933182,0.2411382496356964,-21.79654312133789,-2.35798716545105,22.59223175048828,0.6865335702896118,2.2615859508514404,-0.013685601763427258,,,,,,,,,
1739401637.0768356,0.5254723387628311,0.0959862227248668,-0.9531861715362901,-2.0690755903473743,0.13771120069512338,2.1375872880863973,-1.2753390972632044,-0.0006454627685751818,-0.0009794753041371112,-0.0003790957293713014,-5.4604630126470514e-05,0.0007434286913574634,0.0004850709962381372,0.002148977012938407,0.2411382496356964,-21.77273941040039,-2.35798716545105,22.54065704345703,0.6801248788833618,2.2615859508514404,-0.06678618490695953,,,,,,,,,
1739401637.0869381,0.5254722569917564,0.09598994732334874,-0.9531814484017507,-2.0690827435754406,0.13770938273018524,2.137584861125855,-1.2753443293871654,-0.0010341640375049876,0.00014856727754203694,0.00044027382234443694,-0.002563431223732168,-0.00011411682234110197,-0.000921267787304747,0.0009441808982552956,0.2173345386981964,-21.82431411743164,-2.38179087638855,22.59223175048828,0.6801248788833618,2.2551772594451904,-0.06037749722599983,,,,,,,,,
1739401637.0969436,0.5254750563660092,0.09598834817576862,-0.9531861714126264,-2.069073875714652,0.1377109389136033,2.1375855616993875,-1.2753435894214338,0.000566963809366614,0.0008585842716026327,-0.00045702100502457207,0.0003086976622047342,0.0005327104029138371,0.00011262035487620342,-0.0010809826872901847,0.2173345386981964,-21.77273941040039,-2.35798716545105,22.51685333251953,0.6673074960708618,2.2615859508514404,-0.04023589566349983,,,,,,,,,
1739401637.1078582,0.5254723385486166,0.0959872951158658,-0.9531812894560304,-2.069074748523606,0.13771022610789366,2.1375842210662412,-1.2753498884239056,-0.001828772223206509,-0.00022904090983184118,0.0001706643816261544,0.0009094979681219175,0.0006360910551033545,9.916741247517228e-06,-0.0012629324902043763,0.2411382496356964,-21.74496841430664,-2.38179087638855,22.54065704345703,0.6737161874771118,2.2615859508514404,-0.013685601763427258,,,,,,,,,
1739401637.1198633,0.5254750567247236,0.09599292134148724,-0.9531800563897025,-2.0690795293419417,0.13770772696760103,2.137583350058602,-1.2753412712290513,-4.721163123738912e-05,0.0011918803251116205,0.00113755397441499,-0.00030789647677826264,-0.00112511781612465,0.0004284966364140563,0.0012674034300563658,0.2173345386981964,-21.82431411743164,-2.4095618724823,22.59223175048828,0.6673074960708618,2.2679946422576904,-0.04756011441349983,,,,,,,,,
1739401637.1298897,0.525476543746939,0.09599196774836868,-0.9531822292950808,-2.069079529494408,0.1377101817231691,2.13758334585926,-1.2753463771963953,0.0005687032786577898,-0.0010278707102972487,5.735880345748642e-05,-0.00021996507971261593,9.842868174941049e-05,-0.0007081049747214366,-0.00042398416654113947,0.1935308277606964,-21.82431411743164,-2.4095618724823,22.59223175048828,0.6737161874771118,2.2679946422576904,-0.013685601763427258,,,,,,,,,
1739401637.1409056,0.5254722457002277,0.09599645513990877,-0.9531841225703671,-2.0690795578332555,0.13771093891383665,2.13758445667819,-1.2753433868573854,-0.000764616999627055,0.0007131131136991682,-0.00045076201913508377,0.00017747534097975446,0.0007954700775778148,-0.0009998573806277561,-0.000875905870390252,0.2173345386981964,-21.87192153930664,-2.38179087638855,22.59223175048828,0.6673074960708618,2.2615859508514404,-0.03382720425724983,,,,,,,,,
1739401637.1518445,0.5254730917630563,0.09599733226609172,-0.9531858526974851,-2.069081559722284,0.13771018125375567,2.137587625063309,-1.2753448908206273,-0.0005417953259857543,-0.0005882650547242425,-0.0017071552148071683,-0.000633307568380919,0.00011272619780647322,0.0006001089519381078,0.0009974602331714847,0.2411382496356964,-21.92349624633789,-2.35798716545105,22.61603546142578,0.6737161874771118,2.2679946422576904,-0.05396880581974983,,,,,,,,,
1739401637.1628287,0.5254764657783305,0.09599916358637749,-0.9531790934178966,-2.069077749832626,0.13771165274903596,2.137584889322308,-1.2753437457251628,0.0009470415511662061,0.0010957785103333593,0.0014048442858469138,0.0006757287400564439,0.0002224718497527922,-0.0009314128196005854,0.000913883432869043,0.1935308277606964,-21.89969253540039,-2.4095618724823,22.56842803955078,0.6608988046646118,2.2679946422576904,-0.06678618490695953,,,,,,,,,
1739401637.1728764,0.5254733498833682,0.09599948340144905,-0.9531818884459703,-2.069083538617461,0.1377086678830367,2.137585671769145,-1.2753471669699474,2.04957655344925e-05,0.0018010724500289212,0.00045354458259538617,-0.0002781850200350015,-0.00016785107391810916,-0.001089536698371435,-0.0004980391249572286,0.2411382496356964,-21.89969253540039,-2.38179087638855,22.61603546142578,0.6865335702896118,2.2753188610076904,-0.03382720425724983,,,,,,,,,
1739401637.182938,0.5254713201695084,0.09599716556004348,-0.9531836618257218,-2.0690820551617337,0.13771018775438837,2.1375825192080815,-1.2753450292156894,-0.0007841873987214001,-0.0007041160999497623,-0.0010939406914931339,0.00019101971485139938,0.0006990763704870451,-0.002473071256137218,-0.0001477944543018426,0.2689092457294464,-21.87192153930664,-2.38179087638855,22.61603546142578,0.6737161874771118,2.2753188610076904,-0.020094294100999832,,,,,,,,,
1739401637.1948962,0.525476064359864,0.09599859781596848,-0.9531832983013662,-2.0690820573139304,0.13771018125379236,2.1375838926515596,-1.2753476422031509,0.0008368606386567907,0.0014426307447984702,-0.00023708606020466738,-0.0006263412434587019,-0.0016525508036465374,-0.0017359762794495694,0.0003385243330196611,0.1935308277606964,-21.87192153930664,-2.35798716545105,22.61603546142578,0.6737161874771118,2.2753188610076904,-0.03382720425724983,,,,,,,,,
1739401637.2058787,0.5254733403645389,0.0959930311908154,-0.9531861450782209,-2.069079558173819,0.13771053667404487,2.137588459596719,-1.2753406697110299,0.0008224642517440435,-0.0005330971192416825,-0.0006912906869083362,0.0009849974719794053,0.000583977456556733,0.0012989417277946363,0.0012573677719994792,0.2411382496356964,-21.82431411743164,-2.35798716545105,22.59223175048828,0.6737161874771118,2.2615859508514404,-0.05396880581974983,,,,,,,,,
1739401637.2158794,0.5254739697777933,0.0959930305372451,-0.9531812626375824,-2.0690777480237856,0.13771444630324534,2.137583481543864,-1.2753515408403517,0.0019692683706199494,0.0004045396113434958,0.00015886523716543134,0.0003880423624310175,0.0014335854533309138,-0.0011262279492033382,-0.0018600574954312442,0.1935308277606964,-21.82431411743164,-2.38179087638855,22.56842803955078,0.6737161874771118,2.2679946422576904,-0.0008682189509272575,,,,,,,,,
1739401637.226835,0.5254702026141815,0.09599302632420582,-0.9531822431127017,-2.069077783409178,0.13771093877539534,2.1375847778761705,-1.2753444996888177,-0.0014738990598009464,0.0004710733118518421,-0.0002983968986665745,-0.0012958274302701973,-0.00010884010175074452,-2.925761800742484e-05,0.0005974707974240631,0.2411382496356964,-21.82431411743164,-2.38179087638855,22.56842803955078,0.6673074960708618,2.2679946422576904,-0.06037749722599983,,,,,,,,,
1739401637.2368844,0.5254733267238555,0.09598732180994773,-0.9531851382820491,-2.0690761409825105,0.1377085474601669,2.1375874004647026,-1.2753484020404664,0.0009944928662614888,-0.0011970810793965774,-0.0007869115664169929,0.00048321530419972644,-0.0013624097428293663,0.0005326716548892604,-0.0005110768705935066,0.2411382496356964,-21.74496841430664,-2.35798716545105,22.51685333251953,0.6865335702896118,2.2615859508514404,-0.027418512850999832,,,,,,,,,
1739401637.2479045,0.5254767649792066,0.09599104993828977,-0.9531861627384299,-2.0690756668895345,0.13770942814342832,2.137585651407433,-1.2753445055030193,0.0009241775181426981,0.00041532729150696836,-0.00012309971805683702,0.000612989838689678,-0.0012609597306328004,-0.0002636810923143946,0.00170680317414069,0.1935308277606964,-21.79654312133789,-2.35798716545105,22.54065704345703,0.6801248788833618,2.2615859508514404,-0.06037749722599983,,,,,,,,,
1739401637.2579134,0.5254743286206635,0.09598900491142548,-0.9531801267108782,-2.069077746666651,0.1377120095626835,2.1375840689878154,-1.2753441913215613,0.00011327403501993662,-0.0009252463344270948,0.0006265400035274017,0.0010742511189211616,0.0006592816513196411,-0.0007694391881416594,0.0013161139754900514,0.2173345386981964,-21.77273941040039,-2.4095618724823,22.56842803955078,0.6673074960708618,2.2753188610076904,-0.06678618490695953,,,,,,,,,
1739401637.2679307,0.5254723359683534,0.09598732050859944,-0.9531815937059932,-2.069081312020689,0.1377133405633469,2.137585973118409,-1.2753468911975856,0.0008322651726666881,-0.0019867446646757237,-0.00012670517031402467,-0.001297275912169063,-0.00032899383787491265,-0.0014936154937742333,0.002732567271959961,0.2411382496356964,-21.74496841430664,-2.4095618724823,22.61603546142578,0.6737161874771118,2.2551772594451904,-0.04023589566349983,,,,,,,,,
1739401637.278831,0.5254722485732591,0.09599300396676222,-0.9531811791194541,-2.0690756668767953,0.1377109389673372,2.13758886967557,-1.2753516480871847,-0.001348926669560761,0.0005532412934900274,-0.00014563231885220674,0.0017828933044824126,-0.0006074592773195272,0.001005873076138945,-0.0018078168139839018,0.2173345386981964,-21.82431411743164,-2.38179087638855,22.54065704345703,0.6673074960708618,2.2615859508514404,-0.013685601763427258,,,,,,,,,
1739401637.2889001,0.5254712454112672,0.09599432935476813,-0.9531811742077181,-2.0690795323961253,0.13771018125375595,2.1375881133694428,-1.2753446798291914,0.00022727147706826009,0.00024583089950800687,-0.0005051244883778224,-0.00014772755338745536,0.0010526248605153645,0.00032320456704481193,-0.00027281727203628484,0.2411382496356964,-21.87192153930664,-2.38179087638855,22.59223175048828,0.6737161874771118,2.2679946422576904,-0.06037749722599983,,,,,,,,,
1739401637.2998376,0.5254721416524669,0.09599837444576569,-0.9531835908803294,-2.0690795323961426,0.13771172308766386,2.1375892735762196,-1.2753437523140323,-0.0002591224184617262,0.0003062638785645004,-0.0007358454955428762,0.00023675852355768278,0.0018639218522843268,-0.0009570527320192648,0.0006027600836406318,0.2173345386981964,-21.89969253540039,-2.38179087638855,22.59223175048828,0.6737161874771118,2.2487685680389404,-0.06678618490695953,,,,,,,,,
1739401637.3108633,0.5254704395058803,0.09599785864934943,-0.9531843081120017,-2.069083094810779,0.1377109390850527,2.137587128920839,-1.2753468867204334,-0.0006456812357542586,0.001498975999357716,-0.0007512625794397647,-0.0007084899255386228,0.0016769242403465083,0.0004471248174234329,0.00043984323573084065,0.2411382496356964,-21.84811782836914,-2.38179087638855,22.63983917236328,0.6673074960708618,2.2753188610076904,-0.04023589566349983,,,,,,,,,
1739401637.32087,0.5254747259600688,0.0959993230931818,-0.9531859200726811,-2.0690843078361993,0.13771380759812551,2.137587760800748,-1.2753516615991516,0.00016694962530740032,-0.00035996370911004443,0.0002821990264528035,-0.0012396461611356173,0.0027238225148022988,-0.000358239721430351,-0.0004985797834131769,0.2173345386981964,-21.87192153930664,-2.35798716545105,22.61603546142578,0.6801248788833618,2.2679946422576904,-0.0008682189509272575,,,,,,,,,
1739401637.3308883,0.5254701951701295,0.09599610817864682,-0.9531843888933023,-2.069079652962326,0.13771018132799917,2.1375872481122626,-1.2753485233857909,-0.0010126380874998344,-0.0009705622600582752,-0.00027748519797104494,-1.9338890807140492e-05,0.00036716119011816087,0.0002806298685196768,0.0005968116809013265,0.2411382496356964,-21.82431411743164,-2.38179087638855,22.59223175048828,0.6737161874771118,2.2753188610076904,-0.027418512850999832,,,,,,,,,
1739401637.3409138,0.5254749484036266,0.09599497954820223,-0.9531811834922201,-2.069076024129238,0.13771448643843073,2.137587246664694,-1.2753441282637614,0.0009925166228034242,-0.0013064352543468885,0.0002533389679756427,0.0010253548174910547,-0.00014715350625544408,0.00042295674574403444,-0.00055510713832053,0.2173345386981964,-21.84811782836914,-2.38179087638855,22.54065704345703,0.6737161874771118,2.2753188610076904,-0.06678618490695953,,,,,,,,,
1739401637.351901,0.5254749484207766,0.09599516508542925,-0.9531812500830656,-2.0690799720594772,0.1377101817656035,2.137585717529827,-1.2753524068175224,0.0013056755561040275,-0.0009071121745842429,0.0012549349004027529,0.0013028921363872326,-0.001027346013441633,-0.0008759308834534016,-0.0030078041911328506,0.2173345386981964,-21.82431411743164,-2.38179087638855,22.56842803955078,0.6737161874771118,2.2753188610076904,0.0064559997990727425,,,,,,,,,
1739401637.3619084,0.5254758331365926,0.09599408642546797,-0.9531833959242324,-2.069075749782997,0.13770942424374594,2.137589629309713,-1.2753413608117912,0.0009668643428767833,0.00018422759113449088,0.0013477644213073057,0.0005777866149192317,-0.0019111321269791258,0.0006269535034825354,0.002915229518024127,0.1935308277606964,-21.82431411743164,-2.38179087638855,22.54065704345703,0.6801248788833618,2.2551772594451904,-0.08692778646945953,,,,,,,,,
1739401637.3728242,0.5254719325040172,0.0959893502978512,-0.953179170076456,-2.069078763587957,0.13771276717714984,2.137589629335633,-1.2753470062305305,-5.545124254640205e-05,-0.0009985635041225532,0.0017910624641153167,-4.596987004590836e-05,-0.0006241382094273489,0.00023831557006964908,0.0018365425006883554,0.2173345386981964,-21.77273941040039,-2.4095618724823,22.56842803955078,0.6801248788833618,2.2551772594451904,-0.06678618490695953,,,,,,,,,
1739401637.3829408,0.5254722544219892,0.09599506718620997,-0.9531833278971782,-2.06907467200007,0.13771170991901638,2.1375888716755553,-1.2753482261967297,0.0003963397849786276,0.0006725444294742127,0.0012371173528422169,0.0009631865139208532,-0.0007362729499763258,0.0007374582121322812,-0.0009663877196790236,0.2173345386981964,-21.84811782836914,-2.38179087638855,22.54065704345703,0.6608988046646118,2.2615859508514404,-0.020094294100999832,,,,,,,,,
1739401637.3939214,0.5254747148658043,0.09598942931101974,-0.9531821367244822,-2.069079639226452,0.13771339536701493,2.137590386995712,-1.275347766091629,0.0005918006732890043,-0.0003155894290229137,1.9166570215937645e-05,-0.0001268634201024208,0.0007898898455523697,0.00121574028078378,-0.00046702224523055547,0.2173345386981964,-21.77273941040039,-2.38179087638855,22.59223175048828,0.6737161874771118,2.2487685680389404,-0.06037749722599983,,,,,,,,,
1739401637.40396,0.5254764273964673,0.09599016632263882,-0.9531855843203099,-2.069073884201637,0.1377141523772176,2.137585692761167,-1.275345104781339,0.002021304689715728,-7.07640698952342e-06,-0.0010924211248576256,0.0007430620558070812,0.0001719903736094992,-0.00041650168863372155,0.0006561967461485795,0.1935308277606964,-21.74496841430664,-2.35798716545105,22.51685333251953,0.6673074960708618,2.2615859508514404,-0.05396880581974983,,,,,,,,,
1739401637.4148872,0.5254742497617844,0.09599003102994046,-0.9531837481396179,-2.0690777470058124,0.13771059373494743,2.1375912929119196,-1.2753509041589035,0.0004241360876833691,-0.0005455203767148003,-0.000782153218114924,-6.129183471485558e-05,-0.0007712755156015945,-0.00021914532380708115,-0.001868088543443282,0.2173345386981964,-21.77273941040039,-2.35798716545105,22.56842803955078,0.6737161874771118,2.2679946422576904,-0.0072769103571772575,,,,,,,,,
1739401637.4248955,0.5254731185463575,0.09598735722282116,-0.9531861357762035,-2.069075914464859,0.1377122245921093,2.1375881156843675,-1.2753484035325013,0.0008240268666839697,-0.0022931342134888217,-0.00036263653712001454,5.6189544069671084e-05,0.0020471422059060917,-0.0005144475416560536,0.00038139841071821944,0.2411382496356964,-21.74496841430664,-2.35798716545105,22.54065704345703,0.6608988046646118,2.2679946422576904,-0.027418512850999832,,,,,,,,,
1739401637.434908,0.5254721446919896,0.09599319821423265,-0.9531864939465908,-2.0690787356664306,0.13771349851873038,2.1375885696975323,-1.275348522047,-0.0008532984423900168,0.00034405845746123567,-0.0008053558345571511,-0.00023707606542088525,-0.0008331329581863908,-0.00022207564959736498,0.0011529662618677702,0.2173345386981964,-21.79654312133789,-2.38179087638855,22.56842803955078,0.6737161874771118,2.2551772594451904,-0.05396880581974983,,,,,,,,,
1739401637.4458246,0.525474986924031,0.09599216127869177,-0.9531843613639944,-2.0690779940341844,0.1377113516122984,2.1375896293296517,-1.275350026168193,0.0013734634603167414,-0.0011437932256481234,0.0002200522139580776,0.0004205919795390611,0.002149561138217975,-0.00016373980974792327,-0.0008113728892659704,0.2173345386981964,-21.77273941040039,-2.38179087638855,22.56842803955078,0.6673074960708618,2.2551772594451904,-0.013685601763427258,,,,,,,,,
1739401637.4559166,0.525474793737463,0.09599501667937868,-0.9531860101755288,-2.0690813398361394,0.1377106572671586,2.1375896293356336,-1.2753507832580737,0.001443201262151112,-0.00029536050052157204,-0.00029625553228112867,-0.00019067960732053866,-0.0006890007473971798,-0.0003282608846192152,-0.0002831891516204928,0.2173345386981964,-21.84811782836914,-2.35798716545105,22.61603546142578,0.6737161874771118,2.2551772594451904,-0.0072769103571772575,,,,,,,,,
1739401637.4659405,0.5254713160990555,0.09599669245448395,-0.9531843093129522,-2.069084608673118,0.13771456477871732,2.1375896293356336,-1.2753437478433813,0.001038112124270136,-0.0007340703984102917,-0.00018905572224275007,-0.0009007121822862821,0.001106725745333094,5.712064709564554e-05,0.0006448637655032705,0.2689092457294464,-21.87192153930664,-2.38179087638855,22.61603546142578,0.6737161874771118,2.2551772594451904,-0.06678618490695953,,,,,,,,,
1739401637.4778936,0.5254686674263614,0.09599611217309593,-0.9531823086711916,-2.0690777559933653,0.1377124001650509,2.1375888716755553,-1.2753451856525306,-0.0009537926091017568,-0.0005503970786728078,0.0010474665583639783,0.0019844760996517185,0.0014791960578514449,0.0002178462148748763,0.0014888845253226354,0.2927129566669464,-21.82431411743164,-2.4095618724823,22.56842803955078,0.6673074960708618,2.2615859508514404,-0.05396880581974983,,,,,,,,,
1739401637.4879215,0.5254705087442303,0.09600165404008383,-0.9531851295970843,-2.069081782055894,0.13770989754981672,2.1375888716755553,-1.2753516604273751,0.0006188959448689182,0.0005011485632026534,-0.0009716421638220119,0.0009106581691810957,3.301970047710006e-05,-0.00021245230212848615,-0.001196974267654987,0.2411382496356964,-21.89969253540039,-2.35798716545105,22.59223175048828,0.6801248788833618,2.2615859508514404,-0.027418512850999832,,,,,,,,,
1739401637.4979324,0.5254753342948675,0.09599580383591598,-0.953184362279946,-2.0690838791739283,0.1377126771518593,2.137587287364101,-1.2753521790733826,0.0006411535129080008,-0.0003587981483853344,-0.0003095060637003001,-0.0008348590359710122,0.00047404656997430364,-0.0005730894131022551,4.1957122026664074e-05,0.1697271168231964,-21.84811782836914,-2.38179087638855,22.61603546142578,0.6801248788833618,2.2753188610076904,-0.027418512850999832,,,,,,,,,
1739401637.5088515,0.5254702025052196,0.0960009391931056,-0.9531820046752815,-2.069077747736312,0.13771245631088036,2.137586490458387,-1.2753501451289775,-0.0008307733570370699,0.0008905831723449093,-0.0010726527112443775,0.0018897835871618683,0.00028690766167387453,-0.0010581269139780449,0.00037639464476634264,0.2411382496356964,-21.89969253540039,-2.38179087638855,22.56842803955078,0.6544901132583618,2.2817275524139404,-0.04023589566349983,,,,,,,,,
1739401637.518923,0.525471906359288,0.09599570292622531,-0.9531812879984447,-2.069080280247745,0.13771145294879134,2.137591162098393,-1.2753481353025735,-0.0005633512321222503,-0.0005771197505941676,-0.00048351915843353134,0.00045200964092791444,-0.00039660566642602457,0.00117349989275123,-0.00027684187317331686,0.2173345386981964,-21.84811782836914,-2.38179087638855,22.59223175048828,0.6673074960708618,2.2423598766326904,-0.04023589566349983,,,,,,,,,
1739401637.5298266,0.525471906787131,0.09599422853280526,-0.9531833189593889,-2.0690796437669414,0.13771053733281008,2.1375888716758507,-1.275345252254352,-0.0005018575066809896,-0.0002371727478029975,0.000201270891253217,-0.0003773196379649785,-0.0006067333354080438,-0.00046154945859661826,0.0030362597163906572,0.2173345386981964,-21.79654312133789,-2.38179087638855,22.59223175048828,0.6737161874771118,2.2615859508514404,-0.05396880581974983,,,,,,,,,
1739401637.5398316,0.5254745224612158,0.09599426364665807,-0.9531853094090371,-2.0690759538082597,0.1377133800383687,2.1375896293356336,-1.2753471274082062,0.00019463411954860155,-0.00025163220504164095,-0.001203172007026414,0.0005706713001131941,-7.111067793008375e-05,9.446444648550423e-05,0.0012030244806315459,0.1935308277606964,-21.79654312133789,-2.3302161693573,22.54065704345703,0.6737161874771118,2.2551772594451904,-0.06678618490695953,,,,,,,,,
1739401637.5499344,0.525472608384704,0.09599551622343741,-0.9531829568530342,-2.0690779748771866,0.13771099227292333,2.1375888716755553,-1.2753525767142928,-0.0006048086703150587,0.0004957851721596662,0.00029179243426116124,-0.00048364286993385016,-0.00013476539000182615,-0.00019660656576286618,-0.0014187540472999128,0.2173345386981964,-21.82431411743164,-2.35798716545105,22.54065704345703,0.6673074960708618,2.2615859508514404,-0.027418512850999832,,,,,,,,,
1739401637.560906,0.5254736304395597,0.09599433346983981,-0.9531859200195634,-2.0690721015734703,0.13771169657421356,2.1375888324296985,-1.2753559272301118,-0.0004942231998041692,0.0005637484176431319,-0.0007340037537963874,0.0007646228258875573,6.457457775361646e-05,-0.00018329979825660824,-0.0025561202506113835,0.1935308277606964,-21.79654312133789,-2.35798716545105,22.49304962158203,0.6608988046646118,2.2615859508514404,-0.0008682189509272575,,,,,,,,,
1739401637.5709271,0.5254719179150613,0.09599230559581294,-0.9531852832832511,-2.069080688143607,0.1377144477598612,2.137588114014812,-1.27535135199203,-0.00039511156116471454,-0.0004936738078537011,-0.0003525041561132251,-0.0012171287937244582,-0.0006323430281690845,-0.000821242072528049,0.0004519675662149569,0.2173345386981964,-21.77273941040039,-2.3302161693573,22.56842803955078,0.6737161874771118,2.2679946422576904,-0.04023589566349983,,,,,,,,,
1739401637.5818968,0.525471129852156,0.09599422853339949,-0.9531882421219817,-2.069079538630695,0.13770870550299844,2.137591292768359,-1.2753548589813377,9.012497821885289e-05,0.0003807428235607965,-0.0010761226582157743,-0.0008039396322183712,-0.0020961808163568064,0.0007751262033549287,-0.002497944881272914,0.2411382496356964,-21.79654312133789,-2.35798716545105,22.59223175048828,0.6865335702896118,2.2679946422576904,-0.0008682189509272575,,,,,,,,,
1739401637.592854,0.5254683002359208,0.0959978338043044,-0.9531839374302399,-2.069077746666808,0.13771105803799383,2.137588871729388,-1.2753492681595322,-0.0006887330055985244,0.0004873306045461628,-0.001990513692970193,0.0008465097459408492,-0.0009721690466057232,0.00020618325970090908,-0.0017178860442599317,0.2689092457294464,-21.84811782836914,-2.35798716545105,22.56842803955078,0.6673074960708618,2.2615859508514404,-0.020094294100999832,,,,,,,,,
1739401637.6038492,0.525470194266596,0.0959964632742235,-0.9531836799551096,-2.069077748148913,0.13771413834672108,2.1375896293356336,-1.2753494896595368,-0.0004402743304335558,0.0003235394383118637,-0.0003565189508836456,0.0006906314353026532,0.0006734888570178316,0.00016402756828592268,-0.000551766846565038,0.2411382496356964,-21.82431411743164,-2.35798716545105,22.56842803955078,0.6673074960708618,2.2551772594451904,-0.027418512850999832,,,,,,,,,
1739401637.6138563,0.5254731087699112,0.09599611836458476,-0.9531875233115996,-2.0690807136534377,0.13771019447165275,2.137589485434159,-1.2753469016377172,0.0003073809187523607,-0.00023766514107894423,-0.0004658797705172285,0.0005828840714671682,-0.0010818014808505153,0.00016136790020271992,-0.00018144427863580552,0.2411382496356964,-21.82431411743164,-2.3302161693573,22.56842803955078,0.6737161874771118,2.2551772594451904,-0.04023589566349983,,,,,,,,,
1739401637.6238847,0.5254701948507515,0.0959972287417431,-0.9531832987655448,-2.069083454937705,0.13771389342144466,2.137588871673118,-1.2753556652028752,-0.0009340986398754065,-0.001019254188471314,0.0007102637438560551,-0.0013439342741118792,0.00043953625596231084,-0.00025383798504931596,-0.002024296931099957,0.2411382496356964,-21.84811782836914,-2.35798716545105,22.63983917236328,0.6737161874771118,2.2615859508514404,0.0064559997990727425,,,,,,,,,
1739401637.6338885,0.5254721413255555,0.09600164948181358,-0.953179340655081,-2.069084637620548,0.13771065373252356,2.1375888716755553,-1.275346350009534,0.0007889089033125326,0.0006363666247191524,8.531604782550072e-05,-0.0017021205197870213,-0.0006598030378464937,0.00017773159861742308,9.010478061452477e-05,0.2173345386981964,-21.89969253540039,-2.4095618724823,22.61603546142578,0.6801248788833618,2.2615859508514404,-0.05396880581974983,,,,,,,,,
1739401637.6439342,0.5254719077540871,0.09599804426021108,-0.9531811716681922,-2.0690798991993224,0.13771281032517238,2.137590386995712,-1.2753518828145536,0.0002467776592043846,-0.00020272860464892446,0.0005329490369225518,0.0010430566989012994,-0.0002975413555239032,0.0002170838468023293,-0.0020259483204489778,0.2173345386981964,-21.84811782836914,-2.38179087638855,22.59223175048828,0.6544901132583618,2.2487685680389404,-0.0072769103571772575,,,,,,,,,
1739401637.6549423,0.5254702368392793,0.09599988831647789,-0.9531796950544624,-2.0690807150121473,0.13771343269322642,2.1375888716755553,-1.2753471601099529,0.00022445122479583686,0.00023598654427679539,0.0005516012167892774,0.0007265611295899537,0.0008026442502473775,-1.0300455028678277e-05,0.0003574564564881484,0.2411382496356964,-21.87192153930664,-2.4333655834198,22.56842803955078,0.6737161874771118,2.2615859508514404,-0.04756011441349983,,,,,,,,,
1739401637.6659143,0.5254719063593839,0.09599770227070017,-0.9531773205845875,-2.0690798726297754,0.13771023836904425,2.1375888731291055,-1.2753520236486104,-0.000763439754173752,0.0003531302840041195,0.0007786024073368181,-0.0013967486694801338,-0.00019386783141304482,-0.00023015889670097432,-0.0016474984783170612,0.2173345386981964,-21.84811782836914,-2.4333655834198,22.59223175048828,0.6737161874771118,2.2615859508514404,-0.0008682189509272575,,,,,,,,,
1739401637.6769176,0.5254736188798724,0.09599965577376206,-0.9531812766466938,-2.069078744972281,0.13771482138215202,2.1375889894131332,-1.2753470208131434,0.0005739291216577665,0.00045809019082134806,-0.0008447361588977769,0.00028083923907597637,0.0007903972817559328,0.0006511810582807517,-0.00027996144225926953,0.1935308277606964,-21.87192153930664,-2.38179087638855,22.56842803955078,0.6737161874771118,2.2615859508514404,-0.04023589566349983,,,,,,,,,
1739401637.6878433,0.5254746588950734,0.09599793903228199,-0.9531801324349826,-2.0690782219384367,0.13771126514660786,2.137587248118909,-1.275350904920553,0.002055087606153688,-0.00033025797584560813,-7.223317267125408e-05,-0.00016406498516155347,-0.00021704642898519154,-0.000577289043904553,-0.0014359071879342525,0.1935308277606964,-21.84811782836914,-2.4095618724823,22.54065704345703,0.6737161874771118,2.2753188610076904,-0.03382720425724983,,,,,,,,,
1739401637.6978564,0.5254719064837513,0.09599635651372593,-0.9531794171962906,-2.069082062968016,0.13771338200489433,2.1375896293356336,-1.2753463493473975,-0.000533725954079048,-0.00039392595474775486,0.0009342499439559076,-0.0014321597056322869,-0.0007633147377681978,-0.0001586367995387456,0.0008948798832856958,0.2173345386981964,-21.79654312133789,-2.4095618724823,22.61603546142578,0.6737161874771118,2.2551772594451904,-0.05396880581974983,,,,,,,,,
1739401637.7079244,0.5254735936728906,0.09599491388751663,-0.9531851105792812,-2.0690788211437097,0.137714181792205,2.137590386995712,-1.2753484065286265,-0.00021425689782881977,0.00029173670804580234,0.00017048702610349427,0.0005865124874115307,-0.0001623414356136249,0.0011485658128404753,0.00037045963465726474,0.1935308277606964,-21.79654312133789,-2.35798716545105,22.56842803955078,0.6673074960708618,2.2487685680389404,-0.027418512850999832,,,,,,,,,
1739401637.7189822,0.5254688979433412,0.09599328444596314,-0.9531801652059506,-2.0690756679003455,0.13771146986862157,2.13758978631906,-1.2753543701143413,-0.0019572297289417563,-0.001360433400944125,7.198531982698477e-05,0.0011425235814613473,0.0003869604241399627,0.0001711413561793563,-0.00035916620015918963,0.2689092457294464,-21.79654312133789,-2.4095618724823,22.54065704345703,0.6673074960708618,2.2551772594451904,-0.013685601763427258,,,,,,,,,
1739401637.7298412,0.52546819590152,0.0959942285653443,-0.9531830111058642,-2.069079529682837,0.13770947646821888,2.1375888716764413,-1.2753471611094171,-0.0017088363626886734,0.00010747067580671934,0.0002798016617619755,0.00013617569045334238,-0.0004798870765327944,-0.0007374594894789465,0.00019549448562568837,0.2689092457294464,-21.79654312133789,-2.4095618724823,22.59223175048828,0.6801248788833618,2.2615859508514404,-0.04756011441349983,,,,,,,,,
1739401637.7398648,0.5254685894076079,0.09599794000659097,-0.953186171586469,-2.069081754583747,0.1377107097534076,2.1375896293356336,-1.2753526270665358,-0.0010505374578734686,0.0006203127747453274,-0.0009745709415003119,-0.00046067988165406434,-0.0005252517752720866,6.0688572854206575e-05,-0.0017353669977588893,0.2927129566669464,-21.84811782836914,-2.35798716545105,22.59223175048828,0.6737161874771118,2.2551772594451904,-0.0008682189509272575,,,,,,,,,
1739401637.7518528,0.5254736190344242,0.09599793935704129,-0.9531823087806571,-2.0690756791368634,0.13771713239355632,2.1375888716755553,-1.275345264824661,-0.0008615226878282253,0.000792263337174634,0.0008649379196515514,0.0006670972748805281,0.0005061909568001844,-0.00034790713408606663,0.0010895977328626758,0.1935308277606964,-21.84811782836914,-2.4095618724823,22.54065704345703,0.6544901132583618,2.2615859508514404,-0.05396880581974983,,,,,,,,,
1739401637.7628796,0.5254719150259347,0.09599591959666431,-0.9531861536414038,-2.069077892049596,0.13771391103581448,2.137587812037426,-1.2753487709021185,0.00014632289243502003,-0.0005628515308194273,-0.0015174270994763603,0.0016272459919858585,0.0008397755841588741,-0.0010976773730295812,-0.0014299286454137672,0.2173345386981964,-21.82431411743164,-2.35798716545105,22.54065704345703,0.6737161874771118,2.2615859508514404,-0.03382720425724983,,,,,,,,,
1739401637.7728937,0.5254736217689503,0.09599996723165108,-0.953182307799207,-2.069082058214165,0.1377133932632372,2.1375908579280463,-1.2753515944701828,0.0006848012340277329,0.0010303136560497513,0.0008790335600812121,-0.0012149776209744163,-0.00043081862288667347,0.0015919532015690279,-0.001230569827558749,0.1935308277606964,-21.87192153930664,-2.4095618724823,22.61603546142578,0.6737161874771118,2.2487685680389404,-0.013685601763427258,,,,,,,,,
1739401637.7839584,0.5254740152788706,0.096002359784308,-0.9531801633404866,-2.069079539522734,0.1377136901720864,2.137589629338292,-1.2753494881785037,0.0007170549306801191,0.0016340921305008772,0.0006647781598118874,0.0004423636459353158,0.00025629284297370433,0.0005751884297813646,0.0002843754204160488,0.2173345386981964,-21.89969253540039,-2.4095618724823,22.59223175048828,0.6801248788833618,2.2551772594451904,-0.027418512850999832,,,,,,,,,
1739401637.7958887,0.5254719062256911,0.09600161427752205,-0.9531841151455984,-2.069080356898334,0.1377092282963798,2.1375888721600718,-1.2753529890963837,-0.00029843650296058866,-0.00015598889022851853,-0.0007724130998474529,-0.0005253100924623372,-0.0005823720563519514,5.70532103231644e-06,-0.0017240776132305402,0.2173345386981964,-21.89969253540039,-2.38179087638855,22.59223175048828,0.6938577890396118,2.2615859508514404,-0.0008682189509272575,,,,,,,,,
1739401637.8069267,0.5254712078532306,0.09599965155292309,-0.9531800835400704,-2.0690805503350704,0.13771187062360085,2.1375903869957127,-1.275352562574084,-0.0008003294874279482,-0.001052910514645778,0.0002564230326086517,0.0003927648537956792,-0.0009373067654802115,0.0003132374181507995,-0.0007026113310382573,0.2411382496356964,-21.87192153930664,-2.4095618724823,22.59223175048828,0.6865335702896118,2.2487685680389404,0.0064559997990727425,,,,,,,,,
1739401637.817852,0.5254701977074905,0.0959979393570358,-0.9531794892122187,-2.0690810526063195,0.13771028661774268,2.1375882164847946,-1.2753476642483108,-0.00043454203303842443,-0.0003303501058278826,0.001484509646329638,-0.00031882538449429503,-0.000995161901643396,-0.0011294122359849044,0.00035818255656571205,0.2411382496356964,-21.84811782836914,-2.4333655834198,22.56842803955078,0.6737161874771118,2.2551772594451904,-0.03382720425724983,,,,,,,,,
1739401637.8278885,0.525472920373984,0.09600164949384425,-0.9531801237253946,-2.0690781174267614,0.13770913982791272,2.137588102863616,-1.2753452678536008,0.0003937488793813922,-0.00011188468447179421,0.0012223354847266834,-0.0005580633381542406,5.462380485693664e-05,-0.00040553112611845063,0.0014297523664749392,0.2173345386981964,-21.89969253540039,-2.4095618724823,22.56842803955078,0.6865335702896118,2.2679946422576904,-0.05396880581974983,,,,,,,,,
1739401637.8388941,0.5254708968173718,0.09599794195525685,-0.9531851001503577,-2.069082015514254,0.13770994201917944,2.1375888716754923,-1.2753448355175605,0.0004377521098328963,0.0005387054228949793,-0.00028391440462981134,-0.0007060927540658085,-0.0005740628774224478,-0.00045667461112545874,0.0006726565186662707,0.2411382496356964,-21.84811782836914,-2.35798716545105,22.59223175048828,0.6801248788833618,2.2615859508514404,-0.06678618490695953,,,,,,,,,
1739401637.8498774,0.5254681959015253,0.09599839263401058,-0.9531814470875091,-2.0690806419588976,0.13771094330466532,2.1375907402084215,-1.2753474118549257,-0.001500638591383273,0.0003612241287432456,0.00025867919970842064,-0.0018580730442621048,-0.002879115481695416,0.0009082729851356516,0.001208322025146519,0.2689092457294464,-21.82431411743164,-2.38179087638855,22.59223175048828,0.6673074960708618,2.2487685680389404,-0.03382720425724983,,,,,,,,,
1739401637.8608346,0.5254721403625614,0.09599422970158024,-0.9531820431640818,-2.0690750689680155,0.1377144857883943,2.1375888716775493,-1.2753446276726048,-4.576531598449846e-05,-0.0007663344404289654,-0.0015761823431136726,0.0004869456309938001,-0.0008761769927349949,0.00017092783500068925,-0.00017403435536707224,0.2173345386981964,-21.79654312133789,-2.4095618724823,22.49304962158203,0.6737161874771118,2.2615859508514404,-0.06037749722599983,,,,,,,,,
1739401637.8708658,0.5254781245103803,0.0959942288954707,-0.9531882129862058,-2.069075667266211,0.13771109743884963,2.1375889109214117,-1.2753437895623423,0.0017886408469713526,-0.00018338693441830324,-0.001647064094021834,0.0007175850652899687,-0.0005231606634064058,-0.00017233252303607694,0.0008956587752317418,0.1697271168231964,-21.79654312133789,-2.3302161693573,22.54065704345703,0.6673074960708618,2.2615859508514404,-0.06678618490695953,,,,,,,,,
1739401637.8818445,0.5254691319270051,0.09599254235693282,-0.9531861588194606,-2.0690766563246004,0.13771106329287003,2.137593565910321,-1.275347650395459,1.89256534241641e-05,-0.00040784222841350225,-0.00043697917538301317,0.0005284413646572354,-0.0011591283401010451,0.00059989995405103,0.0009476201605846447,0.2689092457294464,-21.77273941040039,-2.35798716545105,22.54065704345703,0.6673074960708618,2.2487685680389404,-0.03382720425724983,,,,,,,,,
1739401637.891997,0.5254718269021331,0.0959972001953165,-0.9531839420826584,-2.0690756672327133,0.13771418369028626,2.1375888717293905,-1.275352391166949,-0.0002166159339804487,0.002335560455643644,-0.0003998558136787218,0.0015540464882228986,-0.0004481573635665247,-0.0005580761926123513,-0.0008499440322904853,0.2173345386981964,-21.82431411743164,-2.35798716545105,22.54065704345703,0.6673074960708618,2.2615859508514404,-0.03382720425724983,,,,,,,,,
1739401637.9028327,0.5254701938379613,0.095996233986909,-0.9531840562400021,-2.0690760089025533,0.13771541087238925,2.1375896293356336,-1.275350943021533,-0.0006973577987863498,0.0004568108825199012,0.00037040337412289916,-1.800982225177018e-05,0.0009325979975701681,-7.946062630749616e-05,0.0004365809960101192,0.2411382496356964,-21.82431411743164,-2.38179087638855,22.54065704345703,0.6608988046646118,2.2551772594451904,-0.03382720425724983,,,,,,,,,
1739401637.9129033,0.5254701938384099,0.09600178241916667,-0.9531875361030653,-2.0690795398634756,0.13771313793673934,2.1375896293356336,-1.2753500390628494,-0.0008593307813018562,0.0016711224487448322,-0.001677401760157074,0.00032533994394283536,3.812261341966486e-05,0.000557532592057568,-0.001454689111569103,0.2411382496356964,-21.87192153930664,-2.3302161693573,22.59223175048828,0.6801248788833618,2.2551772594451904,-0.013685601763427258,,,,,,,,,
1739401637.9229934,0.5254664790161749,0.09599793917660376,-0.9531814882895938,-2.0690838669261344,0.13770948264952243,2.13758887151405,-1.275344243976647,-0.00215313257787755,-0.00014451021298880014,-0.001000631965405659,-0.0024208022180063947,-0.0008161580025078169,-9.45733825882846e-05,0.0018190300598947694,0.2927129566669464,-21.84811782836914,-2.38179087638855,22.61603546142578,0.6801248788833618,2.2615859508514404,-0.06678618490695953,,,,,,,,,
1739401637.9338915,0.5254701934023202,0.09599818460023599,-0.9531851016362092,-2.069081322247648,0.13771085177576725,2.137589224888264,-1.2753475891704802,-0.0008974652727881107,0.00030231660378417127,-0.00070534885501762,-0.0014992213342070852,-0.0008881301152996562,0.0005264681616103744,0.00017684061713780586,0.2411382496356964,-21.84811782836914,-2.35798716545105,22.61603546142578,0.6801248788833618,2.2615859508514404,-0.07411040365695953,,,,,,,,,
1739401637.9449255,0.5254704632381156,0.09599622651291322,-0.9531812067066456,-2.0690821245607176,0.13771147488761717,2.1375906889757568,-1.2753463537884195,-0.0006249286279278034,-0.000819129334108626,-0.0001434019542989338,-0.0013462348679481075,-0.001227378944347221,5.508270356494049e-05,6.422277068760321e-05,0.2173345386981964,-21.82431411743164,-2.38179087638855,22.61603546142578,0.6938577890396118,2.2551772594451904,-0.05396880581974983,,,,,,,,,
1739401637.955923,0.5254699669310701,0.09599880833910812,-0.9531860644663026,-2.0690845659428563,0.13771573708139723,2.1375888718430427,-1.2753446460553717,-0.0005402998850632225,0.00047965617297334373,-0.0011350364545876022,-0.0006007868735557674,0.0014145287616079984,0.0001737550752730252,0.0005538287343341171,0.2411382496356964,-21.89969253540039,-2.35798716545105,22.61603546142578,0.6673074960708618,2.2615859508514404,-0.06037749722599983,,,,,,,,,
1739401637.9669268,0.5254740900627336,0.09600378438553195,-0.9531811742979103,-2.069079542589346,0.13771179380877152,2.1375874589862227,-1.2753484027035311,0.0009419368456757323,0.0010210821926535563,-5.3409964237241406e-05,0.0020253295199792703,0.0011060158068503176,-0.0012051896712839112,-0.0009420695089315759,0.2173345386981964,-21.89969253540039,-2.38179087638855,22.59223175048828,0.6737161874771118,2.2615859508514404,-0.027418512850999832,,,,,,,,,
1739401637.9788194,0.5254740036075983,0.09599794196730838,-0.9531840355213501,-2.069083465552285,0.13771391309463785,2.1375896293276586,-1.275346926947415,4.077072262147237e-05,-0.0011244447372970928,0.0004299249186471383,-0.001751193224824349,0.00023686401193064014,0.00028466931766677134,0.0006713232659058823,0.2173345386981964,-21.84811782836914,-2.38179087638855,22.63983917236328,0.6737161874771118,2.2551772594451904,-0.04023589566349983,,,,,,,,,
1739401637.9889407,0.5254681929659567,0.09599818792020089,-0.953183068170133,-2.069079539972831,0.13771422029892733,2.1375888716755553,-1.2753481318930775,-0.0016094463820838516,-0.0004455608856920193,0.0008319358095141033,0.0010804964500966605,-0.0005418606874702758,-0.00017333686046716823,-0.0005695264322101807,0.2689092457294464,-21.84811782836914,-2.35798716545105,22.59223175048828,0.6801248788833618,2.2615859508514404,-0.06037749722599983,,,,,,,,,
1739401637.999858,0.5254740123899067,0.09599323038170847,-0.9531814914093211,-2.0690809654622107,0.1377138648846493,2.1375872495717947,-1.2753468912105463,0.0004501212156878707,-0.0015936430033688278,0.0006993322159135611,0.0004052958823193663,0.0005145100860228476,-0.0008658839202048195,0.0005408746323104347,0.2173345386981964,-21.77273941040039,-2.38179087638855,22.56842803955078,0.6801248788833618,2.2753188610076904,-0.04023589566349983,,,,,,,,,
1739401638.010936,0.5254740125325865,0.09599686081434168,-0.953183750601238,-2.0690820389688307,0.13771386487861376,2.1375888716755798,-1.2753485220470508,0.0011742038707215634,-0.000326817217530979,-5.8943534476098357e-05,-0.00015970714418361365,-0.00029902477508161375,0.00033573392332782864,0.00042079892713536317,0.2173345386981964,-21.82431411743164,-2.35798716545105,22.59223175048828,0.6801248788833618,2.2615859508514404,-0.05396880581974983,,,,,,,,,
1739401638.0218554,0.5254736100654064,0.09599425487885574,-0.9531843491989713,-2.069074983101046,0.13771342461568858,2.137590386995712,-1.2753468320407426,0.0012779719712306765,0.000513473119654698,0.0006050404523494691,0.0004755208010830958,0.00011325055873515468,0.000291882774830462,-0.0010001629799640233,0.1935308277606964,-21.79654312133789,-2.38179087638855,22.51685333251953,0.6865335702896118,2.2487685680389404,-0.05396880581974983,,,,,,,,,
1739401638.0318694,0.5254719063589919,0.09599431138941587,-0.9531843583723341,-2.0690780116334575,0.1377127999232411,2.1375881140154767,-1.2753452825582234,0.0013938468315530042,0.0010351687681203908,-0.0013152594815143376,5.4158608743874975e-05,-9.976389024509322e-05,-2.6530615703178415e-05,0.0027797178972707795,0.2173345386981964,-21.79654312133789,-2.38179087638855,22.54065704345703,0.6801248788833618,2.2679946422576904,-0.05396880581974983,,,,,,,,,
1739401638.0418975,0.5254719320324723,0.09599622651292951,-0.9531822821801706,-2.0690766691393985,0.13771497940358102,2.1375920636718955,-1.2753498508751764,0.0013351569427054158,0.0007584797442647079,0.0015995096939256752,-0.0002153783724708581,0.00012453096476613504,0.0008866646232592178,0.0005652462152883232,0.2173345386981964,-21.82431411743164,-2.4095618724823,22.54065704345703,0.6737161874771118,2.2615859508514404,-0.027418512850999832,,,,,,,,,
1739401638.052855,0.5254719063592861,0.09599462317549813,-0.9531861597643329,-2.0690795581780743,0.1377114323364378,2.137589629353652,-1.2753532883015735,0.00021576791535839125,-0.0004265775892371342,-0.0022363239563707965,0.0001973426482300948,-0.0009233487005112348,-0.00033945046959145896,-0.0014234651437258846,0.2173345386981964,-21.79654312133789,-2.35798716545105,22.59223175048828,0.6673074960708618,2.2551772594451904,-0.013685601763427258,,,,,,,,,
1739401638.0638154,0.5254697037557751,0.0959942290059383,-0.9531823002409828,-2.069079972396785,0.13771390875458717,2.1375881140154767,-1.275346368734336,-0.00034353865590411314,-0.0010076169332358218,0.0006647082932255604,-0.00015229115704174878,0.00012760891915613543,0.00012510220083256695,8.739783033812022e-05,0.2411382496356964,-21.79654312133789,-2.4095618724823,22.56842803955078,0.6737161874771118,2.2679946422576904,-0.05396880581974983,,,,,,,,,
1739401638.074894,0.5254736192995625,0.09599612323224703,-0.9531819554587809,-2.069080338239077,0.13771497940952815,2.1375881140154767,-1.2753537867898637,0.0007038259343168606,-0.0004611741977596728,0.001246737830137415,0.000964365711175983,0.000373098693023684,-0.0008027617580665606,-0.002239521073665943,0.1935308277606964,-21.82431411743164,-2.4095618724823,22.56842803955078,0.6737161874771118,2.2679946422576904,-0.020094294100999832,,,,,,,,,
1739401638.0859134,0.5254655691990211,0.09599251609786358,-0.9531841505258714,-2.0690807269358427,0.13771418220420956,2.1375888891181583,-1.2753460392069766,-0.0008650290807389506,-0.0008035356048942868,-0.001452720187585399,-0.00020378931429170438,0.0007316417507670498,0.00039459476775039165,0.002027157783760598,0.2689092457294464,-21.77273941040039,-2.38179087638855,22.56842803955078,0.6801248788833618,2.2615859508514404,-0.04756011441349983,,,,,,,,,
1739401638.095921,0.5254719091146222,0.09599622975930573,-0.9531835928486587,-2.0690806009069695,0.13771370105235284,2.1375888716764413,-1.2753484591902495,0.0006637556413420041,-0.001544269244400479,-8.505110787707825e-05,-0.0009455984933003792,0.0005054732439057307,4.789450913587851e-05,0.00050882658030039,0.2173345386981964,-21.82431411743164,-2.38179087638855,22.59223175048828,0.6865335702896118,2.2615859508514404,-0.027418512850999832,,,,,,,,,
1739401638.1059542,0.5254704278418457,0.09600109673694383,-0.9531858935786024,-2.0690777471249153,0.13771344688225173,2.137590426241568,-1.2753517038129958,0.0002962872397158459,0.0004298077002233584,0.000194645533869373,0.0008792618495366562,-5.491747010031163e-05,-0.00011601270581827815,-3.095793736967371e-05,0.2411382496356964,-21.84811782836914,-2.35798716545105,22.56842803955078,0.6865335702896118,2.2487685680389404,-0.0008682189509272575,,,,,,,,,
1739401638.1168754,0.5254697341022969,0.09599794792733879,-0.9531794932819415,-2.069082744031547,0.1377125383592099,2.1375896424716423,-1.2753483348934378,9.296863188482151e-05,0.00019613403255417522,0.001720176534657079,0.00025929502929735934,-0.0003341862616259877,0.0008123964117944834,0.0011719251271947878,0.2173345386981964,-21.84811782836914,-2.4333655834198,22.59223175048828,0.6673074960708618,2.2551772594451904,-0.04023589566349983,,,,,,,,,
1739401638.1278408,0.5254719063468787,0.09599965148086675,-0.9531861625930756,-2.069082527023873,0.13771448780175,2.1375938678882247,-1.275345269627458,-0.0004653821297970593,-6.620099797234223e-05,-0.00047180376491972237,-0.001426713270725285,-0.0010596624650138348,0.0007561561729674789,0.0012782901347847592,0.2173345386981964,-21.87192153930664,-2.35798716545105,22.59223175048828,0.6737161874771118,2.2551772594451904,-0.05396880581974983,,,,,,,,,
1739401638.1388652,0.5254680741785752,0.09599835737757646,-0.9531858507395504,-2.069081072311175,0.13771572407821328,2.1375888717473353,-1.2753490491367045,-0.0008318536543405934,-9.308098187390645e-05,-0.00077905069370131,-0.0005210228490060519,0.0002646968688531497,-0.00034308522928957384,-0.0009002565422949761,0.2411382496356964,-21.82431411743164,-2.35798716545105,22.56842803955078,0.6673074960708618,2.2615859508514404,-0.05396880581974983,,,,,,,,,
1739401638.1498926,0.5254722985570083,0.09599649835441547,-0.9531859321742514,-2.069077977943602,0.13771422128001226,2.1375872481002993,-1.2753500305714063,-3.231148701499239e-05,0.0004230402135520226,-0.0005239320314431885,0.0006325086080591103,0.0003199769363305521,-0.0010632765636269712,-0.00029434725357741854,0.2411382496356964,-21.82431411743164,-2.35798716545105,22.54065704345703,0.6801248788833618,2.2753188610076904,-0.013685601763427258,,,,,,,,,
1739401638.1608787,0.5254718799157349,0.09599649055727724,-0.9531804347466537,-2.069080962309687,0.137714221605064,2.137590386995712,-1.2753452810417936,8.215195822017867e-05,0.0004595155823839831,0.00017792664897672839,0.00021755597335096415,0.001096367617100542,0.00011816865929523845,-0.00047545224400789084,0.2173345386981964,-21.82431411743164,-2.4333655834198,22.56842803955078,0.6801248788833618,2.2487685680389404,-0.05396880581974983,,,,,,,,,
1739401638.171908,0.5254709565365836,0.09599889030743602,-0.9531860919921871,-2.0690778963180136,0.1377135577465023,2.1375872481182445,-1.2753515950508771,-0.00011328597025921626,0.001824785621414287,-0.0018757243931765309,-0.0004319697343340183,0.0005956086821256759,-0.0005112745408190519,-0.001209893856824297,0.2173345386981964,-21.84811782836914,-2.35798716545105,22.54065704345703,0.6737161874771118,2.2753188610076904,-0.0008682189509272575,,,,,,,,,
1739401638.1828942,0.5254722183583397,0.09599655111409802,-0.9531794480843074,-2.0690756668893804,0.13771496625592022,2.137589935674335,-1.2753449946835471,0.0008164748302331955,0.0013247181933589165,0.0007588240667125348,0.0006471325517823475,-1.5241271561143024e-05,0.0007508762427743395,0.0010881345229010546,0.2173345386981964,-21.82431411743164,-2.4095618724823,22.54065704345703,0.6737161874771118,2.2615859508514404,-0.06037749722599983,,,,,,,,,
1739401638.1948318,0.5254743120615766,0.09599621774436327,-0.9531843796150281,-2.069079972358938,0.13771178064498277,2.1375881183821335,-1.2753468972614088,0.0008891932845025098,-0.00025076600502633447,-0.0002475530423223302,-0.00038576572224150504,-0.001930620767000664,-0.0009635872010155158,0.0022315158440462555,0.1935308277606964,-21.82431411743164,-2.38179087638855,22.56842803955078,0.6737161874771118,2.2679946422576904,-0.04023589566349983,,,,,,,,,
1739401638.2049148,0.525470193842323,0.09599422871497003,-0.9531833193025605,-2.069075666889359,0.13771467129635853,2.137589629335658,-1.2753457167828375,-0.0004277750066254251,-0.0006197459111413544,0.00034948259941541463,0.0009115643073146031,0.00047863503768720355,0.00011552818102830408,0.0015620496126042037,0.2411382496356964,-21.79654312133789,-2.38179087638855,22.54065704345703,0.6673074960708618,2.2551772594451904,-0.06037749722599983,,,,,,,,,
1739401638.2158978,0.5254736071061153,0.09600078116132615,-0.9531843758095714,-2.0690795566138873,0.13771538019879787,2.1375896293356336,-1.2753445233885248,0.0004448687155581663,0.0011129253453909596,-0.00036664728278047937,-0.00027354191195385523,0.0012521896069244913,-0.0002812313767764865,0.0019212139865790625,0.1935308277606964,-21.84811782836914,-2.38179087638855,22.59223175048828,0.6673074960708618,2.2551772594451904,-0.06037749722599983,,,,,,,,,
1739401638.2268538,0.525470206356912,0.09599796560389656,-0.953186159800602,-2.069077746780166,0.1377148432340522,2.137588873613622,-1.275354853335285,3.263138664447195e-05,-0.00024333751723788622,-0.0007805377859668621,0.0011891025586036382,-0.0013890129138756384,-0.00040766839667770596,-0.001761408388742503,0.2411382496356964,-21.84811782836914,-2.35798716545105,22.56842803955078,0.6737161874771118,2.2615859508514404,-0.013685601763427258,,,,,,,,,
1739401638.236911,0.5254719063593531,0.09599646327487149,-0.9531812510821073,-2.069079529343672,0.13771434023870502,2.1375903869957447,-1.2753515409999006,-0.00020018061208051092,-0.0001434795756043102,-2.2573659301345806e-05,2.8355223373090134e-05,-0.00021910616821714673,0.00021300245046873217,-0.000997199024458744,0.2173345386981964,-21.82431411743164,-2.38179087638855,22.59223175048828,0.6801248788833618,2.2487685680389404,-0.0008682189509272575,,,,,,,,,
1739401638.2478719,0.52547019383841,0.09599794790995897,-0.953186159685903,-2.069077755824017,0.13771493793238818,2.137590387049547,-1.2753512181547864,-4.358182695349044e-05,1.4743235175990828e-06,-0.0026746811313895606,0.0009681398874766197,0.0008444038501984513,0.0002548252113808133,-0.0008735142701971219,0.2411382496356964,-21.84811782836914,-2.35798716545105,22.56842803955078,0.6737161874771118,2.2487685680389404,-0.04023589566349983,,,,,,,,,
1739401638.257899,0.5254719024345554,0.09600164949429345,-0.9531843849723718,-2.069079981064554,0.13771178015540397,2.1375928213319764,-1.2753516488037984,0.0004350653921454195,0.0016688165114291018,-0.0005079713021990253,0.0004754486135211644,-0.0001369334775992986,0.0020624244609746,-0.001726592273607979,0.2173345386981964,-21.89969253540039,-2.38179087638855,22.56842803955078,0.6737161874771118,2.2551772594451904,-0.013685601763427258,,,,,,,,,
1739401638.2688174,0.525471906359119,0.09599825482437674,-0.9531833438312511,-2.0690790016405334,0.1377149794096001,2.137588114033495,-1.2753490062700634,0.0003191125015206455,0.0009186537387667528,-0.00039328707117168387,-0.0005038530772417829,0.0005479940407623366,-0.0008991129088473301,0.0009917866280514847,0.2173345386981964,-21.84811782836914,-2.38179087638855,22.54065704345703,0.6737161874771118,2.2679946422576904,-0.05396880581974983,,,,,,,,,
1739401638.278949,0.5254721403625614,0.09600237147630344,-0.9531841500370178,-2.0690846453209377,0.13771497796502505,2.1375896467782365,-1.2753455976679688,0.0007331673945287232,0.0018370042775123752,-0.0006999046580341104,-0.0007591025369115071,0.0004251902902284548,0.00013192514526350117,0.0009793642657123834,0.2173345386981964,-21.89969253540039,-2.38179087638855,22.61603546142578,0.6737161874771118,2.2551772594451904,-0.06037749722599983,,,,,,,,,
1739401638.289928,0.5254719065031254,0.09599988864473712,-0.9531821912234326,-2.069082122065444,0.1377135167623528,2.137588989413224,-1.2753538203514394,7.56743167517119e-05,0.0007605298746584003,0.0008161248599423517,-0.0010362915611849544,0.00012012541693612761,-0.00043797334249038103,-0.0024045269612119977,0.2173345386981964,-21.87192153930664,-2.4095618724823,22.59223175048828,0.6865335702896118,2.2615859508514404,-0.013685601763427258,,,,,,,,,
1739401638.300928,0.5254701928572644,0.09599793903359655,-0.9531858258833279,-2.0690798601917253,0.13771259821056825,2.137588872322242,-1.2753509040156759,-0.0002455935302748547,-0.0003090542267407849,0.00022181571586009613,-0.0007449476080259555,0.0003032791756951707,-0.0005739681239304059,-0.001518054261366837,0.2411382496356964,-21.84811782836914,-2.35798716545105,22.59223175048828,0.6938577890396118,2.2615859508514404,-0.0072769103571772575,,,,,,,,,
1739401638.3118906,0.5254720103606557,0.09599625281851526,-0.953178261833791,-2.069079533415478,0.1377149794276601,2.137588871675559,-1.2753444664233875,0.0013377370323136815,0.00017537172589505957,0.0026013587981919568,-8.327000079743382e-05,0.00025043987432497216,-0.0005884476084072501,0.003025029236332112,0.2173345386981964,-21.82431411743164,-2.4333655834198,22.59223175048828,0.6737161874771118,2.2615859508514404,-0.06037749722599983,,,,,,,,,
1739401638.3228474,0.5254719076436977,0.09599906770249618,-0.9531833543930677,-2.069079900085142,0.13771421987157348,2.1375888716755553,-1.275354733383533,-0.0005159074821789333,0.0004837751535607479,-0.00034064644641937055,-0.0006590906243117041,8.00335160328439e-05,-0.001043532998438109,-0.002597642945679215,0.2173345386981964,-21.82431411743164,-2.38179087638855,22.59223175048828,0.6801248788833618,2.2615859508514404,0.012864691205322742,,,,,,,,,
1739401638.3338847,0.5254736188798795,0.09599846363198873,-0.9531832973184844,-2.069076408663263,0.13771608812011213,2.137592050589943,-1.2753492879773838,0.0003088490929700938,0.0009520922606204754,-0.0007088040095970017,0.00019633713068368017,0.0005760413855650297,-0.0007676617916705838,6.18010383134144e-05,0.1935308277606964,-21.82431411743164,-2.35798716545105,22.54065704345703,0.6673074960708618,2.2615859508514404,-0.020094294100999832,,,,,,,,,
1739401638.3438997,0.5254688979078176,0.09600000235071893,-0.9531811716697874,-2.0690779939281096,0.13771483463274628,2.137592050643778,-1.2753562653565074,0.00047691949690680945,0.0020848188500641102,0.0009839344199620522,0.00010176339578058918,0.00024581898948514754,-0.000905446459434225,-0.0026912808640132766,0.2689092457294464,-21.87192153930664,-2.38179087638855,22.56842803955078,0.6737161874771118,2.2615859508514404,-0.0008682189509272575,,,,,,,,,
1739401638.3548925,0.525471906363104,0.09599422936655505,-0.953183275212199,-2.069077931800184,0.13771497942684272,2.1375899825662885,-1.2753525290129426,0.001080076390447537,-0.0004793179631109822,-0.0006859360561855388,-0.0009149014781197641,-0.0003841484251495657,0.0013473782173246153,-0.000202476724216024,0.2173345386981964,-21.79654312133789,-2.35798716545105,22.54065704345703,0.6737161874771118,2.2551772594451904,0.0064559997990727425,,,,,,,,,
1739401638.3658514,0.5254719053779948,0.095997974108256,-0.9531794545336854,-2.069077892607439,0.1377157370877384,2.1375935659160814,-1.2753516653961787,0.00018512990261584022,-0.0003173332219943421,0.0009296134874663563,0.0007032559785824005,-0.0009129360759711847,0.00020395525138782757,-0.0011736110254089468,0.2173345386981964,-21.84811782836914,-2.4333655834198,22.54065704345703,0.6673074960708618,2.2487685680389404,-0.027418512850999832,,,,,,,,,
1739401638.375913,0.5254673064314993,0.09599446641635855,-0.9531791183044938,-2.06907567924992,0.13771573708773843,2.137588872231852,-1.2753531840831562,-0.0010775121853395463,-0.00043544593574820973,0.0025943309651412392,0.00016116489488209124,0.0004680797859818905,-0.0006023283934578983,-0.00031741852646334056,0.2411382496356964,-21.79654312133789,-2.4095618724823,22.54065704345703,0.6673074960708618,2.2615859508514404,0.012864691205322742,,,,,,,,,
1739401638.387857,0.525471905979454,0.0959979390696872,-0.95318036641979,-2.069077856555119,0.13771422128003674,2.137590386995715,-1.2753524535538554,0.0004245491726543153,0.000309691892967777,0.0020477104354623813,-0.0004116767088191146,-3.0344268098453505e-05,0.00016154380375576027,-0.0004287471285648366,0.2173345386981964,-21.84811782836914,-2.4095618724823,22.56842803955078,0.6801248788833618,2.2487685680389404,0.0064559997990727425,,,,,,,,,
1739401638.398827,0.5254714731126597,0.09599795169858591,-0.9531786348064213,-2.0690796423224156,0.13771259756021012,2.137588876036206,-1.2753492792105114,-0.00015271560107813224,0.0005773124014103341,0.000601892020310276,-0.0004794907647874494,-0.0016126235192775104,-0.0002162559396484562,-0.0005907692717543686,0.1935308277606964,-21.84811782836914,-2.4571692943573,22.59223175048828,0.6938577890396118,2.2615859508514404,-0.04756011441349983,,,,,,,,,
1739401638.4088626,0.5254726053896238,0.09599704300271107,-0.9531793289281303,-2.069078252308531,0.13771360679565606,2.1375907532904477,-1.2753503653946872,0.00024665715257367825,-4.67511807998685e-05,0.00051674596524642,0.00048482448826277973,-0.00013853866653996678,0.0012737653278744824,-0.0005037623835528584,0.2173345386981964,-21.82431411743164,-2.4095618724823,22.54065704345703,0.6865335702896118,2.2487685680389404,-0.04756011441349983,,,,,,,,,
1739401638.4198406,0.5254674806457656,0.09599622651613608,-0.9531840355226735,-2.069080559053259,0.13771259674844155,2.137588871677623,-1.275347253257628,-0.0011477808782159493,-0.00039788515891350443,-0.0006333540951008428,-0.001217082331475982,-0.0008468816795694544,-0.0007108825850560055,-0.0005777367209191886,0.2689092457294464,-21.82431411743164,-2.38179087638855,22.59223175048828,0.6938577890396118,2.2615859508514404,-0.04023589566349983,,,,,,,,,
1739401638.4299254,0.5254680493430545,0.09600006989830895,-0.9531813158544996,-2.069075667233395,0.13771422615546178,2.1375896307891837,-1.2753498043040454,-0.0006575589011505888,0.0010918425481239197,0.0005470073864150052,0.0011662423004501377,0.0004597912581630687,-0.00039372227764015,-0.0011032138070293037,0.2411382496356964,-21.84811782836914,-2.4095618724823,22.54065704345703,0.6801248788833618,2.2551772594451904,-0.020094294100999832,,,,,,,,,
1739401638.4418933,0.5254736189384254,0.09600101797233507,-0.9531842829281416,-2.0690778565550514,0.13771613199919566,2.1375899825483513,-1.2753500262631863,0.00022434670181397678,0.0008510889053920884,-0.0011614836323590569,0.00041200809639603645,0.0010344075449549997,-0.00029346333301137715,0.0003737588683259326,0.1935308277606964,-21.84811782836914,-2.38179087638855,22.56842803955078,0.6673074960708618,2.2551772594451904,-0.013685601763427258,,,,,,,,,
1739401638.45193,0.5254701938384102,0.09599965561204726,-0.9531791037017665,-2.0690805278364057,0.13771573123942799,2.1375897530509036,-1.275342251423269,0.0005834912972227455,-0.0006569260688988742,0.0019013899863119554,-7.659877711356102e-05,-0.0010395814438195585,2.5685122838926377e-05,0.003302515485863647,0.2411382496356964,-21.87192153930664,-2.4095618724823,22.59223175048828,0.6673074960708618,2.2551772594451904,-0.08051909506320953,,,,,,,,,
1739401638.4628413,0.5254681987501493,0.09599865812604713,-0.953183707788819,-2.069081075318501,0.13771346410747037,2.1375931494746276,-1.2753500794002506,-0.000922066844987135,3.000308174701771e-05,-0.0019046078015167553,-0.000790657049843953,-0.00016745702538120263,-0.00043157463310734666,-0.0010178311336989298,0.2689092457294464,-21.84811782836914,-2.35798716545105,22.56842803955078,0.6865335702896118,2.2615859508514404,-0.013685601763427258,,,,,,,,,
1739401638.4728692,0.5254719063591894,0.09599825472829543,-0.9531822313148681,-2.069078525212232,0.13771212431655205,2.1375893470589307,-1.2753437634053553,4.416453788010029e-05,0.0004634880728939609,-0.0006802184813123841,8.825938089664093e-05,-0.0020579228586599507,0.0006239319157581961,0.0017941614482363507,0.2173345386981964,-21.84811782836914,-2.38179087638855,22.56842803955078,0.6938577890396118,2.2615859508514404,-0.06678618490695953,,,,,,,,,
1739401638.4829664,0.5254730587156068,0.09599631421752693,-0.9531823089980894,-2.069076669139244,0.13771410375762067,2.1375895268904674,-1.2753516335075596,-0.00032760456548047224,-0.0004978142699802886,0.0006069267451471318,0.0012906678037224641,-0.0001788560910701013,-0.00021706107835478132,-0.0008816003694419691,0.2173345386981964,-21.82431411743164,-2.4095618724823,22.54065704345703,0.6801248788833618,2.2679946422576904,-0.04023589566349983,,,,,,,,,
1739401638.4948585,0.5254703023584971,0.0959962274860249,-0.9531831928019483,-2.069079649408806,0.13771573708751636,2.1375922076298637,-1.275354531693433,0.00040663031319983515,-0.0008129637663305901,0.00011858205706169288,-0.0011012770864290676,0.0012279119494661656,0.0015083066199249552,-0.0030712634314859926,0.2689092457294464,-21.82431411743164,-2.35798716545105,22.59223175048828,0.6673074960708618,2.2615859508514404,-0.013685601763427258,,,,,,,,,
1739401638.5058455,0.5254681831466171,0.09599259497090938,-0.9531881591310679,-2.0690739952189396,0.13771352115026586,2.137589629987933,-1.2753472488454896,-0.001056683608993873,8.795967705016124e-05,-0.001026937861019746,0.0012186620810867295,5.2754326449266995e-05,-0.0007789010674587955,0.0005041078788719205,0.2689092457294464,-21.77273941040039,-2.3302161693573,22.51685333251953,0.6865335702896118,2.2551772594451904,-0.04023589566349983,,,,,,,,,
1739401638.515917,0.525468195897341,0.0959962265128635,-0.9531823091061439,-2.0690756672178368,0.13771573708870444,2.137589006855739,-1.2753429013208386,-0.00040564934603749424,-0.0005243276084261841,7.361771422543975e-05,0.0004509261919325447,0.0013913518310833066,-0.00055598308052683,0.00020024321503562073,0.2689092457294464,-21.82431411743164,-2.4095618724823,22.54065704345703,0.6673074960708618,2.2615859508514404,-0.07411040365695953,,,,,,,,,
1739401638.5268788,0.525471133703999,0.0959971866624696,-0.9531805263943481,-2.069077746704337,0.13771035896390027,2.1375888716763183,-1.2753500316128321,0.0002578947210255399,0.0014528156670221047,0.00105702907340318,-0.00020754602737190248,-0.002044807947773687,-0.0005774726815304511,0.000661106446008989,0.2411382496356964,-21.82431411743164,-2.4333655834198,22.56842803955078,0.6737161874771118,2.2615859508514404,-0.013685601763427258,,,,,,,,,
1739401638.5379207,0.5254736201691473,0.09599622655303346,-0.9531837049361517,-2.069077746666651,0.13771422174149908,2.1375896293356336,-1.2753532996015113,0.00015226058202757813,-0.0011624281066722518,-0.00032999598431712767,0.0004345597249461882,0.0003169762239828704,-0.00018610690401526722,0.0005940686083931415,0.1935308277606964,-21.82431411743164,-2.35798716545105,22.56842803955078,0.6801248788833618,2.2551772594451904,-0.013685601763427258,,,,,,,,,
1739401638.5479403,0.525471906359163,0.09599635943672533,-0.9531833090926471,-2.0690795325091793,0.13771374787386234,2.137589648964536,-1.2753486332448647,0.0005873031174958279,-0.0012826606267039506,0.0001595154718566222,-8.904184517521171e-08,-0.0008392558587858845,0.0011565490704718582,-0.00034581259701107364,0.2173345386981964,-21.79654312133789,-2.35798716545105,22.59223175048828,0.6801248788833618,2.2679946422576904,-0.06678618490695953,,,,,,,,,
1739401638.5588837,0.5254718975288234,0.09600007088467058,-0.9531823061481078,-2.06907789313437,0.13771467082419564,2.1375920637343953,-1.2753494903492877,0.0004191573416193388,0.00011738333580540093,0.000198986005830656,-9.126831121904628e-05,-4.145709207627025e-05,0.00028060153635609225,-0.00012126061364697339,0.2173345386981964,-21.84811782836914,-2.4095618724823,22.54065704345703,0.6673074960708618,2.2615859508514404,-0.027418512850999832,,,,,,,,,
1739401638.569809,0.5254694776013766,0.09599794004269416,-0.9531858232675527,-2.0690795328860427,0.1377140637849515,2.1375928083040794,-1.2753542032339276,-0.0009337261019912687,-5.2425414372176885e-05,0.00011851017741143079,-5.2449142986727587e-05,6.215706293543889e-05,0.0004969279739633261,-0.001048623324546037,0.2411382496356964,-21.84811782836914,-2.35798716545105,22.59223175048828,0.6801248788833618,2.2551772594451904,-0.0072769103571772575,,,,,,,,,
1739401638.5798326,0.5254701936499812,0.0959964642487601,-0.9531853768440174,-2.0690796498968402,0.13771346410661156,2.1375896293535788,-1.2753500780204696,0.00033727754535986965,-0.00013757937522161136,-0.000780959240375266,7.742357322901229e-05,-0.00010043126960376374,-0.0006912433174094117,-0.0005205923945407198,0.2411382496356964,-21.82431411743164,-2.35798716545105,22.59223175048828,0.6865335702896118,2.2551772594451904,-0.013685601763427258,,,,,,,,,
1739401638.5908406,0.5254701938384067,0.0959962297633294,-0.9531872963684657,-2.0690825004024145,0.1377157370877384,2.137588167796836,-1.2753501992411775,-0.00029679847946585295,-0.0009987199976473067,-0.002133302606755757,-0.00036802910075479656,5.5126385818318605e-05,3.8736644670081684e-05,0.00010830100623129141,0.2411382496356964,-21.82431411743164,-2.3302161693573,22.59223175048828,0.6673074960708618,2.2679946422576904,-0.04023589566349983,,,,,,,,,
1739401638.6008458,0.5254753312915872,0.09599820210215931,-0.9531860793414265,-2.069079625380894,0.1377156975965952,2.137593110228376,-1.275342126015383,0.001139511101469096,0.000249652188011802,-0.0009246431829042293,0.00020015463236512865,0.00048546182857516396,0.00029552739353539597,0.003422072103395543,0.1697271168231964,-21.84811782836914,-2.35798716545105,22.59223175048828,0.6673074960708618,2.2615859508514404,-0.08051909506320953,,,,,,,,,
1739401638.610884,0.5254701142565321,0.09599795083696727,-0.9531861606532224,-2.0690777593303147,0.137716494259603,2.1375882492674294,-1.2753477285551023,-0.0009333376831938636,-0.0006770664583516041,8.114059625747037e-05,0.0006169924080007248,0.0002901946276077982,-0.0002724028042907249,0.001094775381547227,0.2411382496356964,-21.84811782836914,-2.35798716545105,22.56842803955078,0.6608988046646118,2.2679946422576904,-0.07411040365695953,,,,,,,,,
1739401638.6218767,0.5254736198415016,0.09599509787772377,-0.9531841504787975,-2.0690777471190804,0.13771497942765182,2.1375914881266023,-1.2753507835056852,0.0012815663731141303,-0.0016561377926064995,-0.000406563071283091,0.0008757546421293758,1.3083452497876832e-05,-0.0003465950126918854,-0.0007176469607071997,0.1935308277606964,-21.84811782836914,-2.38179087638855,22.56842803955078,0.6737161874771118,2.2753188610076904,-0.0072769103571772575,,,,,,,,,
1739401638.632879,0.5254719063591465,0.09599801826196222,-0.9531834082948809,-2.0690800127568703,0.13771422176758175,2.1375896744734613,-1.2753500792891723,-1.401011107227167e-05,8.965640743405429e-05,-0.0009424925272861198,-0.0006696938930212033,-0.0011769345524375095,-0.0008530124651848997,0.00045423749082915404,0.2173345386981964,-21.84811782836914,-2.38179087638855,22.56842803955078,0.6801248788833618,2.2551772594451904,-0.013685601763427258,,,,,,,,,
1739401638.6428921,0.52547019383841,0.09599424037137516,-0.9531850605254005,-2.0690777572311405,0.1377172504577152,2.1375911839019013,-1.2753452830837684,-0.0001607765474405907,-0.0009581241745521348,-0.0009446302325440177,0.0008241317072709077,0.000681672243669487,0.0013043853318887074,0.0002423538044028713,0.2411382496356964,-21.79654312133789,-2.3302161693573,22.56842803955078,0.6544901132583618,2.2423598766326904,-0.05396880581974983,,,,,,,,,
1739401638.6538644,0.5254700878745969,0.09599794827044411,-0.9531815239320143,-2.069080092459932,0.13771817674761708,2.1375899371281073,-1.27534685916138,-0.001041501906802757,0.0006830931140012209,0.0001288467604412751,0.00030854571328792804,0.0008644105256360699,0.00013406502238866728,-0.0006682547039784023,0.2411382496356964,-21.84811782836914,-2.38179087638855,22.56842803955078,0.6737161874771118,2.2615859508514404,-0.05396880581974983,,,,,,,,,
1739401638.6648405,0.5254719053773965,0.09599622651157912,-0.9531820012797546,-2.069081874660234,0.13771386490270654,2.137588115475041,-1.2753485142280327,-3.0370847408685427e-05,-0.0008947831844651848,0.001094971045105083,-0.0002758237044889389,-4.709546824361731e-05,-0.0018109445641209118,-0.0005609670149081527,0.2173345386981964,-21.82431411743164,-2.38179087638855,22.59223175048828,0.6801248788833618,2.2679946422576904,-0.06678618490695953,,,,,,,,,
1739401638.6758487,0.5254681958975514,0.09599422889545155,-0.953184112055439,-2.0690778566059733,0.13771422176556722,2.137588928364023,-1.2753501465266255,-0.0012641638788307157,-0.0007637493279532688,-0.0001852826696834627,0.0005129264168164512,-0.0010172354539632398,-0.0012908304157634972,-4.547570054708129e-05,0.2689092457294464,-21.79654312133789,-2.38179087638855,22.56842803955078,0.6801248788833618,2.2615859508514404,-0.013685601763427258,,,,,,,,,
1739401638.6858778,0.5254690453361919,0.09599630640683021,-0.9531841226751456,-2.0690788936633,0.1377149399365168,2.1375892437853783,-1.2753544103433667,-0.00036046926271312256,0.0011290900053488795,-2.7752503345589223e-05,-0.0007130459608367785,0.0011342047249133214,0.0006881094890237665,-0.0012104245109720128,0.2173345386981964,-21.82431411743164,-2.38179087638855,22.54065704345703,0.6737161874771118,2.2615859508514404,-0.013685601763427258,0,0,0,0.000,0,0
1739401638.696871,0.5254719062339743,0.0959983701526156,-0.9531843093868602,-2.0690777741569657,0.13771791637457903,2.137589668745096,-1.2753499044252419,0.0002843738927146149,0.0001581022861509966,-0.00020497544318456878,-0.000339945276666121,0.0016897756887434869,5.937498483521875e-05,0.0007346553494295644,0.2173345386981964,-21.82431411743164,-2.38179087638855,22.56842803955078,0.6608988046646118,2.2551772594451904,-0.027418512850999832,0,0,0,0.000,0,0
1739401638.7069323,0.5254691319112358,0.0960005986408702,-0.9531872352769596,-2.0690777467801698,0.1377172587700552,2.1375881140161437,-1.275348575771364,-0.0006468935130317545,0.0007773007970105645,-0.0017015115408897399,0.0009644614171268682,0.0007492830856163481,-0.0002914214882665239,0.0004148174071122449,0.2689092457294464,-21.87192153930664,-2.3302161693573,22.56842803955078,0.6544901132583618,2.2679946422576904,-0.06678618490695953,0,0,0,0.000,0,0
1739401638.7178845,0.5254736188851562,0.09599623528586941,-0.9531798411553462,-2.0690780793843024,0.13771573708777435,2.1375872481182445,-1.275352068531646,0.0008698351480119303,-0.0013444732476973306,0.0006302381786133741,0.0008332927509894,9.362587900788059e-05,-0.001018048010028407,-0.0003229450586620102,0.1935308277606964,-21.82431411743164,-2.4095618724823,22.56842803955078,0.6673074960708618,2.2753188610076904,-0.0008682189509272575,0,0,0,0.000,0,0
1739401638.7288296,0.5254726083694018,0.09599965155303888,-0.9531820037166924,-2.0690802196097127,0.137715723924024,2.1375920549505936,-1.2753511250852123,0.0006851461540888773,-0.0004638481437634674,0.00022761072736596582,0.00146673745968506,3.937618155497956e-05,0.0005668841133250771,-0.0004185154348876781,0.2173345386981964,-21.87192153930664,-2.38179087638855,22.56842803955078,0.6673074960708618,2.2615859508514404,-0.013685601763427258,0,0,0,0.000,0,0
1739401638.7388887,0.5254722988999342,0.09600250147671974,-0.9531811830157619,-2.069077747726015,0.1377168018857482,2.1375912929837733,-1.2753483068906564,-9.769169436362406e-05,0.00035915483988180797,0.0007209136325398614,0.0010833621147676505,0.0009938276119917794,3.8977041630948054e-05,-0.0005662759294958041,0.2411382496356964,-21.87192153930664,-2.38179087638855,22.56842803955078,0.6673074960708618,2.2679946422576904,-0.06037749722599983,0,0,0,0.000,0,0
1739401638.749855,0.5254721060161506,0.09600030992506764,-0.9531792983648089,-2.0690765276692566,0.1377149794336709,2.1375899869269395,-1.2753463622559154,0.001727914945804404,0.0004500305779227229,0.0007054996277542043,-8.499541359443185e-05,0.0001295255378384969,0.0008997339476207246,0.0014495595552010431,0.2173345386981964,-21.84811782836914,-2.38179087638855,22.54065704345703,0.6737161874771118,2.2551772594451904,-0.06037749722599983,0,0,0,0.000,0,0
1739401638.7598648,0.5254681959009381,0.09600030973261259,-0.9531811710871733,-2.0690795293582473,0.13771573708773854,2.137588876042262,-1.2753526866742293,-0.0005861771381025333,0.00031750342279758504,-2.2321944464307267e-05,0.0006089539446964736,0.000315920889019444,0.0001801353337294899,-0.0017593472039852218,0.2689092457294464,-21.84811782836914,-2.38179087638855,22.59223175048828,0.6673074960708618,2.2615859508514404,-0.0008682189509272575,0,0,0,0.000,0,0
1739401638.769886,0.525474714400184,0.096000440911045,-0.953181271872434,-2.069075707915364,0.13771184055019267,2.137588871675629,-1.2753506278510962,0.0008905392274351669,7.666363429507266e-05,0.0003820021456769667,0.0015062506167915963,-0.0007460805530108783,-0.00043018390381689177,0.0010326856406505523,0.2173345386981964,-21.87192153930664,-2.4095618724823,22.54065704345703,0.7002664804458618,2.2615859508514404,-0.04023589566349983,0,0,0,0.000,0,0
1739401638.7808852,0.5254719073736355,0.09599933171493293,-0.953179012122844,-2.0690846365971938,0.13771922253160665,2.1375938678881505,-1.275356410613874,0.0006773072492062217,0.0012946711402693307,0.00043877287667588573,-0.0011696892818835118,0.0007699762104425668,0.0012100153445956194,-0.001399604912938796,0.2173345386981964,-21.82431411743164,-2.4095618724823,22.61603546142578,0.6737161874771118,2.2551772594451904,-0.0008682189509272575,0,0,0,0.000,0,0
1739401638.7918737,0.5254692401640992,0.09599794294711872,-0.9531861319467247,-2.0690767793460174,0.13771484776029672,2.13759432375561,-1.275347027514818,-0.0007697111223457474,-0.0006270387285463401,-0.0011493645926362339,0.00047144256863822524,8.104392369562573e-05,0.0007652947773684204,0.0019325077294461512,0.2411382496356964,-21.84811782836914,-2.35798716545105,22.54065704345703,0.6737161874771118,2.2423598766326904,-0.04023589566349983,0,0,0,0.000,0,0
1739401638.8028378,0.525471907637727,0.09600078311001324,-0.9531829619173812,-2.0690813439458555,0.13771346410676014,2.1375899313316307,-1.2753538116274592,0.00035355257751939,-7.410797113845972e-05,0.0006186015298497333,-0.0015483536481775704,0.0006368479817761377,-0.0016758422596990904,-0.0010165983992115337,0.2173345386981964,-21.84811782836914,-2.35798716545105,22.61603546142578,0.6865335702896118,2.2615859508514404,-0.013685601763427258,0,0,0,0.000,0,0
1739401638.8128483,0.525473618879894,0.09599591087583231,-0.953182203394072,-2.069079971907263,0.13771621098145737,2.1375904393414658,-1.275350110498311,0.0011474782055701867,-0.0010334425444744947,0.00025970182000617054,6.268752496777523e-05,0.0011898110870605006,0.0011772683778780509,-0.0006357633289518431,0.1935308277606964,-21.82431411743164,-2.38179087638855,22.56842803955078,0.6673074960708618,2.2487685680389404,-0.05396880581974983,0,0,0,0.000,0,0
1739401638.8228824,0.525468195897557,0.09599494177701086,-0.953185429681862,-2.0690803016096027,0.1377164903679374,2.137589933252638,-1.2753501898236008,-0.0006934892761497237,-0.0002104979140614496,-0.0006384726257757209,-0.0016716762168656049,0.0003299064561262464,0.0006874262421214763,0.0002352647672218033,0.2689092457294464,-21.79654312133789,-2.35798716545105,22.56842803955078,0.6608988046646118,2.2615859508514404,-0.05396880581974983,0,0,0,0.000,0,0
1739401638.833869,0.5254729060406623,0.09599794823831717,-0.9531815816016198,-2.0690780041425065,0.13771649474779205,2.137589685309285,-1.2753531308670527,0.0004924372166332893,0.0011680569975490304,0.000825066372145071,0.00043840032455066106,0.0007259729692934609,0.0014763086636515855,0.0008396448471102551,0.1935308277606964,-21.84811782836914,-2.4095618724823,22.56842803955078,0.6608988046646118,2.2679946422576904,-0.027418512850999832,0,0,0,0.000,0,0
1739401638.8439407,0.5254697605798572,0.09599693972336515,-0.9531871902967749,-2.069080522865774,0.13771142522476792,2.1375899319863167,-1.275349261615971,0.0003655894799799836,-0.00034551953744680865,-0.00022144166844079171,-0.0011585182357951743,-0.0006058220584797632,-0.0007705277870605234,-5.262445338464236e-05,0.2173345386981964,-21.82431411743164,-2.3302161693573,22.59223175048828,0.6737161874771118,2.2615859508514404,-0.03382720425724983,0,0,0,0.000,0,0
1739401638.854849,0.5254701908828577,0.09599493886338357,-0.9531833189695744,-2.0690777466722587,0.13771654369893768,2.13759129293585,-1.2753532904505482,-0.0004257911415554845,-0.0004834054730538217,0.0013038279854952458,0.0002470605224489711,0.0018821988657511963,-0.00036002814565837753,0.0004087992904790625,0.2411382496356964,-21.79654312133789,-2.38179087638855,22.56842803955078,0.6608988046646118,2.2679946422576904,-0.013685601763427258,0,0,0,0.000,0,0
1739401638.864863,0.5254681962184992,0.09599965156501822,-0.9531839878455315,-2.0690820018326384,0.13771422323104565,2.137589683332333,-1.2753509039068993,-0.0015942258667047077,0.0002413452916026748,-0.0006778301911706167,0.00026839791207035465,-0.00013793196766591364,0.00037716023536136665,0.000338892627727031,0.2689092457294464,-21.87192153930664,-2.35798716545105,22.59223175048828,0.6801248788833618,2.2551772594451904,-0.04756011441349983,0,0,0,0.000,0,0
1739401638.8758178,0.5254719060320941,0.09599973047395426,-0.9531871173080622,-2.0690798593996695,0.1377215569425172,2.1375896692278173,-1.2753493930838653,-0.0001743989267577883,0.0007319794513553263,-0.002157526781188023,0.0009522560226722357,0.0016104937214088586,0.0017950707849094802,-0.00023826361389720353,0.2173345386981964,-21.87192153930664,-2.38179087638855,22.59223175048828,0.6544901132583618,2.2551772594451904,-0.06037749722599983,0,0,0,0.000,0,0
1739401638.8868706,0.5254681202766035,0.09600101695033249,-0.953177418137904,-2.069073897579685,0.13771503210681696,2.1375888852422493,-1.2753484685015035,-0.00020704919659398247,0.0003643052580200893,0.0003535110407172856,0.0021593407487975162,0.0009620340959062117,-0.0005816091699326565,0.0018959441215409935,0.2689092457294464,-21.84811782836914,-2.4333655834198,22.51685333251953,0.6737161874771118,2.2615859508514404,-0.06678618490695953,0,0,0,0.000,0,0
1739401638.8968854,0.5254736968797318,0.09599623544090709,-0.953182242968694,-2.069080610365365,0.13771573708863055,2.13759282730791,-1.2753468516302617,0.00041748746773946773,-0.001152788842332312,1.4995283718856529e-05,0.001527359680515035,-4.30565886683746e-05,0.0006215029118789674,0.0015856169472286837,0.1935308277606964,-21.82431411743164,-2.38179087638855,22.59223175048828,0.6673074960708618,2.2551772594451904,-0.05396880581974983,0,0,0,0.000,0,0
1739401638.9078658,0.5254718975292637,0.09600165079300335,-0.9531822417737017,-2.069085329214302,0.13771299021378444,2.1375893557258396,-1.275349393065267,0.0003348045768974782,0.0003062518465039429,0.00041926696681099184,-0.001289798651870461,-0.001847120050704947,-0.0006006044063044254,0.0004224085643593731,0.2173345386981964,-21.89969253540039,-2.38179087638855,22.63983917236328,0.6865335702896118,2.2615859508514404,-0.06037749722599983,0,0,0,0.000,0,0
1739401638.9178755,0.5254719063589915,0.09599866101295852,-0.9531861462222188,-2.069080722961675,0.137715737079713,2.1375891867437553,-1.2753524872646875,0.0005008844276972031,-0.00019152845633829422,-0.0007316971069121219,0.00042011560615810677,-0.0007025122158028398,-0.00012486612863355228,-0.0006257474941053097,0.2173345386981964,-21.84811782836914,-2.35798716545105,22.56842803955078,0.6673074960708618,2.2679946422576904,-0.03382720425724983,0,0,0,0.000,0,0
1739401638.928877,0.5254693476645272,0.0959963317074693,-0.9531843884613533,-2.0690805218984143,0.13771497942766003,2.137588889124214,-1.2753468502965046,-0.0008193965961863238,-0.0006622214324816086,5.713598514846873e-05,0.000565197126540781,-0.0011063477370130196,-0.0005054822813962204,0.0028509167263991927,0.2689092457294464,-21.82431411743164,-2.38179087638855,22.59223175048828,0.6737161874771118,2.2615859508514404,-0.08051909506320953,0,0,0,0.000,0,0
1739401638.9389224,0.5254697606114345,0.09600088541672708,-0.9531843771237971,-2.069078747888869,0.13771573643767845,2.1375924044489705,-1.2753505448683946,-0.0003692520696990399,0.0009669371924722373,-0.0014655556832516377,-0.0001249135588481305,-6.477741929062949e-05,0.0002717658981869147,0.0005899170403759779,0.2173345386981964,-21.84811782836914,-2.38179087638855,22.56842803955078,0.6673074960708618,2.2615859508514404,-0.04756011441349983,0,0,0,0.000,0,0
1739401638.9498177,0.5254719030765402,0.09599622374950632,-0.9531790917831862,-2.069080256958961,0.13771671722428191,2.1375897475776626,-1.2753531703919254,-0.00043727996441334167,-0.00018445811239986164,0.0017842877128037787,-0.0008698379234842442,-0.0006396910677564519,-0.0013374194335590472,-0.0007904861078405104,0.2173345386981964,-21.82431411743164,-2.4095618724823,22.56842803955078,0.6865335702896118,2.2551772594451904,-0.027418512850999832,0,0,0,0.000,0,0
1739401638.9598434,0.5254740123898677,0.09599797443297339,-0.9531822294713442,-2.0690807141481407,0.1377196986234763,2.137587248120247,-1.2753537734117513,0.0009937944219788751,-0.0005069003380869647,0.0012546387693919583,0.00010420776511011582,0.0016078016219673531,-0.0005037368748941401,-0.0001238587776213008,0.2173345386981964,-21.84811782836914,-2.4095618724823,22.56842803955078,0.6608988046646118,2.2753188610076904,-0.013685601763427258,0,0,0,0.000,0,0
1739401638.9699056,0.5254701929999267,0.09599654317031875,-0.95318402580602,-2.069080219658089,0.1377157855714642,2.1375910436400227,-1.2753564269898228,-0.0002239799189820681,0.00013679142396736982,-0.000807291271810729,-0.00017575183334228063,0.0002790246755022674,0.0008098391919962555,-0.0016213783073009817,0.2411382496356964,-21.82431411743164,-2.35798716545105,22.56842803955078,0.6673074960708618,2.2551772594451904,-0.0008682189509272575,0,0,0,0.000,0,0
1739401638.9799123,0.5254682305647161,0.09599422857603655,-0.9531843848276208,-2.069078611683981,0.13771894025906725,2.1375906889977143,-1.2753517738046245,-0.0008436660318925602,-0.0010046994830590118,-0.0009370254014848807,-0.0010906632243014745,0.001390040652138599,0.0007795306922257692,-0.0009003241933365108,0.2689092457294464,-21.79654312133789,-2.38179087638855,22.56842803955078,0.6673074960708618,2.2551772594451904,-0.04023589566349983,0,0,0,0.000,0,0
1739401638.98993,0.525468192627656,0.09599649737607306,-0.9531822293077284,-2.0690785752533913,0.13771573584186447,2.137589395456106,-1.2753511567460858,-0.0013705222605596417,-0.0009599063009114626,-9.782688700413786e-05,0.0005127738039660955,5.169564834451196e-05,0.0002870236445710056,-0.0009614910011361807,0.2689092457294464,-21.82431411743164,-2.4095618724823,22.56842803955078,0.6673074960708618,2.2615859508514404,-0.05396880581974983,0,0,0,0.000,0,0
1739401639.0008743,0.5254730018794342,0.09599648958293881,-0.9531802880116573,-2.0690811334191754,0.13771922691950442,2.137591554559916,-1.27534544419029,0.0006498928615099537,-0.00023706145365619914,0.0011571000617742002,-0.0019943445437614845,0.0009292317614452909,0.000329408310522786,0.0023962766262471845,0.2411382496356964,-21.82431411743164,-2.4333655834198,22.56842803955078,0.6737161874771118,2.2423598766326904,-0.05396880581974983,0,0,0,0.000,0,0
1739401639.0118327,0.5254719063749926,0.09599622683778965,-0.9531801365211461,-2.0690804028441283,0.1377157968543362,2.1375904029123003,-1.2753494604207094,0.0005616084804713717,-0.002080370770178641,0.001539316621998483,-0.0006726803924142293,-0.00045855950138230534,0.0009498011803303806,0.00042625113486302087,0.2173345386981964,-21.82431411743164,-2.4095618724823,22.61603546142578,0.6938577890396118,2.2615859508514404,-0.04756011441349983,0,0,0,0.000,0,0
1739401639.0219233,0.5254753569649186,0.09599525454322237,-0.9531902739609798,-2.069079542894742,0.13771564350290794,2.1375910422124043,-1.2753493796503679,0.0019592202196612417,-0.0004607195415580216,-0.0025058703563173275,-3.794520537737944e-05,0.0006794883043860669,0.0017946577976945678,-2.8222388079164455e-05,0.1697271168231964,-21.79654312133789,-2.3302161693573,22.59223175048828,0.6801248788833618,2.2551772594451904,-0.06037749722599983,0,0,0,0.000,0,0
1739401639.0328395,0.5254729036242793,0.09600008293129225,-0.9531794467516403,-2.0690798895334974,0.13771575459321173,2.137592849441921,-1.275352084036443,0.00024644971830864134,0.001150567832091926,0.0007950254876879281,0.00025273133893580864,0.0006151321909002878,0.0008144679831174515,-0.0020607456004477828,0.1935308277606964,-21.84811782836914,-2.4095618724823,22.59223175048828,0.6673074960708618,2.2551772594451904,-0.0008682189509272575,0,0,0,0.000,0,0
1739401639.0428772,0.525468195885444,0.095999652888407,-0.9531818855085148,-2.0690820552431797,0.13771467082716723,2.137589633750817,-1.275350137261394,-0.0017409719522140422,-0.0003474326270516719,0.0013474090380199274,-0.0008247477330963511,-0.0011696750230244493,-9.481797863931794e-05,0.0011817250857775001,0.2689092457294464,-21.87192153930664,-2.38179087638855,22.61603546142578,0.6673074960708618,2.2551772594451904,-0.05396880581974983,0,0,0,0.000,0,0
1739401639.0539358,0.5254702978399299,0.09599965545032849,-0.9531843854675868,-2.0690802283548657,0.13771665270637068,2.137593116742156,-1.2753507453438973,0.0007802759222796539,0.001144046307888469,-0.00014626730502823157,0.0015750835133104494,0.0007885115739543545,0.0026033164360411303,0.0019369869776834831,0.2411382496356964,-21.87192153930664,-2.38179087638855,22.56842803955078,0.6608988046646118,2.2615859508514404,-0.04756011441349983,0,0,0,0.000,0,0
1739401639.0648494,0.5254697605925164,0.09600030763555831,-0.9531819547684753,-2.069078821634902,0.13771467472812227,2.1375881188846075,-1.2753501492531594,-0.000663109690467715,-0.0005637112805581713,0.0008673775026486531,0.0011610762351375553,-0.00016211439071498525,-0.0010685416075862687,0.001041331389032257,0.2173345386981964,-21.84811782836914,-2.4095618724823,22.56842803955078,0.6673074960708618,2.2679946422576904,-0.05396880581974983,0,0,0,0.000,0,0
1739401639.07587,0.52547353958265,0.0959980219989263,-0.9531832752243596,-2.0690845632431802,0.13771310866922304,2.13759144711844,-1.2753562082671386,-0.0004960926505645355,-0.00034069184640870133,-0.0018848351118061746,-0.0010084701566942312,-0.0010381388517807155,0.00044808930285423565,-0.0010933818301014882,0.1935308277606964,-21.84811782836914,-2.35798716545105,22.61603546142578,0.6865335702896118,2.2487685680389404,0.0064559997990727425,0,0,0,0.000,0,0
1739401639.0868466,0.5254672422230914,0.09600071696812762,-0.9531812451640405,-2.0690795298522495,0.1377172860478298,2.137591048164174,-1.2753549131768134,-0.00025647573233736034,0.0013418869285492482,0.0013060151902299056,0.0007891558231043381,-7.521462248612264e-05,0.0011193208372590607,-5.6640666179741525e-05,0.2689092457294464,-21.87192153930664,-2.4095618724823,22.59223175048828,0.6544901132583618,2.2551772594451904,-0.013685601763427258,0,0,0,0.000,0,0
1739401639.0968924,0.525473610033404,0.09599889519565288,-0.9531881679489728,-2.0690788497336396,0.13771426174683965,2.137590336878231,-1.2753445106431431,0.0011352349596675648,0.0006135846520644384,-0.003253435705926508,0.0008526059189509883,0.00037935794491453294,0.0007508604404005625,0.0011751290177503615,0.1935308277606964,-21.84811782836914,-2.3302161693573,22.56842803955078,0.6801248788833618,2.2615859508514404,-0.07411040365695953,0,0,0,0.000,0,0
1739401639.1078985,0.525467703688756,0.09600008159570124,-0.9531819149545719,-2.0690786718558973,0.137714223772159,2.137590689035869,-1.2753522014874386,-0.001335004607783187,0.0008314479203889015,-0.00022096455236798613,0.0012920791264465939,-0.0002305696184795198,0.0006892789962048627,0.0010064858199227255,0.2411382496356964,-21.84811782836914,-2.38179087638855,22.54065704345703,0.6801248788833618,2.2551772594451904,-0.027418512850999832,0,0,0,0.000,0,0
1739401639.1188877,0.525471905909019,0.09599446924299486,-0.9531854562685391,-2.0690826154308453,0.13771499264555748,2.137591306071634,-1.2753525312930425,0.0002666375882120457,-0.00174779888245111,-0.00036214784747335283,-0.0008127416586674,-0.0002926203332577441,0.0008225047451853471,0.0012549220742030466,0.2173345386981964,-21.79654312133789,-2.35798716545105,22.59223175048828,0.6737161874771118,2.2679946422576904,-0.03382720425724983,0,0,0,0.000,0,0
1739401639.1299243,0.5254719092480696,0.09599619158124682,-0.9531840253309269,-2.0690742172740104,0.13771422176765635,2.1375931102460917,-1.2753509096368696,0.0004559029988211718,-0.0008310917393481323,-0.00045342546214888863,0.0020584424303867403,-0.00011974712399528384,0.0005010426103582995,0.0006834338457997258,0.2173345386981964,-21.82431411743164,-2.35798716545105,22.51685333251953,0.6801248788833618,2.2615859508514404,-0.04756011441349983,0,0,0,0.000,0,0
1739401639.1408057,0.5254674806418685,0.09599801795263145,-0.953183782991792,-2.0690778334976927,0.1377135830684781,2.1375917001572193,-1.2753564284990349,-0.000936520246179656,0.0011312676545245778,0.000930303808617515,0.00019804841589254974,-3.60015084370516e-05,0.00016989998525223304,-0.0020769323193137587,0.2689092457294464,-21.84811782836914,-2.35798716545105,22.56842803955078,0.6865335702896118,2.2679946422576904,-0.0008682189509272575,0,0,0,0.000,0,0
1739401639.1509206,0.525473539402975,0.0959970814178485,-0.9531861711977094,-2.0690781048219216,0.1377149794283316,2.1375872874381803,-1.2753493930838908,0.0007412237700145021,0.0006954219018202844,-0.00031678495992820227,0.0005428414688052618,-0.0005159536498445414,0.00039812363723770646,0.0003536268561379968,0.1935308277606964,-21.79654312133789,-2.35798716545105,22.56842803955078,0.6737161874771118,2.2753188610076904,-0.06037749722599983,0,0,0,0.000,0,0
1739401639.1618109,0.5254701938379612,0.09599154445860104,-0.9531830368117792,-2.069077838355392,0.13771725240789512,2.137591298905793,-1.275350110516966,-0.0006575269619165888,-0.001459347540125311,-6.072904913897103e-05,0.0005141763066140149,0.0012579749640361537,-0.0004855750042797635,0.0010712062627205045,0.2411382496356964,-21.74496841430664,-2.35798716545105,22.56842803955078,0.6544901132583618,2.2679946422576904,-0.05396880581974983,0,0,0,0.000,0,0
1739401639.171876,0.5254719063591411,0.09599632688519692,-0.9531812500480727,-2.0690789222656294,0.13771578974259607,2.1375911732214368,-1.2753501907806488,0.0011328327807406955,2.3551159104909117e-05,0.0011388019304324575,0.00020193149473280206,0.0012343094354865004,0.0007691365054156897,0.0008965458833300865,0.2173345386981964,-21.82431411743164,-2.38179087638855,22.54065704345703,0.6673074960708618,2.2551772594451904,-0.08051909506320953,0,0,0,0.000,0,0
1739401639.181906,0.5254719063591411,0.09599794336432643,-0.9531822078629193,-2.069078885689741,0.13771422176847345,2.1375920565917954,-1.275347950283187,-0.0004570631944733303,0.00019082306830450497,0.0005392198145742203,-0.0003253415843467301,-0.0004697589697244698,0.0020141073921016144,0.0013365286111954257,0.2173345386981964,-21.84811782836914,-2.38179087638855,22.54065704345703,0.6801248788833618,2.2615859508514404,-0.06037749722599983,0,0,0,0.000,0,0
1739401639.1928456,0.5254719063591411,0.0959962615875358,-0.9531840431946622,-2.069084292629775,0.1377168033486061,2.137588157639963,-1.2753512103739537,0.0007391781164259709,-0.0009134926225693068,0.0005569561605434249,2.1461753999559298e-05,0.0001449783163965773,-0.0006136502222644515,0.0005583229238589195,0.2173345386981964,-21.82431411743164,-2.38179087638855,22.61603546142578,0.6673074960708618,2.2679946422576904,-0.05396880581974983,0,0,0,0.000,0,0
1739401639.2028701,0.5254708929052313,0.09599622651212099,-0.9531840621699504,-2.0690817913767385,0.13771499455961161,2.1375931121668783,-1.2753538793955284,-0.00037241073459424524,-8.362141232437866e-06,0.0001688445986555248,-0.000585396987888107,-0.0004159276979294955,-0.0001907653931959243,-0.0003752708134581878,0.2411382496356964,-21.82431411743164,-2.38179087638855,22.59223175048828,0.6737161874771118,2.2615859508514404,-0.013685601763427258,0,0,0,0.000,0,0
1739401639.2128968,0.52547190637098,0.09599865224394044,-0.9531822166338632,-2.0690846498625772,0.13771650986196737,2.137591164356506,-1.275349969980476,0.0008266556376923791,-4.6601673453350496e-05,-0.0004905980791590132,-0.0007151683519880254,5.836575410384477e-05,0.00013640595092241907,0.0012700365886575639,0.2173345386981964,-21.84811782836914,-2.38179087638855,22.61603546142578,0.6608988046646118,2.2551772594451904,-0.06037749722599983,0,0,0,0.000,0,0
1739401639.222909,0.5254722183637016,0.095998357389656,-0.9531801689295551,-2.0690803414234202,0.13771621098171333,2.137590102249976,-1.2753469009787761,0.0010353192184525536,4.068132857768295e-05,0.001932498602829197,0.00040539477615346935,0.0005504415415412468,-0.0004256312792735577,0.0016882371135884774,0.2173345386981964,-21.82431411743164,-2.4333655834198,22.56842803955078,0.6673074960708618,2.2551772594451904,-0.05396880581974983,0,0,0,0.000,0,0
