IITGN-Robotics/Franka_IITGN_ROBOTICS/franka_ros/franka_iitgn/data/b_29.csv
time,fr3_joint1_pos,fr3_joint2_pos,fr3_joint3_pos,fr3_joint4_pos,fr3_joint5_pos,fr3_joint6_pos,fr3_joint7_pos,fr3_joint1_vel,fr3_joint2_vel,fr3_joint3_vel,fr3_joint4_vel,fr3_joint5_vel,fr3_joint6_vel,fr3_joint7_vel,fr3_joint1_eff,fr3_joint2_eff,fr3_joint3_eff,fr3_joint4_eff,fr3_joint5_eff,fr3_joint6_eff,fr3_joint7_eff,flexpin1,flexpin2,flexpin3,Force,ContactMic,ContactMic_gt
1739401689.0151513,0.5255361731663963,0.09587002886499092,-0.9531530860903548,-2.069000450911913,0.1377223935845504,2.1374779643896704,-1.2753489887090128,-0.0008289054883901541,0.0025624621491397736,0.0008019184821751907,0.00040178624095597404,0.0007802058113004103,0.00034212906745933634,0.0004908756759077083,0.2173345386981964,-21.72116470336914,-2.3302161693573,22.51685333251953,0.6480814218521118,2.2679946422576904,-0.06678618490695953,,,,,,,,,
1739401689.0251884,0.5255389405904576,0.09589770477186162,-0.9531577322486471,-2.069003209170954,0.13771901992041938,2.1374875273149803,-1.2753547953394706,0.0006102310873882982,0.001238317239681106,-0.001066584592656841,0.0008093185769581011,-0.0003871942622597461,0.0006774393335289488,-0.000297590534017203,0.2173345386981964,-21.72116470336914,-2.3064124584198,22.51685333251953,0.6801248788833618,2.2551772594451904,-0.05396880581974983,,,,,,,,,
1739401689.036108,0.5255358291563276,0.09592231098931828,-0.9531558338931163,-2.069009195407285,0.13772312392405972,2.137486873893191,-1.2753501660393465,0.0017405998970181826,0.0005269366212163435,-7.564851065708432e-05,-0.0003469557937556667,-0.00013741298886170796,-0.00017091370330950945,0.0004983546977124664,0.2173345386981964,-21.74496841430664,-2.3064124584198,22.59223175048828,0.6737161874771118,2.2753188610076904,-0.06678618490695953,,,,,,,,,
1739401689.0461714,0.5255299475273434,0.09594200574440784,-0.9531567687131424,-2.069011421102899,0.13772059380402701,2.137489949550449,-1.2753526117545733,-0.0007257882757983348,0.0006418089836947758,-0.00012757262556981189,0.0006371997494861603,0.0004696317278193147,0.0007517614770012173,-0.00013711245836835846,0.2689092457294464,-21.79654312133789,-2.2826087474823,22.59223175048828,0.6673074960708618,2.2615859508514404,-0.06037749722599983,,,,,,,,,
1739401689.057201,0.5255309309886167,0.09595453671767709,-0.9531562679010682,-2.0690124597910704,0.13771990899289935,2.1374916362361565,-1.2753525373878414,0.0001079407923145371,0.0018913351558088338,0.00020920509180102573,-6.083167884168557e-05,0.0005871998821254487,-0.0014724764798510117,0.0005701319116196513,0.2411382496356964,-21.82431411743164,-2.3302161693573,22.59223175048828,0.6737161874771118,2.2753188610076904,-0.07411040365695953,,,,,,,,,
1739401689.0681417,0.5255354515332101,0.09596768138286366,-0.9531471434028764,-2.0690125337577965,0.1377190249640523,2.1374919041373635,-1.2753534032036469,0.000492090439375562,0.0013828577773230353,0.000841885595284409,0.0008721047629243277,-0.002330941871777609,0.0009757759351848654,0.0019863042383396834,0.2173345386981964,-21.87192153930664,-2.4095618724823,22.59223175048828,0.6801248788833618,2.2551772594451904,-0.06678618490695953,,,,,,,,,
1739401689.0791326,0.5255345575998304,0.09597304690030549,-0.9531361740135202,-2.0690078862959376,0.13772443788152589,2.137492508153293,-1.2753589238902474,-0.0010519789663152763,0.00019642856521405444,0.002281572622494124,0.003221651624329684,0.0005236711220518556,-9.011817272682761e-05,-0.0013038622844868104,0.1935308277606964,-21.84811782836914,-2.48494029045105,22.51685333251953,0.6737161874771118,2.2679946422576904,-0.020094294100999832,,,,,,,,,
1739401689.090205,0.5255367007220855,0.09597720453893344,-0.9531382521890119,-2.069014680342842,0.13772420072335498,2.137491642752541,-1.2753528906267955,0.0010472327455916973,-0.0006447071305807825,3.0881419833709265e-05,0.0008195968046133836,0.001458639110520254,-0.000923957092628752,0.0013496916776003834,0.1419561207294464,-21.87192153930664,-2.4571692943573,22.59223175048828,0.6737161874771118,2.2753188610076904,-0.07411040365695953,,,,,,,,,
1739401689.1011114,0.5255343559982156,0.09598936525239746,-0.9531393924806115,-2.0690191985167155,0.13772141610978883,2.1374933835629064,-1.2753534430423552,-0.0009468702727648704,0.00015287191731343502,0.0005084645768180067,-0.0007239896346018721,-0.0010225556411076865,-0.0004041946388965038,0.001397447208796857,0.1935308277606964,-21.95126724243164,-2.4571692943573,22.63983917236328,0.7002664804458618,2.2615859508514404,-0.06678618490695953,,,,,,,,,
1739401689.112166,0.5255326434921671,0.09599629250829618,-0.9531437847908732,-2.0690222681985952,0.13772147007987123,2.137494794229438,-1.2753525378992672,-0.001441140850431457,0.0009558696172807267,-0.0009834129569517196,-0.0010160642156791997,-0.0007418446945917765,0.0014674761105107443,0.00042215110162180543,0.2173345386981964,-22.00284194946289,-2.38179087638855,22.63983917236328,0.6608988046646118,2.2487685680389404,-0.07411040365695953,,,,,,,,,
1739401689.1231744,0.5255343560007856,0.09599378099494811,-0.953145340752481,-2.0690186305667155,0.1377245608656405,2.137493568467378,-1.2753556898755267,8.782504793228984e-06,-7.928988664618634e-05,-0.00021806020629279118,0.0006245178802545391,-0.00019651490993786367,0.00038842050577534386,0.0010863133132326926,0.1935308277606964,-21.92349624633789,-2.35798716545105,22.59223175048828,0.6737161874771118,2.2679946422576904,-0.04756011441349983,,,,,,,,,
1739401689.1332085,0.5255326425110206,0.09599154213856945,-0.953146820035416,-2.0690128034231297,0.1377239611788022,2.137493265843292,-1.2753541751836692,-0.0008944506739324954,-0.001114870048560952,-0.001069121287971818,0.001952582298294621,0.0005038721562509616,0.0001746787932367418,0.0004559500791490507,0.2173345386981964,-21.84811782836914,-2.3302161693573,22.54065704345703,0.6801248788833618,2.2615859508514404,-0.06037749722599983,,,,,,,,,
1739401689.144174,0.5255358261904594,0.09598784342303605,-0.9531475162115878,-2.0690130874504384,0.13772467934862917,2.1374943298241154,-1.2753594706285942,0.0015970613241312,-0.00018623013562982954,-0.0014313465248261424,0.0009916673558081368,-0.00014516995802118894,0.000710022975881801,-0.0013998486805418733,0.1697271168231964,-21.79654312133789,-2.35798716545105,22.51685333251953,0.6737161874771118,2.2615859508514404,-0.027418512850999832,,,,,,,,,
1739401689.1542053,0.5255296764930929,0.09598760666020782,-0.9531477570397716,-2.0690153127021764,0.13772567981123413,2.1374925140335144,-1.2753588572153371,-0.0017596348927723959,-0.00017638738940249242,-0.0008290845709917316,0.0004239264626856408,0.0006440402968550097,-0.0005376046511096275,0.0020479831768008307,0.2173345386981964,-21.79654312133789,-2.3302161693573,22.51685333251953,0.6673074960708618,2.2679946422576904,-0.04756011441349983,,,,,,,,,
1739401689.165167,0.5255294645610304,0.09598200209413085,-0.95314983097313,-2.069014561199581,0.1377281194671441,2.137497622330797,-1.2753650329317656,-0.0004704262292733113,-0.0008797402082479236,0.0005921229021573218,0.00107702582422403,0.00151986242617029,0.001390390004240402,-0.002195302066883023,0.2173345386981964,-21.74496841430664,-2.3302161693573,22.54065704345703,0.6737161874771118,2.2615859508514404,-0.0072769103571772575,,,,,,,,,
1739401689.1751742,0.5255325629838773,0.09598759492009783,-0.9531477861831477,-2.0690102558718046,0.13772308658218924,2.1374947813854255,-1.2753514559069874,0.0010948427882780352,-0.0003772055555706728,-4.528851094548405e-05,0.0016963610013998934,0.00018446427575420779,0.00015098377050779335,-0.00011770664119491452,0.2173345386981964,-21.79654312133789,-2.35798716545105,22.51685333251953,0.6865335702896118,2.2487685680389404,-0.04756011441349983,,,,,,,,,
1739401689.1862009,0.5255278187745499,0.0959868051068495,-0.953152020463733,-2.069009209185712,0.1377245613620843,2.1374986544964987,-1.2753566666853227,-0.0011400430363039129,0.0017018873695478255,2.0057032806590426e-06,0.0020933086644626,-0.0002730663260629068,0.0013035288891878809,0.0004075288456695162,0.2411382496356964,-21.79654312133789,-2.3302161693573,22.49304962158203,0.6737161874771118,2.2551772594451904,-0.04023589566349983,,,,,,,,,
1739401689.197175,0.5255294514419199,0.09598296528892009,-0.953147792136894,-2.0690138666015883,0.13772380321423214,2.137494509697196,-1.2753651681485199,-0.0003333438961572112,-0.00010572487494067371,0.0005522018859884501,-0.00020944337361613463,-0.0010573513587552187,-0.00014872871219358253,-0.0029974389374390325,0.2173345386981964,-21.77273941040039,-2.35798716545105,22.54065704345703,0.6801248788833618,2.2551772594451904,-0.0072769103571772575,,,,,,,,,
1739401689.2071788,0.5255277123219696,0.09598506579568243,-0.953149944705763,-2.0690147947717223,0.13772531902193105,2.1374965818826657,-1.27535659603243,-0.0017216752213630678,-0.000626258748095536,-0.001303773302349758,-0.0010240637648928081,0.00018169212630189137,0.0005724338969742417,0.0019563787305696976,0.2411382496356964,-21.77273941040039,-2.35798716545105,22.56842803955078,0.6673074960708618,2.2615859508514404,-0.06678618490695953,,,,,,,,,
1739401689.2181053,0.5255318914434394,0.09598749850324345,-0.9531460299024668,-2.069015977499704,0.13772687318367846,2.137496318051338,-1.2753588904107953,0.0007800705360065873,-0.0005205480790213922,-0.0008657532302362016,-0.0014529415417981527,0.0011806030690287477,0.0005487822795347032,-0.0020375892554495532,0.2173345386981964,-21.79654312133789,-2.38179087638855,22.59223175048828,0.6544901132583618,2.2487685680389404,-0.06037749722599983,,,,,,,,,
1739401689.2281296,0.5255326332403928,0.09599255611478714,-0.9531460034708092,-2.0690201836399766,0.13772320351894604,2.1374973783418927,-1.2753576936092657,0.0010511170937754144,0.0009544269043797291,-0.0019341518738913296,-0.0005181305065027562,-0.0004288150455872858,0.00026713085041470445,0.0008326180123757311,0.2173345386981964,-21.87192153930664,-2.38179087638855,22.61603546142578,0.6865335702896118,2.2551772594451904,-0.06037749722599983,,,,,,,,,
1739401689.2381353,0.5255294338346707,0.09599494862632499,-0.9531438977160888,-2.069018040989943,0.13772714051923404,2.1374980341251035,-1.2753593287578162,-3.493257986774941e-05,0.0003744539324947192,0.00037238251671249526,-0.0002809865039987404,0.0010863764275182894,0.0005191322729601782,0.00028810354739051427,0.2173345386981964,-21.89969253540039,-2.4095618724823,22.59223175048828,0.6608988046646118,2.2615859508514404,-0.04756011441349983,,,,,,,,,
1739401689.2491286,0.5255293055435694,0.09599526434567679,-0.9531456791895372,-2.0690166663103455,0.13772963674031924,2.1374979164593477,-1.2753581510824223,0.0009162931698372386,0.0007217125456489618,-0.0008468153980236766,0.0009417418509111716,0.00043192885529993265,0.00024500273324510745,0.0017774199606604337,0.1935308277606964,-21.89969253540039,-2.35798716545105,22.59223175048828,0.6673074960708618,2.2615859508514404,-0.05396880581974983,,,,,,,,,
1739401689.2591987,0.525529542164861,0.09599349384742134,-0.9531429757190264,-2.0690205148631033,0.13772487164466451,2.1374980211089833,-1.2753633887522844,-0.00014955099244595108,-0.000512342788929371,0.0008858558716884914,-0.0003245572570675794,-0.0003389934934130679,-0.00042916581818495307,-0.0015092103989667446,0.2173345386981964,-21.87192153930664,-2.4095618724823,22.61603546142578,0.6801248788833618,2.2615859508514404,-0.013685601763427258,,,,,,,,,
1739401689.2711754,0.5255285872857084,0.09600100243302374,-0.9531439108274384,-2.069019542585964,0.13772507433340925,2.1374972372909578,-1.2753579962140602,-0.00038708831197661203,0.0008463912076921039,-0.0003788764709368349,0.0005988613859579526,0.0012027933998692813,0.000735487126189862,5.3278423205577e-05,0.2689092457294464,-21.97507095336914,-2.4095618724823,22.63983917236328,0.6737161874771118,2.2679946422576904,-0.06678618490695953,,,,,,,,,
1739401689.2811887,0.525529884595001,0.09599376773904751,-0.9531450674925723,-2.0690169498784328,0.13772598255836307,2.1374986741192044,-1.2753581568438956,-0.0006794027429377989,-0.0019618783655273924,-0.0005852757022594876,0.0008746033956815984,-9.019038149719762e-05,0.000821128748103208,0.001306692267800164,0.2411382496356964,-21.84811782836914,-2.38179087638855,22.56842803955078,0.6737161874771118,2.2551772594451904,-0.05396880581974983,,,,,,,,,
1739401689.293199,0.525526035335922,0.09599359436273994,-0.9531438861194165,-2.0690180438412145,0.1377311516150681,2.137494593340734,-1.2753567951123976,-0.0004375417482704193,0.00012788692986272937,0.001212531626543183,-0.0006691030679467714,0.001438278642124972,-0.0008024522796484343,0.0005543117663639411,0.2689092457294464,-21.87192153930664,-2.4095618724823,22.59223175048828,0.6544901132583618,2.2817275524139404,-0.04756011441349983,,,,,,,,,
1739401689.3051326,0.5255294251690021,0.09599442777979925,-0.9531498627632066,-2.0690169496127475,0.1377268358309045,2.137495352453034,-1.2753637407097476,0.00023407634316973937,0.0004307465968998969,-0.0003459605424421026,0.0006251966296469162,-0.00010941213225680276,-0.0012105624500141595,-0.0011999761236542454,0.2173345386981964,-21.84811782836914,-2.3302161693573,22.56842803955078,0.6544901132583618,2.2753188610076904,-0.0072769103571772575,,,,,,,,,
1739401689.3151715,0.5255277127566852,0.0959930298866524,-0.9531498659731826,-2.069015989756683,0.1377249164571231,2.1374956529735543,-1.2753585373602079,-0.0006171898286172305,0.0007762680920621102,-0.0003380337569579574,0.0003595293400678771,-0.002101431182769485,0.0012361572484966413,2.3055927467096953e-05,0.2411382496356964,-21.82431411743164,-2.3302161693573,22.59223175048828,0.6737161874771118,2.2817275524139404,-0.06037749722599983,,,,,,,,,
1739401689.326103,0.5255308127433004,0.09599103227159231,-0.9531439354902275,-2.0690187325595484,0.13772609423965043,2.137496410639607,-1.2753636922551865,0.0002296831065176169,-0.00018453972570109628,-0.0003457852552895956,-0.0006980472451932373,0.00036189224923209253,-0.0003955224824764733,-0.00225551718574262,0.2411382496356964,-21.79654312133789,-2.4095618724823,22.59223175048828,0.6608988046646118,2.2753188610076904,-0.020094294100999832,,,,,,,,,
1739401689.3361266,0.5255294248951902,0.09598636810945252,-0.953143923716537,-2.069014861635855,0.13772857013446352,2.1374980341969176,-1.275362826203095,-0.00039633605956864343,-0.0009378537403591257,5.660913953058082e-05,-0.0009515538343817485,0.002257672892708392,1.7252555858303414e-05,-0.001249521093693533,0.2173345386981964,-21.74496841430664,-2.4095618724823,22.54065704345703,0.6673074960708618,2.2615859508514404,-0.027418512850999832,,,,,,,,,
1739401689.3461514,0.5255304579885264,0.09598836614216143,-0.9531456020444256,-2.069011885491583,0.13772543706288193,2.137497276536839,-1.275359462871581,-0.00016483901486702827,0.00030250859561227114,-0.0012881757974856172,-0.0002648234231471888,-0.0004966613503852054,-0.00033054987701027204,-0.0006340556024529125,0.2173345386981964,-21.77273941040039,-2.35798716545105,22.54065704345703,0.6673074960708618,2.2679946422576904,-0.06678618490695953,,,,,,,,,
1739401689.3581717,0.5255277123264503,0.09599232146606189,-0.9531439150373476,-2.069018425211725,0.137729329582774,2.1375012131113054,-1.275363757210955,-0.0010639293951531987,0.0017947801807503042,-0.000421873764855742,-0.0019933687025578423,0.0012016371131997106,0.0008317497254151654,6.790294121103869e-05,0.2411382496356964,-21.82431411743164,-2.4095618724823,22.59223175048828,0.6608988046646118,2.2615859508514404,-0.03382720425724983,,,,,,,,,
1739401689.3691401,0.5255318526299309,0.09599103212625505,-0.9531478300141496,-2.069014193912793,0.13772492068862358,2.1374987918629773,-1.2753571125324648,0.00022766586325726845,0.0001930818471213105,-0.0010624736210578056,-0.0016776304613550443,0.0004897975547476764,0.00045175075500031867,0.0010360195646600017,0.1935308277606964,-21.79654312133789,-2.35798716545105,22.56842803955078,0.6737161874771118,2.2551772594451904,-0.06678618490695953,,,,,,,,,
1739401689.379184,0.5255328855432446,0.09599442746115949,-0.9531468151822409,-2.069012397285926,0.13772483120907308,2.137498791856996,-1.2753605133294998,0.0010400480890629797,0.0007411904238369034,-0.0003535521259358048,0.0012803141797127228,-6.454376953005981e-05,0.00012475011225845562,0.00010727529951696374,0.1697271168231964,-21.84811782836914,-2.35798716545105,22.51685333251953,0.6544901132583618,2.2551772594451904,-0.020094294100999832,,,,,,,,,
1739401689.3900914,0.5255294248419533,0.09599474240382233,-0.9531439237000265,-2.0690169489724837,0.13772781211584306,2.1374980341969176,-1.275356548394765,0.00012271696129341863,0.0011762830954623435,-0.0002066217365143057,-0.0001719707695507884,-0.00013559367530251347,5.122246132108294e-05,0.0023996559425546555,0.2173345386981964,-21.84811782836914,-2.4095618724823,22.56842803955078,0.6737161874771118,2.2615859508514404,-0.08051909506320953,,,,,,,,,
1739401689.4001164,0.5255291912739942,0.09599636452815022,-0.9531436781573258,-2.06902050394532,0.13772860769885278,2.137496410639607,-1.2753620687045208,0.0009797842951752077,-0.0007947650715682184,0.0001252327818159299,0.0003436271786977042,0.0008738313160011121,0.0002503964339820192,-0.0003442441363652436,0.2173345386981964,-21.87192153930664,-2.4095618724823,22.61603546142578,0.6737161874771118,2.2753188610076904,-0.03382720425724983,,,,,,,,,
1739401689.4111216,0.5255294513309842,0.09599302988791816,-0.9531438456782785,-2.0690187322909988,0.1377239743653612,2.137498791856996,-1.275358172167417,-0.0010930944606103382,-0.0004293641841729012,0.00020011728489864987,0.00038981560567401713,0.0001815268611316143,4.724640809055831e-05,0.0008544383242882872,0.2173345386981964,-21.82431411743164,-2.4095618724823,22.59223175048828,0.6801248788833618,2.2551772594451904,-0.06678618490695953,,,,,,,,,
1739401689.4212108,0.5255294375967015,0.09599645525390776,-0.9531439236081515,-2.0690187810092167,0.13772917701378914,2.137498791856996,-1.2753644499220214,-0.0009725615074901388,0.0003826266210970944,0.00040839494816561413,0.0004365450825473483,0.0024298081089499596,6.121457235294049e-05,-0.000695138947687745,0.2173345386981964,-21.87192153930664,-2.4095618724823,22.59223175048828,0.6480814218521118,2.2551772594451904,-0.013685601763427258,,,,,,,,,
1739401689.4312196,0.5255277123208343,0.09599474262517521,-0.9531439237164687,-2.069017814592935,0.1377277603338212,2.137499433965804,-1.2753604848896978,-0.0019515867011904973,-0.0002603691756605041,0.0011692743730664337,0.000253307104677079,0.0004461874808982727,0.0007356813545751192,0.001601649901253862,0.2411382496356964,-21.84811782836914,-2.4095618724823,22.59223175048828,0.6737161874771118,2.2615859508514404,-0.04756011441349983,,,,,,,,,
1739401689.442206,0.5255311385996172,0.09599430310924906,-0.953143897475544,-2.0690205152778356,0.13772461565992133,2.1374980298441684,-1.2753596991238345,0.0009300689864645596,-0.0012773858350014948,0.0015771356450882696,0.00015106742369408802,-0.0005621382701317537,-9.833735234698968e-06,0.0013324342702414368,0.1935308277606964,-21.87192153930664,-2.38179087638855,22.61603546142578,0.6737161874771118,2.2615859508514404,-0.05396880581974983,,,,,,,,,
1739401689.4532099,0.5255294278211344,0.09599384571693867,-0.9531478920996037,-2.069016952981435,0.13772935392929914,2.137497680984183,-1.2753629872726786,0.0003561324807040844,-0.0002900797494561257,-0.0010491323526563984,-0.0001849093198921962,0.0008606549281152175,-0.0007633651960432904,-0.0010328304363361373,0.2173345386981964,-21.82431411743164,-2.35798716545105,22.56842803955078,0.6737161874771118,2.2615859508514404,-0.027418512850999832,,,,,,,,,
1739401689.4651663,0.525529424698703,0.09599032364320238,-0.9531460033642607,-2.0690180088833485,0.13772491632165387,2.13749954951508,-1.2753565537980354,-0.0002575216769865296,-0.000617561837656489,-0.0005093544072450647,0.00037817564304287553,-0.0014161786815669207,0.00010582264825350382,0.0008595836298692099,0.2173345386981964,-21.79654312133789,-2.38179087638855,22.59223175048828,0.6737161874771118,2.2487685680389404,-0.08051909506320953,,,,,,,,,
1739401689.4751883,0.5255294248413486,0.09599303020845067,-0.9531438457153296,-2.0690148690852523,0.13772392185218063,2.137496410639607,-1.2753589303237138,0.0003330851587692687,0.0002040320767253565,0.0005545057541812092,0.0011461235941541605,0.0005078970720905386,-0.0006892415075799724,0.0007867398294263131,0.2173345386981964,-21.82431411743164,-2.4095618724823,22.54065704345703,0.6801248788833618,2.2753188610076904,-0.06037749722599983,,,,,,,,,
1739401689.4860957,0.5255294249503657,0.09599474273318205,-0.9531438974394378,-2.0690118854917205,0.13772548251268352,2.1374980341969176,-1.2753659652421807,0.00015012378860287378,0.001145511081226816,0.0005914741932801114,0.00031524677522222825,-0.0007724616850391976,0.0009408028155012513,-0.0010322633083655445,0.2173345386981964,-21.84811782836914,-2.38179087638855,22.54065704345703,0.6673074960708618,2.2615859508514404,-0.0008682189509272575,,,,,,,,,
1739401689.4962287,0.5255294245203589,0.09599303053722853,-0.9531476994797454,-2.0690148407995412,0.1377246853635692,2.137499549517074,-1.2753653289252818,-0.00035084330685573406,0.0008925591493875017,-0.0009143979455300616,0.0006374471174163162,-0.0019470874005135838,0.0008260091119070954,-0.0014598088669632032,0.2173345386981964,-21.82431411743164,-2.35798716545105,22.54065704345703,0.6737161874771118,2.2487685680389404,-0.0072769103571772575,,,,,,,,,
1739401689.507103,0.5255256062898342,0.09599103227159966,-0.953143169428748,-2.069016948529099,0.13772690473559002,2.137498791856996,-1.2753644499227061,-0.0018161881892690243,-6.24539382412685e-05,0.0004448533520783198,-0.0005275017296680025,0.0005815500723450142,-2.6899005046609873e-05,-0.0007477494157915871,0.2411382496356964,-21.79654312133789,-2.38179087638855,22.56842803955078,0.6673074960708618,2.2551772594451904,-0.013685601763427258,,,,,,,,,
1739401689.5171766,0.5255314552178536,0.09599090431345392,-0.9531446648057773,-2.0690148976112,0.137726460003661,2.1374985051471973,-1.27536078719076,0.0009604397650181558,0.00015120729043155326,0.0008460920850419795,0.0006190344968177865,-0.0009025354295619219,0.0002137557472664145,-0.0014470518119461468,0.1935308277606964,-21.82431411743164,-2.35798716545105,22.54065704345703,0.6938577890396118,2.2615859508514404,-0.05396880581974983,,,,,,,,,
1739401689.5271988,0.5255284275817383,0.09599103223559553,-0.9531474394587507,-2.069013088714239,0.13772828644049032,2.1374964106475822,-1.275359412569715,-5.3746822212786107e-05,-0.0001701466251801027,0.00021942056819612392,0.0005273244876948948,-0.0002604129106767734,-0.0006385025186580095,-0.0006766281141855756,0.2411382496356964,-21.79654312133789,-2.35798716545105,22.51685333251953,0.6737161874771118,2.2753188610076904,-0.06037749722599983,,,,,,,,,
1739401689.5381472,0.5255257143838029,0.09599102547397904,-0.9531437597685433,-2.069014872296943,0.13773011670223556,2.13749803484294,-1.2753613117093419,-0.0009823609156638282,0.0007142925472540624,0.000675218256627059,0.0003664168196350435,0.0014800255792263982,-0.0011670249834121744,-2.9276955978777133e-05,0.2689092457294464,-21.79654312133789,-2.38179087638855,22.56842803955078,0.6673074960708618,2.2615859508514404,-0.04023589566349983,,,,,,,,,
1739401689.5490959,0.5255277124659733,0.09599574629685532,-0.9531470812714874,-2.069016983863033,0.13773011670829044,2.137498844184808,-1.2753648119650525,0.0003118536826854902,0.000993922986633605,0.00013603888559480384,-0.0004071413959471883,0.002140134136172566,-1.0203404175121103e-05,-0.0007629199395481736,0.2411382496356964,-21.87192153930664,-2.35798716545105,22.56842803955078,0.6673074960708618,2.2551772594451904,-0.013685601763427258,,,,,,,,,
1739401689.559132,0.5255294251684007,0.09599403408817683,-0.9531477861714075,-2.069018732606574,0.13772930639335446,2.137495771202501,-1.2753613120559473,0.00010510368953005077,0.00047688811107737496,-0.0007633762110518987,-0.0003409122873821493,0.0007531877835663395,-0.0006481439470122749,0.0007415771887222759,0.2173345386981964,-21.84811782836914,-2.35798716545105,22.59223175048828,0.6737161874771118,2.2817275524139404,-0.04023589566349983,,,,,,,,,
1739401689.570168,0.5255294248413512,0.09599845319076601,-0.9531496213952024,-2.06901873250102,0.13773051894778238,2.137498791857663,-1.2753631884076337,0.000462234843695563,0.00032548739350714056,6.817919362194912e-05,0.0006336173163729942,0.001562175628896565,-0.00033458201217481003,-0.00022935083187774032,0.2173345386981964,-21.89969253540039,-2.3302161693573,22.59223175048828,0.6608988046646118,2.2551772594451904,-0.027418512850999832,,,,,,,,,
1739401689.5801826,0.525531216513948,0.0959950058030648,-0.9531498804762978,-2.069020515178037,0.1377257326978261,2.137503905807161,-1.2753596874932642,0.00042634255652006003,6.70763236599619e-05,-0.0014738318483076833,-0.0004900773608792164,-0.000569186194723904,0.001763509302766311,0.002402793806413839,0.1935308277606964,-21.84811782836914,-2.3302161693573,22.61603546142578,0.6673074960708618,2.2487685680389404,-0.05396880581974983,,,,,,,,,
1739401689.5901988,0.5255277240957156,0.09599846413592528,-0.9531449653028542,-2.0690225448939956,0.13772888508024958,2.1374972767721183,-1.2753636789562968,-0.0004830293495503802,0.001271778825615921,0.0009549935059254088,-0.000794257514242961,0.00018169111391812842,-0.00034143846905176645,0.00034249737837385377,0.2411382496356964,-21.89969253540039,-2.35798716545105,22.63983917236328,0.6737161874771118,2.2679946422576904,-0.05396880581974983,,,,,,,,,
1739401689.6012435,0.5255294248414158,0.09599646402297113,-0.9531459946809455,-2.0690187366773336,0.13773103241136037,2.1374988311028535,-1.2753582185420511,0.00017457149150897105,-0.0004693868666768273,0.0003421859065419299,0.00026844481651143204,0.0012176853565275278,-0.0003467458515468084,0.0024166798774494826,0.2173345386981964,-21.87192153930664,-2.38179087638855,22.59223175048828,0.6865335702896118,2.2551772594451904,-0.06678618490695953,,,,,,,,,
1739401689.6121116,0.5255277123206182,0.09599475146622538,-0.9531410896393321,-2.0690205152830408,0.13772905046542305,2.13749774748734,-1.2753624747628571,0.0003811667964459359,0.0008073404058759052,0.0013611529219914676,0.00020128156546487782,0.0004906957928614644,-0.0002103738382047264,0.0011373895416318955,0.2411382496356964,-21.84811782836914,-2.4095618724823,22.61603546142578,0.6673074960708618,2.2679946422576904,-0.05396880581974983,,,,,,,,,
1739401689.6221178,0.5255311373620807,0.09599474273332997,-0.9531477832464188,-2.06901694992898,0.13772983145215456,2.1374985051551727,-1.2753644456085733,0.0014049713154561676,-9.368793302699465e-05,-0.0019195438115727744,0.00041828867963599153,0.0018825488152218446,0.000712254386347031,0.0013599118401025063,0.1935308277606964,-21.84811782836914,-2.35798716545105,22.56842803955078,0.6737161874771118,2.2615859508514404,-0.013685601763427258,,,,,,,,,
1739401689.6331704,0.5255349981654731,0.09599303064548774,-0.9531431911497029,-2.0690187326059992,0.13773087442503898,2.1374972765394973,-1.2753692370384024,0.0017419821511881705,0.000682232367850258,0.0007304948034059265,-0.0005712168958890039,0.0014116808090179332,-0.00010344987525637652,-0.0018717464885048126,0.1697271168231964,-21.82431411743164,-2.38179087638855,22.59223175048828,0.6608988046646118,2.2679946422576904,-0.0008682189509272575,,,,,,,,,
1739401689.6441355,0.5255290313676799,0.09599303021245822,-0.9531460024957216,-2.069012803844772,0.1377293590482131,2.1374983874096274,-1.275358186293999,-0.0004018384850907619,0.00025959763841837326,-0.0007237401338951295,0.0019415283989520208,0.0007140650222196955,-0.00016941837303869687,0.0014596068478410812,0.1935308277606964,-21.82431411743164,-2.38179087638855,22.54065704345703,0.6737161874771118,2.2615859508514404,-0.06678618490695953,,,,,,,,,
1739401689.655163,0.5255329294001603,0.09599103227159783,-0.9531477746276189,-2.0690139652776938,0.1377308568167496,2.1374980342693624,-1.2753636937517485,0.0009768103330919549,-0.0006012036707942546,-0.001299573125447658,0.0010375853128845223,0.0011897496185549253,-0.0004164545093591034,-0.0009553168998654167,0.1697271168231964,-21.79654312133789,-2.35798716545105,22.56842803955078,0.6608988046646118,2.2615859508514404,-0.020094294100999832,,,,,,,,,
1739401689.6652288,0.5255311258077028,0.09599475431717,-0.953145991950406,-2.069010332352424,0.1377278437277582,2.13749727653684,-1.2753596889770473,3.576402342600504e-05,0.0004304191159786132,0.0009720278403938397,0.0006612379317491214,-0.0011023139193522945,-0.0006083733346097028,0.0008952761282731011,0.1935308277606964,-21.84811782836914,-2.38179087638855,22.51685333251953,0.6865335702896118,2.2679946422576904,-0.05396880581974983,,,,,,,,,
1739401689.6760976,0.5255277250754563,0.09599310913348112,-0.953150819647452,-2.069014866239362,0.13772860133396214,2.137498791856996,-1.2753677142688333,-0.0006803112114652858,0.0010571515350063364,-0.0020081008818920738,-0.00019337786140636635,0.0003384910690381939,0.00023252587000166552,-0.0021888824293555703,0.2411382496356964,-21.82431411743164,-2.3302161693573,22.54065704345703,0.6801248788833618,2.2551772594451904,-0.013685601763427258,,,,,,,,,
1739401689.6871185,0.5255303785158818,0.09599302146523188,-0.9531456801687137,-2.069014869824122,0.13772691776317164,2.137498791856996,-1.2753604452024936,0.0010400892699980284,0.0005705293060746892,0.0006870417628789761,0.0008867030029402835,-0.001132073959888038,0.00015769871363394426,0.0016142407691697631,0.2173345386981964,-21.82431411743164,-2.35798716545105,22.54065704345703,0.6673074960708618,2.2551772594451904,-0.04756011441349983,,,,,,,,,
1739401689.6990879,0.5255311373638751,0.09599184778821807,-0.9531498650062609,-2.0690180428847422,0.1377333047361728,2.137497276536839,-1.2753627933606213,0.0005456842475821081,-1.0136107454242552e-05,-0.00021522908415075792,-3.7194386808643218e-06,0.001073680668430497,-0.0003660145031597381,0.0006383067290654362,0.1935308277606964,-21.79654312133789,-2.3302161693573,22.59223175048828,0.6673074960708618,2.2679946422576904,-0.05396880581974983,,,,,,,,,
1739401689.7091317,0.5255256363786251,0.09599299554760997,-0.9531514146467941,-2.069018656072685,0.13772905046541933,2.1374980337124008,-1.2753569530750075,-0.0007791562267975626,0.0004689848569609962,-0.0016011139143787836,-0.0005367234205549551,-9.69423072968519e-05,-0.0014702156393721511,0.0025726335670978387,0.2689092457294464,-21.82431411743164,-2.3064124584198,22.59223175048828,0.6673074960708618,2.2615859508514404,-0.07411040365695953,,,,,,,,,
1739401689.719189,0.5255294248400285,0.09599474273259502,-0.9531439237125077,-2.06902055096638,0.1377308743503119,2.1375004554512187,-1.2753645020984938,0.000575496912304166,-0.00012383297973622145,0.0010268074628699605,-0.001602901401789814,0.00034212821568150697,-0.00012983171512796353,-0.0008842537732958159,0.2173345386981964,-21.84811782836914,-2.4095618724823,22.61603546142578,0.6608988046646118,2.2679946422576904,-0.013685601763427258,,,,,,,,,
1739401689.730188,0.5255249042795754,0.09599669234158542,-0.9531448988571929,-2.0690199169159436,0.13773027418229017,2.137501868373846,-1.2753600495304551,-0.0006548364635691352,0.00023918460311308875,0.001668773716038202,2.4593860927097353e-05,0.00045089299120366043,0.000351344692049962,0.0001423953203647019,0.2411382496356964,-21.87192153930664,-2.35798716545105,22.56842803955078,0.6673074960708618,2.2679946422576904,-0.05396880581974983,,,,,,,,,
1739401689.7401931,0.5255311373145263,0.09599474273719717,-0.9531410376253905,-2.069017197123144,0.13772860139080062,2.137498791934759,-1.2753647727253234,0.0007070614302227448,-0.0010713068654008289,0.0011900863250770008,0.0007040449401313821,-0.0006151391792780401,-1.974523233956818e-05,7.347843378939251e-05,0.1935308277606964,-21.84811782836914,-2.4095618724823,22.56842803955078,0.6801248788833618,2.2551772594451904,-0.013685601763427258,,,,,,,,,
1739401689.7521555,0.5255320871844886,0.09600016604027517,-0.9531460034543682,-2.0690209944769324,0.1377301167082905,2.1374980341969176,-1.2753660859250093,0.0017294717757945096,0.0002485220179602557,-0.0007600742914395634,0.0005276804206878832,-0.00028337478917082675,0.00027210186982453376,-0.0012656971116087124,0.1935308277606964,-21.92349624633789,-2.38179087638855,22.59223175048828,0.6673074960708618,2.2615859508514404,-0.0008682189509272575,,,,,,,,,
1739401689.762185,0.5255294261192406,0.09600016571549935,-0.9531459746170147,-2.0690180438539834,0.13772964276039987,2.1374985443930536,-1.2753596874878144,-6.251469458755577e-05,6.037967142455197e-05,-0.0009374302003330752,0.0010208602703369262,-0.0015216936150106025,0.0012961391032399374,0.0013502102510339498,0.2173345386981964,-21.92349624633789,-2.38179087638855,22.59223175048828,0.6673074960708618,2.2615859508514404,-0.05396880581974983,,,,,,,,,
1739401689.7741559,0.5255291908379364,0.09599113749955095,-0.9531439236806416,-2.0690187326021108,0.13772936050362927,2.1374980341997976,-1.2753604087576076,-2.1761042568444237e-05,-0.0009686195023503003,-0.00015535058791620515,0.00012152163188742383,-0.0001977301239648802,-0.0005913691877587774,0.0002495505919538361,0.2173345386981964,-21.79654312133789,-2.4095618724823,22.59223175048828,0.6737161874771118,2.2615859508514404,-0.05396880581974983,,,,,,,,,
1739401689.7850897,0.5255328763257703,0.09599474310627291,-0.9531448998201699,-2.069018732605999,0.13773021628556975,2.1374980341969176,-1.2753608253093822,0.0005411998876496378,0.00024888691848282937,-2.0691094795570247e-05,-0.0005832295177569606,-7.874836676713516e-05,-0.00011952522232248954,0.00147417621888794,0.1697271168231964,-21.84811782836914,-2.35798716545105,22.59223175048828,0.6673074960708618,2.2615859508514404,-0.04756011441349983,,,,,,,,,
1739401689.7951102,0.5255293586144142,0.0959958713671915,-0.9531456641685355,-2.069018707096192,0.1377254978663199,2.1374972766983444,-1.2753636942547897,3.431439456660042e-05,-0.00042883290211958376,-0.0009873002933074465,-0.0005754404393200762,-0.0019696416043098403,-0.000480928178188443,-0.0003649307128846099,0.2173345386981964,-21.82431411743164,-2.38179087638855,22.59223175048828,0.6673074960708618,2.2679946422576904,-0.020094294100999832,,,,,,,,,
1739401689.8052185,0.5255303392320282,0.09599104433648546,-0.9531477598562261,-2.069014870138692,0.13772784364983495,2.1374980341969203,-1.275362014319465,0.00036388492335620267,-0.0005762189113174616,-0.0006245961809052287,-0.000601979437238952,-9.82097574450942e-05,0.0006560801250951521,-0.00045417358256346154,0.2411382496356964,-21.79654312133789,-2.35798716545105,22.54065704345703,0.6865335702896118,2.2615859508514404,-0.07411040365695953,,,,,,,,,
1739401689.816131,0.5255338833718657,0.0959930342181098,-0.9531498659730522,-2.0690147936097034,0.1377293590482117,2.1374980341969176,-1.2753642884689185,0.0025858792625566797,-0.00018238337417494433,-0.0002496361959293137,0.0002982497336995486,0.0013094083758677778,-0.00032000842504713826,-0.0016805420271436766,0.1697271168231964,-21.82431411743164,-2.3302161693573,22.54065704345703,0.6737161874771118,2.2615859508514404,-0.027418512850999832,,,,,,,,,
1739401689.8261952,0.5255294248588517,0.09599303410985033,-0.9531421409324541,-2.0690130874608093,0.13772855118882907,2.137497237290982,-1.2753581577149893,-0.0001628886185866755,0.0008789136207363067,0.0012954440675345185,0.0003999957596268695,0.00022855523529252946,-0.0005991250800582199,0.0007120090793685762,0.2173345386981964,-21.82431411743164,-2.4333655834198,22.51685333251953,0.6544901132583618,2.2679946422576904,-0.08051909506320953,,,,,,,,,
1739401689.8371122,0.5255311373620807,0.09599103357073037,-0.9531477775165513,-2.069018707096192,0.1377273752164011,2.1374987918567743,-1.2753586568870556,0.0002305182301631907,-0.0006704530687443306,-0.0006741301083657633,-0.0005180105941204305,-0.0006963515127475058,-0.0003334456061235112,0.0013008929919894282,0.1935308277606964,-21.79654312133789,-2.35798716545105,22.59223175048828,0.6673074960708618,2.2551772594451904,-0.06678618490695953,,,,,,,,,
1739401689.847122,0.5255294248413495,0.09599316313767055,-0.953147786076201,-2.0690148700337136,0.13773326601921532,2.137498831102852,-1.2753607779325857,0.0006636619100971854,0.0005094382716594528,4.9978691368105996e-05,0.0010734146279811198,0.0006751800685453912,0.0005082788678321145,0.0008276485714653658,0.2173345386981964,-21.79654312133789,-2.35798716545105,22.54065704345703,0.6673074960708618,2.2551772594451904,-0.05396880581974983,,,,,,,,,
1739401689.8580892,0.5255294248413495,0.09599474274521087,-0.9531480246019237,-2.0690180438412145,0.13772691794346548,2.1374972779906107,-1.2753655703486368,7.944455202564863e-05,-1.9375350933547274e-05,-0.000163152085406461,-0.0007353960101417223,0.0007341483598237504,-0.0008269309279365966,-0.0006272215157126096,0.2173345386981964,-21.84811782836914,-2.35798716545105,22.59223175048828,0.6673074960708618,2.2679946422576904,-0.0072769103571772575,,,,,,,,,
1739401689.8681164,0.5255277123206182,0.09599474273318269,-0.9531477833065269,-2.069020844913221,0.13772906340774205,2.1374980341969914,-1.2753622284597361,-0.00015605100668022374,-0.00019991487515239617,7.588361732306089e-05,-0.001000458581052976,-0.0016793038281854918,-0.00031361620360610253,0.0006935978717911137,0.2411382496356964,-21.84811782836914,-2.35798716545105,22.61603546142578,0.6673074960708618,2.2615859508514404,-0.06037749722599983,,,,,,,,,
1739401689.878161,0.5255294248413495,0.09599846196376242,-0.9531476821818089,-2.069020395585016,0.13772859991955294,2.137498791856996,-1.2753660862603582,-0.00035386445401015235,0.000686257690398667,0.0006620681468568581,-0.0008320234514326179,-0.0008053061202743181,-0.00017578652166037553,-0.0013424968991581593,0.2173345386981964,-21.89969253540039,-2.35798716545105,22.61603546142578,0.6801248788833618,2.2551772594451904,-0.027418512850999832,,,,,,,,,
1739401689.8891518,0.5255294248413495,0.09599645915129437,-0.9531439237158834,-2.069020515282342,0.13772691743813426,2.137498844884662,-1.2753631928956972,0.0004498157801341225,0.00017822133516291364,0.0003777778250519322,-0.000606354276714421,-0.0005288886937452256,0.0004069716495952628,6.878034953913489e-05,0.2173345386981964,-21.87192153930664,-2.4095618724823,22.61603546142578,0.6673074960708618,2.2551772594451904,-0.027418512850999832,,,,,,,,,
1739401689.9001234,0.5255277119996259,0.09599845319478834,-0.953142129483727,-2.069020438753597,0.13773285457198872,2.1375026259624437,-1.2753622296146034,-0.00020042799000007463,-0.0005112024514273068,0.0005476345838135632,-0.0002733441277513401,-0.00026975979946457674,0.0014944544072495018,-0.0004033348360552553,0.2411382496356964,-21.89969253540039,-2.4333655834198,22.61603546142578,0.6801248788833618,2.2615859508514404,-0.03382720425724983,,,,,,,,,
1739401689.9101746,0.525529424841344,0.09599929640864757,-0.9531403691730167,-2.0690169499276836,0.1377324978378666,2.1374995500793528,-1.2753597293722934,-0.00015102616766861138,7.222311828825429e-06,0.0005827944357415091,0.0010464623606821076,0.001708085052610532,-0.0004546436817660499,1.7746131131859022e-05,0.2173345386981964,-21.87192153930664,-2.4571692943573,22.56842803955078,0.6801248788833618,2.2487685680389404,-0.05396880581974983,,,,,,,,,
1739401689.9210882,0.5255339983850299,0.09599929753935488,-0.9531459916297924,-2.0690141835321514,0.13772971343069834,2.137498426816999,-1.2753644921362524,0.001205546181945597,-0.0004346893160157852,-0.00098621454761729,0.0013025045921771733,0.0004832180502993631,-0.00037452194919237525,-0.001622545297088892,0.1935308277606964,-21.87192153930664,-2.38179087638855,22.56842803955078,0.6737161874771118,2.2615859508514404,-0.013685601763427258,,,,,,,,,
1739401689.932211,0.5255328498989623,0.09599687357927529,-0.9531450327184072,-2.0690197490580697,0.13773012248848968,2.137497276700561,-1.2753597151290519,0.0013142233799772372,0.00012382427013245734,0.0005661933541241958,-0.0009385609141573545,0.00025517093568115,-0.00034652176945676656,6.518764357221621e-05,0.1697271168231964,-21.84811782836914,-2.38179087638855,22.59223175048828,0.6673074960708618,2.2679946422576904,-0.05396880581974983,,,,,,,,,
1739401689.9431493,0.5255301402061031,0.09599103239188572,-0.953147760177485,-2.0690169498997246,0.1377258925246739,2.1374980341969185,-1.2753621902009773,-6.206477503723484e-05,-0.0018128034017284268,0.0004445004902873866,-5.776539509793659e-06,0.00012697378808190492,-0.0001908044356931131,0.0012036913379960927,0.2173345386981964,-21.79654312133789,-2.35798716545105,22.56842803955078,0.6801248788833618,2.2615859508514404,-0.06037749722599983,,,,,,,,,
1739401689.953191,0.5255294248453877,0.09599858611996467,-0.9531509462118224,-2.0690216995927613,0.13773330554149435,2.137501566324015,-1.275359091470826,-0.00029248506881854,0.0004411498374742788,-0.000860392176338416,-0.0013276604645942247,0.0018561487633053817,8.159208825473779e-05,0.0007753626844277908,0.2173345386981964,-21.87192153930664,-2.3064124584198,22.59223175048828,0.6673074960708618,2.2615859508514404,-0.06037749722599983,,,,,,,,,
1739401689.9651923,0.5255309033586605,0.09599374098228651,-0.9531439237125052,-2.0690130871639183,0.13773047450704495,2.1375013308688144,-1.2753638129437546,0.0005307203849062133,0.0007436089863475824,0.000749207454433374,0.0010171126449774505,0.00015272221483003803,0.0006436113769954827,-0.001304826992137617,0.1935308277606964,-21.82431411743164,-2.4095618724823,22.51685333251953,0.6737161874771118,2.2615859508514404,-0.020094294100999832,,,,,,,,,
1739401689.9770913,0.5255286621425862,0.09599106251334154,-0.9531499367792672,-2.0690148701391236,0.13773011671038943,2.137497289642939,-1.2753669506493077,0.00036564041175011385,0.0003109470905508852,-0.0013931651395435317,-0.00035736358587323694,0.00035065516716562646,-0.0011191861907709228,0.0002193738898736044,0.2411382496356964,-21.79654312133789,-2.3302161693573,22.54065704345703,0.6673074960708618,2.2679946422576904,-0.020094294100999832,,,,,,,,,
1739401689.9871476,0.5255311113670623,0.09599103097568625,-0.9531470841378185,-2.069014147361264,0.13773088068677006,2.1374987918570696,-1.2753628800189984,0.0007080679478807898,-0.0007437605394827435,0.0008745876811336392,0.000108636014496675,-9.520179809754232e-05,-0.0006921989846695193,-0.0004301817275249543,0.1935308277606964,-21.79654312133789,-2.35798716545105,22.54065704345703,0.6608988046646118,2.2551772594451904,-0.027418512850999832,,,,,,,,,
1739401689.9992168,0.5255290313311518,0.0959951620528272,-0.9531477861793821,-2.0690187245508658,0.13773047102482563,2.137499146523256,-1.275365096206679,0.0012059687198674287,0.0002085279719395839,-0.00021364264769764633,-0.002032707277160019,0.0002713672946538244,-0.0002463049200491219,-0.0005459773988082706,0.1935308277606964,-21.82431411743164,-2.35798716545105,22.59223175048828,0.6673074960708618,2.2551772594451904,-0.04023589566349983,,,,,,,,,
1739401690.010038,0.5255293901622874,0.09599474274521638,-0.9531470840304213,-2.0690146512118974,0.13773017357590164,2.1374990986822167,-1.2753628285932108,-0.00013185361309264433,0.0005037269741462223,0.0008772278582565606,0.0007038175663850026,0.0006581662105455235,-0.00012329737204974206,-0.0018605738881053617,0.2173345386981964,-21.84811782836914,-2.35798716545105,22.56842803955078,0.6673074960708618,2.2615859508514404,-0.027418512850999832,,,,,,,,,
1739401690.0200953,0.5255274783166107,0.09599610813007992,-0.953146003494435,-2.069018769091558,0.13773077680120405,2.1374983922728217,-1.2753600204258422,-0.00026743475915529124,0.0001507421998832446,0.0006497378749958174,-0.000674448208357138,0.00072495073411506,-0.0005159818809848387,0.0020461625877464143,0.2411382496356964,-21.82431411743164,-2.38179087638855,22.59223175048828,0.6737161874771118,2.2615859508514404,-0.06037749722599983,,,,,,,,,
1739401690.031194,0.525529413284304,0.09599677196556687,-0.9531436117119102,-2.069018732606205,0.1377308742138571,2.137503502815364,-1.2753608071963956,9.148047840463634e-06,0.0005647584561390515,0.0006802179850679559,-0.001277559778780347,-0.001168338221318263,0.0021797118222601536,0.0015430782177398706,0.2173345386981964,-21.87192153930664,-2.4095618724823,22.59223175048828,0.6608988046646118,2.2551772594451904,-0.04756011441349983,,,,,,,,,
1739401690.0421946,0.5255294248413277,0.09599677093836859,-0.9531470581364516,-2.06901694992898,0.1377315969115814,2.137501213138115,-1.275365582734974,0.0005510154816525412,0.0011078711539314785,-0.0003495005621888618,0.0006504174985165333,-0.00027596348745596063,0.00033371306243535606,-0.00012350866710989276,0.2173345386981964,-21.87192153930664,-2.35798716545105,22.56842803955078,0.6544901132583618,2.2615859508514404,-0.013685601763427258,,,,,,,,,
1739401690.0531077,0.5255290313312986,0.09599846532158002,-0.9531396969639534,-2.069019826518234,0.13773330555658772,2.137498034268698,-1.2753607736226105,-0.0001564071682161301,0.0010915763230136904,0.00235805139076344,0.0009705882205387208,-0.0004866314979719035,0.00020617450056988109,0.0011319959134868016,0.1935308277606964,-21.89969253540039,-2.4333655834198,22.61603546142578,0.6673074960708618,2.2615859508514404,-0.05396880581974983,,,,,,,,,
1739401690.0631921,0.5255328498471459,0.09599930853388457,-0.9531436776879454,-2.0690148846404486,0.1377301167622939,2.137500455451228,-1.2753622259324502,0.000853270437822062,0.001170427225465126,0.0002975812623242267,0.0012163762564659586,0.0012947738944875252,-0.0009916213227982675,-0.0014562476826028795,0.1697271168231964,-21.87192153930664,-2.4095618724823,22.56842803955078,0.6673074960708618,2.2679946422576904,-0.03382720425724983,,,,,,,,,
1739401690.0741303,0.5255332051281523,0.09599653711398365,-0.9531439227521047,-2.0690187336118258,0.1377293634224902,2.1374980344302035,-1.2753589342976095,0.0015908096845023284,-0.00010713087892207717,0.0011561582924131842,0.00019082599213388128,0.000355780637934345,-0.0007771633935356864,0.0014193857600064107,0.1935308277606964,-21.87192153930664,-2.4095618724823,22.59223175048828,0.6737161874771118,2.2615859508514404,-0.06037749722599983,,,,,,,,,
1739401690.084162,0.5255298265081301,0.09599509349441213,-0.9531439237164542,-2.0690205156221966,0.13773406370296926,2.1374987918569994,-1.275360445643917,-0.0002271386633132973,-0.0002946212901788404,0.00040421992765637916,-0.0008588350480466352,0.0009015274720543257,0.0004490446199250923,0.0010670131347354673,0.2411382496356964,-21.84811782836914,-2.4095618724823,22.61603546142578,0.6608988046646118,2.2551772594451904,-0.04756011441349983,,,,,,,,,
1739401690.0951285,0.5255294783621025,0.09599303053920859,-0.9531477861833452,-2.069014870139126,0.13772935879468476,2.137498791856996,-1.2753644500875674,-0.0001681809585785308,-0.0008389413587103085,-0.0006527611300295919,0.000352523426338942,0.00014385181163329802,0.0009224931541597711,0.0002805245778564927,0.2173345386981964,-21.82431411743164,-2.35798716545105,22.54065704345703,0.6737161874771118,2.2551772594451904,-0.013685601763427258,,,,,,,,,
1739401690.1051903,0.5255294258234022,0.09599482165415245,-0.9531439236094731,-2.069012985535932,0.1377308933235682,2.137498445551637,-1.2753700364779017,0.0010316520019294886,-0.00043344491376391816,-0.00018664814009574737,0.0011640962602526151,0.0011431005106743654,0.0005573029833068387,-0.0011225352529803416,0.2173345386981964,-21.84811782836914,-2.4095618724823,22.51685333251953,0.6608988046646118,2.2615859508514404,-0.0072769103571772575,,,,,,,,,
1739401690.1161058,0.5255320517538976,0.095991032597712,-0.953149839972819,-2.069014953684236,0.13772509400506255,2.137498791863962,-1.2753624309948706,0.0007930959369730918,-0.0001601687861985594,-8.45211479619741e-05,-0.0005347609651553208,-0.0012482597624978234,0.0010924301541066525,-0.0006173856669701413,0.2173345386981964,-21.79654312133789,-2.3302161693573,22.54065704345703,0.6737161874771118,2.2551772594451904,-0.03382720425724983,,,,,,,,,
1739401690.1270835,0.5255294248561785,0.09599097984158807,-0.9531489956157371,-2.0690182566145956,0.13773153400421562,2.137498034681434,-1.2753603782219345,0.0002066127376552333,7.068078660922653e-05,0.00048407336824343413,-0.00019759908138808325,6.110008769846255e-05,-0.001055692391450058,0.0009172676254373833,0.2173345386981964,-21.79654312133789,-2.35798716545105,22.56842803955078,0.6673074960708618,2.2615859508514404,-0.06037749722599983,,,,,,,,,
1739401690.1371133,0.5255276862845725,0.09599516104220336,-0.9531457167155769,-2.0690153056705305,0.13773163203644784,2.1375030323475825,-1.2753604898520579,-0.00015356806719467775,0.0007080600060594156,0.0009559912093751888,0.00020896027089842303,0.00040832432201720815,0.0003309022954617312,0.0015879812162321633,0.2411382496356964,-21.82431411743164,-2.38179087638855,22.54065704345703,0.6544901132583618,2.2551772594451904,-0.04756011441349983,,,,,,,,,
1739401690.147146,0.5255294248409085,0.09599103371505337,-0.9531491639580832,-2.069013087469481,0.13772907381013327,2.137497289690604,-1.2753594191735775,0.00038833564176561956,0.0004102014202409842,-0.0006756636575953723,0.0005635847523577265,-0.00036170175353167475,-0.0006794231677175863,0.0013731719251686442,0.2173345386981964,-21.79654312133789,-2.3302161693573,22.51685333251953,0.6801248788833618,2.2679946422576904,-0.06037749722599983,,,,,,,,,
1739401690.1571538,0.5255290040469491,0.09599303021247534,-0.9531460034944375,-2.069014867304701,0.13773150500655076,2.1374972808977124,-1.275368078999972,0.00024710239238691606,-0.0005866770444421597,0.00039897159873413245,0.0007184913496003936,-0.00047338609847236276,8.813087677784644e-05,-0.0009668043313298018,0.1935308277606964,-21.82431411743164,-2.38179087638855,22.54065704345703,0.6865335702896118,2.2679946422576904,-0.020094294100999832,,,,,,,,,
1739401690.16912,0.5255311373863768,0.09598790414055323,-0.9531516486502197,-2.069014870104115,0.13772951654287993,2.1374995495170985,-1.2753619089051478,0.0014620941641355504,-0.0013599505327962927,-0.0022301847518736806,0.0011474541291576702,0.0005021553983337485,0.0002362825590076597,-0.0003458978195667148,0.1935308277606964,-21.77273941040039,-2.3064124584198,22.54065704345703,0.6737161874771118,2.2487685680389404,-0.04756011441349983,,,,,,,,,
1739401690.1802216,0.5255311373620808,0.0959911111845715,-0.953145266828892,-2.069015154017487,0.13773193780478724,2.1374988441848046,-1.2753640560237367,0.0006124843161280254,-0.0008323646610107545,0.0014029857878640212,0.0005732105061763967,0.001916325039402272,0.0007440883018107224,-0.0006053816325776267,0.1935308277606964,-21.79654312133789,-2.38179087638855,22.54065704345703,0.6608988046646118,2.2551772594451904,-0.020094294100999832,,,,,,,,,
1739401690.192135,0.5255277119996259,0.09599951424344214,-0.9531467422078523,-2.06901877330594,0.1377293653686144,2.1375004554513253,-1.2753628459545663,-0.00047806492710228323,0.001691150607561736,0.0003837409896109296,6.680426709121501e-05,-0.0004984452852916367,-0.0007362834586503754,-0.001236052106496191,0.2411382496356964,-21.89969253540039,-2.35798716545105,22.59223175048828,0.6737161874771118,2.2679946422576904,-0.027418512850999832,,,,,,,,,
1739401690.2040865,0.5255294336716666,0.09599545735423064,-0.9531498659355705,-2.0690187326060756,0.13773011670830237,2.1374987925089997,-1.2753615929709965,-0.0006271974939728651,0.0004756159269620014,-0.0024997330444342103,-0.00020318353597372402,-0.0005874411669533815,0.00025097743132583317,0.0011352063493790035,0.2173345386981964,-21.84811782836914,-2.3302161693573,22.59223175048828,0.6673074960708618,2.2551772594451904,-0.06678618490695953,,,,,,,,,
1739401690.2141452,0.5255277129808221,0.0959986681123072,-0.9531454113393061,-2.0690169509464647,0.13772798087518603,2.1374976297495523,-1.2753609267197703,-0.0008153294926928024,0.000905851610862752,-0.0005865677255203674,0.00012205159107277246,0.0004369848382420198,-0.0011445957526590028,0.002281922294504171,0.2411382496356964,-21.87192153930664,-2.35798716545105,22.56842803955078,0.6673074960708618,2.2679946422576904,-0.07411040365695953,,,,,,,,,
1739401690.224156,0.5255294696470469,0.09599326712107957,-0.9531474380804266,-2.069018815022315,0.13773235720273264,2.1374987918629773,-1.2753608630396176,0.0008141801867552156,-0.0005673247946170303,0.0003981771205019307,-0.0005490928955468306,0.0011484348038455125,-0.00036773147671190475,0.0005243212153561772,0.2173345386981964,-21.82431411743164,-2.35798716545105,22.59223175048828,0.6673074960708618,2.2551772594451904,-0.04756011441349983,,,,,,,,,
1739401690.2341907,0.5255294248421082,0.095991743863404,-0.9531470485370389,-2.06901873565985,0.13772717990693017,2.137498038557568,-1.2753623907178162,8.367900931397461e-05,-0.00030821577979093715,-0.0003693801275294411,4.856717112506346e-05,-0.001445155467300201,-0.0006409982720204592,0.001513541881770714,0.2173345386981964,-21.79654312133789,-2.35798716545105,22.59223175048828,0.6801248788833618,2.2615859508514404,-0.0072769103571772575,,,,,,,,,
1739401690.2461607,0.5255293988409694,0.0959964933651725,-0.9531439237123065,-2.0690190073270127,0.13772935904018785,2.1374995495170985,-1.2753629650200846,-3.872306075477956e-05,0.00012525539475331115,-0.0007908782008120812,-0.0005066099275795603,-0.0008846430100625321,0.00014444843703420828,-0.00019522722320008018,0.2173345386981964,-21.87192153930664,-2.4095618724823,22.59223175048828,0.6737161874771118,2.2487685680389404,-0.027418512850999832,,,,,,,,,
1739401690.2571878,0.5255311373983705,0.09599106875502365,-0.9531477847923784,-2.069019827887959,0.13773011674423669,2.137498791856996,-1.2753594549855984,0.0005993137318462089,-0.0006226314274066562,-0.0008236379143715228,-0.0004375326705525636,0.00039882138896550395,-0.000643974863004305,0.00020040389662227332,0.1935308277606964,-21.79654312133789,-2.35798716545105,22.61603546142578,0.6673074960708618,2.2551772594451904,-0.06037749722599983,,,,,,,,,
1739401690.2691567,0.5255294248413497,0.09599646741523726,-0.9531496223400023,-2.069014883630747,0.1377297140667564,2.137498034250753,-1.2753652254637324,-0.0003475122947653439,0.0012758939470012822,-0.001315212348377909,-8.754250250746914e-06,0.00043430918624300997,-0.0002724239509460782,-0.0008118624389891571,0.2173345386981964,-21.87192153930664,-2.3302161693573,22.56842803955078,0.6737161874771118,2.2615859508514404,-0.0072769103571772575,,,,,,,,,
1739401690.2791712,0.5255294246986861,0.09599177796111207,-0.9531477081808298,-2.0690187325943348,0.13772859894635653,2.1374980361349847,-1.275370316214795,6.344240687362855e-05,-0.00018687066758465791,-1.203314969436473e-05,-0.0005943074737289802,-0.0010297036562500839,-0.0004060083086891179,-0.0017243268151435006,0.2173345386981964,-21.79654312133789,-2.35798716545105,22.59223175048828,0.6801248788833618,2.2615859508514404,-0.0008682189509272575,,,,,,,,,
1739401690.2901752,0.5255294132856242,0.09599112288876689,-0.9531478764665445,-2.069018656076578,0.13773087436835504,2.1374980748963353,-1.27536296550065,-0.00045709713063493647,0.0008454602472500407,-0.0008884903719685521,-2.7721778070150655e-05,0.0012999782032189345,0.0017750951630267195,-0.0006162897356680164,0.2173345386981964,-21.79654312133789,-2.35798716545105,22.59223175048828,0.6608988046646118,2.2615859508514404,-0.027418512850999832,,,,,,,,,
1739401690.3011107,0.5255261780780583,0.09599103227210937,-0.9531456801530728,-2.0690197001612884,0.13773011085775072,2.1374987918572255,-1.2753598148458376,-0.0011740316149956998,0.00017896727399111025,-0.0003656675172379473,-0.0018079704422735508,-0.0005320444267141248,0.00028845049450065136,0.0009520237168690602,0.2927129566669464,-21.79654312133789,-2.35798716545105,22.59223175048828,0.6673074960708618,2.2551772594451904,-0.05396880581974983,,,,,,,,,
1739401690.3111732,0.5255277124664889,0.09599103649370706,-0.9531477080395419,-2.0690204897895965,0.137728482914605,2.1375010020982863,-1.275366219340645,-0.0006689470139604768,-0.0006779295508122316,-0.00035465018202491204,-0.001290242490031562,-0.000726496017956032,0.0007726829596631689,-0.0010254586025586208,0.2411382496356964,-21.79654312133789,-2.35798716545105,22.61603546142578,0.6801248788833618,2.2487685680389404,-0.027418512850999832,,,,,,,,,
1739401690.3221476,0.5255294248413519,0.09599524909331168,-0.9531459293214508,-2.069016949823569,0.13773011719231498,2.137496416639913,-1.2753691699478404,-0.0008613742268842266,-0.00024215625718136831,0.00037259707260620833,0.0007695464747510277,0.00099949220301066,-0.0009581251192391481,-0.0023314894383776553,0.2173345386981964,-21.82431411743164,-2.38179087638855,22.56842803955078,0.6673074960708618,2.2753188610076904,-0.013685601763427258,,,,,,,,,
1739401690.3331463,0.5255277123206182,0.09599198033777044,-0.9531439146215478,-2.0690169499289794,0.13773163202844807,2.1374994470477677,-1.2753670983512213,-0.0007064907607851193,-0.0011086740406525365,0.0005671778831538452,0.00028343928993360015,0.0002701031690771781,-0.001102944917295594,-0.0021854181861169107,0.2411382496356964,-21.79654312133789,-2.4095618724823,22.56842803955078,0.6544901132583618,2.2615859508514404,-0.03382720425724983,,,,,,,,,
1739401690.3431554,0.5255311373620807,0.09599474567223636,-0.95314389747539,-2.069018732605999,0.13773117965778897,2.1374995495410007,-1.27536403357853,0.00044674306562783817,-0.0003741147131050977,0.0006639262424829912,-0.0008199151486364543,0.0005011220009032916,0.0005575026732126239,0.0002591317889311136,0.1935308277606964,-21.84811782836914,-2.38179087638855,22.59223175048828,0.6673074960708618,2.2487685680389404,-0.05396880581974983,,,,,,,,,
1739401690.354157,0.5255277123206182,0.09599553208719269,-0.9531415827074026,-2.0690205517725127,0.13773011671429086,2.1374991973975144,-1.2753677135208237,-0.0009460977713779373,-0.0009197839041997099,0.000415048196046314,-0.000304982221502615,0.0005260385436470476,0.00016440919392389204,-0.0016300000137350907,0.2411382496356964,-21.84811782836914,-2.4095618724823,22.61603546142578,0.6673074960708618,2.2551772594451904,-0.013685601763427258,,,,,,,,,
1739401690.365108,0.5255311373620807,0.09599500580752081,-0.9531449780934216,-2.069018732945367,0.1377328531861278,2.137498034683724,-1.2753636563252035,0.00032210846965244794,0.00010202456954154312,-0.00023641063207877007,0.00028466439918387086,0.0013916047574122296,-0.0009139901268507668,-0.00016570922039957977,0.1935308277606964,-21.84811782836914,-2.35798716545105,22.59223175048828,0.6801248788833618,2.2615859508514404,-0.06037749722599983,,,,,,,,,
1739401690.3761005,0.5255294248413495,0.0959986689758319,-0.9531477512597736,-2.0690169499289817,0.13772943774057367,2.1374980342507555,-1.2753660056614056,0.0002584487564667426,-9.640839175385644e-05,-0.0009658091736470521,0.00035988444294646443,-0.00030487417762074836,-0.0014935319494027183,-0.0003945122236471612,0.2173345386981964,-21.87192153930664,-2.3302161693573,22.56842803955078,0.6737161874771118,2.2615859508514404,-0.0008682189509272575,,,,,,,,,
1739401690.386164,0.5255286656739423,0.09599474277067165,-0.9531460031495209,-2.0690205244403845,0.137730117195654,2.1375011384089992,-1.2753660326814558,0.0008195443613929239,-0.000494426788320543,-0.0005008287298107492,-0.0013404524901701365,-0.001160809541588385,0.0019341052808328893,-0.0004169691828238744,0.2411382496356964,-21.84811782836914,-2.38179087638855,22.61603546142578,0.6673074960708618,2.2487685680389404,-0.013685601763427258,,,,,,,,,
1739401690.3971076,0.5255294248830699,0.09599589767417367,-0.9531470581727024,-2.069018448988717,0.13773015428862356,2.137499093844016,-1.2753612965761902,0.00010525600058159857,-0.00032127296851168144,0.00016240065797309072,0.000499682889517839,-0.00037262203889583363,-0.0009702993861093633,-4.8218907835292284e-05,0.2173345386981964,-21.82431411743164,-2.35798716545105,22.61603546142578,0.6673074960708618,2.2615859508514404,-0.05396880581974983,,,,,,,,,
1739401690.4072578,0.5255256062898368,0.09599137571837593,-0.9531460034939971,-2.069016924497234,0.13772936342312633,2.1374987939745136,-1.2753609817000455,-0.000923332799845683,-0.0006196184395374316,0.0003468294065063632,0.00169364439736865,-0.0013165034384099955,-0.00029155927326808366,-0.0008980397924617783,0.2411382496356964,-21.79654312133789,-2.38179087638855,22.56842803955078,0.6737161874771118,2.2551772594451904,-0.04756011441349983,,,,,,,,,
1739401690.4181976,0.525529424793795,0.09599114670352266,-0.9531460006173949,-2.069015612337887,0.1377286145109918,2.1374987918570074,-1.2753636379345117,-0.0007366344530285065,-0.0010857960624610949,0.0009346048497803254,0.000867486345524488,-0.0009045305692734667,-0.0007932355489271111,-0.00026164320765726767,0.2173345386981964,-21.79654312133789,-2.38179087638855,22.54065704345703,0.6801248788833618,2.2551772594451904,-0.06037749722599983,,,,,,,,,
1739401690.429115,0.5255257143797649,0.09599165000354547,-0.9531429848138422,-2.069014871160799,0.13772936342256398,2.1374980341969176,-1.2753606198099028,-0.0013947543507410406,0.0005357873435621601,0.001356471536727629,0.000522367824778969,-0.0004448322663726994,-0.0010216846715910474,0.001639352396561088,0.2689092457294464,-21.82431411743164,-2.4095618724823,22.54065704345703,0.6737161874771118,2.2615859508514404,-0.07411040365695953,,,,,,,,,
1739401690.4391835,0.525531103021956,0.09599347998923763,-0.9531459284327248,-2.0690187692354827,0.1377293590482862,2.1374991519770568,-1.2753606687968935,0.0008058352151237304,0.0008472090831170541,0.0004744807302760134,2.8013262844976054e-05,-0.00035410578163977906,-4.9203762116946316e-05,0.0019273623179437934,0.1935308277606964,-21.79654312133789,-2.38179087638855,22.59223175048828,0.6737161874771118,2.2615859508514404,-0.04023589566349983,,,,,,,,,
1739401690.4500823,0.5255328072023611,0.0959954564193535,-0.9531477861820739,-2.069018732606619,0.13772954586420255,2.1374998563592222,-1.2753619147577138,0.0006676675261787975,0.0008378100602730041,-5.676436824313329e-05,-0.0006090333991248417,-0.001071322420742139,0.000624233850584639,0.001076359899369394,0.1697271168231964,-21.84811782836914,-2.35798716545105,22.59223175048828,0.6801248788833618,2.2551772594451904,-0.06678618490695953,,,,,,,,,
1739401690.4601107,0.5255277123203773,0.09599303021647967,-0.9531439237164705,-2.069016977401079,0.13773029330483583,2.137502290198047,-1.2753586728464297,-6.985184114888449e-05,-0.0009855391648360592,0.001472233618151583,2.152126650950946e-05,0.00011369441497436596,0.0010607745376494998,0.0008566675812594993,0.2411382496356964,-21.82431411743164,-2.4095618724823,22.56842803955078,0.6673074960708618,2.2615859508514404,-0.06678618490695953,,,,,,,,,
1739401690.4701974,0.5255328498828118,0.09599303032071017,-0.9531431954652833,-2.0690148701395894,0.13773438454375128,2.137498793544127,-1.275365778236781,0.0008736961160650583,-0.0009328298415180093,0.00071052129823693,-0.0004674302840575802,0.0011722583500275723,-0.0014663217025800296,-0.0006565253393134675,0.1697271168231964,-21.82431411743164,-2.38179087638855,22.54065704345703,0.6673074960708618,2.2551772594451904,-0.04023589566349983,,,,,,,,,
1739401690.48219,0.5255294248413495,0.09599303898144759,-0.9531438107917591,-2.069014952555423,0.1377301556133375,2.13750020476168,-1.2753652515302512,4.262605641490151e-05,0.0007734957366798627,0.00037535938169507585,0.00047788853397456903,-0.00010816407184910268,0.00020801829578346453,-0.0009333410232653089,0.2173345386981964,-21.82431411743164,-2.38179087638855,22.54065704345703,0.6673074960708618,2.2551772594451904,-0.07411040365695953,,,,,,,,,
1739401690.4931245,0.52553043535182,0.09599327815706236,-0.9531477861435534,-2.069024773501616,0.13773087436844203,2.137499264602942,-1.2753598624812696,0.0006681810050370427,5.19634075035393e-05,-0.00043065433579312924,-0.002155787198325554,-0.0006633226839894467,-0.00030007772276266487,0.0010337930664452016,0.1935308277606964,-21.79654312133789,-2.35798716545105,22.63983917236328,0.6608988046646118,2.2615859508514404,-0.05396880581974983,,,,,,,,,
1739401690.503137,0.5255293208279407,0.0959939865040962,-0.9531414376382233,-2.069017572017731,0.13773087436836884,2.1374997640008613,-1.2753651517095328,-1.205215882364854e-06,0.00016113284475443993,0.0013462741084956144,-0.000740780383606978,-0.001084377481261932,-0.0001489679338753687,1.3462507038883211e-05,0.2173345386981964,-21.82431411743164,-2.4333655834198,22.56842803955078,0.6608988046646118,2.2753188610076904,-0.04756011441349983,,,,,,,,,
1739401690.5131466,0.525529424839588,0.09599508474022461,-0.9531460034944139,-2.0690185588875996,0.13773331932766042,2.137503032565875,-1.2753639274722792,-0.00025464344090286644,-0.000698715705037623,0.00013560041929524315,-0.0007075672014063756,0.0008565994409178612,0.0005643536756433152,-0.000425940979031028,0.2173345386981964,-21.84811782836914,-2.38179087638855,22.61603546142578,0.6673074960708618,2.2551772594451904,-0.027418512850999832,,,,,,,,,
1739401690.5240834,0.5255311375074356,0.09599174580998837,-0.9531459689845077,-2.069021293648131,0.13773163204652605,2.1374986898961335,-1.2753688295084797,0.0010399115697384534,-0.002654301043904053,0.00022408729254267163,-0.0004106353378997296,0.00011461185128345625,0.0006232983676529161,-0.0017867476664549453,0.1935308277606964,-21.79654312133789,-2.38179087638855,22.61603546142578,0.6544901132583618,2.2679946422576904,-0.0072769103571772575,,,,,,,,,
1739401690.534178,0.5255294238783749,0.09599714869797185,-0.9531431954646986,-2.0690241630665365,0.13772767558576618,2.137500808687872,-1.275369727138954,0.0002715994308973284,0.0008489202277283655,0.0011715809627559728,-0.0016164584689013534,0.0007317209468514095,-0.00023132852234650095,-0.0025711713687687253,0.2173345386981964,-21.84811782836914,-2.38179087638855,22.66364288330078,0.6608988046646118,2.2679946422576904,-0.0072769103571772575,,,,,,,,,
1739401690.545115,0.5255294248413331,0.09599885843262496,-0.9531476733604799,-2.069018732607395,0.13773517448921052,2.1374983881154668,-1.2753685248137305,0.00048092728981327095,0.0009161813731704297,-0.0005468958020687096,-0.0006432228173097055,0.0017712870133613729,-0.001177225974624791,-0.0015140279063674844,0.2173345386981964,-21.87192153930664,-2.35798716545105,22.59223175048828,0.6544901132583618,2.2615859508514404,-0.0072769103571772575,,,,,,,,,
1739401690.5551274,0.5255249046066243,0.09599113754920337,-0.953144940585561,-2.069016977401079,0.13772864083063446,2.137496820542774,-1.2753633955949308,-0.00027911487960130803,-0.0008302721605001286,0.0009525887607266033,-5.229220789885547e-06,-0.00036731992528642946,-0.0005197410212057041,0.001067118741328663,0.2411382496356964,-21.79654312133789,-2.35798716545105,22.56842803955078,0.6801248788833618,2.2753188610076904,-0.06037749722599983,,,,,,,,,
1739401690.5651524,0.5255311373145318,0.09599305749555496,-0.9531477848511853,-2.069020515986032,0.1377344258585943,2.1374980910538244,-1.2753602305445308,0.0007776233975963596,-0.0012694514006863968,-0.00031232563240935434,-0.00011829735858861161,0.001839100638968517,-0.0007844073622466026,0.00027486456015941754,0.1935308277606964,-21.82431411743164,-2.35798716545105,22.61603546142578,0.6673074960708618,2.2615859508514404,-0.05396880581974983,,,,,,,,,
1739401690.5751944,0.5255291908379284,0.0959933732863527,-0.9531431693578832,-2.0690207625319266,0.13772935960721883,2.137499942138109,-1.27536417123451,-0.00021446285678224694,-0.0006931174801198523,0.0007774417971454597,-0.0017549992079391495,0.0004651705672025951,-0.0004973951077581402,-0.0013279169972927386,0.2173345386981964,-21.82431411743164,-2.38179087638855,22.61603546142578,0.6737161874771118,2.2487685680389404,-0.05396880581974983,,,,,,,,,
1739401690.5861144,0.5255302013470787,0.09599026727350464,-0.9531459649712457,-2.0690178142543494,0.13773256150557495,2.1374981520982095,-1.2753598089108071,0.0001977964948683958,-0.002266314152008393,-1.671743811112779e-05,0.00034094648412187395,0.00033613541895379916,-0.0012402560543690313,0.0009875027323467045,0.1935308277606964,-21.77273941040039,-2.38179087638855,22.59223175048828,0.6737161874771118,2.2615859508514404,-0.05396880581974983,,,,,,,,,
1739401690.596127,0.5255273184737235,0.09599524434588128,-0.9531477823307845,-2.0690139518835804,0.13773011692453466,2.1374980736062765,-1.2753622089216878,-5.8880956951006046e-05,0.00043730088444522794,-8.163556520606558e-06,0.0012181675911268255,6.627483492884614e-05,-0.0009036106602635575,0.0004763530033025765,0.2173345386981964,-21.82431411743164,-2.35798716545105,22.54065704345703,0.6673074960708618,2.2615859508514404,-0.03382720425724983,,,,,,,,,
1739401690.606169,0.5255328459952321,0.09599516501332976,-0.9531460035062609,-2.0690178055322517,0.1377293590482158,2.1375020101794133,-1.275364509685499,0.0010531133540389245,-0.0003215460267481797,0.0002751804537619635,0.0002687851206304068,-0.0009437985797641485,-0.000606641790469398,-0.002050285110870489,0.1697271168231964,-21.82431411743164,-2.38179087638855,22.59223175048828,0.6737161874771118,2.2551772594451904,-0.013685601763427258,,,,,,,,,
1739401690.6171803,0.5255257144887595,0.09599032787275907,-0.9531477832944141,-2.069019063622608,0.1377298708387114,2.1374988050109507,-1.2753578471554108,-0.0017078324571592931,-0.0012329639742006278,-0.0014075147256478616,-0.0015670924289183216,0.0009470393051037748,-0.0006190426939663347,0.0020778011469999563,0.2689092457294464,-21.79654312133789,-2.35798716545105,22.59223175048828,0.6737161874771118,2.2551772594451904,-0.07411040365695953,,,,,,,,,
1739401690.6281204,0.5255257222471065,0.09599792587478767,-0.9531458995047897,-2.0690162611660643,0.13773198634783573,2.1374972765907483,-1.2753633145421905,-0.0006558366874716797,0.001254050645280632,0.0003651896827530591,0.0006130585705838478,0.0005767595997781575,-0.0029708036816995975,0.0016239113719049155,0.2689092457294464,-21.84811782836914,-2.38179087638855,22.56842803955078,0.6544901132583618,2.2679946422576904,-0.05396880581974983,,,,,,,,,
1739401690.6381233,0.525527318810967,0.09599104412531297,-0.9531463201085117,-2.0690156210081883,0.13773255423311015,2.137499890740984,-1.2753644088109943,0.00047429907502752485,-0.0007028908051586518,-0.0002776137055968546,-2.6436804746181818e-05,-0.00023334294948965117,-0.00018591699120591888,0.0006107652812883029,0.2173345386981964,-21.79654312133789,-2.38179087638855,22.54065704345703,0.6737161874771118,2.2551772594451904,-0.027418512850999832,,,,,,,,,
1739401690.6481483,0.525526616788418,0.09599540762087845,-0.9531459996562052,-2.0690205152872565,0.13773122870290522,2.137497280957528,-1.2753657104322311,-0.001290825265532678,0.00013906181634028308,0.00020985089880977715,-0.0019376086979669663,0.0007581503325340722,-0.0015820077989320005,5.1681270887594727e-05,0.2173345386981964,-21.82431411743164,-2.38179087638855,22.61603546142578,0.6608988046646118,2.2679946422576904,-0.013685601763427258,,,,,,,,,
1739401690.658252,0.525527703511161,0.09599590071795702,-0.9531470828889195,-2.0690176916756706,0.13773255228898745,2.137499280250103,-1.2753630014583432,-0.0011395648153691186,4.635771334237691e-05,-0.0002400864514909558,-0.0002974184065886365,-0.00024953680794457644,-1.93296208654225e-06,0.000938480804033956,0.2411382496356964,-21.82431411743164,-2.35798716545105,22.56842803955078,0.6737161874771118,2.2551772594451904,-0.06678618490695953,,,,,,,,,
1739401690.6690702,0.5255277123206016,0.09599549201261179,-0.9531481491295514,-2.0690205152844134,0.1377336057618015,2.1374983890794375,-1.275368579345965,-0.0002344851063887538,-0.0001634648399663644,-0.0010145322970839595,-0.0014285296556657211,1.261199974055734e-06,-0.0016972356136262848,-0.0019225481568245185,0.2411382496356964,-21.84811782836914,-2.38179087638855,22.61603546142578,0.6673074960708618,2.2615859508514404,-0.020094294100999832,,,,,,,,,
1739401690.6791568,0.5255277123206182,0.09599338520709298,-0.9531477863286978,-2.069021223016633,0.1377301169293882,2.1375007712963545,-1.2753634489087047,0.0004218885248285595,-0.0006731452090817941,-0.00043456267197417345,0.0004340212650787069,-0.0008386606485630077,0.0010649512032963652,-0.00014440274140860743,0.2411382496356964,-21.82431411743164,-2.35798716545105,22.61603546142578,0.6673074960708618,2.2753188610076904,-0.06037749722599983,,,,,,,,,
1739401690.68917,0.5255276343194781,0.0960016113384824,-0.9531477861833477,-2.0690187326179843,0.13773123014296465,2.137500813259941,-1.2753620743345948,-0.000933190011270878,0.0028351428059654868,-0.0008066279709942676,0.00023664211736675343,0.00010467277312320255,0.0005821345390694126,-0.0009204898553934983,0.2411382496356964,-21.89969253540039,-2.35798716545105,22.59223175048828,0.6608988046646118,2.2679946422576904,-0.04756011441349983,,,,,,,,,
1739401690.7000773,0.5255294248400285,0.0959940595945128,-0.953142103483347,-2.069020515283018,0.1377325474151877,2.137499094056447,-1.2753691629651553,0.00023687146501756643,-0.0002690093910760795,0.0020264641285703978,0.0002665664239079337,-0.0001628857044389902,0.0003620259059884704,-0.0004921798723589805,0.2173345386981964,-21.82431411743164,-2.4333655834198,22.61603546142578,0.6737161874771118,2.2615859508514404,-0.013685601763427258,,,,,,,,,
1739401690.7101011,0.5255311373620807,0.09599484894127899,-0.9531431839093468,-2.06901694992898,0.13773276173614823,2.1374980356564506,-1.2753620725068888,0.000540664993923099,-0.0012299901029037006,0.000367839671791084,0.00025554101148905707,0.0008194319883412702,-0.0008221415532733707,0.0016627719622175018,0.1935308277606964,-21.84811782836914,-2.38179087638855,22.56842803955078,0.6480814218521118,2.2615859508514404,-0.07411040365695953,,,,,,,,,
1739401690.720128,0.5255294248413495,0.09599793757255745,-0.9531475511691978,-2.0690169509464647,0.13773210494277802,2.1374983888632024,-1.2753636369637589,-0.0003015089701696667,0.0011837096000331543,-0.0006458934652700977,0.000607814840164599,0.00045140243081918593,-0.0017896236006508936,-0.0003626466758238301,0.2173345386981964,-21.84811782836914,-2.35798716545105,22.56842803955078,0.6544901132583618,2.2615859508514404,-0.06037749722599983,,,,,,,,,
1739401690.730218,0.5255294366151064,0.0959931481608366,-0.9531449521379424,-2.0690188151353692,0.13772860139614262,2.137497276542845,-1.275367535155736,0.0004574573734095033,0.0006222170339144036,0.0010010099287875787,-0.000384462844037864,-0.000560165358394404,-0.003329226843040974,-0.0010939453596804185,0.2173345386981964,-21.82431411743164,-2.35798716545105,22.59223175048828,0.6801248788833618,2.2679946422576904,-0.027418512850999832,0,0,0,0.000,0,0
1739401690.7411528,0.5255311460854674,0.09599316707173237,-0.953145679708575,-2.0690131149346707,0.13773394474343462,2.137501265654455,-1.275364414103802,0.0009973269440653615,-0.001211513055385539,-0.00025028947477727707,0.0008770259093677185,-0.0002197952017357202,0.0005689506444318372,0.0020010871208273545,0.1935308277606964,-21.79654312133789,-2.35798716545105,22.51685333251953,0.6608988046646118,2.2615859508514404,-0.05396880581974983,0,0,0,0.000,0,0
1739401690.7521098,0.5255257143798144,0.09599516415789693,-0.9531477874796493,-2.069018733962801,0.13773210646590572,2.1374998908130585,-1.2753688547779476,-0.0009640017407321908,0.00043444421211380946,-0.00021395375204828814,-0.001856303027676265,0.0012190556235899931,-0.0008319053681733908,-0.0003471167458963635,0.2689092457294464,-21.82431411743164,-2.35798716545105,22.59223175048828,0.6544901132583618,2.2551772594451904,-0.013685601763427258,0,0,0,0.000,0,0
1739401690.7631104,0.5255311369340908,0.09599208456317523,-0.9531474395116188,-2.069016949928987,0.13773104556174962,2.1374991119298756,-1.2753613166228508,0.0008121484650965953,0.00025382152341120814,-0.00013782291574221124,-0.0007347113381909005,0.00015803522179289059,-0.00040915861628697183,0.0008405931228748551,0.1935308277606964,-21.79654312133789,-2.35798716545105,22.56842803955078,0.6608988046646118,2.2615859508514404,-0.05396880581974983,0,0,0,0.000,0,0
1739401690.7741673,0.525529424841347,0.0959923989735462,-0.9531460033617059,-2.0690168744170445,0.1377301186533803,2.137499566729477,-1.275363884537579,0.0006480484967176239,-0.0007992519565704249,8.33534936822512e-05,-0.0003789353497616481,-0.0004538516462952193,-0.0002047671588287019,0.00120740918822452,0.2173345386981964,-21.77273941040039,-2.38179087638855,22.56842803955078,0.6673074960708618,2.2615859508514404,-0.04756011441349983,0,0,0,0.000,0,0
1739401690.7861462,0.5255277123206182,0.09599113852735255,-0.9531498659732,-2.069014952450018,0.13773085746480174,2.137500678002622,-1.2753601093658604,-8.17105795398531e-05,1.4795532724076478e-05,-0.000685709036112422,0.00047014303873840865,-0.001153345063254487,-0.0010105366034566469,0.0007891159451349648,0.2411382496356964,-21.79654312133789,-2.3302161693573,22.54065704345703,0.6608988046646118,2.2423598766326904,-0.05396880581974983,0,0,0,0.000,0,0
1739401690.7971363,0.5255294336716672,0.09599338230769151,-0.9531459919506016,-2.069014867304856,0.1377301167082587,2.1375030499523864,-1.2753573666022862,0.0004806321448440505,-0.00027565402793309595,-0.00031663050751402515,0.00016178403731105715,-0.0013060749043809284,-0.00022796699724093704,0.0035927654360347833,0.2173345386981964,-21.82431411743164,-2.38179087638855,22.54065704345703,0.6673074960708618,2.2551772594451904,-0.07411040365695953,0,0,0,0.000,0,0
1739401690.8081856,0.525527712320668,0.09599954338598192,-0.95314778618328,-2.0690194743526735,0.13773041223128774,2.137498798341256,-1.275363475502671,-2.71334088141867e-05,0.0021060461961268004,-0.00037406976921327287,-0.00038093686645587223,-0.0016460806846057034,-0.0007590001909018883,-0.0008507049982631572,0.2411382496356964,-21.87192153930664,-2.35798716545105,22.59223175048828,0.6544901132583618,2.2551772594451904,-0.05396880581974983,0,0,0,0.000,0,0
1739401690.8191328,0.5255294277847887,0.09599374149289996,-0.953145677263632,-2.069020512452782,0.13772947714682618,2.137499320195629,-1.275365212040867,-0.000889374472864979,0.00044751139376152425,0.00013863017460132753,-0.0003822919022064069,-0.0006430426246195217,0.0005745354979629076,1.4228169797783825e-05,0.2173345386981964,-21.82431411743164,-2.35798716545105,22.61603546142578,0.6737161874771118,2.2551772594451904,-0.04756011441349983,0,0,0,0.000,0,0
1739401690.8301048,0.5255294248413992,0.09599519616653159,-0.953147786040633,-2.069018126257466,0.13773011816838307,2.1375018697645634,-1.2753623430006185,-0.000747963466527313,-0.0004445149220680231,-0.0005027051865941996,0.00010706838148628611,-0.000674166223583897,-0.00015552495260168138,0.0007533079695790188,0.2173345386981964,-21.82431411743164,-2.35798716545105,22.59223175048828,0.6673074960708618,2.2679946422576904,-0.06678618490695953,0,0,0,0.000,0,0
1739401690.840158,0.5255311373620807,0.09599782102390181,-0.9531475252165671,-2.0690187600746754,0.13772937670734176,2.137503503054613,-1.275364212855388,0.0012580887937892133,0.00027977426647092567,-6.404431400696282e-06,-1.4233115232271693e-05,-0.0011685716742861204,-0.0005791530023794846,-0.0009550750883141935,0.1935308277606964,-21.84811782836914,-2.35798716545105,22.59223175048828,0.6737161874771118,2.2551772594451904,-0.05396880581974983,0,0,0,0.000,0,0
1739401690.8510704,0.5255294245203571,0.095995005855196,-0.9531431954608638,-2.0690130874625705,0.13772937524499762,2.1374988313441428,-1.2753673318655805,2.723275495233498e-05,-0.000521136051358156,0.00017917454548835643,0.0012485075534120786,-0.000712417743499465,-0.0010264534610571374,-0.000499222731774509,0.2173345386981964,-21.84811782836914,-2.38179087638855,22.51685333251953,0.6737161874771118,2.2551772594451904,-0.027418512850999832,0,0,0,0.000,0,0
1739401690.8611467,0.5255276304675681,0.09600154392455379,-0.9531456711489259,-2.0690187326059992,0.1377308944198014,2.1375020295596387,-1.2753646967598633,-0.0013723007685631436,0.0010529713133247132,-0.0007763886666625206,-0.00032324270508265655,0.00036123377376955887,0.0004712377951598649,0.0006926972817718051,0.2411382496356964,-21.89969253540039,-2.35798716545105,22.59223175048828,0.6737161874771118,2.2551772594451904,-0.04023589566349983,0,0,0,0.000,0,0
1739401690.8721921,0.5255294248408874,0.09599549103829598,-0.9531498659255956,-2.069018710186332,0.13773335125235436,2.1374992778994066,-1.2753606586572346,0.00035963132619852567,-0.0004666980106058195,-0.0015663601515310689,8.920758489128818e-05,-0.0008978160746544856,-9.6122900696688e-05,0.0013895329977510985,0.2173345386981964,-21.84811782836914,-2.3302161693573,22.59223175048828,0.6673074960708618,2.2551772594451904,-0.08692778646945953,0,0,0,0.000,0,0
1739401690.8831818,0.5255315706085614,0.09599569956839978,-0.9531439237164703,-2.069018742253139,0.13773406323512338,2.137503385132352,-1.2753581778036178,0.0009907286576275967,0.0004698838606931738,0.00045327522113541364,-0.0008624673676522075,-0.000587654925261927,0.0006619871995761098,0.001028528026199302,0.2173345386981964,-21.84811782836914,-2.4095618724823,22.59223175048828,0.6608988046646118,2.2551772594451904,-0.08051909506320953,0,0,0,0.000,0,0
1739401690.8951383,0.5255294248534623,0.0959919823959216,-0.9531477858623528,-2.0690189798549503,0.13773087487240093,2.1375019722508632,-1.275358299534533,-0.0002716900336835461,-0.001391000878761344,-1.2208827610100394e-05,-0.0008760255397408649,-7.427627450587486e-05,-0.0005585768996546838,0.003180341903655424,0.2173345386981964,-21.79654312133789,-2.35798716545105,22.59223175048828,0.6608988046646118,2.2551772594451904,-0.06678618490695953,0,0,0,0.000,0,0
1739401690.9061065,0.5255294249503657,0.09599107135496084,-0.9531476995154111,-2.069013087185319,0.13773087436836978,2.1374987084692663,-1.2753652113575502,0.0006176324679559679,0.00022404646588596,0.0006380080784722046,0.00041170968124297247,0.0009686788066521836,-0.0005453993972419696,0.0002483119264049534,0.2173345386981964,-21.79654312133789,-2.35798716545105,22.51685333251953,0.6608988046646118,2.2679946422576904,-0.04756011441349983,0,0,0,0.000,0,0
1739401690.917069,0.5255311344731501,0.09599303908992683,-0.9531477861828559,-2.0690148823489447,0.13773134679036814,2.1375022903616263,-1.275366940889189,-0.0002150792513001098,-7.040928942970992e-05,-7.241513295879398e-05,0.0002587059069105563,0.0011862079256231162,-0.0014938207469009787,-0.0010833443655792966,0.1935308277606964,-21.82431411743164,-2.35798716545105,22.54065704345703,0.6608988046646118,2.2615859508514404,-0.03382720425724983,0,0,0,0.000,0,0
1739401690.9271002,0.5255297427327393,0.09599374180039534,-0.9531460035063261,-2.069018737015308,0.1377301230346922,2.1375035558592526,-1.2753664735610963,0.0016587711465013877,-3.905501585122533e-05,0.0006260958294757952,-0.0010695963196714225,-0.0005761944654576454,0.0011340074929705802,-0.0011849251063196621,0.2173345386981964,-21.82431411743164,-2.38179087638855,22.59223175048828,0.6673074960708618,2.2551772594451904,-0.03382720425724983,0,0,0,0.000,0,0
1739401690.9371376,0.525527010315741,0.09599145355196685,-0.9531460022223567,-2.069014870139199,0.13773012124468567,2.137502500590374,-1.2753622083196292,-0.0012938555800230762,-0.0015664796868653501,-0.00038186049230854065,-0.00034058986473066877,-0.00022701268433270488,0.0012668786715374456,0.003127024850215612,0.2411382496356964,-21.77273941040039,-2.38179087638855,22.54065704345703,0.6673074960708618,2.2551772594451904,-0.06037749722599983,0,0,0,0.000,0,0
1739401690.9471445,0.5255311373264151,0.09599569021794613,-0.95314778618328,-2.069018707096192,0.13773168500604177,2.1375028652536083,-1.2753613165990068,0.0003755857587928892,0.0006254177726709101,-0.0007994479978744648,-0.0014566132062333486,-0.00011871944796728302,0.0008338767548515165,-0.000521032110436082,0.1935308277606964,-21.84811782836914,-2.35798716545105,22.59223175048828,0.6544901132583618,2.2487685680389404,-0.05396880581974983,0,0,0,0.000,0,0
1739401690.9591374,0.5255278096176378,0.09599475151598982,-0.9531466147726562,-2.069014980027475,0.13773332166336638,2.1375032069951896,-1.2753649508647353,-0.00014095598223774818,-0.0010949677582097052,0.0013997102273088312,-0.0006349240765897925,-0.00021343601027988941,-4.669476119681436e-05,-0.000491591475012729,0.2411382496356964,-21.84811782836914,-2.38179087638855,22.54065704345703,0.6673074960708618,2.2551772594451904,-0.04023589566349983,0,0,0,0.000,0,0
1739401690.9701817,0.5255285677398001,0.09599761149403171,-0.9531420514361828,-2.069014870139331,0.1377362556460824,2.1375006499182345,-1.2753669160560428,0.0004832029476552675,0.00018232451844218234,0.0010502048511404512,0.00012604438373075633,0.0018848253650123404,-0.0002775419306654931,-0.0005164366640218877,0.1935308277606964,-21.84811782836914,-2.4333655834198,22.54065704345703,0.6544901132583618,2.2753188610076904,-0.03382720425724983,0,0,0,0.000,0,0
1739401690.9811475,0.5255294248268438,0.09599964267388508,-0.9531460035058203,-2.0690169499666644,0.13773563798296254,2.137500514317025,-1.2753605982111271,0.0003422980255176695,0.0013829371208793379,-0.0002667229433046201,0.00012054638931406216,0.0021947398897247715,-0.0014227158517631485,0.0009320971116623161,0.2173345386981964,-21.87192153930664,-2.38179087638855,22.56842803955078,0.6608988046646118,2.2679946422576904,-0.06037749722599983,0,0,0,0.000,0,0
1739401690.9921532,0.5255287193267382,0.09599590202253498,-0.9531477860763478,-2.06901694992898,0.1377316320553379,2.137502005438583,-1.27536821118247,-0.0006279195821004539,-0.0004291485259364237,-0.00025830171176103044,-0.0005742227272041838,-0.0008003476147130979,0.00027968708787497057,-0.0014890930025000851,0.1935308277606964,-21.82431411743164,-2.35798716545105,22.56842803955078,0.6544901132583618,2.2679946422576904,-0.013685601763427258,0,0,0,0.000,0,0
1739401691.0030746,0.5255313757670098,0.09599540807005984,-0.9531456801525625,-2.06901694992898,0.13772875951017488,2.1375024348200644,-1.2753656622589167,0.0009703326284189278,-0.0002361554984415802,0.00014636004787947637,0.0004145340396324671,-0.0009092029953668404,-0.00046666639731526995,0.000529946353897076,0.1935308277606964,-21.82431411743164,-2.35798716545105,22.56842803955078,0.6801248788833618,2.2615859508514404,-0.04023589566349983,0,0,0,0.000,0,0
1739401691.0131435,0.5255294219564557,0.09599698319782358,-0.9531435827869332,-2.0690190897432945,0.1377306306076013,2.137501737109941,-1.2753587264955009,4.897855106153975e-05,0.0007453374061981293,0.0014367975604587364,-0.00011419205145061164,0.0006699844070104694,0.0006048585223230774,0.0014067271878001515,0.2173345386981964,-21.84811782836914,-2.4095618724823,22.59223175048828,0.6673074960708618,2.2615859508514404,-0.09425200521945953,0,0,0,0.000,0,0
1739401691.0231721,0.525529425822447,0.0959976983558449,-0.9531431867927163,-2.069014870145172,0.13773138762566361,2.1374998580180575,-1.2753682513554165,-0.0002916884139765011,0.00119804493398751,-0.000759101108623585,0.0008720909164755835,0.0006603254040200726,-0.00025770952553731815,-0.0023837261937268133,0.2173345386981964,-21.84811782836914,-2.38179087638855,22.54065704345703,0.6608988046646118,2.2551772594451904,-0.013685601763427258,0,0,0,0.000,0,0
1739401691.0340903,0.525529424841355,0.09599474664719825,-0.9531459903610017,-2.0690149524154515,0.1377316327333891,2.137502797702433,-1.2753684586589344,0.0003928832297289649,-0.00029218419808606753,0.0005282890134278032,-0.0001013596066597561,8.865901046351947e-05,0.0007335646862834062,-0.0006645435311224347,0.2173345386981964,-21.84811782836914,-2.4095618724823,22.54065704345703,0.6544901132583618,2.2615859508514404,-0.020094294100999832,0,0,0,0.000,0,0
1739401691.0441663,0.5255311026949073,0.09599965009155628,-0.9531439414622683,-2.0690169529828286,0.13773011719433328,2.13750280063035,-1.2753630061102321,0.0005101969276755852,0.001507292399704433,7.502423118321277e-05,0.000626241255288294,-0.0009178905100914374,0.0010623868081108454,0.0012812937387025431,0.1935308277606964,-21.87192153930664,-2.38179087638855,22.56842803955078,0.6673074960708618,2.2615859508514404,-0.06678618490695953,0,0,0,0.000,0,0
1739401691.0541925,0.5255294248407624,0.09599866910062449,-0.9531492432938814,-2.0690187329452123,0.13773057143942108,2.137502143017055,-1.2753614339207888,0.0011357813316653013,0.0013335084978281886,-0.0005837992149305568,-0.0007456557508384592,-0.0009351981173373712,5.4248516157952066e-05,0.0012196050673530425,0.2173345386981964,-21.87192153930664,-2.3302161693573,22.59223175048828,0.6608988046646118,2.2551772594451904,-0.05396880581974983,0,0,0,0.000,0,0
1739401691.0651128,0.5255311113617006,0.09599612019543577,-0.9531498645787189,-2.0690170445551024,0.13772937654361317,2.1374996077318364,-1.2753693372644366,0.0004989780324407866,0.0006799237467006361,-0.0009585221635895547,-0.0007415028208945375,0.0013535839854910403,-0.00038434896464155014,0.000299988343934061,0.1935308277606964,-21.82431411743164,-2.3302161693573,22.56842803955078,0.6737161874771118,2.2487685680389404,-0.013685601763427258,0,0,0,0.000,0,0
1739401691.0760784,0.5255311638528871,0.09599030204021776,-0.9531476994797381,-2.0690113044706844,0.13772846676390318,2.1374987422541674,-1.275364614939821,0.0013608225816548031,-0.001453062496705338,-0.0007260458338797373,0.0009397093642709302,-0.0005788153034122147,-0.0007421939638660977,0.0008067782219477397,0.1935308277606964,-21.77273941040039,-2.35798716545105,22.49304962158203,0.6544901132583618,2.2679946422576904,-0.08051909506320953,0,0,0,0.000,0,0
1739401691.0861394,0.5255311373625292,0.09599527942245442,-0.9531477601814968,-2.0690187070961867,0.13773003755573143,2.137504317832725,-1.27536143624481,-3.175169367351338e-05,9.457739335471158e-05,0.000554961245450466,-0.0012046281543206198,-0.00020885172841067886,0.0015699668992046278,0.0012537324100737033,0.1935308277606964,-21.82431411743164,-2.35798716545105,22.59223175048828,0.6801248788833618,2.2487685680389404,-0.08051909506320953,0,0,0,0.000,0,0
1739401691.0971866,0.5255311360781113,0.09599019935253963,-0.9531456801524163,-2.0690169499288356,0.1377291048548393,2.137500033791564,-1.275367700370928,-0.00031760206957814094,-0.0016228052802733034,-0.0005848274264324714,-0.00046767111166690436,-0.0005462046253405779,-0.00070074164179967,-0.0011408483666270164,0.1935308277606964,-21.74496841430664,-2.35798716545105,22.56842803955078,0.6938577890396118,2.2487685680389404,-0.027418512850999832,0,0,0,0.000,0,0
1739401691.1081161,0.525529858523888,0.09599712210645232,-0.9531456801050087,-2.069014870139124,0.13772951799231162,2.1375039595912537,-1.2753587700860525,-0.00023059812120708386,-0.00015795838486571477,-0.0005623306594535005,0.0003668358330350493,-0.00018564667207239777,0.001102162801547471,0.0026839594557364183,0.2411382496356964,-21.84811782836914,-2.35798716545105,22.54065704345703,0.6737161874771118,2.2487685680389404,-0.07411040365695953,0,0,0,0.000,0,0
1739401691.1181273,0.5255294248776955,0.0959969334303403,-0.9531469710411147,-2.069016846944945,0.1377326949806374,2.1374976348309067,-1.2753663555507602,-0.0004122957944801684,0.0005599315499822568,0.00019775453487278643,0.00038432767511880587,0.0005535777795331112,-0.0020435902027701393,-0.0015460082161600811,0.2173345386981964,-21.82431411743164,-2.35798716545105,22.56842803955078,0.6544901132583618,2.2679946422576904,-0.04023589566349983,0,0,0,0.000,0,0
1739401691.1291454,0.5255277123206188,0.0959993062180779,-0.9531456801387586,-2.069018729769832,0.13772691794368874,2.137502645510388,-1.2753653327307406,-0.0008743523084809394,0.000635081704485661,-0.0002578340741537519,-0.0006105383298098345,-0.00044058330619739614,0.0005562360211248787,-0.001628663408377407,0.2411382496356964,-21.87192153930664,-2.35798716545105,22.59223175048828,0.6673074960708618,2.2615859508514404,-0.04756011441349983,0,0,0,0.000,0,0
1739401691.140136,0.5255294248413495,0.09599501570683326,-0.9531415045635991,-2.0690169499289635,0.1377312293688558,2.1375023780068245,-1.2753649803877989,-0.0002928852755781156,5.486970163868263e-06,0.0012205304849598484,0.0007659718998994427,0.000482226955137743,0.0009592991299783205,0.0003922881831679129,0.2173345386981964,-21.84811782836914,-2.4095618724823,22.56842803955078,0.6608988046646118,2.2551772594451904,-0.05396880581974983,0,0,0,0.000,0,0
1739401691.1510565,0.5255294248413495,0.0959911415417418,-0.9531513251730186,-2.069014870104131,0.13772935904888012,2.137501389715436,-1.2753685799497918,2.1440047286187706e-06,-0.0022583796589312364,-0.0027459756539644836,0.0006636563313280696,-0.0025529094374134396,0.000532165866755888,-0.0017666807540022843,0.2173345386981964,-21.79654312133789,-2.2826087474823,22.54065704345703,0.6737161874771118,2.2615859508514404,-0.020094294100999832,0,0,0,0.000,0,0
1739401691.1610837,0.5255290401616163,0.09599697882903642,-0.9531459944828725,-2.0690131190041448,0.13773418132236415,2.1375003748300396,-1.2753708528230514,0.0003041746275513799,-0.0003710790473716827,0.0002621614589150819,0.0016369359182228098,0.0010170907062689819,0.0004840103424449874,-0.001992971654781402,0.1935308277606964,-21.84811782836914,-2.38179087638855,22.51685333251953,0.6608988046646118,2.2551772594451904,-0.0008682189509272575,0,0,0,0.000,0,0
1739401691.1711676,0.5255315619062517,0.09599964763939663,-0.953142957609802,-2.0690227408627857,0.137730156132794,2.1375006320036367,-1.2753677139454722,0.0011548462223404184,0.001275232172121259,0.0012921196358503463,-0.0011675001262798326,-0.0008635432807691912,-6.872835558260462e-05,-0.0005648934875921844,0.2173345386981964,-21.87192153930664,-2.38179087638855,22.61603546142578,0.6673074960708618,2.2679946422576904,-0.027418512850999832,0,0,0,0.000,0,0
1739401691.181224,0.5255277120358172,0.09599696534884786,-0.953142909650067,-2.069020601806948,0.1377301239812517,2.1374989684394228,-1.2753616115761783,-0.0012400072074464229,-0.0006589657076660376,0.002105181926511005,-0.00034862037695074883,-0.0001917095018296832,-0.0004665639340062644,0.0023035981157899688,0.2411382496356964,-21.84811782836914,-2.4095618724823,22.61603546142578,0.6673074960708618,2.2551772594451904,-0.06678618490695953,0,0,0,0.000,0,0
1739401691.1921365,0.5255294248413478,0.09599580816071096,-0.9531498659674763,-2.0690169458353016,0.13773194115804008,2.1375027613586552,-1.2753708483452075,-9.99022757725137e-05,0.00039707275402041934,-0.0010987437264610832,8.835496639942155e-05,0.0009332533494081153,-0.0006006479963577672,-0.0014015512641564294,0.2173345386981964,-21.84811782836914,-2.3302161693573,22.56842803955078,0.6608988046646118,2.2615859508514404,-0.0008682189509272575,0,0,0,0.000,0,0
1739401691.202146,0.5255311373620807,0.09599409268639106,-0.9531477848993757,-2.0690148701390547,0.13773362852339366,2.137502758961294,-1.2753672310558164,0.0004482250453693183,-5.495475421524496e-05,-0.00021052744451244452,0.00048630888317435577,0.00036093936717906727,0.0005865196410057385,-0.00019132603666067777,0.1935308277606964,-21.82431411743164,-2.35798716545105,22.54065704345703,0.6737161874771118,2.2615859508514404,-0.027418512850999832,0,0,0,0.000,0,0
1739401691.2121766,0.5255257143797653,0.09599590776027318,-0.9531460035063044,-2.0690177876959814,0.13773331000336766,2.1375009440856294,-1.2753632023824515,-0.0014701381892017534,7.156941959903281e-05,0.0009928769613664888,0.00011127332962642008,0.00042668596081502926,7.225512528386151e-05,0.00017364811563396832,0.2689092457294464,-21.82431411743164,-2.38179087638855,22.61603546142578,0.6673074960708618,2.2679946422576904,-0.06037749722599983,0,0,0,0.000,0,0
1739401691.223079,0.5255294248776882,0.09598956181759286,-0.9531477861833452,-2.06902096698804,0.1377316320464734,2.1374982049828573,-1.2753621804385833,0.00030645318264870946,-0.002995318698168872,-0.0001422801062541049,0.00010855083409195692,0.00023231728724471082,-0.0010233309916146986,-5.574014286363464e-05,0.2173345386981964,-21.74496841430664,-2.35798716545105,22.59223175048828,0.6544901132583618,2.2615859508514404,-0.07411040365695953,0,0,0,0.000,0,0
1739401691.233107,0.5255311373620812,0.09599199246047518,-0.953146000617395,-2.0690148701769635,0.1377302923274428,2.1375000748976274,-1.2753661837261983,-3.7411960023842864e-05,-0.000796225119895708,0.0007552546218275713,0.0011882725964877448,-0.000791383948750445,-0.0008462406201365049,8.397316507165718e-05,0.1935308277606964,-21.79654312133789,-2.38179087638855,22.54065704345703,0.6673074960708618,2.2487685680389404,-0.04023589566349983,0,0,0,0.000,0,0
1739401691.2440991,0.5255290313312986,0.09599622649890406,-0.9531460035063097,-2.069014849621552,0.1377326954649679,2.1375032024159246,-1.275366198404507,-2.645792206297867e-05,-2.768482220186154e-05,-0.0002942488122608252,0.00034015453492845923,-0.0002801568583153795,0.00048331982260321803,-0.00035579540669060784,0.1935308277606964,-21.82431411743164,-2.38179087638855,22.56842803955078,0.6544901132583618,2.2551772594451904,-0.04023589566349983,0,0,0,0.000,0,0
1739401691.2541254,0.5255319319480144,0.09599961550267186,-0.953147490308848,-2.0690169494734962,0.1377325493728096,2.137503207009808,-1.2753693384598097,0.0014963430046383988,0.0021502509461238783,-0.0002646889688442297,-0.00021381876016122523,0.0005413509888617758,5.908274224549273e-05,-0.0023844011676534315,0.1935308277606964,-21.87192153930664,-2.3302161693573,22.56842803955078,0.6737161874771118,2.2551772594451904,-0.013685601763427258,0,0,0,0.000,0,0
1739401691.2641907,0.525531137375537,0.09599390996320532,-0.9531460033590966,-2.069013125109049,0.13773241044193624,2.1375015691069916,-1.2753658701563273,0.00046619531311707446,-0.0003990386292522988,0.0003215683107058667,0.001344807685178804,0.0016967755316142845,-0.0011582169731604746,-0.00016213129241168025,0.1935308277606964,-21.79654312133789,-2.38179087638855,22.51685333251953,0.6608988046646118,2.2679946422576904,-0.03382720425724983,0,0,0,0.000,0,0
1739401691.2750905,0.5255311370410883,0.0959941485653184,-0.9531457318398031,-2.0690160599633742,0.13772971385941368,2.1375024319105007,-1.2753693374967616,0.00017831326149489744,-0.00038573026668683736,3.8633927937462026e-05,1.862396589833587e-05,0.00029083982955039543,0.0007002382845211685,-0.0007615632520657017,0.1935308277606964,-21.79654312133789,-2.38179087638855,22.59223175048828,0.6737161874771118,2.2615859508514404,-0.013685601763427258,0,0,0,0.000,0,0
1739401691.2861373,0.5255311103987181,0.09599792603979793,-0.9531459765383683,-2.069014869149055,0.1377293592162312,2.137501988213684,-1.2753645750680045,0.000238662869960503,0.00017949564349309881,0.0008857408859219665,0.0003370672761581617,-0.0010288629428752251,0.00010568145738245916,0.0015676881625417377,0.1935308277606964,-21.84811782836914,-2.38179087638855,22.54065704345703,0.6737161874771118,2.2679946422576904,-0.05396880581974983,0,0,0,0.000,0,0
1739401691.2970686,0.5255294248412987,0.09599792891601187,-0.9531477832943633,-2.06901876148499,0.13773087442237256,2.137502448262533,-1.2753677270274244,0.00010541292459909711,0.0006591333054797011,-0.0009830075657697448,-0.00014457527472517499,0.00023002449209732118,0.0005254762687889618,-0.0008770021554080772,0.2173345386981964,-21.84811782836914,-2.35798716545105,22.59223175048828,0.6608988046646118,2.2551772594451904,-0.027418512850999832,0,0,0,0.000,0,0
1739401691.3071246,0.5255294248413495,0.09599835737706373,-0.953147707861066,-2.069020515284485,0.13773087436837156,2.137500415480415,-1.275366705352584,0.0004002733635991622,0.00044830325931581355,-0.0005293207428288332,-0.00015817065105939705,-0.0006390440643554187,-0.0013723390210053318,0.0001164172593221813,0.2173345386981964,-21.82431411743164,-2.35798716545105,22.61603546142578,0.6608988046646118,2.2817275524139404,-0.04756011441349983,0,0,0,0.000,0,0
1739401691.3171673,0.5255270016435641,0.09599691307174402,-0.9531474728943734,-2.069020515283018,0.1377322626586286,2.1375035602285446,-1.2753653458177838,-0.0014753009203451527,-0.00021743183688603955,-4.806840159139378e-05,-0.001089545934024685,0.0002499052324781804,0.00043599219272466995,-0.0004930032511610387,0.2411382496356964,-21.84811782836914,-2.35798716545105,22.61603546142578,0.6801248788833618,2.2551772594451904,-0.04756011441349983,0,0,0,0.000,0,0
1739401691.3291688,0.525531136930079,0.09599782990118186,-0.9531460029776456,-2.06901694992898,0.13772783308043363,2.1375028025684992,-1.2753661986253892,0.0002542052995560218,-0.0002705580163300238,0.0001554688499168618,0.0005122451777046174,-1.9013231968568014e-05,9.036939975585236e-05,0.0012368785330411857,0.1935308277606964,-21.84811782836914,-2.38179087638855,22.56842803955078,0.6608988046646118,2.2615859508514404,-0.04023589566349983,0,0,0,0.000,0,0
