IITGN-Robotics/Franka_IITGN_ROBOTICS/franka_ros/franka_iitgn/data/b_3.csv
time,fr3_joint1_pos,fr3_joint2_pos,fr3_joint3_pos,fr3_joint4_pos,fr3_joint5_pos,fr3_joint6_pos,fr3_joint7_pos,fr3_joint1_vel,fr3_joint2_vel,fr3_joint3_vel,fr3_joint4_vel,fr3_joint5_vel,fr3_joint6_vel,fr3_joint7_vel,fr3_joint1_eff,fr3_joint2_eff,fr3_joint3_eff,fr3_joint4_eff,fr3_joint5_eff,fr3_joint6_eff,fr3_joint7_eff,flexpin1,flexpin2,flexpin3,Force,ContactMic,ContactMic_gt
1739401817.0062838,0.525507013536639,0.09595897850693011,-0.9531747287696691,-2.068893278431039,0.13769018001053593,2.1375777113488272,-1.2753533164288064,0.0009301373573125535,0.00040615426621464455,0.0005464689126758006,0.0014210596278368408,-0.0016636401281931623,-0.000732174589974653,0.0003574400340574682,0.2173345386981964,-21.61801528930664,-2.2826087474823,22.49304962158203,0.6938577890396118,2.2753188610076904,-0.05396880581974983,,,,,,,,,
1739401817.0163505,0.5255053261811672,0.09597381294191035,-0.9531669789146069,-2.0688932845358203,0.1376950307545343,2.1375801603500353,-1.2753552544562659,0.0006327785592405505,0.0020482143346410298,0.0020852186510348673,0.000542827776617726,0.000718760973424732,6.26469245423289e-05,-0.0004058970400129967,0.2411382496356964,-21.72116470336914,-2.35798716545105,22.49304962158203,0.6801248788833618,2.2679946422576904,-0.020094294100999832,,,,,,,,,
1739401817.0273004,0.5255053006532378,0.09598377310297586,-0.9531610992679933,-2.0688989357183774,0.13769504395504317,2.137579299354785,-1.2753538270518423,-0.0006058597360586915,-3.6382861895394036e-05,0.0018426557018033803,-0.0006749260509576507,-0.000698258888744043,-0.0005666354969260188,-0.00070297748753997,0.2411382496356964,-21.74496841430664,-2.4333655834198,22.56842803955078,0.6801248788833618,2.2753188610076904,-0.013685601763427258,,,,,,,,,
1739401817.0373306,0.5255067794914773,0.0960016625612175,-0.9531624105380071,-2.068903014126532,0.13769184519052138,2.1375809506984558,-1.2753462541516827,-0.0009058621364294523,0.002614300803165299,-0.0014057935546013122,-8.170901094798972e-05,-0.000442160748522475,-0.0011886137617558353,0.002885410274734645,0.2173345386981964,-21.87192153930664,-2.4095618724823,22.59223175048828,0.6801248788833618,2.2881362438201904,-0.08692778646945953,,,,,,,,,
1739401817.048364,0.5255087260143242,0.09601673975870732,-0.953159225880602,-2.068911458760023,0.1376953987575984,2.137581722086506,-1.2753525321766983,0.0002041735241091725,0.0014640965577758956,0.00021643359726543826,-0.0009369395124167836,0.00031722533739664803,-0.0007318746508305508,-0.0007106139603885017,0.1935308277606964,-21.92349624633789,-2.4095618724823,22.66364288330078,0.6801248788833618,2.2817275524139404,-0.03382720425724983,,,,,,,,,
1739401817.058368,0.525507251913493,0.09603832571520372,-0.9531581743434031,-2.068916866208478,0.13769464112158558,2.137581722086584,-1.2753470113703158,0.0003996599648366102,0.0018051796731723684,3.7256708192012625e-05,-0.0021260292713238234,-0.00023321689372920483,-0.0005621179729503265,0.0020812697549965464,0.2173345386981964,-22.02664566040039,-2.4333655834198,22.71521759033203,0.6865335702896118,2.2817275524139404,-0.08051909506320953,,,,,,,,,
1739401817.069361,0.5255070134962597,0.09604729854347735,-0.95315489782137,-2.0689212439184703,0.1376976722158114,2.1375809644265056,-1.2753551885994128,0.0007113385475208331,8.398801535021883e-05,0.001467490584565473,-0.0005194247450149674,-0.000246518330143766,-0.00034089235815300284,-0.00014777372047516078,0.2173345386981964,-22.00284194946289,-2.4333655834198,22.73902130126953,0.6938577890396118,2.2881362438201904,-0.0072769103571772575,,,,,,,,,
1739401817.0793931,0.525507786150056,0.09606166051856375,-0.9531549004307044,-2.0689196944900545,0.1376935837461862,2.1375824792621456,-1.275354886031084,0.0003733563096948837,0.0011548408898959263,0.0010086710726825302,0.001310574754696598,0.00027997598787497373,0.0003566491230103422,-0.0014027794463704422,0.1935308277606964,-22.05441665649414,-2.4333655834198,22.66364288330078,0.6938577890396118,2.2753188610076904,-0.013685601763427258,,,,,,,,,
1739401817.090384,0.525504282663547,0.09605968906380648,-0.953154896433501,-2.068915134707818,0.13769504397589127,2.137582479746654,-1.275351563755854,-0.001464631240451146,-0.0007498357213929426,0.0013737094114470918,0.0008009464043069228,-0.0005237631352066592,-0.000273800878302137,0.0007833568229090712,0.2411382496356964,-21.95126724243164,-2.4333655834198,22.61603546142578,0.6801248788833618,2.2753188610076904,-0.05396880581974983,,,,,,,,,
1739401817.101295,0.5255070133821681,0.09606054290721074,-0.9531517751038611,-2.0689179019276294,0.13769534931654887,2.1375824797466625,-1.2753528470293378,2.317282562751792e-05,-0.00012180225844219612,0.0019489411041724077,0.00029903491590746315,-4.9710551808164385e-05,-0.0001978026673670909,0.0009888990442563188,0.2173345386981964,-21.92349624633789,-2.4333655834198,22.61603546142578,0.6865335702896118,2.2753188610076904,-0.04023589566349983,,,,,,,,,
1739401817.1123521,0.5255103345348555,0.0960591744142642,-0.9531564188484858,-2.068911798940816,0.13770193619668775,2.1375824797466625,-1.2753580920993008,0.00048296876754926526,0.0009022748457729152,-0.0009792688606099784,0.001972457134635395,0.0023767328149166007,-0.00012218228893530564,-0.0020637736308863636,0.1697271168231964,-21.89969253540039,-2.38179087638855,22.56842803955078,0.6608988046646118,2.2753188610076904,-0.013685601763427258,,,,,,,,,
1739401817.1232855,0.5255032221426714,0.09605130199706843,-0.9531566789545795,-2.068906154307491,0.13769428779721526,2.1375852141767613,-1.2753577443521713,-0.0009964900567780502,-0.0008062115479627701,0.0004970361291834152,0.0005425318417233563,-0.0008035471328209547,0.0005670928151846155,-0.0015620697627516018,0.2689092457294464,-21.82431411743164,-2.4095618724823,22.49304962158203,0.6865335702896118,2.2551772594451904,-0.020094294100999832,,,,,,,,,
1739401817.1343272,0.5255058274543042,0.09604492710101448,-0.9531626213671818,-2.068907706451444,0.1377000315991841,2.1375856186261237,-1.2753516211488662,-0.0002481766754872272,-0.0003018533811896231,-0.0006146701707722509,-0.0001862183051005028,0.0015520762146372892,7.268818426129113e-05,0.0006307186442842708,0.1935308277606964,-21.74496841430664,-2.3302161693573,22.51685333251953,0.6737161874771118,2.2487685680389404,-0.08051909506320953,,,,,,,,,
1739401817.14436,0.5255069870501816,0.09603741805108583,-0.9531619157389017,-2.06890556362637,0.13769978753415565,2.1375848609640515,-1.275350960757876,-6.142836373539075e-05,-0.0011213691625891343,-0.0009406539163481822,-0.0009410030613282868,0.0008071672387689382,-0.00017714506016886539,0.0007714066932608811,0.2173345386981964,-21.64181900024414,-2.38179087638855,22.51685333251953,0.6673074960708618,2.2551772594451904,-0.04756011441349983,,,,,,,,,
1739401817.1553535,0.5255052226516024,0.09604105836010486,-0.9531587590648044,-2.068909488985894,0.1377004530032379,2.1375841033039733,-1.2753501507448555,-0.000659222731992847,0.00012545085237703908,0.00016344045396124733,-0.0015052215426806332,0.0010325949612370005,-0.0003938913230396968,0.0007587613664816551,0.2411382496356964,-21.69339370727539,-2.38179087638855,22.54065704345703,0.6737161874771118,2.2615859508514404,-0.05396880581974983,,,,,,,,,
1739401817.1673446,0.5255030905137433,0.09604231969325724,-0.9531605425766432,-2.0689052336319524,0.13769692674136713,2.1375833456438946,-1.2753583947172087,-0.0014378662894372993,0.0007257236405977093,0.00047170647441928,-0.0002806229323756287,-6.499182575767635e-05,-0.0005048227652053178,-0.001570450494255677,0.2411382496356964,-21.72116470336914,-2.35798716545105,22.49304962158203,0.6673074960708618,2.2679946422576904,-0.020094294100999832,,,,,,,,,
1739401817.178297,0.5255069353350625,0.09604309678851677,-0.953165575394021,-2.0689064785020865,0.1376951620793165,2.1375841033039733,-1.2753532913162493,0.0006645522761296469,0.0012614047147219295,-0.0006225600205498703,0.0013401021210393198,-0.0020484324266099255,-0.0006300068976382021,0.0013112681160800034,0.2173345386981964,-21.72116470336914,-2.3302161693573,22.54065704345703,0.6801248788833618,2.2615859508514404,-0.027418512850999832,,,,,,,,,
1739401817.1883347,0.5255070019378657,0.0960465972281153,-0.9531628656944034,-2.0689114554891126,0.1376946412795877,2.1375841425498296,-1.275351813547165,0.0004741796085943301,0.000813619496107872,7.66326989881255e-05,-0.0004954377351489266,-0.0007467730973749441,4.1214159436968574e-05,0.00042499870014099965,0.2173345386981964,-21.77273941040039,-2.3302161693573,22.56842803955078,0.6865335702896118,2.2615859508514404,-0.04023589566349983,,,,,,,,,
1739401817.198406,0.525502258929524,0.09605400738122358,-0.9531606359612897,-2.068914904575894,0.1377008285943984,2.137588342018661,-1.2753498830924939,-0.0009147239537419998,0.00124240458370347,-0.00034656645403369885,-0.0011309866452811452,0.0012600433737397024,-0.0001324861439958609,0.0003199835993224619,0.2411382496356964,-21.87192153930664,-2.35798716545105,22.61603546142578,0.6673074960708618,2.2615859508514404,-0.06037749722599983,,,,,,,,,
1739401817.209381,0.5255070130497517,0.09605612926611527,-0.9531609533983247,-2.068918695844566,0.13769966377458667,2.1375841168943697,-1.2753575716493586,-0.00021498205592758988,0.0004711708740002073,-0.0008364409378844372,-0.000783353198495605,0.0008486254084770618,-0.00027798439127061026,-0.000763210655366538,0.2173345386981964,-21.87192153930664,-2.38179087638855,22.66364288330078,0.6801248788833618,2.2615859508514404,-0.0072769103571772575,,,,,,,,,
1739401817.220367,0.525506978827738,0.0960580365742587,-0.9531591097835748,-2.068915134166055,0.1376958191563936,2.1375870018073564,-1.2753533512364978,0.0001157558397613075,0.00021647239502373402,-0.0019486281589515529,0.0007845911134208944,-0.0014995925847573312,0.00121241958922632,-0.0005645724647337985,0.2173345386981964,-21.92349624633789,-2.38179087638855,22.61603546142578,0.6737161874771118,2.2679946422576904,-0.06678618490695953,,,,,,,,,
1739401817.2313077,0.5255067014897664,0.09606285065568368,-0.9531531227561987,-2.06892078224937,0.1376982896875285,2.1375824799700855,-1.2753596118539154,-0.0004242470927095281,-0.00022367722404808665,3.390973176406158e-05,0.0005383081066253862,-0.0010220372785407369,-0.00082240313991071,-0.0016578822117549546,0.2173345386981964,-21.95126724243164,-2.4571692943573,22.69141387939453,0.6801248788833618,2.2753188610076904,-0.0008682189509272575,,,,,,,,,
1739401817.2422793,0.5255010809798861,0.09606312221787432,-0.953155520933178,-2.0689177077521013,0.13769992086306643,2.1375856761036545,-1.2753560240696156,-0.001833176587923133,0.00016835201450794948,-0.00017574586711088303,-0.00017055422942853212,-5.3724202121881734e-05,0.00018803378042933047,-0.0015557075310407543,0.2689092457294464,-21.95126724243164,-2.4333655834198,22.63983917236328,0.6673074960708618,2.2753188610076904,-0.0072769103571772575,,,,,,,,,
1739401817.2523253,0.5255077522906529,0.0960607904242609,-0.9531598391069361,-2.0689190636955126,0.1376954673870214,2.1375833458772786,-1.2753533426510968,0.0002903799637191559,-0.0009571249747494437,-0.000323188269011614,-0.000753492904727327,-0.0004825104876493679,-0.0008519083546278278,0.00024465602835531766,0.1935308277606964,-21.95126724243164,-2.35798716545105,22.63983917236328,0.6865335702896118,2.2679946422576904,-0.027418512850999832,,,,,,,,,
1739401817.263388,0.525504985101224,0.0960572565877746,-0.9531605412444384,-2.068915455192157,0.13769598846919562,2.1375880398784433,-1.2753497991098242,-0.0018710979719000933,-0.002324119881538013,-0.0008945155737450618,0.0003039491770881731,-0.0006914100197650344,-0.0008559968222060963,0.0006815098189497428,0.2411382496356964,-21.87192153930664,-2.35798716545105,22.59223175048828,0.6801248788833618,2.2551772594451904,-0.06037749722599983,,,,,,,,,
1739401817.2734108,0.5255065840283709,0.09605865818007518,-0.9531566778264774,-2.0689118761201093,0.13770116590980142,2.1375872872788695,-1.2753568496750614,0.00012543520560265585,-0.0005237885583080863,0.0003592061449393847,0.0010670349336138435,0.0012653151333502123,0.0009453911201200452,-0.0017083657932387883,0.1935308277606964,-21.84811782836914,-2.4095618724823,22.56842803955078,0.6673074960708618,2.2615859508514404,-0.0072769103571772575,,,,,,,,,
1739401817.2843587,0.5255043133273983,0.09605386649538884,-0.9531566881042921,-2.0689115809668914,0.13769904423968002,2.1375872880564986,-1.275353447145433,-0.0005491839112068736,-0.0006309066561910957,0.0015875354698072033,0.001316669811716603,0.0013988045136455855,0.0008031405347233365,-0.001273299621918812,0.2411382496356964,-21.82431411743164,-2.4095618724823,22.54065704345703,0.6865335702896118,2.2615859508514404,-0.027418512850999832,,,,,,,,,
1739401817.2943633,0.5255048294462659,0.09604804436858762,-0.9531587589004602,-2.0689095912018143,0.13769981396059564,2.1375855166932634,-1.2753495563687027,0.0003403594412766214,-0.0008177303573863332,0.00020256624605166054,-0.0006374567891893261,0.0004447709617533032,0.0008370490216705628,0.0006500904294008445,0.2173345386981964,-21.74496841430664,-2.38179087638855,22.54065704345703,0.6801248788833618,2.2615859508514404,-0.06037749722599983,,,,,,,,,
1739401817.305354,0.525506697305124,0.09604464926415548,-0.9531605415773271,-2.0689073962388704,0.13769818856752256,2.1375853382210277,-1.2753533472633873,0.00013239955523589405,0.0002433409409187484,0.0008801398191422213,5.752816881916784e-05,-0.002188053762577728,0.0010332365032218772,0.0003155769937671086,0.2173345386981964,-21.69339370727539,-2.35798716545105,22.51685333251953,0.6938577890396118,2.2551772594451904,-0.05396880581974983,,,,,,,,,
1739401817.316284,0.5255048063686002,0.09604433358207631,-0.9531645209641495,-2.0689076979451224,0.13770302597438264,2.137585214179455,-1.2753512753627763,0.00032243460385476797,-0.0006959668250908237,-0.0019002166905942469,-0.0006801137608896488,0.0014675511883780932,0.0005761156896589107,0.0010168398848682664,0.2173345386981964,-21.69339370727539,-2.3064124584198,22.51685333251953,0.6801248788833618,2.2551772594451904,-0.04756011441349983,,,,,,,,,
1739401817.3263655,0.5255070043627529,0.0960478994246861,-0.953162727082949,-2.068909259538756,0.13769728860865038,2.1375891009761006,-1.2753596219551189,0.0006301238389087266,0.0007677352252166623,-0.0005315179860775907,-7.330096476807254e-05,-0.001662081078456082,0.0007240873638566163,-0.0012172081363061658,0.2173345386981964,-21.77273941040039,-2.35798716545105,22.54065704345703,0.7002664804458618,2.2551772594451904,-0.0008682189509272575,,,,,,,,,
1739401817.3373573,0.5255052226519986,0.09604808754998655,-0.9531566791227897,-2.0689056363752636,0.13770058512174482,2.1375867011616547,-1.2753593268752887,-0.00026730152352832796,0.0001221838476014507,0.0020267817329241316,0.00013525678647484127,0.0013457141639431412,0.0008627919768010453,-0.0020810142617243912,0.2411382496356964,-21.74496841430664,-2.4095618724823,22.51685333251953,0.6737161874771118,2.2679946422576904,-0.013685601763427258,,,,,,,,,
1739401817.3473682,0.5255049036108973,0.09605003906046969,-0.9531613070532257,-2.0689151309816607,0.13769982870850705,2.1375828869590627,-1.275351319995019,-7.945962309957381e-05,0.0006383004255197038,-0.0008911137676707694,-0.0015229449925060646,0.0007232718788351468,0.0011971800638913947,0.00018417760290228002,0.2173345386981964,-21.77273941040039,-2.35798716545105,22.61603546142578,0.6801248788833618,2.2753188610076904,-0.04756011441349983,,,,,,,,,
1739401817.3583536,0.5255052735352596,0.09605543865804224,-0.9531616742419059,-2.068916106653154,0.13770058539350005,2.137583386830117,-1.275353426257483,-0.0008473302407055042,0.0010588588062186888,-0.0010675131349454732,-0.0014951900046606473,0.0004577352252862545,-0.0010238859314201144,-0.00020650447491615478,0.2411382496356964,-21.84811782836914,-2.38179087638855,22.59223175048828,0.6737161874771118,2.2679946422576904,-0.027418512850999832,,,,,,,,,
1739401817.368371,0.5255069758313472,0.09606564812153946,-0.9531605537295232,-2.0689135812289545,0.1376999457193065,2.1375833632487002,-1.2753578988315806,-0.00025365010480622307,0.0007910981744005261,-0.0002997142494864809,0.0003054965115362585,-0.0008241045671873617,-0.0002694604835660596,-6.942551679849904e-05,0.2173345386981964,-21.95126724243164,-2.35798716545105,22.59223175048828,0.6801248788833618,2.2679946422576904,-0.027418512850999832,,,,,,,,,
1739401817.379339,0.5255065811445766,0.09606088796295534,-0.9531557470941033,-2.068916950962446,0.13770200658777249,2.1375838928129416,-1.275353363111553,-3.862065051748369e-07,-0.0006190636209427405,0.0010040346343478958,-4.16169636841335e-05,0.001140433165102999,-0.0011893954900220715,-0.001879344932640273,0.1935308277606964,-21.92349624633789,-2.4095618724823,22.63983917236328,0.6737161874771118,2.2753188610076904,-0.04023589566349983,,,,,,,,,
1739401817.3902884,0.5255104123926752,0.09606396987058234,-0.9531587328841442,-2.0689189956304803,0.1377007428945961,2.137587400625884,-1.2753503272964777,0.001822053660407746,-0.0011291582999353508,-0.0006401932375734872,0.0003123744504747234,0.0006884457300028135,-0.0001836224857460176,0.0009164964594027622,0.1697271168231964,-21.92349624633789,-2.38179087638855,22.63983917236328,0.6737161874771118,2.2615859508514404,-0.05396880581974983,,,,,,,,,
1739401817.400367,0.5255048946242904,0.09606778593838104,-0.9531570819369284,-2.0689151384119486,0.137699069586682,2.1375841096751396,-1.2753575826023318,-0.0005494041151737474,0.0010253745904731384,0.00016796574037804225,0.0006377240627602408,0.00114830361822364,-0.0007578150091799138,-0.00047578848532097356,0.2173345386981964,-21.97507095336914,-2.4333655834198,22.61603546142578,0.6865335702896118,2.2615859508514404,-0.027418512850999832,,,,,,,,,
1739401817.4113975,0.5255055703279305,0.09606479287938803,-0.9531562203904073,-2.0689211060502264,0.13770529900870646,2.137585417011345,-1.275353646842167,-0.0008734191379720932,0.0003246346550916922,0.0006003102369869783,-0.0009744415642721968,0.0018780102825650844,0.0013743077378181074,-0.00041539495124337164,0.1935308277606964,-21.92349624633789,-2.4095618724823,22.66364288330078,0.6608988046646118,2.2817275524139404,-0.06037749722599983,,,,,,,,,
1739401817.4223607,0.5255049064833408,0.09606024086365689,-0.9531587614320103,-2.068917893577914,0.13769709441386674,2.13758521695966,-1.275353044910638,0.0005810220879305277,-0.0010842988330918841,-0.00019222162315848398,-0.0013848495526326103,-0.000545718331625126,3.784257906125307e-05,0.000513602157183293,0.2173345386981964,-21.89969253540039,-2.38179087638855,22.61603546142578,0.6737161874771118,2.2615859508514404,-0.06037749722599983,,,,,,,,,
1739401817.4343219,0.5255066751214212,0.0960568697743119,-0.9531604389082423,-2.068911799500655,0.13769820361485038,2.1375836993474078,-1.2753528873480902,-0.0009637539031850895,-0.0009655194493653103,0.00021391158113396257,-0.00017705743635713873,-0.0006373711499197428,0.00047421212068363367,0.0012867486090305039,0.2173345386981964,-21.82431411743164,-2.35798716545105,22.56842803955078,0.6938577890396118,2.2679946422576904,-0.03382720425724983,,,,,,,,,
1739401817.44435,0.5255052749718925,0.09605495069383385,-0.9531587771074641,-2.0689095656578838,0.13770069025654283,2.137583482494955,-1.2753563725287365,0.00023144809523251402,0.00024089389093251204,0.0006694882702554195,0.0005243149391104069,0.0006093190190919986,0.0008061254553404124,-0.0007729573321899408,0.2411382496356964,-21.79654312133789,-2.38179087638855,22.54065704345703,0.6737161874771118,2.2679946422576904,-0.04023589566349983,,,,,,,,,
1739401817.45528,0.5255031861337972,0.09605492157255126,-0.9531602596633785,-2.068908825872616,0.13770058490654152,2.1375863916070683,-1.275354408918454,-0.0012281326523551658,0.0004385197218844839,-0.0002275950614196667,8.873383197491552e-05,-0.00011534356475498774,0.0003026081818510594,-0.0007232268235791451,0.2411382496356964,-21.79654312133789,-2.35798716545105,22.54065704345703,0.6737161874771118,2.2551772594451904,-0.05396880581974983,,,,,,,,,
1739401817.4653115,0.5255070120681321,0.09604296451141506,-0.9531587618934811,-2.0689074003212284,0.13770058490594683,2.137586144657271,-1.275349345893622,0.00044496359849783873,-0.001999755780581571,-1.2452893146660616e-07,0.00020013393154510664,0.0010271002912231788,-0.0020115763489900627,0.001467555408913771,0.2173345386981964,-21.66958999633789,-2.38179087638855,22.51685333251953,0.6737161874771118,2.2753188610076904,-0.07411040365695953,,,,,,,,,
1739401817.4753213,0.5255021549281754,0.09604704603775652,-0.9531605430208339,-2.068910177886761,0.1376998272458685,2.137587812018739,-1.275356542618805,-0.0006461871561031917,4.216497505973263e-05,0.0005605697754210333,-0.0007160732348283883,0.00010312198740017114,0.0012636575956390338,0.000832377124727164,0.2411382496356964,-21.72116470336914,-2.35798716545105,22.54065704345703,0.6801248788833618,2.2615859508514404,-0.04023589566349983,,,,,,,,,
1739401817.4853902,0.5255045607391196,0.09605016625929276,-0.9531605415773515,-2.0689077064618067,0.13770034501863548,2.137588871496104,-1.275354161455472,7.99590701323614e-05,0.000790961163196317,0.0011005902344220775,-0.00021888686871326469,1.7686492660553703e-05,0.0009076022635644946,-0.0014871290234357603,0.2173345386981964,-21.74496841430664,-2.35798716545105,22.51685333251953,0.6801248788833618,2.2615859508514404,-0.06037749722599983,,,,,,,,,
1739401817.4973166,0.5255008575571287,0.09605004203079795,-0.9531616208383847,-2.068907184741279,0.13770058490886966,2.1375887096316193,-1.2753608305759339,-0.0005317014640558258,0.00014021975663493832,0.0005320125381260759,-0.0007182296438152929,-0.00062133857929956,0.00034432480493613247,-0.0004598814950054649,0.2689092457294464,-21.77273941040039,-2.35798716545105,22.54065704345703,0.6737161874771118,2.2615859508514404,-0.0008682189509272575,,,,,,,,,
1739401817.507364,0.525506307966498,0.09605175450346304,-0.9531597292783753,-2.0689095231272288,0.137698911865153,2.1375888711901236,-1.2753596822482292,0.0008035344100608428,0.0014160242110301887,-0.000594072560492102,-0.000517883913985414,0.00028730153428651066,-0.0005632560084030316,-0.0015700546549769787,0.1935308277606964,-21.79654312133789,-2.38179087638855,22.54065704345703,0.6608988046646118,2.2615859508514404,-0.013685601763427258,,,,,,,,,
1739401817.5183446,0.525504089419321,0.09605546496504702,-0.9531549773834905,-2.068915134271247,0.13770134249402335,2.137588695311456,-1.275354901672952,-0.000948731025223527,0.00042971781209380164,0.0006999610690957571,-0.0005256908613335278,-0.0004504456458493899,-0.00010363519565294787,0.0003262740602903633,0.2173345386981964,-21.84811782836914,-2.4333655834198,22.61603546142578,0.6673074960708618,2.2615859508514404,-0.05396880581974983,,,,,,,,,
1739401817.5293465,0.5255041783339971,0.09605753127687985,-0.9531608233857519,-2.068916905610382,0.1377002296188985,2.1375887539349985,-1.275358056539173,-0.0004254529914008525,2.703240816326595e-05,-0.0019316290403786946,-0.00039068693506562585,-0.0003708874215254044,-0.0002143724746313661,0.00029180959330183905,0.2173345386981964,-21.87192153930664,-2.35798716545105,22.63983917236328,0.6737161874771118,2.2615859508514404,-0.027418512850999832,,,,,,,,,
1739401817.5393832,0.5255083750159998,0.09605555699136786,-0.9531587589050804,-2.0689196724269325,0.13770046679443018,2.137586490456172,-1.2753541600018978,-0.0007495038870445741,-0.0013473861078731595,-0.00046181189266984317,-0.0005154736502988435,-0.0007420832845575953,-9.720598050494997e-05,0.0005425457682252761,0.1935308277606964,-21.84811782836914,-2.38179087638855,22.63983917236328,0.6737161874771118,2.2817275524139404,-0.06037749722599983,,,,,,,,,
1739401817.5493932,0.5255043519761632,0.09606600314054384,-0.9531566791104524,-2.06891783563161,0.13770055886300953,2.137586490458166,-1.2753589734275792,0.0001563309339249865,0.0008618254018359214,0.000724217684438576,-0.000708495845123856,-0.000470737706555225,0.00023438298904196968,-0.00045900821556885,0.2411382496356964,-21.95126724243164,-2.4095618724823,22.63983917236328,0.6737161874771118,2.2817275524139404,-0.04756011441349983,,,,,,,,,
1739401817.5603619,0.5255063114436302,0.09606037075315016,-0.9531552202487624,-2.0689183949123127,0.13770089350658912,2.137586490458166,-1.275358884663004,0.00040644142012736785,-0.0009616173444056317,0.0007495593489376713,-1.14531761721767e-05,0.00015829569804009483,8.820132012520867e-05,-0.000755320979870372,0.2173345386981964,-21.87192153930664,-2.4333655834198,22.66364288330078,0.6801248788833618,2.2817275524139404,-0.020094294100999832,,,,,,,,,
1739401817.5713012,0.5255058106165325,0.09606237172569024,-0.9531585239357386,-2.0689142727797845,0.1377001958358912,2.1375872481182445,-1.275353101817122,-0.00023929864628004796,-0.001135102771012619,0.00015692846277095944,0.00152194585726487,-0.0006510726227534863,0.00012454197328535843,0.0013349730193614948,0.1935308277606964,-21.89969253540039,-2.38179087638855,22.59223175048828,0.6801248788833618,2.2753188610076904,-0.06037749722599983,,,,,,,,,
1739401817.5813105,0.525502255991416,0.09606408424643853,-0.9531566795506136,-2.0689102888699566,0.1377021002323456,2.1375888716755553,-1.2753608444474689,-0.0017619681116573462,0.00036151976521875596,-0.001084452730229063,0.0009259425649443088,0.0003993636711293173,0.000790002650009969,-0.0009579977042879484,0.2411382496356964,-21.92349624633789,-2.4095618724823,22.54065704345703,0.6608988046646118,2.2615859508514404,-0.0008682189509272575,,,,,,,,,
1739401817.5913575,0.5255059705392147,0.09605936112812599,-0.9531566752585517,-2.068911660308707,0.137699840409583,2.1375881140154767,-1.2753534031438443,-0.0007767461263977345,0.0011620524670509125,-0.0002377835169116653,0.00040225308977470616,0.0008964431953231034,-6.51624197954302e-05,0.0022288445949155975,0.2173345386981964,-21.84811782836914,-2.4095618724823,22.54065704345703,0.6801248788833618,2.2679946422576904,-0.06678618490695953,,,,,,,,,
1739401817.6022925,0.5255087229781632,0.09605495113051017,-0.9531587579373092,-2.0689178893424476,0.13770058929392592,2.1375888716755553,-1.275354161455469,0.0006537689626009671,-0.00046398542425155846,-0.0003400578850947916,-0.0008315200326808397,-0.00035850879871556385,0.00022648137403577146,0.0010787727002429391,0.1935308277606964,-21.79654312133789,-2.38179087638855,22.61603546142578,0.6737161874771118,2.2615859508514404,-0.06037749722599983,,,,,,,,,
1739401817.6124377,0.5255048686240065,0.0960532373074803,-0.9531566781474591,-2.068909490223605,0.13770063318660103,2.1375888716755553,-1.2753593283377296,-0.0008698245958254516,-9.309869521435593e-05,0.0005283861876167419,0.00027421746560167765,-0.00021721121430904746,0.0001754690066635547,-0.0011687380834109835,0.2173345386981964,-21.77273941040039,-2.4095618724823,22.54065704345703,0.6737161874771118,2.2615859508514404,-0.013685601763427258,,,,,,,,,
1739401817.6233501,0.5255083759792168,0.09605147655194876,-0.9531587589003025,-2.068909489232146,0.13770484994968996,2.137588114499993,-1.275353286056271,0.0006300428882472216,0.00039261648119169254,-0.0004218436798664473,6.486829086548552e-08,0.00242298582044462,0.00022682781364046178,0.0013575726151441587,0.1935308277606964,-21.74496841430664,-2.38179087638855,22.54065704345703,0.6737161874771118,2.2679946422576904,-0.06678618490695953,,,,,,,,,
1739401817.6352782,0.5255021549262237,0.09605014769918456,-0.9531587589003079,-2.0689041411310978,0.13770058493002313,2.137588871675558,-1.2753517802378593,-0.0012040529760169465,0.0007148452814831937,0.0004172547369474548,0.0012422241420959534,0.00010895201772343372,-0.00017703730614958724,0.0012227794756744397,0.2411382496356964,-21.77273941040039,-2.38179087638855,22.46924591064453,0.6737161874771118,2.2615859508514404,-0.08051909506320953,,,,,,,,,
1739401817.645296,0.5255042869416021,0.09605039274317208,-0.9531605685958652,-2.0689059237731233,0.13769986673701184,2.137589173653606,-1.2753575521575329,-0.0008961883413274752,0.00137720362717623,-3.4393244808401735e-05,0.0019711134379513835,-0.0001431494878913989,0.0001476976253194385,0.00010389710442729693,0.2411382496356964,-21.77273941040039,-2.35798716545105,22.49304962158203,0.6801248788833618,2.2679946422576904,-0.027418512850999832,,,,,,,,,
1739401817.6553266,0.525502169248685,0.09605290945039431,-0.9531608667995581,-2.0689088003623772,0.1377013406225705,2.1375888716935,-1.2753580555618684,-0.001270160936962657,0.0021896792556648573,0.0011253644324181905,-0.00026702747528217633,-0.00010725993379661936,-0.0003782254380165946,-0.00020001093910254072,0.2411382496356964,-21.77273941040039,-2.35798716545105,22.54065704345703,0.6673074960708618,2.2615859508514404,-0.027418512850999832,,,,,,,,,
1739401817.6653514,0.5255043384800212,0.09605175497392285,-0.9531644939991462,-2.068913643679645,0.13770211387726417,2.1375896293356345,-1.2753555743061884,-0.00036804989387480074,-0.0003420465049832628,-7.368167123392871e-06,-0.0013012178439326559,0.0011647694365430716,-5.1232871721798925e-05,-0.0009235427649272198,0.2411382496356964,-21.79654312133789,-2.3064124584198,22.56842803955078,0.6608988046646118,2.2551772594451904,-0.06037749722599983,,,,,,,,,
1739401817.6762824,0.5255023669702833,0.09605399107861955,-0.953164915833427,-2.068915142778228,0.13770455890027303,2.1375888716755553,-1.2753533994378428,-0.001284468176846044,-0.0013342730270392358,-0.0005587808787561916,-0.00043318171463764337,0.001760173395909701,0.0005399632162971646,0.0005282417596474937,0.2689092457294464,-21.79654312133789,-2.3302161693573,22.61603546142578,0.6673074960708618,2.2615859508514404,-0.06678618490695953,,,,,,,,,
1739401817.6862895,0.525500858981755,0.09605855504558405,-0.9531634682706577,-2.068913355373411,0.13769952347355216,2.1375872481182445,-1.2753580579929447,-0.0014111536469521117,7.779425975429236e-05,-0.0008484990186501972,0.0015696739953318245,-0.0008721476184443572,-0.00042413443726116115,-0.002021021755478909,0.2689092457294464,-21.84811782836914,-2.3302161693573,22.59223175048828,0.6737161874771118,2.2753188610076904,-0.027418512850999832,,,,,,,,,
1739401817.6963003,0.5255062718807723,0.096061953378589,-0.9531587629119135,-2.068916916948138,0.13770302601049597,2.13758795703205,-1.2753549234762018,-0.00010244819462872188,0.00023722432381505752,0.0008378245283985287,5.326578686030319e-05,0.00047895818102525466,-0.0005235506652710917,0.00017292094412160004,0.1935308277606964,-21.92349624633789,-2.38179087638855,22.63983917236328,0.6801248788833618,2.2679946422576904,-0.05396880581974983,,,,,,,,,
1739401817.7063005,0.5255067751700347,0.09606237168962092,-0.9531587593445162,-2.0689134635012545,0.1377039417072941,2.1375888716728966,-1.2753557817334071,0.0010422639272870036,-0.00017421444125333575,-0.0005891134711356467,0.00037542859863176604,0.0011460357764293994,-6.311718193963545e-05,-0.0005674949977317135,0.2173345386981964,-21.89969253540039,-2.38179087638855,22.59223175048828,0.6737161874771118,2.2615859508514404,-0.027418512850999832,,,,,,,,,
1739401817.7163608,0.5255039584997235,0.09606260458067087,-0.9531587678941577,-2.0689133600992,0.13770094038308378,2.137589224888265,-1.2753549190770024,-0.0002490536762829146,-0.00019806966588922212,0.0006235323752347846,0.0007531048775694922,0.0005161470131039997,0.0006471706190135886,0.0005363997095421129,0.2173345386981964,-21.89969253540039,-2.38179087638855,22.59223175048828,0.6737161874771118,2.2615859508514404,-0.05396880581974983,,,,,,,,,
1739401817.7263877,0.5255049074123952,0.09606408425038195,-0.9531566766658139,-2.068918709493228,0.1377030274971264,2.137588114021458,-1.2753596815504387,-0.0005495264547848457,0.00016198642221516358,-0.0002989163467016811,0.00029811616206063506,-0.00028386806295341597,-0.0005695934017317923,6.633079583891004e-05,0.2173345386981964,-21.92349624633789,-2.4095618724823,22.66364288330078,0.6801248788833618,2.2679946422576904,-0.013685601763427258,,,,,,,,,
1739401817.736471,0.5255086181265501,0.09606450194497876,-0.953156679110411,-2.068916107598147,0.13770135724657107,2.137584936554639,-1.2753580449110662,0.0006916944369103766,0.0004811014218337162,7.732773472200803e-05,0.001373567861460551,0.001443211371456099,-0.0009158670799172128,-0.0014069135204131562,0.1935308277606964,-21.89969253540039,-2.4095618724823,22.59223175048828,0.6673074960708618,2.2679946422576904,-0.027418512850999832,,,,,,,,,
1739401817.7473428,0.5255101236422758,0.09605866127614825,-0.9531566791104523,-2.0689161419415494,0.13770227184201878,2.1375888716576186,-1.2753534042802777,0.0014506724240573314,-6.604326552787584e-05,-0.00010416408112237657,-0.000567860983951551,0.0012663913077375557,0.00030510941312310216,0.0009457452429016964,0.1697271168231964,-21.84811782836914,-2.4095618724823,22.59223175048828,0.6608988046646118,2.2615859508514404,-0.06678618490695953,,,,,,,,,
1739401817.7573652,0.5255069785014154,0.09605323828180785,-0.9531625823393585,-2.06890793902506,0.13770210022900983,2.137589747073203,-1.27535805750851,0.00046146224030188255,-0.0011690696394061617,-0.0009427704411897381,0.00041027765849175533,0.0006468196542962804,0.00046788255552988677,0.00047282013840489913,0.2173345386981964,-21.77273941040039,-2.3302161693573,22.51685333251953,0.6608988046646118,2.2551772594451904,-0.027418512850999832,,,,,,,,,
1739401817.7683332,0.5255041790253038,0.09605686982242707,-0.9531628642007003,-2.068909490073282,0.13769994571929822,2.137589629336298,-1.275358057993016,-0.0010298235522604908,4.058711455173054e-05,-0.0010001086353532682,0.0012390737030576653,0.00010817139084643939,7.247575072454244e-05,0.0002719888955872576,0.2173345386981964,-21.82431411743164,-2.3302161693573,22.54065704345703,0.6801248788833618,2.2551772594451904,-0.027418512850999832,,,,,,,,,
1739401817.7783513,0.5255024022582989,0.0960503065127772,-0.9531605415814395,-2.0689143356287967,0.13770134273054652,2.137586490458166,-1.2753534039573404,-0.0005501366507310168,-0.0022589598817434964,0.0004225862128113825,-0.000672155132129014,0.0005433827821020463,-0.0003455048695646556,0.0017730846201154198,0.2411382496356964,-21.77273941040039,-2.35798716545105,22.56842803955078,0.6673074960708618,2.2817275524139404,-0.06678618490695953,,,,,,,,,
1739401817.78935,0.5255038846591568,0.0960495014966852,-0.9531605454675929,-2.0689041411467155,0.1377015005305991,2.1375903811815107,-1.2753580985144566,-0.0009547341538530478,-0.00015904549433167913,0.0008077693595848836,0.0017291652697296062,-0.00011391439827873083,0.0004112218662285563,-0.0002857942993918191,0.2173345386981964,-21.72116470336914,-2.35798716545105,22.46924591064453,0.6673074960708618,2.2487685680389404,-0.05396880581974983,,,,,,,,,
1739401817.8003802,0.5255041751559307,0.09604836400182812,-0.953162946477943,-2.0689059207636658,0.13770133144843516,2.1375888716755225,-1.2753576041055004,-0.0006665172599004518,-0.00014459905201391328,0.0005002470714221762,0.001131735996082329,-0.00017279809066948868,-0.00013444649865148304,-0.00018407740003740874,0.2173345386981964,-21.74496841430664,-2.3302161693573,22.51685333251953,0.6673074960708618,2.2615859508514404,-0.04023589566349983,,,,,,,,,
1739401817.811324,0.5255062994849165,0.09605217718095692,-0.9531612700803762,-2.0689094995099655,0.1377016511667517,2.1375903913563623,-1.2753556767816212,0.0008217288538833646,0.0003144255321140831,0.0009574709955872278,-9.24283587117859e-05,0.0014734675491868,0.0003130957418856759,0.0005171492982580497,0.2173345386981964,-21.77273941040039,-2.35798716545105,22.54065704345703,0.6737161874771118,2.2487685680389404,-0.04756011441349983,,,,,,,,,
1739401817.8213692,0.5255024804023466,0.09605313011288599,-0.9531601903392475,-2.0689115717516158,0.13770286922258884,2.1375872481183182,-1.2753628604648275,-0.0009507295522309838,-0.0003316492152257198,-0.0002248638146091075,-0.00024654629606322406,0.0005294681324606344,-0.0008125742288482555,-0.0006321083914609828,0.2411382496356964,-21.77273941040039,-2.35798716545105,22.56842803955078,0.6801248788833618,2.2753188610076904,-0.013685601763427258,,,,,,,,,
1739401817.832277,0.5255045950642472,0.09605694874156005,-0.9531607874030642,-2.0689094891272095,0.13770164684405284,2.1375896293356336,-1.2753552211474373,-0.001019989193710716,0.0018239895436478269,-0.0004256017120499074,0.0008839485525788174,0.0005778640979763145,-0.00017492846616779843,-0.00019432308409188248,0.2411382496356964,-21.82431411743164,-2.35798716545105,22.54065704345703,0.6737161874771118,2.2551772594451904,-0.06037749722599983,,,,,,,,,
1739401817.8432975,0.5255070005468943,0.09605558237216137,-0.9531588398453499,-2.0689169172630097,0.1377040922913373,2.137588910993192,-1.2753541614574668,0.0013320909255292199,-0.0004302727178433446,0.00022389609580785222,8.256420870005976e-05,0.0007213336763589027,-6.110529276639803e-06,0.0015802229225954606,0.2173345386981964,-21.84811782836914,-2.38179087638855,22.63983917236328,0.6801248788833618,2.2615859508514404,-0.06037749722599983,,,,,,,,,
1739401817.8533998,0.5255103489792924,0.09605951882683697,-0.9531566792228583,-2.068915440493721,0.137704092361568,2.1375881140161423,-1.2753592771029607,0.0013898743900761005,-0.0007550379021937549,0.00018417424312112453,0.0005796256288349583,0.0018831517375497125,-0.00013683215699930367,-0.0019993988167317663,0.1697271168231964,-21.89969253540039,-2.4095618724823,22.61603546142578,0.6801248788833618,2.2679946422576904,-0.020094294100999832,,,,,,,,,
1739401817.8643632,0.5255048984758406,0.0960603737687496,-0.9531587589003085,-2.0689133604139696,0.13770352241888206,2.1375879962779067,-1.2753589108641277,-0.0007152084097481197,0.0002766366942256386,0.0009771789486284297,-6.580467196399214e-05,0.0023060502419877814,-0.00026388254073195856,0.0003552076017497007,0.2173345386981964,-21.87192153930664,-2.38179087638855,22.59223175048828,0.6608988046646118,2.2679946422576904,-0.020094294100999832,,,,,,,,,
1739401817.8753233,0.5255082963998488,0.09606638710318673,-0.953158758900308,-2.068916916948124,0.13770062651781328,2.1375872481175797,-1.2753538684139905,0.000807177773308929,0.0011517546387306192,-6.795838233731699e-05,-0.0004138940247790595,-0.00044553078747691416,-0.0001880329055170334,0.0005797522846704591,0.1697271168231964,-21.95126724243164,-2.38179087638855,22.63983917236328,0.6737161874771118,2.2753188610076904,-0.05396880581974983,,,,,,,,,
1739401817.8853624,0.525504285639115,0.09606589738292512,-0.9531588647251293,-2.0689164212741233,0.13770317981390529,2.1375881140154767,-1.2753529707317943,-0.0016690248836664472,0.00018417098687651605,-1.5554410592425708e-05,0.0003968193842344194,0.0006554435440012259,-0.00019139988619067025,0.0007846253755730559,0.2411382496356964,-21.92349624633789,-2.4095618724823,22.59223175048828,0.6608988046646118,2.2679946422576904,-0.04756011441349983,,,,,,,,,
1739401817.8963492,0.525505913653307,0.09605824588122625,-0.953158757914003,-2.0689151427916523,0.13770621610208703,2.1375888723215772,-1.275355076083702,0.0011961000837538622,-0.00031840419671693934,-0.00074846410290489,0.0013567704367015256,0.0010275300554560543,0.00040806398028223886,0.00034290670198309023,0.1935308277606964,-21.87192153930664,-2.38179087638855,22.61603546142578,0.6544901132583618,2.2615859508514404,-0.05396880581974983,,,,,,,,,
1739401817.9072785,0.5255083334167089,0.0960603766890274,-0.9531609415150131,-2.068913465110975,0.13770058492490406,2.137589629335637,-1.2753541614563588,0.0012296568177691074,0.0007515000044818384,-0.0010211138074147322,2.830586563445979e-05,-6.902826608816659e-05,0.0002016839323363788,0.0012247902948473465,0.1935308277606964,-21.87192153930664,-2.38179087638855,22.59223175048828,0.6737161874771118,2.2551772594451904,-0.06037749722599983,,,,,,,,,
1739401817.9182856,0.5255067524189229,0.09605495080255523,-0.9531605426259755,-2.0689095155824164,0.13769796706405438,2.1375888716755553,-1.2753611963860791,0.0008278767137514216,-0.0016740594067151987,-4.596696133555493e-05,0.0015420518644175246,-0.0009546757945171333,0.00022563780751331462,-0.0005545664033190014,0.2173345386981964,-21.79654312133789,-2.35798716545105,22.54065704345703,0.6608988046646118,2.2615859508514404,-0.0008682189509272575,,,,,,,,,
1739401817.9284,0.5255104269762304,0.09605187245187319,-0.9531605415773448,-2.068909591166837,0.1377048893705652,2.1375881140154767,-1.2753541614554647,0.002011338785305534,-0.0014836216220653394,-0.00025216628863955395,0.0003519898469378076,0.0004452528291082812,-0.000492794918304246,0.0013397879272978135,0.1697271168231964,-21.79654312133789,-2.35798716545105,22.54065704345703,0.6737161874771118,2.2679946422576904,-0.06037749722599983,,,,,,,,,
1739401817.939393,0.5255002484344341,0.09605418307234252,-0.9531584355465451,-2.0689060258129266,0.13770379736410798,2.1375888716755553,-1.2753596815504393,-0.0014406057081010268,0.00047904895527890035,0.0006270191192804648,0.002005066188443952,0.0007250274180719718,0.00015615423426479854,-0.0014311891603728077,0.2689092457294464,-21.77273941040039,-2.35798716545105,22.49304962158203,0.6737161874771118,2.2615859508514404,-0.013685601763427258,,,,,,,,,
1739401817.9504,0.5255062818200161,0.09605123013383574,-0.9531626482668347,-2.0689056401213732,0.1377013427466746,2.137590386995712,-1.2753617070667322,0.0002892644054234525,7.988870993466351e-05,-0.00016422217838748192,0.0009112478002029996,-0.0012336292131173202,7.664268527106396e-05,-0.0022420001427307526,0.1935308277606964,-21.74496841430664,-2.3302161693573,22.51685333251953,0.6673074960708618,2.2487685680389404,-0.0008682189509272575,,,,,,,,,
1739401817.9613073,0.5255046647801207,0.0960525236987003,-0.95315678703671,-2.0689067880854326,0.1377021008761645,2.1375881133694543,-1.2753611968196408,0.0006894025620690809,8.17273545160834e-05,0.0013379142239229344,0.0015590602524498164,1.95510030258661e-05,-0.0008638185912290468,-0.0009470940793776944,0.2173345386981964,-21.77273941040039,-2.4095618724823,22.51685333251953,0.6608988046646118,2.2679946422576904,-0.0008682189509272575,,,,,,,,,
1739401817.9722805,0.5255032208460305,0.09604902715778324,-0.9531584358802596,-2.06890942608806,0.1377012970670053,2.1375889240033605,-1.2753579402554482,0.00020626517199390378,-0.00043055848230968204,0.0009270384596008442,-9.101462673633296e-05,-0.0002546630625651578,0.0006445226105233277,0.000217044880262132,0.2689092457294464,-21.74496841430664,-2.35798716545105,22.56842803955078,0.6737161874771118,2.2615859508514404,-0.027418512850999832,,,,,,,,,
1739401817.982319,0.5255052226506584,0.09605347012495842,-0.953162621224525,-2.068911552445823,0.13770094033829655,2.1375899313145705,-1.2753549234742079,0.0013188949838190626,0.00034117303812046296,-0.0002479476135676729,-0.0009267328307354304,-0.0006850462762279064,2.4024935744265692e-06,3.61926877396777e-05,0.2411382496356964,-21.77273941040039,-2.3302161693573,22.54065704345703,0.6737161874771118,2.2615859508514404,-0.05396880581974983,,,,,,,,,
1739401817.9923713,0.525506275532184,0.09605183781285194,-0.9531587589003055,-2.0689101780318664,0.13770047119437107,2.1375888716935,-1.2753566604105055,0.00041305587351304543,-0.0008121556982782619,0.00040400692206612717,-0.0005597612710270137,-0.0007785563278034334,-0.00045626520808147444,-7.362300651718165e-06,0.2173345386981964,-21.79654312133789,-2.38179087638855,22.54065704345703,0.6737161874771118,2.2615859508514404,-0.04023589566349983,,,,,,,,,
1739401818.0033154,0.5255055796445038,0.09605863392914259,-0.9531587589003079,-2.068915059005267,0.13770098192943228,2.1375881140154767,-1.2753569640789812,0.00033790904574065384,0.0009264952145889515,0.0002690897240543014,-0.00020724724454372498,0.0014257228543757584,0.00014816549085912745,0.0003649844817056136,0.1935308277606964,-21.84811782836914,-2.38179087638855,22.61603546142578,0.6737161874771118,2.2679946422576904,-0.03382720425724983,,,,,,,,,
1739401818.0133522,0.5255047933519967,0.0960640491690654,-0.9531551392671713,-2.0689153641704285,0.13770316699468702,2.1375896293356336,-1.2753597338611646,-0.001055363043437959,0.00017741474434671028,0.00040176209147412207,0.00025703599193625413,0.00023430561195896454,9.918365634460936e-05,-0.000135397362193669,0.2173345386981964,-21.92349624633789,-2.4333655834198,22.61603546142578,0.6608988046646118,2.2551772594451904,-0.013685601763427258,,,,,,,,,
1739401818.0233781,0.5255086360895896,0.096064110599914,-0.953162852646567,-2.0689170058662705,0.1377049684288691,2.1375897470732035,-1.2753510623091144,0.0013142310556800907,0.0004348099416583643,-0.0009160501774439255,-0.00054871546742405,0.0010844944922277393,0.0009428493090025155,0.0008038929265830311,0.1935308277606964,-21.92349624633789,-2.3302161693573,22.63983917236328,0.6737161874771118,2.2551772594451904,-0.08692778646945953,,,,,,,,,
1739401818.034273,0.5255038814640737,0.09606408424688483,-0.9531566791143692,-2.0689169282872717,0.1376985591830823,2.1375888716775493,-1.2753565441270849,-9.709697592372224e-05,0.0005043639673866536,-6.597799447377475e-05,-0.0005923618263979962,-0.0017956005795988013,-0.0002717508601662583,-0.0004817363743879186,0.2173345386981964,-21.92349624633789,-2.4095618724823,22.63983917236328,0.6938577890396118,2.2615859508514404,-0.04023589566349983,,,,,,,,,
1739401818.0443463,0.5255039627659771,0.09606621370890481,-0.95315488776664,-2.0689172009153998,0.13769984041158967,2.1375888716755553,-1.2753549583614159,0.0009309484288086535,0.0012373825495856185,0.0004024355527593581,0.0004320046629017492,0.0004935743448363649,-0.00029803057482025397,0.0010190158492526928,0.2173345386981964,-21.92349624633789,-2.4333655834198,22.61603546142578,0.6801248788833618,2.2615859508514404,-0.05396880581974983,,,,,,,,,
1739401818.0544078,0.525504247960626,0.09605863888144435,-0.9531566791103055,-2.068911649260667,0.1376997091405916,2.1375895268663156,-1.275359681551104,-0.0008836603930962174,-0.0010139576688459795,-4.8826400809426254e-05,0.0016779572635774087,-0.0014752860617756457,0.0008593326028110697,-0.0015540973148184044,0.2411382496356964,-21.84811782836914,-2.4095618724823,22.56842803955078,0.6801248788833618,2.2679946422576904,-0.013685601763427258,,,,,,,,,
1739401818.0653343,0.5255042566374736,0.0960572666074503,-0.9531566791104523,-2.068916132163433,0.13770089789397422,2.1375888716835307,-1.2753569985163948,-0.000790665383141862,0.0002208785479364205,0.0002005938248502589,-0.0004838393352764006,0.0006287703520707528,-0.0004961267801160782,0.000911466527212859,0.2411382496356964,-21.82431411743164,-2.4095618724823,22.59223175048828,0.6801248788833618,2.2615859508514404,-0.027418512850999832,,,,,,,,,
1739401818.0753767,0.5255039328783115,0.09606037801327094,-0.9531588386137142,-2.0689115731524512,0.13770069760140075,2.1375888716755553,-1.2753549321436763,-0.0006484147970007883,0.0005573711767379106,0.0006831438758360753,0.0006911788414805216,-0.001114207937596624,-0.0003161048683921985,0.0017471627162921161,0.2173345386981964,-21.87192153930664,-2.4095618724823,22.56842803955078,0.6737161874771118,2.2615859508514404,-0.05396880581974983,,,,,,,,,
1739401818.0863361,0.5255059724990505,0.09605334326448213,-0.9531607844032399,-2.0689135840167285,0.13770285788639391,2.137590584069894,-1.2753582149764697,0.0006723202753491525,0.00036252359987695053,-0.0008064577768643786,-2.6006816095665297e-05,-0.0005010089601427464,7.422169440916436e-05,-0.001456961383422105,0.2173345386981964,-21.77273941040039,-2.35798716545105,22.59223175048828,0.6544901132583618,2.2753188610076904,-0.027418512850999832,,,,,,,,,
1739401818.0972974,0.5255079070156308,0.09605323828240028,-0.9531605415786979,-2.0689094891284734,0.13770070337937657,2.1375889940079484,-1.2753566560506673,0.0008819260166551606,5.59407780070199e-05,1.5649816374941185e-05,0.0009441175745872077,-0.0008412356568433315,0.0006887326802947137,-3.968573947615969e-05,0.1935308277606964,-21.77273941040039,-2.35798716545105,22.54065704345703,0.6737161874771118,2.2615859508514404,-0.04023589566349983,,,,,,,,,
1739401818.107355,0.5255009270341148,0.09605107233977257,-0.9531604244938547,-2.0689077064501427,0.13769982724787483,2.1375899869110655,-1.2753573003348602,-0.00112838799399603,-0.0002469190468088566,-5.7990521383107754e-05,0.00047683885804516697,-0.0009420861014945693,0.0005123047290301916,-0.0014168350293362803,0.2689092457294464,-21.77273941040039,-2.35798716545105,22.51685333251953,0.6801248788833618,2.2551772594451904,-0.03382720425724983,,,,,,,,,
1739401818.118266,0.5255039327841341,0.09605291855567706,-0.9531587592314303,-2.0689092604837076,0.13770170382167218,2.1375903884553176,-1.2753534096100358,0.0002695142179774912,-0.0003426247350948239,0.000990682518512581,0.000853370279907695,-0.0002371481893565,0.00048724673408477625,0.001384660192455935,0.2173345386981964,-21.77273941040039,-2.38179087638855,22.54065704345703,0.6737161874771118,2.2487685680389404,-0.06678618490695953,,,,,,,,,
1739401818.1283822,0.5255056463620211,0.09605487187976915,-0.9531587746592171,-2.0689088129117823,0.13770245711534396,2.137589629497147,-1.2753556767756624,1.3563176893682989e-05,0.0010161231797207702,0.00039063236222952006,0.000518942925887751,0.000685284877630594,-5.098335933740366e-05,0.0008249661903689628,0.1935308277606964,-21.79654312133789,-2.38179087638855,22.56842803955078,0.6608988046646118,2.2551772594451904,-0.04756011441349983,,,,,,,,,
1739401818.1384125,0.5255038814134424,0.09605407023562208,-0.9531549084254898,-2.0689116198899575,0.1377007033854205,2.1375896293356362,-1.2753587669068243,-0.000788317003555636,-0.0008579483686292326,0.0010602904315728631,0.0004155038061195366,0.00019197940989240176,0.00014092725446447673,-1.7573331685231855e-05,0.2173345386981964,-21.82431411743164,-2.4333655834198,22.56842803955078,0.6737161874771118,2.2551772594451904,-0.020094294100999832,,,,,,,,,
1739401818.1493113,0.5255069006662565,0.09605281992023887,-0.9531597082322107,-2.0689115689173048,0.13770212506120225,2.137585705843119,-1.275354919114665,0.0008202532559443971,-0.00019591950247395954,-0.0006405002305913217,-0.0008310273328139277,0.00015412402485885592,-0.0008768486337505598,0.0005608639162328158,0.2173345386981964,-21.79654312133789,-2.38179087638855,22.56842803955078,0.6737161874771118,2.2615859508514404,-0.05396880581974983,,,,,,,,,
1739401818.1593366,0.5255038545003288,0.09606237158136147,-0.9531595275785831,-2.0689151304918245,0.13769819372230058,2.1375882316994326,-1.2753612099525482,-0.0005617566340930511,0.0010655702295406437,-0.00017501592648858089,-0.0017249248067209822,-0.0016199018136329934,-0.00016261627049743833,-0.0002884585865759622,0.2173345386981964,-21.89969253540039,-2.35798716545105,22.61603546142578,0.6673074960708618,2.2679946422576904,-0.0008682189509272575,,,,,,,,,
1739401818.1693597,0.5255030779416914,0.09605763529157771,-0.953158435529373,-2.068920765919381,0.13770374426672388,2.137588877491749,-1.275351179562094,6.830444267301125e-05,-0.0018954479267335618,-0.00014071781168573723,-0.0011077959592100718,-0.0005592966261210607,0.0005483187530978985,0.0019953224937527903,0.2411382496356964,-21.84811782836914,-2.35798716545105,22.66364288330078,0.6737161874771118,2.2615859508514404,-0.08692778646945953,,,,,,,,,
1739401818.180354,0.5255038631208179,0.09606036501006655,-0.9531566790985637,-2.0689144808957334,0.13769988186874074,2.1375881140155095,-1.2753556767765155,2.5254569482303015e-05,4.071717228495186e-05,-0.00046163313418983874,8.156559610751054e-05,0.0004513299979433924,-0.00033861214418283263,0.0010695913385188134,0.2173345386981964,-21.87192153930664,-2.4095618724823,22.61603546142578,0.6801248788833618,2.2679946422576904,-0.04756011441349983,,,,,,,,,
1739401818.1912744,0.5255062699427587,0.09606598570784448,-0.9531559771001917,-2.068915143225543,0.13770013736377273,2.1375882840808553,-1.275362821881457,0.0004593001057407847,0.0011089212625588084,0.0015916029599115818,0.00029023670038162897,0.0012913797806181453,0.0005848410140490534,-0.003540842009817321,0.1935308277606964,-21.95126724243164,-2.4095618724823,22.61603546142578,0.6865335702896118,2.2679946422576904,0.012864691205322742,,,,,,,,,
1739401818.2013865,0.5255021419399145,0.09606520625606946,-0.953156448093091,-2.0689169169482255,0.13770134258410807,2.1375888716784353,-1.2753612369074312,-0.0020571331323614357,0.000719759892516448,0.00027525678671505896,0.00027676244844846776,-0.00028329467118212075,0.0006286515862237898,-0.00018781486105105664,0.2411382496356964,-21.89969253540039,-2.4095618724823,22.63983917236328,0.6673074960708618,2.2615859508514404,-0.027418512850999832,,,,,,,,,
1739401818.2123451,0.5255041664533012,0.09606061047988468,-0.9531606322554221,-2.0689135811822976,0.13770070337937668,2.137588518947362,-1.275356542690807,-0.00012194479262422615,0.0005436090382604979,0.00023635247294589594,0.00022625063414442612,-0.0009644517459960443,-0.00019794000927609182,0.0004754016754674304,0.2173345386981964,-21.87192153930664,-2.38179087638855,22.59223175048828,0.6737161874771118,2.2615859508514404,-0.04023589566349983,,,,,,,,,
1739401818.222417,0.5255042916069216,0.09606017169541275,-0.9531620242504917,-2.068914040362708,0.13770075603624057,2.1375872481122706,-1.275362822365974,-0.000507009284559915,0.0009087626859335463,-0.0007297561999458902,6.242025789080591e-05,0.0005228304352384282,-0.00046798387588541275,-0.003570944549391846,0.2411382496356964,-21.87192153930664,-2.35798716545105,22.59223175048828,0.6737161874771118,2.2753188610076904,0.012864691205322742,,,,,,,,,
1739401818.2332873,0.5255058013416855,0.09605866126298229,-0.9531585249422692,-2.068911568920905,0.13770094048971707,2.1375872481182445,-1.2753549207306178,0.00027972378406961723,-0.0004939774210155174,0.00039662450694884,0.0007093312263618558,0.0012640688436613493,0.00024447238568318865,0.00018778375976170872,0.1935308277606964,-21.84811782836914,-2.38179087638855,22.56842803955078,0.6737161874771118,2.2753188610076904,-0.05396880581974983,,,,,,,,,
1739401818.2443378,0.5255059644754173,0.09605487220559457,-0.9531626490785081,-2.068911568917017,0.1377007165992699,2.1375888716755553,-1.275354925414278,0.0004556010966764779,-0.0009164541651674854,-8.058093605894218e-05,0.0006881058938512812,-0.0005870040466989725,-2.0960336982025688e-05,0.00045957667598865335,0.2173345386981964,-21.79654312133789,-2.35798716545105,22.56842803955078,0.6737161874771118,2.2615859508514404,-0.05396880581974983,,,,,,,,,
1739401818.2562773,0.5255041924655922,0.09605495069383595,-0.9531605685707504,-2.0689101779269383,0.13770210022684692,2.1375889109214117,-1.2753541614555084,7.639999455461412e-06,-0.0009220222251075149,-3.2611861652355684e-05,-0.0003874724599464061,0.0005320509087908965,-4.7033910938406096e-05,0.0007140107662387245,0.2173345386981964,-21.79654312133789,-2.35798716545105,22.54065704345703,0.6608988046646118,2.2615859508514404,-0.06037749722599983,,,,,,,,,
1739401818.2663302,0.5255038573395799,0.09605113511300087,-0.9531592543975699,-2.0689094891310496,0.13770180950902927,2.1375884672284076,-1.275355273781811,-7.479962928088967e-05,-0.0016782783906201118,0.00036230377173486386,0.0001525933281109731,-0.0007482569895120871,0.0004484413249634366,0.0004157828173247442,0.2173345386981964,-21.74496841430664,-2.38179087638855,22.54065704345703,0.6544901132583618,2.2679946422576904,-0.05396880581974983,,,,,,,,,
1739401818.2763708,0.52550821646691,0.09605281073267315,-0.9531587506860463,-2.068911568917017,0.13770014899261784,2.137589629341615,-1.2753596815564456,0.00012170575099629483,9.851504643695278e-05,0.0008418261955944385,-0.0009600611611470431,-0.0012326181957219543,-9.970306676884241e-05,-0.0008034152714433201,0.1697271168231964,-21.79654312133789,-2.38179087638855,22.56842803955078,0.6865335702896118,2.2551772594451904,-0.013685601763427258,,,,,,,,,
1739401818.287348,0.525500224882517,0.09605075664383243,-0.9531606222008677,-2.0689115687770454,0.1377005849120401,2.1375896307891837,-1.2753526541826223,-0.001500460305713392,-0.0005597934413450194,-0.0006354336137758238,-0.0014614289622535454,0.0004950025350618089,0.000244956579261829,0.0015366902930952129,0.2689092457294464,-21.77273941040039,-2.35798716545105,22.56842803955078,0.6737161874771118,2.2551772594451904,-0.07411040365695953,,,,,,,,,
1739401818.297351,0.5255038557340802,0.09605694729399541,-0.953158023223555,-2.068909489127159,0.13770338144876074,2.13758816634331,-1.2753612369093759,-0.0004134446168205867,0.0013010316116391276,0.0012916761144760697,0.0007937957567956259,0.00033359605440035816,0.0003949589791240063,-0.0003617840961389797,0.2173345386981964,-21.82431411743164,-2.38179087638855,22.54065704345703,0.6801248788833618,2.2679946422576904,-0.027418512850999832,,,,,,,,,
1739401818.307351,0.5255055669694938,0.09605388585665539,-0.9531567150733623,-2.0689138647996304,0.13770257580516312,2.1375888716764413,-1.2753593797877292,0.0012147584838304417,-0.0009199414659824825,-0.00010096737581616582,0.00044445116961313116,0.0021181052282272534,-0.000307601100355648,-0.0001691186656460024,0.1935308277606964,-21.79654312133789,-2.4095618724823,22.56842803955078,0.6608988046646118,2.2615859508514404,-0.0072769103571772575,,,,,,,,,
1739401818.318345,0.5255029219394103,0.09605495078450389,-0.9531566791110614,-2.068911645905233,0.1377033346373147,2.1375888716755553,-1.2753517845812334,-0.00022428600846352196,-0.00022842343511580255,0.0013507043604791549,0.0007355727863334202,0.00021489975463845313,0.0003358247679561872,0.0010791646385894854,0.2411382496356964,-21.79654312133789,-2.4095618724823,22.56842803955078,0.6865335702896118,2.2615859508514404,-0.08051909506320953,,,,,,,,,
1739401818.3293595,0.5255031646110916,0.09605694870730548,-0.953153636958992,-2.0689133556883474,0.1376998331224909,2.137590426241568,-1.2753549249297602,0.0007243972376849952,-0.000694318727018875,0.0013079795433771052,0.00014235017788017217,-0.0003549582073074917,0.0004824180930684727,0.0007356452456567423,0.2411382496356964,-21.82431411743164,-2.4095618724823,22.59223175048828,0.6801248788833618,2.2487685680389404,-0.05396880581974983,,,,,,,,,
1739401818.341278,0.5255021448583795,0.09606339519844649,-0.9531587587761374,-2.0689151343060708,0.13770134256605834,2.137588114015698,-1.275353434320423,-0.0012798606759818457,0.0012467573714317684,0.0003612933803022163,0.0007290542329924735,-0.0006967919678510365,-0.00022244393833221614,0.0019427336888029436,0.2411382496356964,-21.89969253540039,-2.38179087638855,22.61603546142578,0.6673074960708618,2.2679946422576904,-0.06678618490695953,,,,,,,,,
1739401818.3513868,0.5255038548767471,0.09606227525208731,-0.9531594791788682,-2.068916916948074,0.13769821690644382,2.1375888716755553,-1.2753638800662084,-0.0003970039532532274,0.0004213835201234396,-0.0006509185097363566,2.688997368033538e-06,-0.0008324175508354836,0.001091842470798228,-0.00194968230660616,0.2173345386981964,-21.89969253540039,-2.38179087638855,22.63983917236328,0.6938577890396118,2.2615859508514404,0.012864691205322742,,,,,,,,,
1739401818.3633204,0.5255061944829454,0.09606308147423262,-0.9531587978776899,-2.0689192139154664,0.13770134278278645,2.1375907413015716,-1.2753517846051565,0.0003386697081443628,0.0010097062036327237,-0.00016820366832738108,-0.0006510819434931352,-0.0005008291592910569,0.0008974764500970418,0.001352943876717598,0.2173345386981964,-21.89969253540039,-2.38179087638855,22.63983917236328,0.6673074960708618,2.2551772594451904,-0.08051909506320953,,,,,,,,,
1739401818.373344,0.5255038544976162,0.09606408425044509,-0.9531566542206432,-2.0689163233770214,0.13770060245756727,2.1375914983592934,-1.2753565431574032,-0.0007662586374855074,0.0015398251236669238,0.0009257748195166196,-0.0004660517295741296,-0.0008605432901673937,0.0008652624517758671,-0.0011856905272577124,0.2173345386981964,-21.92349624633789,-2.4095618724823,22.59223175048828,0.6737161874771118,2.2423598766326904,-0.04023589566349983,,,,,,,,,
1739401818.3833735,0.5255042855148986,0.09605869625834547,-0.9531587592321487,-2.0689174312494583,0.13769924510287407,2.137590383137548,-1.2753565827102475,-0.0004113411741575921,-5.048273546263557e-05,-0.0004944173279310769,-0.00017749564678722136,-0.00015221990966615326,0.00021553784254405337,-1.0451423703738841e-05,0.2411382496356964,-21.84811782836914,-2.38179087638855,22.61603546142578,0.6865335702896118,2.2487685680389404,-0.06678618490695953,,,,,,,,,
1739401818.3943057,0.5255077596841097,0.09605697898537816,-0.9531605686698892,-2.0689116541056642,0.13770070337970683,2.137589629335626,-1.2753525379225292,0.0007680403656569552,-0.0007673756997636901,-0.0007867619050157125,0.00014615560683327604,-0.0003848552216027096,0.0006905220192207247,0.002951603495492108,0.1935308277606964,-21.82431411743164,-2.35798716545105,22.56842803955078,0.6737161874771118,2.2551772594451904,-0.07411040365695953,,,,,,,,,
1739401818.4043393,0.5255030866456176,0.096054950803051,-0.9531557430972303,-2.068909463723776,0.13770063707677999,2.1375888716755553,-1.2753596815504398,-0.0010433378581885147,-0.0001972354348636099,0.0011147909237569158,0.0006667622950144783,0.00040472421885335934,-0.00044836185010881455,0.00038306527472219717,0.2411382496356964,-21.79654312133789,-2.4095618724823,22.54065704345703,0.6737161874771118,2.2615859508514404,-0.013685601763427258,,,,,,,,,
1739401818.41532,0.5255056058148788,0.09605495080253885,-0.953162751061283,-2.0689115434070664,0.137702100226398,2.13759205252801,-1.2753534126786419,-0.0004363533467992916,0.00015163670479413033,-0.000725777654033828,0.00018614799995748542,0.00014764638578945147,0.0010893965340007302,0.0010636624577187227,0.1935308277606964,-21.79654312133789,-2.35798716545105,22.56842803955078,0.6608988046646118,2.2615859508514404,-0.06678618490695953,,,,,,,,,
1739401818.4253743,0.5255041677379283,0.09605279362949985,-0.9531609444413676,-2.068911568916585,0.13770274860019677,2.1375888717294234,-1.2753611968707463,-0.00043071050388671263,-0.0002567901744329974,-0.00011542746857655118,0.0001758515312771099,-2.9120970400434262e-05,-0.0003058713244842771,-0.0019327610731365856,0.2173345386981964,-21.79654312133789,-2.38179087638855,22.56842803955078,0.6865335702896118,2.2615859508514404,-0.0008682189509272575,,,,,,,,,
1739401818.436368,0.5255058096414541,0.09605424050167798,-0.9531586783926205,-2.068911568917017,0.13770058492671497,2.137588127097429,-1.275358923890251,-0.00014096249930497119,0.001346016762086203,-0.00035874051998520894,-2.753229933306217e-05,-0.00041880867523691364,-6.21474244858322e-05,-0.0006814802976367869,0.1935308277606964,-21.79654312133789,-2.35798716545105,22.56842803955078,0.6737161874771118,2.2679946422576904,-0.020094294100999832,,,,,,,,,
1739401818.448339,0.5255076730016239,0.09605252715879066,-0.9531566790999347,-2.0689115554215136,0.1377009466491389,2.1375881677969093,-1.275357600857441,0.00017789946276137352,-0.0012814150459849408,0.0012344492018710172,0.0009545061171780477,0.001722050054177163,0.0007824706952472818,0.0011802932596838933,0.1935308277606964,-21.77273941040039,-2.4095618724823,22.54065704345703,0.6801248788833618,2.2679946422576904,-0.04023589566349983,,,,,,,,,
1739401818.4584155,0.5255038814596523,0.09605408127765502,-0.9531626213671825,-2.06890614207035,0.13769984675398667,2.13758811401578,-1.2753535031277419,0.00019164642420392526,-0.0003824556692278865,-0.0006455251199880273,0.0013513142395586847,-0.0010051284286743606,-0.000424066150549588,0.0004308131455255434,0.2173345386981964,-21.82431411743164,-2.3302161693573,22.49304962158203,0.6801248788833618,2.2679946422576904,-0.06678618490695953,,,,,,,,,
1739401818.4693007,0.5255039324856992,0.09605487157661173,-0.953158733010963,-2.0689133393477617,0.13770382366734812,2.1375888716755553,-1.2753556767761902,-0.00013913535430885518,-0.0001799117562256259,0.0004943487581004057,-0.0010726096742067475,0.00047677764139901556,-0.00079401566925671,0.0014394505657601198,0.2173345386981964,-21.79654312133789,-2.38179087638855,22.59223175048828,0.6737161874771118,2.2615859508514404,-0.04756011441349983,,,,,,,,,
1739401818.4793098,0.5255038583019706,0.09605494203220105,-0.953160623262068,-2.0689186996248856,0.13770063030247853,2.1375864909426823,-1.27535644970396,-2.0043934099844374e-05,-0.0012235067040297252,-0.0002914300268779577,-0.0022722603914452247,-0.001954322555021734,-0.0002730081730198475,-0.0001019826650359214,0.2173345386981964,-21.79654312133789,-2.3302161693573,22.66364288330078,0.6737161874771118,2.2817275524139404,-0.05396880581974983,,,,,,,,,
1739401818.4902925,0.5255021419280749,0.09605858234300972,-0.9531596056408431,-2.0689151343760335,0.13770221870030203,2.137588871837069,-1.2753596822223823,-0.0013284698099706401,-0.00017333868213073524,0.00039927025207290505,-0.00013574719172211773,0.0008682365661738802,-0.0009151875044891973,0.00019891442497411814,0.2411382496356964,-21.84811782836914,-2.35798716545105,22.61603546142578,0.6608988046646118,2.2615859508514404,-0.013685601763427258,,,,,,,,,
1739401818.500373,0.525507673000254,0.09606068873240833,-0.953157407606383,-2.0689158231408182,0.13770138666242865,2.1375872481182454,-1.2753573048551001,0.0007173255420807708,0.0002290061290693193,0.0009169086603242891,-0.0004852913800913008,0.00013188388122520832,0.0008847823137942521,-0.00020303897215413552,0.1935308277606964,-21.87192153930664,-2.4095618724823,22.61603546142578,0.6673074960708618,2.2753188610076904,-0.03382720425724983,,,,,,,,,
1739401818.5113242,0.5255038577775503,0.09605866130190327,-0.9531559417685945,-2.0689115698657132,0.13769906964021073,2.1375896293356336,-1.2753559787537059,-7.506378016003531e-05,-0.0013781392036513762,0.0007908529398106441,0.0008915581558316865,-0.00044211250668490463,0.00019574922501574486,-0.0011575199196627362,0.2173345386981964,-21.84811782836914,-2.38179087638855,22.56842803955078,0.6865335702896118,2.2551772594451904,-0.05396880581974983,,,,,,,,,
1739401818.521335,0.525508379290469,0.09605967224472689,-0.9531571765584851,-2.0689133544284752,0.13770378368855068,2.1375888716755553,-1.2753575085689706,0.0004845080080298339,-0.0011954025548263822,0.0007885450847467605,0.00030432001961018453,0.00022118293030845088,0.000361742750285386,-0.0006214083427251568,0.1935308277606964,-21.87192153930664,-2.4095618724823,22.59223175048828,0.6737161874771118,2.2615859508514404,-0.027418512850999832,,,,,,,,,
1739401818.531338,0.525505567980076,0.09606319407804777,-0.9531545644213014,-2.068911799450134,0.1377027774650681,2.1375896293356336,-1.2753556811269757,-0.0006887402743841517,0.001662931781642417,0.00126381541925459,0.00016793994876937717,0.0013293785304320641,-0.00025800585387504734,-8.796418124769291e-05,0.1935308277606964,-21.89969253540039,-2.4095618724823,22.56842803955078,0.6673074960708618,2.2551772594451904,-0.04756011441349983,,,,,,,,,
1739401818.5422645,0.5255055756362824,0.09606037617266061,-0.9531609443681374,-2.068912257685705,0.13770149517974978,2.1375899313136846,-1.2753587644185118,-9.423293400671396e-05,0.0008925525942336127,-0.0010265242481078659,0.001840992510412238,-0.001436087138112153,0.0009911834635914756,-0.00035247065130935374,0.1935308277606964,-21.87192153930664,-2.38179087638855,22.56842803955078,0.6737161874771118,2.2615859508514404,-0.027418512850999832,,,,,,,,,
1739401818.5522869,0.5255055756364121,0.09605694971549407,-0.9531585249338989,-2.068911569873489,0.1377033814641762,2.1375881140334214,-1.27535781054104,8.661405233827341e-05,0.00012806951288600024,-0.0005851637450688605,0.0008247027144389111,-0.0002700125042987066,-0.0006041601841362829,-0.00016518817602136668,0.1935308277606964,-21.82431411743164,-2.38179087638855,22.56842803955078,0.6801248788833618,2.2679946422576904,-0.03382720425724983,,,,,,,,,
1739401818.5623038,0.5255067404909725,0.09605629363518334,-0.9531585239325899,-2.0689115689170223,0.1376998799207898,2.1375888716755553,-1.2753580599339656,0.0004929031308719699,0.0008300941681558818,-0.000290000601710016,0.0003526789902065681,-0.0009226388659301367,-0.0007668967636443491,0.00029650088483816487,0.2173345386981964,-21.84811782836914,-2.38179087638855,22.56842803955078,0.6801248788833618,2.2615859508514404,-0.027418512850999832,,,,,,,,,
1739401818.5723407,0.5255038549256059,0.09605100083072673,-0.9531587242291554,-2.06891157175144,0.13770378515207676,2.1375896293356336,-1.2753597215872827,-0.0007262516525471609,-0.00254002533239455,0.0013361907926711775,-0.000867726408934651,-0.000548771514107339,-0.00018457502446633293,-0.0009204814973004519,0.2173345386981964,-21.74496841430664,-2.38179087638855,22.56842803955078,0.6737161874771118,2.2551772594451904,-0.04023589566349983,,,,,,,,,
1739401818.583338,0.5255038554117258,0.09605406073486013,-0.9531587585787284,-2.0689094900720173,0.13770063777751593,2.1375928082500213,-1.2753565428882025,-0.000496056731687472,0.0006902057046963633,0.0007734089533699541,-0.00013397944248780692,0.001111823606282273,0.000838804115360144,0.00010826254410406313,0.2173345386981964,-21.82431411743164,-2.38179087638855,22.54065704345703,0.6737161874771118,2.2551772594451904,-0.04023589566349983,,,,,,,,,
1739401818.5933394,0.5255079419918564,0.0960561584022427,-0.9531594845125854,-2.06891124835904,0.13770094032713143,2.137587248333585,-1.2753553246560734,0.0014497300324982413,0.0004800201144984467,0.0004711223157708157,-1.0313209348182721e-05,0.0009204045520809154,-0.0009066601080526437,0.0007579514048757684,0.1935308277606964,-21.82431411743164,-2.38179087638855,22.54065704345703,0.6737161874771118,2.2753188610076904,-0.05396880581974983,,,,,,,,,
1739401818.6033406,0.5255066888602288,0.09605300021534109,-0.9531605155810432,-2.0689115944717473,0.13770425025591843,2.1375888716755562,-1.2753580579953079,0.0014020865708769543,-0.0005495789663767271,-0.00018797108268742512,-0.0005470669636546407,6.542784930376697e-06,0.0006220947537432656,-0.00043086548024392286,0.2173345386981964,-21.77273941040039,-2.35798716545105,22.56842803955078,0.6801248788833618,2.2615859508514404,-0.027418512850999832,,,,,,,,,
1739401818.6133485,0.525505567017473,0.09605313272504522,-0.9531587588998677,-2.0689115689174495,0.1377007039418256,2.1375888891181583,-1.2753556772601462,4.091779961127413e-05,-0.000671170585294884,-1.4712960889095618e-06,0.0007170036881863973,-0.0012559393189171175,0.00038550234608713077,0.0006116351975770154,0.1935308277606964,-21.77273941040039,-2.38179087638855,22.56842803955078,0.6737161874771118,2.2615859508514404,-0.04756011441349983,,,,,,,,,
1739401818.624271,0.5255038547697334,0.09605495036890613,-0.9531627023117619,-2.0689154178883884,0.13770221870020521,2.1375849352626926,-1.2753557943516967,0.0001661205464778394,-0.0005726998234335428,-0.0009569370075418597,-0.00197628893297874,0.001329015862198356,-9.546494493712614e-05,-0.00013677672223152493,0.2173345386981964,-21.79654312133789,-2.3302161693573,22.59223175048828,0.6608988046646118,2.2679946422576904,-0.04756011441349983,,,,,,,,,
1739401818.6342993,0.5255076730002595,0.09605494203353541,-0.9531605454689636,-2.068909489162154,0.13770390216398587,2.1375913059579843,-1.2753579689306556,0.001441420219392506,-0.001343619033075188,0.0001474252869784863,0.0018879184197371352,-6.669096497178312e-05,0.00038190629442562516,-0.0015999932900312088,0.1935308277606964,-21.79654312133789,-2.35798716545105,22.54065704345703,0.6737161874771118,2.2679946422576904,-0.04023589566349983,,,,,,,,,
1739401818.6443088,0.5255038544844066,0.09605960610797326,-0.9531587589003738,-2.068912487270063,0.13770609521065216,2.1375888717296108,-1.2753549583855615,-0.0008896241092033456,0.0007692801431291896,0.0010449491880126826,0.0010452015621465359,0.001191923571680717,0.0009928200110527823,0.0019374380070526194,0.2173345386981964,-21.84811782836914,-2.38179087638855,22.56842803955078,0.6673074960708618,2.2615859508514404,-0.05396880581974983,,,,,,,,,
1739401818.6543438,0.5255021419280101,0.0960594267492772,-0.9531578228866271,-2.0689142700676126,0.13770454159162956,2.13759042751715,-1.2753556769378,-0.0008069197665381113,-0.0010290405392762475,0.0004118352610232139,0.0013652892218124933,-0.0005828383285792223,-3.476941396556607e-06,0.00017612852725728555,0.2411382496356964,-21.87192153930664,-2.38179087638855,22.59223175048828,0.6673074960708618,2.2753188610076904,-0.04756011441349983,,,,,,,,,
1739401818.6652768,0.5255076733212464,0.09606449760866621,-0.9531566789876035,-2.0689115692475073,0.13770525807874007,2.1375888717293985,-1.2753565486485712,0.00024230395816781395,0.0017121618730169845,0.0003707460638417862,0.001073444690184539,0.0023980276438390832,-0.00014573981460908804,0.0008407950900048552,0.1935308277606964,-21.89969253540039,-2.4095618724823,22.56842803955078,0.6737161874771118,2.2615859508514404,-0.04023589566349983,,,,,,,,,
1739401818.6753013,0.5255038557802664,0.09606037379685496,-0.9531605415773263,-2.0689115718564204,0.13770533703323098,2.1375896293356336,-1.2753541746989643,0.00013244870715532105,0.000847046709945374,-0.0008456933324999156,0.0002566473886506381,0.0009818687377273778,-0.0003577560461083162,0.0003770823599106522,0.2173345386981964,-21.87192153930664,-2.35798716545105,22.56842803955078,0.6737161874771118,2.2551772594451904,-0.06037749722599983,,,,,,,,,
1739401818.6862628,0.5255038544844141,0.09605988923011621,-0.9531587589373196,-2.068913224464933,0.1377024600611234,2.1375881140154767,-1.2753636137643296,-0.0005042469771571584,-3.3992735355976357e-05,-0.0009333689693794882,-6.247385405243485e-05,0.0003759691213758912,0.0003603605163258859,-0.000288947888395516,0.2173345386981964,-21.82431411743164,-2.38179087638855,22.59223175048828,0.6608988046646118,2.2679946422576904,-0.0072769103571772575,,,,,,,,,
1739401818.6963153,0.5255072804531807,0.09605866466213311,-0.9531587502335153,-2.068915125765633,0.13770094033232988,2.1375872466646944,-1.275357340423622,-0.0001239242420305643,0.0007303620929113766,-0.0004778612667372015,-0.000253513871179606,-0.0006764620161112176,-0.0005325482860326815,0.00129505860618983,0.1697271168231964,-21.84811782836914,-2.38179087638855,22.61603546142578,0.6737161874771118,2.2753188610076904,-0.06037749722599983,,,,,,,,,
1739401818.7082596,0.5255055683961101,0.09605698359328765,-0.9531605417253249,-2.0689097946149233,0.1377045433008144,2.137589629335625,-1.275354161473418,0.0011130882635649565,0.0005957583341897277,-0.0005041026301315075,-0.0009075807173914489,-0.0005293849051578737,-0.00016630702969163633,0.001310459970481485,0.1935308277606964,-21.82431411743164,-2.35798716545105,22.54065704345703,0.6673074960708618,2.2551772594451904,-0.06037749722599983,,,,,,,,,
1739401818.7183664,0.5255055673974699,0.09605858234335499,-0.9531590137258363,-2.0689116709579687,0.137701344588445,2.1375896467782365,-1.2753580579930186,0.0003761400366842445,-0.0005948954655976967,-0.0007108960247738981,-0.0007028255220988869,-0.001782408754620217,0.0017651596366877157,0.0011588776590557453,0.1935308277606964,-21.84811782836914,-2.38179087638855,22.56842803955078,0.6673074960708618,2.2551772594451904,-0.027418512850999832,,,,,,,,,
1739401818.7293682,0.5255021507018027,0.09605694841816877,-0.9531566881057331,-2.068913377104419,0.1377020202383745,2.1375881140155752,-1.2753565027975566,-0.0002891299148202947,0.0005564397124774702,0.002320326094208051,0.0004932304118950956,-0.00030348487060588076,-0.00042507282581320165,-0.0006351573279845255,0.2411382496356964,-21.82431411743164,-2.4095618724823,22.59223175048828,0.6737161874771118,2.2679946422576904,-0.013685601763427258,,,,,,,,,
1739401818.7402666,0.5255021419280591,0.09605323828180581,-0.9531609444040006,-2.0689059322765364,0.1376982037508319,2.1375896312737,-1.275359681532495,-0.0002635152659142383,-0.0004866729795250737,0.001102060463893327,0.0006712486415215547,-0.002729301332509516,5.0478631885891715e-05,0.000158277170598121,0.2411382496356964,-21.77273941040039,-2.38179087638855,22.49304962158203,0.6938577890396118,2.2551772594451904,-0.013685601763427258,,,,,,,,,
1739401818.7502987,0.525505566969472,0.09605115265099366,-0.9531605420214675,-2.0689077064505743,0.1377027642471852,2.137589629335732,-1.2753628604648264,-0.00036057819258175736,-0.0005209525546767967,0.0010467036339900922,0.0007221008398948816,-0.0006267356979275612,-0.0001622568476628587,-0.000908477906535645,0.1935308277606964,-21.74496841430664,-2.35798716545105,22.51685333251953,0.6673074960708618,2.2551772594451904,-0.013685601763427258,,,,,,,,,
1739401818.760432,0.5255038544844066,0.09605495076595742,-0.9531590931159261,-2.0689115660825936,0.1377050196382773,2.1375896293356336,-1.275362820499687,-0.000733399815384524,0.0001474537923615318,5.054191146589465e-05,-0.0007445937138918755,0.001605373086697951,-7.650164318579857e-05,-0.001623509743001321,0.2173345386981964,-21.79654312133789,-2.38179087638855,22.56842803955078,0.6673074960708618,2.2551772594451904,0.012864691205322742,,,,,,,,,
1739401818.771314,0.5255075163825547,0.09605210575047275,-0.9531605415792137,-2.0689141424330244,0.1377021140606351,2.137590386995712,-1.275365082210404,0.0014662248513884766,4.293774777986499e-06,-0.00040166361675572117,-0.0007359220352391689,0.0011127097453664746,-4.374794444509224e-06,-0.0020674260670545904,0.1697271168231964,-21.79654312133789,-2.35798716545105,22.59223175048828,0.6608988046646118,2.2487685680389404,-0.0008682189509272575,,,,,,,,,
1739401818.7822652,0.5255048546040031,0.0960579859536013,-0.953158758900308,-2.068911568921481,0.137703960667455,2.1375884672281864,-1.2753588557119504,-0.0005162025420118921,0.0015908610848412224,0.0006139727340163469,0.0007912364503017536,0.00010723408398592783,-0.0005331988956652118,0.000372711665863098,0.1935308277606964,-21.84811782836914,-2.38179087638855,22.56842803955078,0.6737161874771118,2.2679946422576904,-0.04756011441349983,0,0,0,0.000,0,0
1739401818.79241,0.5255039324378169,0.09605866092790902,-0.9531598395670664,-2.068911458374521,0.13770181814206287,2.1375905570670723,-1.2753615005175385,-0.00015854035709158702,0.0009737226780889856,0.0003761871315176717,0.001988294454905951,0.00136171369230439,0.0010511987170752231,-0.0008377093654516352,0.2173345386981964,-21.84811782836914,-2.35798716545105,22.56842803955078,0.6673074960708618,2.2487685680389404,-0.0072769103571772575,0,0,0,0.000,0,0
1739401818.8033724,0.5255039314691746,0.0960631820098601,-0.9531585248929249,-2.0689169682819997,0.13770333463194537,2.137589630790144,-1.2753576438078937,-0.00048605790129307394,0.0009088408756852825,-0.0001411286935935523,-0.00013766436037494496,-0.0006658190939724417,8.748796122659829e-05,-0.0008344382447278767,0.2173345386981964,-21.87192153930664,-2.38179087638855,22.63983917236328,0.6865335702896118,2.2551772594451904,-0.06678618490695953,0,0,0,0.000,0,0
1739401818.8143356,0.525508349483843,0.09605863489643314,-0.953154884873746,-2.0689135812881454,0.13770421099751273,2.1375888716755798,-1.2753596990648473,0.0001567490440496697,0.0003805046470824645,0.0014968227776127468,-0.0004206446419528969,0.002883407538258269,-0.00023539003490195238,-0.0004675960524859358,0.1935308277606964,-21.84811782836914,-2.4333655834198,22.59223175048828,0.6801248788833618,2.2615859508514404,-0.013685601763427258,0,0,0,0.000,0,0
1739401818.825406,0.5255045651310306,0.09606108663007115,-0.9531627511735425,-2.0689154150543976,0.13770181841817283,2.137591164284693,-1.2753573427924774,-0.00018697085095682454,0.0006672540293052942,-0.00045151668740424106,0.0005392489057760482,0.0006152309454883108,0.0013699495906162088,0.001042402844106962,0.2173345386981964,-21.87192153930664,-2.35798716545105,22.59223175048828,0.6673074960708618,2.2551772594451904,-0.06037749722599983,0,0,0,0.000,0,0
1739401818.8363361,0.5255056650336173,0.09605705376608474,-0.9531605516199699,-2.0689140403704687,0.1377013484192511,2.1375896307978484,-1.2753534081744444,-0.00024612919246998926,-0.0002291172926881685,-0.0006499638682470659,0.00045192116783343,0.00016889943356300605,0.00042286850408880896,0.0013283677765304263,0.1935308277606964,-21.82431411743164,-2.35798716545105,22.59223175048828,0.6673074960708618,2.2551772594451904,-0.06678618490695953,0,0,0,0.000,0,0
1739401818.8463387,0.5255038554133785,0.09605866266999083,-0.9531605415774971,-2.068914043729801,0.13770095349004957,2.1375896293356584,-1.2753538088888596,-0.0009388897396661999,-0.0007866228109975912,-0.00012164438749354578,0.00025460120180345364,-0.0007434027550773817,0.0007680849977941132,0.002116555374699936,0.2173345386981964,-21.84811782836914,-2.35798716545105,22.59223175048828,0.6737161874771118,2.2551772594451904,-0.06037749722599983,0,0,0,0.000,0,0
1739401818.8563557,0.5255058009729086,0.0960603737848781,-0.9531566791104524,-2.068913456479408,0.13770058491218884,2.1375888716755553,-1.275361503203327,0.00041787020407687544,0.0005321274221797524,0.001290652163533049,0.00012974395081398948,0.0002980997192702546,0.00015518204538057922,-0.002194119888233927,0.1935308277606964,-21.87192153930664,-2.4095618724823,22.59223175048828,0.6737161874771118,2.2615859508514404,-0.0072769103571772575,0,0,0,0.000,0,0
1739401818.8672597,0.5255021419293305,0.09605495080253885,-0.9531612712259037,-2.068916107598572,0.13769927189960535,2.1375896293356336,-1.2753550889715954,-0.0007445023591363347,0.00012188593957365717,-0.0006651349961431662,-0.0008781363622042749,-0.00023476841229168625,-0.00012424827052033859,0.0006593600623670853,0.2411382496356964,-21.79654312133789,-2.35798716545105,22.59223175048828,0.6938577890396118,2.2551772594451904,-0.05396880581974983,0,0,0,0.000,0,0
1739401818.8773587,0.5255045574219785,0.09605323828180766,-0.9531587589126647,-2.068909489278813,0.13769832218007774,2.1375888716755553,-1.2753548166495505,0.0005574654216886615,-0.0009933508973454753,0.0015760796214652154,0.0002651210557246992,-0.0008476983796456218,-0.0006267176038122055,-0.00037080299981866573,0.2173345386981964,-21.77273941040039,-2.38179087638855,22.54065704345703,0.6938577890396118,2.2615859508514404,-0.06678618490695953,0,0,0,0.000,0,0
1739401818.8883603,0.5255039324538492,0.09605410758865762,-0.9531603195656965,-2.06890949007197,0.13770058636925064,2.1375881140154767,-1.2753601525086946,-2.1259903726351607e-05,-0.0021170890374874484,-3.3179687951465816e-05,0.0004583235747050472,-0.0004168223438821403,-0.000715603283168756,-0.0011372254492203783,0.2173345386981964,-21.82431411743164,-2.35798716545105,22.54065704345703,0.6737161874771118,2.2679946422576904,-0.013685601763427258,0,0,0,0.000,0,0
1739401818.8992994,0.5255038544848469,0.09605495078650045,-0.953160541687109,-2.068915054032395,0.13770147425734924,2.1375881140154767,-1.2753572610897421,-0.0003760917079317428,-0.0001809883334464603,0.00024690469171615847,-0.0014162538714795093,0.0002999041492733534,-0.000664514482773433,0.0003959952775370937,0.2173345386981964,-21.79654312133789,-2.35798716545105,22.61603546142578,0.6673074960708618,2.2679946422576904,-0.03382720425724983,0,0,0,0.000,0,0
1739401818.9093657,0.5255021420350076,0.09605494679694777,-0.9531587718914152,-2.0689151342696963,0.13770277026246697,2.137590386995712,-1.2753534037951701,-0.0013914339068050703,-0.00027740812697068563,0.00062604237830407,-0.0012116616080222122,-0.0002494291811189902,0.00010821130402789518,0.0016224695305489547,0.2411382496356964,-21.79654312133789,-2.38179087638855,22.61603546142578,0.6673074960708618,2.2487685680389404,-0.06678618490695953,0,0,0,0.000,0,0
1739401818.9203494,0.5255055929698527,0.09605292842348252,-0.9531630749519548,-2.068912257576822,0.13770532629497712,2.1375928213319737,-1.27535968591109,-8.385773678242788e-05,-0.0014089591563831872,-0.0016078612159347455,-0.0006851573078081815,0.00018826281898105647,0.0014635016323096036,-0.0010570943754046659,0.1935308277606964,-21.77273941040039,-2.35798716545105,22.56842803955078,0.6737161874771118,2.2551772594451904,-0.013685601763427258,0,0,0,0.000,0,0
1739401818.932326,0.5255039574692613,0.09605866122628753,-0.9531587560256778,-2.068915135639665,0.13770106531184878,2.1375903870137303,-1.2753615544978163,-0.0005312485125488912,0.00018002582242829875,-0.00011560196603277239,-0.0009961486674656868,0.0010993752075200889,0.00011332721890825614,-0.0009254614293359893,0.2173345386981964,-21.84811782836914,-2.38179087638855,22.61603546142578,0.6801248788833618,2.2487685680389404,-0.0008682189509272575,0,0,0,0.000,0,0
1739401818.9432995,0.5255055785253903,0.09606034736960672,-0.9531587592334079,-2.068909489127164,0.13770413178281196,2.1375889894131253,-1.2753589238909238,-0.0002956547358502102,0.001029479762159013,0.00012066167739434913,0.001084286078905106,-0.0004570438534695374,0.0003707769912043574,0.00034463149118663626,0.1935308277606964,-21.87192153930664,-2.38179087638855,22.54065704345703,0.6801248788833618,2.2615859508514404,-0.020094294100999832,0,0,0,0.000,0,0
1739401818.9533715,0.5255038544489364,0.09605694874294457,-0.9531587589003137,-2.06890948923214,0.13769986843505938,2.1375896293376275,-1.2753535607792614,-4.764685907308029e-05,6.946452931494288e-05,-4.706771745542176e-05,0.00021959102743624598,0.0004957534559613419,0.00016099904905118775,0.001222824194523597,0.2173345386981964,-21.82431411743164,-2.38179087638855,22.54065704345703,0.6801248788833618,2.2551772594451904,-0.06678618490695953,0,0,0,0.000,0,0
1739401818.9643245,0.5255038547697332,0.09605789351513365,-0.9531576594392465,-2.0689151380502864,0.13770070337960907,2.137590466278489,-1.2753580977242782,-0.0007120747669233467,-0.0004898120025221114,-0.0004792736795468181,-9.162544060521542e-05,0.00038791870113923056,-0.0005578041988689219,-0.0010700764568704624,0.2173345386981964,-21.82431411743164,-2.4095618724823,22.61603546142578,0.6737161874771118,2.2753188610076904,-0.027418512850999832,0,0,0,0.000,0,0
1739401818.9753416,0.5255076731072533,0.09605866126945636,-0.9531605429152821,-2.0689151371054995,0.13770134256669395,2.137588114033643,-1.2753580310383843,0.0008686754909943878,-0.0001222482423758722,-0.0015412719094966703,0.0002496347997437925,-0.0013908142679049352,-0.0006341795821953006,0.0007194547040564711,0.1935308277606964,-21.84811782836914,-2.35798716545105,22.61603546142578,0.6673074960708618,2.2679946422576904,-0.0008682189509272575,0,0,0,0.000,0,0
1739401818.9862988,0.5255038544962958,0.09606037335181747,-0.9531578238859504,-2.068913686055964,0.13770560755549233,2.1375881140154767,-1.2753604391926465,-0.00037135641917334077,0.00018175532183038132,0.0011078574189620615,0.000819272965019877,-0.00032747757787491357,-0.000597795173385321,-0.0015411105610410268,0.2173345386981964,-21.87192153930664,-2.38179087638855,22.59223175048828,0.6673074960708618,2.2679946422576904,-0.0072769103571772575,0,0,0,0.000,0,0
1739401818.9963205,0.525502141928012,0.09606037378483229,-0.9531563008310054,-2.068916936806027,0.1377010634042545,2.1375888716755553,-1.2753557312897377,-0.0014129362450362789,0.00024236140297447336,0.0018721745831579953,-0.001674037388005473,0.0003486102285635682,0.00035001780789435666,-0.00019866786563191297,0.2411382496356964,-21.87192153930664,-2.4095618724823,22.63983917236328,0.6737161874771118,2.2615859508514404,-0.06037749722599983,0,0,0,0.000,0,0
1739401819.0072787,0.525504088452161,0.09606249953950566,-0.9531595683453894,-2.068913351605738,0.1377052599756446,2.1375888716755553,-1.2753534037987888,-0.0004458942365639093,0.0010187186219108816,0.00010575480013833228,0.0003352988409115312,0.003138416515390337,-0.0002894414984068152,0.0026520796071619196,0.2173345386981964,-21.87192153930664,-2.38179087638855,22.59223175048828,0.6737161874771118,2.2615859508514404,-0.06678618490695953,0,0,0,0.000,0,0
1739401819.0182734,0.5255055942551424,0.09606037383285652,-0.9531587590159124,-2.068911568917017,0.13769982748894605,2.1375896293356336,-1.2753568958855717,0.0004276143109293038,0.0008296030512031813,-0.00032383687803726495,0.0001282950199795459,-0.0015179103672514317,-0.0001649170574661437,-0.00047824370145373336,0.1935308277606964,-21.87192153930664,-2.38179087638855,22.56842803955078,0.6801248788833618,2.2551772594451904,-0.04023589566349983,0,0,0,0.000,0,0
1739401819.0283597,0.5255050279706545,0.09605413383432505,-0.9531587859928714,-2.0689094900719693,0.13770150053060226,2.1375923525679936,-1.2753580972448568,0.0010020700066480873,-0.00017591584110574003,-0.0006488741337979687,0.0003272564088999543,-5.467780350589961e-05,0.00040113937403112097,0.0005913180352311196,0.2411382496356964,-21.82431411743164,-2.38179087638855,22.54065704345703,0.6673074960708618,2.2679946422576904,-0.027418512850999832,0,0,0,0.000,0,0
1739401819.039292,0.5255076730165459,0.09605694840272404,-0.9531606225220594,-2.0689115688120436,0.1377022378771941,2.137588871753317,-1.2753556826438872,0.001520745804605102,-0.0002244265728170527,0.00022065094098526635,0.00020129981274559917,0.0008868769609509481,-0.0003944032144326928,0.002300899225090645,0.1935308277606964,-21.82431411743164,-2.35798716545105,22.56842803955078,0.6608988046646118,2.2615859508514404,-0.04756011441349983,0,0,0,0.000,0,0
1739401819.0494225,0.5255001440228226,0.09605502953953297,-0.9531566881056653,-2.068909518416197,0.13770146104178604,2.13758812709743,-1.2753571827569752,-0.0021411822294852712,-0.0008895301070245677,0.001062245595747332,0.0021294095366951827,0.00032197162063356385,-0.00029652808546742573,7.136720396380496e-06,0.2689092457294464,-21.79654312133789,-2.4095618724823,22.54065704345703,0.6673074960708618,2.2679946422576904,-0.03382720425724983,0,0,0,0.000,0,0
1739401819.0603318,0.5255031391930037,0.09605694874383638,-0.9531605415773778,-2.068911568917182,0.13770170593503583,2.137590689135342,-1.2753601544381221,-0.0003934957010140873,-0.00022957432428346623,-0.00025991105136327045,0.0009602391704788878,-0.0003519115340503414,0.0009298300292591257,-0.0018551452900607396,0.2173345386981964,-21.82431411743164,-2.35798716545105,22.56842803955078,0.6737161874771118,2.2551772594451904,-0.013685601763427258,0,0,0,0.000,0,0
1739401819.0703423,0.5255055581270414,0.0960548178773412,-0.9531587420048051,-2.068909489022183,0.137699831652758,2.137589935692283,-1.2753565428423759,-0.0002722548288891768,0.00048136727778628596,0.001228665771056523,0.0005326988122969951,-0.0017454561192443352,0.0008460416284922929,0.0003063801339140136,0.1935308277606964,-21.82431411743164,-2.38179087638855,22.54065704345703,0.6801248788833618,2.2615859508514404,-0.04023589566349983,0,0,0,0.000,0,0
1739401819.0812676,0.5255038544486909,0.09605866128809658,-0.9531546810056808,-2.068911568917016,0.13770185660097223,2.13758962934164,-1.2753565433188851,-0.0008441206341894491,0.0010421633789350162,0.0010605416965991678,-0.00039039489623814,-0.0003784261400280374,-0.00010531735811288869,0.00022751380834325706,0.2173345386981964,-21.84811782836914,-2.4095618724823,22.56842803955078,0.6673074960708618,2.2551772594451904,-0.04023589566349983,0,0,0,0.000,0,0
1739401819.0913374,0.5255021330976918,0.09605865152079451,-0.9531587593106102,-2.068911670956244,0.13770689036876335,2.1375904015312144,-1.2753643757849948,-0.0012611780525335844,0.001004649917660666,-0.00021154426203725578,-8.67046247825316e-05,0.0012309951145690892,0.0012363945424751933,-0.0013511366465045762,0.2411382496356964,-21.84811782836914,-2.38179087638855,22.56842803955078,0.6608988046646118,2.2487685680389404,-0.0008682189509272575,0,0,0,0.000,0,0
1739401819.102264,0.5255055669694222,0.09605765445333721,-0.953158758757647,-2.068915134271631,0.1377013476852021,2.137592168327595,-1.2753581757485335,-0.0002675060052239691,-9.516201417556424e-05,0.00020128610632779185,-0.0007500612227879137,-0.0003952647859462248,0.001699846368534978,0.00022930345376989192,0.1935308277606964,-21.82431411743164,-2.38179087638855,22.61603546142578,0.6673074960708618,2.2615859508514404,-0.027418512850999832,0,0,0,0.000,0,0
1739401819.1132936,0.52550017865433,0.09605866127607435,-0.9531606196329728,-2.0689154175734523,0.1377045457366196,2.137589629552968,-1.2753588556920117,-0.0012109721240998257,0.00042625405406979903,-0.00044425951227388023,-0.0004397842863459012,-0.00022412889864826152,3.622746063214346e-05,0.00057459666422877,0.2689092457294464,-21.84811782836914,-2.35798716545105,22.59223175048828,0.6673074960708618,2.2551772594451904,-0.04756011441349983,0,0,0,0.000,0,0
1739401819.1233146,0.5255038547699288,0.09605864957212837,-0.9531587589007486,-2.0689136690960654,0.13770564733540766,2.1375864911041895,-1.2753580595183491,0.0004334391410145836,0.00021707226889048953,0.0007105920949984965,0.0007114612156351367,0.001962872145431759,-0.0012299194329702325,-0.00013700053178692908,0.2173345386981964,-21.84811782836914,-2.38179087638855,22.59223175048828,0.6673074960708618,2.2817275524139404,-0.027418512850999832,0,0,0,0.000,0,0
1739401819.1333578,0.5255072794902085,0.09605694874319391,-0.9531605425766428,-2.0689134290736413,0.13770636485644489,2.1375872495718053,-1.2753565428343931,0.0003404914069791508,0.0004888033940059432,-0.0007194417750648046,0.0009340102702810552,0.001196055096767758,0.00030328139686520007,0.0013843509181753718,0.1697271168231964,-21.82431411743164,-2.35798716545105,22.59223175048828,0.6608988046646118,2.2753188610076904,-0.04023589566349983,0,0,0,0.000,0,0
1739401819.1442742,0.5255030866084839,0.09605702780441237,-0.9531567338141109,-2.0689151343064855,0.1377039028902851,2.1375896293356416,-1.2753612360626183,-0.0005753039865774607,-0.0010387371012930756,0.0002852342734564996,-0.00010333814846639935,0.0008690120524059454,-0.0006496962307427239,-0.001835891903994787,0.2411382496356964,-21.82431411743164,-2.38179087638855,22.61603546142578,0.6737161874771118,2.2551772594451904,-0.0008682189509272575,0,0,0,0.000,0,0
1739401819.1543593,0.5255082280385838,0.0960603737861932,-0.9531605455402952,-2.068916052939037,0.1377045609066176,2.1375888723215772,-1.2753550368537847,0.00165015797787972,0.00036628526811207415,-0.0002216550376289152,-0.0007112051050906637,0.0016234818039436844,-0.0006412599338255767,0.0010321635188508696,0.1697271168231964,-21.87192153930664,-2.35798716545105,22.61603546142578,0.6673074960708618,2.2615859508514404,-0.05396880581974983,0,0,0,0.000,0,0
1739401819.1653311,0.5255072824914863,0.09606038544959503,-0.9531587858818568,-2.068914065873813,0.1377018165320834,2.1375888779742764,-1.2753541745380896,0.0012222023516343323,0.0007325584291360077,4.049374467405516e-05,0.00037274842746774567,0.00015567881807812664,0.00036355298352871334,0.0022323955055518693,0.1697271168231964,-21.87192153930664,-2.38179087638855,22.59223175048828,0.6673074960708618,2.2615859508514404,-0.06037749722599983,0,0,0,0.000,0,0
1739401819.1772869,0.5255100904201939,0.09605694874345776,-0.9531567860737334,-2.068914142821994,0.13770429707608753,2.1375884803101743,-1.2753580586391147,0.001810298398126546,-0.00017206954310745908,0.0008283578503519429,-0.0005012717419790101,0.0011218840685771826,-6.003744831449586e-06,0.0008132031852375449,0.1697271168231964,-21.82431411743164,-2.4095618724823,22.59223175048828,0.6737161874771118,2.2679946422576904,-0.027418512850999832,0,0,0,0.000,0,0
1739401819.1873786,0.5255054884754572,0.09605686982242707,-0.9531567600556355,-2.068911569061455,0.13770246589061058,2.1375881140175443,-1.2753589243747714,-0.00014988970166820637,-0.000558456049077614,0.001421116430394743,-8.702623474405341e-05,-0.0003560281796893392,-0.00026982624975621097,0.0004993451754471803,0.1935308277606964,-21.82431411743164,-2.4095618724823,22.56842803955078,0.6673074960708618,2.2679946422576904,-0.020094294100999832,0,0,0,0.000,0,0
1739401819.1982682,0.5255003780971311,0.0960569487429464,-0.9531587599000807,-2.0689094891271624,0.13770285854258302,2.137593463440782,-1.2753591576680712,-0.0005325834001763983,6.424423327081882e-05,-0.00010977519302177856,0.0008477363822275825,-0.00037046010700706545,0.002463095704335916,-0.001644285481988817,0.2689092457294464,-21.82431411743164,-2.38179087638855,22.54065704345703,0.6544901132583618,2.2615859508514404,-0.05396880581974983,0,0,0,0.000,0,0
1739401819.2083097,0.5255041001188475,0.09606149492979303,-0.9531559508592822,-2.06890952597466,0.13770070532956757,2.1375888732068673,-1.2753646952774182,-0.00015804347156018979,0.001530424108881257,0.0007798106290182683,0.00025709383684259496,-0.002631921657781331,2.2089165586905568e-05,-0.0013252722116072865,0.2173345386981964,-21.84811782836914,-2.38179087638855,22.54065704345703,0.6737161874771118,2.2615859508514404,-0.0072769103571772575,0,0,0,0.000,0,0
1739401819.2192736,0.5255048687859409,0.09605124024869152,-0.953160568543002,-2.0689134278087287,0.13770070343422802,2.1375889898976506,-1.275361094425304,8.297982742288575e-05,-0.001672546408669973,-0.0008575423611472833,0.00016627583655794414,-0.001559453683941965,0.0008047361237705728,-0.0024482203935753642,0.2173345386981964,-21.74496841430664,-2.35798716545105,22.59223175048828,0.6737161874771118,2.2615859508514404,-0.013685601763427258,0,0,0,0.000,0,0
1739401819.230321,0.525503854786911,0.0960532029893033,-0.9531605290590822,-2.0689094633037093,0.13770596351933723,2.1375896487183055,-1.2753540831491923,-0.0006302062142784148,-0.0014290477703046839,-0.0012025656153318456,0.0006569765785095459,-0.0001238927674326887,-2.2945978691734335e-05,0.0010800930560499339,0.2173345386981964,-21.77273941040039,-2.35798716545105,22.54065704345703,0.6673074960708618,2.2551772594451904,-0.06037749722599983,0,0,0,0.000,0,0
1739401819.240418,0.5255042518107055,0.09605589564593983,-0.953157822886415,-2.0689115774198483,0.13770134930739614,2.137588114015805,-1.2753612369060805,-0.00046295563495643197,0.0006381613236050637,0.0006514414916874418,8.803915897916088e-05,0.000991722672125178,-0.0007703491439799816,-0.000355152901444972,0.2411382496356964,-21.79654312133789,-2.38179087638855,22.56842803955078,0.6673074960708618,2.2679946422576904,-0.027418512850999832,0,0,0,0.000,0,0
1739401819.2512836,0.5255037287024452,0.09606078720090026,-0.9531566791086911,-2.0689133544284752,0.13770186250567143,2.1375928082500213,-1.2753549328495073,-0.00039552837698039674,0.0013775136555547686,0.0017216709961788141,-0.0010690459521091934,-0.0001316446148111137,0.0004988595477799973,-0.0001202165477431394,0.2173345386981964,-21.84811782836914,-2.4095618724823,22.59223175048828,0.6673074960708618,2.2551772594451904,-0.05396880581974983,0,0,0,0.000,0,0
1739401819.2612824,0.5255038544466112,0.09605866130012602,-0.9531548968775737,-2.0689115693369793,0.1377046999720663,2.1375872481720797,-1.2753549241224567,3.268538512417828e-07,0.0002838296315345147,0.001715240778488119,-4.335548058795563e-06,-5.2061136210789665e-06,-0.0009121881917540039,0.0002629220126537708,0.2173345386981964,-21.84811782836914,-2.4333655834198,22.56842803955078,0.6673074960708618,2.2753188610076904,-0.05396880581974983,0,0,0,0.000,0,0
1739401819.2723227,0.525507673000254,0.09605794220644404,-0.9531609444039573,-2.0689124863252615,0.13770426932502416,2.1375896293356345,-1.2753600397699068,0.00044688303236067514,0.0003070390616738859,-0.0006081183182385785,0.0003675456571638892,-0.000699573727292646,-0.00011554525251176171,-0.0007391533192864746,0.1935308277606964,-21.84811782836914,-2.38179087638855,22.56842803955078,0.6801248788833618,2.2551772594451904,-0.013685601763427258,0,0,0,0.000,0,0
1739401819.284365,0.5255038660559825,0.09605718495303854,-0.9531566791145648,-2.06891513437776,0.13770148022458262,2.1375884672281864,-1.27535968203563,-0.00035762515060566534,0.00012380965356456294,0.0006966035345154398,-4.024076167078209e-05,-0.00022292096560801888,0.0003030631264366566,0.0016082705186406935,0.2173345386981964,-21.82431411743164,-2.4095618724823,22.61603546142578,0.6673074960708618,2.2679946422576904,-0.013685601763427258,0,0,0,0.000,0,0
1739401819.2943792,0.5255022199292151,0.09605866130145879,-0.9531578229236388,-2.068915418203325,0.13770456618383511,2.1375882317550405,-1.2753612361164555,-0.0011125108500276374,4.725263723472431e-05,0.0011257410198993985,-0.00037824537112945186,-0.00018912399515682882,-0.0008351975375695817,-0.0010261445641288694,0.2411382496356964,-21.84811782836914,-2.38179087638855,22.59223175048828,0.6801248788833618,2.2679946422576904,-0.0008682189509272575,0,0,0,0.000,0,0
1739401819.305353,0.5255062691228363,0.09605966219706039,-0.9531587588950243,-2.068913379949932,0.13770245484538723,2.137592050590608,-1.275356542834589,0.000439608646834035,-0.0009316585063854911,0.00036467191409842,0.000360020955535868,-0.000279982307513782,-0.00011453730249548786,0.0007688943331346867,0.1935308277606964,-21.87192153930664,-2.38179087638855,22.59223175048828,0.6673074960708618,2.2615859508514404,-0.04023589566349983,0,0,0,0.000,0,0
