IITGN-Robotics/Franka_IITGN_ROBOTICS/franka_ros/franka_iitgn/data/b_30.csv
time,fr3_joint1_pos,fr3_joint2_pos,fr3_joint3_pos,fr3_joint4_pos,fr3_joint5_pos,fr3_joint6_pos,fr3_joint7_pos,fr3_joint1_vel,fr3_joint2_vel,fr3_joint3_vel,fr3_joint4_vel,fr3_joint5_vel,fr3_joint6_vel,fr3_joint7_vel,fr3_joint1_eff,fr3_joint2_eff,fr3_joint3_eff,fr3_joint4_eff,fr3_joint5_eff,fr3_joint6_eff,fr3_joint7_eff,flexpin1,flexpin2,flexpin3,Force,ContactMic,ContactMic_gt
1739401716.4107277,0.525502062402461,0.09585412781688266,-0.9531523602444908,-2.069065119316934,0.1377238912772986,2.137576839541044,-1.275345981505539,-0.00034664951101645125,-0.00010156876298626262,-0.0002707824270517642,-0.0006970170686904148,0.002234451311071194,-0.0006513985866812912,0.0016391992043917085,0.2411382496356964,-21.84811782836914,-2.38179087638855,22.56842803955078,0.5949808359146118,2.2423598766326904,-0.04756011441349983,,,,,,,,,
1739401716.4217772,0.5254959677712863,0.09584657111812486,-0.9531521228800327,-2.0690688830333905,0.13772176480438794,2.1375777054382765,-1.2753519294792626,-0.0009794658794625467,-0.0013924588340633124,0.000741171521717384,-0.0014878299028797178,0.00043447689800552144,-0.00010315229397624405,-0.0012439847566880662,0.2927129566669464,-21.77273941040039,-2.38179087638855,22.59223175048828,0.5757547616958618,2.2350356578826904,-0.0072769103571772575,,,,,,,,,
1739401716.4327788,0.5255006372279196,0.09586588934918451,-0.953151035734891,-2.069056915094752,0.13772051332215565,2.137580848072222,-1.275350627851104,-0.00022760600836855868,0.0024307998482355365,0.001755895167611486,0.0025493584066783484,2.443216414764536e-05,0.0012407390517234422,-0.001050845211555276,0.2173345386981964,-21.72116470336914,-2.35798716545105,22.41767120361328,0.6673074960708618,2.2487685680389404,-0.04023589566349983,,,,,,,,,
1739401716.4438229,0.5254954463574154,0.09589110832183012,-0.9531513241913232,-2.069065128885216,0.13772141102717972,2.137590025906613,-1.2753553082787275,-0.0011786319834540693,0.0010249382203044678,0.0008167445214404829,-0.0010529455565515206,1.4215121249819618e-05,0.002640961290233485,-0.0014438871187575795,0.2411382496356964,-21.66958999633789,-2.35798716545105,22.51685333251953,0.6608988046646118,2.2423598766326904,-0.0072769103571772575,,,,,,,,,
1739401716.45473,0.5254905595748347,0.09590835721730567,-0.9531533234804656,-2.0690694278074853,0.13772496413754814,2.1375901177222008,-1.2753433847816404,-0.002368953203969762,0.0002673123058555965,-0.00046080149697830535,0.0001703229130515057,0.00025839668954661895,0.0004531728620358831,0.0015326667385282364,0.2689092457294464,-21.66958999633789,-2.3302161693573,22.54065704345703,0.6673074960708618,2.2551772594451904,-0.07411040365695953,,,,,,,,,
1739401716.4648123,0.525492638244231,0.09593630170348195,-0.9531578463926507,-2.069077905463501,0.13772493384021442,2.1375928816685543,-1.2753510260673613,0.0010360063615358242,0.003180752505368307,-0.0012782525088275796,-0.0010225522139807241,-0.0004704140865957068,0.0006762988322618578,-0.0009031033991263658,0.2411382496356964,-21.79654312133789,-2.3064124584198,22.61603546142578,0.6737161874771118,2.2679946422576904,-0.04756011441349983,,,,,,,,,
1739401716.4767752,0.525494258101455,0.09595701515712204,-0.953154130869964,-2.0690767220210096,0.13772459887455746,2.137593499983203,-1.2753470176818071,0.0006621955496680294,0.0016343485378196817,-0.0011841832293468264,0.0017870615100303196,0.0007434111133204749,-0.0005106548271513692,0.0009319286085892461,0.2173345386981964,-21.87192153930664,-2.3302161693573,22.56842803955078,0.6865335702896118,2.2753188610076904,-0.08051909506320953,,,,,,,,,
1739401716.4877014,0.5254921491812188,0.09597837182910322,-0.9531495531727798,-2.069081307920738,0.13772673340730746,2.137592887030643,-1.275355714445476,-0.00017838946893907379,0.0030756217359977876,0.0006412667310290738,-0.0005708285105619352,-5.461396510050869e-05,-0.0017900178732270992,-0.001479201407568203,0.2173345386981964,-21.95126724243164,-2.38179087638855,22.61603546142578,0.6865335702896118,2.2679946422576904,-0.0072769103571772575,,,,,,,,,
1739401716.4977815,0.5254931616057384,0.09598939645058299,-0.9531453597284767,-2.0690800818327824,0.13772919956056476,2.1375975114924026,-1.275357329963636,0.0003550809581412096,0.0007605622761172817,-0.00028153067817511415,0.0004916279404579072,0.00046169489458806483,0.0010328180743109097,-0.0012582411904158435,0.1935308277606964,-21.92349624633789,-2.4333655834198,22.56842803955078,0.6737161874771118,2.2679946422576904,-0.020094294100999832,,,,,,,,,
1739401716.508793,0.5254953426286794,0.09599861512762793,-0.9531421796493802,-2.0690840848747007,0.13772900362702262,2.137599344237511,-1.2753542737586752,0.000542133357013757,0.0016587674953577832,0.0005900596555843565,-0.0005951610850732641,-0.0004727509844683583,0.0009000400654866915,-0.0011532368185011971,0.1697271168231964,-21.95126724243164,-2.4333655834198,22.63983917236328,0.6737161874771118,2.2551772594451904,-0.020094294100999832,,,,,,,,,
1739401716.519856,0.5254956584612273,0.09600871381254612,-0.9531421410396694,-2.069083135515758,0.13773285302160643,2.1375970034386866,-1.2753477709812382,0.001412574648170835,0.0012241008316232725,-0.00023545905457172944,0.0008424094490419825,0.001727007555734447,-0.00023051360506124918,0.0013342087468473968,0.1935308277606964,-22.00284194946289,-2.4333655834198,22.63983917236328,0.6801248788833618,2.2753188610076904,-0.07411040365695953,,,,,,,,,
1739401716.5308204,0.5254958921551053,0.09601534450540035,-0.9531438457153304,-2.0690884713964484,0.13772859556159464,2.1375977654961322,-1.275351700390045,0.0010828789742044502,0.00212002311768353,0.000588008229228473,0.0005541786662840157,0.00046503959482333386,0.0011335623886462305,-0.00035778625283206265,0.1935308277606964,-22.00284194946289,-2.4095618724823,22.63983917236328,0.6801248788833618,2.2679946422576904,-0.05396880581974983,,,,,,,,,
1739401716.541809,0.5254928202944533,0.09600607922511892,-0.9531459951652606,-2.0690912900466625,0.1377293984166134,2.1375986056270544,-1.2753589856221161,-0.0006821418408680486,-0.0022866944078117502,0.00010031344704980526,-0.0014159987670875887,0.0009348605960760151,-0.00017389540171737632,-0.0026329398756365337,0.1935308277606964,-21.87192153930664,-2.38179087638855,22.69141387939453,0.6737161874771118,2.2615859508514404,0.019273381680250168,,,,,,,,,
1739401716.552732,0.5254932138593809,0.0960071816986843,-0.9531460064860571,-2.069083486583375,0.13772785868672288,2.1375975342170297,-1.2753533580099952,-0.0007968051339634808,-0.001266049087178305,-2.3459424939087912e-05,9.103187415653686e-05,0.0003388665164849434,-6.94849886570558e-05,-0.00183208416412305,0.2173345386981964,-21.84811782836914,-2.38179087638855,22.56842803955078,0.6865335702896118,2.2615859508514404,-0.06678618490695953,,,,,,,,,
1739401716.5627487,0.5254912040668599,0.09600381996272304,-0.9531460035063429,-2.069082092836802,0.1377315310445607,2.1375986468310173,-1.275354161413364,-0.0002713755106949359,-0.0016120930113543836,-0.00048168440556302947,-0.00019252334241160666,0.0014702067908164678,-0.00017818852397455756,0.0012192296603434234,0.2173345386981964,-21.79654312133789,-2.38179087638855,22.54065704345703,0.6673074960708618,2.2615859508514404,-0.020094294100999832,,,,,,,,,
1739401716.5727751,0.525493450646464,0.0960021039728803,-0.9531499237198289,-2.069081993215828,0.1377301167322424,2.137598646837298,-1.2753529973831588,-0.00020724672446554372,-0.0005950254168079512,7.095919445733951e-06,-0.00014767583747409013,-7.363651528452043e-06,0.00028226777886279457,0.0010483168692363791,0.2173345386981964,-21.77273941040039,-2.35798716545105,22.54065704345703,0.6673074960708618,2.2615859508514404,-0.04023589566349983,,,,,,,,,
1739401716.5827763,0.52548779220081,0.09599733343704289,-0.9531523565950691,-2.069077461146832,0.13772697783082347,2.137599762070737,-1.2753572413399366,-0.0022080624375177098,-0.0016674640923583384,-0.0003528264886391579,-0.0002706092586360796,-0.0009132646182191013,0.000121020922802094,-0.0013363481723577258,0.2927129566669464,-21.72116470336914,-2.3302161693573,22.51685333251953,0.6938577890396118,2.2551772594451904,-0.0072769103571772575,,,,,,,,,
1739401716.5947258,0.5254873924570284,0.09600210479683569,-0.9531530844745538,-2.0690790047382523,0.13772948298608234,2.1375994047147358,-1.2753530500805563,-0.0011342238686528484,0.001347020480876542,-0.0007358092068598544,-0.0004607858554782218,-0.0004309886960084748,0.0005290083696130882,0.0009779636393919282,0.2689092457294464,-21.77273941040039,-2.3302161693573,22.54065704345703,0.6737161874771118,2.2551772594451904,-0.06678618490695953,,,,,,,,,
1739401716.6048079,0.5254908607431991,0.09599638441970117,-0.9531502236010686,-2.069078977264803,0.13772939841741172,2.1376002798950258,-1.2753532468104116,-0.0004398229257224523,0.0010919631560888045,0.001868023004313548,0.00040240206557356546,4.3232500234399946e-05,0.0006151570284144034,0.0028771661022130267,0.2173345386981964,-21.69339370727539,-2.3302161693573,22.54065704345703,0.6737161874771118,2.2487685680389404,-0.06678618490695953,,,,,,,,,
1739401716.6157777,0.5254928115741447,0.09600275609452875,-0.9531510048180125,-2.069079008515978,0.13773001865435403,2.137603251900483,-1.2753547621312382,0.0008345398886506851,0.0004560042131722601,0.0007795801104812476,-0.0004487904561985771,0.0008182700565455917,0.0016225513913553972,0.0015858619292128651,0.1935308277606964,-21.79654312133789,-2.35798716545105,22.54065704345703,0.6801248788833618,2.2615859508514404,-0.05396880581974983,,,,,,,,,
1739401716.6267748,0.5254893865340277,0.0959989087684058,-0.953151030016921,-2.0690796936066866,0.1377294115475459,2.13760364307589,-1.2753548798688081,-0.00018227450215285333,-0.0005700601694027738,0.0004180844602864401,-0.0007593131889862973,-0.0006448199815581856,0.0008499360427987589,0.0002958168495507422,0.2411382496356964,-21.77273941040039,-2.35798716545105,22.54065704345703,0.6737161874771118,2.2551772594451904,-0.05396880581974983,,,,,,,,,
1739401716.6368113,0.5254942062047824,0.09600336447434911,-0.9531510004739387,-2.069078675083373,0.1377312323120216,2.137598647070585,-1.2753620647052308,0.0007866319019040897,-0.00011940664982999777,0.000363807823962068,0.0005138841421679139,0.0014008046550620344,-0.0008418352844123735,-0.0032414515316974263,0.1697271168231964,-21.82431411743164,-2.35798716545105,22.54065704345703,0.6673074960708618,2.2615859508514404,0.0064559997990727425,,,,,,,,,
1739401716.6477237,0.5254932050837463,0.09600981844513319,-0.9531467231771977,-2.0690830968251706,0.1377301167145881,2.1376004772174593,-1.2753525385446358,-0.0003249634320114376,0.0016728206573545707,-1.6725550895715967e-05,-0.0007079505400734163,-0.0022676480865386557,0.0006794037686447976,0.001474322347039929,0.2173345386981964,-21.89969253540039,-2.38179087638855,22.59223175048828,0.6673074960708618,2.2551772594451904,-0.07411040365695953,,,,,,,,,
1739401716.6587179,0.5254886712901788,0.09601120218839213,-0.9531449964406147,-2.0690865120629263,0.1377333299824049,2.1375986468433537,-1.2753593804502013,-0.0014566373090137649,-5.5352287643648505e-05,-0.0006433192997229364,-0.0009736362660815485,0.0008942766284344983,-0.0009357289888601227,-0.0010619050250253435,0.2411382496356964,-21.89969253540039,-2.4095618724823,22.63983917236328,0.6801248788833618,2.2615859508514404,-0.013685601763427258,,,,,,,,,
1739401716.6687465,0.5254928115633773,0.096016661372773,-0.9531446393174233,-2.0690873518570148,0.13772796839404594,2.137598064087766,-1.275355979233098,0.0003002891060961788,0.0009541168574088425,0.0008774656944035469,-0.0003784495070039335,-0.0030044926096202407,2.1491393667061597e-05,-0.0002149137213757113,0.1935308277606964,-21.97507095336914,-2.4095618724823,22.63983917236328,0.6865335702896118,2.2679946422576904,-0.05396880581974983,,,,,,,,,
1739401716.6798062,0.5254873768194176,0.09601295091180183,-0.9531470241431849,-2.0690895316371076,0.13773414013452023,2.1375994061134196,-1.2753589064536324,-0.0009691124468375429,0.00017471084534538222,-0.001247883326875814,-0.0010710584289173003,0.0005077445922684955,-0.0018177153612173793,-0.0006596914245882042,0.2689092457294464,-21.92349624633789,-2.4095618724823,22.63983917236328,0.6737161874771118,2.2551772594451904,-0.020094294100999832,,,,,,,,,
1739401716.6907513,0.5254910990546924,0.09601503186400098,-0.9531469336936279,-2.0690877408190533,0.13773012262165363,2.137603375236258,-1.2753565426727633,-0.0009860625965673947,0.0008170227160851513,0.0003416215674855867,0.0003202615351830894,0.0001091413005796831,0.0017697320449994002,0.000701908869218236,0.2173345386981964,-21.95126724243164,-2.35798716545105,22.61603546142578,0.6673074960708618,2.2615859508514404,-0.04023589566349983,,,,,,,,,
1739401716.7017403,0.5254928115754901,0.09601140692022209,-0.953147786142867,-2.069081428909102,0.13773122534472354,2.1376023424885733,-1.2753585289432983,0.0010788148095341055,-0.0009304209817502149,-0.0005820396265334548,0.0011023708063424,0.00047646468734897587,0.000399862147441077,-0.0019557149895322546,0.1935308277606964,-21.87192153930664,-2.35798716545105,22.56842803955078,0.6673074960708618,2.2615859508514404,-0.027418512850999832,,,,,,,,,
1739401716.7117493,0.5254910977465636,0.09601412266511797,-0.9531477861833445,-2.0690859665986485,0.1377321501561225,2.137598366488803,-1.275355978761656,0.0004876039598749791,-0.0009869013322358722,-0.0007786327774536497,-0.0003228748295368859,0.000724100780181641,0.0007405251405358639,-0.0005930831294030663,0.2173345386981964,-21.89969253540039,-2.35798716545105,22.59223175048828,0.6544901132583618,2.2679946422576904,-0.05396880581974983,,,,,,,,,
1739401716.7237659,0.5254910951658316,0.09600806989745092,-0.9531446389722078,-2.0690877493223243,0.13773196089039064,2.1376032407047925,-1.2753643743912506,-0.00013639795040775045,-0.000469105160289145,0.0019862426347079017,-0.0007796650821980528,-0.00017448995651151182,0.0008637965690577319,-0.0015623976561629973,0.2173345386981964,-21.82431411743164,-2.4095618724823,22.61603546142578,0.6801248788833618,2.2615859508514404,-0.0008682189509272575,,,,,,,,,
1739401716.7337768,0.5254945240961992,0.09600874244856636,-0.9531480285305476,-2.069080318352053,0.137731711124501,2.1376032972549845,-1.2753556826077677,0.0008964593258877045,0.000625499387636099,0.001184996140603774,0.00040468753211267286,0.00017980120431778033,0.0008048061246512039,0.00024201289840621444,0.1697271168231964,-21.82431411743164,-2.35798716545105,22.51685333251953,0.6673074960708618,2.2615859508514404,-0.04756011441349983,,,,,,,,,
1739401716.744741,0.5254893865340277,0.09600151804363594,-0.9531507266805221,-2.06908409505137,0.1377326089456521,2.137599916711667,-1.2753589238902838,0.00017102946926851544,0.00039850374990291925,0.001129984228623094,-0.000593224298330267,0.0017100037331433974,0.00021809760379728273,-0.0010558182602782044,0.2411382496356964,-21.72116470336914,-2.35798716545105,22.56842803955078,0.6865335702896118,2.2551772594451904,-0.020094294100999832,,,,,,,,,
1739401716.7567973,0.5254928115754901,0.09600477101281375,-0.9531487438351852,-2.069076366606102,0.13773194789953913,2.1376034151848544,-1.2753533645499782,0.0007334047158563806,0.0007865730203128135,-0.0005244955647414704,-0.00033963290492952853,-0.0005653966999763216,0.00018043397670986503,0.001122106090228721,0.1935308277606964,-21.79654312133789,-2.35798716545105,22.49304962158203,0.6801248788833618,2.2615859508514404,-0.06678618490695953,,,,,,,,,
1739401716.7677531,0.5254935131496857,0.09599838615243113,-0.9531462541849809,-2.069079398898477,0.13773171111183355,2.1376023512101003,-1.2753532075664777,0.0019891114796838816,-0.0015962554660016051,0.0007119985305235774,0.0006568469183808794,0.0011849283398970838,1.1012796435543135e-05,0.0018220417003727161,0.1935308277606964,-21.72116470336914,-2.38179087638855,22.51685333251953,0.6673074960708618,2.2615859508514404,-0.06678618490695953,,,,,,,,,
1739401716.7788384,0.5254893777155911,0.0960042407801343,-0.9531480279856739,-2.0690832528972023,0.13773227198225424,2.137602657530783,-1.2753541570914988,-0.0009020444686696437,0.00042238942617942444,1.71708020022972e-05,-0.0016340287888341673,-0.0010348971602873376,0.0003930369557392305,0.001820527306625304,0.2411382496356964,-21.77273941040039,-2.35798716545105,22.56842803955078,0.6865335702896118,2.2679946422576904,-0.06037749722599983,,,,,,,,,
1739401716.7898438,0.5254893600906122,0.09600582724053458,-0.9531462419738119,-2.0690830977409265,0.13772985099178311,2.1376032974713106,-1.2753542791930346,0.00012231541962317292,0.00019568239169271394,0.0007253839858577903,-0.0013583856466727238,-0.0007453097384447131,-0.0006507880804740105,0.0003966148522203354,0.2411382496356964,-21.82431411743164,-2.38179087638855,22.59223175048828,0.6737161874771118,2.2615859508514404,-0.06037749722599983,,,,,,,,,
1739401716.8007438,0.5254897081002106,0.09600752807423527,-0.9531477901092771,-2.0690810848429955,0.1377341421347204,2.137602657548137,-1.2753580641308953,-0.00042442131129916035,0.00030161948502353445,-0.00025683528018916166,0.0009908440418488567,0.001080006248030866,0.0001981814122663186,-0.0007990489773120581,0.1935308277606964,-21.84811782836914,-2.35798716545105,22.56842803955078,0.6737161874771118,2.2679946422576904,-0.027418512850999832,,,,,,,,,
1739401716.811812,0.5254903837815023,0.0960078355802103,-0.9531446432238645,-2.069082114682045,0.13773262700079764,2.137602657548802,-1.2753502117995292,-0.00031304602848884137,-0.0008031290288680628,4.157623142911274e-05,0.0005879282467423792,-0.00012041225282922042,-0.000660580429004215,0.0025590349989133006,0.2173345386981964,-21.84811782836914,-2.4095618724823,22.56842803955078,0.6865335702896118,2.2679946422576904,-0.06678618490695953,,,,,,,,,
1739401716.8227675,0.525492810590306,0.0960136657877189,-0.9531439335319963,-2.0690836618278277,0.1377330303443775,2.137602657548802,-1.2753604261105465,4.706002957313791e-05,0.0008467750282364415,0.00010681415378096452,0.0001575124843744743,0.0006603423359979647,0.0002828345545176712,-0.00043592598964974907,0.1935308277606964,-21.92349624633789,-2.4095618724823,22.59223175048828,0.6801248788833618,2.2679946422576904,-0.0072769103571772575,,,,,,,,,
1739401716.8327959,0.5254893831545066,0.09601220250247305,-0.953147023158165,-2.0690848836816595,0.13773809729954367,2.1376017916515697,-1.2753573017862685,-0.000651435293788182,-0.000856705270420302,-0.0007111253352371138,-0.0005891147925257273,0.0018786805629650819,6.954226216319177e-05,-2.4180518507745964e-05,0.2411382496356964,-21.87192153930664,-2.4095618724823,22.61603546142578,0.6673074960708618,2.2753188610076904,-0.03382720425724983,,,,,,,,,
1739401716.843772,0.5254908606361607,0.09601341070078133,-0.9531498659906972,-2.0690876727767273,0.1377316586592539,2.1376034152088805,-1.275355676560297,-0.0004943413019218299,-0.0002196837976014723,-0.001168860148604958,0.0001738685450742289,-0.00043764142500162483,0.0006304195479437947,0.0012899977447465606,0.2173345386981964,-21.89969253540039,-2.3302161693573,22.61603546142578,0.6673074960708618,2.2615859508514404,-0.04756011441349983,,,,,,,,,
1739401716.8547604,0.5254893865326817,0.09601330655262871,-0.9531462684158585,-2.069087749216914,0.13773454559223341,2.1375983797504277,-1.275354903126497,-0.0013512016224672572,2.796354229795924e-05,-0.0008731282437518447,0.0005757050398907638,0.0010209345090311805,-0.0025647721515197554,0.0009438707605743855,0.2411382496356964,-21.92349624633789,-2.38179087638855,22.61603546142578,0.6673074960708618,2.2679946422576904,-0.05396880581974983,,,,,,,,,
1739401716.8647838,0.5254893865340277,0.09601356518630201,-0.9531498663047359,-2.0690877496372586,0.13773766741248022,2.1376026574763567,-1.2753596815501684,-0.00035098155638546124,-0.0007595025951193535,-0.00011194756779182331,0.00011633393508163694,0.0007876282386955672,0.00014040876988930402,-0.0007443527693129765,0.2411382496356964,-21.84811782836914,-2.3302161693573,22.61603546142578,0.6801248788833618,2.2679946422576904,-0.013685601763427258,,,,,,,,,
1739401716.8748221,0.5254947312816394,0.09601072000787991,-0.9531480247109462,-2.0690821040734573,0.13773262723584245,2.1376026749914034,-1.275353403311318,0.0009832079223178892,-0.0015089717949126934,0.0006771368320071977,9.519908543642293e-05,0.00010276505085620276,0.00019746901416806996,0.0008724727624206523,0.1697271168231964,-21.84811782836914,-2.35798716545105,22.54065704345703,0.6865335702896118,2.2679946422576904,-0.06678618490695953,,,,,,,,,
1739401716.8848329,0.5254893073856689,0.09601073070234137,-0.9531501043958194,-2.069084183023477,0.1377348999810377,2.137603415209176,-1.2753525378985944,-0.00062467342726105,0.0008774639007018302,-0.0002998024715278741,-0.0008733752710943633,0.00022704070321771688,0.00015967061270880524,0.002480516824817724,0.2411382496356964,-21.84811782836914,-2.3302161693573,22.56842803955078,0.6673074960708618,2.2615859508514404,-0.07411040365695953,,,,,,,,,
1739401716.895716,0.5254893912757885,0.09600677752652752,-0.953146083089548,-2.0690802448320147,0.13773107194588963,2.1376017858373686,-1.275357102708421,-0.0004015827583732169,0.0009609605401218533,0.00042630515011102916,0.00045375374205131497,-0.00031396406266816424,-0.0006687930776761293,0.0002854767624525182,0.2411382496356964,-21.82431411743164,-2.38179087638855,22.51685333251953,0.6737161874771118,2.2753188610076904,-0.04756011441349983,,,,,,,,,
1739401716.9057484,0.5254945279482096,0.09600330160304102,-0.9531509955146199,-2.069084183966988,0.13773338460887996,2.1376049305289384,-1.2753573061712893,0.0011524861719001906,0.00022720896523562625,-0.0008597392993007674,-0.0019158849970045432,0.0007415434756381695,0.0002286027192739247,-0.0004270987370630534,0.1697271168231964,-21.74496841430664,-2.35798716545105,22.56842803955078,0.6801248788833618,2.2487685680389404,-0.03382720425724983,,,,,,,,,
1739401716.916769,0.5254893822824149,0.09600698591507852,-0.9531481042382558,-2.069083789983492,0.13773657885318819,2.137603454454737,-1.2753565428344003,-0.000844854593766268,0.001757191510732573,0.00035912066568179136,-0.001826770272873271,0.000418960172258209,-4.326292988438104e-05,0.00034152648379794526,0.2411382496356964,-21.79654312133789,-2.35798716545105,22.56842803955078,0.6801248788833618,2.2615859508514404,-0.04023589566349983,,,,,,,,,
1739401716.9268007,0.5254893865339556,0.09600669307799295,-0.9531485015534851,-2.0690841827018702,0.13773338034069316,2.137602657549466,-1.2753589238902536,-0.000603057764683433,0.00077789276403843,-0.0007271538333748291,-0.0019908668586997584,-0.0007714750583256953,-0.0005444173310966652,-0.0011178615027200378,0.2411382496356964,-21.79654312133789,-2.35798716545105,22.56842803955078,0.6801248788833618,2.2679946422576904,-0.020094294100999832,,,,,,,,,
1739401716.9377944,0.5254910991617563,0.09600827791036454,-0.9531460401479072,-2.0690802861235924,0.13773339977469817,2.1376034152088805,-1.275353401857768,-9.411277569007013e-05,-0.00045887469422806003,0.00036906079973485174,0.0009099353622105998,0.0004545302783066102,-0.00027522439738520636,0.002972211504857751,0.2173345386981964,-21.82431411743164,-2.38179087638855,22.51685333251953,0.6801248788833618,2.2615859508514404,-0.06678618490695953,,,,,,,,,
1739401716.9487705,0.5254942885665734,0.09600835852985445,-0.9531469928290313,-2.069080321489681,0.13773095347248832,2.137604930529037,-1.2753610944012748,0.0013522590320526255,0.0010920879755818805,-0.0004518210519332287,-0.0007374037851978476,-0.001013874636517145,0.0002174884044210669,-0.0017298269148904087,0.1697271168231964,-21.84811782836914,-2.38179087638855,22.51685333251953,0.6737161874771118,2.2487685680389404,-0.013685601763427258,,,,,,,,,
1739401716.9597104,0.5254845274598796,0.09600670431422638,-0.953148024607509,-2.069083210326426,0.13773489990902912,2.1376034152088805,-1.275362784946394,-0.0018036552099423538,-0.001109096435422026,-0.0007908001746318261,-0.0003540152036813094,-0.00011046681626257731,-0.0006150988731372213,-0.0019250713166977292,0.2689092457294464,-21.79654312133789,-2.35798716545105,22.59223175048828,0.6673074960708618,2.2615859508514404,-0.027418512850999832,,,,,,,,,
1739401716.9697511,0.5254890685941352,0.09600408228500609,-0.9531480259141573,-2.0690847643133123,0.1377348999810325,2.1376076542459144,-1.2753543185189506,-0.00021743053717281226,-0.002046105499146701,0.00036885801790887237,5.795371950634374e-05,-0.0008707760001985239,0.0006776538193499512,0.0005435780701571857,0.2411382496356964,-21.79654312133789,-2.35798716545105,22.61603546142578,0.6673074960708618,2.2615859508514404,-0.06037749722599983,,,,,,,,,
1739401716.9798088,0.5254925728244778,0.0960158380834567,-0.9531459896108118,-2.069087749271773,0.1377348999810337,2.13760265762059,-1.2753639593514732,0.00049187231368511,0.0011167622721004616,0.00011161986209403345,-0.0006267456369541605,0.0011151607931926442,-0.001377757644869018,-0.0011414982380465377,0.1935308277606964,-21.92349624633789,-2.38179087638855,22.61603546142578,0.6673074960708618,2.2679946422576904,-0.013685601763427258,,,,,,,,,
1739401716.99078,0.5254910990170724,0.09601812623221458,-0.9531439065463297,-2.069089532314279,0.13773811192735108,2.1376034152088805,-1.2753587132079274,0.00048104560187736385,0.002450900307128797,0.000554028481910527,-0.0009581828427844582,0.0004426603200281682,-0.00039357161694095004,-0.001065702039408804,0.2173345386981964,-21.95126724243164,-2.4095618724823,22.63983917236328,0.6673074960708618,2.2615859508514404,-0.03382720425724983,,,,,,,,,
1739401717.0007994,0.5254945240962205,0.09601070498485188,-0.9531477865101032,-2.0690856830279776,0.13773490052297327,2.1376034152088805,-1.2753519982366741,0.0022804379025924667,-0.0008546151773201848,-5.3827597260925475e-05,0.0010698515942464267,-0.0004417066168778045,-0.0008497800833467583,0.002953764717739411,0.1697271168231964,-21.84811782836914,-2.35798716545105,22.61603546142578,0.6673074960708618,2.2615859508514404,-0.06678618490695953,,,,,,,,,
1739401717.0117757,0.5254893864250113,0.09601412452672557,-0.9531460165882801,-2.069084183956622,0.13773177432145542,2.1376034152088805,-1.2753557449679283,0.00034154385246938483,0.00032107971364298807,-0.000108654966543505,0.000895751088758652,-0.0013509302615683613,0.000291952086426496,0.00026226783405764706,0.2411382496356964,-21.89969253540039,-2.38179087638855,22.56842803955078,0.6938577890396118,2.2615859508514404,-0.020094294100999832,,,,,,,,,
1739401717.023779,0.5254910990547582,0.09601244126826913,-0.9531498748035924,-2.069085975148574,0.13773390015850873,2.1376034152088805,-1.2753598385159208,0.0007027462662522639,-0.0009990621282155404,-0.0004543241756447727,0.000623194003746839,-0.0008372614848611745,-6.864149676619213e-05,-0.0010316205956842702,0.2173345386981964,-21.87192153930664,-2.3302161693573,22.59223175048828,0.6801248788833618,2.2615859508514404,-0.013685601763427258,,,,,,,,,
1739401717.0347626,0.5254910988972908,0.09600894037749717,-0.9531460035063427,-2.0690841839683025,0.13773565764208204,2.137604930529037,-1.2753560873231167,-0.000586854122609311,-0.00010511849350232301,0.0004831927286791363,0.0004926013312847721,-0.0007002831526198831,-0.000558891568394343,-0.0001983207748231768,0.2173345386981964,-21.82431411743164,-2.38179087638855,22.56842803955078,0.6608988046646118,2.2487685680389404,-0.04756011441349983,,,,,,,,,
1739401717.0447683,0.525487388593172,0.09601073178581579,-0.9531478127833147,-2.0690793491192947,0.13773489998103372,2.137604173353475,-1.275358411212681,-0.001001642694456868,-0.00031363104339491427,-0.00047430733851276316,0.00119359600035763,0.0006951937785819995,0.0007152717057885656,-0.0005239805871434094,0.2689092457294464,-21.84811782836914,-2.35798716545105,22.54065704345703,0.6673074960708618,2.2551772594451904,-0.027418512850999832,,,,,,,,,
1739401717.0547905,0.525492799801733,0.09600703288230138,-0.9531460036157928,-2.069084183921629,0.13773490046857867,2.1376026749914128,-1.2753576929589938,0.00020827546292620774,0.0008411264509157758,0.0011759294325446236,-0.000624407362016022,0.001063656287010389,0.00012815811777039325,-0.00010405153402617954,0.1935308277606964,-21.79654312133789,-2.38179087638855,22.56842803955078,0.6673074960708618,2.2679946422576904,-0.03382720425724983,,,,,,,,,
1739401717.0648434,0.5254944190951859,0.096006783902967,-0.953147865765223,-2.069078537879584,0.13773491753266118,2.137604172869254,-1.275358059453218,0.0006618348713258526,-0.0003472464162864249,-0.0002922287750976644,0.0007024048901614681,-9.181681006784562e-05,8.706203682231964e-06,0.0008191460504071044,0.1697271168231964,-21.79654312133789,-2.35798716545105,22.49304962158203,0.6673074960708618,2.2551772594451904,-0.027418512850999832,,,,,,,,,
1739401717.075763,0.525492728177452,0.0960052295905582,-0.9531477861837945,-2.0690802109589104,0.13773414232105444,2.137602002358041,-1.2753534038496783,0.0010115668765271692,-0.00019037327942490105,4.863139150553669e-05,-0.00038779764472124834,-0.0015179167370730484,-0.0009930652426862246,0.0015551713434826453,0.1935308277606964,-21.77273941040039,-2.35798716545105,22.51685333251953,0.6737161874771118,2.2615859508514404,-0.06678618490695953,,,,,,,,,
1739401717.0858076,0.5254925721715275,0.09600693006382648,-0.9531460035063262,-2.0690802446514396,0.137736131534831,2.137603454382957,-1.275358572131094,0.0006865417480334938,0.0011568569724947058,0.0002210954059224039,-0.0012331130720348261,0.00032170519867162216,0.00016202494691429449,0.0002969820604782161,0.1935308277606964,-21.79654312133789,-2.38179087638855,22.51685333251953,0.6608988046646118,2.2615859508514404,-0.020094294100999832,,,,,,,,,
1739401717.0967312,0.5254886353956577,0.09600488115233188,-0.9531505811219406,-2.0690793253473934,0.1377349394010641,2.1376034152089542,-1.2753597251562847,-0.00047301093734304,0.00028318102105603373,-0.0011712273811471216,0.00071279112778077,0.000378959847232858,-0.00040586909708188756,-0.001991235155049242,0.2173345386981964,-21.79654312133789,-2.3302161693573,22.51685333251953,0.6673074960708618,2.2615859508514404,-0.013685601763427258,,,,,,,,,
1739401717.1067522,0.5254893864923054,0.09601073164290089,-0.9531484937770573,-2.0690793152643843,0.13773369326233392,2.1376041728689588,-1.2753549321982416,-0.0008750145732027086,0.0005076216319980107,-0.0012113059707457403,0.0007720847378483748,-0.0003956930417231407,-0.00027795240949291726,0.00029005169453464577,0.2411382496356964,-21.84811782836914,-2.38179087638855,22.51685333251953,0.6865335702896118,2.2551772594451904,-0.05396880581974983,,,,,,,,,
1739401717.1176994,0.5254910990547587,0.09600859584603842,-0.9531476611012348,-2.069084990058363,0.13773054686441205,2.1376034152627157,-1.2753615558975806,0.00037983094099329967,0.0005847131580252185,0.0007262157212974598,0.00011635500655491889,-0.0018261941387966165,-3.538178616437857e-05,-0.0022690984873489656,0.2173345386981964,-21.84811782836914,-2.35798716545105,22.61603546142578,0.6801248788833618,2.2615859508514404,-0.0008682189509272575,,,,,,,,,
1739401717.127801,0.5254893869620174,0.09601220684891437,-0.9531480377907745,-2.069087647236369,0.1377358163722205,2.1376026619094532,-1.275354161461553,-0.00012605912316999973,-8.536294739047622e-06,0.00047643433983909114,-0.0006018924345711885,6.520306608670617e-05,0.00020179976790387337,0.0009542454899439833,0.2411382496356964,-21.87192153930664,-2.35798716545105,22.61603546142578,0.6608988046646118,2.2679946422576904,-0.06037749722599983,,,,,,,,,
1739401717.138828,0.5254893860979698,0.0960163894577883,-0.9531463478929791,-2.0690877493205955,0.13773520858451113,2.1376034152089542,-1.2753526857420134,-0.0017140942621283652,0.0019738029353861515,0.0013434809284789849,-0.0006511167596997741,-0.00015214766198080724,-0.00028233505071624407,0.002043572657956284,0.2411382496356964,-21.92349624633789,-2.38179087638855,22.61603546142578,0.6737161874771118,2.2615859508514404,-0.06678618490695953,,,,,,,,,
1739401717.149753,0.5254908340362094,0.09601615466190035,-0.9531462805173123,-2.0690859666453054,0.1377334242262555,2.137604930529037,-1.2753475984448954,-4.939508754029306e-05,0.0013192608816467257,-0.0002014584804563024,0.00048141679348738444,-0.000997636146001549,-0.0005357601808655925,0.0032204889671944258,0.2173345386981964,-21.92349624633789,-2.38179087638855,22.59223175048828,0.6801248788833618,2.2487685680389404,-0.08051909506320953,,,,,,,,,
1739401717.160773,0.5254945236586601,0.09601244025728747,-0.9531460035442285,-2.06908774050412,0.1377358321217097,2.1376034152088805,-1.2753563321042893,0.0008760424178781214,-0.0002356231465828834,0.0006386845306005207,-0.00031647904590925767,0.00023689335956434744,2.3158730187558866e-06,-0.00036521724129390167,0.1697271168231964,-21.87192153930664,-2.38179087638855,22.61603546142578,0.6865335702896118,2.2615859508514404,-0.05396880581974983,,,,,,,,,
1739401717.1707888,0.5254914621492633,0.09601444170661433,-0.9531470496489528,-2.06908714009627,0.13773262754262267,2.137602657548802,-1.2753611393237596,-0.0005444317158456544,-0.0006252214977822336,0.0008445237890474851,-0.00024075083022122778,-0.001260166976215383,-0.0004633946565437316,-0.0018672513987921225,0.2411382496356964,-21.89969253540039,-2.4095618724823,22.59223175048828,0.6865335702896118,2.2679946422576904,-0.013685601763427258,,,,,,,,,
1739401717.1817746,0.5254927762659359,0.0960135662111366,-0.953148107072208,-2.06908596665193,0.13773412925229678,2.1376041728689588,-1.2753528042620073,0.0007870856401809212,-0.00024480733496024925,-0.0007842191517766529,0.0004480110889080279,-5.799851846893076e-05,-6.473290292714729e-05,0.0006480992511204074,0.1935308277606964,-21.84811782836914,-2.35798716545105,22.59223175048828,0.6737161874771118,2.2551772594451904,-0.05396880581974983,,,,,,,,,
1739401717.192721,0.5254908576925411,0.0960068829432645,-0.9531462419267166,-2.0690887156855253,0.13773766498068318,2.1376045260816685,-1.2753549191036126,0.000480541528365201,-0.0009989640823726198,-0.00023517457219512312,-0.0016879665983771587,0.00038037866424233324,0.0006450769676130016,-0.00017652881105008388,0.2173345386981964,-21.82431411743164,-2.38179087638855,22.63983917236328,0.6801248788833618,2.2551772594451904,-0.05396880581974983,,,,,,,,,
1739401717.2027752,0.5254909930868584,0.09601244318709322,-0.953146006453803,-2.0690818745763453,0.13773783559674224,2.137603415214862,-1.275353405249385,-0.0006450590369522445,0.001616351827545136,6.117435871719662e-05,0.0015889340913173996,0.0015179279278700302,0.0002507930492042463,0.0011250901981371725,0.2173345386981964,-21.87192153930664,-2.38179087638855,22.54065704345703,0.6544901132583618,2.2615859508514404,-0.06678618490695953,,,,,,,,,
1739401717.2128053,0.5254910990529643,0.0960083072140266,-0.9531477993743636,-2.0690818632485892,0.13773490000508654,2.1376034152088805,-1.2753549191155755,0.00026208277549971427,-0.0009677712115441983,6.85764571399266e-05,0.0006087876449020776,-0.0008027524278783463,-0.0005319714817171527,0.001483131250985068,0.2173345386981964,-21.82431411743164,-2.35798716545105,22.54065704345703,0.6673074960708618,2.2615859508514404,-0.05396880581974983,,,,,,,,,
1739401717.223787,0.5254910990547589,0.09600901915439296,-0.9531464226964667,-2.0690818774232325,0.1377349526358915,2.1376034152088805,-1.275362984231939,0.0008017993590771562,0.0008023776097623343,-0.00035033114903207493,-0.00042341776537426596,0.0013816214194457587,-0.0004243118744763339,-0.002766530149222796,0.2173345386981964,-21.82431411743164,-2.4095618724823,22.54065704345703,0.6673074960708618,2.2615859508514404,-0.013685601763427258,,,,,,,,,
1739401717.234727,0.5254910876019941,0.09600046297850195,-0.9531460418214819,-2.0690774898065967,0.1377341428087976,2.137604930529037,-1.2753582341065828,0.000982876871759588,-0.001493107060366252,-0.0005357891629858085,0.000639585110004457,0.00026387908331571496,-8.769181196555489e-05,-0.0007015159361230559,0.2173345386981964,-21.74496841430664,-2.38179087638855,22.51685333251953,0.6737161874771118,2.2487685680389404,-0.027418512850999832,,,,,,,,,
1739401717.2467759,0.5254910858637257,0.09600893992889477,-0.9531509691678902,-2.069085966314385,0.13774050343519026,2.1376034152088805,-1.275355729895937,-2.644132269492052e-05,0.000624966714545459,-0.0016493107799250607,-0.0017817042381916357,0.0020517785876170993,-0.00020521113218448245,0.00020664219210991862,0.2173345386981964,-21.82431411743164,-2.35798716545105,22.59223175048828,0.6480814218521118,2.2615859508514404,-0.07411040365695953,,,,,,,,,
1739401717.257775,0.5254893865340028,0.09600690691856287,-0.9531460695017847,-2.0690819898567034,0.13773445677855128,2.1376026619094524,-1.275352503228766,-0.000275330698419551,0.000691450430513014,0.0016878655511535093,-6.440750335383007e-05,-1.5324843886328673e-06,-0.0005327833845565138,0.0018449431555869564,0.2411382496356964,-21.79654312133789,-2.4095618724823,22.54065704345703,0.6801248788833618,2.2679946422576904,-0.06678618490695953,,,,,,,,,
1739401717.268695,0.5254872054455447,0.09600702186344065,-0.9531480247593924,-2.0690802874876906,0.13773583017735858,2.137606594123293,-1.2753632185176207,-0.0010853150291747103,-0.0010573522150503058,-9.093016263957073e-05,0.0013459014483526762,9.470219317447956e-05,0.0007715045552215902,-0.0005095602973666886,0.2411382496356964,-21.79654312133789,-2.35798716545105,22.51685333251953,0.6865335702896118,2.2615859508514404,-0.013685601763427258,,,,,,,,,
1739401717.2787845,0.5254903836530683,0.09600830591191593,-0.9531498669583874,-2.069083954379449,0.1377349577281022,2.137600236509833,-1.275354219818887,0.0008853474016130312,-0.0003961991179000484,-0.00142721372044577,-1.5558172830890593e-06,0.00047775659555262205,-0.0010228429658197388,7.324312768380609e-05,0.2173345386981964,-21.82431411743164,-2.3302161693573,22.56842803955078,0.6673074960708618,2.2615859508514404,-0.06037749722599983,,,,,,,,,
1739401717.2888489,0.5254908249757445,0.09601001972269604,-0.9531480275453803,-2.069085889797061,0.13773414232193332,2.137603467321352,-1.275358057994007,0.0006914141303501387,-0.0005780923553509815,0.00033058034086990134,-0.00114584374913515,-0.0012139784791613685,-0.0005497161446584391,-0.0003804478322478494,0.2173345386981964,-21.84811782836914,-2.35798716545105,22.59223175048828,0.6737161874771118,2.2615859508514404,-0.027418512850999832,,,,,,,,,
1739401717.2997377,0.5254893865324805,0.09601073167512407,-0.9531441739101691,-2.069091326013621,0.137740297769186,2.1376041728692527,-1.2753545146681826,6.108619433927554e-05,-0.0005822751712330114,0.00015986171020114113,-0.0015487115864190795,0.0022785231378348787,-0.00016038942847311665,0.0003829487269990045,0.2411382496356964,-21.84811782836914,-2.4095618724823,22.66364288330078,0.6608988046646118,2.2551772594451904,-0.06037749722599983,,,,,,,,,
1739401717.3098009,0.5254887492794303,0.09601443921091493,-0.9531460035190372,-2.069085049237644,0.13773577928009692,2.1376034152088805,-1.2753597220897117,0.00023075259334074484,0.0007087990782140028,0.00024505503899467933,0.0009942334926033964,-0.0007538675574292279,-9.971808311389922e-05,-0.00011568044943296876,0.2411382496356964,-21.89969253540039,-2.38179087638855,22.59223175048828,0.6608988046646118,2.2615859508514404,-0.04023589566349983,,,,,,,,,
1739401717.3207552,0.5254910901142257,0.09601244419986876,-0.953147786219684,-2.0690859411337725,0.13773493947240584,2.1376035329464504,-1.2753589245602008,-0.000464783974155087,-0.0017258407474111536,-0.0008195012061581338,0.0009409283421856264,-0.00020365059273088617,0.00010257202933483645,-0.0004973768919092995,0.2173345386981964,-21.87192153930664,-2.35798716545105,22.59223175048828,0.6673074960708618,2.2615859508514404,-0.020094294100999832,,,,,,,,,
1739401717.3308437,0.5254910902242896,0.09601444214072735,-0.953148740184711,-2.069086043069315,0.13773565780429584,2.137604173032458,-1.27535805799303,-0.0003762931286407532,0.0005502727763744666,-0.0006166351334013507,8.961071484006827e-05,0.0005150976881783911,0.0006703202167653922,-0.0005955464174009262,0.2173345386981964,-21.89969253540039,-2.35798716545105,22.59223175048828,0.6608988046646118,2.2551772594451904,-0.027418512850999832,,,,,,,,,
1739401717.3426952,0.5254927762541692,0.09601244419987429,-0.9531442881202441,-2.069083900351385,0.13773734110355923,2.137604687264241,-1.2753612369074065,0.00034927392176369515,-0.00025035676674549395,0.0010037448522535275,0.0011437484979643921,0.0006995218234432713,0.001127293445627427,-0.0012664090002735208,0.1935308277606964,-21.87192153930664,-2.4333655834198,22.59223175048828,0.6737161874771118,2.2551772594451904,-0.027418512850999832,,,,,,,,,
1739401717.3527696,0.5254928115748919,0.09600975403707752,-0.9531446389015714,-2.069083470918446,0.1377364329069813,2.1376002363032036,-1.2753573023248423,0.0011310377596670724,-0.0013731223593844999,0.0009849320980735415,0.0008758514420177041,-0.0011748707168569275,-0.0008983350979103171,0.0008740767062070771,0.1935308277606964,-21.82431411743164,-2.4095618724823,22.56842803955078,0.6544901132583618,2.2615859508514404,-0.03382720425724983,,,,,,,,,
1739401717.3637693,0.5254910990547589,0.09600702121894164,-0.9531499319640158,-2.0690841831621083,0.1377349007033557,2.137604172862977,-1.2753501566812169,0.000331393558031116,-0.0011957383084967147,-0.000425939443909025,-0.0004979083043398563,-0.0003850378077674381,-0.00020316321558155626,0.00419897241224272,0.2173345386981964,-21.79654312133789,-2.35798716545105,22.56842803955078,0.6673074960708618,2.2551772594451904,-0.09425200521945953,,,,,,,,,
1739401717.3737984,0.5254913320770327,0.09600914711655589,-0.9531477866194109,-2.0690859666452646,0.13773324172397136,2.1376041728689583,-1.2753541658161236,0.00025276713399098366,0.0002461617786348902,-0.0009366530551816738,-0.0010344166647290175,-0.000995330279311283,-3.992479846425559e-06,-0.00024122556797763516,0.2173345386981964,-21.79654312133789,-2.35798716545105,22.59223175048828,0.6737161874771118,2.2551772594451904,-0.06037749722599983,,,,,,,,,
1739401717.3846977,0.5254928084880112,0.09600901917041267,-0.9531499319505596,-2.069082027194103,0.13773501893692452,2.1376041772296093,-1.2753549777421023,-0.00022648235457978021,0.001536830309687515,0.00026371567060248726,-6.736705836886734e-05,-0.0009333045222650117,0.00022663429224660853,0.0008686492612387754,0.1935308277606964,-21.82431411743164,-2.35798716545105,22.54065704345703,0.6673074960708618,2.2551772594451904,-0.05396880581974983,,,,,,,,,
1739401717.394736,0.525486513737304,0.09601073135360846,-0.9531488656678897,-2.069081990696098,0.13773486061320528,2.1376026972791995,-1.275358450451916,-0.0008828401839461389,6.769395961930727e-05,-8.32951955211443e-05,-3.252922102412733e-05,0.00033441528610906213,0.0009835713699967847,-0.00045931879592344023,0.2411382496356964,-21.84811782836914,-2.38179087638855,22.54065704345703,0.6673074960708618,2.2679946422576904,-0.027418512850999832,,,,,,,,,
1739401717.4057028,0.5254910990385419,0.09600699484924707,-0.9531491294913034,-2.0690841583528603,0.1377356576408898,2.1376049305292613,-1.2753602816250242,0.00012007113139371933,-0.00026533873091355136,-0.00038443062275646966,-0.00176300373627561,-0.00023932289782463932,-0.00027843275001180684,0.00020944067053710997,0.2173345386981964,-21.79654312133789,-2.38179087638855,22.56842803955078,0.6608988046646118,2.2487685680389404,-0.04756011441349983,,,,,,,,,
1739401717.415724,0.52549098916636,0.09600806989880782,-0.9531460074838506,-2.069081075177477,0.13773887007497437,2.137604930529037,-1.2753589375347034,0.0008863412392621688,2.2628408819112204e-05,0.0011639884301680083,0.0005468001191845093,0.00044688396759395865,3.398924605877096e-05,-0.0006194512723153905,0.2173345386981964,-21.82431411743164,-2.38179087638855,22.54065704345703,0.6608988046646118,2.2487685680389404,-0.020094294100999832,,,,,,,,,
1739401717.4257488,0.5254931696533927,0.09600607194232551,-0.9531487529396812,-2.069085856085383,0.13773885647811784,2.137603415693397,-1.2753597992882402,0.0005173332627576343,0.00017614424435260736,-0.0004305043215968434,-0.000652305512658062,-0.0005847190609156889,4.835505004740126e-05,-0.0022433060910645054,0.2173345386981964,-21.79654312133789,-2.35798716545105,22.59223175048828,0.6608988046646118,2.2615859508514404,-0.013685601763427258,,,,,,,,,
1739401717.436734,0.5254889431607226,0.09600690956561539,-0.9531439266653672,-2.069084182672926,0.1377360058052738,2.137604177229612,-1.2753596859117546,-0.00012385127824108161,-0.0005839498803068457,0.0016648461768120665,-0.001264133521019577,8.625908507074577e-06,-0.00011087138510714839,0.0006917406324772519,0.2173345386981964,-21.82431411743164,-2.4095618724823,22.56842803955078,0.6673074960708618,2.2551772594451904,-0.013685601763427258,,,,,,,,,
1739401717.447779,0.5254893860857924,0.0960124500067089,-0.9531440301163652,-2.069083953400217,0.13773490437518093,2.137604945064564,-1.2753622743774278,0.00019409854584074513,0.0006748892868904324,-7.89176330396144e-05,0.0015452755419670765,-0.0003893700539095457,0.000888367057362702,-0.0007372488294767831,0.2411382496356964,-21.87192153930664,-2.4095618724823,22.56842803955078,0.6673074960708618,2.2487685680389404,-0.020094294100999832,,,,,,,,,
1739401717.4587305,0.525491062279935,0.0960144771349823,-0.9531460035069267,-2.0690877493210227,0.13773426101109656,2.1376041772296914,-1.2753546852369917,0.00025765287968066304,0.0015949030213005802,0.0008290094005700495,-0.0009754349955985806,-0.0015110131711243181,-0.00016439972750195025,0.00022814607837710497,0.2173345386981964,-21.89969253540039,-2.38179087638855,22.61603546142578,0.6737161874771118,2.2551772594451904,-0.06037749722599983,,,,,,,,,
1739401717.468754,0.5254865255104556,0.09601244420046691,-0.9531439237164706,-2.0690823877957643,0.13773596819409128,2.137603768421664,-1.275363700194966,-0.0009590371487911152,0.00011318505551019336,0.0014209849236398878,0.0025018065804933366,0.00026689294436183566,0.0003223557890840834,-0.0014447402045489062,0.2411382496356964,-21.87192153930664,-2.4095618724823,22.51685333251953,0.6673074960708618,2.2615859508514404,0.019273381680250168,,,,,,,,,
1739401717.479815,0.5254878935969283,0.09601444214072735,-0.9531498664092658,-2.0690877610216094,0.13773928350396414,2.137602657550796,-1.2753585191997996,-0.0007629368527923119,0.00020222551747752025,-8.907224894012648e-05,-0.0005685044008129761,0.002181272204083659,-0.0006099010689120713,-0.00019899884370871122,0.2173345386981964,-21.89969253540039,-2.3302161693573,22.61603546142578,0.6673074960708618,2.2679946422576904,-0.06037749722599983,,,,,,,,,
1739401717.4906974,0.5254942859443497,0.09601251024102124,-0.9531439246976243,-2.0690875197342615,0.13773414239519072,2.1376041728689588,-1.2753576536194486,0.001707135038880759,-0.00016593781913146934,0.0006342222955045456,-0.000436317083477145,0.00135499194082819,0.00033873556846219946,0.00014819345578616513,0.1697271168231964,-21.87192153930664,-2.4095618724823,22.61603546142578,0.6737161874771118,2.2551772594451904,-0.03382720425724983,,,,,,,,,
1739401717.5007846,0.5254910990534144,0.09601244808849399,-0.9531456801525686,-2.0690859666440096,0.13773326616052523,2.1376065868555174,-1.275361134133646,0.0007929033304698057,0.00032246416132274407,-0.0003959508857035311,-0.0009440877759826945,-0.0007047817503636967,0.0009140811388514002,-0.00036301851084080954,0.2173345386981964,-21.87192153930664,-2.35798716545105,22.59223175048828,0.6544901132583618,2.2615859508514404,-0.013685601763427258,,,,,,,,,
1739401717.5107865,0.5254893865340275,0.09601727667292088,-0.9531477860763478,-2.069084183968286,0.13773431767715466,2.1376041730300948,-1.2753596679380037,0.00012142018922582935,0.002027562639330183,0.00024978130675455305,0.00030680887674279424,-0.0009881105893650476,-0.00027140661017895236,-0.0006751741876623026,0.2411382496356964,-21.89969253540039,-2.35798716545105,22.56842803955078,0.6737161874771118,2.2551772594451904,-0.05396880581974983,,,,,,,,,
1739401717.5217783,0.5254893865340277,0.09600901905523401,-0.9531477950136628,-2.0690785400841363,0.137735657803957,2.137602657548802,-1.2753556898665175,-0.0008467213655503883,-0.0006002280982685484,0.00019810019599288175,0.0012400668795432732,-0.0011192323667632417,-0.0006257292485830403,0.0006852173479705243,0.2411382496356964,-21.82431411743164,-2.35798716545105,22.49304962158203,0.6608988046646118,2.2679946422576904,-0.04756011441349983,,,,,,,,,
1739401717.5318017,0.5254920949025413,0.0960070212175571,-0.953148501439232,-2.069085966645327,0.1377356576411148,2.1376049697748933,-1.275355683074569,0.0005751276471859194,-0.001242660526794872,-0.0013038423803308549,-0.0014293519584315855,-0.0002911327641985864,0.0002855505920228538,0.0018579033491966785,0.1935308277606964,-21.79654312133789,-2.35798716545105,22.59223175048828,0.6608988046646118,2.2487685680389404,-0.04756011441349983,,,,,,,,,
1739401717.5427845,0.5254920958796421,0.09600530673907716,-0.9531516486542574,-2.069081411669409,0.13773505799977837,2.137604930529258,-1.2753536019512535,0.0006584959719240656,-0.0004983234801856613,-0.0004865428845796623,0.0002593201214593621,0.0008957524208549491,0.0003553999816057592,0.0008037400055448938,0.1935308277606964,-21.77273941040039,-2.3064124584198,22.54065704345703,0.6673074960708618,2.2487685680389404,-0.07411040365695953,,,,,,,,,
1739401717.5537646,0.5254871501624752,0.09600702121752568,-0.9531498698977865,-2.0690804235289115,0.13773482015848432,2.1376041728689588,-1.275363333979717,-0.0026021998155456617,0.0005069338021591721,-0.0005891091155999948,-0.00082494170708396,0.00013212603769541774,-0.00011114695644174977,-0.001734180256858178,0.2689092457294464,-21.79654312133789,-2.3302161693573,22.51685333251953,0.6801248788833618,2.2551772594451904,-0.020094294100999832,,,,,,,,,
1739401717.564722,0.5254882377043122,0.09600901915841191,-0.953149983868246,-2.069080320510139,0.13773493954710697,2.1376041903115617,-1.275355716675807,-0.00025475909969560666,0.0005365982488347089,-0.000689198422265286,0.0003844594933382103,-0.0010895242045296624,0.0001529778122287817,0.00023614516057009384,0.2173345386981964,-21.82431411743164,-2.3302161693573,22.51685333251953,0.6673074960708618,2.2551772594451904,-0.04756011441349983,,,,,,,,,
1739401717.5757492,0.5254901450372412,0.09600742580638798,-0.9531498663372538,-2.0690821041784253,0.13773350898506986,2.137601244698061,-1.275355081967239,-0.0003003231472633066,-0.00037133768874111916,-0.0007577461563015409,-0.0004849475872201434,7.709721246983414e-05,-0.001607166644262041,0.0008009830363219097,0.2173345386981964,-21.77273941040039,-2.3302161693573,22.54065704345703,0.6801248788833618,2.2679946422576904,-0.05396880581974983,,,,,,,,,
1739401717.585806,0.5254910686230636,0.09600901517933749,-0.9531457067525387,-2.0690859666453054,0.13773809941580206,2.137602657524875,-1.2753611867686556,0.00014776888858276634,-0.000577019346225511,0.0011667773920652753,-0.00025668479890593167,-0.00035441891788606783,-0.0008639451051871331,-0.0022797045139565084,0.2173345386981964,-21.82431411743164,-2.35798716545105,22.59223175048828,0.6673074960708618,2.2679946422576904,-0.04023589566349983,,,,,,,,,
1739401717.5966964,0.5254865255109066,0.09601073178712749,-0.9531460035309264,-2.069083491109336,0.13773614682930124,2.1376034152088805,-1.2753568288051447,-0.00023230216894079255,-2.765936732061498e-06,0.00032748781575719314,0.0005659072764617416,0.0008983926776824306,-0.0003767019748939428,0.0003671960239470806,0.2411382496356964,-21.84811782836914,-2.38179087638855,22.56842803955078,0.6608988046646118,2.2615859508514404,-0.07411040365695953,,,,,,,,,
1739401717.6068366,0.5254869139966075,0.09601244419987612,-0.9531460035063265,-2.069085966633572,0.13773489998931815,2.1376034152088805,-1.2753628605374943,-0.0003082924773116304,-0.0004879523586971801,0.0004777663395818314,-0.0007021413227032657,-0.0022001793620017576,-0.0005054717832332474,-6.458436429974284e-05,0.2411382496356964,-21.87192153930664,-2.38179087638855,22.59223175048828,0.6673074960708618,2.2615859508514404,-0.013685601763427258,,,,,,,,,
1739401717.6177638,0.5254891451580518,0.09601072288970644,-0.9531441709653674,-2.0690909095289114,0.13773465635587756,2.137602657548802,-1.2753636333198972,-0.00019094795486113408,-0.0005622315171306603,0.0002598533115492754,-0.001515179000741853,-0.0007909245472667277,-0.0004495457294079084,-0.0014189594757861236,0.2411382496356964,-21.84811782836914,-2.4095618724823,22.63983917236328,0.6737161874771118,2.2679946422576904,0.0064559997990727425,,,,,,,,,
1739401717.6278355,0.5254910637212247,0.09601318199427854,-0.9531439237290321,-2.0690884381570944,0.13773617984152658,2.1376034152088805,-1.2753525554209977,0.00034483127207674506,0.0009974329701281275,0.0012753659753452847,-0.0009031348960297288,4.8525034646110064e-05,0.0002521348124398585,0.0025330240563210355,0.2173345386981964,-21.87192153930664,-2.4095618724823,22.61603546142578,0.6608988046646118,2.2615859508514404,-0.07411040365695953,,,,,,,,,
1739401717.6387208,0.5254873079816341,0.09600909771527454,-0.9531460035063262,-2.069087825853041,0.13773489998201632,2.1376034152088805,-1.2753581505731215,-0.0007394230134962125,-0.0006988934099551652,-0.00011898432357079387,-0.0004178103222940647,-0.0010785776410885753,-0.0002046951713411299,0.0010398563245566633,0.2689092457294464,-21.82431411743164,-2.38179087638855,22.61603546142578,0.6673074960708618,2.2615859508514404,-0.05396880581974983,,,,,,,,,
1739401717.6497297,0.5254907546719118,0.09601616729870444,-0.9531488645292754,-2.0690877493227564,0.13773599140703552,2.1376068967473416,-1.2753578008574058,0.000497008745868805,0.001149588151386412,-0.0010252338886247011,-0.0003227203918769397,-0.0004995544435392208,0.0004965852590086601,0.00018755529066758923,0.2173345386981964,-21.92349624633789,-2.38179087638855,22.61603546142578,0.6608988046646118,2.2679946422576904,-0.06678618490695953,,,,,,,,,
1739401717.659784,0.52549257282403,0.09601444214094136,-0.9531477862317969,-2.069090504381461,0.13773501894766077,2.137602659074143,-1.2753588707097234,-0.00014785136854747163,0.0010070231204034057,0.0002127869995425811,-0.0013737600999252722,0.0006443176279819625,-0.00024584050756810516,3.2117577888305586e-05,0.1935308277606964,-21.89969253540039,-2.35798716545105,22.61603546142578,0.6673074960708618,2.2679946422576904,-0.06037749722599983,,,,,,,,,
1739401717.6707745,0.5254910862958121,0.09601079869689412,-0.9531480256920878,-2.069082104225088,0.1377387803383491,2.1376034152089063,-1.2753589291800314,0.000403544882383441,-0.00047821339186837874,7.663295414221273e-05,-5.7644945088371744e-05,0.0025802889379024645,0.0001244906654501912,-0.002632356683601046,0.2173345386981964,-21.84811782836914,-2.35798716545105,22.54065704345703,0.6737161874771118,2.2615859508514404,-0.06037749722599983,,,,,,,,,
1739401717.6817908,0.5254886610426257,0.096009019158538,-0.9531477861837959,-2.0690862502276457,0.13773338661978418,2.1376034282908325,-1.2753589694437966,-0.0007717239289733586,0.00010308176555748982,-0.00010096350410736612,-0.0010908319039034144,-0.0017130196704624443,0.00025541076282524494,0.00024746431689129226,0.2411382496356964,-21.82431411743164,-2.35798716545105,22.56842803955078,0.6801248788833618,2.2615859508514404,-0.020094294100999832,,,,,,,,,
1739401717.692864,0.5254909887261997,0.09601244419987429,-0.9531483773240609,-2.069086552962612,0.13773340367514222,2.1376017916516434,-1.2753561870258583,-0.00047152216495827256,0.0017439291294911433,-0.0003701595890888099,-0.001311233918176454,-0.0015231901466981556,-4.298160876302641e-06,0.0009080289347370668,0.2173345386981964,-21.87192153930664,-2.35798716545105,22.59223175048828,0.6801248788833618,2.2753188610076904,-0.04756011441349983,,,,,,,,,
1739401717.7036889,0.5254921018207345,0.09600530869682765,-0.9531442445546856,-2.069085856106119,0.1377349001978277,2.1376034152088805,-1.2753633883217879,0.0012183973757510685,-0.0008180474695096802,0.0021678704744941585,-0.0004063285957230507,-0.0015576393451045807,2.347488217316381e-05,-0.003185227426823891,0.1697271168231964,-21.77273941040039,-2.4095618724823,22.59223175048828,0.6673074960708618,2.2615859508514404,-0.013685601763427258,,,,,,,,,
1739401717.714765,0.5254893850757947,0.09600530869682765,-0.9531477861887786,-2.069080035047784,0.13773521345727646,2.1376041728689588,-1.2753585302607282,-0.00021152421023507993,-0.00042479489089565113,0.0006427528515691255,0.0007073727376214008,0.00036013574413535135,0.00017627324642189896,-0.00011692860135232848,0.2411382496356964,-21.77273941040039,-2.35798716545105,22.54065704345703,0.6737161874771118,2.2551772594451904,-0.03382720425724983,,,,,,,,,
1739401717.7256856,0.5254910598088994,0.09601073157063153,-0.9531439241168698,-2.069080312982585,0.1377370851748242,2.1376026577103073,-1.2753597216433994,-0.00037320757527113397,0.001897724751430061,0.0013089765776501442,0.0009641755724143423,0.0006719622106424317,-0.0006536722757635323,-0.001065904080594295,0.2173345386981964,-21.84811782836914,-2.4095618724823,22.51685333251953,0.6608988046646118,2.2679946422576904,-0.04023589566349983,,,,,,,,,
1739401717.7357702,0.5254906389896115,0.0960091066439655,-0.9531470231580056,-2.0690820786684796,0.13773496433078228,2.137604828059722,-1.275356529041014,0.0008834920918196206,0.0002534396959317866,-1.7659443943500723e-05,0.0006588201785471428,-0.00012018891538247069,-4.567214148737194e-06,0.0008038153750067115,0.1935308277606964,-21.82431411743164,-2.4095618724823,22.54065704345703,0.6801248788833618,2.2615859508514404,-0.08051909506320953,,,,,,,,,
1739401717.7468262,0.5254886175596839,0.09600901915890576,-0.9531478169434293,-2.069084174100151,0.13773738060361884,2.1376049305370124,-1.275359595068458,-0.0002761157279701789,7.791606716405923e-05,5.722312112734846e-05,-0.001646951348105376,-0.0012389209497836993,-0.000306966481569724,0.0005092160639820734,0.2173345386981964,-21.82431411743164,-2.35798716545105,22.56842803955078,0.6737161874771118,2.2487685680389404,-0.027418512850999832,,,,,,,,,
1739401717.7577295,0.5254889519373274,0.09601075792480973,-0.9531421411489887,-2.0690821029185202,0.13773647012358356,2.137603717186931,-1.2753546476133077,0.0004940780318771528,5.6914132301687215e-05,0.0016692771360453395,0.0005656445761325088,-4.598184492471608e-05,-0.0008425552527237311,0.0020439026631674856,0.2173345386981964,-21.84811782836914,-2.4333655834198,22.54065704345703,0.6544901132583618,2.2679946422576904,-0.06037749722599983,,,,,,,,,
1739401717.768731,0.5254884325286222,0.09601440698303015,-0.9531460036516813,-2.0690821806961845,0.1377349058316766,2.1376042906085226,-1.2753573005671408,-0.0009447645067947293,0.00035454387651095173,0.0004942508963294972,0.0011768178260965904,-0.0010031655277663379,-0.0004905671189629246,-0.0003125871886300031,0.2411382496356964,-21.89969253540039,-2.38179087638855,22.54065704345703,0.6673074960708618,2.2551772594451904,-0.03382720425724983,,,,,,,,,
1739401717.7798073,0.5254908596388771,0.09601073167854769,-0.9531463567190384,-2.06908774932362,0.1377349014437677,2.1376034152108745,-1.2753572117246932,0.001067310939924154,-0.0014237473580255712,-0.0006837878168465719,0.00040016334274694675,-0.00150278596173057,-6.646405928020277e-05,0.00016662362501284684,0.2173345386981964,-21.84811782836914,-2.38179087638855,22.61603546142578,0.6673074960708618,2.2615859508514404,-0.04756011441349983,,,,,,,,,
1739401717.7907715,0.5254910951297227,0.0960144422487342,-0.9531487398583263,-2.0690841839682865,0.1377371188134149,2.1376041728689588,-1.275360484973321,0.00046762232304706404,-0.00029231203043208527,-0.001545708800775542,0.0008001770525945066,0.0005066468656879328,-0.0007592422678000813,-0.0006390234594648248,0.2173345386981964,-21.89969253540039,-2.35798716545105,22.56842803955078,0.6608988046646118,2.2551772594451904,-0.0072769103571772575,,,,,,,,,
1739401717.8017046,0.5254882115044955,0.09601475719673437,-0.9531460330551184,-2.069085966645306,0.13773569714050365,2.1376017916515697,-1.275357606887241,-0.0003840533116538551,0.001753539704147118,-0.001225323331682562,0.0004992346281700841,0.000887981940008196,-0.0002476118512069053,0.002212320448469581,0.2173345386981964,-21.89969253540039,-2.38179087638855,22.59223175048828,0.6608988046646118,2.2753188610076904,-0.04023589566349983,,,,,,,,,
1739401717.811787,0.5254873884352574,0.0960090191637474,-0.9531439237169709,-2.069088032939658,0.13773565764178097,2.1376041728689588,-1.2753615426346827,-0.0008966392546473492,-0.0022103683248317018,8.31360613952406e-05,-0.00045695721399188055,-8.083366294888138e-05,0.0004854151276656893,-0.0016879790146944744,0.2689092457294464,-21.82431411743164,-2.4095618724823,22.59223175048828,0.6608988046646118,2.2551772594451904,-0.0072769103571772575,,,,,,,,,
1739401717.8227787,0.5254920874894323,0.09600772985055793,-0.9531477904349797,-2.0690821042134235,0.1377356971322553,2.1376044750085152,-1.2753580797401807,0.0011952833438631531,-0.001533234669276829,-0.0009913676404820532,0.0008288281081266025,-0.00022503495969659448,-0.00014642507849709304,-0.0008413921753973718,0.1935308277606964,-21.79654312133789,-2.35798716545105,22.54065704345703,0.6608988046646118,2.2615859508514404,-0.04023589566349983,,,,,,,,,
1739401717.8328145,0.5254928115714026,0.09600972486559893,-0.9531477861833693,-2.0690841839682865,0.13773661324770275,2.137606594129251,-1.2753620091072952,0.0009085873666430924,-7.998009304644674e-06,-0.0002345607229452118,-0.0006834851390012809,-0.00037511280950721195,8.778853400888691e-05,-0.0029860994371435894,0.1935308277606964,-21.82431411743164,-2.35798716545105,22.56842803955078,0.6544901132583618,2.2615859508514404,-0.0072769103571772575,,,,,,,,,
1739401717.844752,0.5254925721757645,0.09601081042012671,-0.9531497879720606,-2.0690814154136468,0.13773262748946108,2.1376045260996133,-1.2753557947374023,0.0011104502316283773,0.0005828663998294973,-0.0011978037956051335,0.00048124534092090207,-0.0030363275468994525,0.0004988819921087847,0.0018171684497995458,0.1935308277606964,-21.84811782836914,-2.3302161693573,22.54065704345703,0.6865335702896118,2.2551772594451904,-0.04756011441349983,,,,,,,,,
1739401717.854783,0.5254893865326762,0.09600325789715591,-0.9531499454456202,-2.069082092836851,0.13773764685499046,2.1376041728709527,-1.2753560304735219,0.00016460937995490296,-0.0014948125333293948,-0.0008102724101757021,0.0007116251722174745,0.00023000700984065266,0.00044527427330225177,-0.00043126742641720893,0.2411382496356964,-21.74496841430664,-2.3302161693573,22.54065704345703,0.6480814218521118,2.2551772594451904,-0.04756011441349983,,,,,,,,,
1739401717.8657217,0.5254910724547893,0.09600901926612038,-0.9531481531985723,-2.069080321501348,0.1377357766047619,2.1376041728689588,-1.275358071561484,0.0005188446663247084,0.0005312853575883549,5.910116230969493e-06,0.00025207350071160966,-0.0007819412523862325,4.353637180169818e-05,0.0016083444676415046,0.2173345386981964,-21.82431411743164,-2.38179087638855,22.51685333251953,0.6608988046646118,2.2551772594451904,-0.027418512850999832,,,,,,,,,
1739401717.8767068,0.5254872377868876,0.09600901915841252,-0.9531498660943521,-2.0690785133145857,0.1377344509224162,2.1376034152088805,-1.2753576423484287,-0.0010490256094048966,0.00028913568194933884,0.0001805100491304095,0.0010271499871985922,8.678867499884233e-05,-0.0004459703428841995,0.0016860542992301042,0.2411382496356964,-21.82431411743164,-2.3302161693573,22.49304962158203,0.6801248788833618,2.2615859508514404,-0.06678618490695953,,,,,,,,,
1739401717.886756,0.5254928344870253,0.0960074420422414,-0.9531488281608411,-2.0690859088717053,0.1377352502037184,2.137604645757305,-1.275354923547982,0.00044149727967452107,5.2651422674547565e-05,-0.0019248925228360927,-0.0012648201977338326,-0.0002906871063457183,0.001320124045503559,0.0010741556326843756,0.1935308277606964,-21.77273941040039,-2.35798716545105,22.56842803955078,0.6737161874771118,2.2551772594451904,-0.05396880581974983,,,,,,,,,
1739401717.897799,0.5254871318596929,0.09601073266324761,-0.9531463567249179,-2.0690855809984825,0.1377346095968033,2.1376041735176505,-1.275363926563205,-0.0010463869018496196,0.0005818618448196316,-0.0002200425366435547,-0.000397460850898853,-0.0011533725201907478,-0.00012764361096013362,-0.0005297238585762641,0.2411382496356964,-21.84811782836914,-2.38179087638855,22.61603546142578,0.6801248788833618,2.2551772594451904,-0.013685601763427258,,,,,,,,,
1739401717.908753,0.5254892795508851,0.09601073167915974,-0.9531498757906467,-2.0690811857886646,0.13773490146441303,2.137603415208891,-1.2753611482379532,-0.0006018342309630217,0.00046227153934381266,-0.0009761585442245955,0.0021888458821192687,-0.0012478502801164266,-0.00027312234455699306,0.00025885551110983924,0.2411382496356964,-21.84811782836914,-2.3302161693573,22.54065704345703,0.6673074960708618,2.2615859508514404,-0.04023589566349983,,,,,,,,,
1739401717.918824,0.5254945201710316,0.09601244419987429,-0.9531460402812028,-2.0690814154084625,0.13773532705526112,2.1376041772296093,-1.2753611407628054,0.0017520584215920344,0.00023049383725534775,-0.0005544305108976298,0.0010549426186764286,-9.088016758690008e-06,-7.809884204377317e-05,-0.0010284636538955183,0.1697271168231964,-21.87192153930664,-2.38179087638855,22.54065704345703,0.6737161874771118,2.2551772594451904,-0.04023589566349983,,,,,,,,,
1739401717.9297562,0.5254864339373907,0.09601244419987429,-0.9531462684160661,-2.069084107434978,0.1377361710326621,2.1376034544547617,-1.275360439774826,-0.0015501652944531232,0.00039882645018242516,-0.0008487129957882112,-0.00028067530768851787,0.001750735731468126,-4.5172534388449914e-05,-0.0006151894350976747,0.2411382496356964,-21.87192153930664,-2.38179087638855,22.56842803955078,0.6608988046646118,2.2615859508514404,-0.0072769103571772575,,,,,,,,,
1739401717.9398458,0.5254910996406846,0.09601445380546807,-0.9531478531419897,-2.0690841839669902,0.13773489998972804,2.137602657549466,-1.2753615584276425,-4.863301468784054e-05,0.001406050945941038,-0.00030531220086126075,0.0005390701647943585,-0.001733113154723686,-0.000752498162802831,0.0003479603515031636,0.2173345386981964,-21.89969253540039,-2.35798716545105,22.56842803955078,0.6673074960708618,2.2679946422576904,-0.03382720425724983,,,,,,,,,
1739401717.950766,0.5254911767288534,0.0960124442359424,-0.9531439276414342,-2.0690876727929037,0.13773414297101538,2.1376041728689588,-1.2753642796922564,0.0004582605604653729,0.0005019030161479832,0.0013662366888795756,-0.001392661567362432,-0.0006347869124705118,0.0005770675878321971,-0.00190510964844484,0.2173345386981964,-21.87192153930664,-2.4095618724823,22.61603546142578,0.6737161874771118,2.2551772594451904,-0.013685601763427258,,,,,,,,,
1739401717.9618242,0.5254924936844897,0.09601244289773572,-0.9531488222739828,-2.0690856605621843,0.13773614486106409,2.137602657548802,-1.275359401165205,0.00011447529194785191,5.114530732851848e-05,-0.0008791349739970041,0.0008352371417567805,0.0004744614392079945,-0.00085349691209982,-0.0004290948784919235,0.1935308277606964,-21.87192153930664,-2.35798716545105,22.59223175048828,0.6608988046646118,2.2679946422576904,-0.020094294100999832,,,,,,,,,
1739401717.9727447,0.5254889532857524,0.09601515952227453,-0.9531461094759878,-2.069084183966558,0.13773505859841703,2.137602657548802,-1.275360079809327,-0.0006808997317459737,0.0009914296263751922,0.0007874796761362967,0.0001272372758988535,1.2331560619674653e-05,-0.0007952942047369034,0.0006932870223284672,0.2173345386981964,-21.89969253540039,-2.38179087638855,22.56842803955078,0.6673074960708618,2.2679946422576904,-0.04023589566349983,,,,,,,,,
1739401717.982754,0.5254893746512542,0.09601076670981201,-0.9531460388329809,-2.0690841754650173,0.13773641969715378,2.1376041728689588,-1.2753623534137006,-0.0002664538446037237,0.00012794353085667675,0.0005592112662751015,0.0006172120906092242,-0.0013440777329157172,-0.0003568687344296054,-0.00023132054185958208,0.2411382496356964,-21.84811782836914,-2.38179087638855,22.56842803955078,0.6544901132583618,2.2551772594451904,-0.027418512850999832,,,,,,,,,
1739401717.9927619,0.5254908606361127,0.09600901915860965,-0.9531477861835447,-2.069081428909102,0.1377363216622154,2.137604227383067,-1.2753615439163783,0.0002821619590233372,-0.0004534616491959626,-0.0002805749221661759,0.0011543802579482576,-0.0005573224959909764,0.0004609000372298203,8.687144709863782e-05,0.2173345386981964,-21.82431411743164,-2.35798716545105,22.56842803955078,0.6673074960708618,2.2679946422576904,-0.03382720425724983,,,,,,,,,
1739401718.0037045,0.5254912986985393,0.09601073167914309,-0.95314786580156,-2.069082103218071,0.13773520929408006,2.137606648398006,-1.2753570956799656,0.0008158634643943764,0.00032571201363961464,-0.0013194425041409214,0.0001541107113170875,-0.0013833105003767884,0.00015304978997183075,-8.259275650260966e-05,0.2173345386981964,-21.84811782836914,-2.35798716545105,22.54065704345703,0.6737161874771118,2.2615859508514404,-0.04756011441349983,,,,,,,,,
1739401718.0137575,0.5254910961147006,0.09601097080632794,-0.9531469954467011,-2.0690859323172774,0.13773810073188586,2.1376034154251404,-1.2753523079012927,0.0007345529268755432,0.0006535881897589554,-0.0008778510420192913,-0.0005243083660841368,0.0002493457575897183,-0.00020459031656228853,0.0029866827436422333,0.2173345386981964,-21.84811782836914,-2.38179087638855,22.59223175048828,0.6673074960708618,2.2615859508514404,-0.08051909506320953,,,,,,,,,
1739401718.0237799,0.5254920168468432,0.09600702122160848,-0.9531441974731192,-2.0690838778500233,0.13773532727197274,2.1376026575488054,-1.2753592114583634,0.000818137081560779,0.000225073180059897,0.0011863700201961201,0.00015474119683740652,-0.00046622121528695976,-0.0009614864266111624,0.0004484751660708031,0.1935308277606964,-21.79654312133789,-2.4095618724823,22.56842803955078,0.6737161874771118,2.2679946422576904,-0.05396880581974983,,,,,,,,,
1739401718.0338135,0.5254910990413001,0.09601073070253908,-0.9531453848981468,-2.069084181128679,0.13773556548481442,2.137605102047966,-1.275361642682122,0.0007302066968685212,0.0011033410928800503,0.001328159748564966,-0.00018177937184096483,-0.0005689606947222135,0.0001866393992118757,-0.0007026617327204763,0.2173345386981964,-21.84811782836914,-2.38179087638855,22.56842803955078,0.6737161874771118,2.2487685680389404,-0.027418512850999832,,,,,,,,,
1739401718.044769,0.5254827238028774,0.0960070217555688,-0.9531491032714112,-2.0690818745901534,0.1377354310880639,2.137602697280143,-1.2753609576635465,-0.0017098144058430823,-0.0010608564909251885,2.1764535450061856e-05,0.0016900380964895378,0.0021913816793103958,0.00012762887933255663,-0.003011439121639137,0.2927129566669464,-21.79654312133789,-2.38179087638855,22.54065704345703,0.6673074960708618,2.2679946422576904,-0.04023589566349983,,,,,,,,,
1739401718.0548272,0.5254928105443467,0.09600702229763654,-0.9531488763555271,-2.0690877493184363,0.13773957765906533,2.137603433136673,-1.2753596700385457,0.0006000902040374778,-0.0006760513404459385,-7.969240403754574e-05,-0.0013878202383410016,0.002468035221898047,-9.722684370564787e-05,-0.0018780027800235416,0.1935308277606964,-21.79654312133789,-2.38179087638855,22.61603546142578,0.6673074960708618,2.2615859508514404,-0.05396880581974983,,,,,,,,,
1739401718.065764,0.5254928076508986,0.09601073167914918,-0.9531449040069738,-2.069082104073452,0.13773339801351206,2.137604828113656,-1.2753567200167875,0.0006044205511757743,0.0005910575992920543,5.360968478221491e-05,0.0004184314185017075,-0.001782264545045454,0.001338612760754352,0.0022205258724561304,0.1935308277606964,-21.84811782836914,-2.4095618724823,22.54065704345703,0.6801248788833618,2.2615859508514404,-0.06678618490695953,,,,,,,,,
1739401718.0776799,0.5254910990547367,0.09601247044554091,-0.9531477891323182,-2.0690803213964326,0.13773719779577404,2.1376042140608584,-1.2753654924008149,8.1641389225491e-05,-7.615900552022101e-05,-0.0006356784646236176,0.0010092280391688607,0.0005434888332533812,0.0001733062131081566,-0.0015285813137503018,0.2173345386981964,-21.87192153930664,-2.35798716545105,22.51685333251953,0.6608988046646118,2.2551772594451904,-0.0008682189509272575,,,,,,,,,
1739401718.087768,0.5254891447359442,0.09600912414122657,-0.9531439237164872,-2.069081874590169,0.13773430533218733,2.1376041729230266,-1.275360800199616,-0.0007062822453593549,-0.00036505517977593837,0.0020911291435888185,0.0007691263611597083,0.0004135220531271047,2.6245841536667327e-05,-0.00034605643184816413,0.2411382496356964,-21.82431411743164,-2.4095618724823,22.54065704345703,0.6737161874771118,2.2551772594451904,-0.04023589566349983,,,,,,,,,
1739401718.0997462,0.5254893067327542,0.09601444228532913,-0.9531457695029059,-2.069085966783981,0.13773608493293796,2.1376034152088805,-1.2753564562420525,-0.0001717931006249547,0.0004149833597166127,0.00039395900248067445,-0.00032953910879058554,0.0005499765498302256,-0.0006583599079493663,-0.0004357836056490355,0.2411382496356964,-21.89969253540039,-2.38179087638855,22.59223175048828,0.6673074960708618,2.2615859508514404,-0.05396880581974983,,,,,,,,,
1739401718.1107926,0.5254928065969303,0.09601285746962877,-0.9531481493094365,-2.069084158353501,0.13773653962738958,2.1376035329464504,-1.2753626897068522,0.0012611813006919359,-0.00015272024970984797,0.00015054841884891407,0.0008783836451353615,-0.0019121065357036709,-0.00045904213365621495,0.00017130091980840781,0.1935308277606964,-21.84811782836914,-2.38179087638855,22.56842803955078,0.6544901132583618,2.2615859508514404,-0.027418512850999832,,,,,,,,,
1739401718.1227653,0.5254910725637775,0.09601073334119194,-0.9531460300093925,-2.0690877505819234,0.13773571473874802,2.137602657549466,-1.2753571081140302,0.0008730744517612921,-0.001072616272215999,0.00048622599877622054,-0.0003707363600022341,0.0007759425629600373,-0.0006325057495703372,-4.63579638815345e-05,0.2173345386981964,-21.84811782836914,-2.38179087638855,22.61603546142578,0.6608988046646118,2.2679946422576904,-0.06678618490695953,,,,,,,,,
1739401718.1337788,0.5254873884477698,0.09601256084728466,-0.9531485014391323,-2.0690861962452334,0.13774037246626797,2.1376034152268253,-1.2753615947210233,-0.00019572414678314574,0.0015561664344342608,3.1978171336021676e-05,-0.0004706038766579022,0.0012991438515241155,0.0004161632936552101,4.519356070251492e-05,0.2689092457294464,-21.87192153930664,-2.35798716545105,22.59223175048828,0.6480814218521118,2.2615859508514404,-0.027418512850999832,,,,,,,,,
1739401718.1446972,0.5254882370506624,0.09600886058128089,-0.9531498659772384,-2.0690821039697695,0.13773430149688037,2.1376034152088805,-1.2753567779784702,-0.0007273761724140816,-0.0017118771045390438,-0.0004741648240658947,0.0009473297442378365,0.00041443044566577786,-0.0003012583327878612,0.002179906017942986,0.2173345386981964,-21.82431411743164,-2.3302161693573,22.54065704345703,0.6737161874771118,2.2615859508514404,-0.07411040365695953,,,,,,,,,
1739401718.1547835,0.5254928105458754,0.09601073167645757,-0.9531460048145214,-2.0690821041784275,0.13773565959398762,2.1376041728689588,-1.2753613110354973,0.00025822454803870886,-0.00039051560778496734,0.0005022831909991356,1.5926501611880054e-05,-0.0022703665980222405,-9.685781501119655e-05,-0.00014639803182813887,0.1935308277606964,-21.84811782836914,-2.38179087638855,22.54065704345703,0.6608988046646118,2.2551772594451904,-0.04023589566349983,,,,,,,,,
1739401718.165738,0.52549099309094,0.09600901915841188,-0.9531460035426722,-2.069080347011219,0.13773644067734797,2.137605701271067,-1.2753595561830942,-0.00011606548335144461,-0.001335006859889724,0.001483039265239158,0.0005032641818838444,-0.0007993166530839367,0.00041495340700920647,-0.0003031413482999908,0.2173345386981964,-21.82431411743164,-2.38179087638855,22.51685333251953,0.6673074960708618,2.2423598766326904,-0.05396880581974983,,,,,,,,,
1739401718.176755,0.5254869214575673,0.09601104662714263,-0.953149865973201,-2.069081415308812,0.13773598380221785,2.1376041729228676,-1.2753644367854926,-0.0011850316248891459,0.000507981899810982,-0.00011956014086808044,0.0006270221449771391,6.301092024328356e-05,-0.0009388879929894664,-0.0018883381247502041,0.2411382496356964,-21.84811782836914,-2.3302161693573,22.54065704345703,0.6673074960708618,2.2551772594451904,-0.013685601763427258,,,,,,,,,
1739401718.1867728,0.525492781990335,0.09600902056783474,-0.9531477861833453,-2.0690820956634957,0.1377365985757289,2.137606159139396,-1.275360445146989,0.0005250601662428934,-0.0005922147380123037,-9.222556604126608e-05,0.00083333422497165,-2.4122355713330607e-05,-4.879247593374313e-05,-0.0003195288238300827,0.1935308277606964,-21.82431411743164,-2.35798716545105,22.54065704345703,0.6801248788833618,2.2423598766326904,-0.04756011441349983,0,0,0,0.000,0,0
1739401718.1987877,0.525494523659989,0.09600901915841986,-0.9531460704648288,-2.069081874170207,0.13773901657329718,2.137603415211539,-1.2753557894426424,0.0023788975032452394,0.00024832097093478657,0.0007615319368086709,0.00015448680768403823,0.0012127301574999443,0.00011311274752333807,0.00249784037014203,0.1697271168231964,-21.82431411743164,-2.4095618724823,22.54065704345703,0.6608988046646118,2.2615859508514404,-0.08692778646945953,0,0,0,0.000,0,0
1739401718.2097862,0.5254928111394241,0.09601073265120481,-0.9531460422111409,-2.0690803205561714,0.13773390000223956,2.1376034152088805,-1.2753573061984016,-6.0851004820256455e-05,0.00012950107619999257,0.0006097848338813757,0.0005570580243924801,-0.0018405255504344456,-0.0005272325714723281,0.0009541721935031359,0.1935308277606964,-21.84811782836914,-2.38179087638855,22.51685333251953,0.6801248788833618,2.2615859508514404,-0.07411040365695953,0,0,0,0.000,0,0
1739401718.2206933,0.5254901410924667,0.09601073171515086,-0.9531460388278156,-2.0690849973776198,0.13773965262656343,2.1376041728689588,-1.2753567593165773,1.489132404193596e-05,0.00040962620693122726,0.00043321182628460006,-0.0008742508997935485,0.0013681803765058767,-0.0005931556247707751,0.002343756038891301,0.2173345386981964,-21.84811782836914,-2.38179087638855,22.59223175048828,0.6673074960708618,2.2551772594451904,-0.06678618490695953,0,0,0,0.000,0,0
1739401718.2316842,0.5254928101528709,0.09601075803281678,-0.9531460048147207,-2.069083852230347,0.13773996680714617,2.13760388615916,-1.2753586276795226,0.0007926313250670483,0.0008332810012073073,-5.824502571575923e-05,0.0008451155079439703,0.0005002470269040737,-5.131129808667683e-07,0.0011212764152341154,0.1935308277606964,-21.84811782836914,-2.38179087638855,22.56842803955078,0.6608988046646118,2.2615859508514404,-0.05396880581974983,0,0,0,0.000,0,0
1739401718.2418034,0.5254910990547347,0.09601114505785519,-0.9531520236232082,-2.0690859666396877,0.13773690243159986,2.1376067870810767,-1.2753593854911343,0.0007686433875771971,0.0002467747472981078,-0.0008680709740621839,-0.0004014777728600587,0.0006801706669291975,0.0008291610115649953,-0.0007015282652428796,0.2173345386981964,-21.82431411743164,-2.3302161693573,22.59223175048828,0.6544901132583618,2.2423598766326904,-0.04756011441349983,0,0,0,0.000,0,0
1739401718.2527797,0.5254903833629564,0.0960108371058378,-0.9531480285750287,-2.069085864606078,0.13773856538592047,2.1376041735750193,-1.2753598787589424,0.00021745124360320178,0.0008864892937806572,-0.00011044252885412896,0.0007152497063479499,0.0012090578988153719,8.184129996227811e-05,0.00038750094801651527,0.2173345386981964,-21.84811782836914,-2.35798716545105,22.59223175048828,0.6737161874771118,2.2551772594451904,-0.05396880581974983,0,0,0,0.000,0,0
1739401718.2637036,0.525494250352331,0.09601244420046942,-0.953148025584439,-2.0690880330790535,0.13773957821675595,2.1376041733534796,-1.2753608393953864,0.0014311729605536586,0.00047808238083828453,-0.0009244943979911282,6.956302113442765e-05,0.0015556537723185168,0.0010053525951513446,0.00018088118258042206,0.1697271168231964,-21.87192153930664,-2.35798716545105,22.59223175048828,0.6673074960708618,2.2551772594451904,-0.04023589566349983,0,0,0,0.000,0,0
1739401718.2737358,0.525489386202343,0.0960146498079329,-0.9531445619562685,-2.0690852773906236,0.1377342659115762,2.1376034675366973,-1.2753572999634795,0.0001303527787731069,0.001140551724090989,0.0015162634820499138,0.00013807628597077315,-0.00039566769991580136,0.00010660323980560023,0.00021147249582304786,0.2411382496356964,-21.87192153930664,-2.4095618724823,22.59223175048828,0.6737161874771118,2.2615859508514404,-0.07411040365695953,0,0,0,0.000,0,0
1739401718.283765,0.5254942846964901,0.09600905527005484,-0.9531460035171347,-2.069085929786134,0.1377348107320317,2.137601797466657,-1.2753661759735055,0.0021530560450694434,-0.0006593089372830679,4.5032005751044564e-05,0.000755024360533287,0.0007865579043623808,-0.0006500425147113621,-0.0008915408959307921,0.1697271168231964,-21.82431411743164,-2.38179087638855,22.59223175048828,0.6801248788833618,2.2753188610076904,-0.0072769103571772575,0,0,0,0.000,0,0
1739401718.2947505,0.5254927998003817,0.0960144421409312,-0.9531460035063262,-2.0690844390661463,0.1377352968506963,2.137604329852418,-1.2753555408196853,0.0020287837536487594,5.616710907293892e-05,0.0005876508786190634,-0.0004920234777470304,0.00026487611132965707,0.001255080691279017,0.0011393941753916473,0.1935308277606964,-21.89969253540039,-2.38179087638855,22.56842803955078,0.6673074960708618,2.2551772594451904,-0.08692778646945953,0,0,0,0.000,0,0
1739401718.3057094,0.5254893600066691,0.0960128926803691,-0.9531470402570955,-2.0690859581434764,0.13773816959204987,2.1376042906074146,-1.2753604736156594,0.0002764581323905457,0.0008475761970912384,1.9728994328908813e-05,-0.0008250946601344332,0.0014746631761633029,-0.00032507996896652587,-0.001267872168068688,0.2411382496356964,-21.84811782836914,-2.38179087638855,22.59223175048828,0.6801248788833618,2.2551772594451904,-0.020094294100999832,0,0,0,0.000,0,0
1739401718.315749,0.5254906527258767,0.09600901919500865,-0.9531499542939357,-2.069085966540183,0.13773893464409578,2.137602657550796,-1.2753580542138334,9.885029047046619e-05,-0.000569451618326364,-0.002138045109006165,-0.0009429504561982839,0.001861257118597279,-0.0004604918110368815,0.0014239682335247445,0.1935308277606964,-21.82431411743164,-2.3302161693573,22.59223175048828,0.6737161874771118,2.2679946422576904,-0.06678618490695953,0,0,0,0.000,0,0
1739401718.3257937,0.5254893825728816,0.0960062538648475,-0.9531499584430061,-2.069082104178429,0.13773877651713298,2.1376026577103073,-1.2753652017659012,-0.0011972932100822683,-0.00014423521183814223,0.0003162073777092649,0.0006292027163757219,0.0002297642983938127,-0.0009872350055304773,-0.0024539474183872187,0.2411382496356964,-21.77273941040039,-2.35798716545105,22.54065704345703,0.6737161874771118,2.2679946422576904,-0.0072769103571772575,0,0,0,0.000,0,0
1739401718.3367836,0.525488236723592,0.09600659326459725,-0.9531481582251344,-2.0690803215014117,0.1377364554381898,2.137604518453518,-1.2753581320761878,-0.000658250585085795,-0.0007220258225852087,0.00035057518936048275,0.0007631045830275163,0.0008457381595885786,0.0005533791987436699,0.0006690689336265107,0.2173345386981964,-21.82431411743164,-2.38179087638855,22.51685333251953,0.6673074960708618,2.2615859508514404,-0.04023589566349983,0,0,0,0.000,0,0
1739401718.3477194,0.5254927051231154,0.0960055458661948,-0.9531421410879537,-2.0690839572144477,0.1377348239024337,2.1376044748532377,-1.2753642929206495,0.0007694397063451326,-0.000503534892113441,0.002468776284047401,-0.001204914509699052,-0.0012485516044493223,0.00044983461303210195,-0.0011181950252462007,0.1935308277606964,-21.77273941040039,-2.4333655834198,22.56842803955078,0.6801248788833618,2.2615859508514404,-0.013685601763427258,0,0,0,0.000,0,0
1739401718.358753,0.525491101943089,0.09600702154291825,-0.953150546561765,-2.069084215145659,0.13773846219427477,2.1376052837477286,-1.2753612572621986,0.00044331461424975224,-0.0006467451550541479,-0.00032074347323068756,-0.0008989111144095024,0.00032948280482490277,0.0010635209869836108,-0.0003270543897785453,0.2173345386981964,-21.79654312133789,-2.3302161693573,22.56842803955078,0.6737161874771118,2.2487685680389404,-0.04023589566349983,0,0,0,0.000,0,0
1739401718.3707044,0.5254910074811097,0.09600901915841374,-0.9531460844002393,-2.0690820937857226,0.13773455697525944,2.1376049306925364,-1.2753644882106536,0.00021093983779664973,0.00035350976966484684,0.0003429648915757464,0.00036500098806737166,-0.0009620526110744204,-0.0008771800783420584,-0.0027626714542566934,0.2173345386981964,-21.82431411743164,-2.38179087638855,22.54065704345703,0.6737161874771118,2.2487685680389404,-0.013685601763427258,0,0,0,0.000,0,0
1739401718.38077,0.5254906304501515,0.09600978241998555,-0.9531477862928182,-2.0690801144134405,0.13773676058716283,2.1376081094434256,-1.2753645528343496,0.0005108492719105959,-0.0007784805943430219,9.035900204623317e-05,0.001810138750398457,-0.0008417678107539749,1.67486971471573e-05,-0.0018409790131631999,0.1935308277606964,-21.84811782836914,-2.35798716545105,22.54065704345703,0.6801248788833618,2.2487685680389404,-0.0008682189509272575,0,0,0,0.000,0,0
1739401718.3916981,0.5254871524267007,0.09601081040006719,-0.9531499494796642,-2.0690841836196534,0.13773817696015583,2.137603454508572,-1.2753596743812616,-0.0011779087537588805,0.0005466704081611017,-0.0010828201070156272,0.0007475645026815554,-0.00029124798413736244,-0.0006342956445660105,-0.0002068010821776314,0.2411382496356964,-21.84811782836914,-2.3302161693573,22.56842803955078,0.6801248788833618,2.2615859508514404,-0.05396880581974983,0,0,0,0.000,0,0
1739401718.4017687,0.5254910960987079,0.09601031128339939,-0.9531484714170827,-2.069081798060747,0.13773601231486865,2.1376056883508427,-1.2753612936017669,0.00104953995843777,-0.00018945742752039644,-0.0008750627313784855,0.0015472774199847903,-0.000960798259426369,-0.00014827754536353465,-0.00046687002017793797,0.2173345386981964,-21.87192153930664,-2.38179087638855,22.54065704345703,0.6673074960708618,2.2423598766326904,-0.04023589566349983,0,0,0,0.000,0,0
1739401718.4127882,0.5254918549577178,0.09601316156938844,-0.9531450050197714,-2.069084184386473,0.1377397010594013,2.137604173514982,-1.27536044961678,0.001066160121375449,0.00026317140984270695,0.0012460877665065658,0.00011196185013423568,0.0012318934431912872,-0.0010246737083112502,0.00022308711566488732,0.1935308277606964,-21.87192153930664,-2.4333655834198,22.56842803955078,0.6673074960708618,2.2551772594451904,-0.04756011441349983,0,0,0,0.000,0,0
1739401718.422795,0.5254908488462223,0.09601346075004805,-0.9531487403422285,-2.0690839003509605,0.13773827208592565,2.137604526081679,-1.2753595298577598,-0.0007267864943592823,-2.569433620071461e-05,-0.0005258083035438105,0.00048374475180083386,-0.0008290899423322058,0.0004729804557447634,0.0008607670470282488,0.2173345386981964,-21.84811782836914,-2.35798716545105,22.59223175048828,0.6673074960708618,2.2551772594451904,-0.05396880581974983,0,0,0,0.000,0,0
1739401718.4337516,0.5254928112470288,0.0960107325219284,-0.9531487398630478,-2.069084183956622,0.13773737251179524,2.1376034152108745,-1.275358627848114,0.0007980587708023227,-0.0002659674599646151,-0.0018810052444154786,0.0001481898469008208,0.0009864916453462109,-0.0004908114275924007,0.0013116586265197539,0.1935308277606964,-21.84811782836914,-2.35798716545105,22.56842803955078,0.6865335702896118,2.2615859508514404,-0.05396880581974983,0,0,0,0.000,0,0
1739401718.4446957,0.5254910987277082,0.0960118273221027,-0.953146015505518,-2.069084183968286,0.13773494166583206,2.137603415693397,-1.275359647750778,0.0009612596410231228,5.474036706260531e-05,-0.0014761131484363717,0.00010160692289436023,-0.0011478177913850731,-0.0010035917126167827,-0.00021360329175297078,0.2173345386981964,-21.82431411743164,-2.38179087638855,22.56842803955078,0.6673074960708618,2.2615859508514404,-0.05396880581974983,0,0,0,0.000,0,0
1739401718.454746,0.5254907769116689,0.09601147544903374,-0.953146006450375,-2.069084413556548,0.1377349838105238,2.137604172868983,-1.2753617667244523,0.00018211073931962112,0.0009512635199141007,0.0004550090915705447,-0.00012683569762041364,-0.0007938078560690222,-0.00023770030429965113,-0.0007840936040519695,0.2173345386981964,-21.84811782836914,-2.38179087638855,22.56842803955078,0.6801248788833618,2.2551772594451904,-0.027418512850999832,0,0,0,0.000,0,0
1739401718.4647577,0.5254910725619871,0.09601075792900832,-0.9531463213977815,-2.069085748396032,0.13773818081237127,2.137602659002352,-1.2753644901430425,0.001081902321125103,-0.0006144999931386418,-0.00029408854936511294,0.0003103490082057314,0.0009596295924689812,-0.000385664444055133,-0.0004701197516056081,0.2173345386981964,-21.84811782836914,-2.38179087638855,22.59223175048828,0.6801248788833618,2.2679946422576904,-0.013685601763427258,0,0,0,0.000,0,0
1739401718.475711,0.5254928115753404,0.09600901915856008,-0.9531460126654872,-2.0690841838620755,0.13773679446918669,2.137602676444963,-1.275362068704749,0.0013142621086080475,0.0005994788727095915,-0.0002276272251031425,1.964966542729454e-05,-0.00036688829585071947,-0.00046633365354281154,-0.00117752580806883,0.1935308277606964,-21.82431411743164,-2.38179087638855,22.56842803955078,0.6801248788833618,2.2679946422576904,-0.03382720425724983,0,0,0,0.000,0,0
1739401718.485792,0.5254893597160256,0.09600530869682765,-0.95314994078103,-2.0690782596161603,0.1377349838661514,2.1376048338742404,-1.2753589240128538,-0.0002879228796713247,-0.0011312126841773217,-0.00032732162304377406,0.0010923160372411063,0.0012935286775352314,0.0015818609850459736,-0.0009985462044179243,0.2411382496356964,-21.77273941040039,-2.35798716545105,22.51685333251953,0.6801248788833618,2.2615859508514404,-0.06037749722599983,0,0,0,0.000,0,0
1739401718.4958043,0.5254931782670847,0.09601073167914309,-0.9531460075764163,-2.0690841838283895,0.13773805163100744,2.1376026580573435,-1.2753627863276915,-0.00012703542932687533,0.0007045494877380909,-7.180913617692126e-05,-0.001202562441631023,8.083788565964691e-05,-0.0009967817069636996,-0.0010003749669552705,0.2173345386981964,-21.84811782836914,-2.38179087638855,22.56842803955078,0.6801248788833618,2.2679946422576904,-0.0008682189509272575,0,0,0,0.000,0,0
1739401718.5058167,0.5254893822085885,0.09600702121755884,-0.9531491069815252,-2.069078461980034,0.13773600349132428,2.1376072493140374,-1.2753581320762206,-5.15056190542603e-05,-0.00020014046934328593,-0.0002925267607136029,0.001351803631631775,-0.0016493259532145727,0.0013230629662876212,0.00037390446653834343,0.2411382496356964,-21.79654312133789,-2.38179087638855,22.49304962158203,0.6865335702896118,2.2679946422576904,-0.04023589566349983,0,0,0,0.000,0,0
1739401718.5176878,0.5254872142758381,0.09601244430788114,-0.9531470381245717,-2.069082112681266,0.13773922425319374,2.1376046501438766,-1.275364449904076,-0.0004909952043417442,0.0011534323555874202,-0.0003670035435743107,0.000686875391434996,-0.00028809632613878883,0.0008716347725867301,-0.002020378689734709,0.2411382496356964,-21.87192153930664,-2.38179087638855,22.54065704345703,0.6673074960708618,2.2551772594451904,-0.013685601763427258,0,0,0,0.000,0,0
1739401718.5277011,0.525486419535003,0.09601073211117113,-0.953148133951082,-2.0690811858254334,0.13773862685343052,2.1376034152115744,-1.2753602383243623,-0.0005760103528412697,0.00037478914033715655,-0.0010426742299396333,0.0006284372279125198,0.00047557103317756057,-0.0010641132834450621,7.993334507163383e-05,0.2411382496356964,-21.84811782836914,-2.35798716545105,22.54065704345703,0.6673074960708618,2.2615859508514404,-0.04023589566349983,0,0,0,0.000,0,0
1739401718.5377617,0.5254909926046344,0.09601074042770594,-0.9531489836899463,-2.069087749306772,0.1377389404767172,2.1376034282908325,-1.2753581721492502,0.0007165749036358246,-0.0004403155210332947,-0.00040072349146400195,-0.0009493650452521347,0.0006277016785121843,-0.00032746133626095466,0.0022553807659144035,0.2173345386981964,-21.84811782836914,-2.38179087638855,22.61603546142578,0.6737161874771118,2.2615859508514404,-0.06678618490695953,0,0,0,0.000,0,0
1739401718.5488265,0.5254895842344295,0.09601268041092334,-0.9531477863455234,-2.0690852778805215,0.13773801170649394,2.137604935374278,-1.2753571125292875,0.0007250190743877168,0.00040127547086379195,-0.0003601772525703762,-0.0004598260864077438,-0.0008537940611382684,-0.00039490166849861195,0.0020728987341130166,0.2411382496356964,-21.87192153930664,-2.35798716545105,22.59223175048828,0.6801248788833618,2.2487685680389404,-0.06678618490695953,0,0,0,0.000,0,0
1739401718.5597382,0.5254862592944669,0.09601381792195164,-0.9531460036153433,-2.0690849829216083,0.13773740697205789,2.1376084114215033,-1.2753591565224223,-0.0006242634122088921,0.0006667612781299198,0.00045566403161122595,0.00025078349715844145,0.00039203778189660337,0.0010257471579253432,-0.0010758160365628997,0.2411382496356964,-21.84811782836914,-2.38179087638855,22.61603546142578,0.6865335702896118,2.2551772594451904,-0.06037749722599983,0,0,0,0.000,0,0
1739401718.5707726,0.5254873091026616,0.09601465760184863,-0.9531499363475473,-2.069087800326322,0.13773880885761286,2.1376034283147596,-1.2753613110457236,-0.0001474264701592595,0.001439358714043141,0.0007595132397243873,-0.0015604878888430043,0.0007013870221341035,0.0004828502658599755,-0.00019875744910411903,0.2689092457294464,-21.87192153930664,-2.35798716545105,22.61603546142578,0.6737161874771118,2.2615859508514404,-0.04023589566349983,0,0,0,0.000,0,0
1739401718.5817516,0.5254910976007598,0.0960110741813863,-0.9531477875400169,-2.0690877493226125,0.13773742073188355,2.1376034152089542,-1.275358929827055,0.000283205099739993,-0.0003083158335795733,-0.0003896705413887428,-0.0008033572603378073,-0.0006209286801753219,-0.00023727809372951655,0.00046997813112401954,0.2173345386981964,-21.84811782836914,-2.35798716545105,22.61603546142578,0.6865335702896118,2.2615859508514404,-0.06037749722599983,0,0,0,0.000,0,0
1739401718.5917625,0.5254886698610542,0.09600733617135869,-0.9531520117404356,-2.0690841839682865,0.1377409033356854,2.1376052326685935,-1.2753652075820998,-0.0007999075276419933,-0.001456824946179908,-0.0011932573128317554,0.000712953678520169,-0.00011924308814505294,0.0011958992038652904,-0.0012153670858218017,0.2411382496356964,-21.79654312133789,-2.3302161693573,22.56842803955078,0.6801248788833618,2.2551772594451904,-0.0072769103571772575,0,0,0,0.000,0,0
1739401718.6037533,0.5254919893707478,0.09600901916018982,-0.9531439355023404,-2.069087522568486,0.1377389405102171,2.1376052325130708,-1.275365965242178,0.0004098810029107876,-0.0007542086652809191,0.000706059743607175,-0.0011924582751084885,-0.0011876265238863065,-0.0004011952047260899,-0.0015636214038808368,0.1935308277606964,-21.82431411743164,-2.4095618724823,22.61603546142578,0.6737161874771118,2.2551772594451904,-0.0008682189509272575,0,0,0,0.000,0,0
1739401718.6137733,0.5254910961066782,0.09601097113034851,-0.9531460388276636,-2.069084184911814,0.137737518813703,2.1376050482725883,-1.275361311044444,-0.00022131802656020496,-0.0001924803766792411,0.0006357951290754753,-0.0006126460934672284,-0.0014478685476833025,0.00022021559006145706,-0.0011906846453878341,0.2173345386981964,-21.84811782836914,-2.38179087638855,22.56842803955078,0.6737161874771118,2.2487685680389404,-0.04023589566349983,0,0,0,0.000,0,0
1739401718.6247287,0.5254862866564176,0.09601096929558361,-0.9531477982843504,-2.0690795787075613,0.13773617467453614,2.1376034153710504,-1.275361311044444,-0.0008486793603623793,0.0003891621028388324,0.0003888335227658188,0.0012387502732107867,0.0005336632068102109,-0.0011316377149921317,-0.0002316144950485199,0.2411382496356964,-21.84811782836914,-2.35798716545105,22.54065704345703,0.6608988046646118,2.2615859508514404,-0.04023589566349983,0,0,0,0.000,0,0
1739401718.6357603,0.52549109903726,0.09601245294977118,-0.9531469571807107,-2.0690867544256024,0.1377372870127921,2.137604173030465,-1.275361311044444,0.0012631891734003816,0.0006747111937335828,-0.0005653981502583925,-0.0009043131478876102,-0.00011594131438688487,0.0008817316900304766,-0.0014994515597340126,0.2173345386981964,-21.87192153930664,-2.38179087638855,22.61603546142578,0.6865335702896118,2.2551772594451904,-0.04023589566349983,0,0,0,0.000,0,0
1739401718.646715,0.5254927190206778,0.09600607195854947,-0.9531469660271108,-2.069082112664851,0.13773968498888395,2.137603367946061,-1.2753582741517773,0.0005149265065851161,-0.00168991990221433,-0.0006902464091435357,3.5103705857331656e-05,0.0006319063175993513,0.0010495073020143934,0.0015633726663970612,0.1935308277606964,-21.79654312133789,-2.38179087638855,22.54065704345703,0.6673074960708618,2.2753188610076904,-0.05396880581974983,0,0,0,0.000,0,0
1739401718.6567242,0.5254872318269592,0.09600530872747133,-0.9531485058051667,-2.069083877850652,0.1377391847700016,2.137604172877857,-1.2753583922297833,-0.00023496918696806122,-0.0011780333859252017,-0.0002976145122682278,0.0006413638865463073,-0.0013358661595202807,-0.0010867242438417392,0.00018535736873123872,0.2411382496356964,-21.77273941040039,-2.35798716545105,22.56842803955078,0.6673074960708618,2.2551772594451904,-0.07411040365695953,0,0,0,0.000,0,0
1739401718.6667697,0.525486515227059,0.09600701828774715,-0.9531446229909974,-2.0690852778753377,0.1377384665924466,2.1376031304371486,-1.275363895069471,-0.0018317259495060838,-0.0009612246983821714,0.0009418138745423227,-0.0008408025858560727,-0.000905679516223447,-0.00012518755904172867,-0.0008590936391615043,0.2411382496356964,-21.79654312133789,-2.38179087638855,22.59223175048828,0.6737161874771118,2.2679946422576904,-0.027418512850999832,0,0,0,0.000,0,0
1739401718.6777027,0.5254893776875013,0.09600901959042281,-0.953146966039506,-2.0690839629143984,0.13773818283210626,2.1376041772322787,-1.2753640967153443,-0.0005506073771007371,-0.001400280380922856,-0.0006795605439226272,-0.0008996410201892928,0.00033863575001207144,-0.0002451217014357625,-0.001984337471249629,0.2411382496356964,-21.82431411743164,-2.38179087638855,22.56842803955078,0.6801248788833618,2.2551772594451904,-0.013685601763427258,0,0,0,0.000,0,0
1739401718.6877747,0.5254899476089517,0.09600901818181515,-0.9531439237327711,-2.069084081925315,0.13773847327943747,2.1376018090942464,-1.275358921208788,-0.0005088056498824431,0.00010631731181663423,0.0017375250351175072,0.00016893699398975938,-0.0006445287981540458,-0.0018632215398518225,0.0001951287240849151,0.1935308277606964,-21.82431411743164,-2.4095618724823,22.56842803955078,0.6673074960708618,2.2753188610076904,-0.06037749722599983,0,0,0,0.000,0,0
1739401718.6997466,0.5254893825932748,0.09601069666540014,-0.9531460036516812,-2.069084181133287,0.13773568313704818,2.137605688189214,-1.2753564962822486,-0.000656394321284658,0.0002606078688475856,0.0007707601056651194,-0.000623825942965148,-0.0012490866312194601,-0.0005704990235197931,0.0024735456441659,0.2411382496356964,-21.84811782836914,-2.38179087638855,22.56842803955078,0.7002664804458618,2.2423598766326904,-0.08051909506320953,0,0,0,0.000,0,0
1739401718.710736,0.5254873617388264,0.09601073652121646,-0.9531476822181641,-2.0690877490073833,0.13773818283455852,2.137603434266539,-1.2753581329214618,-0.0009004420207201329,0.0006412493695624608,0.0011456559960690248,-0.0005100611559685361,9.650306398474747e-05,0.0011815087158457964,-3.5251608205497445e-05,0.2689092457294464,-21.84811782836914,-2.35798716545105,22.61603546142578,0.6801248788833618,2.2615859508514404,-0.06678618490695953,0,0,0,0.000,0,0
1739401718.7217467,0.5254920963196011,0.09601073167917042,-0.9531488645286884,-2.0690841839682843,0.1377349707259491,2.137604514092974,-1.275357870188704,0.0002704826267534113,-0.00037190442379165655,-0.0006054346925898356,0.000784959500234756,-0.0014556010662136452,-0.000610380073877061,0.0029762228974630984,0.1935308277606964,-21.84811782836914,-2.38179087638855,22.56842803955078,0.6801248788833618,2.2615859508514404,-0.06037749722599983,0,0,0,0.000,0,0
1739401718.7327492,0.5254824970369262,0.09601488211705861,-0.9531460023798246,-2.0690895562494065,0.1377381827803841,2.1376041748256354,-1.2753597146142388,-0.0028926761978726747,0.0008991710240711514,9.252533312580931e-05,-0.0012850223555376827,-0.00028323944320711675,-1.7416941417212683e-05,-0.0008773322486794761,0.2927129566669464,-21.87192153930664,-2.38179087638855,22.63983917236328,0.6801248788833618,2.2551772594451904,-0.05396880581974983,0,0,0,0.000,0,0
