IITGN-Robotics/Franka_IITGN_ROBOTICS/franka_ros/franka_iitgn/data/b_31.csv
time,fr3_joint1_pos,fr3_joint2_pos,fr3_joint3_pos,fr3_joint4_pos,fr3_joint5_pos,fr3_joint6_pos,fr3_joint7_pos,fr3_joint1_vel,fr3_joint2_vel,fr3_joint3_vel,fr3_joint4_vel,fr3_joint5_vel,fr3_joint6_vel,fr3_joint7_vel,fr3_joint1_eff,fr3_joint2_eff,fr3_joint3_eff,fr3_joint4_eff,fr3_joint5_eff,fr3_joint6_eff,fr3_joint7_eff,flexpin1,flexpin2,flexpin3,Force,ContactMic,ContactMic_gt
1739401743.1064131,0.525499228172687,0.09595583201897202,-0.9531669579713509,-2.0690681185446396,0.13771976243346118,2.1375872479559637,-1.2753486746696496,0.001385340336849832,0.002341411627649426,5.265703765593178e-05,-0.0008318927148451638,0.0004795582427686016,1.626098733589621e-05,0.00034283381348873456,0.1935308277606964,-21.79654312133789,-2.3064124584198,22.61603546142578,0.6737161874771118,2.2753188610076904,-0.06678618490695953,,,,,,,,,
1739401743.1173828,0.5254958773275414,0.09596718835499107,-0.9531658996542224,-2.0690684345811943,0.13771719537039456,2.137588115522861,-1.2753509615235823,-0.00032259781927376503,-0.00028433259067127967,0.0003431220820027583,-0.0010266257044476534,-0.0011913887407647456,0.00035787117703726446,0.0011563444464116968,0.2411382496356964,-21.77273941040039,-2.3302161693573,22.61603546142578,0.6865335702896118,2.2679946422576904,-0.07411040365695953,,,,,,,,,
1739401743.1293545,0.5254974767523882,0.09598476827412056,-0.9531601915119988,-2.0690627922735074,0.13771506349278212,2.137590049051263,-1.2753532910930057,0.0008155443599928245,0.0010511756365930809,0.000756295067185969,0.0012238585093867094,-0.000675666562017186,-0.0003476728191455091,0.0010270382706882226,0.2173345386981964,-21.84811782836914,-2.4095618724823,22.54065704345703,0.6865335702896118,2.2615859508514404,-0.027418512850999832,,,,,,,,,
1739401743.1394205,0.525505707775108,0.09599325308731628,-0.953157043251346,-2.069064884273201,0.13771977769134586,2.1375932284568053,-1.275355164399176,0.001479656240137298,0.0010040263241393038,0.00015055465867148585,-0.0005175941780195423,1.957902110567653e-05,0.00015564434708960004,-0.0015527311164902254,0.1419561207294464,-21.87192153930664,-2.4095618724823,22.56842803955078,0.6737161874771118,2.2615859508514404,-0.04756011441349983,,,,,,,,,
1739401743.1494374,0.5255011329958563,0.09600332141934254,-0.9531577683831683,-2.0690665782115985,0.1377215982111459,2.1375898001068765,-1.2753493942570382,0.00047217349776855104,0.0014001597931275348,7.470345460566623e-05,0.00023263914171935243,0.0007943128875123876,0.0003433430144114689,0.0008346516189798827,0.1697271168231964,-21.92349624633789,-2.4095618724823,22.59223175048828,0.6673074960708618,2.2551772594451904,-0.06037749722599983,,,,,,,,,
1739401743.16035,0.5254991892729161,0.09601076631208995,-0.9531586848984808,-2.069072486033771,0.13772054109601334,2.137592016409395,-1.2753516928661295,0.0003083617513628251,0.0009100610628928806,-0.0004286483512212721,0.00019782693887950917,-0.0004275252114592981,0.0005901215886684808,0.0008616439923710015,0.1935308277606964,-21.95126724243164,-2.38179087638855,22.63983917236328,0.6673074960708618,2.2753188610076904,-0.04023589566349983,,,,,,,,,
1739401743.1703753,0.5254991930153728,0.09601123788720212,-0.9531605778845477,-2.0690727550975927,0.13771978343403368,2.137593587719327,-1.2753500540879137,-2.0743514248558817e-05,-0.0015165890625199728,-0.001856001736142007,0.0006921063799596959,0.0010538938624475662,-0.000216195463161091,0.0013797055729383337,0.1935308277606964,-21.89969253540039,-2.35798716545105,22.61603546142578,0.6737161874771118,2.2615859508514404,-0.06678618490695953,,,,,,,,,
1739401743.1803992,0.5254995827825952,0.09601812617973735,-0.9531597395628222,-2.0690757832112086,0.13771968003353544,2.1375936394002286,-1.2753533184801829,0.0005056492796432121,0.0005762693374332257,-0.0002150686948211945,0.0003586689606758523,-9.558698538258492e-06,0.00037087983447231586,-0.0007882900684513611,0.2173345386981964,-21.95126724243164,-2.38179087638855,22.63983917236328,0.6865335702896118,2.2615859508514404,-0.04023589566349983,,,,,,,,,
1739401743.19044,0.5254957642666843,0.09601391615291331,-0.953161539910413,-2.0690740006683352,0.13772302479777337,2.137589840003191,-1.2753563449520002,-0.0017552907256187373,-0.0005364249738104856,-0.002295418688843802,-0.0008416254391465729,0.0004487160301412612,-0.0013514475876077526,-0.002499397665015523,0.2411382496356964,-21.84811782836914,-2.35798716545105,22.61603546142578,0.6737161874771118,2.2817275524139404,-0.013685601763427258,,,,,,,,,
1739401743.201401,0.5254974855255408,0.09600881463652752,-0.9531605386940316,-2.0690700231376233,0.13771903324466028,2.1375928822175436,-1.2753486397929858,-0.0004668915612712005,-0.0026258124597106224,-0.00033938966353305874,-0.000449143804602976,-0.0008536279183078986,0.0011842237688372754,0.002314881540466846,0.2173345386981964,-21.77273941040039,-2.35798716545105,22.59223175048828,0.6801248788833618,2.2679946422576904,-0.06678618490695953,,,,,,,,,
1739401743.2123463,0.5254995822294247,0.09601305418166368,-0.9531619247327277,-2.0690682114310444,0.13771902431583902,2.1375925291743476,-1.275350312088071,0.0012392656345826712,-0.00016608803517758329,-0.0016195204787198525,7.498279016526256e-05,-0.0008256307100322636,-0.0004178265649183346,0.0005432784082940045,0.2173345386981964,-21.79654312133789,-2.38179087638855,22.56842803955078,0.6801248788833618,2.2679946422576904,-0.05396880581974983,,,,,,,,,
1739401743.2224438,0.5254974850181345,0.09601234238764013,-0.9531637096756961,-2.0690693092597137,0.13772129729607302,2.137592882381077,-1.2753559742732692,0.0009435606714706505,-0.00047179546415979833,-0.0006817701168502175,-0.001037242586847553,0.0010528726115158653,-0.00010705267821490996,-0.0020161959169972044,0.2173345386981964,-21.79654312133789,-2.3302161693573,22.56842803955078,0.6608988046646118,2.2679946422576904,-0.013685601763427258,,,,,,,,,
1739401743.23245,0.5254974738084505,0.09600920884445065,-0.9531651580932391,-2.0690689557587354,0.13771619297256787,2.1375928823870582,-1.275350151407961,0.0012985193781746927,0.0006078455850180568,0.0002785382816973519,-0.0016006157119277365,-0.0010452526704352694,-0.0002785247468343418,0.00044420584807301213,0.2173345386981964,-21.77273941040039,-2.3302161693573,22.56842803955078,0.6801248788833618,2.2679946422576904,-0.05396880581974983,,,,,,,,,
1739401743.2434123,0.5254944683004096,0.09600657852945021,-0.9531676821474316,-2.0690682465571633,0.13771826226544948,2.1375928823870582,-1.2753532896214401,2.2862649266158102e-05,-0.0005747958466421308,-0.00021032897699915158,-0.00065920276366662,-0.0020370099036301015,0.0001604123350492452,-0.0011618882327566553,0.2689092457294464,-21.74496841430664,-2.3064124584198,22.56842803955078,0.6865335702896118,2.2679946422576904,-0.027418512850999832,,,,,,,,,
1739401743.254395,0.5254957377440282,0.09601305154601177,-0.9531676822996635,-2.0690682923399923,0.13772053542365303,2.137592016489826,-1.2753497479116562,0.0002573214532179712,0.001008312401864119,0.000376167795200921,-0.0013651079079551858,-0.0008241645434190443,-0.0005665570626286972,0.0012174939511846385,0.2411382496356964,-21.79654312133789,-2.3064124584198,22.56842803955078,0.6673074960708618,2.2753188610076904,-0.06037749722599983,,,,,,,,,
1739401743.2653575,0.5254974502963129,0.09600279338103528,-0.9531638198327899,-2.0690683199254045,0.1377227101877201,2.137594397707215,-1.2753501899918287,0.0003537392094152309,-0.0011179837873946552,-0.00019676901834582102,-0.0008019371607991105,0.00038600244278780423,0.0001976976853784553,2.3021220802718295e-05,0.2173345386981964,-21.69339370727539,-2.35798716545105,22.56842803955078,0.6608988046646118,2.2551772594451904,-0.05396880581974983,,,,,,,,,
1739401743.275381,0.52549994843944,0.0960084976536541,-0.9531620371557707,-2.069066157607594,0.13772523945429654,2.137594384625263,-1.2753533359577394,-0.0002964726492022592,0.0005153386351172008,0.0005220484314537757,-1.3013552759107074e-05,0.0005559060163918116,0.00010908016853801526,9.462436371795199e-05,0.1697271168231964,-21.77273941040039,-2.38179087638855,22.54065704345703,0.6544901132583618,2.2551772594451904,-0.05396880581974983,,,,,,,,,
1739401743.285413,0.5254974767356047,0.09601402608037114,-0.9531628445005746,-2.069065150635037,0.1377196591821386,2.1375936400469153,-1.2753610595640397,-2.5819178290842164e-05,0.0012701411813917864,-0.0002670852374261427,0.0012441044832444104,-0.00017062798747027115,-0.0005044075852533639,-0.002630189829820058,0.2173345386981964,-21.84811782836914,-2.35798716545105,22.54065704345703,0.6737161874771118,2.2615859508514404,-0.0008682189509272575,,,,,,,,,
1739401743.2964377,0.5254974767517496,0.09601290954763125,-0.9531591201474617,-2.069073585421114,0.13772106017430696,2.1375928823870582,-1.2753528759409796,0.0004386056111233689,-0.000472336837475922,-0.00011260942382676296,-0.0006613874941702385,0.0007095331350664717,-0.00045104181423744906,-0.001010459976154902,0.2173345386981964,-21.82431411743164,-2.38179087638855,22.63983917236328,0.6673074960708618,2.2679946422576904,-0.06678618490695953,,,,,,,,,
1739401743.3073606,0.5254957642310185,0.0960141573305797,-0.953159742673229,-2.0690741114236353,0.13772220949498937,2.1375928823870582,-1.2753473788853993,0.0004622168682990977,0.00035460103588847564,0.0006319459909774373,-0.0010862324885422892,-0.0005456181966469074,-0.0003830849126430977,0.002131004513041084,0.2411382496356964,-21.84811782836914,-2.38179087638855,22.61603546142578,0.6801248788833618,2.2679946422576904,-0.08051909506320953,,,,,,,,,
1739401743.3174276,0.5254989508539019,0.09601598132907543,-0.9531597100519164,-2.0690784312258095,0.1377208602083232,2.1375928823870582,-1.2753517743074954,0.00027157160967538794,-0.0006076462257167072,0.0010977395615925836,-0.002790426996872025,0.0006394294572580555,-0.0004183000896669997,0.00023322290110608726,0.1935308277606964,-21.87192153930664,-2.4095618724823,22.66364288330078,0.6737161874771118,2.2679946422576904,-0.04023589566349983,,,,,,,,,
1739401743.3284564,0.5254971588589651,0.09601980115533319,-0.9531567604052468,-2.0690758213489135,0.13772221025418557,2.1375940109204823,-1.275356521563491,-0.000545525601071864,5.282542989015765e-05,4.4116473781308425e-05,-0.0009161905975318181,0.00020939268249276497,0.000826039933759826,-0.0026635126929842293,0.2173345386981964,-21.89969253540039,-2.4095618724823,22.63983917236328,0.6801248788833618,2.2615859508514404,-0.027418512850999832,,,,,,,,,
1739401743.3393354,0.5254972383313762,0.09602452475298527,-0.9531566911027008,-2.069073329437063,0.13772452003872288,2.137594010922576,-1.2753572434743017,-0.0005663783605703119,0.0028787881356497364,-0.0007936874730654112,-0.00014032801191586977,0.00012406668826797605,0.00020945769780972263,-0.00018921213464412781,0.2173345386981964,-21.95126724243164,-2.4095618724823,22.59223175048828,0.6737161874771118,2.2615859508514404,-0.03382720425724983,,,,,,,,,
1739401743.3493948,0.5254973972748523,0.09601687963056316,-0.9531596051073008,-2.0690730817419984,0.13772294903469492,2.1375936400534177,-1.2753495289898757,0.0007482361861215513,-0.0005290106859587565,-0.0005538276456359778,-0.001067767938994471,0.0009314909848553298,-0.0009949774578778756,0.0017391180689467162,0.2173345386981964,-21.84811782836914,-2.4095618724823,22.59223175048828,0.6865335702896118,2.2615859508514404,-0.06037749722599983,,,,,,,,,
1739401743.3603609,0.5254937662897169,0.09601445682002953,-0.9531615939844107,-2.0690732383956436,0.13771917808998393,2.1375943977072156,-1.2753579004989248,-0.000857121217244329,-0.0019803416443284166,-0.0006544594430427798,-0.00044697127645796107,-0.00047613383422974095,-0.0007021390354399572,-0.0027863629160727247,0.2689092457294464,-21.82431411743164,-2.35798716545105,22.59223175048828,0.6801248788833618,2.2551772594451904,-0.027418512850999832,,,,,,,,,
1739401743.371404,0.5254898898510137,0.0960154042899377,-0.9531627360926337,-2.069071077746883,0.13772454119273603,2.137594503240938,-1.2753564749126278,-0.0015943464914382648,-0.0004696175284363391,0.0012330999319375311,0.0016423653339836298,0.0008207156000444108,0.0014410177037688695,-0.0008963539050892898,0.2927129566669464,-21.82431411743164,-2.35798716545105,22.59223175048828,0.6737161874771118,2.2679946422576904,-0.027418512850999832,,,,,,,,,
1739401743.381417,0.525490905255001,0.09601411665381387,-0.9531676809241139,-2.0690725886635213,0.13771977768245852,2.1375936812644363,-1.2753564613893558,0.0002422204507235212,0.000365705682576953,-0.00035831741090980166,-0.0015579286655426248,-0.0012626173089402503,0.00030272931358629924,-0.0021454869098071583,0.2689092457294464,-21.79654312133789,-2.3064124584198,22.59223175048828,0.6737161874771118,2.2615859508514404,-0.013685601763427258,,,,,,,,,
1739401743.3923721,0.5254974703581474,0.09600970370221894,-0.9531620331584998,-2.0690634255867035,0.13772165231454347,2.1375943983857715,-1.2753557268690596,0.0009306099423632957,-0.001085868458200031,-0.00013617022307857278,0.0005869914592708134,-0.0009291288859087434,0.0004903519846998929,-0.0016218653609822264,0.2173345386981964,-21.74496841430664,-2.38179087638855,22.49304962158203,0.6608988046646118,2.2551772594451904,-0.020094294100999832,,,,,,,,,
1739401743.4034092,0.525494810556666,0.09600945816636275,-0.9531638198327672,-2.069064350853089,0.13771861854405953,2.137594397707219,-1.2753599154298652,-0.0006193223355161794,-0.0006006403124681622,-0.0006055316616536943,0.0012789452467358456,-0.0017013443383310067,-0.0004449509250005778,-0.002405242720728307,0.2411382496356964,-21.74496841430664,-2.35798716545105,22.51685333251953,0.6865335702896118,2.2551772594451904,-0.0072769103571772575,,,,,,,,,
1739401743.4143615,0.5254974767463663,0.09600885258006366,-0.9531620371557707,-2.0690662400220488,0.13772100962977674,2.137592882895801,-1.2753536997619075,0.0009065643077833337,-0.0007913534257549121,0.0006476267688483552,0.0001618033197663333,-0.002122675812429336,-0.0012418900722922473,0.0012927273924867085,0.2173345386981964,-21.77273941040039,-2.38179087638855,22.54065704345703,0.6673074960708618,2.2679946422576904,-0.027418512850999832,,,,,,,,,
1739401743.4253597,0.5254957642310184,0.09601453495101643,-0.9531638197217547,-2.0690682100384015,0.13772244427483243,2.137593640047146,-1.2753512635617699,-0.00031752828839900083,0.0013940511022465928,0.000702976505808979,-5.1125660328873676e-05,0.0006760708264397176,-0.0004101300617099488,0.0011740786261616924,0.2411382496356964,-21.77273941040039,-2.35798716545105,22.56842803955078,0.6544901132583618,2.2615859508514404,-0.04756011441349983,,,,,,,,,
1739401743.43637,0.5254975455955233,0.09601445337311189,-0.9531587992245503,-2.069068355524442,0.137721247847149,2.1375928823870587,-1.2753579211728772,0.0003103845803062997,0.0002866753819406614,0.0011717958670093478,0.001019598291329631,-0.00042578477020644535,-0.0003772647026353927,-0.0019841802606646213,0.2173345386981964,-21.82431411743164,-2.38179087638855,22.54065704345703,0.6737161874771118,2.2679946422576904,-0.027418512850999832,,,,,,,,,
1739401743.448401,0.5254957642311481,0.09601711541755555,-0.9531613824831379,-2.06907024090876,0.13772314212598197,2.1375938543108965,-1.2753480759462175,1.5838075245096347e-05,0.0005400604895171034,0.0007055306199339077,1.4327227857776416e-05,7.026821639284013e-05,-0.00046561124607788083,0.0014578798090170877,0.2411382496356964,-21.84811782836914,-2.35798716545105,22.59223175048828,0.6737161874771118,2.2881362438201904,-0.08051909506320953,,,,,,,,,
1739401743.4584498,0.5255009017932122,0.09602048668769955,-0.9531598506390542,-2.0690745472906946,0.1377227123668492,2.137594178173354,-1.275355127647704,0.0018759181888497335,0.001070192661880166,0.0003695653448047527,-0.0013024969192562438,0.00024786225109183505,0.0011168655101914183,-0.000867595789365515,0.1697271168231964,-21.87192153930664,-2.38179087638855,22.63983917236328,0.6608988046646118,2.2679946422576904,-0.04023589566349983,,,,,,,,,
1739401743.4693987,0.5254974767517498,0.09601624756530681,-0.9531599180101392,-2.069074826042818,0.13772298715745507,2.137593253267718,-1.275354173680059,-0.0003502791223064089,-0.0007392573844680998,3.704594057630682e-05,-0.0006684983947148278,-0.000983875338794116,0.00018897437170154483,0.001701735994981318,0.2173345386981964,-21.79654312133789,-2.4095618724823,22.61603546142578,0.6865335702896118,2.2679946422576904,-0.020094294100999832,,,,,,,,,
1739401743.4813492,0.5254957514397763,0.0960171168427533,-0.9531588443415862,-2.0690723372804105,0.13772455504160772,2.1375930477304927,-1.2753541555726065,3.3878969665827765e-05,-0.0005780325504737916,0.0009465777261060235,0.0011908728202243517,0.002478319350851794,-0.00036963430184777646,0.0016958517613184006,0.2411382496356964,-21.84811782836914,-2.38179087638855,22.59223175048828,0.6737161874771118,2.2679946422576904,-0.020094294100999832,,,,,,,,,
1739401743.4923985,0.525495763249848,0.09601711681468586,-0.9531620341148038,-2.0690761408387845,0.13772420504570124,2.1375975273683907,-1.2753508254948505,0.0002867178443687982,-0.0011284738684470684,0.0003700619285321296,-0.000558515262186793,0.0006528860172500932,0.001555216744373095,-0.0003762638648404351,0.2411382496356964,-21.84811782836914,-2.38179087638855,22.63983917236328,0.6737161874771118,2.2615859508514404,-0.06037749722599983,,,,,,,,,
1739401743.5043943,0.5254930500532763,0.09602319784024277,-0.9531617913240682,-2.0690751097417532,0.13771973789610248,2.1375940704653087,-1.2753479813062967,-0.0008628978404969848,0.0004151278083560161,0.0006159822818726968,4.9791983712984725e-05,-0.0017360036268749554,0.001949643422846204,0.0034404037750308003,0.2689092457294464,-21.89969253540039,-2.38179087638855,22.61603546142578,0.6865335702896118,2.2615859508514404,-0.10066069662570953,,,,,,,,,
1739401743.5144022,0.5255009008080225,0.09602006369190713,-0.9531620098397513,-2.0690750856655136,0.137719954687139,2.1375920578699863,-1.275355518169144,0.0003216773652040591,0.0011871957307683723,-0.001192442125598168,-0.0008782487156550188,-0.0004482924245724715,0.0005730120676195783,-0.0005629448746616377,0.1697271168231964,-21.84811782836914,-2.38179087638855,22.61603546142578,0.6737161874771118,2.2753188610076904,-0.04756011441349983,,,,,,,,,
1739401743.5264041,0.5254964965864746,0.09601341027909713,-0.9531597707073953,-2.06906768527888,0.13772389524800538,2.1375969619767394,-1.2753571374805819,8.471101510173525e-05,-0.0014818422269018434,0.0006675996595319828,0.001004342359349926,-0.0005172009607147538,0.0016235176702853456,-0.0015301671968297437,0.2173345386981964,-21.79654312133789,-2.38179087638855,22.51685333251953,0.6673074960708618,2.2753188610076904,-0.03382720425724983,,,,,,,,,
1739401743.5374036,0.5254974763138404,0.09601541016401702,-0.9531599543266913,-2.069071547783594,0.1377233257952008,2.137593060965012,-1.2753541440125635,0.0004919575443375348,0.00031062198430197344,0.0001605206188421153,-0.0012712540784462672,-0.0012114773300052166,-0.0006403916087694699,-0.0015753814235626184,0.2173345386981964,-21.82431411743164,-2.4095618724823,22.56842803955078,0.6737161874771118,2.2679946422576904,-0.06037749722599983,,,,,,,,,
1739401743.5483282,0.5254956844311075,0.09601540430601653,-0.9531590422063184,-2.0690693855774396,0.13772380104712015,2.1375936949923444,-1.275351358369397,4.475199804503322e-05,0.0004926420389009533,0.0009648126913809445,0.00021521831115525807,-0.0004080284786539042,-0.00022658220081460273,0.0016667196347545303,0.2411382496356964,-21.82431411743164,-2.38179087638855,22.54065704345703,0.6801248788833618,2.2615859508514404,-0.07411040365695953,,,,,,,,,
1739401743.5584106,0.5254957642269643,0.09601483083982913,-0.9531611882513971,-2.0690711896246263,0.13772379009128596,2.1375947587748754,-1.2753530559062953,0.00025765537670847607,5.6387452358234395e-06,-0.0002217836901511807,-0.00036324773618928946,0.0009131049224201136,-0.0005128279416756676,-0.0007562231709552586,0.2411382496356964,-21.79654312133789,-2.38179087638855,22.56842803955078,0.6801248788833618,2.2615859508514404,-0.03382720425724983,,,,,,,,,
1739401743.5693944,0.5254980142793096,0.09601169379896439,-0.9531587992599652,-2.069067436547202,0.13772420648577896,2.1375941345470357,-1.2753487548496447,4.959421606217859e-05,-0.0016496404836027975,0.0006023735050204686,0.0005691614340399471,-0.0006719246973915533,0.00036492687225293775,0.0032547366537628826,0.1697271168231964,-21.77273941040039,-2.38179087638855,22.51685333251953,0.6737161874771118,2.2615859508514404,-0.06678618490695953,,,,,,,,,
1739401743.579396,0.5254974736616096,0.09601537020432967,-0.9531613938867337,-2.0690691352634483,0.13772268927552328,2.1375981064657914,-1.2753567088621993,0.0009740648849598895,0.0009968322616216727,5.4458324019574585e-05,-0.0009255577903936396,-0.0008133740087548638,0.0002904055887221853,0.0001894544533237759,0.2173345386981964,-21.82431411743164,-2.35798716545105,22.54065704345703,0.6865335702896118,2.2551772594451904,-0.027418512850999832,,,,,,,,,
1739401743.590355,0.5254972115151512,0.09601364312783241,-0.953163807679259,-2.069071534441355,0.13772450352065463,2.1375941765088666,-1.2753520473985314,0.0006737326935857992,0.0005445204929174406,0.0007354050914151378,3.4562633311292615e-05,0.0003655850514137551,0.001105691181752918,0.0009288575104112099,0.2173345386981964,-21.79654312133789,-2.35798716545105,22.56842803955078,0.6737161874771118,2.2615859508514404,-0.07411040365695953,,,,,,,,,
1739401743.6004074,0.5254991624529817,0.0960112755004162,-0.9531637347798436,-2.069068368996623,0.13772456081998052,2.137598585536845,-1.2753517404515466,0.00046087362309002894,-0.0006369291902239651,0.0001247654446821589,0.00024496350361523844,0.000548293260980204,0.0006791180907573165,0.0002480026636554366,0.1935308277606964,-21.79654312133789,-2.35798716545105,22.54065704345703,0.6737161874771118,2.2615859508514404,-0.08051909506320953,,,,,,,,,
1739401743.611329,0.5255002592124963,0.09601543060094293,-0.9531655715134795,-2.069073327401954,0.13771983649230382,2.13759734680075,-1.2753533354080446,0.00021663276602958647,-0.00013114333792016317,-0.0010867579150475274,0.0003277156352494946,-0.0014609282774775889,0.000241597498391278,3.727858296682891e-05,0.1935308277606964,-21.82431411743164,-2.3302161693573,22.59223175048828,0.6737161874771118,2.2679946422576904,-0.027418512850999832,,,,,,,,,
1739401743.621338,0.5254967168016321,0.09601711682715994,-0.9531609818727356,-2.0690746519557677,0.13772380297221126,2.1375933952751907,-1.2753524913210406,-0.000900629550431762,-0.000724718280880694,0.000897931022964856,0.0006583289054785186,0.0007019354254104074,0.0008876129227751564,-0.0008020910041617026,0.1935308277606964,-21.84811782836914,-2.38179087638855,22.59223175048828,0.6801248788833618,2.2679946422576904,-0.04756011441349983,,,,,,,,,
1739401743.631423,0.525502871784029,0.09601712689482127,-0.9531634947041802,-2.069073330482993,0.13772212774176304,2.137593149637832,-1.2753533463367028,0.0011345104343226857,-3.93446539425528e-05,-0.00019640441967636567,-8.632143804945331e-05,6.205951942368993e-05,-0.0015763342717177926,-0.0003329675428312231,0.1419561207294464,-21.84811782836914,-2.35798716545105,22.59223175048828,0.6673074960708618,2.2753188610076904,-0.027418512850999832,,,,,,,,,
1739401743.641426,0.5254974649775195,0.09602114167321824,-0.9531619967334926,-2.0690733304606135,0.13772531410607194,2.1375934365965055,-1.2753575431949336,0.0009180129960999642,0.0008773741647612058,0.0003868477637951691,0.0010722899079154413,-0.0002619579663312284,-0.00013426363798606602,-0.000433650167772387,0.2173345386981964,-21.89969253540039,-2.38179087638855,22.59223175048828,0.6673074960708618,2.2679946422576904,-0.027418512850999832,,,,,,,,,
1739401743.652428,0.5254960780571293,0.09601611463252814,-0.9531620281617004,-2.069069468413653,0.13772591872043963,2.137597364724319,-1.2753580135926512,0.0008625854296555475,-0.0017322958586376389,-0.0013738821819589968,0.0015881121994636314,0.00040226113167236,-0.00020519383051829774,-0.002705709141277726,0.1935308277606964,-21.82431411743164,-2.38179087638855,22.54065704345703,0.6608988046646118,2.2615859508514404,-0.0008682189509272575,,,,,,,,,
1739401743.66338,0.5254980992715879,0.09601965656008712,-0.9531569580860608,-2.0690733304606157,0.13772775965602171,2.1375967758150956,-1.2753576241466817,0.001175627043250707,0.0005942008180730689,0.0015009135832205571,-0.0006624558397564574,-0.0002692758427960642,0.0005827557404666023,-0.0009064036642814745,0.2173345386981964,-21.87192153930664,-2.4095618724823,22.59223175048828,0.6737161874771118,2.2679946422576904,-0.020094294100999832,,,,,,,,,
1739401743.6733859,0.525495681825262,0.09601918336907482,-0.9531638186716459,-2.069073330121452,0.13772543285022468,2.137593556689151,-1.2753506800565055,0.00046512503022243354,0.0010727146127879942,-0.0021889401888273317,-5.188628809394285e-05,7.969897984700666e-05,-0.001062939596731741,0.0003256525964026189,0.2411382496356964,-21.87192153930664,-2.35798716545105,22.59223175048828,0.6673074960708618,2.2753188610076904,-0.05396880581974983,,,,,,,,,
1739401743.6833923,0.5254952515102826,0.09601989040196854,-0.953159953035527,-2.0690733332950306,0.1377252603359577,2.137598271156982,-1.2753502241636356,0.00022782300187186789,0.0006501534399269997,0.0010303336898995102,-0.0006281728223371484,6.722709701910824e-05,0.002016492307885691,0.0003482296443755044,0.2173345386981964,-21.87192153930664,-2.4095618724823,22.59223175048828,0.6938577890396118,2.2615859508514404,-0.06678618490695953,,,,,,,,,
1739401743.6943643,0.5254927968683073,0.09601836368576587,-0.9531608668545937,-2.06907154778361,0.1377242066293704,2.1375985230411483,-1.2753537786693099,-0.0008102109370450885,0.0006349790661443029,8.37011306921518e-06,0.00010593148563257899,-0.0008183157197935277,0.000688634832871525,0.0021537036593000792,0.2411382496356964,-21.82431411743164,-2.35798716545105,22.56842803955078,0.6737161874771118,2.2615859508514404,-0.027418512850999832,,,,,,,,,
1739401743.704439,0.5255009013068945,0.09601367045946345,-0.9531635489682007,-2.069071546766109,0.13772607618846525,2.1375982559513145,-1.2753505235071363,0.00027186429008912625,-0.0001253432636914796,-0.001642375200677259,-0.001153131840412725,0.0016087719865390043,-0.000710300039201989,0.0004858616772117281,0.1697271168231964,-21.79654312133789,-2.35798716545105,22.56842803955078,0.6608988046646118,2.2615859508514404,-0.05396880581974983,,,,,,,,,
1739401743.7154417,0.5254973972788873,0.09601444543852868,-0.9531619159039253,-2.06906581977118,0.13772531837237575,2.1375977655505647,-1.2753595448919028,-0.0009583589986415966,7.863617537962484e-05,0.0007955865895716097,0.00064136623759199,-0.00042971671752198694,-0.00020663399806044246,-0.0017799285357340453,0.2173345386981964,-21.79654312133789,-2.38179087638855,22.49304962158203,0.6673074960708618,2.2679946422576904,-0.013685601763427258,,,,,,,,,
1739401743.726405,0.5254928930691077,0.0960134427460909,-0.9531599470019557,-2.0690694557834486,0.13772304560832177,2.137599358540265,-1.2753548752929313,-0.0006577654061251644,0.0002409877271905687,0.0008768037221604486,-4.5019087641569495e-05,0.0001357869044233643,-0.000608267452713156,-0.0009048167232065951,0.2411382496356964,-21.79654312133789,-2.4095618724823,22.54065704345703,0.6865335702896118,2.2551772594451904,-0.05396880581974983,,,,,,,,,
1739401743.7374449,0.52549564942068,0.09601382514369212,-0.9531609017936007,-2.0690715375709887,0.13772531853438638,2.137599404497117,-1.2753578468092712,-0.0006859874454909315,-0.0004294341146626908,0.0004361370003558979,-0.0012379099398514431,0.00019625117938920373,0.0006119255527317388,-0.0010673243057409986,0.2411382496356964,-21.77273941040039,-2.35798716545105,22.56842803955078,0.6673074960708618,2.2551772594451904,-0.020094294100999832,,,,,,,,,
1739401743.7483804,0.5254963243242979,0.09601340962493797,-0.9531658991250209,-2.0690733274081,0.13772455650002996,2.137597393153198,-1.2753521740862466,0.0001312846276271479,0.00016775342774968775,-0.0018168256828459354,-0.0011794391593893813,-0.0006407251122966058,-0.0018307691382557334,0.002091736270333568,0.1935308277606964,-21.79654312133789,-2.3302161693573,22.59223175048828,0.6737161874771118,2.2679946422576904,-0.06678618490695953,,,,,,,,,
1739401743.7593265,0.5254945362034295,0.09601833932147212,-0.9531608775139837,-2.0690665005547437,0.13772304571664135,2.137598604100121,-1.2753628199364484,-0.0006301811208853977,0.0011279844447551384,-0.0007941870402669179,0.000762696107407482,0.00045623466390238334,0.0013369579447177753,-0.0022503902342485044,0.2173345386981964,-21.82431411743164,-2.35798716545105,22.54065704345703,0.6865335702896118,2.2615859508514404,0.012864691205322742,,,,,,,,,
1739401743.769343,0.5254974753937561,0.09601715476714325,-0.9531599443249814,-2.0690714649778794,0.13772607603245687,2.1375989995405416,-1.2753580578315047,0.0006374991025965334,8.844825013964601e-05,0.00012872612402102914,-0.0010481702056660267,7.676994236064326e-05,0.00023052856077487854,0.0002421214406027344,0.2173345386981964,-21.84811782836914,-2.4095618724823,22.56842803955078,0.6608988046646118,2.2615859508514404,-0.027418512850999832,,,,,,,,,
1739401743.7804096,0.5254974411034223,0.09601712083251962,-0.9531597436889379,-2.0690751131371647,0.13772518617694535,2.1375970232819785,-1.2753532067750462,-0.0010561108119940183,-0.00016108016995341023,-0.0003248848536104072,-0.0016671502679898686,-0.00010470823213734602,-0.0006838843108544245,0.0014766336008488511,0.2173345386981964,-21.84811782836914,-2.38179087638855,22.61603546142578,0.6801248788833618,2.2753188610076904,-0.04023589566349983,,,,,,,,,
1739401743.7913935,0.5254971323328178,0.0960209733128837,-0.9531617119950739,-2.0690733028754598,0.13772324592559315,2.137597534160735,-1.2753586173713223,-0.00016227021908252057,0.0008705414992486264,-0.0001949490633678696,-0.0001229681211203119,-0.0005449306009399301,-1.0819450618592509e-05,-0.0003776478596048563,0.2173345386981964,-21.87192153930664,-2.38179087638855,22.59223175048828,0.6938577890396118,2.2615859508514404,-0.013685601763427258,,,,,,,,,
1739401743.8014371,0.5254964157995924,0.0960209631728035,-0.9531617133719468,-2.0690733304601463,0.13772456089236507,2.1375962656010654,-1.2753604259490379,-0.00015888719418581844,0.00022515789846770732,0.000332397777743899,-0.0002957091808397616,-0.00022073712645674675,-0.0003965749475569371,-0.0010984651159109348,0.2173345386981964,-21.87192153930664,-2.38179087638855,22.59223175048828,0.6737161874771118,2.2817275524139404,-0.0072769103571772575,,,,,,,,,
1739401743.8124323,0.52549692576171,0.096021643791314,-0.9531638168330147,-2.069073321303247,0.13772305871786555,2.1375978884988958,-1.2753565426189517,0.0007223021472214271,0.0011222934703310815,-0.0003854387715307362,0.0005974803881110642,-0.0007917056917757783,0.0010506542241986987,-0.00030849736654677993,0.1935308277606964,-21.89969253540039,-2.35798716545105,22.59223175048828,0.6865335702896118,2.2679946422576904,-0.04023589566349983,,,,,,,,,
1739401743.8233993,0.525491346770326,0.09601567712380443,-0.9531637384070415,-2.069072665383263,0.13772380760220848,2.1375986463285517,-1.2753613761417926,-0.0021990543175386627,-0.0019089450798905104,-0.00116502144915471,0.0005903280654227009,-0.0002569221718329455,0.0002797646864842972,-0.0010912218900181406,0.2689092457294464,-21.82431411743164,-2.35798716545105,22.59223175048828,0.6801248788833618,2.2615859508514404,-0.0008682189509272575,,,,,,,,,
1739401743.8334186,0.5254984342938472,0.0960171960770773,-0.953161595354453,-2.0690694679824753,0.13772439027754896,2.137597889177211,-1.2753565373462135,0.0011403987228186601,-0.0012714413997011373,-0.0018247770865455705,0.0011734661250401529,-0.00210046202052345,-0.000257520637541725,0.0007464828165388759,0.1935308277606964,-21.84811782836914,-2.35798716545105,22.54065704345703,0.6737161874771118,2.2679946422576904,-0.04023589566349983,,,,,,,,,
1739401743.8443298,0.5254928119571908,0.09602004956918883,-0.9531617658474811,-2.0690751131376324,0.13772300618468808,2.1375978891772194,-1.275358058154494,3.9218582770879015e-06,0.0005809590866129388,-0.00034860181281160056,-0.0008666030499665934,-0.0004134442417442476,-0.0005224608314255279,-0.0008061176149653998,0.2411382496356964,-21.84811782836914,-2.38179087638855,22.61603546142578,0.6865335702896118,2.2679946422576904,-0.027418512850999832,,,,,,,,,
1739401743.8544323,0.525497237193011,0.09601549540164618,-0.9531620091703339,-2.0690715474444326,0.13772607619379768,2.1375978891772194,-1.2753532860582677,-9.011309225214582e-05,-0.0009652400229394922,-0.0010300125669618183,8.608128262504712e-05,3.527119322897767e-05,-0.00014988855077502003,-0.0003262016933286161,0.2173345386981964,-21.82431411743164,-2.38179087638855,22.56842803955078,0.6608988046646118,2.2679946422576904,-0.06678618490695953,,,,,,,,,
1739401743.8653784,0.5254937394708112,0.09601340679868146,-0.9531625703426709,-2.069073303023505,0.13772531853438608,2.1375994044973763,-1.275360649754819,0.00011735050900945075,-0.002304444423478308,-0.0008094504516940625,-0.0009006953247712131,0.0006968332217123806,0.00039396154733139957,-0.001696713719500947,0.2689092457294464,-21.79654312133789,-2.35798716545105,22.59223175048828,0.6673074960708618,2.2551772594451904,0.0064559997990727425,,,,,,,,,
1739401743.875399,0.5254928224256519,0.09601374933033296,-0.9531658875673752,-2.0690685807954377,0.13772454386474162,2.1375975183038745,-1.27535536443442,-0.0001952401337061292,-6.10930041455519e-05,-0.0011968164626664517,0.0011546001499086586,0.0003778912676256241,-0.0005963416434683083,-0.0009147283302263214,0.2411382496356964,-21.79654312133789,-2.3302161693573,22.56842803955078,0.6737161874771118,2.2679946422576904,-0.013685601763427258,,,,,,,,,
1739401743.88547,0.5254927202624632,0.0960135158532152,-0.9531637101216723,-2.0690715692067116,0.13772533169800447,2.137599404495283,-1.2753549060092286,-0.0018001967344469356,-0.00015880606523004028,0.0007286827725109369,-0.0019993647791524813,8.636957635519576e-05,0.0001280465653210642,0.0004758823522518228,0.2689092457294464,-21.79654312133789,-2.3302161693573,22.56842803955078,0.6673074960708618,2.2551772594451904,-0.05396880581974983,,,,,,,,,
1739401743.896378,0.5254954198427216,0.09600970016235984,-0.953163496005101,-2.0690712149530097,0.13772927497714166,2.1376001621574545,-1.2753565026359772,-0.0012413775465124127,-0.0024619021119125497,0.00013505262883226096,-8.100229708237351e-05,0.00037119677672736696,0.0006220915808279587,-0.0007728709517815394,0.2411382496356964,-21.74496841430664,-2.35798716545105,22.56842803955078,0.6608988046646118,2.2487685680389404,-0.013685601763427258,,,,,,,,,
1739401743.9073994,0.5254933756826327,0.09601564541824338,-0.9531612705763709,-2.0690714252312787,0.13772516107844351,2.137598646837298,-1.2753548790606855,9.103268188474797e-05,0.0005043075280186445,0.0016562654304519355,0.00043980803029004416,-0.00021611851911661198,-6.173230731886857e-05,-0.0005477123219191256,0.2411382496356964,-21.79654312133789,-2.35798716545105,22.56842803955078,0.6673074960708618,2.2615859508514404,-0.027418512850999832,,,,,,,,,
1739401743.9183285,0.5254964862891287,0.09601782810237063,-0.9531638188190834,-2.0690712603621835,0.13772567395378643,2.137600555407085,-1.2753588061347358,0.0008034459105503878,0.00039591873038117946,-4.11506192708396e-05,-0.0007251170404619151,-6.731248791635091e-05,0.00019764695937623915,-0.00046537381570237857,0.2173345386981964,-21.84811782836914,-2.35798716545105,22.56842803955078,0.6673074960708618,2.2753188610076904,-0.020094294100999832,,,,,,,,,
1739401743.9283905,0.5254932963039598,0.09602119698843659,-0.9531637029128247,-2.069073443353602,0.13772304702280502,2.1375986470586206,-1.2753533637564796,-0.0008086427591301622,0.0011511501710153463,0.00032003490294099315,-0.0006846075442803892,-0.0018584466336918756,0.0005151691145118643,0.0006094410854063924,0.2411382496356964,-21.87192153930664,-2.35798716545105,22.56842803955078,0.6865335702896118,2.2615859508514404,-0.04023589566349983,,,,,,,,,
1739401743.9394052,0.5254972113558821,0.09602029720700889,-0.953156773545135,-2.069077868129408,0.13772380321423766,2.1375994044973776,-1.2753534037240546,0.001122888668749475,0.0003681502052954856,0.0008811811243749593,-0.0011472390625006602,0.00019271924214637158,0.00016152791938907373,0.0002511577921845084,0.2173345386981964,-21.84811782836914,-2.4095618724823,22.61603546142578,0.6801248788833618,2.2551772594451904,-0.06678618490695953,,,,,,,,,
1739401743.950431,0.5254935121714467,0.09602393196390618,-0.953163738833226,-2.0690711051230397,0.13772793078519807,2.1375986468372985,-1.275354161939989,-0.0013051522533785828,0.001182326478762464,-0.0004653288763817176,0.0003871378216290073,0.0010877895120195772,-0.0013178123593980294,0.0017796028614911505,0.2411382496356964,-21.89969253540039,-2.35798716545105,22.59223175048828,0.6737161874771118,2.2615859508514404,-0.06037749722599983,,,,,,,,,
1739401743.9614341,0.5254974767390368,0.09602099956520255,-0.9531634870601731,-2.0690751087159676,0.13772531612931144,2.1375994044973767,-1.2753604392105204,0.0016708901719106573,-0.0006525585747082216,-0.0005007493043291324,-3.6477827565512683e-06,-0.0014448946428736206,-0.0010530938566131677,-0.0024140819787899,0.2173345386981964,-21.87192153930664,-2.35798716545105,22.61603546142578,0.6673074960708618,2.2551772594451904,-0.0072769103571772575,,,,,,,,,
1739401743.9733448,0.5254974679214319,0.09602360325151098,-0.9531638158336482,-2.0690732260579963,0.137726228025472,2.13759788917722,-1.2753533907138825,0.0011340785096373718,0.0027180285035240757,-0.0011379389480149023,0.0002542792679695214,0.0007761237552338397,-0.0005488891988508244,0.0008992068881219896,0.2173345386981964,-21.92349624633789,-2.35798716545105,22.59223175048828,0.6673074960708618,2.2679946422576904,-0.06678618490695953,,,,,,,,,
1739401743.985366,0.5254942846463767,0.09602023322647962,-0.9531562220624608,-2.0690734066004297,0.13772460036716233,2.1375986468372985,-1.2753602996696696,-0.0007685150756822989,-0.0012985379618939438,0.0011613045493581802,-0.0011486495162003818,-7.591522140165608e-05,-0.00043766576532527804,-0.001214548269474939,0.2173345386981964,-21.84811782836914,-2.38179087638855,22.59223175048828,0.6737161874771118,2.2615859508514404,-0.0072769103571772575,,,,,,,,,
1739401743.9963496,0.5254991892301357,0.09601915814856259,-0.953161596874258,-2.0690715476706836,0.13772527916596045,2.13759788917722,-1.27535339071362,0.0009301817267443574,-0.0002916942984335975,0.00015949239985229294,-0.00029350195427646074,-0.00015910628397674946,-0.0001470355197353804,0.0001697379869010189,0.1935308277606964,-21.87192153930664,-2.35798716545105,22.56842803955078,0.6673074960708618,2.2679946422576904,-0.06678618490695953,,,,,,,,,
1739401744.0063615,0.5254952956632647,0.09601554146999516,-0.9531637887410622,-2.069069467993733,0.137724574036022,2.1375970232799877,-1.2753525378979378,0.00032117274531364164,-0.0015306945403329483,-3.0655319974600374e-05,0.000549504555450407,-0.00034129635098097355,-0.0004816981719382963,0.0012871659865548466,0.2173345386981964,-21.79654312133789,-2.35798716545105,22.54065704345703,0.6737161874771118,2.2753188610076904,-0.07411040365695953,,,,,,,,,
1739401744.0163858,0.5254956804695875,0.09601646051900446,-0.9531658185665044,-2.0690684511868898,0.13772292683733506,2.1375994044973767,-1.2753590263596786,0.000879518242139776,8.85878159342259e-05,-0.0016217870189640404,0.0013303085084734254,-0.0008533268881419915,0.0007659287083648908,-2.0258010184039154e-05,0.2411382496356964,-21.82431411743164,-2.3302161693573,22.54065704345703,0.6608988046646118,2.2551772594451904,-0.0072769103571772575,,,,,,,,,
1739401744.0273888,0.5254953276048759,0.09601275782994145,-0.953163714118851,-2.0690669435304314,0.13772531858263165,2.1375986468911337,-1.2753549177311225,0.0003231884085227573,-0.0007216960212062534,-0.0012595921917780575,0.0006191903569827415,-0.0005623322249994631,0.0004793180804646141,-0.0007139763252376298,0.2173345386981964,-21.77273941040039,-2.3302161693573,22.51685333251953,0.6673074960708618,2.2615859508514404,-0.05396880581974983,,,,,,,,,
1739401744.0384068,0.5254949419939259,0.09601382905883704,-0.9531655483816496,-2.0690715477710317,0.13772454775147522,2.1375997577100874,-1.2753541614554493,-2.0929417410020355e-05,0.0010935250593021608,1.7857194146066765e-05,-0.0013974454289724645,0.0003813896156518828,0.000574234566442874,0.0005293228901990092,0.2411382496356964,-21.77273941040039,-2.3302161693573,22.56842803955078,0.6737161874771118,2.2551772594451904,-0.06037749722599983,,,,,,,,,
1739401744.0493948,0.5254943645053192,0.09601457332691198,-0.9531635756659699,-2.069071548338994,0.13772304555412634,2.1376002014039757,-1.2753479461333754,-0.0005646102823841969,-0.0008265994784722815,0.0002375202352086774,-0.000646796620275885,-0.0003766235589947786,7.73584368008697e-05,0.0018088489814147503,0.2173345386981964,-21.77273941040039,-2.35798716545105,22.56842803955078,0.6865335702896118,2.2487685680389404,-0.07411040365695953,,,,,,,,,
1739401744.0604718,0.5254991097457138,0.0960165110751255,-0.9531637141176252,-2.069073247931264,0.13772608935817882,2.1375993632894486,-1.2753565421624244,0.0016460467844860976,0.0010090070884745945,-0.0012645115226609916,-0.0016275784268857088,-0.00016626637785936346,-0.0005279553690603494,0.0014898904790285336,0.1935308277606964,-21.79654312133789,-2.3302161693573,22.59223175048828,0.6608988046646118,2.2551772594451904,-0.04023589566349983,,,,,,,,,
1739401744.0723224,0.5254957554002518,0.09601415351119999,-0.9531616330200555,-2.0690733213027808,0.13772456087438203,2.1375962656196763,-1.2753578623140516,7.162363601088322e-05,-7.700037536021646e-05,-6.6393181679855275e-06,0.0005638147049149011,-6.556019147908963e-05,-0.0011012367776411618,-0.0006972890245388599,0.2411382496356964,-21.77273941040039,-2.35798716545105,22.59223175048828,0.6737161874771118,2.2817275524139404,-0.020094294100999832,,,,,,,,,
1739401744.0823658,0.5254933800451776,0.09601646926572725,-0.9531620375714158,-2.069071101715819,0.13772638479525373,2.1376010680916075,-1.275354904574056,-4.9178212995443856e-05,-0.0006749737053272835,8.156439335904722e-05,0.0002746118883673976,0.0007953877778540151,0.0005093377492696436,-0.0006537417885131444,0.2411382496356964,-21.82431411743164,-2.38179087638855,22.59223175048828,0.6673074960708618,2.2679946422576904,-0.05396880581974983,,,,,,,,,
1739401744.0924203,0.5254936593048298,0.09601612630469701,-0.9531638198327969,-2.0690733304228695,0.1377277596749679,2.1375986468911337,-1.2753554830344862,-0.00013873398594619745,-0.0003838334158175648,-0.001346946135967124,-0.0014623986397172615,0.00041618488396961463,-0.0005322162870532407,0.0011318243251316395,0.2689092457294464,-21.82431411743164,-2.35798716545105,22.59223175048828,0.6737161874771118,2.2615859508514404,-0.04023589566349983,,,,,,,,,
1739401744.1024282,0.5254959740538637,0.09601636403611635,-0.9531635769990519,-2.069073220572214,0.13772456157853966,2.137598275963954,-1.275360452274525,9.049291505110852e-05,-0.0006922262236711108,-0.001485595837727224,0.0006010233428043518,-0.0004867147149830922,-0.0006891064029455881,-0.001803495937522877,0.1935308277606964,-21.82431411743164,-2.35798716545105,22.59223175048828,0.6737161874771118,2.2615859508514404,-0.0072769103571772575,,,,,,,,,
1739401744.112435,0.525496416078024,0.0960186001341462,-0.9531598404418548,-2.0690733304587523,0.13772339223952368,2.1375982423836484,-1.275355323563141,0.00036428040431371047,0.000268889478189577,0.000982828096502302,-0.0005888107607589863,-0.00014296327578004764,-2.1760090519496285e-05,0.0016985943442004723,0.2173345386981964,-21.82431411743164,-2.4095618724823,22.59223175048828,0.6865335702896118,2.2679946422576904,-0.04756011441349983,,,,,,,,,
1739401744.123411,0.5254968016648593,0.09601739305008893,-0.9531628443518678,-2.0690750307213333,0.13772705855552098,2.1375978891792133,-1.275361196868602,-0.0007191224608573812,-0.001801195072924091,-0.001082467339839612,0.0003700165601382649,9.636054551215854e-06,1.4978007873864014e-05,-0.0016479677273420308,0.1935308277606964,-21.84811782836914,-2.35798716545105,22.61603546142578,0.6801248788833618,2.2679946422576904,-0.0008682189509272575,,,,,,,,,
1739401744.1343942,0.525497210375189,0.09602031274844276,-0.9531590410904781,-2.0690768377771547,0.13772621229206153,2.1375986468372985,-1.2753524986527458,-0.0012342248734147415,6.744092528627722e-05,0.0008743243611199948,0.0001670842828303884,0.0003141982941623903,4.726643828578205e-05,0.0009945410633098678,0.2173345386981964,-21.84811782836914,-2.38179087638855,22.63983917236328,0.6608988046646118,2.2615859508514404,-0.07411040365695953,,,,,,,,,
1739401744.1453462,0.5254991852373754,0.09601912898653833,-0.9531597666563618,-2.069071547745582,0.1377245740387904,2.1375986468372985,-1.2753525771442376,0.0012133603859963962,-0.0006026003849451291,-0.0002904191600797299,-5.4727869205950454e-05,0.00023818435286876704,-0.00032475965468417394,0.001242993349381156,0.1935308277606964,-21.84811782836914,-2.38179087638855,22.56842803955078,0.6737161874771118,2.2615859508514404,-0.07411040365695953,,,,,,,,,
1739401744.156343,0.525495295663244,0.09601788738669277,-0.9531634930066963,-2.0690722230878675,0.13772931452245657,2.1375986468372985,-1.2753565407350165,0.0006122524803054097,-0.0007396413107671152,-0.000614729511036423,-0.000621302510753275,0.002073831883264569,-0.00042763554106437906,-0.00037619891234084654,0.2173345386981964,-21.82431411743164,-2.35798716545105,22.54065704345703,0.6608988046646118,2.2615859508514404,-0.04023589566349983,,,,,,,,,
1739401744.1663716,0.5254988435449568,0.09601488883228633,-0.9531609565567571,-2.069071547830252,0.1377206819432225,2.13759788917722,-1.2753549191155182,0.0017775950596201962,-0.0012345764956643664,0.0010363957225853822,-0.0011447164199143065,-0.002314387288244542,-2.304744056748661e-05,0.0012345623533619955,0.1935308277606964,-21.77273941040039,-2.38179087638855,22.56842803955078,0.7066751718521118,2.2679946422576904,-0.05396880581974983,,,,,,,,,
1739401744.1773746,0.5254967571295068,0.0960162869803249,-0.9531634599497688,-2.0690694679937396,0.1377250328242014,2.1375986468372985,-1.275354919115551,-6.662204214091994e-05,-0.0010625443438748656,0.0005510515522265964,0.0003068571523315392,0.0007642135685581135,-0.0001698191440944019,-0.00028422104018416543,0.2173345386981964,-21.79654312133789,-2.35798716545105,22.54065704345703,0.6737161874771118,2.2615859508514404,-0.05396880581974983,,,,,,,,,
1739401744.187439,0.5254947011729839,0.09601489014169323,-0.9531650527559958,-2.069071547783594,0.13772516111722213,2.1375986468911337,-1.2753523808613407,-0.001130558730867017,-0.0007125671516198906,-0.001351468150811447,0.0007401139994217093,0.000226470983543198,-0.00021452934153818787,0.0020567447557950217,0.2411382496356964,-21.77273941040039,-2.3302161693573,22.56842803955078,0.6673074960708618,2.2615859508514404,-0.07411040365695953,,,,,,,,,
1739401744.1983593,0.525499073491203,0.09601417985479169,-0.953162767548478,-2.069071465367295,0.137726431613865,2.1375990000500082,-1.2753537570076583,0.00019887749759159323,0.0001722331888193583,-0.00038592914374255315,-0.0004244683941616011,0.0007477487033677676,0.00044243976746042603,0.001250529833128253,0.1935308277606964,-21.77273941040039,-2.35798716545105,22.56842803955078,0.6608988046646118,2.2615859508514404,-0.06678618490695953,,,,,,,,,
1739401744.2103817,0.5254935013799796,0.0960148521404826,-0.9531629855008144,-2.0690715477831287,0.13772532048657232,2.1375978891792133,-1.2753546853397273,-0.0005129421109907301,-0.0003627007024723121,9.419301010387565e-05,-2.7958571201357934e-05,0.0008738237853611761,-0.0008529297094916596,0.0020556957287581924,0.2689092457294464,-21.77273941040039,-2.3302161693573,22.56842803955078,0.6673074960708618,2.2679946422576904,-0.020094294100999832,,,,,,,,,
1739401744.2213163,0.525495048938444,0.09601588944042388,-0.9531620400392185,-2.069065866010234,0.13772683387260365,2.1375986468372985,-1.2753534428901554,0.00032800783661940055,0.00019234444352810828,8.518699372467927e-06,0.0007956857399971061,0.0012183919609473279,2.3274911568774912e-06,0.002292102554424529,0.2411382496356964,-21.79654312133789,-2.38179087638855,22.49304962158203,0.6544901132583618,2.2615859508514404,-0.06678618490695953,,,,,,,,,
1739401744.2313464,0.525496328128402,0.09601827180975712,-0.953161281562044,-2.06907225769146,0.1377258319192486,2.137600162157455,-1.2753549166936293,0.0009664710588827823,-0.00015512166723615357,0.0014544174302731044,-2.6248515078447217e-05,0.0006672630504841388,0.00015262262905005016,-0.00023651544945220025,0.1935308277606964,-21.82431411743164,-2.38179087638855,22.59223175048828,0.6673074960708618,2.2487685680389404,-0.05396880581974983,,,,,,,,,
1739401744.241402,0.5254954332091738,0.09601862690647964,-0.9531630823249377,-2.069072996368148,0.13772687335438022,2.13759788917722,-1.275358097238834,-0.0009215658778085779,0.0011487339756053243,-0.0010745508228180447,0.0005427643849245515,0.0009267033245097553,-0.00026490570062061503,0.0013525202784584092,0.2411382496356964,-21.82431411743164,-2.35798716545105,22.59223175048828,0.6544901132583618,2.2679946422576904,-0.027418512850999832,,,,,,,,,
1739401744.2514246,0.5254954345602169,0.09602202564696732,-0.9531616772785599,-2.0690747834667786,0.1377266967080811,2.1375986468372985,-1.275352498491905,-0.00041773746170788455,0.0008831371778819288,-0.00014328983678900907,-0.0004761111018214149,-0.001146480286320927,0.00013701100081143925,0.0020329912710418388,0.2411382496356964,-21.87192153930664,-2.38179087638855,22.61603546142578,0.6737161874771118,2.2615859508514404,-0.07411040365695953,,,,,,,,,
1739401744.2623365,0.5254955165441956,0.09601575945032524,-0.9531594994097857,-2.0690741241024995,0.1377262443488108,2.1375994044973767,-1.2753559787534579,-0.00010654409852099312,-0.000913001705702348,-0.0005516746448616841,0.0002661832634346527,-0.00018484061473205944,8.394539285641654e-05,0.0007308396437058782,0.2411382496356964,-21.82431411743164,-2.38179087638855,22.61603546142578,0.6865335702896118,2.2551772594451904,-0.05396880581974983,,,,,,,,,
1739401744.2723587,0.5254973609722781,0.09602344617577385,-0.9531619277432318,-2.0690711052037924,0.13772531858855794,2.1375978754411697,-1.2753559781256032,0.001373032470363127,0.0008177351863992618,-3.326164407261033e-05,0.0007046705158490499,-0.0002549346183835403,-0.0002552903523168568,-0.0008617854126752282,0.2173345386981964,-21.87192153930664,-2.38179087638855,22.59223175048828,0.6673074960708618,2.2679946422576904,-0.05396880581974983,,,,,,,,,
1739401744.2833147,0.5254916073300244,0.0960220256705787,-0.9531597307330648,-2.0690751130999474,0.1377242697795926,2.137597889176987,-1.2753534168957215,-0.0012683151847733586,0.0007620274034436013,0.000750774507579301,-0.0003494421814724065,0.00025817330363236046,-0.0008009684984322008,0.001342064480146378,0.2689092457294464,-21.87192153930664,-2.38179087638855,22.61603546142578,0.6865335702896118,2.2679946422576904,-0.06678618490695953,,,,,,,,,
1739401744.293316,0.5254970405496424,0.09602031312579085,-0.9531630543438716,-2.069073331405421,0.13772304556106182,2.1375994044973763,-1.2753486413611306,0.0009873515570084108,0.00027595233839457407,-0.000981466198656502,-0.00045044909775626967,-0.0010203280173724104,0.0005887672617776614,0.0038627518338263515,0.1935308277606964,-21.84811782836914,-2.35798716545105,22.59223175048828,0.6865335702896118,2.2551772594451904,-0.10706938803195953,,,,,,,,,
1739401744.3044016,0.5254957254938545,0.09601860060505954,-0.953165655776628,-2.06907154778361,0.1377262404500213,2.1375970232799872,-1.2753581800912392,2.5211181296992528e-05,0.00021819396272091708,-0.002135193584785805,0.00015877285730934122,-0.0007481643677098334,-0.00013299071096297625,-0.00041620960844430347,0.2411382496356964,-21.82431411743164,-2.3302161693573,22.56842803955078,0.6865335702896118,2.2753188610076904,-0.027418512850999832,,,,,,,,,
1739401744.3154314,0.5254948016172952,0.09601860064114594,-0.9531638158350678,-2.0690715736083365,0.13772683339258088,2.1375994044973763,-1.2753556764528482,0.0005459347552292469,0.0003061965254956195,-0.0007400339364496112,0.0004860542183645677,-9.800907536920055e-05,0.00023998186120299065,0.00037662754035759757,0.2411382496356964,-21.82431411743164,-2.35798716545105,22.56842803955078,0.6544901132583618,2.2551772594451904,-0.04756011441349983,,,,,,,,,
1739401744.3264017,0.5254912671594548,0.09601789031637617,-0.9531676463242732,-2.0690733389640283,0.13772638501193776,2.1375970232799872,-1.2753503938532333,-0.0020085251668484974,-7.77544479998333e-06,-0.0011236330491012755,-0.0005263254491936685,0.0008706472740656974,-0.00040092858555087205,0.0018346666042432474,0.2689092457294464,-21.82431411743164,-2.3064124584198,22.59223175048828,0.6673074960708618,2.2753188610076904,-0.06037749722599983,,,,,,,,,
1739401744.3373857,0.5254946029234507,0.09602031312178111,-0.9531629514628275,-2.069069110856491,0.13772491630061723,2.1376010680916075,-1.2753643757637159,-0.0002517956979486626,0.001418680495346953,-0.0008401417426083633,0.0017020529370468497,0.0004209721748647026,0.0005672440718839002,-0.0021376698489614016,0.2173345386981964,-21.84811782836914,-2.35798716545105,22.54065704345703,0.6737161874771118,2.2679946422576904,-0.0008682189509272575,,,,,,,,,
1739401744.3483467,0.52549521308539,0.09601638789504525,-0.9531635769941499,-2.0690686896155657,0.13772456087631413,2.1375994045153215,-1.2753541614734176,-0.00013448038551766025,-0.00028551818822154513,-0.0002633449704501677,0.0005288221933648426,-0.00023712899994352633,0.000728650829679057,0.0007503589149305643,0.2173345386981964,-21.82431411743164,-2.35798716545105,22.54065704345703,0.6737161874771118,2.2551772594451904,-0.06037749722599983,,,,,,,,,
1739401744.3583844,0.5254973928799039,0.09601492409939509,-0.9531665176862668,-2.069067206111019,0.13772787813034043,2.1375994568251855,-1.2753580579930188,0.0004928229700121094,-0.00029427189850478883,-0.001956853135643751,0.0005992612198090848,0.0013476589595697503,0.0010741200639575108,0.00038795064198030195,0.2173345386981964,-21.77273941040039,-2.3302161693573,22.54065704345703,0.6737161874771118,2.2551772594451904,-0.027418512850999832,,,,,,,,,
1739401744.3693175,0.5254928226445735,0.0960155226876224,-0.9531591230433688,-2.0690715192435563,0.13772491636749462,2.1375978891775147,-1.2753514382231121,-0.00045229397400041633,-0.00021853929806194,0.0018587140114370983,-0.001021077626359666,0.0009282688916116529,-0.00028651961507734664,0.0030835229302900303,0.2411382496356964,-21.82431411743164,-2.38179087638855,22.56842803955078,0.6737161874771118,2.2679946422576904,-0.04756011441349983,,,,,,,,,
1739401744.3794348,0.525497440953982,0.09601860044868513,-0.9531619550638233,-2.069066909356242,0.13772602372119208,2.137600162157455,-1.2753596813350985,0.0007670715304144188,-0.0003923250913044908,-0.00020266792471279848,0.002039998297263903,0.0013975854654949523,0.00038456232350558465,-0.00015517048698444186,0.2173345386981964,-21.82431411743164,-2.38179087638855,22.54065704345703,0.6608988046646118,2.2487685680389404,-0.013685601763427258,,,,,,,,,
1739401744.390323,0.5254964078471702,0.0960175745964299,-0.9531610658206643,-2.0690684749108343,0.13772454769737225,2.1376010680916075,-1.27535348198056,-8.566836165956981e-05,-0.0011394679415990812,-2.4982981143089516e-05,0.0010603172585376686,-0.0005017172456094637,0.00034445079643088586,-2.9601434785202175e-05,0.2173345386981964,-21.82431411743164,-2.38179087638855,22.54065704345703,0.6737161874771118,2.2679946422576904,-0.04023589566349983,,,,,,,,,
1739401744.4013796,0.5254986368531168,0.09602031310841516,-0.9531620331420578,-2.069072883810802,0.13772456087408458,2.137597889231055,-1.275354919063718,0.0009047688511751016,0.0011240630936920324,-0.000614724461740207,-0.001083986272307663,-9.882182627721253e-05,-0.0004971131880741053,-0.00012326879365371515,0.1697271168231964,-21.84811782836914,-2.38179087638855,22.61603546142578,0.6737161874771118,2.2679946422576904,-0.05396880581974983,,,,,,,,,
1739401744.4123578,0.5254950223261873,0.09602020754133175,-0.9531620071762742,-2.069073329053697,0.13772137019020037,2.1375986424201208,-1.2753593536566068,-0.001447486974980505,0.0018858992877389025,-0.0003930415373016071,-0.0007028271660778231,-0.0010282893199508752,-0.0003020528844593989,-0.0003356105799299893,0.2411382496356964,-21.87192153930664,-2.38179087638855,22.59223175048828,0.6737161874771118,2.2615859508514404,-0.020094294100999832,,,,,,,,,
1739401744.4224095,0.5254968021390627,0.09601860055870988,-0.9531620336765021,-2.069073321303239,0.13772455653619012,2.1375994044973514,-1.2753604435735943,0.0011867853304874066,-0.0002332070976345332,-0.00015185070467422523,-0.00015089166544109714,-0.0015889541298234502,0.00023619959207428856,-0.0018440920220739985,0.1935308277606964,-21.82431411743164,-2.38179087638855,22.59223175048828,0.6737161874771118,2.2551772594451904,-0.0072769103571772575,,,,,,,,,
1739401744.4333837,0.5254974767382744,0.0960209446378548,-0.9531628123744029,-2.069074865888684,0.1377271426719942,2.1375987645748684,-1.275358572131116,0.0008581064058998852,0.00023952260666455707,-0.0008254394461994456,-0.0002708748111093399,0.0008255437417775599,-1.8286927835908128e-05,-0.0001560244466905057,0.2173345386981964,-21.84811782836914,-2.35798716545105,22.61603546142578,0.6608988046646118,2.2615859508514404,-0.020094294100999832,,,,,,,,,
1739401744.444365,0.5254973589051635,0.09602026051537906,-0.9531620371500835,-2.069077944724793,0.13772714991235233,2.137597889177884,-1.2753596991525622,-0.0004109836284876424,5.837016663777603e-05,-0.0007631821943133953,-0.0016107860297595242,5.988857580695509e-05,-0.0010501756223342642,-0.001243830090884151,0.2173345386981964,-21.84811782836914,-2.38179087638855,22.61603546142578,0.6544901132583618,2.2679946422576904,-0.013685601763427258,,,,,,,,,
1739401744.4553971,0.5254925459610924,0.0960191293110211,-0.953161634329148,-2.0690733304765976,0.1377253190237152,2.137599302028059,-1.275357999027116,-0.0018308902990299722,-8.522208180304581e-05,-0.0018595344808180199,0.00016473839250553962,-8.249932039345071e-05,0.0006057688441619125,-0.0008089213571400145,0.2411382496356964,-21.84811782836914,-2.35798716545105,22.59223175048828,0.6673074960708618,2.2679946422576904,-0.05396880581974983,,,,,,,,,
1739401744.4664142,0.5254960540191149,0.09602073134280303,-0.9531616341811012,-2.0690733304606135,0.1377253380361935,2.137597941528955,-1.2753565558069726,-2.849159985233475e-05,-0.000912681987028753,0.00012267879269869605,0.0001313526947642721,-0.00026365324346426755,0.0001689439861823966,0.0005969458576421519,0.1935308277606964,-21.82431411743164,-2.35798716545105,22.59223175048828,0.6673074960708618,2.2679946422576904,-0.04023589566349983,,,,,,,,,
1739401744.4773552,0.5254947031213265,0.09601518209084868,-0.9531620357082019,-2.069071547795258,0.13772396748676888,2.137598646855342,-1.2753549170160032,-0.0011821815679047064,-0.0007407633802262182,-0.00038816641778087425,0.0006846083143982151,-0.0006194861971315707,-0.0003984033948502103,-0.0003981033699564343,0.2411382496356964,-21.79654312133789,-2.38179087638855,22.56842803955078,0.6865335702896118,2.2615859508514404,-0.05396880581974983,,,,,,,,,
1739401744.48939,0.5254915381006647,0.09601883735993488,-0.9531619562111833,-2.0690733304606135,0.13772206862835756,2.1375994044973767,-1.275361197355101,-0.0020560173369670665,0.0004898017597166301,-0.00010410745824149036,-0.0006362564183219211,-0.0016637069880023473,-2.4934831282146446e-06,-0.000515678974710382,0.2689092457294464,-21.82431411743164,-2.38179087638855,22.59223175048828,0.6673074960708618,2.2551772594451904,-0.0008682189509272575,,,,,,,,,
1739401744.49939,0.5254974373479598,0.09601489111914466,-0.953162271158734,-2.0690717773718554,0.13772427866074902,2.1375986468372985,-1.2753540442024225,0.0018454238441257638,-0.0006578932811181337,1.4909700599587475e-05,-0.0002029339102180314,0.002833304211155958,-0.00018634938892676413,0.0009361273050483215,0.2173345386981964,-21.77273941040039,-2.38179087638855,22.56842803955078,0.6801248788833618,2.2615859508514404,-0.06037749722599983,,,,,,,,,
1739401744.5103455,0.5254957513305377,0.09601660233943435,-0.953162001181723,-2.06907154778489,0.13772927546729624,2.137598007076295,-1.2753574433230332,-8.924970937487493e-05,0.00010075010714236628,6.417423355177505e-05,0.00044040517293175957,2.2419878929069367e-05,0.00027376802105102347,0.0008190862160175864,0.2411382496356964,-21.79654312133789,-2.38179087638855,22.56842803955078,0.6608988046646118,2.2679946422576904,-0.04756011441349983,,,,,,,,,
1739401744.5203938,0.5254957642308001,0.09601952145790306,-0.9531587992609534,-2.069071556286863,0.1377253829141392,2.137597928425073,-1.275360484300492,-0.0006969022042450744,0.0017838724948179945,0.0009046863951355773,0.00019959437860353534,0.00034279354281950157,-0.0007518351982441632,-0.002257720303778434,0.2411382496356964,-21.82431411743164,-2.38179087638855,22.56842803955078,0.6801248788833618,2.2679946422576904,-0.0072769103571772575,,,,,,,,,
1739401744.5314682,0.5254969374324399,0.09601860029587662,-0.9531637388333765,-2.069071547783738,0.13772674024229528,2.1375971411797274,-1.2753564775708521,0.0007099433854409802,0.00025222802861535223,-0.001384993832619449,-0.00035714998565513354,0.0022336701581040824,-0.000603327208956908,-0.0007019270525643228,0.1935308277606964,-21.82431411743164,-2.35798716545105,22.56842803955078,0.6673074960708618,2.2753188610076904,-0.06678618490695953,,,,,,,,,
1739401744.5434377,0.5254973678281475,0.09601859277430935,-0.953165656788755,-2.0690733389638822,0.13772159312780288,2.1375978891774414,-1.2753501566869971,0.0004822031541985304,0.00044690470993240125,-2.5090557190207566e-05,-0.0014048421918275889,-0.00011801016223437805,-0.00016573297063650217,0.0030427752747244977,0.2173345386981964,-21.82431411743164,-2.3302161693573,22.59223175048828,0.7002664804458618,2.2679946422576904,-0.09425200521945953,,,,,,,,,
1739401744.5543985,0.5254945230163157,0.0960186006050448,-0.953159929224232,-2.06907154778361,0.13772380370209636,2.1376028853898155,-1.275350562663958,-0.0008989729612541577,0.00010473990772636153,0.0008242044726467915,-0.001013442949809424,-0.00031876676300818436,0.0008922085571064633,0.0031662096059563404,0.2173345386981964,-21.82431411743164,-2.4095618724823,22.56842803955078,0.6801248788833618,2.2615859508514404,-0.05396880581974983,,,,,,,,,
1739401744.564412,0.5254908257443348,0.09601747197105642,-0.953159042205859,-2.0690694679937387,0.13772567395468355,2.1375986469090784,-1.275359278482734,-0.0006014889992694654,-0.0005165484937890409,0.0007193087890587011,-6.334937935802685e-06,0.0002068732085435457,0.00030512295844823734,-0.0014360963966768606,0.2689092457294464,-21.84811782836914,-2.38179087638855,22.54065704345703,0.6673074960708618,2.2615859508514404,-0.020094294100999832,,,,,,,,,
1739401744.5753956,0.5254943683179493,0.09602030921242072,-0.9531616429790347,-2.069072417655285,0.13772531869890742,2.1375986468372985,-1.2753556711249359,-0.0010305032785396949,9.042642362017215e-06,-0.0007501371118485765,0.00023968986589137722,0.00042102473663968457,0.0003901116730294133,0.0009448255412670601,0.2173345386981964,-21.84811782836914,-2.35798716545105,22.59223175048828,0.6673074960708618,2.2615859508514404,-0.04756011441349983,,,,,,,,,
1739401744.5863183,0.5254934440932063,0.09602031308968223,-0.9531574461753938,-2.0690751386422863,0.13772761634905195,2.1375986904438053,-1.2753486413610247,-0.0006246286664986873,0.0003464632213663367,0.0005716426630144148,-0.0011887722177812614,0.001906917069440461,0.00013476683927071155,0.0036798120852224543,0.2689092457294464,-21.84811782836914,-2.4333655834198,22.61603546142578,0.6608988046646118,2.2615859508514404,-0.10706938803195953,0,0,0,0.000,0,0
1739401744.5963435,0.5254925557677653,0.09601859313517336,-0.953163705112824,-2.0690733303479916,0.13772532051064862,2.137599404498115,-1.2753557179595532,-0.00028471947160305946,0.00010201892163388886,-0.0012025829989587042,-4.702389465556773e-05,-0.000425541977965742,0.0005426226911550197,-0.0006656482140193718,0.2411382496356964,-21.82431411743164,-2.3302161693573,22.59223175048828,0.6673074960708618,2.2551772594451904,-0.04756011441349983,0,0,0,0.000,0,0
1739401744.6063445,0.5254959985300004,0.0960220256463954,-0.9531638197956256,-2.0690757028726456,0.1377253580255628,2.137599399918693,-1.2753573403705583,-0.0006896626138488294,0.0005009699130479211,-0.0009455214250412868,-0.0007149052636040462,-0.0003620598310007783,-0.00022427834072890766,0.0009397697143631693,0.1935308277606964,-21.87192153930664,-2.35798716545105,22.59223175048828,0.6673074960708618,2.2551772594451904,-0.06037749722599983,0,0,0,0.000,0,0
1739401744.61639,0.5254945878756166,0.09602402651037367,-0.9531609087168645,-2.069071547823771,0.1377245608749765,2.1376012217955065,-1.2753541745912602,-0.0015687661453321837,0.0014517940203590792,0.0009075646589718794,0.00025595986960990854,-0.0011467533811044086,0.0006734273272567238,0.0014840438054940681,0.2173345386981964,-21.89969253540039,-2.35798716545105,22.56842803955078,0.6737161874771118,2.2487685680389404,-0.06037749722599983,0,0,0,0.000,0,0
1739401744.6273522,0.52549669616313,0.09601660558722167,-0.9531628480372643,-2.0690694679937387,0.13772659396723141,2.13759864684328,-1.275356542672936,-3.769740953277483e-05,2.3330771235497566e-05,0.00021994757776624952,0.0010131033974966174,0.0008997771159025897,-0.0006286517355845182,0.0006862696551654209,0.1935308277606964,-21.79654312133789,-2.35798716545105,22.54065704345703,0.6608988046646118,2.2615859508514404,-0.04023589566349983,0,0,0,0.000,0,0
1739401744.637365,0.5254946067718197,0.09602031442504975,-0.9531587693437514,-2.0690694679937387,0.13772776602130096,2.1375986468372985,-1.2753597215872499,-0.0004526079948315152,0.0006703228419890886,0.0015486689230068045,0.0008022257857317187,0.0006750985244288509,3.512224810565685e-05,-0.0005419604171638356,0.2173345386981964,-21.84811782836914,-2.38179087638855,22.54065704345703,0.6737161874771118,2.2615859508514404,-0.04023589566349983,0,0,0,0.000,0,0
1739401744.6483264,0.5254980054435916,0.09602031312579316,-0.9531613874796606,-2.069071547783594,0.13772607620049546,2.13759789063077,-1.2753580987357782,0.0004135079584931194,0.00041189913012668544,-0.0006141806505298135,0.00016693402116705773,0.001009629072228053,-0.0005371653259089539,-0.0007094200614810114,0.1697271168231964,-21.84811782836914,-2.35798716545105,22.56842803955078,0.6608988046646118,2.2679946422576904,-0.05396880581974983,0,0,0,0.000,0,0
1739401744.6583562,0.5254967682991576,0.09601860060505954,-0.9531596046689005,-2.0690676486872532,0.1377253185343862,2.137598646837323,-1.2753581236181324,-0.0005114634265815874,0.000868475390174946,0.0008027246019269795,0.0021854721816175126,1.8880848101827707e-05,-0.00038415786784233824,0.00017660039979556098,0.1935308277606964,-21.82431411743164,-2.38179087638855,22.51685333251953,0.6673074960708618,2.2615859508514404,-0.027418512850999832,0,0,0,0.000,0,0
1739401744.668363,0.5254927758363673,0.0960186002802819,-0.9531651349938334,-2.0690715477829738,0.13772807264560477,2.1375986468372985,-1.2753556767767409,-0.0028024245256773254,-6.765752891417341e-05,-0.00025876791407794335,-0.0006109441053712742,0.0006637052073410041,-7.249878938523973e-05,0.0009472088273124414,0.2689092457294464,-21.82431411743164,-2.3302161693573,22.56842803955078,0.6801248788833618,2.2615859508514404,-0.04756011441349983,0,0,0,0.000,0,0
1739401744.6793375,0.5254974501461892,0.09601652276890689,-0.9531634830590509,-2.0690713005346972,0.13772882778422066,2.13759788917722,-1.2753506805630337,0.0012607263221149703,-3.150049765284353e-05,5.9201485359866574e-05,0.00010854742035835377,0.0006068073316633007,-0.0005188544052212213,0.0018120052502832618,0.2173345386981964,-21.79654312133789,-2.35798716545105,22.56842803955078,0.6737161874771118,2.2679946422576904,-0.05396880581974983,0,0,0,0.000,0,0
1739401744.6893866,0.5254971312787445,0.0960185996293736,-0.9531637387714721,-2.0690694557797293,0.1377254375676213,2.1375970232799877,-1.275359642717319,0.0004214420616074402,0.0004954075661070003,3.65571665643684e-05,-0.00015788621233005245,4.476537656920645e-05,-0.0010509957951584242,4.2913175192368425e-05,0.2173345386981964,-21.82431411743164,-2.35798716545105,22.54065704345703,0.6673074960708618,2.2753188610076904,-0.013685601763427258,0,0,0,0.000,0,0
1739401744.7003517,0.5254982048536266,0.09601447183423664,-0.9531616339955851,-2.0690715162414848,0.1377238038649613,2.13759788917722,-1.2753565559161004,0.0008718724309231369,-0.0007002105564699042,-0.0005777114819171094,0.0005213805131391515,-0.0017546183841791753,-0.00018974093445466882,6.740040499754409e-05,0.1935308277606964,-21.79654312133789,-2.35798716545105,22.56842803955078,0.6801248788833618,2.2679946422576904,-0.04023589566349983,0,0,0,0.000,0,0
1739401744.7113178,0.5254964167699004,0.09601818189887656,-0.9531620330104551,-2.06907154778306,0.13772683450461376,2.1375986468372985,-1.275362596639707,-0.0012421980374689246,0.0006516878823501429,-0.00046552642835575334,-0.0006035651274263831,0.00032176330359631386,-0.00027431728142769684,-0.0015704481514640554,0.2173345386981964,-21.84811782836914,-2.38179087638855,22.56842803955078,0.6544901132583618,2.2615859508514404,-0.0008682189509272575,0,0,0,0.000,0,0
1739401744.7213504,0.5254950013133585,0.0960186005930287,-0.95315700438772,-2.069073321303247,0.13772852192158413,2.1375994044973767,-1.2753533992815802,-0.00014151695192253982,7.417708849943641e-05,0.0014616243325080297,-0.00036613010552753294,-0.00039663098119577646,0.0003116076795004213,0.0009137353405930275,0.2173345386981964,-21.82431411743164,-2.4095618724823,22.59223175048828,0.6673074960708618,2.2551772594451904,-0.06678618490695953,0,0,0,0.000,0,0
1739401744.7314112,0.5254950401030417,0.09601960565184642,-0.9531638107889387,-2.069070129286268,0.13772531421435794,2.13759788917722,-1.2753557160214097,0.00022878659344384932,-0.0003542675908456614,-0.0004622324415247329,0.0007146208030119679,-0.0011055591772653835,-0.0008531055640054503,-0.0005082033755000135,0.2411382496356964,-21.84811782836914,-2.35798716545105,22.54065704345703,0.6673074960708618,2.2679946422576904,-0.04756011441349983,0,0,0,0.000,0,0
1739401744.74142,0.5254964317095373,0.09601860351607709,-0.9531591218183407,-2.0690733304718125,0.1377268384048894,2.1375994088580272,-1.2753565045747828,-0.00037900025156518383,0.00013905567481462943,0.0006182867573557166,-0.0006872168065909425,0.0006185977800901233,0.0007068326055556897,8.099634789306902e-05,0.2173345386981964,-21.82431411743164,-2.38179087638855,22.59223175048828,0.6544901132583618,2.2551772594451904,-0.013685601763427258,0,0,0,0.000,0,0
1739401744.7514195,0.5254964081565886,0.09602062880969939,-0.9531634946726799,-2.069069322543523,0.13772655008826043,2.1375978891772935,-1.275354161563176,-0.0013745223315910768,0.0004008956581017717,-0.00039480086708539063,0.00041571778492237375,0.0002699717361949883,-0.00031017242263517767,0.0017924902264805668,0.2173345386981964,-21.84811782836914,-2.35798716545105,22.56842803955078,0.6608988046646118,2.2679946422576904,-0.06037749722599983,0,0,0,0.000,0,0
1739401744.7623808,0.5254945093228903,0.09602402358915701,-0.9531598472088898,-2.0690743709261645,0.13772700638741225,2.1375994175793287,-1.2753544634339649,-0.0002062749441371819,0.001469036118000536,0.00019940766403045584,-0.0003918843336550473,0.00016861378362527369,0.0003204611375236569,0.00021924441329385818,0.2173345386981964,-21.89969253540039,-2.38179087638855,22.61603546142578,0.6801248788833618,2.2551772594451904,-0.06678618490695953,0,0,0,0.000,0,0
1739401744.772397,0.5254966550458807,0.09601860017202273,-0.9531619162014726,-2.069069322530953,0.13772806831194598,2.1375990000502294,-1.2753612012491917,-0.00022859224516721713,-0.0004158864251441255,-0.0006319295115234549,0.0004206342747967766,0.0009709184809152511,0.0006513229948905385,-0.001779695441707321,0.2173345386981964,-21.82431411743164,-2.38179087638855,22.56842803955078,0.6801248788833618,2.2615859508514404,-0.0008682189509272575,0,0,0,0.000,0,0
1739401744.784402,0.5254952945321268,0.09602202662085237,-0.9531613070710485,-2.06907437137838,0.1377239221992807,2.137598646839292,-1.2753564903450776,-0.0006964408260028218,0.0012533934388238468,3.5439834600769094e-05,0.0001768201839223313,-0.0006367665424090916,-0.0001565128586710829,-0.00028437573911247046,0.2173345386981964,-21.87192153930664,-2.35798716545105,22.61603546142578,0.6801248788833618,2.2615859508514404,-0.04023589566349983,0,0,0,0.000,0,0
1739401744.7953877,0.5254936825131135,0.09601860450239297,-0.9531658956083168,-2.069068482775986,0.13772547720341458,2.13759788917722,-1.2753517807767776,-0.0006106389769017579,0.00021834447152930557,-0.0008663365807070247,0.0011386025116815893,0.00034336843551596214,0.00016198891920215613,0.002803443363722483,0.2689092457294464,-21.82431411743164,-2.3302161693573,22.54065704345703,0.6673074960708618,2.2679946422576904,-0.08051909506320953,0,0,0,0.000,0,0
1739401744.8073235,0.5254984607889636,0.09602031312581272,-0.953159842658264,-2.069069467988177,0.1377238427062683,2.1375994044973767,-1.2753596815504424,0.001007385445838843,0.000878233920768652,-0.00031175806171390393,0.0012092643411956549,-0.0007206731858121984,0.0006468187347030324,-0.0002025446956403056,0.1935308277606964,-21.84811782836914,-2.38179087638855,22.54065704345703,0.6801248788833618,2.2551772594451904,-0.013685601763427258,0,0,0,0.000,0,0
1739401744.818035,0.5254953192066686,0.09601661435620126,-0.953159848983281,-2.0690670425568007,0.1377253361403999,2.1375970232799877,-1.2753592746145745,-2.9750307393184845e-05,-0.0009608745073700995,0.000994974470048876,0.0006496516553056837,-0.0006488558235553869,0.00029172743139829006,-0.000822224221646145,0.2173345386981964,-21.79654312133789,-2.4095618724823,22.51685333251953,0.6673074960708618,2.2753188610076904,-0.027418512850999832,0,0,0,0.000,0,0
1739401744.8283467,0.5254927763012524,0.09601860060512553,-0.9531620371551589,-2.0690715467624803,0.13772461352926477,2.1376018257516862,-1.275358808097616,-0.001263624010071606,-5.755082131620441e-05,-0.0003934164081754703,-0.0005732944872901112,-0.00042102654409950993,0.0003269731696873685,-0.0013223571601833537,0.2689092457294464,-21.82431411743164,-2.38179087638855,22.56842803955078,0.6737161874771118,2.2615859508514404,-0.020094294100999832,0,0,0,0.000,0,0
1739401744.8383758,0.5254933433989958,0.09601883639362116,-0.9531605414569121,-2.0690671589807037,0.13772543312197472,2.137598647052639,-1.2753541653296459,-0.001267437703997908,0.0005509881424966746,0.0004873778918275852,-7.62090341917905e-05,-7.49554994478784e-05,-0.0006984370490671566,0.0010140216433424062,0.2411382496356964,-21.82431411743164,-2.4095618724823,22.54065704345703,0.6673074960708618,2.2615859508514404,-0.06037749722599983,0,0,0,0.000,0,0
1739401744.8493874,0.5254934884667092,0.0960166026655375,-0.9531638078442974,-2.0690674246767427,0.13772607635762624,2.1375994044973776,-1.2753542007013514,-0.0008149084919594026,-0.0008812427437773242,0.0002487648544306538,0.002008947615482718,0.0001959749095242172,0.0002011515830123398,-0.0011774230589333234,0.2689092457294464,-21.79654312133789,-2.35798716545105,22.51685333251953,0.6608988046646118,2.2551772594451904,-0.06037749722599983,0,0,0,0.000,0,0
1739401744.859393,0.5254973694750367,0.09601489003521609,-0.9531638077297622,-2.069075113133218,0.1377249162945997,2.1376009199790387,-1.2753568295448305,0.0006422586026186733,-0.0008459620514897359,0.00021822606286431108,-0.001002095571521118,-0.0014883088802788613,8.64928755903033e-05,0.0006196231862119209,0.2173345386981964,-21.77273941040039,-2.35798716545105,22.61603546142578,0.6737161874771118,2.2423598766326904,-0.03382720425724983,0,0,0,0.000,0,0
1739401744.8703256,0.5254963004485665,0.0960186006050577,-0.9531599573657102,-2.069069466976253,0.13772894407371125,2.1375978891772225,-1.2753639200949838,0.0002603339311881288,0.000715675152036086,0.0005725920495981399,0.0005968271276098605,0.0011158145533693858,-0.00023579553372036891,-0.002214012290985224,0.1935308277606964,-21.82431411743164,-2.4095618724823,22.54065704345703,0.6737161874771118,2.2679946422576904,-0.013685601763427258,0,0,0,0.000,0,0
1739401744.8823855,0.5254988435280062,0.09601860059303073,-0.9531638184510198,-2.069065450881595,0.13772380963279074,2.1375994044973767,-1.2753612382240007,0.000263823842022951,-0.00020969776316485725,-0.00031586061884979286,0.001637869319966674,-0.0007901444846169362,0.0005189732040276519,-0.0012275895915885018,0.1935308277606964,-21.82431411743164,-2.35798716545105,22.51685333251953,0.6801248788833618,2.2551772594451904,-0.0008682189509272575,0,0,0,0.000,0,0
1739401744.8934126,0.525496686221968,0.09602055003303084,-0.9531620371434308,-2.0690725062934194,0.13772619466790623,2.1375986468372985,-1.2753556769910481,4.0117586750191994e-05,0.0019740459849276744,-0.0008948554672958041,-7.724041845194287e-05,7.550721869602038e-05,0.0006169115330847362,-0.00087530153183405,0.1935308277606964,-21.84811782836914,-2.38179087638855,22.59223175048828,0.6608988046646118,2.2615859508514404,-0.04756011441349983,0,0,0,0.000,0,0
1739401744.9043908,0.5254960515157739,0.09601858891440208,-0.953160662994196,-2.0690733294384756,0.13772491629526573,2.13759788917722,-1.2753549191155522,0.0008727573362657863,-0.0003156980625860728,0.001640266253493462,0.00022141584657154847,-0.0009339505307400399,-1.3609043436469944e-05,0.0028248911429779385,0.1935308277606964,-21.82431411743164,-2.35798716545105,22.59223175048828,0.6737161874771118,2.2679946422576904,-0.05396880581974983,0,0,0,0.000,0,0
1739401744.9144082,0.5254957637418153,0.09602178888342941,-0.9531619288430984,-2.0690743028427128,0.13772245646887035,2.1375986468372985,-1.2753596815504393,0.0010109113445939556,-0.0003473094658664774,0.00044620059340026686,-0.0007934432132954507,-0.0001971743814086127,0.0001525008530294888,-0.000666634841024294,0.2411382496356964,-21.87192153930664,-2.38179087638855,22.56842803955078,0.6938577890396118,2.2615859508514404,-0.013685601763427258,0,0,0,0.000,0,0
1739401744.9253786,0.5254942847554068,0.09601762867149928,-0.9531609758447742,-2.0690733559859726,0.13772531859012033,2.1375986468372985,-1.2753549323590088,-0.00021049856196210894,-0.0007371631809432088,0.0018331412933119441,-0.00039162973159751017,-0.0005032661320456401,3.884183315894891e-05,-0.00016345649400072485,0.2173345386981964,-21.79654312133789,-2.38179087638855,22.59223175048828,0.6673074960708618,2.2615859508514404,-0.05396880581974983,0,0,0,0.000,0,0
1739401744.9353867,0.5254926293051462,0.09601954767401315,-0.9531568785104881,-2.069076895920062,0.13772533169810142,2.1376018257516862,-1.2753525383833435,-0.002022572084550168,-0.0001406105432613582,0.0008454948868833288,-0.0013714628083098517,-0.0005743405394680326,0.00035558604450072073,0.0019024568003246436,0.2411382496356964,-21.82431411743164,-2.4095618724823,22.63983917236328,0.6673074960708618,2.2615859508514404,-0.07411040365695953,0,0,0,0.000,0,0
1739401744.9468153,0.5255028688647645,0.09601859934738165,-0.9531619998306009,-2.0690733559704206,0.13772775981949997,2.1376001621753997,-1.275358923997924,0.002550104142754198,-0.0014737320550710026,0.00017138294121892472,-6.528898382463465e-05,-0.00011174633064156469,0.00031541861473346095,-0.0005507712465127673,0.1419561207294464,-21.82431411743164,-2.38179087638855,22.59223175048828,0.6737161874771118,2.2487685680389404,-0.020094294100999832,0,0,0,0.000,0,0
1739401744.9573104,0.5254963238887068,0.09602030727978622,-0.9531619202356121,-2.0690708060370473,0.13772531860661585,2.1375994044973767,-1.2753601386860174,3.392886247392097e-05,0.00017332024793722357,-0.00014280876382960405,0.0009923128712959845,-0.0009701133120090859,-0.00038350327483316034,3.2431410016415e-05,0.1935308277606964,-21.84811782836914,-2.38179087638855,22.56842803955078,0.6673074960708618,2.2551772594451904,-0.0008682189509272575,0,0,0,0.000,0,0
1739401744.968382,0.5254974757220778,0.09601859183596444,-0.9531620367096503,-2.0690752151642977,0.13772654714773272,2.1375986599192505,-1.2753510225605253,0.0013605240222177115,-0.0004548551144112578,4.74697409551203e-05,-0.0016265328975889953,0.0004410967155159614,0.0004958977867105231,0.0006834110777568964,0.2173345386981964,-21.82431411743164,-2.38179087638855,22.61603546142578,0.6673074960708618,2.2615859508514404,-0.08692778646945953,0,0,0,0.000,0,0
1739401744.9784143,0.5254986373072781,0.09602031345051884,-0.9531567502526498,-2.069075518024629,0.137727178982595,2.1375978876510655,-1.2753541614554726,0.001331731686599153,0.0010022876850416338,0.0028827669917900357,-0.0010755243002964722,0.0016493781177355,-0.0005324182419918447,0.0017152834263930864,0.1697271168231964,-21.84811782836914,-2.4095618724823,22.61603546142578,0.6801248788833618,2.2679946422576904,-0.06037749722599983,0,0,0,0.000,0,0
1739401744.9894533,0.5254926633231569,0.09602032774078603,-0.9531617931565659,-2.069069467996024,0.13772623423226538,2.137597889177211,-1.2753643910532364,0.0005743427183213262,0.0008128627665928874,0.00044625546165000306,0.0001226249328173659,-0.000614625269394462,-0.000104994531711651,-0.002947244264925201,0.2411382496356964,-21.84811782836914,-2.38179087638855,22.54065704345703,0.6608988046646118,2.2679946422576904,-0.013685601763427258,0,0,0,0.000,0,0
1739401745.0003183,0.5254952955004072,0.09601658501803757,-0.9531620327870132,-2.0690694679937387,0.13772674021643505,2.137595426714761,-1.2753565370467517,-0.0011062956564656529,-0.0007603904421488106,0.0005362120161164131,3.7554919380269154e-05,0.00018030903168662424,-4.085777704945773e-05,0.0008863265097099012,0.2173345386981964,-21.79654312133789,-2.38179087638855,22.54065704345703,0.6673074960708618,2.2615859508514404,-0.04023589566349983,0,0,0,0.000,0,0
1739401745.0103729,0.5254908256835377,0.09601368258761082,-0.9531608938359226,-2.0690703631346894,0.13772456240917158,2.1375978890136205,-1.2753545146678966,-0.0005970493555762929,-0.0012813546669431576,0.0008186315879089573,0.0002285744894548239,-0.0014362313883920853,-0.00010411003414142373,-0.002222673058662795,0.2689092457294464,-21.79654312133789,-2.35798716545105,22.59223175048828,0.6737161874771118,2.2679946422576904,-0.06037749722599983,0,0,0,0.000,0,0
1739401745.0214348,0.5254932887446259,0.0960243421887384,-0.9531620101687385,-2.069073627415345,0.13772333079223292,2.137599404497376,-1.2753589238370804,-0.0010603175760673597,0.0022671787998854672,-0.0011261334223165746,-0.0003922843466854309,-0.0032139128509812084,1.534001471634812e-05,-0.0010357718230211551,0.2411382496356964,-21.89969253540039,-2.38179087638855,22.59223175048828,0.6801248788833618,2.2551772594451904,-0.020094294100999832,0,0,0,0.000,0,0
1739401745.032317,0.5254949835077677,0.09601857722646549,-0.9531620071758399,-2.0690743713959705,0.13772531852638556,2.1375970232799872,-1.275352550980554,0.0007150481260218935,0.0005168446847336209,0.0002643990590707788,-0.0006507465044987384,0.0011704980178059647,-0.0007814493106084507,0.001779334465981088,0.2173345386981964,-21.82431411743164,-2.38179087638855,22.61603546142578,0.6673074960708618,2.2753188610076904,-0.07411040365695953,0,0,0,0.000,0,0
1739401745.0423322,0.5254971283943589,0.09601588847805932,-0.9531657886984229,-2.069071547779407,0.13772700199683227,2.1375997064754277,-1.275353912538495,0.00047017568056060264,-0.0014427783783736022,-0.0013839908352176302,0.0007749277291318242,0.0011502153648830068,0.0009208431062782865,0.0006607788651712754,0.2173345386981964,-21.79654312133789,-2.3302161693573,22.56842803955078,0.6801248788833618,2.2615859508514404,-0.06678618490695953,0,0,0,0.000,0,0
1739401745.0524132,0.5254983582355671,0.09602031311369591,-0.9531620371538922,-2.0690751131376324,0.13772516111455796,2.137599561498748,-1.2753611968792116,0.0002235570876123323,2.8398490923571605e-05,0.00029926975891782074,-0.0007852548617279492,-0.0008231412245620497,0.00018440310050890613,-0.001494140433737019,0.1935308277606964,-21.84811782836914,-2.38179087638855,22.61603546142578,0.6673074960708618,2.2551772594451904,-0.0008682189509272575,0,0,0,0.000,0,0
1739401745.0634203,0.5254947279903569,0.09601860060505947,-0.9531630103869966,-2.0690751131376324,0.1377260764102624,2.137597024734424,-1.2753580536323679,-0.00026147019519981755,-0.0005389741505790508,-0.001040627870299288,-0.0004086369984012159,-9.062970046242624e-05,-0.0007593262997653519,-0.00038850650997525413,0.2411382496356964,-21.82431411743164,-2.35798716545105,22.61603546142578,0.6608988046646118,2.2753188610076904,-0.027418512850999832,0,0,0,0.000,0,0
1739401745.074321,0.5254972370191259,0.0960220256465219,-0.9531617932071125,-2.069075112120147,0.13772531869690227,2.1375986468373065,-1.2753615388854327,0.0001364562662279882,0.0008966971241635075,0.00025225674591704934,-0.0003241024247492468,-3.9849543635178226e-05,0.0008727680740149384,-0.0015423201428662178,0.2173345386981964,-21.87192153930664,-2.38179087638855,22.61603546142578,0.6673074960708618,2.2615859508514404,-0.03382720425724983,0,0,0,0.000,0,0
1739401745.0843503,0.5254988439048827,0.09602064050164488,-0.9531637925140268,-2.0690753427258763,0.13772653307862,2.1375970232799877,-1.2753560188628217,0.0007453218327110993,0.00033579210580888364,-0.0006265270840102652,-0.0010259518602764564,0.000760530540401302,-0.0008441634420338257,0.0005121844879779255,0.1935308277606964,-21.84811782836914,-2.35798716545105,22.61603546142578,0.6608988046646118,2.2753188610076904,-0.08051909506320953,0,0,0,0.000,0,0
1739401745.0943635,0.5254974639909975,0.09602034041265603,-0.9531591227063119,-2.069069543509562,0.13772531870463844,2.13759788917722,-1.275354919348838,0.00046452259143248646,0.0006026568027136471,0.0005567528918376335,0.00022227568337550838,-0.0019670933059488123,0.0012753185409390755,0.000927779791855535,0.2173345386981964,-21.84811782836914,-2.38179087638855,22.54065704345703,0.6673074960708618,2.2679946422576904,-0.05396880581974983,0,0,0,0.000,0,0
1739401745.1043775,0.5255007957201668,0.09602486680171832,-0.9531620241153089,-2.069073329444407,0.13772456087431062,2.137599404658882,-1.2753596817119488,0.0015367007969543428,0.00026426833050024296,-0.0001930933624125531,-0.0008163655227875822,-0.0005025724257843587,-1.4559314074667567e-06,-0.0003579119473368413,0.1697271168231964,-21.87192153930664,-2.38179087638855,22.59223175048828,0.6737161874771118,2.2551772594451904,-0.013685601763427258,0,0,0,0.000,0,0
1739401745.115341,0.5254957288001325,0.09602202598733794,-0.953157771825188,-2.0690715474444263,0.13772289319650866,2.1375970290941892,-1.275357353451814,-0.0009822758851066263,0.00045981952419795044,0.0016111283486601258,0.00034544640616058543,-0.002794040637182659,-0.0006419759831016156,-0.00022025613957186974,0.2411382496356964,-21.87192153930664,-2.4095618724823,22.56842803955078,0.6608988046646118,2.2753188610076904,-0.06037749722599983,0,0,0,0.000,0,0
1739401745.1253788,0.5254945349459456,0.0960158383713074,-0.9531605429652638,-2.0690714643497925,0.13772456071259467,2.1375986468375934,-1.275354043880073,-0.001101501118890113,-0.0009491190945641821,0.00024251239917464008,7.111780880633482e-05,-0.001768429052162542,0.0001662910508941935,0.0009065735985840815,0.2173345386981964,-21.82431411743164,-2.35798716545105,22.56842803955078,0.6737161874771118,2.2615859508514404,-0.06037749722599983,0,0,0,0.000,0,0
1739401745.1363354,0.5254974677584285,0.09601859778512242,-0.9531574480407783,-2.0690669100358585,0.13772320244735764,2.1375997064754277,-1.2753554301029706,0.002171237910217237,-0.00045232896374060907,0.0013259640013698589,0.001389942083359414,2.405629373237203e-06,-0.00033933407403748746,5.9790655060393185e-05,0.2173345386981964,-21.82431411743164,-2.4095618724823,22.54065704345703,0.6673074960708618,2.2615859508514404,-0.08051909506320953,0,0,0,0.000,0,0
1739401745.1473904,0.5254984700557684,0.09601636590129603,-0.9531649192796862,-2.0690694679792987,0.13772380759018882,2.13759864684328,-1.2753580580136221,0.0007252771205087415,-0.0008318922733205138,0.0004600349136905718,0.0011243225259900402,-0.0007193649115426276,-0.0001892365498926813,0.000984470106925315,0.1935308277606964,-21.79654312133789,-2.3302161693573,22.54065704345703,0.6801248788833618,2.2615859508514404,-0.027418512850999832,0,0,0,0.000,0,0
1739401745.15841,0.5254960530520715,0.09601907705251074,-0.9531620714843048,-2.069071547783594,0.13772589148291411,2.1375986468372985,-1.2753502248814468,-0.0005191463876162726,0.00013328365207716022,0.000267254855108001,0.0002849521722908222,-0.0011950350935285388,-0.00029152902847873386,0.002241128776597789,0.1935308277606964,-21.82431411743164,-2.38179087638855,22.56842803955078,0.6865335702896118,2.2615859508514404,-0.06678618490695953,0,0,0,0.000,0,0
1739401745.169372,0.5254928755729106,0.09602031312848028,-0.9531609064579996,-2.0690733304606135,0.13772392046231854,2.137598275963953,-1.2753604376851873,-0.0007000838097635171,0.00020003078689392152,0.0006660623739702896,-0.0002596513793014795,-0.0017215867792996834,-0.001131988078094822,8.948139470244822e-05,0.2411382496356964,-21.84811782836914,-2.35798716545105,22.59223175048828,0.6801248788833618,2.2615859508514404,-0.0072769103571772575,0,0,0,0.000,0,0
1739401745.1804109,0.5254971192384859,0.0960220259712996,-0.9531638197834515,-2.069071547783594,0.13772619531993974,2.1375986468310173,-1.2753556942182067,0.00028805900510064133,0.00023128265935093081,-0.0004103462629978071,-0.0005718686211692973,3.269370519239884e-05,-0.00042058825729318633,0.0006976750599066368,0.2173345386981964,-21.87192153930664,-2.35798716545105,22.56842803955078,0.6608988046646118,2.2615859508514404,-0.04756011441349983,0,0,0,0.000,0,0
1739401745.1913111,0.525495008683324,0.096019883088477,-0.9531630913434643,-2.069071517259039,0.1377253187693541,2.1375986599192505,-1.275361667982414,-0.0005581142977522436,3.664011440634779e-05,0.0006817105674468041,0.0001928751445281902,-7.744580620767903e-05,-0.0010570283000863197,-0.0031223078181328795,0.2173345386981964,-21.87192153930664,-2.35798716545105,22.56842803955078,0.6673074960708618,2.2615859508514404,-0.0008682189509272575,0,0,0,0.000,0,0
1739401745.2014115,0.5254970038905667,0.09601860067703434,-0.9531638284872461,-2.0690733304600966,0.1377245654247315,2.1375986468375197,-1.2753552343450383,0.0007213125302394992,-0.0005266283265820777,-0.0008470372325183411,-0.0007204024826004368,-0.0012829340739009384,-0.00010883680776901888,0.0005206373942262162,0.1935308277606964,-21.82431411743164,-2.35798716545105,22.59223175048828,0.6737161874771118,2.2615859508514404,-0.06037749722599983,0,0,0,0.000,0,0
1739401745.2124124,0.5254927957783696,0.09602031316187754,-0.9531598404460161,-2.0690733304606135,0.13772644483266538,2.1375982438434797,-1.2753517758839297,-0.0009185840375100218,0.0005945865288707058,0.00048237978975593037,0.00019760279574150783,0.00040000542286514106,0.00013666872215269712,0.002018686787784714,0.2411382496356964,-21.84811782836914,-2.4095618724823,22.59223175048828,0.6608988046646118,2.2679946422576904,-0.08051909506320953,0,0,0,0.000,0,0
1739401745.223376,0.5254965191360906,0.09602102373925213,-0.9531612716792124,-2.0690730825091674,0.13772544139780157,2.13759702473554,-1.2753542650179157,0.0006827484265556588,0.0009049896344950932,-0.00044151924537443065,0.0005040702044808052,-0.00011785714052067002,-0.00041951565326155897,0.0013437457528548725,0.2173345386981964,-21.84811782836914,-2.38179087638855,22.59223175048828,0.6673074960708618,2.2753188610076904,-0.05396880581974983,0,0,0,0.000,0,0
1739401745.2343786,0.5254971986458432,0.0960240498983747,-0.9531636985781523,-2.0690768947957663,0.13772469690005024,2.1375986468373065,-1.2753639215528145,0.00025167042221074267,0.0009220609532885051,-0.00019996848208121156,-0.0010731759318761184,-0.0001815407396527361,-0.0005614537253384497,-0.0033796536974741503,0.2173345386981964,-21.89969253540039,-2.35798716545105,22.63983917236328,0.6737161874771118,2.2615859508514404,-0.013685601763427258,0,0,0,0.000,0,0
1739401745.245381,0.525490547689146,0.09602144176023941,-0.9531599463350492,-2.069071300195518,0.13772567395697888,2.137598766512935,-1.2753565036603156,-0.0016420495943679247,0.001529380792049377,-0.00017803021292248138,0.0005839013808130681,-0.0007351184262053747,-0.000533107219947159,0.0008471572096462559,0.2689092457294464,-21.82431411743164,-2.4095618724823,22.56842803955078,0.6673074960708618,2.2615859508514404,-0.04023589566349983,0,0,0,0.000,0,0
1739401745.2553818,0.5254964082287948,0.0960220558668802,-0.9531599573658529,-2.069071547782196,0.13772864164296486,2.1375978896624117,-1.2753579533371806,0.00022552710307229744,0.0013048049096549283,0.00042639819761082303,0.000766178835956571,3.3157221651880926e-05,-0.0004194802205757794,-0.0021012312382971106,0.2173345386981964,-21.87192153930664,-2.4095618724823,22.56842803955078,0.6673074960708618,2.2679946422576904,-0.027418512850999832,0,0,0,0.000,0,0
1739401745.266296,0.5254981252556054,0.09602416041041602,-0.9531577355537995,-2.06907335597042,0.13772305146096792,2.1375994044973847,-1.275355456082453,0.0015062521823305014,0.0009337222337357348,0.0012264024887899093,-0.0006969587725431415,-0.0012762025816000424,0.0005027734598756551,0.0005892496363019107,0.1935308277606964,-21.87192153930664,-2.4095618724823,22.59223175048828,0.6865335702896118,2.2551772594451904,-0.06037749722599983,0,0,0,0.000,0,0
1739401745.276302,0.5254984343288156,0.09601489896060858,-0.9531598246580603,-2.0690751117434445,0.13772456087434107,2.1375986468372985,-1.2753585289506064,0.0008603872320589231,-0.0011566273344868446,0.00020511772555043375,-0.000883870447968197,0.0005218196121362738,-0.0009937968394764793,0.0008483733067611932,0.1935308277606964,-21.77273941040039,-2.38179087638855,22.61603546142578,0.6737161874771118,2.2615859508514404,-0.027418512850999832,0,0,0,0.000,0,0
1739401745.2863486,0.5254932726514181,0.09602031312594003,-0.9531627375363159,-2.069068727506768,0.13772683385454276,2.1375994044973767,-1.2753565428423432,-0.0016281387812323717,0.0006626571138434749,-0.00015018065902203765,0.0007006234850528498,0.001282447372229574,0.00016177963196489862,-0.0006895890490963583,0.2411382496356964,-21.84811782836914,-2.35798716545105,22.54065704345703,0.6544901132583618,2.2551772594451904,-0.04023589566349983,0,0,0,0.000,0,0
1739401745.2973592,0.525496757521023,0.0960187335302572,-0.9531655368278907,-2.0690694583799765,0.13772776409898713,2.1375986468372985,-1.2753628604648282,0.0007634229262944127,0.0002777218621911226,-9.5109895522546e-05,0.0005234419510398924,0.0011012427937589855,-0.0003803926238604094,-0.0020369589887322603,0.2173345386981964,-21.79654312133789,-2.3302161693573,22.54065704345703,0.6737161874771118,2.2615859508514404,-0.013685601763427258,0,0,0,0.000,0,0
1739401745.3073869,0.5254925490020329,0.09601878735655685,-0.953163081332274,-2.069069322091144,0.13772608128667607,2.1375986468372985,-1.2753580580468538,-0.0020647589784429637,-0.0001538175554913041,-0.0011801432644374277,-0.0002739564939144814,0.0003949088346800516,0.0003141211343186181,-0.00020375827720703885,0.2411382496356964,-21.84811782836914,-2.35798716545105,22.56842803955078,0.6608988046646118,2.2615859508514404,-0.027418512850999832,0,0,0,0.000,0,0
1739401745.3184273,0.5254969285476333,0.09601647102950633,-0.9531619172337066,-2.06907324803175,0.13773034123796374,2.1375987006186574,-1.2753545702634923,0.0010384090456326406,-7.832556189414636e-05,0.0007049866302648559,-0.0007852812202672422,-8.234640209528484e-05,-7.764223602629004e-05,0.0014717550749774307,0.1935308277606964,-21.82431411743164,-2.38179087638855,22.59223175048828,0.6608988046646118,2.2615859508514404,-0.05396880581974983,0,0,0,0.000,0,0
1739401745.3293593,0.5254942849243415,0.09601657641736948,-0.9531638198321128,-2.0690732205717492,0.13772645070725575,2.1375986469991073,-1.2753549191135818,-0.0008417536486371312,-0.00038794274908427546,0.000665716604171935,-0.0008690919410929961,0.0004337671042864213,3.086716346090817e-05,0.00047081184570206585,0.2173345386981964,-21.79654312133789,-2.35798716545105,22.59223175048828,0.6608988046646118,2.2615859508514404,-0.05396880581974983,0,0,0,0.000,0,0
1739401745.340377,0.525495983376718,0.09601867952587621,-0.9531638365062225,-2.0690728841419355,0.13772607619657856,2.1375994044973776,-1.2753580579930186,0.0011927424630794564,-0.0002250973918194585,-0.0003166221533366298,-0.0010234782987322102,-0.0009806391600683923,8.235309546637113e-05,-0.0005082066092352832,0.1935308277606964,-21.82431411743164,-2.35798716545105,22.61603546142578,0.6608988046646118,2.2551772594451904,-0.027418512850999832,0,0,0,0.000,0,0
1739401745.350389,0.5254947708204883,0.09601860060639607,-0.9531599533689343,-2.0690692400894752,0.13772545017153026,2.1375986468372985,-1.275355036853121,-0.0004717023714479035,0.00037501409347339933,0.0011841373926721847,0.0019672878641720203,-0.0004907598711452145,-0.0008754573610587804,0.0008160948078685057,0.2411382496356964,-21.82431411743164,-2.4095618724823,22.56842803955078,0.6673074960708618,2.2615859508514404,-0.05396880581974983,0,0,0,0.000,0,0
1739401745.3623507,0.5254905476519093,0.09601589241160931,-0.9531587903787329,-2.069073364460662,0.13772655008892645,2.137598651197949,-1.2753573003336047,-0.0018163680787865392,-0.00147224825930533,0.002595775177711572,-0.0005272373909573263,0.00019009019582501527,-0.0005636277629893451,0.0008619936567205921,0.2689092457294464,-21.79654312133789,-2.38179087638855,22.59223175048828,0.6608988046646118,2.2615859508514404,-0.03382720425724983,0,0,0,0.000,0,0
1739401745.3723962,0.5254925499408515,0.09601942488668293,-0.9531628485151755,-2.0690724696683493,0.13772533175494728,2.13760016651813,-1.2753558352126064,-0.0013214971959070662,-0.0004629891651917459,-0.0014230263187838361,-0.00011289358360754747,-0.0003754269976883841,0.0006442859624141597,2.884769671245993e-05,0.2411382496356964,-21.82431411743164,-2.35798716545105,22.59223175048828,0.6673074960708618,2.2487685680389404,-0.04756011441349983,0,0,0,0.000,0,0
1739401745.383347,0.5254962119837061,0.09601959977441593,-0.9531598504992832,-2.0690716946115355,0.1377221296859652,2.137598646837323,-1.2753611344389835,0.001021889884719114,-0.0018315031527259456,0.0007944787235281402,0.00018521723400998587,-0.0010330128836777298,0.00013814821052591896,-0.002390638148296774,0.1935308277606964,-21.84811782836914,-2.38179087638855,22.56842803955078,0.6673074960708618,2.2615859508514404,-0.04023589566349983,0,0,0,0.000,0,0
1739401745.393349,0.5254925455842882,0.09601883638154049,-0.9531617938408612,-2.069073086048626,0.13772776139107687,2.1375986468372985,-1.275352237252969,-0.0008313738821495783,-0.0002322661344019508,-0.0006698069837510327,-0.0001619745611865192,0.00045213824691423216,-0.00020959893931585805,0.0013500523537200828,0.2411382496356964,-21.82431411743164,-2.38179087638855,22.59223175048828,0.6737161874771118,2.2615859508514404,-0.07411040365695953,0,0,0,0.000,0,0
1739401745.403407,0.5254932961572091,0.09601860060905243,-0.9531634960503519,-2.0690724661325004,0.13772491699885794,2.1376039962626034,-1.2753580579879271,-0.0008341153530917528,-0.0006064621802352007,-0.0006538118252836901,9.972884533188597e-05,-2.343273342022412e-06,0.0027593892784493305,-0.00044052245951556226,0.2411382496356964,-21.82431411743164,-2.35798716545105,22.56842803955078,0.6737161874771118,2.2551772594451904,-0.027418512850999832,0,0,0,0.000,0,0
1739401745.4147847,0.525494284923171,0.09602205195351021,-0.9531658986215018,-2.069069220750026,0.1377296856953047,2.1375978892569756,-1.2753549186310342,0.00015335911224414033,0.0003515261548802406,-0.001433349505119324,0.0011587747350139752,0.0017712746985617583,-0.0003314470950095858,-7.823447013264722e-05,0.2173345386981964,-21.87192153930664,-2.3302161693573,22.54065704345703,0.6673074960708618,2.2679946422576904,-0.05396880581974983,0,0,0,0.000,0,0
