IITGN-Robotics/Franka_IITGN_ROBOTICS/franka_ros/franka_iitgn/data/b_32.csv
time,fr3_joint1_pos,fr3_joint2_pos,fr3_joint3_pos,fr3_joint4_pos,fr3_joint5_pos,fr3_joint6_pos,fr3_joint7_pos,fr3_joint1_vel,fr3_joint2_vel,fr3_joint3_vel,fr3_joint4_vel,fr3_joint5_vel,fr3_joint6_vel,fr3_joint7_vel,fr3_joint1_eff,fr3_joint2_eff,fr3_joint3_eff,fr3_joint4_eff,fr3_joint5_eff,fr3_joint6_eff,fr3_joint7_eff,flexpin1,flexpin2,flexpin3,Force,ContactMic,ContactMic_gt
1739401768.975025,0.5255099013363305,0.0958512085917324,-0.9531734161805986,-2.0690610133556357,0.1377150297674342,2.137574570124421,-1.275355331096884,0.0005094277993632958,0.0008532664508766859,-0.00017375734888707057,-0.00021473630765127637,0.0002280456071052757,0.0007229704555660726,-0.0015250312783316347,0.2173345386981964,-21.89969253540039,-2.35798716545105,22.63983917236328,0.5949808359146118,2.2222182750701904,0.026597600430250168,,,,,,,,,
1739401768.9859562,0.5255026240031253,0.09585140648957584,-0.9531734245142867,-2.069058909946537,0.13771469147700915,2.137572937067359,-1.2753572347209803,-0.0009267955651980531,0.00046067319882355466,-0.0008015635523576543,-0.00014570383687400538,-6.823496252276467e-06,-0.00025821321767081174,-0.002407001148398249,0.2927129566669464,-21.89969253540039,-2.35798716545105,22.61603546142578,0.5949808359146118,2.2350356578826904,0.0064559997990727425,,,,,,,,,
1739401768.9960284,0.52550531286279,0.09584741964334295,-0.9531734174646149,-2.069055344477634,0.13771864791778077,2.1375736947267727,-1.275352804745001,-0.000724403793884889,-0.0006533006843234622,-0.00020603476073365935,0.0018069738191569505,-7.710825473672016e-05,-0.0004567691172169413,-0.0008029323666968948,0.2411382496356964,-21.84811782836914,-2.35798716545105,22.56842803955078,0.5885721445083618,2.2286269664764404,-0.027418512850999832,,,,,,,,,
1739401769.0070345,0.5255036209249698,0.095845603265176,-0.953175498859407,-2.0690540003296607,0.13771469786735588,2.1375729370666945,-1.2753572763438237,-6.572690786977003e-05,-0.0012713661148615993,-0.0014146806979707298,0.00044461564791135324,0.0010733512172151666,-0.0006828857044569142,-0.0012221736722239594,0.2689092457294464,-21.84811782836914,-2.3302161693573,22.54065704345703,0.5949808359146118,2.2350356578826904,0.0064559997990727425,,,,,,,,,
1739401769.0180223,0.5255062929138075,0.09585144432951163,-0.9531695537137294,-2.069060373097002,0.13772016177531454,2.137573130807591,-1.2753464707180997,0.0008709242848579736,0.0010275168195044376,0.001474191082324477,-0.0012871123908482851,0.0016392551130695718,-0.00045152147479287925,0.0027881145787048444,0.2411382496356964,-21.89969253540039,-2.4095618724823,22.59223175048828,0.5757547616958618,2.2423598766326904,-0.05396880581974983,,,,,,,,,
1739401769.0310068,0.5255060250608599,0.09584389060544442,-0.9531761979807148,-2.0690553445968645,0.13771544914320233,2.1375708425597684,-1.2753573210156164,-9.71269866430398e-05,-0.0011398371472135138,-0.0009739169496515107,0.0007005483089736282,0.00017881635110575508,-0.001825613253246304,-0.0019253267514202572,0.2411382496356964,-21.82431411743164,-2.3302161693573,22.56842803955078,0.5885721445083618,2.2487685680389404,-0.020094294100999832,,,,,,,,,
1739401769.0410507,0.5255056840079696,0.09585645926908437,-0.95317549600612,-2.0690530272132217,0.13771407120944462,2.137573808150029,-1.275352531625552,-0.00020189270979760856,0.0014484995549938963,-0.0009586820597662736,0.0013416220980600102,-2.8809157935958936e-05,-0.0004818006331823143,-0.0008086735718421236,0.1935308277606964,-21.72116470336914,-2.3302161693573,22.49304962158203,0.6407572031021118,2.2679946422576904,-0.03382720425724983,,,,,,,,,
1739401769.0520825,0.5255055756483742,0.09589061304371695,-0.9531733114297894,-2.0690572114697106,0.1377149787505019,2.137579329844964,-1.2753512753447311,0.0005733219628213127,0.0033231806248997073,-0.0005008644233352422,0.0007623778335479051,0.00097010775535181,0.0002111647249392459,-0.000506414017765342,0.1935308277606964,-21.74496841430664,-2.3302161693573,22.51685333251953,0.6737161874771118,2.2615859508514404,-0.04756011441349983,,,,,,,,,
1739401769.0630357,0.5255038534676434,0.09591506803691909,-0.9531767507178048,-2.0690638387722875,0.13771893733297247,2.1375833434635405,-1.275348753163894,0.0011284420409036072,0.003255683523400455,-0.00047917504167447006,0.00014128104126125628,0.0014508759119156683,0.0011702811870594899,0.0006739230714974889,0.2173345386981964,-21.77273941040039,-2.3064124584198,22.56842803955078,0.6673074960708618,2.2679946422576904,-0.06678618490695953,,,,,,,,,
1739401769.074072,0.5255007510826102,0.0959249037301526,-0.9531791431685999,-2.069062116986744,0.13771818281487924,2.1375839449252734,-1.2753486354262467,-0.0008988314006228855,0.0019646689040316344,-0.0018169051465853046,0.0006986742835488376,0.0016549142961784563,-0.0013615803660318197,0.0009346303431277329,0.2173345386981964,-21.69339370727539,-2.2826087474823,22.56842803955078,0.6737161874771118,2.2753188610076904,-0.06678618490695953,,,,,,,,,
1739401769.0850022,0.5254979131871732,0.09594529132059945,-0.9531790613246462,-2.0690706626406405,0.137719618929759,2.137587248094084,-1.2753542444633676,-0.0001661916657974553,0.0017817115954303013,-0.00014356577597751929,0.0004729549245437551,-0.0004854757403656641,5.739830300959453e-05,-0.0019653599137450695,0.2411382496356964,-21.79654312133789,-2.2826087474823,22.61603546142578,0.6737161874771118,2.2753188610076904,-0.04756011441349983,,,,,,,,,
1739401769.0950358,0.5254966912816006,0.09595942799665189,-0.9531734161805986,-2.0690688072167496,0.13771790636551226,2.1375872088723864,-1.2753518936618893,-0.00033754018263063083,0.0007731560458941217,-5.486974262707098e-05,-0.00029774791666572413,-0.0008491140935772683,-1.5117584032681034e-06,0.000714285544345138,0.2689092457294464,-21.84811782836914,-2.35798716545105,22.61603546142578,0.6865335702896118,2.2753188610076904,-0.04023589566349983,,,,,,,,,
1739401769.1069586,0.5254989232410855,0.09596955726842706,-0.9531677336919036,-2.0690647137456892,0.13771794734186407,2.137588114015403,-1.2753493932456208,0.0003128666467182902,-0.0010493288479615347,0.001188466367138236,0.000738724703466469,-0.000399389716940994,0.00024554123156964524,0.002447542483893854,0.2411382496356964,-21.82431411743164,-2.4333655834198,22.51685333251953,0.6801248788833618,2.2679946422576904,-0.06037749722599983,,,,,,,,,
1739401769.1170058,0.5255002630326225,0.09597839664847523,-0.9531656375996312,-2.0690663865419623,0.13772251407334693,2.1375884672281864,-1.2753518143386418,-0.0013104890447614775,-0.00011228638358860626,0.0007696854605128068,0.0005766621725773011,0.0007999695721310723,0.0007446480212051441,0.001768542152321564,0.2411382496356964,-21.84811782836914,-2.4571692943573,22.54065704345703,0.6865335702896118,2.2679946422576904,-0.06678618490695953,,,,,,,,,
1739401769.1280017,0.5255002394216298,0.09599151087681122,-0.953163790820559,-2.069071785456719,0.13771507669364264,2.137589173659588,-1.2753563275370816,-0.00012143949984375952,0.0015764484593609465,-0.00016670984241782811,0.0012343474816995225,-0.0004407597433626453,-0.0005377813639447741,-0.0012910536190281587,0.1935308277606964,-21.95126724243164,-2.4333655834198,22.61603546142578,0.6865335702896118,2.2679946422576904,-0.013685601763427258,,,,,,,,,
1739401769.1389973,0.5254977901968073,0.09599746423333959,-0.9531661855790835,-2.069080782654532,0.1377255442981805,2.1375892646206323,-1.2753548603212077,-0.0016378769231979642,0.0009053353648222309,-9.410907579210037e-05,-0.0007609039298509512,0.0002823387344326906,0.000474045155553879,0.00013194862318108305,0.2173345386981964,-21.97507095336914,-2.4095618724823,22.69141387939453,0.6608988046646118,2.2615859508514404,-0.05396880581974983,,,,,,,,,
1739401769.1490095,0.5255005576522113,0.09599817842357825,-0.9531683212547006,-2.069079038639662,0.1377197778175568,2.1375920564241078,-1.2753553869149985,-0.00018555700542428704,-0.0008572885065798322,-3.251707057246397e-05,0.0005732220614486511,-1.1869522542415904e-05,0.00011214016090563966,-0.002512964637865215,0.2173345386981964,-21.89969253540039,-2.38179087638855,22.63983917236328,0.6737161874771118,2.2615859508514404,-0.020094294100999832,,,,,,,,,
1739401769.1599731,0.5254989411012045,0.09600164546969137,-0.9531635528085918,-2.069074261531769,0.13771901977897155,2.137590460429912,-1.27535648748813,-0.0006724506250621854,0.0024060159853037098,0.0025827801521956396,0.0005971011423738551,-0.0016423987632522947,-0.00022528085424796459,-0.0006949092641968126,0.2411382496356964,-21.89969253540039,-2.4333655834198,22.59223175048828,0.6801248788833618,2.2615859508514404,-0.027418512850999832,,,,,,,,,
1739401769.17003,0.5255002422881739,0.09599793513485841,-0.9531701379092175,-2.0690754989149394,0.1377190719452717,2.1375922134144765,-1.2753468535424353,0.0011077670208878491,-0.00040350871476904204,-0.0008711774501829564,0.001505614998128521,-0.0011845291323307925,0.0005275317901923696,0.0013277185668930406,0.1935308277606964,-21.84811782836914,-2.35798716545105,22.59223175048828,0.6801248788833618,2.2615859508514404,-0.09425200521945953,,,,,,,,,
1739401769.1800342,0.5255023482829883,0.09599785978644967,-0.9531684360856985,-2.069072566999586,0.13772053526252354,2.1375943844395975,-1.2753595443762604,-0.0005244979811261847,-0.00018954744432253274,0.0001464000334547729,0.0022619988717643173,-0.0010399370520389755,0.0005690035415321455,-0.001907339111400313,0.1935308277606964,-21.84811782836914,-2.38179087638855,22.54065704345703,0.6673074960708618,2.2551772594451904,-0.013685601763427258,,,,,,,,,
1739401769.190969,0.5254985823476542,0.09599051518564361,-0.9531722220458163,-2.069069777068316,0.1377216001552648,2.137592001469732,-1.2753556374751633,9.069339628284899e-05,-0.000641947973673847,-0.0007488055832897031,-0.0015022530750830269,-0.0006846988563294023,-0.00017918244698948477,-0.0017470128284484338,0.2411382496356964,-21.74496841430664,-2.3302161693573,22.54065704345703,0.6673074960708618,2.2753188610076904,-0.04756011441349983,,,,,,,,,
1739401769.2010612,0.5255016463026198,0.0959920713975854,-0.9531769173948869,-2.0690715562920974,0.13771902190364368,2.137593600801026,-1.2753603956033448,0.0012233462470394082,0.0003667135532583075,-0.0009105204472042751,-0.00026398825129292825,0.0001788408421484122,-0.0001869370680477236,-0.0027293885335491997,0.1935308277606964,-21.79654312133789,-2.3064124584198,22.56842803955078,0.6801248788833618,2.2615859508514404,-0.0072769103571772575,,,,,,,,,
1739401769.212002,0.5254944783720564,0.09599064963185376,-0.953177026780842,-2.069073614077994,0.1377202403649955,2.1375920164896045,-1.2753552316450718,-0.0013904180936018748,-0.0006463826804311364,-0.002169052270139804,-0.0003873627246113965,0.00023372807306919238,-0.0005708597914255168,-0.000988001858814967,0.2689092457294464,-21.74496841430664,-2.3064124584198,22.56842803955078,0.6801248788833618,2.2753188610076904,-0.027418512850999832,,,,,,,,,
1739401769.222071,0.5254945727419954,0.09599027898383332,-0.9531752396972051,-2.0690715478185866,0.13772084057173098,2.137593640047137,-1.2753580579451542,-0.0003561636173594823,-7.209561371494626e-05,0.0005338160516200174,-1.139203392736118e-05,-0.00021632706104073208,0.00024462176559221244,-0.0009122292860597212,0.2689092457294464,-21.77273941040039,-2.3302161693573,22.56842803955078,0.6737161874771118,2.2615859508514404,-0.027418512850999832,,,,,,,,,
1739401769.2330031,0.5254974778619425,0.09599051809646136,-0.9531704661989276,-2.0690676881511427,0.13772141124923523,2.137593640047137,-1.2753502246661057,9.684817199292861e-05,-0.0002256113401211487,0.00047438856420348673,-0.0006931011051833166,-0.0001903945766939557,0.0004566268197880274,0.000898983624401763,0.2173345386981964,-21.74496841430664,-2.35798716545105,22.51685333251953,0.6608988046646118,2.2615859508514404,-0.06678618490695953,,,,,,,,,
1739401769.2430058,0.5254996184127011,0.0959925160499425,-0.9531686823630461,-2.0690694679937867,0.1377240833509882,2.1375951553672934,-1.2753506798631724,0.0007320323920365585,1.65100183952468e-05,0.00011481721738744748,5.899306494619108e-05,0.0023115212840337093,0.0005609768107892401,0.0014495373295097059,0.2173345386981964,-21.77273941040039,-2.38179087638855,22.54065704345703,0.6737161874771118,2.2487685680389404,-0.05396880581974983,,,,,,,,,
1739401769.253064,0.5254965790528593,0.09599793903225814,-0.9531703817637295,-2.0690694679937387,0.1377191382819145,2.137594397707215,-1.2753573000996423,-0.0007170605391220548,0.000523694359010406,-0.0006722868644571517,0.0006576245331206727,1.2601365355412126e-06,-0.00012423109547405302,-0.0019683379241524036,0.2411382496356964,-21.84811782836914,-2.35798716545105,22.54065704345703,0.6801248788833618,2.2551772594451904,-0.03382720425724983,,,,,,,,,
1739401769.2639651,0.5254977368671472,0.09599793805792525,-0.9531665182933757,-2.0690733304606135,0.1377197780882634,2.137593641573365,-1.275352932361037,-0.0008594739675319855,0.00019375017259451715,7.481504296329356e-05,-9.962668267401076e-05,0.00021454920918943278,-0.0009139993516225638,0.00032381191779632735,0.2173345386981964,-21.84811782836914,-2.4095618724823,22.59223175048828,0.6737161874771118,2.2615859508514404,-0.06678618490695953,,,,,,,,,
1739401769.2740433,0.525502101319449,0.09599794000657455,-0.9531683552522293,-2.0690733416852516,0.13772013191807225,2.1375936415733907,-1.275354917654017,0.0010222608236883802,-0.0002472502410770673,-0.0006787868842344755,0.00039354878616108954,0.0005182721422923542,-0.00021149881296139716,0.00017810012799092194,0.1935308277606964,-21.84811782836914,-2.38179087638855,22.59223175048828,0.6737161874771118,2.2615859508514404,-0.05396880581974983,,,,,,,,,
1739401769.2840633,0.5254977237511771,0.0960016621601866,-0.953170137925136,-2.0690753430410194,0.13771816131108955,2.137593640047163,-1.2753538194404763,-0.0002055303707626169,-0.00041748733233803445,-0.00039055940938375044,0.0006069703578865653,-0.0016730452377802833,0.0001413272466003513,0.0009995275518292156,0.2173345386981964,-21.89969253540039,-2.35798716545105,22.61603546142578,0.6865335702896118,2.2615859508514404,-0.027418512850999832,,,,,,,,,
1739401769.2950146,0.5255018676605756,0.09600270556251753,-0.9531644927812424,-2.069076065924966,0.13772208424143487,2.1375928823870587,-1.2753579553382686,0.0002321294649686244,0.0006956317959602522,0.0010761527963114301,0.00035983024867751717,0.0005836322434599262,-1.6545123071819688e-05,-0.0026402308163320665,0.1697271168231964,-21.89969253540039,-2.4333655834198,22.61603546142578,0.6673074960708618,2.2679946422576904,-0.04023589566349983,,,,,,,,,
1739401769.3050663,0.5254996174660623,0.0960047317597243,-0.9531695825250035,-2.0690743632564996,0.1377190729450824,2.137595123540518,-1.2753604393959468,-0.0005377316636717192,-0.0007170496661654236,0.00033118383533325523,-0.00031582824048939287,-0.0012860464038034576,0.001914830746661559,-0.0015165348147887594,0.2173345386981964,-21.89969253540039,-2.38179087638855,22.59223175048828,0.6801248788833618,2.2615859508514404,-0.0072769103571772575,,,,,,,,,
1739401769.3150673,0.5255005313511675,0.0960029227655083,-0.9531662754790454,-2.069075485584376,0.13771979704369666,2.1375928824121817,-1.2753550368531241,0.00020181134647391757,0.0001586445493031357,0.0008427482476527211,0.00012982068447396316,-0.002016974867469576,1.756641799586386e-05,0.000824126204525938,0.2173345386981964,-21.87192153930664,-2.4095618724823,22.59223175048828,0.6737161874771118,2.2679946422576904,-0.05396880581974983,,,,,,,,,
1739401769.3259723,0.5255037127404293,0.09599941544939959,-0.9531704617034533,-2.0690739499517385,0.13772372411024808,2.1375936400471374,-1.2753573003336047,0.0005638251594490677,-0.0007075928931184991,-0.0005136997233153339,0.0010575287310910988,-0.0005864928834468657,-0.0007601725201734205,0.00019599348817089443,0.1697271168231964,-21.82431411743164,-2.35798716545105,22.56842803955078,0.6673074960708618,2.2615859508514404,-0.03382720425724983,,,,,,,,,
1739401769.3359735,0.5254938023959094,0.09600071698589005,-0.9531676532433394,-2.0690743041431547,0.13772293138719793,2.1375936812552863,-1.2753596707295654,-0.0012035548958084928,0.00010565227424800568,0.0017112677074721102,0.0013013787030860765,-0.0013473350304225168,0.0006854599440629396,-0.0024961305519444867,0.2689092457294464,-21.87192153930664,-2.38179087638855,22.56842803955078,0.6737161874771118,2.2615859508514404,-0.013685601763427258,,,,,,,,,
1739401769.3461053,0.525496086186953,0.09599943154351274,-0.9531701481325132,-2.0690736394593974,0.13771901999489577,2.1375928823877564,-1.2753541614552895,-0.0001351745326201981,9.114594733591693e-05,0.00032030854099112397,-0.0005427495787842343,-4.97517556225983e-05,-0.00047573352820430364,0.0005507451630398262,0.2411382496356964,-21.82431411743164,-2.35798716545105,22.59223175048828,0.6801248788833618,2.2679946422576904,-0.06037749722599983,,,,,,,,,
1739401769.3570268,0.5254977223127119,0.09599371386691899,-0.9531704896843531,-2.0690716363640553,0.137723883042231,2.1375984932274013,-1.2753574972994521,-0.00033682384139939534,-0.0002321486656625617,0.0005066971627768385,-0.0005254736827380083,6.275373319689439e-05,0.0008063845453760939,-0.0014585675219909295,0.2173345386981964,-21.74496841430664,-2.35798716545105,22.54065704345703,0.6673074960708618,2.2487685680389404,-0.06037749722599983,,,,,,,,,
1739401769.367995,0.5254957651953818,0.09599203696341586,-0.9531686771388046,-2.069069470840402,0.1377208944573493,2.137593641592207,-1.2753604394446894,-0.000797769983622756,-0.0008774474614167765,-0.0002084697822134744,-9.009772307988023e-05,-0.0003390976660295977,-2.1068225732363352e-05,-0.001224678269667137,0.2411382496356964,-21.72116470336914,-2.38179087638855,22.54065704345703,0.6673074960708618,2.2615859508514404,-0.0072769103571772575,,,,,,,,,
1739401769.3780684,0.5254998912827581,0.09599300412007618,-0.9531683582515155,-2.06906946925353,0.13772276268513545,2.1375936395626467,-1.2753534692055999,0.0005301427293929531,-0.0004021988283480904,0.0009792762298196978,0.0005780532919808435,-0.00010131936841011567,-0.00021354429904779686,0.0011927966175612858,0.1935308277606964,-21.74496841430664,-2.38179087638855,22.54065704345703,0.6608988046646118,2.2615859508514404,-0.06678618490695953,,,,,,,,,
1739401769.3890858,0.5254991892764439,0.0959974248657404,-0.9531685980818718,-2.069071625257829,0.13772408773155895,2.1375936400471343,-1.2753550363689734,0.0004990642975568759,0.0009214758993707006,0.0008174642455532294,-0.001212258784840386,0.0006919266081881302,-0.0008835820672897486,-0.0006429783818025259,0.1935308277606964,-21.79654312133789,-2.38179087638855,22.56842803955078,0.6737161874771118,2.2615859508514404,-0.05396880581974983,,,,,,,,,
1739401769.4000103,0.5254992240466518,0.09599941360857009,-0.9531683643543649,-2.0690695445235963,0.1377211954319276,2.137593640047137,-1.2753558345512224,0.0010607978046416244,0.0019923086694894868,0.0007287327469752918,0.0008180325353254511,-0.0002897027530785346,0.0002370641552068545,0.00024277178189826545,0.1935308277606964,-21.82431411743164,-2.38179087638855,22.54065704345703,0.6737161874771118,2.2615859508514404,-0.07411040365695953,,,,,,,,,
1739401769.410025,0.5254996087835008,0.09599734594862931,-0.9531684612951625,-2.0690734070963086,0.1377227239826047,2.137593640047137,-1.2753557226830206,0.0006218567982185382,-0.0008472178152289212,0.0007272720692364063,4.405045788325726e-05,0.000671672318903144,-0.0007128839834876552,0.0013285562980924965,0.2173345386981964,-21.79654312133789,-2.4095618724823,22.59223175048828,0.6608988046646118,2.2615859508514404,-0.07411040365695953,,,,,,,,,
1739401769.4209826,0.5254974796527162,0.096001161637877,-0.9531694359272144,-2.0690736634532567,0.13772089326648834,2.137598493227401,-1.2753589196014137,-0.0003390247773189801,0.0012312094122285864,-0.00029488366930057245,5.415005499716691e-05,-0.0001921585919275353,0.0002797222602479988,-0.0009862565356530178,0.2173345386981964,-21.84811782836914,-2.35798716545105,22.59223175048828,0.6737161874771118,2.2487685680389404,-0.020094294100999832,,,,,,,,,
1739401769.431033,0.5254991922684588,0.09600113533177973,-0.9531705407398702,-2.0690736394183573,0.13771950566722296,2.137593640103664,-1.2753535975366592,0.00027437586602072913,0.0003867382495855892,-0.0005596690072656245,0.00021816986735805283,-0.001723300765320508,-0.0005324887993098902,0.0019355065701242135,0.1935308277606964,-21.84811782836914,-2.38179087638855,22.59223175048828,0.6801248788833618,2.2615859508514404,-0.07411040365695953,,,,,,,,,
1739401769.4430366,0.5254974767517667,0.09600493932887683,-0.953168355260454,-2.069075908177526,0.1377230308949619,2.1375947587720843,-1.275357349150979,0.00033000251143370726,0.0014507828561105014,0.000782433490980399,-0.0018564950011991958,0.00042281525715030224,0.0003287823300891609,-0.0011258961576777818,0.2173345386981964,-21.89969253540039,-2.38179087638855,22.61603546142578,0.6865335702896118,2.2615859508514404,-0.06037749722599983,,,,,,,,,
1739401769.454008,0.5255008900194551,0.09600284785224143,-0.9531689555090457,-2.0690761746947586,0.13772607619443683,2.1375920348066644,-1.2753534023482829,0.0001832585605909782,4.0502802781183407e-05,-0.000642343499581065,-0.0005222506659918034,0.0011007386026829853,-0.001127077999856824,0.0013941389424055805,0.1697271168231964,-21.87192153930664,-2.4095618724823,22.59223175048828,0.6608988046646118,2.2753188610076904,-0.06678618490695953,,,,,,,,,
1739401769.4640334,0.5254957642308192,0.09600147764695952,-0.9531684362380831,-2.069078186750096,0.13772030891430345,2.1375928823873687,-1.275355272812753,-0.0007004667221684663,-0.0011834979021385767,9.40564660121203e-05,-0.00020509594200622154,-0.0008262937960886693,0.00041697594242461793,0.0012449313215412705,0.2411382496356964,-21.84811782836914,-2.38179087638855,22.61603546142578,0.6737161874771118,2.2679946422576904,-0.05396880581974983,,,,,,,,,
1739401769.4749603,0.5254984217888822,0.09600284817877544,-0.9531701380736399,-2.0690763278627684,0.13772380319022695,2.1375936400471374,-1.2753596757382348,0.0012813569559458594,-0.00047015033670000486,0.0001469989222257455,0.0006498684231826225,0.0005121881300117804,-0.0008374140977432798,-0.0010537845635816424,0.2173345386981964,-21.87192153930664,-2.35798716545105,22.59223175048828,0.6801248788833618,2.2615859508514404,-0.013685601763427258,,,,,,,,,
1739401769.4850612,0.525497476767754,0.09600292720607265,-0.9531683553591545,-2.069074647223394,0.13772376384572904,2.1375936400471374,-1.2753549583613093,0.00025761792054300643,0.00041483226173311144,0.00044783220381928106,0.001096525768542085,0.00044549485266613936,0.0003821730003546752,0.001362665406074633,0.2173345386981964,-21.87192153930664,-2.38179087638855,22.56842803955078,0.6801248788833618,2.2615859508514404,-0.05396880581974983,,,,,,,,,
1739401769.4959946,0.5254991892724811,0.09600112789798304,-0.9531683566175503,-2.0690725576722544,0.1377246076563877,2.1375928825566395,-1.2753525422594747,3.687892199120477e-05,-0.0004197729999566795,8.076252081659258e-05,-0.00017335571129220063,0.001110288824942465,0.0002738971027000677,0.0009574664612129756,0.1935308277606964,-21.84811782836914,-2.38179087638855,22.54065704345703,0.7002664804458618,2.2679946422576904,-0.07411040365695953,,,,,,,,,
1739401769.5069675,0.5254992165568304,0.09599742497788331,-0.953170897738268,-2.0690718879666754,0.13772456092825713,2.1375928823870614,-1.2753534037959087,0.0005576364491308335,-0.0012399754044697244,-0.0005234129411192,0.0003585095261005715,0.00016498019352962327,-0.0002795932636306093,0.0007841219595030166,0.1935308277606964,-21.79654312133789,-2.35798716545105,22.56842803955078,0.6737161874771118,2.2679946422576904,-0.06678618490695953,,,,,,,,,
1739401769.5180218,0.5254974767519037,0.09599443638884472,-0.9531722257871574,-2.0690687184483196,0.1377245463475538,2.1375943977072156,-1.2753517802385241,6.977208276679134e-05,-0.001619175729219108,-0.0007010870381003771,-0.0002771068539570168,0.0006765961106009276,-5.187056017269998e-05,0.002098677744135421,0.2173345386981964,-21.74496841430664,-2.3302161693573,22.51685333251953,0.6737161874771118,2.2551772594451904,-0.08051909506320953,,,,,,,,,
1739401769.528025,0.5254981787620104,0.09599755641691819,-0.9531691916755732,-2.069076323628776,0.1377260761942184,2.137594562539813,-1.2753580579930186,-0.00012163697253639782,3.864907606759935e-05,0.00036095523089226087,-0.001850408763590718,0.000981520335588319,2.1315225078980405e-05,-0.0004688232518613442,0.2173345386981964,-21.79654312133789,-2.38179087638855,22.59223175048828,0.6608988046646118,2.2551772594451904,-0.027418512850999832,,,,,,,,,
1739401769.5380893,0.5254984741633698,0.09599750393580303,-0.9531723346396611,-2.069071877585104,0.1377221303901222,2.1375928823879886,-1.2753585675266685,-0.0005083789494004516,0.00036154267676683063,-0.001452578430534162,-0.0005761247631935953,-0.00019900704022329866,-2.931648766704153e-05,-0.00117491818183989,0.1935308277606964,-21.79654312133789,-2.3302161693573,22.54065704345703,0.6673074960708618,2.2679946422576904,-0.05396880581974983,,,,,,,,,
1739401769.5481064,0.5254960765444608,0.09599963465810454,-0.9531729465512908,-2.069070237527895,0.13772368489272777,2.137592882895801,-1.2753589245980594,-0.0001821562900980099,0.0015831179007109065,-0.0008949266108542605,0.0010916510029622879,0.0004923542371480647,-0.0005837235036725277,0.00013228049435016348,0.2411382496356964,-21.79654312133789,-2.3302161693573,22.54065704345703,0.6801248788833618,2.2679946422576904,-0.020094294100999832,,,,,,,,,
1739401769.5589662,0.5254974767535128,0.09599766168120523,-0.9531683552522312,-2.0690695562851094,0.13772452345531977,2.1375928823870614,-1.2753526554746708,0.0003700801003869476,0.0005545959500753928,0.0010364932372867366,-0.0006239371605784777,-0.0010271952645393699,-0.0005758493737288836,0.000228024609760313,0.2173345386981964,-21.79654312133789,-2.38179087638855,22.54065704345703,0.6737161874771118,2.2679946422576904,-0.07411040365695953,,,,,,,,,
1739401769.5709872,0.5255009017932122,0.09599955573713752,-0.9531683552481169,-2.0690734366294983,0.1377231830452383,2.1375936400471374,-1.2753572998490872,0.0011479048313927775,0.00039448710748850687,0.0008703822514347984,-0.0011689531078623965,-0.0005309537836836205,-0.0008388891171407534,-0.0005961930472930244,0.1697271168231964,-21.79654312133789,-2.38179087638855,22.59223175048828,0.6737161874771118,2.2615859508514404,-0.03382720425724983,,,,,,,,,
1739401769.5810006,0.5255001253931594,0.09600113569219829,-0.9531702188697153,-2.0690761424548865,0.13772527914255248,2.1375935413609377,-1.2753596815504311,0.00115885322657262,9.306429103304173e-05,-5.1030961657693883e-05,-6.2349296098804284e-06,0.0003895925575657362,-0.0012036813776796448,-0.0010010074889182697,0.1935308277606964,-21.84811782836914,-2.35798716545105,22.61603546142578,0.6673074960708618,2.2753188610076904,-0.013685601763427258,,,,,,,,,
1739401769.592023,0.5254974858482944,0.09599766119960836,-0.9531701379623,-2.069076428918446,0.13772420590969295,2.1375969794363416,-1.275354919115551,-0.000239241345590002,-0.00044312166565937776,0.0002781829482353663,-0.00014701042326985964,-0.0009128227481953233,-0.0006354770727056056,0.0005414543303812839,0.2173345386981964,-21.79654312133789,-2.35798716545105,22.59223175048828,0.6737161874771118,2.2615859508514404,-0.05396880581974983,,,,,,,,,
1739401769.602054,0.5254998917108855,0.09600284785606769,-0.9531681737245197,-2.0690802784535816,0.13772455795665353,2.1375955247981775,-1.2753657842751722,0.0012050401804234606,-0.0001659254261300867,0.0006930061600136235,-0.0019674154961884997,-0.000768556434546836,5.712714127190175e-05,-0.001586645466084708,0.1935308277606964,-21.87192153930664,-2.35798716545105,22.61603546142578,0.6737161874771118,2.2551772594451904,-0.0008682189509272575,,,,,,,,,
1739401769.6130195,0.5254957643776471,0.09600113533133425,-0.9531701350251169,-2.069074363619451,0.13772416009713706,2.1375941786695303,-1.2753570659768465,-0.0009558670996967013,-0.0006915600797333446,0.0005814370758946075,0.0009225567076810713,2.4604742795974967e-05,0.00022641177966442562,-0.0004804225419339507,0.2411382496356964,-21.84811782836914,-2.35798716545105,22.59223175048828,0.6801248788833618,2.2679946422576904,-0.04023589566349983,,,,,,,,,
1739401769.6232545,0.5255015296276782,0.09600326619738496,-0.9531709024016694,-2.0690757069843104,0.13772484611843058,2.137592882409011,-1.2753647304601061,0.00172932737231877,-0.0016483231578723041,-0.0010472748480010261,0.0009203080199020743,0.00046938478060896515,-0.000529872410011403,-0.0018132921755005132,0.1935308277606964,-21.84811782836914,-2.35798716545105,22.59223175048828,0.6673074960708618,2.2679946422576904,-0.0008682189509272575,,,,,,,,,
1739401769.6339583,0.525500741843397,0.09600319875625479,-0.9531686340701699,-2.0690739584480955,0.13772385586108665,2.1375940109204827,-1.2753591716338541,0.0010148546553240094,-0.00027215451699945067,-0.0011439795492892348,0.000964445767873129,0.000480195322005568,0.00026652356382265323,-0.0011337498581044188,0.1697271168231964,-21.87192153930664,-2.38179087638855,22.56842803955078,0.6801248788833618,2.2615859508514404,-0.027418512850999832,,,,,,,,,
1739401769.6439962,0.5255029001611521,0.09599967126747323,-0.9531701499184995,-2.0690736633964466,0.1377242065581054,2.137593640049231,-1.2753527129769409,0.0013493969421413108,0.0003263235440205454,5.8161847423352344e-05,0.0005932462873695098,-0.00044034449877661356,-0.0008918757394298019,0.0006658032755931113,0.1419561207294464,-21.82431411743164,-2.35798716545105,22.59223175048828,0.6737161874771118,2.2615859508514404,-0.07411040365695953,,,,,,,,,
1739401769.654059,0.5255037099412596,0.09600429260717237,-0.9531699042550241,-2.0690725672834374,0.13772500370302942,2.13759813173543,-1.2753591591245836,0.0012501843421623172,0.0009242627992821231,0.0006959777776244187,0.0006565079734563073,0.00026158290774847047,0.0003568040939779291,0.0011666441744899616,0.1697271168231964,-21.84811782836914,-2.35798716545105,22.54065704345703,0.6673074960708618,2.2615859508514404,-0.05396880581974983,,,,,,,,,
1739401769.6650608,0.5254975027679819,0.09600337570135663,-0.9531701382569222,-2.0690746472251216,0.13772624433497674,2.1375945213570193,-1.2753618922836079,-4.705210799356759e-05,0.0011745629441438676,-0.00014744850469110922,-0.0005901871368488541,-0.00018218321132923616,-0.0007309203728827363,-5.228143581560956e-05,0.2173345386981964,-21.84811782836914,-2.35798716545105,22.56842803955078,0.6865335702896118,2.2551772594451904,-0.03382720425724983,,,,,,,,,
1739401769.676073,0.5254991893796254,0.09600013444713051,-0.9531683582830779,-2.069068403842945,0.13772380323228658,2.137596222282834,-1.275359159632057,0.0002836208502298803,0.0007753176002909801,0.00039508553996203514,0.0018290581874488509,-0.0007789850865901622,-0.0006193821529917015,8.147974828550655e-05,0.1935308277606964,-21.82431411743164,-2.38179087638855,22.51685333251953,0.6801248788833618,2.2679946422576904,-0.05396880581974983,,,,,,,,,
1739401769.6870224,0.5254987530462227,0.09599753053475717,-0.9531662754582785,-2.0690671140622117,0.13772607619446453,2.1375941666417804,-1.2753604981091051,0.00042036711881975844,-0.00041179838179016004,-0.0004383673722814412,0.0022117128217451526,0.0006615750746847128,0.0002780077696564745,-0.002267497126810361,0.1697271168231964,-21.79654312133789,-2.4095618724823,22.46924591064453,0.6608988046646118,2.2679946422576904,-0.020094294100999832,,,,,,,,,
1739401769.6979547,0.525501136105495,0.0959976617775866,-0.9531691646939101,-2.0690702704672796,0.13772274486932234,2.1375975119518418,-1.275362375708732,0.0005816749065482045,0.0006939581811440199,-7.664985251882244e-05,-0.00011102621728150249,-0.0003156719170859131,0.0012619266397296957,-0.0017580743842157177,0.1697271168231964,-21.79654312133789,-2.38179087638855,22.54065704345703,0.6801248788833618,2.2679946422576904,-0.0008682189509272575,,,,,,,,,
1739401769.7079835,0.5254957642349867,0.09599942671194671,-0.9531682772606849,-2.0690725631972224,0.13772607617654126,2.1375940501992763,-1.2753576936025344,-0.0004712172060597494,0.0009978495201845123,0.0016251171210090588,-0.00016875033707698352,0.0008148163793257415,-0.0007549249519033547,0.0005677395359110587,0.2411382496356964,-21.82431411743164,-2.38179087638855,22.54065704345703,0.6608988046646118,2.2679946422576904,-0.06037749722599983,,,,,,,,,
1739401769.7180552,0.5254964665622717,0.09599742519459369,-0.9531708664250291,-2.069076426752711,0.13772456526221222,2.1375980951257403,-1.2753574583287535,-0.00017968112338329967,-0.0001711706879519515,-0.00020423937401828967,-0.0021420678543648103,-0.0005103362362773971,0.0002828221135791233,0.0011522366550917823,0.2411382496356964,-21.79654312133789,-2.35798716545105,22.59223175048828,0.6737161874771118,2.2615859508514404,-0.06037749722599983,,,,,,,,,
1739401769.7280588,0.5254967615079066,0.09600113533133973,-0.9531704617157905,-2.0690764299020885,0.13772531853446038,2.137597107881632,-1.27535698846808,-0.0011633610100611857,0.0011318985831313682,0.0005287410736001503,-0.0009283808773866336,-0.00016462933416648247,-0.0013143542852386248,-0.00044582889001962365,0.2173345386981964,-21.84811782836914,-2.35798716545105,22.59223175048828,0.6673074960708618,2.2615859508514404,-0.06678618490695953,,,,,,,,,
1739401769.7391005,0.5254975547488523,0.09599741317775519,-0.9531730912382407,-2.069074569750894,0.137725319997021,2.137594397952899,-1.2753572219152975,-0.0011442164056702487,-0.0006216815607080445,-0.0003933415985120245,3.7009858870439786e-05,9.774778539117099e-05,-5.582572514461828e-05,0.00015953203801598876,0.2173345386981964,-21.79654312133789,-2.35798716545105,22.56842803955078,0.6673074960708618,2.2551772594451904,-0.03382720425724983,,,,,,,,,
1739401769.7500255,0.52549747675219,0.09600074361771463,-0.9531706486945359,-2.0690746470847134,0.1377253710272417,2.1375969814783065,-1.2753549384957783,-0.00036447641798505225,-0.0004160732302914106,0.0008872020834014414,0.0007094232654064548,0.0009422047392722964,0.0006320281473310773,0.001845844600062999,0.2173345386981964,-21.87192153930664,-2.38179087638855,22.56842803955078,0.6673074960708618,2.2753188610076904,-0.05396880581974983,,,,,,,,,
1739401769.7619462,0.5254974780357192,0.09600288587525643,-0.9531690851317101,-2.069076429902141,0.13772257508262795,2.1375974862256424,-1.2753604392644622,-0.0009832626725737627,0.00017148864065824078,0.0011298730373165088,-0.0009758765516912489,-0.0005611877803447212,0.0003540151804659427,0.00040222590830875577,0.2173345386981964,-21.87192153930664,-2.38179087638855,22.59223175048828,0.6865335702896118,2.2615859508514404,-0.0072769103571772575,,,,,,,,,
1739401769.7720075,0.5254981816509489,0.09600218804411695,-0.9531662784603289,-2.069076428922341,0.13772425558223175,2.137597337467597,-1.2753549736884149,-0.0001973996867066642,-0.0012355297770189882,0.0001813868959765074,0.00015386684762260124,6.311786988681526e-05,0.00012145676305376369,0.0010223398135790454,0.2173345386981964,-21.84811782836914,-2.4095618724823,22.59223175048828,0.6673074960708618,2.2679946422576904,-0.08051909506320953,,,,,,,,,
1739401769.7820704,0.5254974708223007,0.09600285804625905,-0.9531701350362557,-2.069076428957317,0.1377256739366741,2.1375949243584524,-1.2753585747034595,-0.00039836970614886115,-0.0012140398900756981,-2.5971220740753163e-05,-0.00034103386432076494,0.0004106523643642304,0.001212602228624896,-0.001051147040457202,0.2173345386981964,-21.87192153930664,-2.35798716545105,22.59223175048828,0.6673074960708618,2.2615859508514404,-0.027418512850999832,,,,,,,,,
1739401769.7930038,0.5255009017931787,0.09600580430291702,-0.9531660416028715,-2.0690782124391838,0.13772531853639233,2.1375951281264514,-1.275361603113889,0.0010042778717494806,-0.00047975905383712986,0.0013460522420408242,-0.0007146782544267281,9.412120502491064e-05,0.0003367870123893324,-0.001278482483971746,0.1697271168231964,-21.87192153930664,-2.4095618724823,22.61603546142578,0.6673074960708618,2.2615859508514404,-0.0008682189509272575,,,,,,,,,
1739401769.8039875,0.5255000463742134,0.096001452475339,-0.9531662753499438,-2.069074647645036,0.13772607619446442,2.137592901388515,-1.2753593341959637,-0.00047153426576908666,0.000548602328104995,0.00015991326402943148,-0.0005984871983870208,-0.00020091896632516847,-0.0005163063568960789,-0.0014328181774230092,0.2173345386981964,-21.84811782836914,-2.4095618724823,22.56842803955078,0.6608988046646118,2.2679946422576904,-0.05396880581974983,,,,,,,,,
1739401769.8140216,0.5255019973570406,0.09599977758140847,-0.953168120816705,-2.0690725664904663,0.13772392315029405,2.137594912724615,-1.275361309423405,0.0006418904401328727,0.0008901688926630269,-3.523480474557414e-05,0.0001744742371213771,0.0004154182397609227,-0.000395770908841921,-0.0030806974249803242,0.1935308277606964,-21.82431411743164,-2.38179087638855,22.54065704345703,0.6801248788833618,2.2551772594451904,-0.04023589566349983,,,,,,,,,
1739401769.8240263,0.525500875349814,0.0960025011672768,-0.9531701379211659,-2.0690716373828377,0.13772531999905213,2.1375994037429846,-1.2753589638628553,0.0005583589373683561,-1.758622597764967e-05,-0.0002427188972626399,0.00045952183839068257,0.0006581998681990759,0.0013171399224712263,-0.0015412508930193758,0.1697271168231964,-21.82431411743164,-2.35798716545105,22.56842803955078,0.6673074960708618,2.2551772594451904,-0.020094294100999832,,,,,,,,,
1739401769.83424,0.5254991097991735,0.09599969805764973,-0.9531683552481168,-2.0690724795171826,0.13772535802555413,2.1375982164410576,-1.2753518383812108,0.0003237330831977742,-0.0001244735633931743,6.133077850170922e-05,0.0003350630440627371,0.00027806588438865966,-0.0011574344944013846,0.0014212074643216313,0.1935308277606964,-21.82431411743164,-2.38179087638855,22.54065704345703,0.6673074960708618,2.2615859508514404,-0.08051909506320953,,,,,,,,,
1739401769.8449683,0.5255067442849739,0.09599954081469685,-0.9531694456210654,-2.0690746216098406,0.13772288750870684,2.137599384653986,-1.2753563452101762,0.0023373078547228305,0.00033037102043230086,-0.00046323714601890673,-0.001011927031842816,-0.000496963552703151,0.0012363075661684362,-0.0002060730609198684,0.11815241724252701,-21.82431411743164,-2.4095618724823,22.56842803955078,0.6608988046646118,2.2551772594451904,-0.05396880581974983,,,,,,,,,
1739401769.8560586,0.5255008223564586,0.09599743753807609,-0.9531702189234023,-2.069069480748208,0.13772314371682404,2.1375986402233083,-1.2753620681634035,0.0002500625446854108,-0.0003499164131375803,-0.001010618799229529,0.0011286610934875983,-0.0015372957237421464,0.0029259863040888697,-0.0014585708508896554,0.1697271168231964,-21.79654312133789,-2.35798716545105,22.54065704345703,0.6737161874771118,2.2615859508514404,-0.03382720425724983,,,,,,,,,
1739401769.8660796,0.5254991892720325,0.09600027912392033,-0.9531701379255932,-2.0690725588795806,0.13772531852638617,2.137599404440812,-1.275354647614192,0.0004025654377471711,0.0009022194101564144,5.761466986835186e-05,-0.0006883181286909849,-0.0002836321411777474,0.0008928156262898721,-0.00043297485359444505,0.1935308277606964,-21.79654312133789,-2.35798716545105,22.54065704345703,0.6673074960708618,2.2551772594451904,-0.06037749722599983,,,,,,,,,
1739401769.8770192,0.5254956298139596,0.0959958219234527,-0.9531726323004248,-2.0690705438322463,0.13772456157853932,2.1375992527467305,-1.27535340815923,0.0006325280381753739,-0.0011537950481625868,-0.0012828738899757152,0.0009836287381418335,-8.590971963937354e-05,0.0009369545929151144,0.0011791123719979328,0.2411382496356964,-21.77273941040039,-2.3064124584198,22.51685333251953,0.6737161874771118,2.2551772594451904,-0.06678618490695953,,,,,,,,,
1739401769.8870325,0.5254974767494734,0.09600061776051658,-0.9531702488260203,-2.069073728867997,0.13772456087431967,2.1375990449561657,-1.275358464324675,-0.0008700059910044962,0.0005328174797656819,-0.00047497213529919204,0.0002061772933566122,-0.000905198469721898,0.00044750913528520227,0.0004086155689665768,0.2173345386981964,-21.79654312133789,-2.35798716545105,22.56842803955078,0.6737161874771118,2.2487685680389404,-0.05396880581974983,,,,,,,,,
1739401769.8980527,0.5254974767517497,0.09600568999915658,-0.9531701380738088,-2.0690781350997485,0.1377263882126109,2.137596323688336,-1.2753527086838516,0.0004946316836372576,0.0013656934208726742,0.0003682869388432863,-0.0003585931334738806,0.0003651183160971164,0.0005391721739295878,0.0016070434797984205,0.2173345386981964,-21.87192153930664,-2.35798716545105,22.61603546142578,0.6673074960708618,2.2487685680389404,-0.07411040365695953,,,,,,,,,
1739401769.908979,0.5254957639039698,0.09600431896208342,-0.9531721517056418,-2.0690754564698004,0.13772695282155584,2.1375981520917287,-1.2753581166205092,-0.0010585930467638032,0.0012061015509038718,-0.0006598838277044842,0.0007130674657436826,0.0011150199453475401,0.0005749012729533972,-0.0012625205766090576,0.2411382496356964,-21.84811782836914,-2.3302161693573,22.61603546142578,0.6544901132583618,2.2615859508514404,-0.027418512850999832,,,,,,,,,
1739401769.919983,0.5254991892724792,0.09600335827177242,-0.953170111603391,-2.0690716150185944,0.13772533169877205,2.1375978660570034,-1.275365964569569,-0.00022800144039336612,-0.0001386101004435409,-0.00026248226186575794,0.002348372295644042,0.00015058271100045108,0.0010605677757362317,-0.0013258378638839458,0.1935308277606964,-21.84811782836914,-2.35798716545105,22.54065704345703,0.6673074960708618,2.2551772594451904,-0.0008682189509272575,,,,,,,,,
1739401769.9319701,0.525499189272481,0.09600357128874851,-0.9531683823775415,-2.069078212573784,0.13772535802560362,2.1375978479603854,-1.2753549627489722,-0.00042011719240907664,-0.0009041893328213943,0.00015385083582522896,-0.0012145102663146815,5.0358785181143324e-05,-0.00022956230380101955,-0.0004209953450421874,0.1935308277606964,-21.87192153930664,-2.38179087638855,22.61603546142578,0.6673074960708618,2.2679946422576904,-0.05396880581974983,,,,,,,,,
1739401769.942032,0.525499189272481,0.09600533341546172,-0.953166279899818,-2.069076429902142,0.1377271439181899,2.137596776556951,-1.2753602492800706,-0.00020934166450898824,0.0005754429337772755,1.900665745811696e-05,-7.041369932272236e-05,0.0008961815505624862,-0.00022630210885473656,-0.0003241013032257002,0.1935308277606964,-21.87192153930664,-2.4095618724823,22.59223175048828,0.6608988046646118,2.2679946422576904,-0.04023589566349983,,,,,,,,,
1739401769.9520342,0.5255030169187773,0.09600262743360201,-0.9531642587778972,-2.0690782125791607,0.1377238163960258,2.137595308280025,-1.2753573585212579,0.0016185651049634014,-0.0007331601994499923,0.0012915412322287388,-0.0005075872367664941,-0.0007913143478249383,-0.0003807365563433002,0.0018910644564432214,0.1697271168231964,-21.82431411743164,-2.4333655834198,22.61603546142578,0.6801248788833618,2.2615859508514404,-0.06037749722599983,,,,,,,,,
1739401769.9620721,0.525497589455883,0.0960026191098201,-0.9531699039177528,-2.069076429902142,0.1377253229225141,2.137596844654801,-1.275362122400957,0.0006607821603969583,-0.00036259233256891643,-0.00021651306953692395,-0.0006623677349275425,-0.0001778229312977877,0.0005306642579693881,-0.0020703230150683847,0.2173345386981964,-21.82431411743164,-2.35798716545105,22.59223175048828,0.6673074960708618,2.2753188610076904,-0.020094294100999832,,,,,,,,,
1739401769.9730272,0.5254991921633207,0.09600803873595903,-0.9531668912871988,-2.069076429902142,0.13772472468949476,2.1375978891741947,-1.275359681000324,0.00034446885816758995,0.003072886316404037,0.0012461320361284423,-0.00048353295367962047,0.0001619676424485508,0.0008051480979428118,-0.0004451628177653505,0.1935308277606964,-21.89969253540039,-2.4095618724823,22.59223175048828,0.6737161874771118,2.2679946422576904,-0.05396880581974983,,,,,,,,,
1739401769.983044,0.5254957671199659,0.09600421471044346,-0.9531644895747953,-2.0690707838134403,0.1377257926457164,2.1375986417498725,-1.2753535273744867,-0.000613546657207998,0.00073225579117072,0.002325566403116196,0.0011294950534127997,0.0007784822405057579,0.000706613821959532,-8.825592386571839e-05,0.2411382496356964,-21.84811782836914,-2.4333655834198,22.51685333251953,0.6673074960708618,2.2615859508514404,-0.06678618490695953,,,,,,,,,
1739401769.9939537,0.5254980407702792,0.09599882972647002,-0.9531701379251178,-2.0690705551699815,0.13772531999969737,2.1375986269963088,-1.275358536642411,0.0006644390705720766,-0.0006236474220187106,-4.4848987842147114e-05,-9.827865502302891e-05,-0.0009221029660960282,-4.5444689765207144e-05,0.0007464276791678741,0.1697271168231964,-21.77273941040039,-2.35798716545105,22.51685333251953,0.6673074960708618,2.2615859508514404,-0.06037749722599983,,,,,,,,,
1739401770.0040426,0.525495765145544,0.09599888201499242,-0.9531660415658761,-2.06906720806263,0.1377253185344109,2.137599403818717,-1.2753597213549068,-0.00048206330965771307,-0.0009326339333453405,0.0020776495589181275,0.001655263700312486,-0.0009309920896603189,0.0010295531236754855,0.0007577238411186691,0.2411382496356964,-21.77273941040039,-2.4095618724823,22.46924591064453,0.6673074960708618,2.2551772594451904,-0.013685601763427258,,,,,,,,,
1739401770.014055,0.5255037111182398,0.09599767446090998,-0.9531769953374845,-2.069074610272453,0.1377273901900964,2.1375974999891296,-1.2753628262845218,0.0024022022933617437,-0.0008839241716449219,-0.002105721073116865,-8.809999648083815e-05,0.001095353130367844,-0.0004409602168058423,-0.002196184394294766,0.1697271168231964,-21.79654312133789,-2.3064124584198,22.56842803955078,0.6865335702896118,2.2679946422576904,-0.027418512850999832,,,,,,,,,
1739401770.0240784,0.5254974768944783,0.09599879450143738,-0.9531683554002759,-2.069075661771637,0.13772531875511645,2.13759827594418,-1.2753581707138626,0.00022800363524150594,-0.0006687566360315134,0.0008429199266393322,-0.0017220300829588553,0.00045732294620226836,4.696452340212559e-05,-0.0006366605322673754,0.2173345386981964,-21.77273941040039,-2.38179087638855,22.59223175048828,0.6673074960708618,2.2615859508514404,-0.06678618490695953,,,,,,,,,
1739401770.034998,0.5254991892724813,0.09599848986952371,-0.9531701119247562,-2.0690725719711485,0.13772683965107949,2.137599363288529,-1.2753622794109911,-6.808669210838419e-05,0.0004552482384937814,0.0013004715243580978,-0.0007203042432865146,0.001462744047082206,0.00023439509839351535,-0.0019987580216677975,0.1935308277606964,-21.79654312133789,-2.35798716545105,22.56842803955078,0.6544901132583618,2.2551772594451904,-0.020094294100999832,,,,,,,,,
1739401770.0450613,0.5255013299704364,0.09600330562177364,-0.9531683552476765,-2.0690773482200426,0.13772456152446585,2.1375971633432194,-1.2753588903957658,0.0007684692625551718,0.0011265194355623898,0.0009484462054215874,-0.000856865763499881,-4.115663900652468e-05,-0.0010996621597785974,0.0011236558600732352,0.1935308277606964,-21.84811782836914,-2.38179087638855,22.59223175048828,0.6737161874771118,2.2615859508514404,-0.06037749722599983,,,,,,,,,
1739401770.0560467,0.5255005839138576,0.09600219779948264,-0.9531683539641475,-2.06907543502486,0.13772611568561133,2.137595306933846,-1.2753633924357313,4.0265464256228995e-05,-0.0005104152369067247,5.16823647896818e-05,-0.001176006271580767,0.002282883119329377,0.0002694926450323217,-0.0014804912467914768,0.1697271168231964,-21.84811782836914,-2.38179087638855,22.59223175048828,0.6608988046646118,2.2615859508514404,-0.013685601763427258,,,,,,,,,
1739401770.0671117,0.5254977638407095,0.09600768999690369,-0.9531687060079388,-2.069078212562312,0.13772827304244165,2.137595304341946,-1.275359212158294,0.0003840622455480694,0.0016741109476608865,0.00015709954261664428,-0.0004643462845251183,0.002545724478881553,0.0008216726366780433,-0.0007931680436827673,0.2173345386981964,-21.89969253540039,-2.38179087638855,22.61603546142578,0.6737161874771118,2.2615859508514404,-0.05396880581974983,,,,,,,,,
1739401770.0779717,0.52549747675229,0.09600429264440302,-0.9531662754589213,-2.069074363596125,0.13772137007067276,2.1375977653203737,-1.2753603923160464,-0.0004891889304108021,-0.00113201804079861,7.091755827378526e-07,-5.540731689898247e-05,-0.0019516939152060826,-0.00037060503040281165,0.0009260464535183245,0.2173345386981964,-21.84811782836914,-2.4095618724823,22.59223175048828,0.6737161874771118,2.2679946422576904,-0.04756011441349983,,,,,,,,,
1739401770.0890384,0.5254991892724811,0.09600713011574062,-0.9531694359148752,-2.069076426927747,0.13772607597841757,2.137599276292147,-1.2753626562983271,0.0003494308733052459,-0.0002629288022695446,-0.000324192385023454,-9.165192797617962e-05,-0.00042651983344933574,0.0008849446320709581,0.001283359317522549,0.1935308277606964,-21.89969253540039,-2.35798716545105,22.59223175048828,0.6608988046646118,2.2551772594451904,-0.027418512850999832,,,,,,,,,
1739401770.100126,0.5254974768587473,0.09600972797581171,-0.953166275347301,-2.069078211634336,0.137730380729077,2.1375993627797607,-1.2753539161713365,-6.200494630194078e-06,2.2943826587694437e-05,6.951519343238364e-05,-0.0003011678982675262,0.0017561075995391267,0.0014132346445656567,0.0018065459363561449,0.2173345386981964,-21.92349624633789,-2.4095618724823,22.61603546142578,0.6608988046646118,2.2551772594451904,-0.06678618490695953,,,,,,,,,
1739401770.1109815,0.5254953596716465,0.09600261912165782,-0.9531676802193824,-2.0690782124741802,0.1377245609004647,2.137596487573966,-1.2753612297977561,-0.0006324360768888749,-0.000882607997786802,-0.0006176381011952501,-0.0003954525028942226,-4.9400888403470745e-05,-0.0011690596241404798,-0.00025956010427712317,0.2411382496356964,-21.82431411743164,-2.38179087638855,22.61603546142578,0.6737161874771118,2.2753188610076904,-0.013685601763427258,,,,,,,,,
1739401770.1210394,0.5254957642241673,0.0960043315221513,-0.9531683465698919,-2.069071870167212,0.13772790011541083,2.1375978754320974,-1.2753596438260926,-0.000190497877947979,0.0007349290047201651,-6.443767994785507e-05,0.0016984894501953878,0.0003969781637982681,-0.0005004811050840645,-0.0005872955109507401,0.2411382496356964,-21.84811782836914,-2.38179087638855,22.54065704345703,0.6544901132583618,2.2679946422576904,-0.05396880581974983,,,,,,,,,
1739401770.132038,0.525499189272481,0.09599914541098879,-0.9531681212446477,-2.069076197475521,0.13772380322024846,2.137597021753682,-1.2753644492757525,0.00025879397975492324,-0.0008547270266101855,-0.00041935099367078403,0.00014437657299767745,-0.0004676543432034758,0.0006310254520685502,-0.001402689004835372,0.1935308277606964,-21.77273941040039,-2.38179087638855,22.59223175048828,0.6801248788833618,2.2753188610076904,-0.013685601763427258,,,,,,,,,
1739401770.1430345,0.5254974768944131,0.09599853382431471,-0.9531680309300559,-2.0690739421291,0.13772486947509704,2.13759219989152,-1.2753581675914218,8.490227427769017e-05,-0.0008043411160272552,0.0008138121837136437,-0.00021945985770879957,-0.00019248814989958687,-0.001692297716648645,-0.00024610580234415644,0.2173345386981964,-21.79654312133789,-2.35798716545105,22.54065704345703,0.6801248788833618,2.2753188610076904,-0.06678618490695953,,,,,,,,,
1739401770.153968,0.5254974767517505,0.09600029374510238,-0.9531722176674317,-2.069076429839916,0.13772718928085104,2.1375994042440407,-1.2753539336148738,-0.0001844467162492681,-0.0005198167155836532,0.0004225663789239627,-0.0007023632773221246,-0.0003264291018671944,0.0011055679554860102,0.0012528544693449237,0.2173345386981964,-21.79654312133789,-2.3302161693573,22.59223175048828,0.6544901132583618,2.2551772594451904,-0.06678618490695953,,,,,,,,,
1739401770.1640167,0.5254974767517498,0.09600054126798338,-0.9531701379251352,-2.0690716509250957,0.13772971960892477,2.1375985232128456,-1.2753628246777644,-0.00029773228415281894,-0.0007600218337792566,-0.0008132819303289449,0.0012120329473191557,0.000282213034394663,0.0006315554109918529,-0.0018508033440547992,0.2173345386981964,-21.79654312133789,-2.35798716545105,22.56842803955078,0.6673074960708618,2.2615859508514404,-0.027418512850999832,,,,,,,,,
1739401770.1740742,0.5254957524572615,0.09600259269307852,-0.9531663554398636,-2.0690694936102707,0.13772380328876196,2.1376009193066965,-1.2753581721673883,-0.0005999186047866401,0.0009431678842840466,0.0013275505295094327,0.002637238784076643,0.0007639947665423041,-0.0002299130356881048,1.7116651716442386e-05,0.2411382496356964,-21.82431411743164,-2.4095618724823,22.54065704345703,0.6801248788833618,2.2423598766326904,-0.06678618490695953,,,,,,,,,
1739401770.1850462,0.5254974727180813,0.09600062149345458,-0.9531693265835203,-2.069074621907921,0.13772607603245454,2.137596265619906,-1.2753573004559835,-0.0004294774657681677,-0.00028007218201197073,-8.32669403406953e-05,-0.0009009582190826386,-0.0001701165224918453,-0.00021338011252193707,0.0018237738326179539,0.2173345386981964,-21.79654312133789,-2.38179087638855,22.56842803955078,0.6608988046646118,2.2817275524139404,-0.07411040365695953,,,,,,,,,
1739401770.1960633,0.5255009017568506,0.09600604285203282,-0.9531722178315098,-2.069074341002319,0.1377270151605458,2.1375978891772194,-1.275361311044411,0.000807629233675195,0.001751154201974876,-0.0005719594825269983,-0.0007920180158359066,0.000614712195233412,0.00018201981497058042,-0.001478172592397523,0.1697271168231964,-21.87192153930664,-2.3302161693573,22.56842803955078,0.6801248788833618,2.2679946422576904,-0.04023589566349983,,,,,,,,,
1739401770.2060852,0.5254974768587466,0.09600398963954067,-0.953172244807555,-2.0690764298969557,0.13772507626374442,2.1375994044973763,-1.2753523100575888,-4.81494614301322e-05,0.0006211821424272929,-0.0019829344993532467,-0.0011632963149089087,0.0005552929915902976,0.00011281167903216344,0.0012193153380005203,0.2173345386981964,-21.84811782836914,-2.3302161693573,22.59223175048828,0.6737161874771118,2.2551772594451904,-0.08051909506320953,,,,,,,,,
1739401770.216948,0.5254991892724816,0.09600409486558524,-0.9531708664265028,-2.0690799957810726,0.1377247188417901,2.1375970232799872,-1.2753639081091057,0.0002202143181838342,7.519285259650488e-05,-5.5618327160934366e-05,-0.0015724594977066058,0.0008106263747457445,-0.0005787746588576248,-0.0002643699087222817,0.1935308277606964,-21.84811782836914,-2.35798716545105,22.63983917236328,0.6737161874771118,2.2753188610076904,-0.027418512850999832,,,,,,,,,
1739401770.2269711,0.5254991892724811,0.0960045683892952,-0.9531662754705985,-2.0690782125791696,0.13773109890068852,2.1375970232799872,-1.2753589298453742,0.0013705242388029342,0.0002505271501849548,0.0004276469014076221,-6.922319910913574e-05,0.0021970256195008643,-0.0002717602106878488,0.000552295774039709,0.1935308277606964,-21.84811782836914,-2.4095618724823,22.61603546142578,0.6544901132583618,2.2753188610076904,-0.06037749722599983,,,,,,,,,
1739401770.2370133,0.5254992961629322,0.0960080508650002,-0.9531644927812425,-2.0690746387218533,0.137725318606615,2.137598646837298,-1.275360049530161,7.949387235462927e-05,0.0010761013432368713,0.0009813806511351638,0.0010668087040734998,0.00032516393538096453,0.0007134712494140064,-0.0007375139308456187,0.1935308277606964,-21.89969253540039,-2.4333655834198,22.56842803955078,0.6673074960708618,2.2615859508514404,-0.05396880581974983,,,,,,,,,
1739401770.248014,0.5254991892730844,0.09600433163045984,-0.9531644927812424,-2.0690743295946654,0.13772537118924413,2.1375978340069124,-1.2753588116070118,0.0003235149729739357,0.0010059867397373375,0.0008967872853904362,-0.00047815685263194214,-0.0004750564239782466,-0.0013440518025079683,0.0014178854867517748,0.1935308277606964,-21.84811782836914,-2.4333655834198,22.59223175048828,0.6673074960708618,2.2679946422576904,-0.06037749722599983,,,,,,,,,
1739401770.2580767,0.5254991892724811,0.09600433163041032,-0.9531662729024354,-2.0690725672947194,0.13772416009804525,2.1375964675981702,-1.2753652115652478,0.0007418989671258251,-0.000558996633902737,0.00021110821105320275,0.001050519286365789,-0.0007214566702248999,0.0002285154090701875,-0.002707405438366716,0.1935308277606964,-21.84811782836914,-2.4095618724823,22.54065704345703,0.6801248788833618,2.2551772594451904,-0.0072769103571772575,,,,,,,,,
1739401770.270015,0.5255009133489366,0.09600433163041032,-0.9531681212446822,-2.0690817775132833,0.13772842368000382,2.137597889104114,-1.2753596874871556,0.0009354183931281696,-0.0009442510278910643,0.00017862403851555056,-0.0013114908927249786,0.0016738825794692714,-0.000350851400945785,0.0004003813544283153,0.1697271168231964,-21.84811782836914,-2.38179087638855,22.66364288330078,0.6801248788833618,2.2679946422576904,-0.05396880581974983,,,,,,,,,
1739401770.2800424,0.5254991890524948,0.09600261921793835,-0.9531711362402934,-2.069078212579158,0.1377269582045949,2.137599404497376,-1.2753580928841992,0.0003913679577404052,-0.0004603081355308409,-0.00020869144645174146,-0.0004057255466305753,0.0019028104832182402,0.0003245118302557328,-9.688122056332455e-05,0.1935308277606964,-21.82431411743164,-2.35798716545105,22.61603546142578,0.6544901132583618,2.2551772594451904,-0.04023589566349983,,,,,,,,,
1739401770.2909577,0.5254978702617994,0.09600433163041093,-0.9531721916845812,-2.0690746472251225,0.1377245628251896,2.1375997064754277,-1.2753628263464338,-0.00027949642671368675,0.001412380928141999,-0.0004557648297292819,0.0003812677028873047,-0.00039675504313348777,0.0004957769141573757,-0.0012749149258574233,0.2411382496356964,-21.84811782836914,-2.3302161693573,22.56842803955078,0.6737161874771118,2.2615859508514404,-0.027418512850999832,,,,,,,,,
1739401770.3010175,0.5254975143435201,0.09600463854527358,-0.95316908374889,-2.069072567435267,0.1377288654089546,2.1375978891951646,-1.275364449922021,0.0003276166320997124,0.0015843964162216338,-8.909402247135129e-05,0.0008221976255428046,0.00013458695433682855,-0.0002210878570005675,-0.0007382566877347769,0.2173345386981964,-21.84811782836914,-2.38179087638855,22.54065704345703,0.6737161874771118,2.2679946422576904,-0.013685601763427258,,,,,,,,,
1739401770.3120158,0.5254972353899436,0.095998806344873,-0.9531683552522292,-2.069074774354242,0.13772752856970816,2.1375986422586153,-1.2753560793821115,-0.0004322452533144605,-0.0008718563449821293,0.00035139913551830325,0.000516914224718382,0.00024349572498642103,-0.0003322763783020587,0.0007575196167274107,0.2173345386981964,-21.77273941040039,-2.38179087638855,22.56842803955078,0.6801248788833618,2.2615859508514404,-0.06678618490695953,,,,,,,,,
1739401770.3230157,0.5254991892711185,0.09599890864751737,-0.953170137925136,-2.06907464722584,0.13772456089533747,2.1375986468372723,-1.2753603273978278,-0.0002875089084221885,-0.0001486703928696166,4.8796034396227225e-05,0.00018371800367015726,0.0011398482596810839,-2.9100264513866976e-05,-0.0002709100820173279,0.1935308277606964,-21.77273941040039,-2.35798716545105,22.56842803955078,0.6737161874771118,2.2615859508514404,-0.04756011441349983,,,,,,,,,
1739401770.3340502,0.525499190235458,0.09600262008401203,-0.9531702188697153,-2.0690723378470057,0.1377280682577001,2.137598646837298,-1.2753644101909831,0.0006504863860281928,0.00025043478213791006,-5.093149047666204e-06,0.00017589802871790744,-0.0007420170941718088,-0.00010781691500748929,-0.0003945927130566863,0.1935308277606964,-21.82431411743164,-2.35798716545105,22.54065704345703,0.6801248788833618,2.2615859508514404,-0.013685601763427258,,,,,,,,,
1739401770.3450146,0.5255009017932284,0.09600431896409913,-0.9531674067874687,-2.069079995147313,0.13772607675423826,2.1375994044973763,-1.2753580723078421,0.0008108724226360725,0.0004994496223026073,0.001089998588425396,-0.0012578661566513799,-0.0008960368181974044,0.00031193597497492306,0.0019623767047597714,0.1697271168231964,-21.84811782836914,-2.4333655834198,22.63983917236328,0.6608988046646118,2.2551772594451904,-0.06678618490695953,,,,,,,,,
1739401770.3559499,0.5255009017810992,0.0959999121792292,-0.953168365616875,-2.0690746471201433,0.13772714689740959,2.1376001621574545,-1.2753581329213723,0.0013865310859031796,-0.0007995791846494144,0.0008276181992256642,-0.0005210649864682048,0.0008135132988497573,0.0009398917520809132,0.001281719475003346,0.1697271168231964,-21.79654312133789,-2.38179087638855,22.56842803955078,0.6608988046646118,2.2487685680389404,-0.06678618490695953,,,,,,,,,
1739401770.365957,0.5254991892724808,0.09600094268667603,-0.9531673290703891,-2.0690746387218515,0.1377261158662551,2.1375994044973763,-1.275362068542352,0.0007469029343080756,0.00043674255108543147,0.0010218703809823336,-0.00022669184700763672,-0.0004522398229791616,0.00010566473227602199,0.0011750255177475398,0.1935308277606964,-21.79654312133789,-2.4095618724823,22.56842803955078,0.6608988046646118,2.2551772594451904,-0.03382720425724983,,,,,,,,,
1739401770.3760667,0.5254991879642857,0.09600604404832723,-0.953169427265925,-2.0690746387217094,0.1377253186975729,2.1375953089771906,-1.2753644499220185,0.00032489358450572494,0.0011920662088039605,0.0002222845824163867,-6.18790415224628e-05,-0.0002863218548962036,-0.0006141874432730591,-9.04891412821827e-05,0.1935308277606964,-21.87192153930664,-2.35798716545105,22.56842803955078,0.6673074960708618,2.2615859508514404,-0.013685601763427258,,,,,,,,,
1739401770.3860686,0.5254974767517276,0.09600804328284415,-0.95317056772125,-2.069076122524572,0.13772533169810325,2.1375978891206926,-1.275358929827055,-0.0004891763811742803,0.0012533030824942927,-0.0010561620937862672,0.0002479366422203355,-0.0012470265586810275,2.2386072932470154e-05,0.0005939242209254339,0.2173345386981964,-21.89969253540039,-2.38179087638855,22.59223175048828,0.6673074960708618,2.2679946422576904,-0.06037749722599983,,,,,,,,,
1739401770.3969955,0.5254972397241375,0.09600220076436632,-0.9531694389253121,-2.069076200312145,0.1377260768445987,2.1375986468372976,-1.2753589292362135,-0.0006050317327415624,-0.0003485640495277664,6.437916038905191e-05,0.0006463558413098672,-0.00022257412210606594,4.863167568292256e-05,-5.832439501673439e-06,0.2173345386981964,-21.84811782836914,-2.35798716545105,22.59223175048828,0.6608988046646118,2.2615859508514404,-0.06037749722599983,,,,,,,,,
1739401770.408004,0.5254957289084096,0.09600356614922843,-0.953168031890408,-2.069074681236902,0.13772380321423305,2.1375978891772194,-1.2753589298270513,-0.0012702613471660966,0.00025152838492612005,0.001197070785664251,0.0007635722449941338,-0.0015998499383708866,-0.00013548661073988966,0.0005734351927906012,0.2411382496356964,-21.82431411743164,-2.35798716545105,22.56842803955078,0.6801248788833618,2.2679946422576904,-0.06037749722599983,,,,,,,,,
1739401770.4190626,0.525499215593654,0.09600263080702,-0.9531683552005624,-2.0690764299023336,0.1377238032142294,2.1375978713470034,-1.2753644324794184,-0.0002187545071976354,-0.0005795697057439373,0.0002799045553849984,-0.0003351777300985869,6.362730864878418e-05,-0.0004360719236445325,-0.00099686103960044,0.1935308277606964,-21.82431411743164,-2.38179087638855,22.59223175048828,0.6801248788833618,2.2679946422576904,-0.013685601763427258,,,,,,,,,
1739401770.4300132,0.525499189379627,0.09600646736819156,-0.9531705960290628,-2.0690746472251225,0.13772683390871443,2.137597023279887,-1.2753604449856075,0.0007650640165518792,0.0005312333735911086,-6.0587993967516144e-05,0.0001798307415207938,-0.00044229200393930206,8.335907517194102e-05,-0.0005827704145629378,0.1935308277606964,-21.84811782836914,-2.38179087638855,22.56842803955078,0.6544901132583618,2.2753188610076904,-0.04756011441349983,,,,,,,,,
1739401770.4419463,0.5254991892724816,0.09599890866015118,-0.9531701393812414,-2.0690725646008437,0.1377276163490513,2.1375986599192505,-1.2753612717985863,0.0007735195684591763,-0.0014651049229549731,-0.0011241143910815468,0.0005453992984193001,0.0003873344944052194,0.00012101776259911416,0.0005894422620848247,0.1935308277606964,-21.77273941040039,-2.35798716545105,22.54065704345703,0.6608988046646118,2.2615859508514404,-0.04023589566349983,,,,,,,,,
1739401770.4519918,0.5254991921970779,0.09600275203487686,-0.9531701414944176,-2.069076429482211,0.1377295850491858,2.1375978891772935,-1.275362988116258,0.00023651278885686338,0.00037596926293770566,-0.0009432522877231392,-0.00044669566640053175,0.0012587578878973133,0.000549813579673957,-0.0012366478602361046,0.1935308277606964,-21.79654312133789,-2.35798716545105,22.59223175048828,0.6673074960708618,2.2679946422576904,-0.027418512850999832,,,,,,,,,
1739401770.4620216,0.5254982827635801,0.09599890868418127,-0.9531701379251964,-2.069072580930763,0.13772305001430965,2.1375994044973767,-1.2753585766170843,0.0016545467704344604,-0.0007797869292583722,1.8463454580665132e-05,0.0007311799399570967,-0.0013137752221973234,0.00010646453564130262,0.0014284694583150074,0.2173345386981964,-21.77273941040039,-2.35798716545105,22.56842803955078,0.6865335702896118,2.2551772594451904,-0.06037749722599983,,,,,,,,,
1739401770.4720483,0.5254953310254875,0.096000629937824,-0.953170139257557,-2.0690725808257917,0.13772530736195926,2.1375986468372985,-1.275361311026499,-0.0002687404077402595,-2.0837228822777184e-05,-0.0003376315809031745,0.0003910533415590831,-0.0008407268763138811,-0.00017172268975496925,-0.0001388352599953455,0.2173345386981964,-21.79654312133789,-2.35798716545105,22.56842803955078,0.6673074960708618,2.2615859508514404,-0.04023589566349983,,,,,,,,,
1739401770.4829957,0.525498256759113,0.09599890863608257,-0.9531702188697178,-2.069074570376878,0.13772531902191001,2.137598642258615,-1.2753628263466554,0.0007397067485952503,-0.00093890436998449,-0.0008313620040607059,-0.00047731696892733456,-0.00024668734008579524,-1.7417602774015014e-05,-0.0006649014487942351,0.2173345386981964,-21.77273941040039,-2.35798716545105,22.56842803955078,0.6673074960708618,2.2615859508514404,-0.027418512850999832,,,,,,,,,
1739401770.4940178,0.5254979049421835,0.09600261910967893,-0.9531701379265067,-2.0690718758347586,0.13772461352917365,2.137598646837221,-1.275359687002616,-0.00018029316291111785,0.00048785910729588305,-0.00018707155962521138,-0.0001628967622822967,-0.0004128004807119512,-0.0005847043223577438,0.0004769616857350085,0.2411382496356964,-21.82431411743164,-2.35798716545105,22.54065704345703,0.6737161874771118,2.2615859508514404,-0.05396880581974983,,,,,,,,,
1739401770.5049956,0.5254948365729989,0.09600261910967912,-0.9531662755692963,-2.069073728765797,0.13772863579051783,2.13759852321285,-1.2753596874871322,-0.0007831171245352346,0.0006320359142948139,0.0011543007172637365,0.000514242025685874,0.0008391387545586335,-0.0015169513970114583,0.0005647374156268555,0.2411382496356964,-21.82431411743164,-2.4095618724823,22.56842803955078,0.6673074960708618,2.2615859508514404,-0.05396880581974983,,,,,,,,,
1739401770.5150185,0.525497467905722,0.09600603538214542,-0.9531682772469787,-2.0690764298865876,0.13773005170757788,2.137600162155361,-1.2753645694316915,-0.00011254150041540033,-0.0001609762953774386,-0.0005896237640290215,-0.0013118936445674157,0.0020333064338871228,0.00012344890455502183,-0.0009703790053423436,0.2173345386981964,-21.87192153930664,-2.38179087638855,22.59223175048828,0.6544901132583618,2.2487685680389404,-0.04023589566349983,,,,,,,,,
1739401770.526064,0.5255005750714057,0.09600261910962964,-0.9531683552476765,-2.0690746471201433,0.13772748029662096,2.137598646837298,-1.2753589318871483,0.0004055574685497774,0.00011887458835957006,0.00033523870352079367,-0.0001029335237852311,-0.0001957158723248441,-0.0001730319572788464,-0.0003146147066251395,0.1697271168231964,-21.82431411743164,-2.38179087638855,22.56842803955078,0.6801248788833618,2.2615859508514404,-0.06037749722599983,,,,,,,,,
1739401770.5360806,0.5254991598325555,0.09600801567674708,-0.9531683655743801,-2.06907671068505,0.13772379015366779,2.137598646837298,-1.2753623554143556,-0.00037875916212707115,0.0011818682455113094,-0.0005463275678462828,-0.0004408333015021756,-0.0014894020632976628,-5.985918057740145e-05,-0.0003608972699624263,0.1935308277606964,-21.89969253540039,-2.38179087638855,22.56842803955078,0.6801248788833618,2.2615859508514404,-0.027418512850999832,,,,,,,,,
1739401770.5470347,0.5254991892723148,0.09600875238052903,-0.9531702548821539,-2.069078209756386,0.13772608123235547,2.1375993983924655,-1.2753538926440993,0.0009769948177895129,0.002052191706380502,-0.0005047494294738993,-0.0007540962609382876,-0.000830522767380086,6.97112064186919e-05,0.002435456801651226,0.1935308277606964,-21.89969253540039,-2.35798716545105,22.61603546142578,0.6608988046646118,2.2551772594451904,-0.08051909506320953,,,,,,,,,
1739401770.5589824,0.5255011367596094,0.09600607908678988,-0.9531722177156517,-2.0690705523355475,0.1377292749770958,2.137598646837264,-1.2753603720723308,0.001694678744123576,0.00045192395032529563,-0.00030344282382973784,0.0017865540862172164,0.00021974936031839956,-0.00024217341913127557,0.000667204512898292,0.1697271168231964,-21.87192153930664,-2.3302161693573,22.51685333251953,0.6608988046646118,2.2615859508514404,-0.04023589566349983,,,,,,,,,
1739401770.5690105,0.5254957642349977,0.09600433163100196,-0.9531704167342425,-2.0690764295832698,0.13772607495305847,2.137598646837298,-1.2753636878852805,-0.0003451780358890114,0.0016527299216309314,-0.0010121360471638178,-0.0002875651806980477,-0.0006082801004092829,-0.00025308237976949576,-0.0012405677937228877,0.2411382496356964,-21.84811782836914,-2.35798716545105,22.59223175048828,0.6608988046646118,2.2615859508514404,-0.020094294100999832,,,,,,,,,
1739401770.580942,0.5254991627815278,0.09600339367260594,-0.953170086906047,-2.069076429902141,0.13772533169809814,2.137600279895025,-1.2753589303236763,-8.362317319314863e-05,0.00043210897587439616,0.0004244364755214019,0.0014154972358477983,-0.0003033000007314219,0.0006000995223696653,0.0013030577700309785,0.1935308277606964,-21.84811782836914,-2.35798716545105,22.59223175048828,0.6673074960708618,2.2487685680389404,-0.06037749722599983,,,,,,,,,
1739401770.5909684,0.5254991892723314,0.09600220075906479,-0.9531705690654181,-2.0690775238143764,0.1377263828512046,2.1375986467814356,-1.2753565486101088,0.00041971251617952326,-0.0007899028479243567,-0.001016379976459936,-0.0010993812390255936,0.0006645394916359323,0.0002192042523059329,0.0012107531064603444,0.1935308277606964,-21.84811782836914,-2.38179087638855,22.61603546142578,0.6673074960708618,2.2615859508514404,-0.08051909506320953,,,,,,,,,
1739401770.6010647,0.5254991863290418,0.09600261907359264,-0.9531659904727187,-2.0690728735412844,0.13772700640276142,2.1376019794556615,-1.2753644519085399,-0.000576095108302919,-0.0007683378221866437,0.0007103450839134181,-8.191959863174353e-05,0.0008914620562738831,0.0013343948408794742,-0.0016561412634429641,0.1935308277606964,-21.82431411743164,-2.4095618724823,22.54065704345703,0.6801248788833618,2.2423598766326904,-0.013685601763427258,,,,,,,,,
1739401770.6120155,0.5255012953032464,0.09600085793172039,-0.9531729462145967,-2.0690738429273354,0.13772583697529514,2.137601821178985,-1.275365965188354,0.0009606541078453215,-0.00033752794063008826,-0.0002903745029679024,0.0008530527025123653,0.0022113275795488385,0.0003365801342268534,-0.0008631381654169361,0.1935308277606964,-21.79654312133789,-2.3302161693573,22.54065704345703,0.6673074960708618,2.2615859508514404,-0.0008682189509272575,,,,,,,,,
1739401770.6220818,0.5254998903372611,0.09600422640646679,-0.953170138936789,-2.069073958481939,0.13772850566557046,2.137599404551134,-1.2753608071902383,0.0010983702298792222,0.00041769311642187476,-0.00048476822917710097,-0.0003243131069749523,-0.0008161456383430846,1.815889574593657e-05,-0.00023307135572226027,0.1935308277606964,-21.84811782836914,-2.35798716545105,22.56842803955078,0.6673074960708618,2.2551772594451904,-0.04756011441349983,,,,,,,,,
1739401770.6340885,0.5254977078156883,0.09600054224726724,-0.953169435914881,-2.06907078475436,0.13772357212071912,2.1375986453110705,-1.275364449924065,0.00044363108157978323,-0.000732976562247961,-0.0004298504131778011,0.0011111643192171941,-0.00023315957048691653,-0.0002837331104233951,-0.0007515836091262244,0.2173345386981964,-21.79654312133789,-2.35798716545105,22.51685333251953,0.6865335702896118,2.2615859508514404,-0.013685601763427258,,,,,,,,,
1739401770.645016,0.5254957642323229,0.09600059486139227,-0.9531663563988778,-2.0690761748040734,0.13772304555712353,2.1375986468372896,-1.2753624992411443,-0.0010463683618617383,-0.00067768293687494,0.0013967435000286142,-0.0011759776207136419,3.107662551633231e-05,-0.000726070227865529,-0.0014642033499558957,0.2411382496356964,-21.79654312133789,-2.4095618724823,22.59223175048828,0.6865335702896118,2.2615859508514404,-0.06678618490695953,,,,,,,,,
1739401770.6560068,0.5254974768587473,0.0960011898715256,-0.9531662754584136,-2.0690757411368774,0.13772609136253042,2.1375994044973763,-1.2753659654158633,-0.00014495435297193877,9.497389352938963e-06,0.001471425694638267,-0.0003333754574950303,-0.0005755598161742441,-7.131307920332796e-05,-0.0016149141947754777,0.2173345386981964,-21.82431411743164,-2.4095618724823,22.59223175048828,0.6608988046646118,2.2551772594451904,-0.0008682189509272575,,,,,,,,,
1739401770.6660535,0.5254939304683688,0.09600059191463482,-0.953174003389958,-2.0690764043806706,0.13772775965716755,2.137598646837298,-1.2753589298270578,-0.0003088847035787398,0.00037388295357468283,-0.0013457596252228583,-2.2278180138234007e-05,-0.0005747797381643754,-0.0005368296711208832,0.0009076564662967416,0.2411382496356964,-21.79654312133789,-2.3064124584198,22.59223175048828,0.6737161874771118,2.2615859508514404,-0.06037749722599983,,,,,,,,,
1739401770.6770804,0.5255009017828605,0.09600048781042643,-0.9531704896843124,-2.069076428922197,0.13772380469492154,2.1375994044973763,-1.2753567237488836,0.002234105624933021,-0.0009437037934729682,-0.00036650211726483586,-0.0005493337386039683,-0.0010587776217299495,3.2901898090613286e-05,0.00022489717220859292,0.1697271168231964,-21.82431411743164,-2.35798716545105,22.59223175048828,0.6801248788833618,2.2551772594451904,-0.04023589566349983,,,,,,,,,
1739401770.6879911,0.5254984710733044,0.09600159312510495,-0.9531722207149246,-2.069078212579155,0.13772683407123776,2.1376018242254586,-1.2753551132082852,-0.00023354593493151262,-0.0015449722919497256,-0.0006566294733994874,-0.0007203137854689515,-0.00030188076003439754,0.0004304696010595494,0.003272679608117209,0.1935308277606964,-21.82431411743164,-2.3302161693573,22.61603546142578,0.6544901132583618,2.2615859508514404,-0.06678618490695953,,,,,,,,,
1739401770.6990132,0.5255009017810494,0.09600061822845223,-0.9531704976788726,-2.069076429902142,0.13772887322482685,2.1375980071301046,-1.2753581714695907,0.0008922931139418737,-0.001682658941377801,-0.0006790819771008179,-0.00022379525294074774,-0.00011698205351054234,0.0006993739053756326,0.001355374931094189,0.1697271168231964,-21.79654312133789,-2.35798716545105,22.59223175048828,0.6673074960708618,2.2679946422576904,-0.06678618490695953,,,,,,,,,
1739401770.7099667,0.5254984128724282,0.09600600939992923,-0.9531761952232766,-2.069076353372721,0.1377291818503585,2.137598764736596,-1.2753645694316902,-0.0001856557164519151,0.0006055096581222318,-0.0014873819504005502,-0.0007132720182340956,7.10769307778626e-05,0.00046831351835097633,0.0002443295170983659,0.2173345386981964,-21.87192153930664,-2.3064124584198,22.59223175048828,0.6737161874771118,2.2615859508514404,-0.04023589566349983,,,,,,,,,
1739401770.7210093,0.525497475448839,0.09600434039921024,-0.9531722177273815,-2.0690764554115164,0.13772425561097312,2.1375986468379637,-1.275361602242303,0.0007972087382198763,-0.00015827893237487778,-0.0007874992312788553,-0.0006343265025103908,-0.0014952864048154756,-0.0005469152678862219,0.001334214553453187,0.2173345386981964,-21.84811782836914,-2.3302161693573,22.59223175048828,0.6673074960708618,2.2615859508514404,-0.03382720425724983,,,,,,,,,
1739401770.7310312,0.5254974767517276,0.09600264541681591,-0.9531701649066626,-2.0690782125795923,0.13772531851638536,2.1375986468372985,-1.2753549539992726,-0.00048480022966520517,-0.0007605479329035321,0.000752268770319777,-0.0007171451617892995,0.0002885572273610766,3.089063262500319e-05,0.0023682032795918446,0.2173345386981964,-21.82431411743164,-2.35798716545105,22.61603546142578,0.6673074960708618,2.2615859508514404,-0.06678618490695953,,,,,,,,,
1739401770.7420676,0.5254995827825318,0.09600190741377432,-0.9531664142906314,-2.069074647645037,0.13772736105317923,2.1375986468372985,-1.2753620687415366,0.0008839710688803555,-0.0014854729849836947,0.0009125029362409753,0.0004221190702870289,0.0011552391562307893,-0.00012872597667884988,-0.0008525454154902354,0.2173345386981964,-21.82431411743164,-2.4095618724823,22.56842803955078,0.6544901132583618,2.2615859508514404,-0.03382720425724983,0,0,0,0.000,0,0
1739401770.7530475,0.5254970435171576,0.09600261910566159,-0.9531744032194169,-2.069078496196496,0.13772531875404878,2.137599353913828,-1.2753617682163605,0.000276255586595529,-0.0009643706097706326,-0.00186013074328613,-0.0005937568169303742,-0.0003262979140382813,0.0006379367938013591,0.00047413947622614326,0.1935308277606964,-21.82431411743164,-2.3302161693573,22.59223175048828,0.6673074960708618,2.2551772594451904,-0.027418512850999832,0,0,0,0.000,0,0
1739401770.7650206,0.5254957376916137,0.09600454208631654,-0.9531681212940455,-2.0690764299487987,0.1377242946595688,2.1376028853895304,-1.2753592695631522,-0.0008715226418298126,0.00021106257807257216,-0.00012335382981357022,6.111861591607227e-05,-0.00021333679374152016,0.0011022013698007104,0.00150177884810393,0.2411382496356964,-21.84811782836914,-2.38179087638855,22.59223175048828,0.6801248788833618,2.2615859508514404,-0.09425200521945953,0,0,0,0.000,0,0
1739401770.77602,0.5254974754435046,0.09600061987011155,-0.9531701499164853,-2.0690746217153158,0.13772538039062623,2.137598646845274,-1.2753592539440237,-0.0005777196827164066,-0.00018718273069407657,-0.0005907499313067727,-0.0007857299073967322,-0.000518700943255011,0.0003877473570752934,0.0006715336703477425,0.2173345386981964,-21.79654312133789,-2.35798716545105,22.56842803955078,0.6938577890396118,2.2615859508514404,-0.06678618490695953,0,0,0,0.000,0,0
1739401770.7860205,0.5254974754435324,0.0960026178105466,-0.9531705407519617,-2.0690761152807586,0.13772808163813408,2.13759788917722,-1.275358943254376,-0.00016110783416987384,-0.0009717543819808874,0.0004786571605425734,6.296338629655781e-05,-0.00023762171760784688,-0.00076838670714827,0.00018962200974672987,0.2173345386981964,-21.82431411743164,-2.38179087638855,22.59223175048828,0.6801248788833618,2.2679946422576904,-0.06037749722599983,0,0,0,0.000,0,0
1739401770.797937,0.5254975807532625,0.09600062116881873,-0.9531683552604541,-2.0690723378452294,0.13772380470101614,2.1375986468372985,-1.2753616864965482,-0.0002966943583417648,-0.0006626732852463602,0.0004835026476946365,0.000857771253822468,-0.0006184650761928281,-0.000530257849213615,-0.0005517003699221654,0.2173345386981964,-21.79654312133789,-2.38179087638855,22.54065704345703,0.6801248788833618,2.2615859508514404,-0.04023589566349983,0,0,0,0.000,0,0
1739401770.8080146,0.5254991863296289,0.09600062116882606,-0.9531722173939993,-2.0690725674339707,0.13772380321423777,2.1375994568251855,-1.2753610130536626,0.0007580570539644971,-1.6887782908034446e-05,-0.001536894483905996,-0.00023854433369075072,-7.495752549713719e-05,0.0006467790868677199,-0.0007961397975664055,0.1935308277606964,-21.79654312133789,-2.3302161693573,22.54065704345703,0.6801248788833618,2.2551772594451904,-0.03382720425724983,0,0,0,0.000,0,0
1739401770.8180225,0.525497479640631,0.09600612307210635,-0.9531722983385731,-2.069069001136421,0.13772927497706736,2.1375978845994226,-1.2753653270738923,-0.00013277553778947817,0.0013066364715835367,-0.0009347936583719515,0.0016958024785832504,0.0018473700416215904,-0.000614233587037893,3.899400402251733e-05,0.2173345386981964,-21.87192153930664,-2.3302161693573,22.49304962158203,0.6608988046646118,2.2679946422576904,-0.03382720425724983,0,0,0,0.000,0,0
1739401770.8280392,0.5254991892725299,0.09600433163174685,-0.953170542085545,-2.069071662577709,0.1377268389466792,2.137597889177142,-1.275365965462902,-1.2544006543743812e-06,0.0007175412176068226,-0.0003701561194925764,0.0009307769956755423,0.00031732416639636523,0.0005720841431717495,-0.0022520156054314975,0.1935308277606964,-21.84811782836914,-2.38179087638855,22.56842803955078,0.6544901132583618,2.2679946422576904,-0.0008682189509272575,0,0,0,0.000,0,0
1739401770.8380578,0.5254972380061219,0.09600358626574239,-0.9531740015393957,-2.069076353217197,0.13772496894954084,2.137598646837298,-1.2753573062701882,-0.00032966007813040515,-0.0006409735447386319,-0.0009604397149730519,-0.0008203924389102236,0.0002723419129290229,-0.000462866692582618,0.0013073219984675553,0.2173345386981964,-21.84811782836914,-2.3064124584198,22.59223175048828,0.6737161874771118,2.2615859508514404,-0.07411040365695953,0,0,0,0.000,0,0
1739401770.8489761,0.5254974777133791,0.09600441054716755,-0.953170165017704,-2.0690781105395004,0.13772456087661133,2.1376001621574545,-1.275365965242178,-0.0008073986404958673,-0.0006301298278518683,8.08986806984582e-05,-0.00020314347937337322,-0.0014021618653953887,0.00036432304008870395,4.1577833125301276e-05,0.2173345386981964,-21.84811782836914,-2.35798716545105,22.61603546142578,0.6737161874771118,2.2487685680389404,-0.0008682189509272575,0,0,0,0.000,0,0
1739401770.8590014,0.5255012137977887,0.0960043053247585,-0.9531701380366299,-2.069078211632625,0.13772886589646657,2.137598628522565,-1.2753605658282208,0.0016000350250159065,-0.00011352281597323244,-0.001281820702397564,-0.0005587045451086159,0.0015193646093038516,-0.0004553642236616583,0.0013402537720024676,0.1697271168231964,-21.84811782836914,-2.35798716545105,22.61603546142578,0.6737161874771118,2.2615859508514404,-0.04756011441349983,0,0,0,0.000,0,0
1739401770.8700216,0.5254957645537722,0.09600509746027895,-0.953168031787357,-2.0690745706607037,0.13772777284492704,2.1375978886683735,-1.2753595697502444,-0.0012122402524219352,-0.00043036120738654986,-0.00045602315380723687,0.0008224640597085589,-0.0004521746040207574,-0.00027209751291665187,0.0016408264344914402,0.2411382496356964,-21.87192153930664,-2.35798716545105,22.56842803955078,0.6737161874771118,2.2679946422576904,-0.05396880581974983,0,0,0,0.000,0,0
1739401770.8809862,0.5255016038034747,0.09600805085564657,-0.9531655734731231,-2.0690763987230567,0.13772958359598833,2.137597889338722,-1.2753636922611682,0.0004108310131771691,0.001082899155334271,0.0009560204381212423,0.0002571135334357387,0.0011660951110625043,-0.0003211145685276432,0.00013850144476578786,0.1697271168231964,-21.89969253540039,-2.4095618724823,22.59223175048828,0.6673074960708618,2.2679946422576904,-0.020094294100999832,0,0,0,0.000,0,0
1739401770.8910625,0.5255013213155317,0.09600243635116583,-0.9531701379132478,-2.0690743636072617,0.13772685876120186,2.1375994044973794,-1.275358929992598,0.000514425217792902,-0.0007222133765464378,-0.000977521748575356,-0.00017469817217982838,0.0013313519775890758,-0.00025838514439379225,-0.0011744679395380032,0.1935308277606964,-21.79654312133789,-2.35798716545105,22.59223175048828,0.6673074960708618,2.2551772594451904,-0.06037749722599983,0,0,0,0.000,0,0
1739401770.9019809,0.5254984912229123,0.09600467365199823,-0.9531683523591856,-2.069078212544168,0.137726398147567,2.1375994044973767,-1.2753664479662175,0.0008900309408912012,0.0012308216783449783,-0.0010025564706139223,-0.001118705094932543,0.0004724515093255833,0.00021403998041592175,-0.0013054816410408517,0.1935308277606964,-21.84811782836914,-2.38179087638855,22.61603546142578,0.6673074960708618,2.2551772594451904,-0.0008682189509272575,0,0,0,0.000,0,0
1739401770.9119937,0.5255006633706925,0.09600238332304824,-0.9531701379251196,-2.0690763193596453,0.1377268338606372,2.1375986468372985,-1.2753644499247463,0.0002029197102125155,-0.0006653838081717282,-0.00014552449729379876,0.0004860480785655551,-0.0005392335546801749,6.867402717881353e-05,-0.0007309870588557916,0.1697271168231964,-21.82431411743164,-2.35798716545105,22.59223175048828,0.6544901132583618,2.2615859508514404,-0.013685601763427258,0,0,0,0.000,0,0
1739401770.922962,0.5254975547515439,0.09600275203354576,-0.9531717585384688,-2.0690739272810617,0.1377245623369427,2.1375986468372985,-1.275362592661671,1.7250628514241966e-05,-0.0008917841450891448,-0.0009688965830584849,0.0012480478208431926,-0.0009050089674716076,-0.00023537574394258927,0.0002519875609246746,0.2173345386981964,-21.79654312133789,-2.3302161693573,22.56842803955078,0.6737161874771118,2.2615859508514404,-0.05396880581974983,0,0,0,0.000,0,0
1739401770.9329758,0.5254950489766022,0.09600175079863384,-0.9531676532300799,-2.0690744176246687,0.13772309820903347,2.1375987645748684,-1.2753659654569205,-0.0007013071611419491,-0.0005241490180232276,0.0009590991403190165,-0.00032219951666885663,-0.0005623823170052023,-0.00017346851859081442,-0.0014514016741341538,0.2411382496356964,-21.82431411743164,-2.38179087638855,22.56842803955078,0.6865335702896118,2.2615859508514404,-0.0008682189509272575,0,0,0,0.000,0,0
1739401770.944095,0.5254981758064583,0.09600474996102493,-0.953168277235088,-2.069074610373735,0.13772650326957517,2.1375994044993702,-1.2753596874871367,0.000531844898127383,0.0007163142572186211,0.001235048366864164,0.00022465805880136965,0.0009975045712739515,-0.000509323777599841,0.00013572266439375704,0.2173345386981964,-21.82431411743164,-2.38179087638855,22.56842803955078,0.6673074960708618,2.2551772594451904,-0.05396880581974983,0,0,0,0.000,0,0
1739401770.9550118,0.5254982355994801,0.0960026278947136,-0.9531702318606738,-2.069071637067849,0.13772607673841034,2.1375986055726215,-1.2753604451472116,-6.0838117350707076e-05,-4.217067101748768e-05,-0.00045663768079827954,0.0007443344925698908,-0.0012843698901241225,-0.00010644181948915967,0.00015534999165777374,0.1935308277606964,-21.82431411743164,-2.35798716545105,22.56842803955078,0.6608988046646118,2.2615859508514404,-0.04756011441349983,0,0,0,0.000,0,0
1739401770.9660106,0.5255009264800135,0.0960022008004956,-0.9531701350367352,-2.069071866604194,0.13772607619446747,2.1375983601272663,-1.275358929827055,0.0015077585792150807,0.0002946122649331543,-3.844285764950688e-05,0.00048646467643392513,-0.0005068825791982879,-0.0002700802988928449,0.0007204951988900828,0.1697271168231964,-21.84811782836914,-2.35798716545105,22.56842803955078,0.6608988046646118,2.2679946422576904,-0.06037749722599983,0,0,0,0.000,0,0
1739401770.977005,0.5254991863291811,0.09600493667911217,-0.9531682512835922,-2.0690746472094257,0.1377259825554646,2.137598646839957,-1.2753590907350671,0.0006272567347586253,0.00029042035369654775,0.00174219506711858,-0.000729514987937718,0.0004293454418884693,-0.000988233346793642,0.0002630277332088004,0.1935308277606964,-21.84811782836914,-2.38179087638855,22.56842803955078,0.6737161874771118,2.2615859508514404,-0.06037749722599983,0,0,0,0.000,0,0
1739401770.9870534,0.5254964662412294,0.09600261911992568,-0.9531701379233753,-2.0690745438211726,0.13772548968674975,2.1375986482908487,-1.2753677083119939,-0.00021766025472524914,3.0079661055648055e-05,-0.0005540270779366467,0.0006381906240048716,-0.0007061387503701428,-0.0003092969703702712,-0.0021604482438818146,0.2411382496356964,-21.82431411743164,-2.35798716545105,22.56842803955078,0.6673074960708618,2.2615859508514404,-0.013685601763427258,0,0,0,0.000,0,0
1739401770.9979343,0.5254973707998255,0.0960026288530083,-0.9531723234287777,-2.0690707838116893,0.13772380386718783,2.1375989488153735,-1.2753636923170142,-0.00026174975545096744,0.00033926207698409727,-0.0005349602691413157,0.001974287133142446,-0.00016808633147857063,0.0001446838577316812,-0.0022576168824937426,0.2173345386981964,-21.82431411743164,-2.35798716545105,22.51685333251953,0.6801248788833618,2.2679946422576904,-0.020094294100999832,0,0,0,0.000,0,0
1739401771.0079381,0.5254991892718829,0.09600262008406703,-0.9531662754705985,-2.0690746443906938,0.13772643183144395,2.1375978908520925,-1.275361432222083,0.0008752390591704205,-0.00033917257799359493,0.0009319143739231006,0.00015622957513393426,-0.00014406431978366099,-0.0002700609003207575,-0.0010917640873460434,0.1935308277606964,-21.82431411743164,-2.4095618724823,22.56842803955078,0.6608988046646118,2.2679946422576904,-0.04023589566349983,0,0,0,0.000,0,0
1739401771.0180166,0.5254972383331706,0.09600441055139167,-0.9531683562474329,-2.069075916696499,0.13772309821503143,2.137597889177248,-1.2753623971755785,-0.0004976533625438461,0.00022028075893216608,-0.00017667089261498158,-9.9897631614214e-05,-0.00048968147863446,-0.0007255098403091246,-0.00027636147085877133,0.2173345386981964,-21.84811782836914,-2.38179087638855,22.61603546142578,0.6865335702896118,2.2679946422576904,-0.04023589566349983,0,0,0,0.000,0,0
1739401771.0280354,0.5254957671159121,0.09600604512681093,-0.9531683562474496,-2.069078209600878,0.13772461353005722,2.1375995222349466,-1.2753596875055269,-0.00012460358664214517,0.0008005261612142773,-0.00021749554712387225,-0.0008917230392071468,-0.00024224500006780905,0.0003236441935510479,-0.0002716178278566077,0.2411382496356964,-21.87192153930664,-2.38179087638855,22.61603546142578,0.6737161874771118,2.2551772594451904,-0.05396880581974983,0,0,0,0.000,0,0
1739401771.0389454,0.525499189163481,0.09600263372467813,-0.9531701382582469,-2.069076404392318,0.13772812578830465,2.1375994046595466,-1.2753640320034634,-0.0003548762297114447,-0.0010548179081155554,-0.0001542982795761582,0.0011436345877658192,0.0008140956093398485,-5.2564030154958046e-05,-0.00042518986421932997,0.1935308277606964,-21.82431411743164,-2.35798716545105,22.59223175048828,0.6801248788833618,2.2551772594451904,-0.05396880581974983,0,0,0,0.000,0,0
1739401771.0490165,0.5254977223108926,0.09600270983114549,-0.9531655472070797,-2.069072556097143,0.13772533615920846,2.137598646837301,-1.2753616731610462,-0.0002799002247243403,0.0004089682869839173,0.0007745093367283078,0.0005079620508886109,-0.001106556069370489,0.00010707674545389892,0.0005939041053840767,0.2173345386981964,-21.82431411743164,-2.38179087638855,22.54065704345703,0.6673074960708618,2.2615859508514404,-0.04023589566349983,0,0,0,0.000,0,0
1739401771.05999,0.5255009018302641,0.09600433163092244,-0.9531700689019866,-2.069072567435203,0.13772609526298973,2.1375994103115774,-1.2753669506511247,0.0011481900982716876,0.0002867560998930245,0.00014951497860281007,0.0005334884099053301,-0.0005336197562961806,8.204777273584872e-05,-0.00013232788748841886,0.1697271168231964,-21.84811782836914,-2.35798716545105,22.54065704345703,0.6608988046646118,2.2551772594451904,-0.020094294100999832,0,0,0,0.000,0,0
1739401771.070965,0.5254988714167083,0.09600536052595196,-0.9531641694270896,-2.069076395889066,0.13772775987370495,2.137598646837331,-1.2753604853926084,-0.00040058237707089796,0.0024621086662788925,0.0029354324149375253,0.00015829583522023924,0.0007396261565171539,-0.0001214807357912646,-0.00023189529800707792,0.1935308277606964,-21.84811782836914,-2.4095618724823,22.59223175048828,0.6737161874771118,2.2615859508514404,-0.04756011441349983,0,0,0,0.000,0,0
1739401771.0810077,0.5254991879589028,0.09600092810111378,-0.9531662754225955,-2.069074647224546,0.1377253317522758,2.137597928423076,-1.2753635096327383,-9.809162859810703e-05,0.0006054148230476951,0.0006179844495282197,-0.00012781519375038957,-0.0005432383063333961,-4.7292370097867385e-05,-0.00021933194052587552,0.1935308277606964,-21.79654312133789,-2.4095618724823,22.56842803955078,0.6673074960708618,2.2679946422576904,-0.04023589566349983,0,0,0,0.000,0,0
1739401771.0919871,0.5254974767517423,0.09600122623128916,-0.9531708664263496,-2.0690746472251225,0.13772607912435125,2.137597889177441,-1.2753616730460473,0.00015968787219939945,0.000124736369511542,0.0003009200398056271,-0.00024899917598830175,-0.0005122189788801662,-0.0005977180752993996,-0.0006407063129690184,0.2173345386981964,-21.79654312133789,-2.35798716545105,22.56842803955078,0.6608988046646118,2.2679946422576904,-0.04023589566349983,0,0,0,0.000,0,0
1739401771.1020057,0.5254978702618006,0.09600062161210969,-0.9531701379374732,-2.06907258093077,0.13772472030156527,2.13759789063077,-1.2753596874932636,0.0002507628124227437,-0.001121871957026645,0.0005624879908125951,-0.0005595245057189184,0.00032767951753526317,-0.0005603463858617317,0.0005573500580991792,0.2411382496356964,-21.79654312133789,-2.35798716545105,22.56842803955078,0.6737161874771118,2.2679946422576904,-0.05396880581974983,0,0,0,0.000,0,0
1739401771.112974,0.525501295338929,0.09600059347158904,-0.953170138924452,-2.0690746471901296,0.13772531853708597,2.1375986511979734,-1.275363692261833,0.0011350775058178483,0.0007525246528991828,-0.0001203103400861736,-0.00034066776865101183,-0.00020022707407183862,0.0002796182808168418,0.0002978462819426496,0.1935308277606964,-21.82431411743164,-2.35798716545105,22.56842803955078,0.6673074960708618,2.2615859508514404,-0.020094294100999832,0,0,0,0.000,0,0
1739401771.1240654,0.525500901797175,0.09600238136864012,-0.9531712809237716,-2.069074570695702,0.13772543912051072,2.1375994044973847,-1.2753638129428422,0.001599213604863087,0.000587262641156139,-0.0006536502133575981,-4.020632370967303e-06,-0.0008773102138924064,2.3252277927650014e-06,-0.001256168617912841,0.1697271168231964,-21.82431411743164,-2.38179087638855,22.56842803955078,0.6673074960708618,2.2551772594451904,-0.020094294100999832,0,0,0,0.000,0,0
1739401771.135029,0.5254957642310186,0.09600062116748402,-0.9531701379416515,-2.0690746472246904,0.13772607673686177,2.1375994044973767,-1.2753674816150928,-0.001483735860848602,0.001158901185594664,-2.1802867029024218e-05,-0.0005511998564408649,-0.00037365400246076256,-0.0001846738092537886,-0.003481138391377686,0.2411382496356964,-21.79654312133789,-2.35798716545105,22.56842803955078,0.6608988046646118,2.2551772594451904,0.026597600430250168,0,0,0,0.000,0,0
1739401771.1450589,0.5254992672736211,0.09600167205810102,-0.9531662581041798,-2.069074363502811,0.1377245675369269,2.1375993982228847,-1.2753573062408743,0.0009565691179190289,0.0003674131861287005,0.0010949500951644346,-0.00015224209364827942,-0.0002456185368798397,-0.0002816010549377474,0.001025675770959457,0.1935308277606964,-21.82431411743164,-2.38179087638855,22.59223175048828,0.6737161874771118,2.2551772594451904,-0.07411040365695953,0,0,0,0.000,0,0
1739401771.1559672,0.5254974767521902,0.09599880890428727,-0.9531701378433117,-2.069078237937331,0.1377296250733891,2.137597023279952,-1.275357635480327,-4.9218843603756094e-05,-0.00024807063891176516,0.00011829533471543097,-0.0010642129210349782,8.897235327505525e-05,-0.0006878901814098227,0.001115693424118444,0.2173345386981964,-21.79654312133789,-2.35798716545105,22.61603546142578,0.6673074960708618,2.2753188610076904,-0.06678618490695953,0,0,0,0.000,0,0
1739401771.1669412,0.5254959982344388,0.09600261909944885,-0.9531705411958985,-2.069080003759592,0.13772715629341697,2.137598646837298,-1.275357306267155,-0.0005245540098404905,-0.0003531323863084384,-7.809168367397878e-05,-0.001954971397598605,0.00033177625870733544,-0.0005702001766268738,0.001846868186316237,0.2411382496356964,-21.82431411743164,-2.38179087638855,22.63983917236328,0.6608988046646118,2.2615859508514404,-0.07411040365695953,0,0,0,0.000,0,0
1739401771.1770494,0.5254992008321683,0.09600261910967896,-0.9531701379621552,-2.0690771186670696,0.1377264316330452,2.1375997064754277,-1.2753626326237035,0.001203818247204146,-0.0011640464510068473,-0.0005581337769901567,-0.0003473993505651907,-0.00016013372310537654,0.00015113094783490534,-0.0013823616638930724,0.1935308277606964,-21.82431411743164,-2.35798716545105,22.59223175048828,0.6608988046646118,2.2615859508514404,-0.020094294100999832,0,0,0,0.000,0,0
1739401771.1880193,0.5254973982419323,0.09600062116882606,-0.9531699196860774,-2.0690746472290105,0.13772674021754938,2.13759864684328,-1.2753595697435813,0.00021697663623098192,-0.0007265681480095899,-0.0007263042562836448,0.0006964201328548131,0.0008610452083449553,7.490907083996669e-05,0.0006693260029137424,0.2173345386981964,-21.79654312133789,-2.38179087638855,22.56842803955078,0.6673074960708618,2.2615859508514404,-0.05396880581974983,0,0,0,0.000,0,0
1739401771.1990216,0.5254975027516866,0.09600583369523527,-0.953168370830797,-2.069076440924898,0.13772697200031206,2.13760515837005,-1.2753613123721628,-0.0002156148688957244,-0.0001252561682607627,0.000246208740835713,-0.00019204076134079503,-0.0003048337980166825,0.001540811748229127,-0.0008329378151949707,0.2173345386981964,-21.87192153930664,-2.38179087638855,22.59223175048828,0.6544901132583618,2.2423598766326904,-0.04023589566349983,0,0,0,0.000,0,0
1739401771.2090383,0.5254946157292408,0.0960058073846829,-0.9531703799071959,-2.0690746585630007,0.13772456233928215,2.1375994045691566,-1.2753613289231345,-0.00038911676454479304,-0.00022023482143441038,-0.0009705149305349883,7.784992067841304e-05,-0.0007619899085352568,9.298087185721172e-05,0.0002817706585688963,0.2173345386981964,-21.87192153930664,-2.35798716545105,22.56842803955078,0.6737161874771118,2.2551772594451904,-0.04023589566349983,0,0,0,0.000,0,0
1739401771.2200139,0.5254974764085504,0.09600261910834258,-0.9531683822310093,-2.0690746472251864,0.13772533186062375,2.137597023333823,-1.2753573062702854,-0.00028616633101054425,-0.0008021750861319736,0.0009584592533486382,-0.0011932875499719587,-0.00112831118592979,-0.001501517808632591,0.0010559714269943084,0.2173345386981964,-21.82431411743164,-2.38179087638855,22.56842803955078,0.6673074960708618,2.2753188610076904,-0.07411040365695953,0,0,0,0.000,0,0
1739401771.23101,0.5254974767517478,0.0960060441511415,-0.9531701392577093,-2.069072567435267,0.13772896516851266,2.1375986466677177,-1.2753641749858697,-5.7539475882426245e-08,0.00036372691154177835,0.0003478688369112581,0.0010404322399016194,-0.0006284929685935862,0.00030355180190464733,-0.0019061669923966795,0.2173345386981964,-21.87192153930664,-2.35798716545105,22.54065704345703,0.6673074960708618,2.2615859508514404,-0.020094294100999832,0,0,0,0.000,0,0
1739401771.241952,0.5254957651939957,0.09600646249646103,-0.9531700339236234,-2.0690782125791607,0.1377264337480339,2.137598646837297,-1.2753675888022138,-0.0008758601581871095,0.001361903968963867,0.0005972767761988198,-0.0005188685431432544,-0.0006845957181176037,-0.0006036492596167766,-0.001423692954525067,0.2411382496356964,-21.84811782836914,-2.35798716545105,22.61603546142578,0.6608988046646118,2.2615859508514404,0.012864691205322742,0,0,0,0.000,0,0
1739401771.2520363,0.5254978702618169,0.0960050419551803,-0.9531684657424189,-2.0690746472251225,0.13772851797310418,2.1375994044973763,-1.275358172167417,-0.0006126752591367948,0.0009406234635361891,0.0008228904652993166,4.3264707665139844e-05,0.0006366320336199481,-7.700936584212028e-05,0.002040348186666652,0.2411382496356964,-21.84811782836914,-2.38179087638855,22.56842803955078,0.6673074960708618,2.2551772594451904,-0.06678618490695953,0,0,0,0.000,0,0
1739401771.2620428,0.5254974767874155,0.0960027549699049,-0.953170381760061,-2.069077294226115,0.13772701521472952,2.137598646837298,-1.275358172167417,-0.0007156173619345559,-0.0001158275669730103,-0.00011959712000319945,-0.0013799996509838576,-0.00010859980083157919,0.0005716189238286034,0.0010242961348959773,0.2173345386981964,-21.79654312133789,-2.35798716545105,22.61603546142578,0.6801248788833618,2.2615859508514404,-0.06678618490695953,0,0,0,0.000,0,0
1739401771.272078,0.5254955344792334,0.09600261914581525,-0.953172566266645,-2.0690764298865894,0.13772919520623741,2.137598275963953,-1.2753593387440902,-0.0013576561193797384,0.000620390754399712,-0.0006641874822935157,-0.0013859460390342672,0.0019865916415964654,-0.00012834575876411825,-0.0003366131128935176,0.2411382496356964,-21.82431411743164,-2.35798716545105,22.59223175048828,0.6737161874771118,2.2615859508514404,-0.05396880581974983,0,0,0,0.000,0,0
1739401771.283944,0.525497554424544,0.09600474997573007,-0.9531683582597723,-2.069076353372721,0.13772532002318194,2.1375986468352046,-1.2753580559177673,-0.00011772169010450736,0.0009577654979444426,0.00036565515189312145,-0.0002918352404528883,0.0003234134833843187,0.00014457989330334903,0.0007973289085282862,0.2173345386981964,-21.82431411743164,-2.38179087638855,22.59223175048828,0.6673074960708618,2.2615859508514404,-0.06678618490695953,0,0,0,0.000,0,0
