IITGN-Robotics/Franka_IITGN_ROBOTICS/franka_ros/franka_iitgn/data/b_33.csv
time,fr3_joint1_pos,fr3_joint2_pos,fr3_joint3_pos,fr3_joint4_pos,fr3_joint5_pos,fr3_joint6_pos,fr3_joint7_pos,fr3_joint1_vel,fr3_joint2_vel,fr3_joint3_vel,fr3_joint4_vel,fr3_joint5_vel,fr3_joint6_vel,fr3_joint7_vel,fr3_joint1_eff,fr3_joint2_eff,fr3_joint3_eff,fr3_joint4_eff,fr3_joint5_eff,fr3_joint6_eff,fr3_joint7_eff,flexpin1,flexpin2,flexpin3,Force,ContactMic,ContactMic_gt
1739401905.3391273,0.5255095540926845,0.09598061623081976,-0.9531772812835302,-2.069102565819961,0.13775334837372072,2.137607070388991,-1.2753884474511343,5.1792404583338736e-05,-0.0010093150349182868,0.00031739123726991973,-0.00042471694394337415,-0.001290170394224181,0.0017108496120467774,0.0004129225379471283,0.2411382496356964,-21.82431411743164,-2.4333655834198,22.56842803955078,0.6737161874771118,2.2753188610076904,-0.05396880581974983,,,,,,,,,
1739401905.3511012,0.5255120638634228,0.09597783043584146,-0.9531787860244643,-2.069101063864021,0.13775233213503218,2.1376068670107564,-1.275390838180397,0.0011432756418663385,-0.0015596594360211518,-0.0003523454813946809,0.0013908449110263243,-0.0008965488344778567,-4.709326328081816e-05,0.00026152002089453795,0.1935308277606964,-21.69339370727539,-2.38179087638855,22.54065704345703,0.6865335702896118,2.2817275524139404,-0.06037749722599983,,,,,,,,,
1739401905.3611038,0.5255119446671358,0.09599681542128112,-0.9531811699062358,-2.069103173315927,0.13775553416318176,2.137609808693018,-1.2753876592837816,0.00035093941133721655,0.0012019493799210901,-0.0006729442348319142,-0.00031211627536513497,0.000670631562124902,-0.0009465253307275031,0.001372577087742982,0.1935308277606964,-21.72116470336914,-2.38179087638855,22.54065704345703,0.6865335702896118,2.2881362438201904,-0.06037749722599983,,,,,,,,,
1739401905.3720734,0.5255156551280472,0.09601739959794009,-0.9531800113377892,-2.0690994777921508,0.1377542210976959,2.137609930812122,-1.275391926458695,0.000476601904928951,0.0021490691347008737,-0.00048614324892843437,-0.00020439287339343355,0.0007931248309139422,-0.0005488157225732852,-0.0004659298884010445,0.1419561207294464,-21.72116470336914,-2.35798716545105,22.51685333251953,0.7066751718521118,2.2881362438201904,-0.027418512850999832,,,,,,,,,
1739401905.3840473,0.5255085107946827,0.09603668908943737,-0.9531868062530041,-2.069102692092381,0.13775417655089647,2.1376160831197586,-1.275392374584927,0.0008317073284838809,0.0016119569437327284,-0.0016457861521682,-0.00015473623496653477,-0.0003232335084230871,-0.0010583424010988717,-0.0017595495047188138,0.2411382496356964,-21.72116470336914,-2.3064124584198,22.51685333251953,0.7066751718521118,2.2753188610076904,-0.06037749722599983,,,,,,,,,
1739401905.3940911,0.5255070178009069,0.09605263713514504,-0.9531858617161661,-2.0691083464490108,0.1377557759142638,2.1376153391060058,-1.2753876729121598,-0.0007923913139692988,0.002002825797574962,1.3238308752360319e-06,-0.0007602637720740705,-0.00024232783317651858,-0.00010220817200545364,-0.0006074521543972236,0.2173345386981964,-21.72116470336914,-2.3064124584198,22.59223175048828,0.6938577890396118,2.2817275524139404,-0.06037749722599983,,,,,,,,,
1739401905.404141,0.5255052792254614,0.09606811048064799,-0.9531878798267576,-2.069106595314544,0.1377534642544264,2.137615339106237,-1.2753869059669263,-0.0012515439653522581,0.001785932687386313,-0.0010379412195373522,0.00026532629204636536,0.0008491976821003111,-0.0004808098451621144,0.0011021084103542717,0.2411382496356964,-21.77273941040039,-2.2826087474823,22.56842803955078,0.7130838632583618,2.2817275524139404,-0.06678618490695953,,,,,,,,,
1739401905.4160795,0.5255104385362535,0.09607367457334062,-0.9531780708011608,-2.0691083779917414,0.1377542217517714,2.1376153405597873,-1.2753852795024625,0.0010420479649406165,-0.000803909747725111,0.001080517823254797,-0.00031392289154547585,-0.0010863322378331357,0.0007771575703699402,0.001048604939381198,0.1697271168231964,-21.72116470336914,-2.38179087638855,22.59223175048828,0.7066751718521118,2.2817275524139404,-0.08051909506320953,,,,,,,,,
1739401905.4261072,0.5255135477893687,0.09608465435302312,-0.9531748097286044,-2.0691045155248666,0.1377542217517705,2.1376160982198904,-1.2753863889217005,0.002559275674054339,0.001030383725989597,1.6322061910942218e-05,0.0008371238760489855,-0.0005980948914238566,0.0008004393543866541,0.00039721588694891863,0.1697271168231964,-21.79654312133789,-2.4333655834198,22.54065704345703,0.7066751718521118,2.2753188610076904,-0.07411040365695953,,,,,,,,,
1739401905.436135,0.5255124719614072,0.09609590697971994,-0.953174089133119,-2.069108378131713,0.1377542217517705,2.137615456843815,-1.275388822683768,0.0012886632819694927,0.0010049545953287038,-4.77904167109505e-05,-0.00020616093286304413,0.00041722392469468474,-0.0002552395916293862,-0.0011806184362823835,0.1419561207294464,-21.84811782836914,-2.4333655834198,22.59223175048828,0.7066751718521118,2.2817275524139404,-0.05396880581974983,,,,,,,,,
1739401905.4470353,0.5255088054891057,0.09610491281575904,-0.9531678837390432,-2.069111079021808,0.13775497795375627,2.1376138237880746,-1.2753907981501753,-3.0274846091382057e-05,0.0007628654207276506,0.0012429809898045177,-0.00043346059926974406,0.0007873205167284741,-0.0014419479006260285,0.0009817841735516595,0.1935308277606964,-21.87192153930664,-2.48494029045105,22.61603546142578,0.7002664804458618,2.2945449352264404,-0.03382720425724983,,,,,,,,,
1739401905.457036,0.525508964870738,0.09611346641066708,-0.9531757677556584,-2.0691131463711283,0.13775374932976292,2.1376157112151,-1.2753939757822215,-0.0008294512662613285,0.0007381253850178692,-0.0006438743317625079,-0.0002307933294890074,-0.0012071534702320797,-0.0008250867167790164,-0.00027009274152079473,0.1935308277606964,-21.89969253540039,-2.4095618724823,22.61603546142578,0.7066751718521118,2.2817275524139404,-0.0072769103571772575,,,,,,,,,
1739401905.4670908,0.5255107832498621,0.09611614715776165,-0.9531740891272891,-2.069108711034515,0.13775274591475653,2.1376208077289647,-1.2753974179139769,0.0006483053495006819,-0.000348036635741292,0.0005615687106865312,0.0008286313004900268,0.0006982864084866178,0.00018325624954030945,-0.0008866085570959103,0.1697271168231964,-21.84811782836914,-2.4333655834198,22.59223175048828,0.7194925546646118,2.2753188610076904,-0.013685601763427258,,,,,,,,,
1739401905.4780586,0.5255087260214829,0.09611934500916045,-0.9531779515959258,-2.069113490596508,0.13775410510957423,2.1376147181596625,-1.2753900798008624,-0.0003586960397813782,0.00023281186755204393,-0.0004742102917394849,-0.0002588195196482953,-0.00045894027202133533,-4.8065206341163145e-05,5.541976483370984e-05,0.1935308277606964,-21.84811782836914,-2.38179087638855,22.61603546142578,0.7066751718521118,2.2881362438201904,-0.04023589566349983,,,,,,,,,
1739401905.488076,0.5255088054885049,0.0961193830622994,-0.9531797341659474,-2.0691096947601535,0.13775270594360758,2.137615378354409,-1.2753911401593818,-0.0007514519987963277,3.720033384140204e-07,-0.000759093233208914,0.0014296442964184396,-0.00018634238993006522,-0.001217235265244785,-0.0012084904542254335,0.1935308277606964,-21.84811782836914,-2.35798716545105,22.56842803955078,0.7194925546646118,2.2817275524139404,-0.06678618490695953,,,,,,,,,
1739401905.4981065,0.5255104397389199,0.09611482970975713,-0.9531755596945106,-2.0691114774332697,0.1377549619147295,2.1376207453821725,-1.2753852782821737,0.00017977644397281634,0.0007846587545373182,0.0009709943244020768,-4.92979551992454e-05,-0.0004618864522303695,0.002029819155534274,-0.00025192711881317305,0.1697271168231964,-21.74496841430664,-2.4095618724823,22.59223175048828,0.7002664804458618,2.2753188610076904,-0.08051909506320953,,,,,,,,,
1739401905.5081117,0.5255070138219694,0.09611403945082249,-0.9531800973613758,-2.069112625409569,0.13775497919573637,2.1376146270169745,-1.2753885405315222,-0.0009213283610311816,0.0018688796115676819,-4.485118489702325e-05,-0.00031019810710860955,0.0007533438241822904,-0.0009205230944227009,-0.00032388226096170407,0.2173345386981964,-21.77273941040039,-2.38179087638855,22.59223175048828,0.7002664804458618,2.2881362438201904,-0.05396880581974983,,,,,,,,,
1739401905.5200448,0.5255033018583785,0.0961105657363933,-0.9531818405658665,-2.069105832295856,0.13775392962606356,2.137619616904868,-1.2753962297922228,-0.0014534087172660911,-0.001881150937857737,-0.0013056760946229464,0.0012081838284136231,0.00010104448417184617,-0.0011521631867187987,-0.0024326493605119157,0.2689092457294464,-21.72116470336914,-2.3302161693573,22.51685333251953,0.7002664804458618,2.2817275524139404,-0.0008682189509272575,,,,,,,,,
1739401905.5301278,0.5255054059750119,0.09611196304372482,-0.9531798491035639,-2.069111477398277,0.13775391278637814,2.137620703145029,-1.2753931779159184,-0.0005824212479902191,-0.000828925202265211,0.0007891628147102125,-0.0006862333002489417,-0.0007045057638260395,0.0005031159216639088,0.0003425166028596182,0.2411382496356964,-21.74496841430664,-2.35798716545105,22.59223175048828,0.7002664804458618,2.2753188610076904,-0.013685601763427258,,,,,,,,,
1739401905.5410678,0.5255033118654256,0.09611025005209631,-0.9531804495306269,-2.069107614966394,0.13775573851649872,2.1376167701237105,-1.2753882773850667,-0.001622852026581656,-0.0012848865390269674,0.00050523652411353,0.0007066201949622005,9.776580132314741e-05,-0.0008557450757421476,0.0007874768635277915,0.2689092457294464,-21.72116470336914,-2.35798716545105,22.54065704345703,0.6938577890396118,2.2817275524139404,-0.05396880581974983,,,,,,,,,
1739401905.5521405,0.5255104383937628,0.09611227811233328,-0.9531800973671753,-2.0691057557599555,0.13775497962854366,2.1376181196108766,-1.2753869597474208,0.0010562198987078123,0.0007897774595613335,0.00041159362022182174,0.0006075152914511164,-0.0003496375944469145,-0.0008825577017718124,0.00036411810475481254,0.1697271168231964,-21.74496841430664,-2.38179087638855,22.51685333251953,0.7002664804458618,2.2881362438201904,-0.06678618490695953,,,,,,,,,
1739401905.5631056,0.5255070175285156,0.09611567307108393,-0.953175898313174,-2.0691105631742466,0.13775345782746298,2.137619343785884,-1.2753899232302819,-0.00021531568997313643,0.0013022462067051935,0.0008679009082594738,-0.0008797872443832919,0.00011315937335160272,-0.00018512688736847208,0.00035665429908903666,0.2173345386981964,-21.79654312133789,-2.4095618724823,22.59223175048828,0.7130838632583618,2.2881362438201904,-0.04023589566349983,,,,,,,,,
1739401905.5740747,0.5255087260156679,0.09611640706358288,-0.9531765871709734,-2.06910762849173,0.13775573707189184,2.13761904767815,-1.2753923534997194,0.00012425026139157208,0.00022732212647245823,3.5796122989772684e-05,0.00023342080698269575,0.0009544063307075404,-0.00028334761695480217,-0.0008925073629629868,0.1935308277606964,-21.77273941040039,-2.4095618724823,22.56842803955078,0.6938577890396118,2.2817275524139404,-0.04756011441349983,,,,,,,,,
1739401905.5860279,0.5255087264517102,0.09612394595426045,-0.9531758718101084,-2.0691090083943107,0.1377519502341704,2.137618417671815,-1.2753880249324212,0.0003547832217082679,0.0021699842601923132,-0.0006517150190713428,0.0009711485345943911,-0.0015600831968196447,-0.0012067150763045284,0.0009138186609905548,0.1935308277606964,-21.87192153930664,-2.4095618724823,22.56842803955078,0.7259012460708618,2.2945449352264404,-0.06037749722599983,,,,,,,,,
1739401905.597077,0.5255065499032348,0.09612051214607913,-0.9531777205359449,-2.0691096947523757,0.13775736755701756,2.137619334548504,-1.2753902385868374,-0.0011055482438581188,0.0009012101326360215,5.3874060249096544e-05,0.00017869579790035157,-0.00026477554922157704,-0.0013126501769352187,-0.0013080403496698373,0.2173345386981964,-21.82431411743164,-2.38179087638855,22.56842803955078,0.7066751718521118,2.2753188610076904,-0.04756011441349983,,,,,,,,,
1739401905.6080778,0.5255087349541068,0.09612162393773527,-0.9531780264031651,-2.0691159611403527,0.1377542217757471,2.137620851407043,-1.2753924347845689,0.0006979248723756136,0.0007360192343694981,0.0007601489877670555,-0.0009438615825202749,0.0003809889889374602,0.0011502208807970555,-0.0010450799949260653,0.1935308277606964,-21.84811782836914,-2.4095618724823,22.63983917236328,0.7066751718521118,2.2753188610076904,-0.020094294100999832,,,,,,,,,
1739401905.618155,0.5255124374588298,0.09611973761743434,-0.9531758984064883,-2.0691132601569455,0.13775497941185008,2.137620106023571,-1.275391555804047,0.0016081505314488119,0.00015540914872103854,0.0005814197337572157,-4.6040171012290864e-07,0.0006968109326313,0.000884121043591298,0.00042586261747745886,0.1419561207294464,-21.84811782836914,-2.4095618724823,22.61603546142578,0.7002664804458618,2.2817275524139404,-0.027418512850999832,,,,,,,,,
1739401905.6291687,0.5255087348459684,0.09611873671701567,-0.9531758718062203,-2.0691135437276222,0.1377557370719272,2.1376199839260397,-1.2753876650800375,0.0005975679569405586,0.00044348157929332405,0.0003974362375359943,-0.0013044745564337586,0.001476617741980641,0.0004759117885673348,-0.0002442745271341649,0.1935308277606964,-21.82431411743164,-2.4095618724823,22.59223175048828,0.6938577890396118,2.2817275524139404,-0.06037749722599983,,,,,,,,,
1739401905.6401029,0.5255089644342408,0.09612086728235271,-0.953177952613411,-2.0691099328400044,0.13775420927899712,2.137624025909593,-1.2753869016241546,0.0004130674380932001,-0.0005164031091631097,0.000246914910709266,9.139332316309952e-05,-0.0001664594241587055,0.0005166419999417557,0.0014367532617588375,0.1935308277606964,-21.82431411743164,-2.38179087638855,22.56842803955078,0.7066751718521118,2.2753188610076904,-0.06678618490695953,,,,,,,,,
1739401905.6501346,0.5255066199889007,0.09612157756301663,-0.9531780575597559,-2.0691150427913394,0.137757424922067,2.1376176862770375,-1.2753884758011154,-0.000748390107523663,-0.0005888752347334545,-0.0007811715905874846,-0.00045881540528650033,-6.420593327385881e-05,0.0001267806973990555,-0.00016052195319533706,0.1935308277606964,-21.82431411743164,-2.38179087638855,22.63983917236328,0.7066751718521118,2.2753188610076904,-0.06678618490695953,,,,,,,,,
1739401905.6611004,0.5255079459923557,0.09611502580636193,-0.9531797342735431,-2.0691100010139034,0.13775597003052079,2.137620864635436,-1.275388416934801,0.0004961417650857525,-0.0004330699799867018,-2.1338496263191814e-05,0.0007395619020155967,0.0001322915926796537,0.000616548087806058,0.0016942367482853295,0.1935308277606964,-21.77273941040039,-2.35798716545105,22.56842803955078,0.6938577890396118,2.2753188610076904,-0.05396880581974983,,,,,,,,,
1739401905.67203,0.5255052897411038,0.09611518513076789,-0.9531769380056591,-2.0691048598040087,0.13775445906787492,2.137621731035127,-1.2753884563332771,-0.0007574662045432925,0.000516770954499152,0.0006551446230308171,0.0015207867964639216,-0.00019637837994180847,0.0009113105824215544,0.00042245265810182523,0.2411382496356964,-21.74496841430664,-2.35798716545105,22.54065704345703,0.7066751718521118,2.2679946422576904,-0.05396880581974983,,,,,,,,,
1739401905.6821582,0.5255041791323085,0.0961133401493231,-0.953177978039524,-2.0691075884651213,0.13775836723566762,2.1376193483641908,-1.2753932366959522,-0.0013641367520368076,-0.002637750523828845,-0.0004248331891183254,0.0002509970147689924,0.000754916954911197,-0.00030136103088827164,-0.0016927118134233265,0.2173345386981964,-21.72116470336914,-2.38179087638855,22.54065704345703,0.7066751718521118,2.2881362438201904,-0.013685601763427258,,,,,,,,,
1739401905.694141,0.525508725999645,0.09611925747387999,-0.9531800973632869,-2.0691096947561007,0.13775422177517185,2.137620106993294,-1.2753884169262384,-0.00021205181788604583,0.0007041255715206861,-0.000754780727352773,-7.116363865233911e-05,-0.0004303580863133526,-7.218030105037536e-05,-0.0002639665455279518,0.1935308277606964,-21.77273941040039,-2.38179087638855,22.56842803955078,0.7066751718521118,2.2817275524139404,-0.05396880581974983,,,,,,,,,
1739401905.7050679,0.5255088310164809,0.09611910610032715,-0.9531741101617178,-2.0691069262366035,0.1377517956013182,2.137619047839689,-1.2753894809246948,0.00020077509776912612,0.0012902662452681083,-3.448666495019649e-05,0.0006054303504427539,-0.000554911087175549,-0.00035554327677624607,0.0002489651947778403,0.1935308277606964,-21.79654312133789,-2.4095618724823,22.54065704345703,0.7002664804458618,2.2817275524139404,-0.05396880581974983,,,,,,,,,
1739401905.7151053,0.525507013496692,0.09611715681675832,-0.9531762249889464,-2.0691076369535035,0.1377542173235746,2.1376208651199526,-1.275386035726985,-0.0005340753021985403,0.0007147354200488783,-0.0005849271327669537,-0.0003205216853404095,-0.0006372699590997158,5.568466204695886e-05,0.0021670089065347594,0.2173345386981964,-21.77273941040039,-2.4095618724823,22.56842803955078,0.7066751718521118,2.2753188610076904,-0.07411040365695953,,,,,,,,,
1739401905.7261138,0.5255132995593255,0.0961178671014323,-0.9531739851335123,-2.069111247810159,0.1377557481294329,2.137622488695208,-1.2753900805205869,0.0010313823411890592,0.0008441118460217473,0.0006096441828806439,-0.0001674615725620628,0.00018098526079392475,0.0007314162665023172,0.001148591819268068,0.1697271168231964,-21.77273941040039,-2.4333655834198,22.59223175048828,0.6938577890396118,2.2615859508514404,-0.06678618490695953,,,,,,,,,
1739401905.7370534,0.5255069874999173,0.09612086727566946,-0.95317795159573,-2.0691096943942253,0.13775422175179128,2.1376197030304507,-1.2753869016121802,-8.441878078779822e-05,0.0006229610944267267,-0.0003725053382088063,-0.0002786267991199808,-0.0004528895805387017,7.400392137062612e-05,0.0005276951422478864,0.2173345386981964,-21.82431411743164,-2.38179087638855,22.56842803955078,0.7066751718521118,2.2881362438201904,-0.06678618490695953,,,,,,,,,
1739401905.7470694,0.5255087260152048,0.09612085514930131,-0.9531797227172204,-2.069109694756244,0.1377557370719272,2.1376232463612683,-1.275391202752178,0.0004210302273825338,-0.0005824490619522086,0.0008664816160283643,0.0003431453408404919,-0.00039407587237185344,0.0006247354560111408,0.0009481529552614271,0.1935308277606964,-21.82431411743164,-2.35798716545105,22.56842803955078,0.6938577890396118,2.2551772594451904,-0.027418512850999832,,,,,,,,,
1739401905.757083,0.5255073313863526,0.0961200242742659,-0.9531797352538955,-2.0691132846752875,0.13775497941184886,2.13762173103513,-1.2753876607134078,0.00017628490063633037,0.0015988635754112632,-0.0008970403545309923,-0.0009597430943097973,0.0003765388628931973,0.0001784533947060977,-0.00032193271374288145,0.2173345386981964,-21.77273941040039,-2.35798716545105,22.61603546142578,0.7002664804458618,2.2679946422576904,-0.06037749722599983,,,,,,,,,
1739401905.768643,0.5255104388652195,0.09612565772887982,-0.9531758804244174,-2.0691133366398473,0.13775270594558292,2.137620865137898,-1.2753869147419943,0.0007109672945428403,0.0024822542136336105,0.00020188331835256754,-0.00028112659890953994,-0.0010235668756157946,-0.0006335467468839776,0.0004566311041353258,0.1697271168231964,-21.84811782836914,-2.4095618724823,22.61603546142578,0.7194925546646118,2.2753188610076904,-0.06678618490695953,,,,,,,,,
1739401905.7791276,0.5255070134949157,0.09611889706521291,-0.9531797313840624,-2.0691107886689175,0.13775652151661263,2.137621924776027,-1.2753924236387557,-0.0001880107607347956,-0.0018127911875223416,-0.00017630464976397468,0.00148232894248133,0.0006445495738775543,0.0010818418674972332,-0.0010962283756835737,0.2173345386981964,-21.79654312133789,-2.35798716545105,22.59223175048828,0.7002664804458618,2.2753188610076904,-0.020094294100999832,,,,,,,,,
1739401905.789161,0.5255087246246782,0.09612119465065673,-0.9531758718060213,-2.0691114774216053,0.13775342491182285,2.1376217308915693,-1.2753946967805652,-0.0003855326050827311,-0.0007541074741553404,0.0015680682482511151,0.000347242201656489,-0.001931876023794012,0.0011928666097736104,-0.0020939867078210925,0.1935308277606964,-21.82431411743164,-2.4095618724823,22.59223175048828,0.7130838632583618,2.2679946422576904,-0.0008682189509272575,,,,,,,,,
1739401905.8000708,0.525507013494906,0.09612406312417701,-0.9531804495650209,-2.069115327349448,0.137751794951037,2.1376201074778183,-1.275391542721442,1.757991091491895e-05,0.0010425469620374032,-0.0012732417601341638,-0.0007721033000986956,-0.0005472429802923713,-0.00032574882454245737,-0.0001058196370430824,0.2173345386981964,-21.82431411743164,-2.35798716545105,22.61603546142578,0.7002664804458618,2.2817275524139404,-0.027418512850999832,,,,,,,,,
1739401905.8110979,0.5255087260156451,0.09612135242086606,-0.9531781900266184,-2.069109694791259,0.1377545151364072,2.137621022121324,-1.2753884300076455,0.000498897017832367,-0.00036954207852268455,-0.00016933578572364368,0.00040355241199875163,-0.0016266463255943274,0.00037833645694273344,0.0007321235767520474,0.1935308277606964,-21.79654312133789,-2.38179087638855,22.56842803955078,0.6938577890396118,2.2753188610076904,-0.05396880581974983,,,,,,,,,
1739401905.8220298,0.5255070132223733,0.09612403721696348,-0.9531771646993815,-2.0691132602152673,0.13775266706081457,2.137620865138193,-1.2753908388427353,5.5798768158836124e-05,0.0002147711319026934,0.0008926547211928963,-0.0005625735274216579,-0.0008837935783171389,-0.0007083790090037459,-0.00020028670311088097,0.2173345386981964,-21.82431411743164,-2.35798716545105,22.61603546142578,0.7194925546646118,2.2753188610076904,-0.03382720425724983,,,,,,,,,
1739401905.832152,0.5255087260156405,0.09611914458207756,-0.9531815790528871,-2.069111488770963,0.13775076710433137,2.137619349817741,-1.2753869195340075,0.00031048994863885427,-0.0008425746373186175,-0.0001401804409856904,-0.000790037480022891,-0.0007839557738171326,-0.0007805428901474245,0.0010450674805958875,0.1935308277606964,-21.79654312133789,-2.3302161693573,22.59223175048828,0.7002664804458618,2.2881362438201904,-0.06678618490695953,,,,,,,,,
1739401905.8430908,0.5255087000152651,0.09612184106748993,-0.9531818800388301,-2.069111502663197,0.1377542217279919,2.1376208652994033,-1.2753860221425983,-0.0013598437300689735,0.0012054050558827846,-0.0006136474976852232,-0.0012521821336571252,-0.00030402391608813206,1.849262044645555e-05,0.0012923936953582677,0.1935308277606964,-21.82431411743164,-2.35798716545105,22.59223175048828,0.7066751718521118,2.2753188610076904,-0.07411040365695953,,,,,,,,,
1739401905.8540957,0.5255087260154984,0.09612174113106796,-0.9531776309366851,-2.0691096947563925,0.13775497746772528,2.13762010747782,-1.275388418863905,0.00027183900997079476,-0.00015823442558872078,-7.247620840390263e-05,-0.0007629509191556975,-0.00032189470246431857,-0.0003375710593884364,0.000592441099310233,0.1935308277606964,-21.79654312133789,-2.38179087638855,22.56842803955078,0.7002664804458618,2.2817275524139404,-0.05396880581974983,,,,,,,,,
1739401905.8641133,0.5255052749738026,0.0961171949686251,-0.9531740890166234,-2.0691076489794704,0.13775407093223166,2.13762173103513,-1.275389174586026,-0.0014613352125943178,0.0005014667993558084,0.0007412256802690922,1.9257391002271585e-05,-0.0005059628078259498,0.00016653302984443764,-1.0228088383503462e-05,0.2411382496356964,-21.77273941040039,-2.4333655834198,22.54065704345703,0.7130838632583618,2.2679946422576904,-0.04756011441349983,,,,,,,,,
1739401905.8750975,0.5255087183298514,0.09611992500534842,-0.9531756378026494,-2.0691096947564422,0.13775164324193184,2.1376240614948885,-1.2753882599424882,0.0007991288400983636,-0.0003131199902835459,0.00037634470362904075,-8.495474466032747e-05,7.830127900898141e-05,0.001025686317578139,0.0015375816763190241,0.1935308277606964,-21.79654312133789,-2.4095618724823,22.56842803955078,0.6938577890396118,2.2753188610076904,-0.05396880581974983,,,,,,,,,
1739401905.8861163,0.5255087260156017,0.09611958092723326,-0.9531740899662133,-2.0691076159112027,0.1377549268974058,2.137620865155941,-1.2753900406976801,0.0004027117187023853,-0.00034256028769801927,0.0004415487148833172,0.00019499042669723698,-0.0002247129858766082,0.00032876611720761056,0.0004939103063755489,0.1935308277606964,-21.79654312133789,-2.4333655834198,22.54065704345703,0.7002664804458618,2.2753188610076904,-0.04023589566349983,,,,,,,,,
1739401905.897043,0.5255069354937738,0.09612035306171211,-0.9531741676389386,-2.069111553962695,0.13775498087418733,2.137620107477819,-1.2753935330580306,-2.2515375241001002e-05,-0.0009143245099478242,0.0007344818639405327,-0.00026669847658071543,0.0004758442201318264,-0.0008625023826559653,-0.0006027197219412393,0.2173345386981964,-21.77273941040039,-2.4333655834198,22.59223175048828,0.7002664804458618,2.2817275524139404,-0.013685601763427258,,,,,,,,,
1739401905.9071097,0.5255087260143242,0.09611751098275671,-0.9531779515972554,-2.0691132591667767,0.13775497941187362,2.137620865137898,-1.275391613951382,0.0002322891617149331,-0.001046637677531791,0.00013905812076400712,-0.0009404818580500974,-0.001157566257532324,-0.00026672668863049107,-0.00030121360368493314,0.1935308277606964,-21.77273941040039,-2.38179087638855,22.61603546142578,0.7002664804458618,2.2753188610076904,-0.027418512850999832,,,,,,,,,
1739401905.9171808,0.5255053009741826,0.09612198559286309,-0.9531857425070314,-2.069107614966347,0.1377566029691596,2.137620107477819,-1.2753912025936267,-0.0005933303925179162,0.0006438978544372553,-0.0022795861131590838,0.0010146657034823623,0.0005025279936540978,3.751317417164361e-05,0.001217875970393976,0.2411382496356964,-21.79654312133789,-2.3064124584198,22.54065704345703,0.6865335702896118,2.2817275524139404,-0.027418512850999832,,,,,,,,,
1739401905.9272497,0.5255088054885048,0.0961189867401424,-0.9531780311172371,-2.0691124501303224,0.1377557370719272,2.1376224886952087,-1.2753919283947681,0.00031586656189508004,-0.0009335039815225286,0.00043261190107755877,-6.980096114572501e-05,-4.6839201316660015e-05,0.0009929458811056323,-5.6166124861771154e-05,0.1935308277606964,-21.79654312133789,-2.38179087638855,22.56842803955078,0.6938577890396118,2.2615859508514404,-0.027418512850999832,,,,,,,,,
1739401905.9381313,0.5255087173136346,0.09612406323125093,-0.9531798137462535,-2.0691114774488235,0.1377550925404532,2.137620107477819,-1.2753963713592464,-0.00017716429236936597,-0.0002649878590233463,-0.0012126387543168094,0.0002406445058107681,0.0015207185360427476,1.201289783073629e-05,-0.0012011121057343764,0.1935308277606964,-21.82431411743164,-2.35798716545105,22.59223175048828,0.7002664804458618,2.2817275524139404,-0.013685601763427258,,,,,,,,,
1739401905.9481425,0.5255087260154977,0.09612407264597933,-0.9531779515972716,-2.0691150427873075,0.13775422159167605,2.137620865137898,-1.2753953101954039,0.0004315788994577323,-0.00024267151656903865,8.972344631820285e-05,-0.0012870096499149912,-8.000055428053986e-05,-0.00044812877570040035,-0.0005514378528796109,0.1935308277606964,-21.82431411743164,-2.38179087638855,22.63983917236328,0.7066751718521118,2.2753188610076904,-0.0072769103571772575,,,,,,,,,
1739401905.9591372,0.5255087246246782,0.09612209317435609,-0.9531758718060702,-2.069113260145281,0.1377545259782811,2.1376196365275395,-1.2753908512699283,0.0001254278552617662,-9.388860990285024e-05,1.8225580200994206e-05,-0.0008396188560490807,0.000924922018727405,-0.0005480281478509646,0.001128878631257461,0.1935308277606964,-21.79654312133789,-2.4095618724823,22.61603546142578,0.7130838632583618,2.2817275524139404,-0.06037749722599983,,,,,,,,,
1739401905.9700568,0.5255069066044548,0.09612207632311924,-0.9531779515959258,-2.0691103920592964,0.13775462569740027,2.137621731032471,-1.275386337705036,-0.0002574577757147034,-0.0006502435459592391,-0.001176991586153887,0.0009701280181081011,-0.0005288843551353577,0.0005566298658459031,0.0006013144839480981,0.2173345386981964,-21.79654312133789,-2.38179087638855,22.56842803955078,0.7002664804458618,2.2679946422576904,-0.08051909506320953,,,,,,,,,
1739401905.9800625,0.5255087260138349,0.09612206660479872,-0.9531790322626842,-2.0691131675309467,0.1377546265519941,2.137620865137898,-1.2753856868748525,0.00022981855137231498,-0.0009709129051128128,-0.0016642267311934148,-9.821101319415948e-05,-0.000701138553674089,-0.0006602371168205486,0.0020757315596832498,0.1935308277606964,-21.79654312133789,-2.35798716545105,22.61603546142578,0.7002664804458618,2.2753188610076904,-0.07411040365695953,,,,,,,,,
1739401905.99103,0.5255067794914936,0.09612058946683905,-0.9531749357884264,-2.0691099244839606,0.1377557370699353,2.137620865137898,-1.2753885361150659,-0.0008286715854822896,-0.0005329052649942512,0.00027937596910628264,-0.001067668410294436,-0.00017351430703133823,-0.00011170929713137576,-0.00020365965903241097,0.2173345386981964,-21.77273941040039,-2.4095618724823,22.56842803955078,0.6938577890396118,2.2753188610076904,-0.05396880581974983,,,,,,,,,
1739401906.0011625,0.525510438211421,0.09611835517497438,-0.9531776282263112,-2.069107614970285,0.13775736804304012,2.137620865137898,-1.275386901608217,0.0005771528431562635,-0.0010777327083936487,-0.0004333529606591107,-0.0003668178677575247,0.0005849834772815357,-0.0006105386842250358,-0.0001745780865471097,0.1697271168231964,-21.74496841430664,-2.35798716545105,22.54065704345703,0.7066751718521118,2.2753188610076904,-0.06678618490695953,,,,,,,,,
1739401906.0120835,0.525507013494912,0.09611840760098332,-0.9531758703675488,-2.0691086638779326,0.13775346416362472,2.13762173103513,-1.2753871370813386,-0.0003709105864478773,-0.000832017691053657,4.6953443901340974e-05,-0.0015140861133903852,-0.0005536389726027531,-0.00046031028356350917,0.0001987531893068968,0.2173345386981964,-21.74496841430664,-2.4095618724823,22.51685333251953,0.7130838632583618,2.2679946422576904,-0.06678618490695953,,,,,,,,,
1739401906.0230968,0.5255070134949139,0.0961183551718596,-0.95317974593968,-2.0691073854260864,0.1377549792498398,2.137620865137898,-1.2753883791375962,0.00025238491526260575,0.0004057333743763467,-0.00035897365574261505,-0.00012144444627110309,0.0005153404970605037,-0.0007088772796982094,0.000727482537673426,0.2173345386981964,-21.74496841430664,-2.35798716545105,22.54065704345703,0.7002664804458618,2.2753188610076904,-0.05396880581974983,,,,,,,,,
1739401906.0331266,0.5255087259086476,0.09612035311182475,-0.9531797342730107,-2.06910583228808,0.13775405367524168,2.1376225287321287,-1.2753915558031688,0.0008019741029492745,0.0010304058365429554,0.0003285882693359602,0.0004923245838027548,0.00014368832967179051,-0.00043566476740283127,0.00042925881559726666,0.1935308277606964,-21.77273941040039,-2.35798716545105,22.51685333251953,0.6801248788833618,2.2881362438201904,-0.027418512850999832,,,,,,,,,
1739401906.0450268,0.5255070035441506,0.09612406357340901,-0.9531835967398194,-2.0691097019997757,0.1377565635819918,2.1376232463732316,-1.2753892094711992,-0.00030281245465244434,0.00149283326840858,-0.0017980277879518234,-3.862193665172228e-05,0.00024201354335669806,0.0005576624904497528,0.0013853925232180707,0.2173345386981964,-21.82431411743164,-2.3064124584198,22.56842803955078,0.6865335702896118,2.2551772594451904,-0.04756011441349983,,,,,,,,,
1739401906.0551312,0.5255070134948577,0.09612206563255594,-0.9531797343092836,-2.0691097967955185,0.13775532170908242,2.1376201075316543,-1.2753869016063955,-0.00025805361489265454,0.00028450525882253307,-3.261813106172039e-05,-0.00019952815454817507,0.00025904862428402335,-0.0006026238734015168,0.0007348443287635832,0.2173345386981964,-21.79654312133789,-2.35798716545105,22.56842803955078,0.7002664804458618,2.2817275524139404,-0.06678618490695953,,,,,,,,,
1739401906.0661128,0.5255053811071965,0.09611835614303342,-0.953182529318538,-2.0691114802682686,0.13775533483407035,2.137620865137898,-1.2753860873369176,-0.0008378839250757838,-0.0009583390432819239,-0.0009058692359093423,-0.0003878386934210441,-2.302700929763276e-05,-0.000255455810547156,0.0007878195708702897,0.2411382496356964,-21.74496841430664,-2.3302161693573,22.59223175048828,0.7002664804458618,2.2753188610076904,-0.07411040365695953,,,,,,,,,
1739401906.0770404,0.5255087260160974,0.096122065956582,-0.9531797607679358,-2.069111695683855,0.13775660297116596,2.1376201076393246,-1.2753860357092577,-0.0005720434275048516,8.018505386575282e-05,-0.000308046903901469,-0.00015694989272016583,-5.68679828560318e-05,-0.00033537174292064357,0.0008560211976374353,0.1935308277606964,-21.79654312133789,-2.35798716545105,22.59223175048828,0.6865335702896118,2.2817275524139404,-0.07411040365695953,,,,,,,,,
1739401906.08807,0.525508699052288,0.09612035440791254,-0.9531779515963744,-2.06911147785688,0.1377569669442385,2.1376218487727026,-1.2753891765240601,-0.00028364063494729655,-0.0006392131027614815,0.0002922605675759411,0.00013918930712771634,-0.00021579704272701701,0.0006570950647583795,-0.0003179105371180869,0.1935308277606964,-21.77273941040039,-2.38179087638855,22.59223175048828,0.6801248788833618,2.2679946422576904,-0.04756011441349983,,,,,,,,,
1739401906.09817,0.5255108717827048,0.09612293544384398,-0.9531758679541621,-2.0691142549927566,0.13775486114211635,2.1376201074784835,-1.275389111308708,0.0008083812578219855,-0.0005387671396482841,0.00041365815189530104,-0.0018821226856331316,0.0009403228195451032,-8.120018611505834e-06,0.0004360524808383031,0.1935308277606964,-21.79654312133789,-2.4095618724823,22.61603546142578,0.7002664804458618,2.2817275524139404,-0.06037749722599983,,,,,,,,,
1739401906.1090927,0.5255104298816957,0.09612790502223932,-0.9531779487069729,-2.069113545027974,0.13775453473979696,2.1376222150673616,-1.2753912692632858,0.0007974913770471728,0.0010321727055009563,-0.0015772722519660721,-0.00015505707634943426,-0.0009096324721237078,0.0003192058446993023,-0.002182421225825878,0.1697271168231964,-21.84811782836914,-2.38179087638855,22.59223175048828,0.7130838632583618,2.2679946422576904,-0.03382720425724983,,,,,,,,,
1739401906.1190972,0.5255104385362297,0.09612479859613507,-0.9531748577912003,-2.0691135721068665,0.13775664247843433,2.1376201205679686,-1.275390802511933,0.0005122787855249719,0.0005433831381579005,0.0012635023618355814,-0.0006477004915472458,0.0006785036439875304,-0.0006024724743076638,-0.0010029043521686657,0.1697271168231964,-21.82431411743164,-2.4095618724823,22.59223175048828,0.6865335702896118,2.2817275524139404,-0.03382720425724983,,,,,,,,,
1739401906.1310453,0.5255053009741827,0.0961225844656672,-0.9531779419604312,-2.0691096947680747,0.13775497941207188,2.137624911403142,-1.2753904449306186,-0.0003780791626646616,-0.0005406206999892039,-0.0010854818709538495,7.421962045751953e-05,0.0010166439675831,0.0009247295159766234,0.00030620869624662294,0.2411382496356964,-21.77273941040039,-2.38179087638855,22.56842803955078,0.7002664804458618,2.2679946422576904,-0.03382720425724983,,,,,,,,,
1739401906.1411128,0.5255104385363762,0.09612605055216383,-0.9531779166077057,-2.0691115114463456,0.1377535869530267,2.1376224891976787,-1.2753902105466104,0.0008213948611478202,0.001968617305510004,-0.0005441826764785362,-0.0011581841371582026,-0.00012716059487177952,0.00018494465420281425,-0.0012298532413065233,0.1697271168231964,-21.84811782836914,-2.38179087638855,22.59223175048828,0.7130838632583618,2.2615859508514404,-0.04023589566349983,,,,,,,,,
1739401906.152108,0.5255033033603785,0.0961231877533769,-0.953175131035984,-2.0691097071439204,0.1377534640923857,2.1376209843290206,-1.2753924391441775,-0.001161672742140742,0.00016100496849375014,0.0005375812392414411,-0.0006696866300303485,0.000625130096361028,-0.0002940966908851141,-0.000921096578279015,0.2689092457294464,-21.77273941040039,-2.38179087638855,22.56842803955078,0.7130838632583618,2.2753188610076904,-0.020094294100999832,,,,,,,,,
1739401906.1621869,0.5255104385363818,0.09612343599959344,-0.9531778736560355,-2.069111477538458,0.13775146777682215,2.1376208651399162,-1.2753903917581637,0.001989614996725767,0.0017444434137979393,0.0005380131640713103,0.0006600131650223987,-0.00023647126908998297,-0.00015831583628961294,-0.0013741950803466251,0.1697271168231964,-21.77273941040039,-2.38179087638855,22.59223175048828,0.6938577890396118,2.2753188610076904,-0.04023589566349983,,,,,,,,,
1739401906.1730623,0.5255070134949139,0.09611948481464953,-0.9531779515954858,-2.069109694756251,0.1377534139345535,2.13762173103513,-1.2753876650820204,-0.0007840479424907758,-0.0005814281063382006,0.0007599305818983895,-0.00033273664391043515,0.0002197272488328891,0.00042644077477550844,0.0008492788132360284,0.2173345386981964,-21.77273941040039,-2.38179087638855,22.56842803955078,0.6865335702896118,2.2679946422576904,-0.06037749722599983,,,,,,,,,
1739401906.1831114,0.5255060773742355,0.09611464469468275,-0.9531797342729449,-2.0691096947562504,0.13775573750546558,2.13762173103513,-1.2753900464590306,-0.0014286308514146597,-0.0018124403464839494,0.0006173136255351407,-0.0005972797038049167,0.000517595743675826,0.00010071959668551702,-0.00027378775137500616,0.2173345386981964,-21.69339370727539,-2.35798716545105,22.56842803955078,0.6938577890396118,2.2679946422576904,-0.04023589566349983,,,,,,,,,
1739401906.1941223,0.5255045989586375,0.09612035311182467,-0.9531839599390286,-2.069110000873932,0.1377557349657959,2.137620904383754,-1.2753934567450518,-0.0010155717266597617,0.0005349764134601998,-0.001862942126909426,-0.0003480559603974991,-3.822409706260611e-05,8.871121552737012e-05,-0.0005889561328535233,0.2411382496356964,-21.77273941040039,-2.3302161693573,22.56842803955078,0.6938577890396118,2.2753188610076904,-0.04756011441349983,,,,,,,,,
1739401906.2060332,0.5255087259760164,0.09612271522182139,-0.9531762353444417,-2.0691096947579783,0.1377545771720478,2.137622488749265,-1.2753877111706904,0.0009039749564502614,0.0009216226016165095,0.0007687525109676969,0.00022735868974205648,-0.00015856708560177185,0.0009306126409214781,0.0007140824417314453,0.1935308277606964,-21.77273941040039,-2.4333655834198,22.56842803955078,0.7066751718521118,2.2615859508514404,-0.05396880581974983,,,,,,,,,
1739401906.2161548,0.525508967235,0.09612206578989926,-0.953179817028408,-2.0691121671428614,0.13775421737949906,2.137619349817741,-1.2753884169219307,0.0014419797835738025,-0.00016853531185634222,-0.00011869878276778785,-0.00013276566935767039,-0.0017754997966408534,-0.0005093877140008411,0.0007666011376997236,0.1935308277606964,-21.79654312133789,-2.35798716545105,22.59223175048828,0.7066751718521118,2.2881362438201904,-0.05396880581974983,,,,,,,,,
1739401906.2271087,0.5255070134962756,0.09612198671159199,-0.9531740901106648,-2.06911351521225,0.13775346457921245,2.137620460690529,-1.275395036695821,-0.0003080917835114245,-0.001075617459360455,0.0012878907661091402,-0.0009475303812985428,-0.0003949069904483922,0.0005540134633177707,-0.002231072365683495,0.2173345386981964,-21.79654312133789,-2.4333655834198,22.61603546142578,0.7130838632583618,2.2817275524139404,-0.03382720425724983,,,,,,,,,
1739401906.238048,0.5255104385363762,0.09612206563211043,-0.953181814062806,-2.069111554279066,0.13775347725540932,2.137620865139892,-1.2753876652654699,0.0003422072207964204,-0.0010972749946744377,-0.001689867259728308,-0.0008826064070127477,-0.0007152155287021082,0.0005983494125895775,0.0011519114602039037,0.1697271168231964,-21.79654312133789,-2.3302161693573,22.59223175048828,0.7130838632583618,2.2753188610076904,-0.06037749722599983,,,,,,,,,
1739401906.248137,0.5255108631160637,0.09612618979642655,-0.9531779515959258,-2.0691096985367823,0.13775422175199342,2.13762173103513,-1.2753891747476005,-0.00028643187794366305,-0.0006642627394275282,-0.00044628386385873325,0.00029594653462332315,0.00017178105035508824,0.00026828279710123013,-0.000560384462875632,0.1935308277606964,-21.82431411743164,-2.38179087638855,22.56842803955078,0.7066751718521118,2.2679946422576904,-0.04756011441349983,,,,,,,,,
1739401906.2591228,0.5255087247437397,0.09612612025199643,-0.9531758455294779,-2.069107613706673,0.1377566029691596,2.137620107477819,-1.2753915558033833,0.0013031995577020123,-0.0004087797617055938,0.0003784905776015263,0.0011411644390097128,0.0018080463804693823,-0.0006906257877187133,-0.0007390458349181261,0.1935308277606964,-21.84811782836914,-2.38179087638855,22.54065704345703,0.6865335702896118,2.2817275524139404,-0.027418512850999832,,,,,,,,,
1739401906.270114,0.525508964434217,0.09612602249572963,-0.9531748231485258,-2.06911968301759,0.13775544743984605,2.1376227921268094,-1.275390798143304,0.00026271716422743844,-0.0003158738571152549,0.0008273962381158006,-0.00363003361339729,0.0009726714798799171,0.001695870031793657,0.0011388964377826776,0.1935308277606964,-21.84811782836914,-2.4095618724823,22.66364288330078,0.7066751718521118,2.2679946422576904,-0.03382720425724983,,,,,,,,,
1739401906.2810328,0.5255049074654777,0.09612141312852786,-0.9531751697898898,-2.069113261071227,0.1377542217586895,2.1376218487786898,-1.2753876650800375,-0.000543662647888596,-0.0026834615866298097,-0.00010391975541065987,-0.00027224586590789764,-0.0006173307539097467,0.001414361996432688,0.001633584455457567,0.2173345386981964,-21.77273941040039,-2.4095618724823,22.61603546142578,0.7066751718521118,2.2679946422576904,-0.06037749722599983,,,,,,,,,
1739401906.2911255,0.5255104380727207,0.09612437983544234,-0.953177720524056,-2.0691104165893184,0.1377549837997538,2.1376243972669893,-1.2753915616176816,0.0010270058728574954,-0.000971254085667687,-0.00028905750873660596,0.0012338540843082194,-0.0003013144400434209,0.0009595071872551173,-0.00020785261979597324,0.1697271168231964,-21.82431411743164,-2.38179087638855,22.56842803955078,0.7002664804458618,2.2753188610076904,-0.027418512850999832,,,,,,,,,
1739401906.3011353,0.5255087260156373,0.09612454277521287,-0.9531759538974636,-2.069109695713282,0.13775386694931444,2.1376193500390634,-1.2753971159353679,-0.00031774657296300944,-0.0012782845198706669,0.0004049619031655036,-5.8280888397635775e-05,-0.0006778041792051152,-0.000925819876072991,-0.0026747176930243532,0.1935308277606964,-21.79654312133789,-2.4095618724823,22.56842803955078,0.7066751718521118,2.2881362438201904,-0.0072769103571772575,,,,,,,,,
1739401906.3120828,0.525508725803669,0.09612154304338784,-0.9531780310692488,-2.0691061394568493,0.13775565829355743,2.1376224886952095,-1.2753931799170999,0.0006242160492530036,-0.0002934897068075505,-0.0012045203575227212,0.00038151795096467566,-0.00013894009114155044,-0.00014802906528201345,-0.0010689029739208208,0.1935308277606964,-21.74496841430664,-2.38179087638855,22.51685333251953,0.6938577890396118,2.2615859508514404,-0.013685601763427258,,,,,,,,,
1739401906.3231711,0.525505274652809,0.09612343697764819,-0.9531800970425939,-2.0691114774350035,0.13775499203508426,2.1376224886952087,-1.2753945922116452,-0.0007495604362969053,0.0006045708066021351,0.0006247554128391702,-0.0005232105591275425,0.00030573516301575965,0.0011791636057446571,-0.0009759812785651752,0.2411382496356964,-21.77273941040039,-2.38179087638855,22.59223175048828,0.7002664804458618,2.2615859508514404,-0.013685601763427258,,,,,,,,,
1739401906.334094,0.5255104385005618,0.09612282166198786,-0.9531797607760092,-2.0691114774332697,0.13775501890306335,2.137624044213791,-1.2753891789546195,0.0010626477366760985,0.0005777726349955328,-0.0010719431459189602,-0.0005014466001075009,-6.426997851625207e-05,0.0012709878340045181,-0.000492751746877333,0.1697271168231964,-21.77273941040039,-2.35798716545105,22.59223175048828,0.7002664804458618,2.2753188610076904,-0.04756011441349983,,,,,,,,,
1739401906.3450634,0.5255059093078088,0.09612107486359095,-0.9531779515960753,-2.0691096947562504,0.1377557371263218,2.137621027145943,-1.2753869016062231,-0.00022903302042692666,-0.0021615596811213706,-0.00014948074587208945,4.158817105793378e-05,0.0009663237339469289,1.0484259741984407e-05,0.0007264314125738497,0.1935308277606964,-21.77273941040039,-2.38179087638855,22.56842803955078,0.6938577890396118,2.2753188610076904,-0.06678618490695953,,,,,,,,,
1739401906.3551605,0.5255053037745183,0.09612351429322978,-0.9531800973631377,-2.0691069262016106,0.13775254822343447,2.137622243177564,-1.2753891745859933,-0.0008460125899806898,-0.0005902690606182382,2.6768786736683394e-05,0.001625588149497694,-0.0007765901774345466,0.0012018324913230182,0.00028391862709223207,0.2411382496356964,-21.77273941040039,-2.38179087638855,22.54065704345703,0.6938577890396118,2.2679946422576904,-0.04756011441349983,,,,,,,,,
1739401906.3660321,0.5255080240053897,0.09612725227784327,-0.9531797342769825,-2.0691135777394014,0.1377505599892444,2.137620107478783,-1.2753934827922941,0.0008016892888717219,0.0014628574931686848,0.00022929292084522134,-0.0021553578097351306,-0.003092783828621864,-0.00018633973392085342,-0.0008548182081946332,0.1935308277606964,-21.82431411743164,-2.35798716545105,22.59223175048828,0.7066751718521118,2.2817275524139404,-0.020094294100999832,,,,,,,,,
1739401906.376055,0.5255087256827641,0.09612234121205311,-0.9531766665346673,-2.0691114804082402,0.1377541078101529,2.137620865137898,-1.275397233690809,0.0007871361246821683,8.591867264124976e-05,0.0009579879350338054,-0.0005696201795281472,-0.0004223103299862324,-0.0008117333943073829,-0.0013085617678519753,0.1935308277606964,-21.79654312133789,-2.4095618724823,22.59223175048828,0.7066751718521118,2.2753188610076904,-0.0072769103571772575,,,,,,,,,
1739401906.3871505,0.5255059170116234,0.09612696362043857,-0.9531758719195728,-2.069112526344824,0.1377557365852531,2.1376201079623356,-1.2753947136495578,-0.0006747123188324267,0.00016409797633892432,5.4781127890489495e-05,-0.0005269866293452907,4.2810937004864275e-05,-0.0007425058260396001,-0.0005763774461426446,0.1935308277606964,-21.82431411743164,-2.4095618724823,22.56842803955078,0.6938577890396118,2.2817275524139404,-0.0008682189509272575,,,,,,,,,
1739401906.3981624,0.5255069748173121,0.09612621584245033,-0.9531731531153709,-2.0691055527821938,0.1377566103005009,2.1376232922064107,-1.2753876592659437,-0.0007867726556869765,-0.00023667668923714968,0.0013373709940603593,0.0021328360925257023,0.0009552230152187805,-0.0001726762545645021,0.0012674548703720783,0.2173345386981964,-21.82431411743164,-2.4333655834198,22.54065704345703,0.6865335702896118,2.2817275524139404,-0.06037749722599983,,,,,,,,,
1739401906.4100966,0.5255070399856487,0.0961221225536371,-0.9531818127735472,-2.0691114774216284,0.13775450072566134,2.137622790691237,-1.2753891791619847,0.0004664603058431771,-0.0016887465403571653,-0.0019019656737762065,8.959954000426333e-05,-0.0005247708353384815,-6.800509012582344e-05,-0.0006034007455421733,0.2173345386981964,-21.79654312133789,-2.3302161693573,22.59223175048828,0.7002664804458618,2.2679946422576904,-0.04756011441349983,,,,,,,,,
1739401906.421044,0.5255084921576297,0.09612904046149157,-0.9531780310568945,-2.069110417545774,0.13775376954005258,2.1376208653552324,-1.2753860357089748,0.0002565089030234382,0.0007620006020290923,-0.00034327466074255065,0.0008263354961013521,0.0005774453335506631,0.0003401136602919908,0.0009519002671571283,0.1935308277606964,-21.84811782836914,-2.38179087638855,22.56842803955078,0.6865335702896118,2.2753188610076904,-0.07411040365695953,,,,,,,,,
1739401906.4311469,0.52550530064923,0.0961265437901844,-0.9531797342742905,-2.0691134897107903,0.1377524955221038,2.1376243460303397,-1.275393179360803,-0.0008199773594126733,-0.00017096025863403663,-0.0003746870227371511,-0.0009583590840130523,-0.000867094055403107,-0.00022859287026060434,-0.000399343987313677,0.2411382496356964,-21.82431411743164,-2.35798716545105,22.61603546142578,0.6938577890396118,2.2817275524139404,-0.013685601763427258,,,,,,,,,
1739401906.442128,0.5255056579708003,0.09612154401546691,-0.9531779515959258,-2.0691105990901955,0.13775422314210334,2.1376209829532296,-1.2753948298611326,-0.0012920218854848295,-0.00027286856546016426,-1.454247947892611e-05,0.0005528980519088794,-0.0011098243253601068,0.0010335702504054493,-0.0012288148260135021,0.1935308277606964,-21.74496841430664,-2.38179087638855,22.54065704345703,0.7066751718521118,2.2753188610076904,-0.0008682189509272575,,,,,,,,,
1739401906.4530864,0.5255087259636875,0.09612142737205985,-0.9531780050684054,-2.069112450180859,0.1377549795743874,2.137621731037125,-1.275390040485515,0.0005568192537724421,-0.0007958173100062992,5.172840175175754e-05,0.0005069177299228847,-0.0006207647492437789,-0.00042735696685091307,0.0004985073474895353,0.1935308277606964,-21.74496841430664,-2.38179087638855,22.56842803955078,0.7002664804458618,2.2679946422576904,-0.04023589566349983,,,,,,,,,
1739401906.4641464,0.5255052970866084,0.09612036623399958,-0.9531797341662492,-2.0691132602308215,0.13775410348426126,2.137623246355287,-1.275390915396357,-0.0007378750626709837,-0.0011256115366363134,-0.0009883927383102693,-5.39987066242953e-05,-0.0005370397605369452,-2.62685550516389e-05,-0.00035011714102852734,0.2411382496356964,-21.77273941040039,-2.35798716545105,22.61603546142578,0.7066751718521118,2.2551772594451904,-0.03382720425724983,,,,,,,,,
1739401906.4750943,0.5255069874945119,0.0961208048746047,-0.953179743103262,-2.0691103948937197,0.1377522339549434,2.1376225017771606,-1.275394408025658,-0.0002816945291267722,-6.866537215332832e-06,-0.0008523384342266245,0.0005074360268584739,-0.0019129390323561024,0.0014345901858021683,-0.0023445532069168093,0.2173345386981964,-21.74496841430664,-2.35798716545105,22.56842803955078,0.7194925546646118,2.2615859508514404,-0.0072769103571772575,,,,,,,,,
1739401906.4860919,0.5255084920002874,0.09612137813752429,-0.9531779515959423,-2.0691076179421066,0.13775422176893865,2.1376208651379223,-1.275391909501495,0.00019142660969028336,0.00011475692288122763,0.00036764914042572807,0.00044730469793469857,-0.0002786289933577332,-0.0006544738439912036,-0.0010451895235559397,0.1935308277606964,-21.77273941040039,-2.38179087638855,22.54065704345703,0.7066751718521118,2.2753188610076904,-0.027418512850999832,,,,,,,,,
1739401906.4961352,0.5255070131699585,0.09612567170965781,-0.9531779515959258,-2.06911147743332,0.13776101589782264,2.1376236439655676,-1.2753931808203431,-0.00024291964107945967,0.001546798037381405,0.0012772055977859564,-0.0003078972921630559,0.0015984376019656096,-0.00020103584385436,-0.001022221914732316,0.2173345386981964,-21.77273941040039,-2.38179087638855,22.59223175048828,0.6737161874771118,2.2817275524139404,-0.013685601763427258,,,,,,,,,
1739401906.5070794,0.5255024929331381,0.09612146435851444,-0.9531779520319908,-2.0691096947562504,0.1377543415963536,2.13761935134509,-1.275392522074829,-0.0015383342018658263,-0.0007196256785854287,-9.765610258851066e-05,0.00028424261031234014,-0.0003428104423315251,-0.0001633426400962252,-0.0006785578781268775,0.2411382496356964,-21.74496841430664,-2.38179087638855,22.56842803955078,0.7066751718521118,2.2881362438201904,-0.05396880581974983,,,,,,,,,
1739401906.5180833,0.5255070135154012,0.09612206997038174,-0.9531785780289077,-2.0691076911808794,0.13775893585520668,2.1376208656762583,-1.2753884561949451,-0.00037187008553240836,-0.0004188202752267447,-0.00036894291346210574,0.0007815005432278017,-0.00040729589415571216,0.0003874539765975834,-0.00021314543511587088,0.2173345386981964,-21.79654312133789,-2.35798716545105,22.54065704345703,0.6938577890396118,2.2753188610076904,-0.05396880581974983,,,,,,,,,
1739401906.5281217,0.5255069394183598,0.09612354190639025,-0.9531768254608055,-2.069111553963981,0.13775406433194237,2.13762173684934,-1.275394709949877,-0.0005235008362729014,-0.0007418765261722938,6.958188104714527e-05,-0.0011812288924485743,0.0009838635307503885,0.00010806767756959851,-0.003075058134784884,0.2173345386981964,-21.77273941040039,-2.4095618724823,22.59223175048828,0.7066751718521118,2.2679946422576904,-0.013685601763427258,,,,,,,,,
1739401906.538228,0.5255087260143906,0.09612351182640576,-0.9531749358085395,-2.0691114775395443,0.13775356214318493,2.1376217441171805,-1.2753862469254347,0.00018222429951668807,-0.0012944900238626169,0.0005132229090473097,-7.888771092102418e-05,-0.00017532323233938454,0.00039341161406285474,-0.0002764824156150859,0.1935308277606964,-21.77273941040039,-2.4095618724823,22.59223175048828,0.7002664804458618,2.2679946422576904,-0.06037749722599983,,,,,,,,,
1739401906.549018,0.5255087260156451,0.09612895608590315,-0.953181880034873,-2.0691090059914665,0.137754506981849,2.1376249099495914,-1.2753868668745256,7.577747020165228e-05,0.000884284251986472,-0.0013874057666929205,0.000746083188049938,-0.0009667504442544361,0.0011747537829412845,0.0006687338380893706,0.1935308277606964,-21.84811782836914,-2.35798716545105,22.56842803955078,0.7002664804458618,2.2679946422576904,-0.06678618490695953,,,,,,,,,
1739401906.5590348,0.5255086970193364,0.09612525578001195,-0.9531779781232177,-2.069109694744586,0.13775789442009173,2.13762010769316,-1.2753900404826373,-0.00044276203641621084,-0.0003415900597734493,-2.8778344498780225e-05,0.0002618865401719237,0.0004895585281377861,-0.0008599516729861599,8.191712668657901e-05,0.1935308277606964,-21.79654312133789,-2.38179087638855,22.56842803955078,0.7066751718521118,2.2817275524139404,-0.04023589566349983,,,,,,,,,
1739401906.5690885,0.5255053009736915,0.09612154110330398,-0.9531800521648329,-2.06910969475625,0.13775421986984399,2.1376222063460637,-1.2753947739636269,-0.0006971619775511159,-0.001887778765522308,-0.0011134553863592096,-0.00012160409002451772,-0.0007518362142273373,0.00022926854637209622,-0.0007442542143585854,0.2411382496356964,-21.74496841430664,-2.35798716545105,22.56842803955078,0.7066751718521118,2.2679946422576904,-0.027418512850999832,,,,,,,,,
1739401906.5791082,0.5255087260156451,0.09613067746331747,-0.9531779604316271,-2.069113974384879,0.1377567155291209,2.1376186314115686,-1.2753884189184814,0.0009125886320599809,0.002924360002779319,-0.000494368295139098,-0.0009867150594448178,0.0010623832702023757,-0.001615781223815384,0.0019837672342354626,0.1935308277606964,-21.87192153930664,-2.38179087638855,22.61603546142578,0.7130838632583618,2.2945449352264404,-0.05396880581974983,,,,,,,,,
1739401906.5901358,0.5255065160196817,0.09612725198987704,-0.9531797460467517,-2.0691097032985444,0.13775194878988992,2.137620867237692,-1.275388717504262,-0.0005100738671455233,-0.00013881125161889594,0.0001595321983335162,0.0005056293066729503,-0.001184393710463583,-0.000407071110043049,-0.0008328682610508834,0.1935308277606964,-21.82431411743164,-2.35798716545105,22.56842803955078,0.7259012460708618,2.2753188610076904,-0.06037749722599983,,,,,,,,,
1739401906.6010237,0.525506900814125,0.09613188501833235,-0.9531818800402232,-2.069115078060175,0.13775707686287864,2.1376217312504826,-1.2753884174164052,-0.0008968680413382868,0.002369513597713221,-0.0007024637669513683,-0.0020441367735430246,0.0019132431407620418,0.0009464592162683924,0.0005111148985030786,0.2173345386981964,-21.84811782836914,-2.35798716545105,22.63983917236328,0.6865335702896118,2.2679946422576904,-0.05396880581974983,,,,,,,,,
1739401906.6110375,0.5255084916893242,0.09612354211803116,-0.9531779517412808,-2.069107651814491,0.1377549784493267,2.137620869498552,-1.2753924202470726,0.0001574176742086505,0.0004735455515894638,0.00022412776381747703,0.0009918259036038482,-0.0011673907886682404,-1.5839832655568595e-05,0.0005650789078536775,0.1935308277606964,-21.77273941040039,-2.38179087638855,22.54065704345703,0.7002664804458618,2.2753188610076904,-0.020094294100999832,,,,,,,,,
1739401906.6210587,0.5255087260116768,0.09612583681159374,-0.9531779512749359,-2.0691076159118262,0.13775566773453593,2.1376201598057016,-1.2753948124185048,0.00017594461048067424,0.0019480013735936076,0.0006455598359655617,0.0004815407940140094,0.0007220742513779762,-0.0013586417132893443,-0.0005695069122356889,0.1935308277606964,-21.82431411743164,-2.38179087638855,22.54065704345703,0.6938577890396118,2.2817275524139404,-0.0008682189509272575,,,,,,,,,
1739401906.631115,0.5255053006531902,0.09612525434907106,-0.9531797342729394,-2.069109758105119,0.13775346555315282,2.1376264928666218,-1.2753925394401784,-0.0007422285543411367,0.0017967114824025611,-0.00022004233351956065,0.0006746407382798459,-0.00029574990758168834,0.0018580435570385973,-0.0004897423718252143,0.2411382496356964,-21.79654312133789,-2.35798716545105,22.54065704345703,0.7130838632583618,2.2679946422576904,-0.020094294100999832,,,,,,,,,
1739401906.642108,0.5255067794914918,0.09612154401946642,-0.9531758718060702,-2.06910969490832,0.13775573707193545,2.137620107558535,-1.2753924609471359,-0.0009003796210151397,-0.00034617600823221495,0.0004340236829345184,-2.0338358347214865e-05,0.00043001559428445683,0.00032903628914508174,-0.0013109320778435392,0.2173345386981964,-21.74496841430664,-2.4095618724823,22.56842803955078,0.6938577890396118,2.2817275524139404,-0.020094294100999832,,,,,,,,,
1739401906.653101,0.525507013493593,0.09612525437304455,-0.9531797256061515,-2.0691096816806622,0.13775346409169215,2.1376256677711027,-1.2753837226920322,-0.00044228978191553233,-0.00021685882229839596,-0.0005057663255112715,0.0008507763809210518,-0.0007032574694246651,0.0009539984152428236,0.0012688527956007107,0.2173345386981964,-21.79654312133789,-2.35798716545105,22.54065704345703,0.7130838632583618,2.2615859508514404,-0.06678618490695953,,,,,,,,,
1739401906.6640909,0.5255094232375859,0.09612738545536073,-0.9531758689170902,-2.0691096947679166,0.1377566029691596,2.137620120577717,-1.2753883899530014,-0.00024187011535745507,0.0005452977810462733,-7.47379114841874e-05,-0.0007119794808223468,0.0011724856356622496,-0.00037076119996441877,-0.0007002133991132585,0.1697271168231964,-21.79654312133789,-2.4095618724823,22.56842803955078,0.6865335702896118,2.2817275524139404,-0.027418512850999832,,,,,,,,,
1739401906.6750882,0.5255042025592086,0.09612070646829192,-0.9531765958921089,-2.069107731445933,0.13775742053437343,2.137622790673333,-1.275387974308409,-0.001442984832129074,-0.0010649367075276505,0.0008420997233334169,-0.0009512405089294883,0.0002204711299799323,0.00012630452160910808,-0.00027703615590971204,0.2173345386981964,-21.77273941040039,-2.4095618724823,22.56842803955078,0.7066751718521118,2.2679946422576904,-0.06678618490695953,,,,,,,,,
1739401906.6860497,0.5255063859338394,0.09612354191230091,-0.9531723064642945,-2.0691096943030867,0.13775497946602053,2.137620107495764,-1.275386906631038,-0.0008290050586488935,-0.00028184697496850457,0.0017350896367539217,0.0006305672096093029,-0.0012944495040082922,-0.0004573043212683094,0.0011403160181323898,0.1935308277606964,-21.77273941040039,-2.4571692943573,22.56842803955078,0.7002664804458618,2.2817275524139404,-0.06678618490695953,,,,,,,,,
1739401906.696074,0.5255067794782838,0.09612525156486595,-0.953182532261977,-2.069111993473284,0.1377557370719275,2.1376201118384697,-1.275388417141284,-0.0004034490675600135,0.0001732545425009113,-0.0015847927108539625,-0.0004848507216035557,-2.878712563293695e-05,8.1440347669885e-05,0.0017254980633903665,0.2173345386981964,-21.79654312133789,-2.3302161693573,22.56842803955078,0.6938577890396118,2.2817275524139404,-0.05396880581974983,,,,,,,,,
1739401906.7070484,0.5255070134935929,0.09612747452310384,-0.95317795159998,-2.069112475478141,0.13775072761385487,2.1376201089313938,-1.275388416925916,0.00038829942030015204,0.0006299196996710884,-0.00034143172270774375,-0.0008585800719352588,-0.0012914057293432104,0.00046451346931470516,-0.00020254121629823771,0.2173345386981964,-21.82431411743164,-2.38179087638855,22.56842803955078,0.7002664804458618,2.2817275524139404,-0.05396880581974983,,,,,,,,,
1739401906.7180812,0.5255069871735415,0.09612725242315824,-0.9531818180964023,-2.0691106896544134,0.13775501904150558,2.1376208652994113,-1.275386246899514,-0.0004590787385759552,0.0010847267938478287,-0.0011778874428915256,0.00018468595599584734,-8.286004830069718e-05,-0.00035860393013599555,0.001439835057431535,0.2173345386981964,-21.82431411743164,-2.3302161693573,22.56842803955078,0.7002664804458618,2.2753188610076904,-0.06037749722599983,,,,,,,,,
1739401906.7281632,0.5255087260151993,0.09612525448105143,-0.9531800935112978,-2.069114487607323,0.13775346409236328,2.137620775750535,-1.275391555617958,0.0009367757288152037,0.0001493960103962109,0.00047410164713626465,-0.001607782568240266,-0.0011446941315075006,0.0006268136770802057,0.001573454924983913,0.1935308277606964,-21.79654312133789,-2.38179087638855,22.59223175048828,0.7130838632583618,2.2881362438201904,-0.027418512850999832,,,,,,,,,
1739401906.7391164,0.5255070019391894,0.09612493661686668,-0.9531779604383347,-2.0691117950806706,0.13775393366530497,2.1376193498257905,-1.2753900012373678,-0.00043225512330111,-0.001403938379567302,9.42412755350517e-05,-0.0003726456563903982,0.000739188156687489,-0.0010167987981992378,0.001051718337196082,0.2173345386981964,-21.79654312133789,-2.38179087638855,22.56842803955078,0.7130838632583618,2.2881362438201904,-0.04023589566349983,,,,,,,,,
1739401906.7510908,0.5255080235773294,0.09612502075922866,-0.9531786688321752,-2.069113951721352,0.1377549926323857,2.13762173103513,-1.2753887189037443,6.46507981305933e-05,-0.0011164935700532107,-9.254428208645099e-05,-0.0005178320117149594,-0.00024764245792459685,5.2948802189764846e-05,-5.162849973908379e-05,0.1935308277606964,-21.79654312133789,-2.38179087638855,22.61603546142578,0.7002664804458618,2.2679946422576904,-0.06037749722599983,,,,,,,,,
1739401906.761094,0.5255087260116799,0.09612525156354686,-0.9531740891331,-2.0691076151102705,0.13775497941192347,2.1376209828754678,-1.275388130222098,0.0003529852398794995,0.000164614963199377,0.0019874598462780385,0.0010109777476881268,0.0006832131341264268,0.0007419563838122073,-0.0005876015179900461,0.1935308277606964,-21.79654312133789,-2.4333655834198,22.54065704345703,0.7002664804458618,2.2753188610076904,-0.06037749722599983,,,,,,,,,
1739401906.773011,0.5255123989211248,0.0961280946637075,-0.9531758458056901,-2.0691096948612295,0.13775486130634904,2.137622084248504,-1.2753900622891379,0.001044148272674251,0.0013350322245226478,0.0007047787401033537,-0.00043150646413830376,-0.00037199221082727304,0.0009762637002532038,-0.00028190541016450733,0.1419561207294464,-21.79654312133789,-2.4095618724823,22.56842803955078,0.7002664804458618,2.2679946422576904,-0.04023589566349983,,,,,,,,,
1739401906.7831233,0.525507013459036,0.0961252243631708,-0.9531768254802399,-2.069110613144289,0.137752548222765,2.1376210352052705,-1.2753953503563604,-0.0016239537392961096,-0.00011262830894350113,0.0005149110190455556,-0.0006793740702134812,-0.0014615753750967886,-2.4444555664441257e-05,-0.002174143447063381,0.2173345386981964,-21.79654312133789,-2.4095618724823,22.56842803955078,0.6938577890396118,2.2753188610076904,-0.0072769103571772575,,,,,,,,,
1739401906.794085,0.5255080240053842,0.09612567282620092,-0.9531761897028925,-2.0691096976308505,0.13775497744972426,2.1376204096183358,-1.2753860357169444,9.33989851985875e-05,6.390672668289378e-05,-0.00021777029548330487,-0.0011155539647262564,-0.0008042753080559064,-0.00047608660538285747,0.0018478947362039584,0.1935308277606964,-21.77273941040039,-2.4095618724823,22.56842803955078,0.7002664804458618,2.2881362438201904,-0.07411040365695953,,,,,,,,,
1739401906.8040948,0.525507013459248,0.09612721753594151,-0.9531817360778111,-2.0691076404763478,0.1377542217516708,2.1376201075316623,-1.2753866908997273,-0.0001785630567170975,7.932356993574526e-05,-0.0007264810413377946,-0.00021519198521329115,-0.0013484738396300053,-0.0010668303729762863,0.000576699389494607,0.2173345386981964,-21.82431411743164,-2.3302161693573,22.54065704345703,0.7066751718521118,2.2817275524139404,-0.08051909506320953,,,,,,,,,
1739401906.815106,0.525510435647445,0.09612323379794115,-0.9531786668515163,-2.069111480244412,0.13775497941184886,2.1376202645150806,-1.2753950879869738,0.0012106676983131637,-0.0008824164653771095,0.00023453830372650172,-0.0012788535397103258,-0.0006758314011188348,-0.00027939619670936636,-0.0018142687650463023,0.1697271168231964,-21.79654312133789,-2.38179087638855,22.59223175048828,0.7002664804458618,2.2817275524139404,-0.027418512850999832,,,,,,,,,
1739401906.8251219,0.5255087260155962,0.09612117399054627,-0.9531751698079224,-2.0691078445547038,0.13775238637515416,2.1376201132946795,-1.2753878169551032,-5.734025691336819e-05,-0.00048705026198074325,0.0008588961995548523,0.0021468328719663936,-0.0014767420558743044,-0.0006131944907427046,-0.0004049518748878111,0.1935308277606964,-21.77273941040039,-2.4095618724823,22.54065704345703,0.6938577890396118,2.2817275524139404,-0.06037749722599983,,,,,,,,,
1739401906.8360782,0.5255070134949139,0.0961237001171932,-0.953175871481115,-2.0691096947575462,0.13775533024517966,2.1376232863922398,-1.2753900406994565,0.0001418561877089122,0.0005035546533164115,0.0009545448126136127,-0.00013172157391118925,-0.0008929473769555312,0.0007201563690752899,0.0006451751412306406,0.2173345386981964,-21.77273941040039,-2.4095618724823,22.56842803955078,0.6938577890396118,2.2817275524139404,-0.04023589566349983,,,,,,,,,
1739401906.8471122,0.525508647051528,0.09612806939101187,-0.9531752231367571,-2.069111565300382,0.1377549794095523,2.1376243635447194,-1.275387255464932,0.0005056736540526656,0.00046680926657494365,-4.6226371014260344e-05,-0.0006662769880163555,-0.00033162681582689195,0.0017631692199826412,0.0005865240211474626,0.1935308277606964,-21.79654312133789,-2.38179087638855,22.59223175048828,0.7002664804458618,2.2817275524139404,-0.06678618490695953,,,,,,,,,
1739401906.8580186,0.5255070891154197,0.09612524571238383,-0.9531768520649538,-2.0691132602157634,0.13775742021085755,2.137624057158263,-1.2753924217026122,-0.0002662547483274411,-0.0004203406364572517,-0.0011608059186211071,-0.00046950774985771355,0.00010855675014337227,5.012744908876355e-05,0.00031839755932968234,0.2173345386981964,-21.79654312133789,-2.4095618724823,22.61603546142578,0.7066751718521118,2.2753188610076904,-0.020094294100999832,,,,,,,,,
1739401906.8680246,0.5255070134961944,0.0961293832878067,-0.9531789052868429,-2.0691135402633285,0.13775660302332576,2.137623246409344,-1.2753869074203996,0.0007466097514007489,0.001072425872422156,0.00010276859453863901,-8.036708338676507e-05,0.0008356882032961006,0.0013520840418562083,0.0017067241002422743,0.2173345386981964,-21.82431411743164,-2.38179087638855,22.59223175048828,0.6865335702896118,2.2551772594451904,-0.06678618490695953,,,,,,,,,
1739401906.8780503,0.5255077120008241,0.09612725245799088,-0.9531780173774569,-2.0691135440774917,0.13775494004334982,2.1376201079623365,-1.2753938476335043,-6.736529986901921e-05,-0.0007721114222658909,0.00016654959127111366,0.0003300392226915345,-0.000977954785967133,-0.0005588751795907768,-0.0013667465938871604,0.1935308277606964,-21.82431411743164,-2.4095618724823,22.59223175048828,0.7002664804458618,2.2817275524139404,-0.020094294100999832,,,,,,,,,
1739401906.8880665,0.5255104385192038,0.0961272525301643,-0.9531789054155939,-2.0691114774682684,0.1377534645785704,2.1376242010357203,-1.2753876592899849,0.0009272483751269566,0.0009470080624944541,-0.0015842977571221837,0.00063808363460992,-0.00038375267541240727,0.0009217258716090047,0.0016459332512531513,0.1697271168231964,-21.82431411743164,-2.38179087638855,22.59223175048828,0.7130838632583618,2.2753188610076904,-0.06037749722599983,,,,,,,,,
1739401906.898085,0.5255031130903521,0.09612354196032205,-0.9531779512910864,-2.0691076539717055,0.13775573707193545,2.137622488751702,-1.275388416925915,-0.0017621660752292338,-0.0002866159924772566,0.0005379559615780364,0.00015312300621526644,0.0006054016620525071,0.00086675586922328,0.002366832652655926,0.2411382496356964,-21.77273941040039,-2.38179087638855,22.56842803955078,0.6938577890396118,2.2615859508514404,-0.05396880581974983,,,,,,,,,
1739401906.9090555,0.5255124351809092,0.09612144236831151,-0.953177950420971,-2.069109696144445,0.13775604551070622,2.1376206176739556,-1.2753879612981631,0.001181708328602701,-0.0021894582982561832,-4.72652846466725e-05,0.0005681324026122292,0.0011142973592597177,0.001032432706301411,0.0015963469443122994,0.1419561207294464,-21.77273941040039,-2.38179087638855,22.56842803955078,0.7002664804458618,2.2817275524139404,-0.06678618490695953,,,,,,,,,
1739401906.9200346,0.5255069874945119,0.0961272523863477,-0.9531779529041011,-2.0691104090308645,0.13775341413871858,2.137620865146538,-1.2753869016241446,-0.0004892758718052931,0.00011673382855781097,4.910664893452865e-05,0.0003954682278327411,-6.78098040346628e-05,-0.00028616098795225834,0.0023887525426847336,0.2173345386981964,-21.82431411743164,-2.38179087638855,22.56842803955078,0.6865335702896118,2.2753188610076904,-0.06678618490695953,,,,,,,,,
1739401906.9300642,0.525506909493247,0.09612725242190427,-0.9531779515959331,-2.069109694795275,0.13775496621701108,2.1376220900620404,-1.2753869030597489,-0.0006986751722765654,0.0014697481124323955,7.632366241995623e-05,-0.00017596435268560956,-1.4012649181806497e-05,0.000501287522891028,0.001570271037853319,0.2173345386981964,-21.82431411743164,-2.38179087638855,22.56842803955078,0.7002664804458618,2.2679946422576904,-0.06678618490695953,,,,,,,,,
1739401906.9400873,0.5255097278575609,0.09612596476973498,-0.9531819200266133,-2.0691117619954107,0.13775346994200843,2.137620107483899,-1.2753915608100799,0.0013890455802022647,-8.634690623718239e-05,-0.00216052840425235,-0.0006542934329843454,-0.001011677705474866,0.0008016950204538498,-0.001998051117693692,0.1697271168231964,-21.79654312133789,-2.3302161693573,22.56842803955078,0.7130838632583618,2.2817275524139404,-0.027418512850999832,,,,,,,,,
1739401906.9501054,0.5255084920001895,0.09612354197234901,-0.9531779515977202,-2.0691076235046726,0.13775420862903626,2.137620866591448,-1.2753857875990866,0.0006429994358697935,-0.00012036069634860838,-0.00020056981630102758,0.00087032677988772,-0.0004748357638607643,6.525547915682011e-05,0.0003605928333679355,0.1935308277606964,-21.77273941040039,-2.38179087638855,22.54065704345703,0.7066751718521118,2.2753188610076904,-0.08051909506320953,,,,,,,,,
1739401906.961092,0.5255087258716608,0.09612354196032029,-0.9531772507121665,-2.069111708421294,0.13775497941177478,2.137622894720252,-1.2753860400724932,-0.00011105300039820749,0.00020711827897672042,-0.00044048212256721724,-0.0005784017101811559,-0.0007689781127235773,0.0005834166064014725,0.0017470114671672514,0.1935308277606964,-21.77273941040039,-2.38179087638855,22.59223175048828,0.7002664804458618,2.2615859508514404,-0.07411040365695953,,,,,,,,,
1739401906.9711199,0.5255067794914913,0.09612354196032022,-0.9531758717942006,-2.0691114021675046,0.13775573755947218,2.1376217891840157,-1.2753892937771871,-0.000675205106092796,-0.00023236126243142646,0.0007358419899720722,-0.0005005895076352995,0.000321714975023657,0.0002360148816590251,0.00030171778304409616,0.2173345386981964,-21.77273941040039,-2.4095618724823,22.59223175048828,0.6938577890396118,2.2679946422576904,-0.04756011441349983,,,,,,,,,
1739401906.9821293,0.5255086475851943,0.09612903219885977,-0.9531826747687537,-2.0691114660951526,0.13775496191474051,2.137625969749481,-1.275387659428015,0.00026988731386197093,0.0019327542434139694,-0.001061905647417633,0.00019327026075800644,-0.00023820374320223308,0.0011814990336685598,0.00032509799402456876,0.1935308277606964,-21.84811782836914,-2.35798716545105,22.59223175048828,0.7002664804458618,2.2679946422576904,-0.06037749722599983,,,,,,,,,
1739401906.9930406,0.5255087221632943,0.09611946237237015,-0.9531758455817428,-2.069111477538184,0.13775497941175008,2.1376209102218833,-1.2753876650800384,0.0011121632201664742,-0.0009518569247029601,0.0003524422516789015,-0.0006105133792855307,0.00021447263737016116,-0.00028408862139027235,-0.001880472956442148,0.1935308277606964,-21.74496841430664,-2.38179087638855,22.59223175048828,0.7002664804458618,2.2753188610076904,-0.06037749722599983,,,,,,,,,
1739401907.0040157,0.5255086393476465,0.09612354192506734,-0.9531798176347247,-2.0691124212961234,0.13775274592275705,2.1376240571350014,-1.2753891747475972,0.00036522285915738793,-0.00045566402892429226,-0.0003833852701872523,-0.00027184384245021453,-0.0006551332587065962,-0.0002012995102840901,0.0012899297935462628,0.1935308277606964,-21.77273941040039,-2.35798716545105,22.59223175048828,0.7194925546646118,2.2753188610076904,-0.04756011441349983,,,,,,,,,
1739401907.014129,0.5255052923069,0.09612721742768211,-0.9531839598304829,-2.069111783661258,0.13775103290349794,2.1376240484309554,-1.2753924217006156,-0.0003843440112003925,0.0006981147201010163,-0.000527084489732439,0.0006825268510029987,-0.0011116405649880066,2.3165921812664716e-05,-0.0005958569288645667,0.2411382496356964,-21.82431411743164,-2.3302161693573,22.59223175048828,0.7066751718521118,2.2753188610076904,-0.020094294100999832,,,,,,,,,
1739401907.0250845,0.5255087260154984,0.09612756810517122,-0.9531758718424089,-2.0691076404813877,0.13775621074963243,2.1376209107363815,-1.275388927122051,-2.0048951588739225e-06,0.0011264264123375123,0.001963989044393682,0.0019454356767881322,0.0010571658173659662,-0.0009048543113942903,-2.1958267801490004e-05,0.1935308277606964,-21.82431411743164,-2.4095618724823,22.54065704345703,0.6938577890396118,2.2753188610076904,-0.05396880581974983,,,,,,,,,
1739401907.0370646,0.5255084920122249,0.0961268156283784,-0.9531818170062397,-2.0691103835210822,0.1377545286793448,2.1376193498178266,-1.2753887697791846,0.0008026393849474354,0.0007733029163901396,-0.001102085544708413,0.0002956980151332372,-0.0004966701152553738,-0.0007045747025688412,8.453163222269921e-05,0.1935308277606964,-21.82431411743164,-2.3302161693573,22.56842803955078,0.7130838632583618,2.2881362438201904,-0.06037749722599983,,,,,,,,,
1739401907.0470843,0.525507013493593,0.09612725241943877,-0.9531780578868041,-2.0691099243483997,0.13775346409770178,2.137620107477819,-1.2753931969711803,0.0005527239195168495,0.001557813739389767,-0.0010766145141584528,0.0006597489180039003,-0.0012717965332613864,-0.0007826402901571586,-0.0007841322201277469,0.2173345386981964,-21.82431411743164,-2.38179087638855,22.56842803955078,0.7130838632583618,2.2817275524139404,-0.013685601763427258,,,,,,,,,
1739401907.0571089,0.525508648014505,0.0961252557801619,-0.9531797082743649,-2.0691134898074166,0.1377514854364483,2.1376224886952087,-1.275388063713503,-0.0005198413314013514,1.6787336951081065e-06,-0.00025056096995588247,-1.1610906777027711e-05,-0.0004041383312687189,0.0007881228841109041,-0.00012176319058154045,0.1935308277606964,-21.79654312133789,-2.35798716545105,22.61603546142578,0.6938577890396118,2.2615859508514404,-0.05396880581974983,,,,,,,,,
1739401907.0680423,0.5255104125346752,0.09612725242192648,-0.9531751543652226,-2.0691132601141784,0.13775497885381618,2.1376201076393246,-1.2753937854028976,0.0004189846303826221,0.00045766738212644326,0.00037566623854187037,0.0002525382959268455,-0.0009659269236067926,-0.0008421978636642112,-0.001986051322338094,0.1697271168231964,-21.82431411743164,-2.38179087638855,22.61603546142578,0.7002664804458618,2.2817275524139404,-0.04756011441349983,,,,,,,,,
1739401907.0791187,0.5255070048280716,0.0961272524099037,-0.9531804495115301,-2.0691115029430764,0.1377582220734988,2.137624083298143,-1.2753869059934704,-0.0006059081359311219,0.0007501810066644298,-0.0012115888873896598,-0.00025643513843453077,0.0006384746947122031,-0.000666994305880782,0.0017245444030657199,0.2173345386981964,-21.82431411743164,-2.35798716545105,22.59223175048828,0.7002664804458618,2.2753188610076904,-0.06678618490695953,,,,,,,,,
1739401907.090076,0.5255032037735715,0.09612522812737771,-0.9531779604383561,-2.0691096961214046,0.13775848685015585,2.137624044268291,-1.2753939389590228,-0.0010447039786336343,-0.00019476268741673125,-0.0007969553424593688,0.0010832603635120136,0.0013502749180177738,0.0006387010657504156,-0.0014785353742080066,0.2411382496356964,-21.79654312133789,-2.38179087638855,22.56842803955078,0.7066751718521118,2.2753188610076904,-0.0072769103571772575,,,,,,,,,
1739401907.102047,0.5255084563781282,0.09612529840774449,-0.9531758718060869,-2.0691123982941404,0.13775258853282502,2.13762053349814,-1.2753908396337785,-0.00039736288866636874,-0.00023931975547432548,0.0011059936712886648,0.00012001310607501992,-0.0005396301288683205,-0.00012560058179055477,0.0006503999275899165,0.1935308277606964,-21.79654312133789,-2.4095618724823,22.59223175048828,0.7194925546646118,2.2881362438201904,-0.06037749722599983,,,,,,,,,
1739401907.1120903,0.5255084929918492,0.09612234024024179,-0.9531779779798815,-2.069105832399553,0.1377549794111833,2.1376218662219846,-1.2753872550522023,2.5992022462952482e-05,-0.0016024963835553764,-0.0002622739059827497,0.0004171041398922876,0.0008814162716215445,0.0003039151946120937,-0.0008448250329943992,0.1935308277606964,-21.79654312133789,-2.38179087638855,22.51685333251953,0.7002664804458618,2.2679946422576904,-0.06678618490695953,0,0,0,0.000,0,0
1739401907.1231098,0.5255066199835476,0.09612228435945047,-0.9531758758398211,-2.069115042822301,0.13775345730694355,2.137620146724439,-1.2753956006169977,0.0001773841485381141,-0.0008748910012409751,0.000832508207364276,-0.0016661326439700083,-0.00012250441664959634,-0.0009313255215523934,-0.002103542748000606,0.1935308277606964,-21.77273941040039,-2.4095618724823,22.63983917236328,0.7130838632583618,2.2817275524139404,-0.020094294100999832,0,0,0,0.000,0,0
1739401907.1340065,0.5255084139991962,0.09612525447395222,-0.9531818141718394,-2.0691076297216418,0.13775664975142346,2.1376193518098647,-1.275391560181978,0.0001969203974050597,0.0004381916003728936,-0.0007987752649318365,0.00024401300434544922,0.0005831348677971908,-0.0007219627427894541,-0.0005242792578331742,0.1935308277606964,-21.79654312133789,-2.3302161693573,22.56842803955078,0.7130838632583618,2.2881362438201904,-0.027418512850999832,0,0,0,0.000,0,0
1739401907.1441183,0.5255067000941027,0.09611770430365657,-0.9531797342729467,-2.0691111712806163,0.13775196198919928,2.137620582788783,-1.2753905178938028,-0.0005513467734475654,-0.0019160690468396822,-0.00010904305788514814,-0.0006326654772492424,-0.002067678460249813,0.0003331077877829411,-0.0010265908256542901,0.2173345386981964,-21.72116470336914,-2.35798716545105,22.59223175048828,0.7259012460708618,2.2817275524139404,-0.04023589566349983,0,0,0,0.000,0,0
1739401907.155008,0.525510204495521,0.0961235331997566,-0.9531741955289292,-2.0691097042025985,0.13775462509542397,2.137621893081748,-1.2753884169286096,0.0008218670562544023,0.00026796530283729517,0.0015449040612065769,-6.875048800492951e-05,-0.000665675334945482,-3.03340303853375e-06,-0.0003772484158308575,0.1697271168231964,-21.77273941040039,-2.4333655834198,22.56842803955078,0.7002664804458618,2.2679946422576904,-0.05396880581974983,0,0,0,0.000,0,0
1739401907.1651154,0.5255066435749947,0.09612525448060633,-0.9531751711094104,-2.0691114859370185,0.13775573705392605,2.1376216424351115,-1.2753884280698,-0.0005331084798097097,-0.0001214762865512399,0.000849551969974975,0.00025624159367867137,0.0006194235259510853,-3.870643862767859e-05,0.0010558293136136644,0.1935308277606964,-21.79654312133789,-2.4095618724823,22.59223175048828,0.6938577890396118,2.2817275524139404,-0.05396880581974983,0,0,0,0.000,0,0
1739401907.1760807,0.5255087250409126,0.09612549124394594,-0.9531797372124287,-2.0691106131093435,0.13775180378123933,2.1376211671246135,-1.2753933363981276,-0.0009775394078796746,0.0009929452529913358,0.00010301642285557476,-0.0002069634231492342,0.0002783587646155492,-0.0004855009358761122,-0.002038221386666323,0.1935308277606964,-21.79654312133789,-2.35798716545105,22.56842803955078,0.7002664804458618,2.2817275524139404,-0.013685601763427258,0,0,0,0.000,0,0
1739401907.1870403,0.5255087260156432,0.09612726411434477,-0.9531795807235363,-2.069111554955883,0.13775577655709492,2.137620984331012,-1.2753869128037918,0.0007635607373632284,0.0004431232301808826,0.0002235319973267105,-0.0004072804271329134,0.00013026436125925948,0.000542132339244111,0.0013108819794271738,0.1935308277606964,-21.82431411743164,-2.35798716545105,22.59223175048828,0.6938577890396118,2.2753188610076904,-0.03382720425724983,0,0,0,0.000,0,0
1739401907.1970556,0.5255071739123529,0.0961271736851026,-0.9531797728621035,-2.0691132601116013,0.13775416488682812,2.137620982877486,-1.2753860529242649,-0.0007730014539924024,9.549570637755526e-05,-0.0010153298084790538,0.00020246816396848617,-0.0003753834109310294,0.00032335264754626087,0.001170478321893581,0.2173345386981964,-21.82431411743164,-2.35798716545105,22.61603546142578,0.7066751718521118,2.2753188610076904,-0.07411040365695953,0,0,0,0.000,0,0
1739401907.2070646,0.5255087259113643,0.09612525534604403,-0.9531758718067237,-2.0691099252893195,0.13775497941088585,2.137625969589641,-1.2753919482622402,0.0010652186857999842,-0.0004622883148772994,0.000600656001327701,0.0006135909698393714,0.0007875389915309195,-1.0702953415701145e-05,-3.6081426892174044e-05,0.1935308277606964,-21.79654312133789,-2.4095618724823,22.56842803955078,0.7002664804458618,2.2679946422576904,-0.027418512850999832,0,0,0,0.000,0,0
1739401907.2185261,0.5255060771245742,0.09612525448105629,-0.9531779514889283,-2.069109724046589,0.13775497957436383,2.1376202257238326,-1.2753860358726872,-0.0005170212569248539,0.0005630988970903208,-0.000379955430729705,0.0012663660285101583,-0.00015693884301522297,0.0004698805239843225,0.001755995885899216,0.2173345386981964,-21.79654312133789,-2.38179087638855,22.56842803955078,0.7002664804458618,2.2817275524139404,-0.07411040365695953,0,0,0,0.000,0,0
1739401907.2300775,0.5255070048228346,0.0961275593932947,-0.9531772882786714,-2.0691139489802164,0.13775346409169306,2.1376208651385653,-1.275394407971162,-0.00016375673021845545,0.001702759807762347,0.0007717831634375942,-0.0006712842907524686,-0.0007070162930102845,9.823395820066862e-05,-0.0031190470164597205,0.2173345386981964,-21.82431411743164,-2.4095618724823,22.61603546142578,0.7130838632583618,2.2753188610076904,-0.0072769103571772575,0,0,0,0.000,0,0
1739401907.2401264,0.5255049074640828,0.09612725141557332,-0.9531772409268677,-2.06910970462813,0.1377542217517705,2.137622790673259,-1.275393937077375,-0.0006312896799785739,-5.6497749918911174e-05,0.0005131755670836315,-0.0007198421602636027,-0.0008836482860455382,0.0001934610686817905,-0.0011784348776647635,0.2173345386981964,-21.82431411743164,-2.38179087638855,22.56842803955078,0.7066751718521118,2.2679946422576904,-0.0072769103571772575,0,0,0,0.000,0,0
1739401907.2510974,0.525504589833473,0.09612130824148729,-0.9531779515838905,-2.0691135433078744,0.13775588045557427,2.137620865801865,-1.2753907981433048,-0.0011794795054364097,-0.0011087419960968958,3.606303803631235e-05,-0.0007736780226252761,8.868524023777333e-05,-0.00041169083388970564,-0.00017236418885698066,0.2411382496356964,-21.74496841430664,-2.38179087638855,22.59223175048828,0.6938577890396118,2.2753188610076904,-0.03382720425724983,0,0,0,0.000,0,0
1739401907.2620924,0.5255102045316178,0.09612638214254912,-0.9531758835212814,-2.069111477483814,0.137755737072197,2.1376217311069112,-1.2753900795675766,0.00041142025644690333,0.00046657104638907817,0.0002796551491578978,-0.0001580225036480589,8.27309434201135e-05,-0.0001095638362917332,0.00024115972732033215,0.1697271168231964,-21.77273941040039,-2.4095618724823,22.59223175048828,0.6938577890396118,2.2679946422576904,-0.04023589566349983,0,0,0,0.000,0,0
1739401907.2721279,0.5255087260116822,0.09612639572147408,-0.9531797356903547,-2.069112526344808,0.13775707686287852,2.1376205178635064,-1.275387660558543,0.00039266596135914295,0.0007367482962360838,-0.0002655540973790266,-0.000953387483851496,0.00034756211443655934,0.0014865707244850995,-0.0008122429608698289,0.1935308277606964,-21.77273941040039,-2.35798716545105,22.56842803955078,0.6865335702896118,2.2817275524139404,-0.06037749722599983,0,0,0,0.000,0,0
1739401907.2830787,0.5255070134949139,0.0961256728424805,-0.9531797343092916,-2.0691106134402157,0.13775741519222318,2.1376218489365217,-1.275386789682837,-0.0006755488790039767,0.0011120494397353375,-0.001182299390552905,-0.001296901745889371,-5.737473812348395e-05,-0.0006440674790470059,0.0010439592681090511,0.2173345386981964,-21.77273941040039,-2.35798716545105,22.56842803955078,0.7066751718521118,2.2679946422576904,-0.06678618490695953,0,0,0,0.000,0,0
1739401907.2940145,0.5255090438000865,0.09612497472932434,-0.9531797941888953,-2.0691051690745774,0.13775503208473358,2.137623261839545,-1.2753963713565113,0.0011843524159764135,0.0003522231067954918,0.00040418403357078084,0.0016610353196857633,0.0007467910059095965,0.00039226079785867487,-0.002786960434894929,0.1935308277606964,-21.79654312133789,-2.38179087638855,22.51685333251953,0.7002664804458618,2.2679946422576904,-0.013685601763427258,0,0,0,0.000,0,0
1739401907.304024,0.5255070135002956,0.09612354195558259,-0.9531801238852954,-2.069109696004762,0.13775573691080892,2.137620619637947,-1.2753891770626336,0.00018098548908432782,-0.0006369904407383352,-0.0009728195303729222,-3.942209168320004e-05,0.00033630374824233374,-2.7880337207854343e-05,0.0011211203349125339,0.2173345386981964,-21.77273941040039,-2.38179087638855,22.56842803955078,0.6938577890396118,2.2817275524139404,-0.04756011441349983,0,0,0,0.000,0,0
1739401907.3140893,0.5255097630170689,0.09612654378890541,-0.9531758718428581,-2.069113263049711,0.1377552880126354,2.137619389072271,-1.275393923938971,0.0009552273693916694,0.0011976660700062486,0.0003849299247338931,-0.0013296770408978734,0.0008593218060631662,-0.0011374950856138642,-0.001151979556204468,0.1697271168231964,-21.82431411743164,-2.4095618724823,22.61603546142578,0.7066751718521118,2.2881362438201904,-0.0072769103571772575,0,0,0,0.000,0,0
1739401907.325055,0.5255076859966308,0.09612738437104015,-0.9531758718060704,-2.0691117070215475,0.1377559052202358,2.1376240446985295,-1.2753902786220606,0.00022941131132249602,-0.00015060524030278524,0.0004417892203903631,0.00044353408890198114,-0.0014240357039995584,0.0008672898114133413,0.000881316803731344,0.1935308277606964,-21.79654312133789,-2.4095618724823,22.59223175048828,0.7194925546646118,2.2753188610076904,-0.07411040365695953,0,0,0,0.000,0,0
1739401907.335148,0.5255124360316267,0.09612939209302117,-0.9531797342729449,-2.0691126794075356,0.13775573275182118,2.1376219281093234,-1.2753915558752364,0.001764529243518318,0.0008693630421308439,-0.0007907810267343942,-0.0005678829019031739,2.1856690429011535e-05,-0.0006191378061192967,-0.00044067251021385676,0.1419561207294464,-21.82431411743164,-2.35798716545105,22.56842803955078,0.6938577890396118,2.2945449352264404,-0.027418512850999832,0,0,0,0.000,0,0
1739401907.3461232,0.5255104038692003,0.09612525741612861,-0.9531777175925056,-2.0691097713025193,0.13775346457921273,2.1376229084296607,-1.2753899881554172,0.0005841715507337176,-0.0005172536982168267,0.0001361181974043603,0.0007394291193902533,-0.0008546231093690454,-0.00041023842994786816,0.001168643006314202,0.1697271168231964,-21.79654312133789,-2.38179087638855,22.56842803955078,0.7130838632583618,2.2679946422576904,-0.04023589566349983,0,0,0,0.000,0,0
1739401907.3570285,0.5255076304947464,0.09612725534495288,-0.9531758689131762,-2.069111477434566,0.13775660296916784,2.137620460710468,-1.2753860342545298,-0.00040994919796840746,-0.00011183035429775242,-0.00013338573875007812,0.00016218405512965809,0.001151311667772945,-0.00044209042582546735,0.001252270184908475,0.1697271168231964,-21.82431411743164,-2.4095618724823,22.59223175048828,0.6865335702896118,2.2817275524139404,-0.07411040365695953,0,0,0,0.000,0,0
1739401907.3670347,0.5255070015666797,0.0961252807880562,-0.9531757947860602,-2.0691132724977668,0.13775497957436386,2.1376201488252424,-1.2753845218423516,-9.909931246545394e-05,-0.0006228048380574017,0.0003947571042490669,-0.00025429282017804314,-0.00018156980910744036,-0.0001359656782883459,0.0020121990900814736,0.2173345386981964,-21.79654312133789,-2.4095618724823,22.61603546142578,0.7002664804458618,2.2817275524139404,-0.08692778646945953,0,0,0,0.000,0,0
1739401907.3780472,0.5255083325055268,0.0961235721647886,-0.953177951595491,-2.0691132601103583,0.13775819135816714,2.1376216380664617,-1.2753978997592603,-4.322538535808033e-06,-0.000297528073085692,-0.00016983189195736412,-0.0010154900917324254,0.00020477670219474676,-0.00029068471776103185,-0.0019129544319212862,0.1697271168231964,-21.77273941040039,-2.38179087638855,22.61603546142578,0.7002664804458618,2.2817275524139404,-0.0008682189509272575,0,0,0,0.000,0,0
1739401907.3881116,0.5255104385007103,0.09612525415754235,-0.9531770159092936,-2.069111846503206,0.1377542113262803,2.1376215203545788,-1.275388416980193,0.0007461358385101675,-0.0002392297249680069,-0.0005325604632952426,-0.0009610563529046448,0.0005540800124909928,-0.00016791123081670836,0.002167483068366549,0.1697271168231964,-21.79654312133789,-2.38179087638855,22.56842803955078,0.6801248788833618,2.2817275524139404,-0.05396880581974983,0,0,0,0.000,0,0
1739401907.3990877,0.5255087259799791,0.09612596776498879,-0.9531797342676629,-2.0691078985958744,0.1377574205165955,2.137625708801496,-1.2753956136969553,0.0003317308443548404,0.0011463989920721385,-0.0010231220685524287,0.001296539023177875,0.0002651887851271833,0.0024731635754945674,-0.0007333419865176793,0.1935308277606964,-21.79654312133789,-2.35798716545105,22.51685333251953,0.7066751718521118,2.2615859508514404,-0.020094294100999832,0,0,0,0.000,0,0
1739401907.4101334,0.5255087279961072,0.09612354528437998,-0.9531798520105148,-2.069109694767915,0.13775573708998431,2.137622842572118,-1.275395048611546,0.00032679949931785,0.00011035958608553138,-0.0007083265509979997,0.0012440759303275035,0.0001395559157368786,0.0009832152901627384,-0.001604615414411713,0.1935308277606964,-21.77273941040039,-2.35798716545105,22.56842803955078,0.6938577890396118,2.2615859508514404,-0.0008682189509272575,0,0,0,0.000,0,0
1739401907.422098,0.5255103605352474,0.09612725144986152,-0.9531780970468064,-2.0691099244844833,0.13775573707192731,2.137622046876245,-1.2753869809772964,0.001181378448841763,0.0013381882681735187,0.0001799575384327411,-0.00015986602129349867,0.00029693204524057287,-0.0003437246904576687,0.001213694679436879,0.1697271168231964,-21.82431411743164,-2.4095618724823,22.56842803955078,0.6938577890396118,2.2753188610076904,-0.04023589566349983,0,0,0,0.000,0,0
1739401907.4330902,0.5255083325054474,0.09612157032645362,-0.9531768253896892,-2.069109698535913,0.1377557302871786,2.1376255935390716,-1.2753883145948413,0.00043702268337145536,-0.000766175738796465,-0.000850221138738261,-2.6579298971524177e-05,0.00061820845635397,0.0008115416745948545,0.0006907011344882284,0.1697271168231964,-21.74496841430664,-2.4095618724823,22.56842803955078,0.6938577890396118,2.2753188610076904,-0.06678618490695953,0,0,0,0.000,0,0
1739401907.4440575,0.5255104385244875,0.09612151777394903,-0.9531780175786652,-2.069113543832622,0.1377535037453121,2.137620159886155,-1.2753852911388164,0.0016535238279101734,-0.0014080033362446746,0.0002553469882317993,-0.0007098005150247861,0.0011473994826521026,-0.0005992907213721872,0.001596578571896919,0.1697271168231964,-21.74496841430664,-2.4095618724823,22.59223175048828,0.7130838632583618,2.2817275524139404,-0.08051909506320953,0,0,0,0.000,0,0
1739401907.4540963,0.5255084139040872,0.09612050004516842,-0.953175871842409,-2.0691117708486098,0.1377534772560781,2.1376240834605356,-1.2753915958405244,0.00044417481512664466,-0.0008993235987789306,0.0009008537463665315,-0.001519344451202464,0.0001641612133671098,0.0007408005239715654,0.00046023112276250293,0.1935308277606964,-21.74496841430664,-2.4095618724823,22.56842803955078,0.7130838632583618,2.2753188610076904,-0.05396880581974983,0,0,0,0.000,0,0
1739401907.4650414,0.5255104385310906,0.09612525316728932,-0.9531761634565831,-2.06911009993886,0.13775573902233004,2.137624044106788,-1.2753889418145803,0.0010008472020273723,-0.0013040469663901115,4.199121496103225e-05,0.0005080074372996692,0.00074844641990807,-0.00023399433984701095,9.858470392328346e-06,0.1697271168231964,-21.79654312133789,-2.38179087638855,22.59223175048828,0.6938577890396118,2.2753188610076904,-0.04023589566349983,0,0,0,0.000,0,0
1739401907.4751449,0.5255084920122248,0.09612165801640896,-0.9531779515858316,-2.0691114774254937,0.13775499262974594,2.1376237111489105,-1.2753939384682296,0.00016683069355308635,-0.0009838987292886535,-0.0003785933092343405,0.0003996709893652095,0.00022176674217682247,-0.00021680792411021588,-0.0006000370503783935,0.1935308277606964,-21.74496841430664,-2.38179087638855,22.59223175048828,0.7002664804458618,2.2615859508514404,-0.0072769103571772575,0,0,0,0.000,0,0
1739401907.4860878,0.5255070131726006,0.09612525448169493,-0.9531797342729448,-2.0691076152813306,0.1377542217518451,2.1376234041366775,-1.2753916081311991,-0.000159481266819837,0.0002151756261020684,-0.0005335548480768145,0.0010245027673925053,-0.0005415316857402186,0.0002827471427434884,-0.0009076506612879343,0.2173345386981964,-21.79654312133789,-2.35798716545105,22.54065704345703,0.7066751718521118,2.2817275524139404,-0.027418512850999832,0,0,0,0.000,0,0
1739401907.4970481,0.5255087000152633,0.09612724075716375,-0.9531758719150865,-2.0691103700255327,0.13775569770342724,2.1376237470411854,-1.275391595534051,-0.00041996999354703096,7.970010121564253e-05,0.0005249355388633678,-0.00010732848831387822,0.000135684698386451,-0.0008137303084621897,-0.0009054437305520658,0.1935308277606964,-21.82431411743164,-2.4095618724823,22.54065704345703,0.6938577890396118,2.2881362438201904,-0.027418512850999832,0,0,0,0.000,0,0
1739401907.508001,0.5255087172060418,0.09612533726327972,-0.9531779515959263,-2.0691132896598283,0.13775434022497798,2.1376201472330147,-1.2753891745862176,-0.0009077744053387863,0.00019388586975635144,0.0002228346757397467,-0.0012647453364714677,-0.001264205800424625,-8.367661554452172e-05,0.0003381037250510985,0.1935308277606964,-21.79654312133789,-2.38179087638855,22.61603546142578,0.7066751718521118,2.2817275524139404,-0.04756011441349983,0,0,0,0.000,0,0
1739401907.5180736,0.5255087260151975,0.09612733167185272,-0.9531779525770722,-2.069109771287172,0.13775108304016315,2.137620904385774,-1.2753845218423598,0.0004871450898568689,-0.0002065638801059355,-0.0005745378505114434,0.0007025265394655623,-0.001133247770337024,-0.0013935631977072666,0.0015025874585335322,0.1935308277606964,-21.82431411743164,-2.38179087638855,22.56842803955078,0.7002664804458618,2.2753188610076904,-0.08692778646945953,0,0,0,0.000,0,0
1739401907.5282247,0.5255052884554812,0.09612525448149878,-0.9531740888080644,-2.0691114776436588,0.13775496610501012,2.1376242141717214,-1.2753924217006227,-0.00063921487825649,-0.0006505571068732214,0.001461274018326541,5.2049943003261716e-05,-0.0003050983201524017,0.0007860637852822236,-0.0011475924557408392,0.2411382496356964,-21.79654312133789,-2.4333655834198,22.59223175048828,0.7002664804458618,2.2753188610076904,-0.020094294100999832,0,0,0,0.000,0,0
1739401907.5390844,0.5255104385363055,0.09612896494263566,-0.9531779429291306,-2.0691117695538725,0.13775736046715253,2.137620148680648,-1.2753891877217804,0.0015301988424463579,0.0004854248933056503,-0.0005605682626542054,-1.598699520360074e-05,0.00033332725839113446,-0.0011720648941622295,-0.0003383032232465583,0.1697271168231964,-21.84811782836914,-2.38179087638855,22.56842803955078,0.6801248788833618,2.2817275524139404,-0.04756011441349983,0,0,0,0.000,0,0
1739401907.5500956,0.5255087260156451,0.09612343741069054,-0.9531797342728959,-2.069109694767963,0.13775497941184794,2.1376240455060684,-1.2753935725565624,0.0006498951091167592,-0.0008122563283078065,-0.00011791288844994428,0.0009806395791884374,-0.00018084555742369418,-0.00026293709909570027,-0.0012331267645211716,0.1935308277606964,-21.77273941040039,-2.35798716545105,22.56842803955078,0.7002664804458618,2.2753188610076904,-0.04023589566349983,0,0,0,0.000,0,0
1739401907.5601737,0.5255063114846532,0.09612906434326138,-0.9531778564247234,-2.069111478797992,0.137755899424405,2.1376220886623503,-1.2753978867371158,-0.0006555261857247039,0.0020148948263912056,0.0012669607336745093,-0.0007848789019179311,0.0011327401643475927,-0.0002925151843829217,-0.002686854445109919,0.2173345386981964,-21.84811782836914,-2.38179087638855,22.59223175048828,0.6938577890396118,2.2679946422576904,-0.0008682189509272575,0,0,0,0.000,0,0
1739401907.5710058,0.5255124360373509,0.0961197265177528,-0.953177951594314,-2.0691099271789577,0.13775697147783383,2.1376210221273806,-1.2753916002550112,0.0015530721514923232,-0.0022401590510757337,0.000511785360525046,0.0006264398500012644,3.103740332573732e-05,-0.00035449979546756517,-0.0010958036806174454,0.1419561207294464,-21.72116470336914,-2.38179087638855,22.56842803955078,0.7194925546646118,2.2753188610076904,-0.05396880581974983,0,0,0,0.000,0,0
1739401907.5820072,0.5255087260156442,0.09612525448085386,-0.9531741009028082,-2.0691117074418828,0.1377542217597959,2.13762557471277,-1.2753915558093722,0.0004377588165603683,-0.00032774472007190297,0.0014814424056474977,-0.0005346463114098639,0.0009393246124909669,0.00024017885932175822,6.148048025511729e-05,0.1935308277606964,-21.79654312133789,-2.4333655834198,22.59223175048828,0.7066751718521118,2.2753188610076904,-0.027418512850999832,0,0,0,0.000,0,0
1739401907.5920577,0.5255070020482057,0.09612006815362363,-0.9531779515961252,-2.069111477437165,0.13776000195338764,2.137621733052954,-1.2753861536080418,0.0006512457579921896,-0.0006568276821210303,0.00024667682717563775,0.00029765392659427954,0.0008227982929769308,-0.001491909589260376,0.0014832022487374845,0.2173345386981964,-21.72116470336914,-2.38179087638855,22.59223175048828,0.6938577890396118,2.2679946422576904,-0.07411040365695953,0,0,0,0.000,0,0
1739401907.6021144,0.5255103595716776,0.09612330478928213,-0.9531772466967339,-2.0691096947562504,0.13775497962852729,2.13762331395145,-1.275390046787933,0.00044412797283508354,-0.0004528474857329733,0.0007432485171133224,0.001330930647333276,-0.000616435291697824,0.0008626266751190004,-0.00032371133926216585,0.1697271168231964,-21.77273941040039,-2.38179087638855,22.56842803955078,0.7002664804458618,2.2679946422576904,-0.04023589566349983,0,0,0,0.000,0,0
1739401907.6130853,0.5255053009737368,0.09611983149739713,-0.9531779515919465,-2.0691114887709614,0.13775381951198257,2.1376252782868854,-1.2753869016062342,-0.0008951113843513778,-0.000959082575679817,-0.0007499396227048228,-0.0008186841987435201,6.728609337121842e-05,0.0021715201900333455,0.0012546662249825298,0.2411382496356964,-21.72116470336914,-2.38179087638855,22.59223175048828,0.7130838632583618,2.2753188610076904,-0.06678618490695953,0,0,0,0.000,0,0
1739401907.624043,0.5255053051188197,0.09612385764417958,-0.9531790322626841,-2.0691132613700534,0.1377559578878004,2.1376240833064464,-1.2753869190488016,-0.0002480200178696522,6.885533360510441e-05,-0.0003709190755710614,-0.0007957396344433001,0.001033703384869673,0.000198653071931231,0.0014164969312136005,0.2411382496356964,-21.77273941040039,-2.35798716545105,22.61603546142578,0.7194925546646118,2.2753188610076904,-0.06678618490695953,0,0,0,0.000,0,0
1739401907.6350822,0.5255086215861586,0.09612654379068752,-0.9531779487030317,-2.0691096957010653,0.13775346411004669,2.1376215247074755,-1.2753891745860917,1.8040445655291787e-05,0.0007117644927281932,-0.00028814895220179854,0.000349451408114828,-0.000989351180826766,-0.0003571979932219238,0.0010036741579295893,0.1935308277606964,-21.82431411743164,-2.38179087638855,22.56842803955078,0.7130838632583618,2.2817275524139404,-0.04756011441349983,0,0,0,0.000,0,0
1739401907.6460705,0.5255069090636354,0.09612525446905068,-0.953179734708961,-2.069107853057941,0.1377566073570647,2.1376211860361023,-1.2753860255341145,-0.0009281045137693573,-0.0001258774511183013,-0.0006153216827434953,0.001222822699617175,0.00042240646348275484,-0.0009437637914668296,0.0021634979243577344,0.2173345386981964,-21.79654312133789,-2.35798716545105,22.54065704345703,0.6865335702896118,2.2817275524139404,-0.07411040365695953,0,0,0,0.000,0,0
1739401907.657042,0.5255050666495736,0.09612533340201623,-0.9531795267604787,-2.069114258107639,0.13775660313168284,2.137620164652825,-1.275390158705293,-0.0004659441131092572,-0.0003707610466710529,5.590886531671121e-05,-0.00101417950340891,0.00022649275022087196,0.00028028660796608376,-0.0003510290981315754,0.2411382496356964,-21.79654312133789,-2.35798716545105,22.59223175048828,0.6865335702896118,2.2817275524139404,-0.04023589566349983,0,0,0,0.000,0,0
