IITGN-Robotics/Franka_IITGN_ROBOTICS/franka_ros/franka_iitgn/data/b_34.csv
time,fr3_joint1_pos,fr3_joint2_pos,fr3_joint3_pos,fr3_joint4_pos,fr3_joint5_pos,fr3_joint6_pos,fr3_joint7_pos,fr3_joint1_vel,fr3_joint2_vel,fr3_joint3_vel,fr3_joint4_vel,fr3_joint5_vel,fr3_joint6_vel,fr3_joint7_vel,fr3_joint1_eff,fr3_joint2_eff,fr3_joint3_eff,fr3_joint4_eff,fr3_joint5_eff,fr3_joint6_eff,fr3_joint7_eff,flexpin1,flexpin2,flexpin3,Force,ContactMic,ContactMic_gt
1739401931.108751,0.5255165407102579,0.09585494291877934,-0.9531968011066175,-2.069058854017396,0.1376924249536664,2.137558670957765,-1.2753342110762904,-0.0008190544984064226,0.004776060468405147,0.0010427463414128305,0.001166178814955475,0.0011650483922076844,0.0010160917952299114,0.002225981796628215,0.2173345386981964,-21.84811782836914,-2.35798716545105,22.51685333251953,0.6737161874771118,2.2350356578826904,-0.06678618490695953,,,,,,,,,
1739401931.119675,0.525511973723574,0.09587622583091271,-0.9531989865690949,-2.0690642055259363,0.1376952837818539,2.1375633866105614,-1.2753408435210816,-0.0004353635238395111,0.003673688939206042,0.000252711303564276,-0.0005465495444665969,0.00024061471898725585,0.0006100021910231835,2.1648821782077154e-05,0.2411382496356964,-21.72116470336914,-2.35798716545105,22.51685333251953,0.6737161874771118,2.2753188610076904,-0.013685601763427258,,,,,,,,,
1739401931.1297476,0.5255097407669426,0.0958991191812508,-0.9532008264182558,-2.0690728060305976,0.13769564365986076,2.1375688639224606,-1.275342398884055,-0.0005785967834521016,0.0015640438100523435,0.00031491888763877484,-0.0023450678702847164,4.958878686846802e-05,0.0003505688466572965,0.00011471894029442764,0.2689092457294464,-21.74496841430664,-2.3302161693573,22.63983917236328,0.6737161874771118,2.2679946422576904,-0.027418512850999832,,,,,,,,,
1739401931.1417818,0.5255093177876125,0.09591534446843107,-0.953198986714516,-2.069076772185958,0.13769307624225582,2.137573448052898,-1.2753350879709224,-0.0001961217903276041,0.0016532585686155144,0.0015106724690725083,-0.001408821373658789,-0.00016957168430549934,0.0018656216857251776,0.0010636789939402706,0.2411382496356964,-21.77273941040039,-2.35798716545105,22.63983917236328,0.6737161874771118,2.2615859508514404,-0.06037749722599983,,,,,,,,,
1739401931.1527166,0.5255074796479391,0.09592539145879465,-0.9532010749188212,-2.069073302988281,0.13769669066043985,2.1375738088447904,-1.2753419404672248,-0.00016843774505741855,0.0006898184889614082,0.00035048141634056465,-0.0007242702835824524,3.284165684769037e-05,0.0013050291753179302,-0.0017593700935785428,0.2689092457294464,-21.77273941040039,-2.3302161693573,22.59223175048828,0.6673074960708618,2.2679946422576904,-0.013685601763427258,,,,,,,,,
1739401931.1627388,0.5255085196736701,0.09593645854731439,-0.9532010663634974,-2.0690714653658993,0.1377015877132321,2.1375738089007275,-1.275339327061759,-0.00018093644748247694,0.0003002308193883117,-0.0009485408843147762,-0.00010013727355320256,0.0008112101918918944,-0.0005303035813184767,0.0005096322091637848,0.2411382496356964,-21.79654312133789,-2.3302161693573,22.56842803955078,0.6608988046646118,2.2679946422576904,-0.06037749722599983,,,,,,,,,
1739401931.1746862,0.5255102292022926,0.0959430573217498,-0.9531915574075361,-2.069073284412595,0.137697378325361,2.1375738089007306,-1.2753400369044712,0.00013825478646470993,0.00044033849885786005,0.00040510901675727196,-0.00028625196623505665,0.0004110562986875115,-0.0003946320900915382,-0.0011564843923040921,0.2173345386981964,-21.79654312133789,-2.4571692943573,22.56842803955078,0.6737161874771118,2.2679946422576904,-0.05396880581974983,,,,,,,,,
1739401931.1857364,0.5255117062115285,0.0959538409987674,-0.9531882805153301,-2.0690733304704167,0.1376969261454587,2.137573965884157,-1.2753399380418151,-0.00041421014756953264,0.001092530125962222,0.0018090792267026982,-0.00102922115761501,-0.00045881703232117604,-0.0005547191342480347,-0.0001639517044638817,0.1935308277606964,-21.87192153930664,-2.4571692943573,22.59223175048828,0.6673074960708618,2.2679946422576904,-0.027418512850999832,,,,,,,,,
1739401931.1957579,0.5255102321443856,0.09596073354495448,-0.9531897398200879,-2.069079268366657,0.13769901636748147,2.13757405981549,-1.2753354418695981,-0.0005571513625300768,0.0004091466499878629,0.0002966037454682654,-0.000581081409448285,7.782907108734864e-05,-0.0004186986742640275,0.002881345498835149,0.2173345386981964,-21.89969253540039,-2.4095618724823,22.63983917236328,0.6865335702896118,2.2753188610076904,-0.06037749722599983,,,,,,,,,
1739401931.20576,0.5255102321457318,0.09596708936011136,-0.9531939284960096,-2.0690815483326275,0.13769734356521682,2.137576899710297,-1.275344025835099,7.815097165625852e-05,-0.00020103452358822074,-0.0010824916627782217,0.00026135730904750464,-0.0012554230032550333,-0.00016460791994091564,-0.00012455368582320022,0.2173345386981964,-21.89969253540039,-2.38179087638855,22.66364288330078,0.6737161874771118,2.2817275524139404,-0.013685601763427258,,,,,,,,,
1739401931.2167253,0.5255136571871941,0.09597182044523547,-0.9531950066406375,-2.0690820868814153,0.13770307895397138,2.137578223574171,-1.275336540989876,0.0015744363954374272,-5.537096229372018e-05,-0.0010354428724689267,-0.0008634035672249307,0.001328454647489566,0.0013119447209724543,0.001830578714806723,0.1697271168231964,-21.89969253540039,-2.35798716545105,22.66364288330078,0.6801248788833618,2.2679946422576904,-0.04756011441349983,,,,,,,,,
1739401931.2287517,0.5255102360703174,0.0959691796808818,-0.9531939256394052,-2.0690803132021056,0.13770058493012272,2.1375791778944637,-1.275342875982094,0.0006639401600972215,-0.001377615768289459,0.0007521570905782509,3.3693562126387326e-05,0.0011842418291912924,0.00023124501333151784,0.00017605991020775973,0.2173345386981964,-21.84811782836914,-2.38179087638855,22.61603546142578,0.6737161874771118,2.2615859508514404,-0.03382720425724983,,,,,,,,,
1739401931.2387612,0.5255085225684619,0.09596582304849802,-0.9531957097982124,-2.0690770481332157,0.13769799546363837,2.137579289333095,-1.275339931422671,-0.0015971240522556491,-0.0017079159560411702,-0.0005480970033236998,0.001507579342182672,-0.0014946068101803587,0.0006836783977914461,0.0014846096396572079,0.2411382496356964,-21.79654312133789,-2.35798716545105,22.56842803955078,0.6865335702896118,2.2615859508514404,-0.027418512850999832,,,,,,,,,
1739401931.2496657,0.525506518740725,0.09597237564114683,-0.9531959511514909,-2.0690756774989394,0.13770154050625116,2.1375769356261185,-1.275345244123552,-0.001207072739904765,0.0012246350252808561,-0.0006984417392265733,0.0006925080575758949,0.001720299884492362,-1.826850517705188e-05,-0.00024342538111457726,0.2689092457294464,-21.84811782836914,-2.35798716545105,22.56842803955078,0.6673074960708618,2.2817275524139404,-0.013685601763427258,,,,,,,,,
1739401931.2596853,0.5255056586020015,0.09596866465430537,-0.9531972008090802,-2.069077508120164,0.1376998272492206,2.137577711374774,-1.2753428760086825,-0.0012156259014849857,-7.092657697551052e-05,7.158358878470942e-07,3.315058843062537e-05,0.0003156025842734147,0.0005173664937832945,-0.0016135805318043567,0.2411382496356964,-21.79654312133789,-2.35798716545105,22.56842803955078,0.6801248788833618,2.2753188610076904,-0.03382720425724983,,,,,,,,,
1739401931.2707775,0.5255065206545494,0.09597066356948245,-0.9532043834487403,-2.06907722169941,0.13770134256602523,2.1375773538017198,-1.2753421046208515,-0.00015712159483489892,0.0008945084849671034,-0.0014334609157003891,0.00034687790092087837,0.0012956045461036136,-0.0010785467234523077,-0.00025622314105673327,0.2689092457294464,-21.82431411743164,-2.2826087474823,22.59223175048828,0.6673074960708618,2.2753188610076904,-0.04023589566349983,,,,,,,,,
1739401931.2817786,0.5255048884909151,0.09596324264633044,-0.9531957902787441,-2.0690788065527834,0.1376995957907035,2.137575398355906,-1.2753377598772628,-0.000610536789615413,-0.0005152724445668617,0.00014107514734141094,-0.00026456810570856887,-0.0001773170120050678,-0.000700930162276333,0.0005381167586466358,0.2927129566669464,-21.72116470336914,-2.35798716545105,22.59223175048828,0.6801248788833618,2.2679946422576904,-0.07411040365695953,,,,,,,,,
1739401931.2937443,0.5255085108675096,0.09596695278313705,-0.9531978978558154,-2.0690746851735367,0.1376998267594021,2.1375785772483855,-1.2753421583855218,-0.0003968226237867189,0.00059947650669557,-0.0006539193090142202,-0.00025962767318661877,-0.00045160461417789234,-0.0004379517600956017,0.0003490328915682321,0.2411382496356964,-21.77273941040039,-2.35798716545105,22.56842803955078,0.6801248788833618,2.2679946422576904,-0.06678618490695953,,,,,,,,,
1739401931.3037775,0.5255102290932268,0.09596450655800276,-0.9531921966600854,-2.069071808020151,0.13770138221968065,2.137578186847516,-1.2753429001988517,0.00021953760767393852,-0.00043448581172491057,-2.2092468915603278e-05,0.0005151475863443208,5.236050219988798e-05,-9.545403812421128e-05,-0.0006676810144811895,0.2173345386981964,-21.77273941040039,-2.4095618724823,22.51685333251953,0.6673074960708618,2.2753188610076904,-0.03382720425724983,,,,,,,,,
1739401931.3156712,0.5255121385132009,0.09596482179501627,-0.9531900631758312,-2.0690791938902375,0.13770134191820788,2.137579334935075,-1.2753436336691193,0.0008325582414701494,9.621255308702695e-05,0.000688859171064636,-0.0007338263701798727,-6.094167296465748e-05,-0.0001351472396700299,-0.0018977479385676004,0.2173345386981964,-21.77273941040039,-2.4333655834198,22.59223175048828,0.6673074960708618,2.2615859508514404,-0.027418512850999832,,,,,,,,,
1739401931.3257453,0.5255102321564932,0.09596695017288466,-0.9531939257887723,-2.0690767705034094,0.13770058490594317,2.137579336601282,-1.2753412509980435,-9.915765319802727e-05,-0.0008200826087495033,-0.0005519156021651028,-0.0008469366623433951,-0.0006493275501240902,-0.00025681153040771365,0.0008244837849918868,0.2173345386981964,-21.77273941040039,-2.38179087638855,22.59223175048828,0.6737161874771118,2.2615859508514404,-0.04756011441349983,,,,,,,,,
1739401931.3367507,0.5255109474014692,0.09597054859816713,-0.9531918458508725,-2.069076659811107,0.13770285788618186,2.1375825138468074,-1.2753364805168155,-5.222624770472668e-05,-0.001139018081461455,-0.00018166843259455573,0.0006505476390316032,-0.00035855295804960497,0.0008141886653142729,0.002642482447491408,0.2173345386981964,-21.82431411743164,-2.4095618724823,22.59223175048828,0.6544901132583618,2.2615859508514404,-0.08692778646945953,,,,,,,,,
1739401931.346786,0.5255102321497694,0.09597066367710914,-0.953193914085001,-2.069079272829688,0.13770138351980335,2.1375785773440925,-1.2753366142427982,0.0005060566953312372,4.7154761876495583e-05,-7.417716174981247e-05,-0.0003040809454544533,0.0006243945347314659,0.00016758552807755192,0.0007433594454727493,0.2173345386981964,-21.82431411743164,-2.38179087638855,22.59223175048828,0.6673074960708618,2.2679946422576904,-0.08692778646945953,,,,,,,,,
1739401931.35777,0.5255054162588866,0.0959760905574058,-0.9531918458508047,-2.0690773823892896,0.13770070337960774,2.1375825138467794,-1.2753397371315274,-0.000917829476619527,0.0007942932711607735,0.00014779735606283977,0.00041122006601692165,-0.0005505574347781457,0.0006635578940542915,0.0011227976258797324,0.2411382496356964,-21.89969253540039,-2.4095618724823,22.59223175048828,0.6737161874771118,2.2615859508514404,-0.06037749722599983,,,,,,,,,
1739401931.3687136,0.5255101526203162,0.09597411914012666,-0.9531939256407255,-2.069074676635269,0.13770146120397625,2.1375800984605053,-1.2753389734960927,0.00011308308103263748,0.0005957142860658986,-0.00022211294382302432,0.0011841953154625468,0.0008995945004088128,0.0005416221566482824,0.0022263100638829883,0.2173345386981964,-21.87192153930664,-2.38179087638855,22.56842803955078,0.6673074960708618,2.2551772594451904,-0.06678618490695953,,,,,,,,,
1739401931.379676,0.5255119476097526,0.09597410030301355,-0.9531939246777484,-2.069079528381421,0.13769854393849845,2.137577711375091,-1.2753357968607166,0.0023793054666683506,0.00038748092469898844,0.00012410916826747148,0.0003300614866280954,-0.0002206913033889463,-0.0005011025711697267,0.001808677616897499,0.1935308277606964,-21.87192153930664,-2.38179087638855,22.59223175048828,0.6608988046646118,2.2753188610076904,-0.06678618490695953,,,,,,,,,
1739401931.3897877,0.5255102287662773,0.0959743258070907,-0.9531948979749769,-2.0690808964209766,0.13770210081593742,2.1375800925924695,-1.275341554375747,0.0011373449308566097,0.0005820675808070725,-2.2807451117817947e-05,-0.0002310052849003628,-0.0011969126481297689,-0.00017790449240259423,-4.4941757935228416e-05,0.2173345386981964,-21.87192153930664,-2.38179087638855,22.63983917236328,0.6608988046646118,2.2551772594451904,-0.05396880581974983,,,,,,,,,
1739401931.4007287,0.5255062832655494,0.0959724152092307,-0.9531980339447744,-2.0690813091738565,0.13770058539349514,2.1375793349323913,-1.2753412524575751,0.00018800748361194006,-7.489711007576392e-05,-0.0006561033025717219,-0.0001447177308469325,0.000354401621701484,-0.00012420132437472776,0.00021732082523256372,0.2689092457294464,-21.84811782836914,-2.3302161693573,22.61603546142578,0.6737161874771118,2.2615859508514404,-0.04756011441349983,,,,,,,,,
1739401931.410737,0.5255101938769838,0.09597450695694332,-0.9531918828297176,-2.0690799709618664,0.13770042669777297,2.137579452669961,-1.2753380617312748,0.0011623821397794471,0.0010010803476600898,0.0006422551107121037,-0.00011067455182052407,-0.00018447203551697985,-0.0006949655251860834,0.0005393224753306293,0.2173345386981964,-21.84811782836914,-2.4095618724823,22.56842803955078,0.6480814218521118,2.2615859508514404,-0.07411040365695953,,,,,,,,,
1739401931.4207466,0.5255062479436493,0.09597511472784989,-0.953196474229732,-2.0690788404146727,0.13770215150951448,2.1375805123100844,-1.2753421241621492,-0.0010946154137445618,0.0009174428328381691,-0.0004796146884450286,-0.00036986095319045106,-0.0006274206454245317,0.001020221974564071,-0.0007666992670832641,0.2689092457294464,-21.87192153930664,-2.38179087638855,22.59223175048828,0.6865335702896118,2.2615859508514404,-0.04023589566349983,,,,,,,,,
1739401931.4317756,0.525508188977113,0.09597090033818592,-0.9531940186284928,-2.069074955668633,0.13770058644015098,2.137580250067059,-1.2753450217512965,-0.0002855242877934966,0.0011899189025773253,0.00036646168469333886,0.0011643764628184057,0.0001420804326993559,0.000569309190095837,-0.0001683112066188288,0.2411382496356964,-21.82431411743164,-2.38179087638855,22.56842803955078,0.6737161874771118,2.2551772594451904,-0.013685601763427258,,,,,,,,,
1739401931.4426682,0.5255092653512579,0.09596792646781763,-0.9531918458513949,-2.0690778565392938,0.13770134256603384,2.137579334987115,-1.2753444603190294,-0.00019885048367593829,-0.0005811756644265472,0.0016486522294655863,-0.000948462046898339,0.0003432104671922537,-0.0013118182365005073,-0.00035489237481299183,0.2173345386981964,-21.77273941040039,-2.4095618724823,22.56842803955078,0.6673074960708618,2.2615859508514404,-0.020094294100999832,,,,,,,,,
1739401931.4527617,0.525506343425877,0.09596911029743761,-0.953194924290309,-2.0690795290305948,0.13770046745050696,2.1375785772723135,-1.2753342170363562,0.0008862160041200278,0.00025499939632306454,-0.0009238386843858369,-0.0013201084381243224,-0.0010533990540634811,-0.001268303712263704,0.0028711897832283204,0.2411382496356964,-21.77273941040039,-2.38179087638855,22.59223175048828,0.6737161874771118,2.2679946422576904,-0.10706938803195953,,,,,,,,,
1739401931.4636714,0.525507755247489,0.09597080527587008,-0.953193928681322,-2.069079529308675,0.1377004515315316,2.1375793741782476,-1.2753441046192626,-0.0005064365860480148,0.0006585761787731343,0.0003548981785211138,-0.0007179305066541482,0.000207210570594254,-0.00023172637444625094,-0.0016603085176460604,0.2173345386981964,-21.79654312133789,-2.38179087638855,22.59223175048828,0.6608988046646118,2.2615859508514404,-0.027418512850999832,,,,,,,,,
1739401931.4738252,0.5255102278521507,0.0959652796561522,-0.9531985166088656,-2.069076774284533,0.1377013444882843,2.1375837555397537,-1.2753452703163313,-0.00032048640630482294,-2.6929811541357524e-05,-0.0008414640706492684,-0.0002967382081096342,0.0006607817170945683,0.001224733886340385,-0.0009592228684447905,0.2173345386981964,-21.74496841430664,-2.3302161693573,22.59223175048828,0.6673074960708618,2.2551772594451904,-0.013685601763427258,,,,,,,,,
1739401931.4847577,0.5255095168899703,0.09597076879928382,-0.9531925743561963,-2.069078610975072,0.13770058555601766,2.137578577939012,-1.2753436386218946,0.0003177387582444301,0.0008681411786803157,0.0006845202976160886,0.0004650622154313632,-0.0010470858353396075,-0.0005037840717839748,0.000418839082718153,0.2173345386981964,-21.82431411743164,-2.4095618724823,22.59223175048828,0.6737161874771118,2.2679946422576904,-0.027418512850999832,,,,,,,,,
1739401931.495697,0.5255084841543368,0.09597279476092131,-0.9531939266441537,-2.0690810824272434,0.13770136740045874,2.1375816079126295,-1.2753449554637215,-0.0005372543770037817,0.001168093953879274,0.0005950128872087207,-0.0011679689581167705,0.00027974707708506896,0.0006972318856983893,-0.0007564336784380634,0.2411382496356964,-21.82431411743164,-2.38179087638855,22.61603546142578,0.6801248788833618,2.2423598766326904,-0.0072769103571772575,,,,,,,,,
1739401931.5066998,0.5255084829949336,0.09597137692553233,-0.9531978938214033,-2.0690777466627623,0.1377028579122645,2.1375796886296174,-1.2753445039089246,5.9382713319673804e-05,0.00033421011851014884,-0.001103525162649415,0.0004580103700940893,8.516917357552804e-05,0.000338770513562594,-0.0007603200273147042,0.2411382496356964,-21.82431411743164,-2.35798716545105,22.56842803955078,0.6544901132583618,2.2615859508514404,-0.020094294100999832,,,,,,,,,
1739401931.5167317,0.5255062705104583,0.0959769560767108,-0.9531939256900744,-2.069080713653413,0.13770058490594697,2.1375793354189043,-1.2753404933379897,-0.00045027095206611,0.00034126877542332395,0.001204618938890594,0.00048320944449323303,-0.001392030581679979,-0.00020360124918226865,0.0008668130086820127,0.2689092457294464,-21.87192153930664,-2.38179087638855,22.56842803955078,0.6737161874771118,2.2615859508514404,-0.05396880581974983,,,,,,,,,
1739401931.5277278,0.5255084397146579,0.09597461252519852,-0.9531967606342878,-2.0690803681745855,0.13770276495141368,2.1375794585379997,-1.2753444995662069,0.00027864733570420264,0.0008046335161064743,-0.0012370409339818682,0.0007230124336106408,-0.00028517467495378505,-0.00043814490615628305,-0.0007192979992065696,0.2411382496356964,-21.84811782836914,-2.35798716545105,22.61603546142578,0.6673074960708618,2.2615859508514404,-0.020094294100999832,,,,,,,,,
1739401931.5387099,0.5255056542046107,0.09597622970208902,-0.9531918471892313,-2.0690827355927914,0.13769982730806957,2.137579336871156,-1.2753446933071122,-0.0010830614605910893,0.0013363898333240715,0.0010598025391776963,-0.0004660381476849333,-0.00046149153457052377,8.066080477837429e-05,-0.0015950612554238037,0.2411382496356964,-21.87192153930664,-2.4095618724823,22.63983917236328,0.6801248788833618,2.2615859508514404,-0.027418512850999832,,,,,,,,,
1739401931.549772,0.5255101139559214,0.09597727512466532,-0.9531957113156996,-2.0690795198935663,0.13770484994941778,2.1375828670595,-1.2753389794777807,7.96182529356762e-05,0.0009292798118401104,0.00011881969601030049,0.0009429437168561024,0.0008151485759935026,0.0012146088551182167,0.0017541480760201785,0.2173345386981964,-21.87192153930664,-2.35798716545105,22.59223175048828,0.6737161874771118,2.2615859508514404,-0.06678618490695953,,,,,,,,,
1739401931.56076,0.5255101170238851,0.09597557141491807,-0.9531925504792498,-2.069077829082896,0.1377007565458555,2.137582566194527,-1.2753428760089045,0.000708994452686148,0.000786641117226971,0.0008294282273670994,0.00041961612187617825,0.000576787753761452,-0.0003229723628614539,-0.000616548433390345,0.2173345386981964,-21.84811782836914,-2.38179087638855,22.56842803955078,0.6737161874771118,2.2615859508514404,-0.03382720425724983,,,,,,,,,
1739401931.5716975,0.5255090570428944,0.09597359777074845,-0.9531913873715184,-2.0690756668772603,0.13770094032720495,2.137579391692926,-1.2753388224883726,-0.00010252618740917588,0.0010910515364070893,0.00020857088350016768,0.000852819994324748,-0.0005237113423532916,-0.0011722737648683617,0.002826040972020452,0.1935308277606964,-21.82431411743164,-2.38179087638855,22.54065704345703,0.6737161874771118,2.2615859508514404,-0.06678618490695953,,,,,,,,,
1739401931.5817852,0.5255085195760983,0.09597375333707271,-0.9531947872384066,-2.069077757931665,0.13769994735046723,2.137580267503977,-1.2753386200111256,6.470001794974564e-05,0.0002604798174945723,0.0002537456401724864,5.735683101591759e-05,-0.0010668841746207457,-0.00040371238720250956,0.0030513829116641826,0.2411382496356964,-21.82431411743164,-2.4095618724823,22.56842803955078,0.6801248788833618,2.2551772594451904,-0.03382720425724983,,,,,,,,,
1739401931.592694,0.5255109909921463,0.09597186181886137,-0.953195717439226,-2.0690720930195514,0.13769984046443257,2.137581892821411,-1.2753404949828309,0.0006385635051875873,0.0009185464889379441,-0.0008095146062735823,0.001399171536929015,-0.0007015555296689883,0.0010817470034930952,0.002379268177717864,0.1935308277606964,-21.79654312133789,-2.35798716545105,22.49304962158203,0.6801248788833618,2.2679946422576904,-0.05396880581974983,,,,,,,,,
1739401931.6027565,0.5255085196088499,0.09597549346833952,-0.9531940316877714,-2.0690777428872758,0.13770058490617068,2.1375830340630717,-1.2753459182312585,-0.0005449368416077893,0.0010880049276321738,-0.00037568817724370333,0.0012705355626583515,-0.0002379395797412086,0.002955145084471607,-0.0005179806176127486,0.2411382496356964,-21.84811782836914,-2.4095618724823,22.56842803955078,0.6737161874771118,2.2423598766326904,-0.020094294100999832,,,,,,,,,
1739401931.613781,0.5255084800520949,0.09597014810743472,-0.9531964281645042,-2.069079245726315,0.1377001358466578,2.1375798058907214,-1.275344406605322,0.000169540320285224,0.000955089896795842,-0.001500844625470447,-0.002052238577707111,-0.0019038807228440463,0.0003742991321837662,-0.00121565756697625,0.2411382496356964,-21.77273941040039,-2.35798716545105,22.61603546142578,0.6865335702896118,2.2615859508514404,-0.03382720425724983,,,,,,,,,
1739401931.6247149,0.5255063708777872,0.09597115163903104,-0.9531957073231654,-2.0690777466549863,0.13770060311364507,2.137583432853593,-1.2753460163486725,-0.0012213077203186967,-0.0004006303026715356,-0.0007568302793014617,-0.0001614117541326304,0.0009075025842913418,0.0016177208073924097,-0.001662226748662402,0.2411382496356964,-21.79654312133789,-2.35798716545105,22.56842803955078,0.6737161874771118,2.2551772594451904,-0.0072769103571772575,,,,,,,,,
1739401931.6347904,0.5255084136247984,0.0959707975111303,-0.9531961201381925,-2.069077746246736,0.13770075603454257,2.1375793393496094,-1.2753421285237025,-0.0007803101481568299,-0.00015148465248703696,-0.0006507545684754507,0.00047898623269772484,-0.00035990295667609153,-0.0015201748775605338,-0.00016786733813003204,0.2411382496356964,-21.79654312133789,-2.38179087638855,22.56842803955078,0.6737161874771118,2.2615859508514404,-0.04023589566349983,,,,,,,,,
1739401931.6456687,0.5255056222990355,0.09597003248103418,-0.9531980311017729,-2.0690777463517125,0.13770421125127982,2.1375804506503715,-1.2753404947915727,-0.0012406359866097456,-0.0009943584022783561,-0.0006469119716947644,-0.00016852931821608805,0.0010093771797465723,0.00017722372492768164,0.00034579163625142505,0.2411382496356964,-21.77273941040039,-2.3302161693573,22.56842803955078,0.6801248788833618,2.2551772594451904,-0.05396880581974983,,,,,,,,,
1739401931.65569,0.5255065176014792,0.09597556913954972,-0.953193962619525,-2.0690813120206832,0.13770560736022341,2.1375835754290393,-1.275340036202828,-0.0008884464773442442,0.0010275511172154813,0.000960009047513337,-0.0009574810292716302,0.0006396911486124333,0.00024012527574619047,0.0018084727966222233,0.2689092457294464,-21.84811782836914,-2.38179087638855,22.61603546142578,0.6673074960708618,2.2615859508514404,-0.06678618490695953,,,,,,,,,
1739401931.6657755,0.5255064157201271,0.09597385694541122,-0.9531946541438181,-2.0690777466666503,0.1377022749231518,2.1375833325351237,-1.2753446933607997,-0.0003631568188933622,0.0018263783443946229,0.00030216875280991923,0.0005747483764549791,-0.0009251388260755461,0.0012934847607985202,-0.001151258762818911,0.2689092457294464,-21.82431411743164,-2.38179087638855,22.56842803955078,0.6865335702896118,2.2679946422576904,-0.027418512850999832,,,,,,,,,
1739401931.676723,0.5255102053275303,0.09597555967485781,-0.9531954753150109,-2.0690813120206886,0.13770211989644904,2.137579745327025,-1.2753429938202485,0.0007693688040597807,-0.00033452124231911346,0.0001354538157300603,0.0002649243656853773,-0.0012957678322789135,0.001839766507165731,-0.0004354628670316037,0.2173345386981964,-21.84811782836914,-2.35798716545105,22.61603546142578,0.6608988046646118,2.2615859508514404,-0.03382720425724983,,,,,,,,,
1739401931.6867352,0.5255116139106503,0.09597694291897443,-0.9531956431967665,-2.0690815592695855,0.1377056475885171,2.137577885969565,-1.2753446187593305,-4.3055426411062994e-05,0.0007060990490594977,-0.00021351632456491294,-0.0003911215920918927,-0.000848512057034216,-0.001232561396700464,-0.0007405297121868078,0.1935308277606964,-21.87192153930664,-2.35798716545105,22.61603546142578,0.6673074960708618,2.2753188610076904,-0.020094294100999832,,,,,,,,,
1739401931.697776,0.5255085107928157,0.09597556849004406,-0.9531900631734833,-2.069081312361246,0.13770304512119924,2.137581880277809,-1.275339756028263,0.00033130670980334605,-0.0005519448924840047,0.0013611566161896916,0.0012539502409498892,0.00012848128337471666,-0.0006284408245690709,0.0005548643019524395,0.2411382496356964,-21.84811782836914,-2.4333655834198,22.61603546142578,0.6801248788833618,2.2679946422576904,-0.06037749722599983,,,,,,,,,
1739401931.7086675,0.5255080597421617,0.09597728501802225,-0.9531939256407255,-2.0690777466666526,0.1377014202901644,2.1375793413035895,-1.275337657892646,0.0010442033513672123,0.0004342505027904661,8.765717578860449e-05,0.00117456456552351,0.0002813494974892824,0.0004600914303145505,0.0013294029042165436,0.2173345386981964,-21.87192153930664,-2.38179087638855,22.56842803955078,0.6801248788833618,2.2615859508514404,-0.08692778646945953,,,,,,,,,
1739401931.7196612,0.5255070164805979,0.09597557238930682,-0.9531900756097809,-2.069081312020689,0.1377044535691608,2.137582671476264,-1.2753452572323851,-0.0009039004155106326,0.00046425775277287744,0.0012049795445503036,-0.0006485521170298825,-0.001523578718810415,-8.082506300177738e-05,-0.0001762008812813018,0.2173345386981964,-21.84811782836914,-2.4333655834198,22.61603546142578,0.6801248788833618,2.2615859508514404,-0.013685601763427258,,,,,,,,,
1739401931.7296767,0.5255099926915486,0.09597385943553817,-0.9531957087620956,-2.069081757636197,0.13770521926182822,2.137582514549306,-1.2753467725465604,-0.00019784164409160409,-0.0008946846576627718,-0.00047742697626367757,0.00013940653690649313,0.0015726653427466243,0.000389371474550271,-0.0014666142721281405,0.2173345386981964,-21.82431411743164,-2.35798716545105,22.59223175048828,0.6737161874771118,2.2615859508514404,-0.0008682189509272575,,,,,,,,,
1739401931.739752,0.5255079799745866,0.09597162377456385,-0.9531900641731743,-2.0690759141634283,0.13770218218177913,2.1375794919696647,-1.2753452572264037,-0.0003998744675978009,-0.0005164838442068374,0.0010437212404729485,0.0005652431036296344,0.0011943687324532397,-0.0004258950639491149,-0.001254834830352611,0.2173345386981964,-21.82431411743164,-2.4333655834198,22.54065704345703,0.6737161874771118,2.2615859508514404,-0.013685601763427258,,,,,,,,,
1739401931.749772,0.525507483419963,0.09597014929338542,-0.9531971918111763,-2.069077746679214,0.1377043015424668,2.1375825157928245,-1.275347682841254,-0.0011351038075059728,-3.232979276631998e-05,-0.000575874932543333,0.0009934510129026707,0.0009098815589283862,-0.0004864576866307355,-0.0016652755464960489,0.2411382496356964,-21.77273941040039,-2.35798716545105,22.56842803955078,0.6737161874771118,2.2615859508514404,-0.020094294100999832,,,,,,,,,
1739401931.7606802,0.5255099103277575,0.09597382186959173,-0.9531942044526235,-2.069079611759969,0.1377034362955356,2.1375808701027768,-1.2753409679475691,0.00020501444421657647,0.0012856847861182422,-0.0002562451628653474,-0.001315510112356634,-0.00014041879712276765,9.924150386641926e-05,-4.966728228184372e-06,0.2173345386981964,-21.82431411743164,-2.38179087638855,22.59223175048828,0.6801248788833618,2.2615859508514404,-0.020094294100999832,,,,,,,,,
1739401931.7707841,0.5255077245639047,0.09597385986793151,-0.9531977891116377,-2.06907766953298,0.13770137396217436,2.1375801660287297,-1.2753421181275122,-0.0005176150818593138,0.0013318668120310372,-0.0003831814216694281,0.0002364113273801446,0.0006145297828245031,-1.9385116197557562e-05,-7.035551005071144e-05,0.2411382496356964,-21.82431411743164,-2.3302161693573,22.56842803955078,0.6801248788833618,2.2679946422576904,-0.04023589566349983,,,,,,,,,
1739401931.7817867,0.5255101516872375,0.09597007048602592,-0.9531957203095398,-2.0690795293432345,0.13770138271595964,2.137578596177434,-1.275343336498709,0.0006658484534885691,-0.0007493364891753142,-9.370119456018533e-05,-0.0009777713437977536,-0.0011062566916462389,-0.0017227971557848294,0.0007705620687835448,0.2173345386981964,-21.77273941040039,-2.35798716545105,22.59223175048828,0.6673074960708618,2.2679946422576904,-0.027418512850999832,,,,,,,,,
1739401931.7927349,0.525510122256879,0.09597074687451632,-0.9531939526223197,-2.0690756310000418,0.13770385456912096,2.1375794526700678,-1.2753460279667568,0.0011952672564756073,0.0008229210786079137,0.001129054975988769,0.001159022494269902,-0.0005541441540870323,-0.0006580044325642033,-0.0011899745020041692,0.2173345386981964,-21.82431411743164,-2.38179087638855,22.56842803955078,0.6865335702896118,2.2615859508514404,-0.0072769103571772575,,,,,,,,,
1739401931.8046722,0.5255043392868491,0.09596812514157649,-0.953191845888034,-2.0690756667598733,0.13770460786807923,2.137583286775774,-1.2753468256653968,-0.0004582361803717374,-0.0008486057100892106,0.00120302180942429,0.00034427611961492064,5.548389410395412e-05,0.0014801610226864294,-0.0018464146977617882,0.2689092457294464,-21.74496841430664,-2.4095618724823,22.54065704345703,0.6801248788833618,2.2679946422576904,-0.027418512850999832,,,,,,,,,
1739401931.8146927,0.5255062550904138,0.09597315789526155,-0.9531939266770533,-2.069081312020688,0.1377028438977901,2.137584335532223,-1.2753471272308392,1.388312731130477e-05,-0.0005511192880250577,0.0003845612693161091,-0.0009100712508845561,-0.000767853208645763,0.0007387686695939386,-0.002097558009884289,0.2411382496356964,-21.82431411743164,-2.38179087638855,22.61603546142578,0.6938577890396118,2.2551772594451904,-0.0008682189509272575,,,,,,,,,
1739401931.82473,0.5255076856121969,0.09597557280944566,-0.9531920926818886,-2.0690817545837414,0.13770386271905463,2.1375839463116484,-1.275345912423061,-0.0008379147070322329,0.0013889896781178399,0.001270150235112468,-0.00045720659829430644,0.0007949594598457863,0.0013598900917004874,-0.0003808215972691072,0.2411382496356964,-21.84811782836914,-2.4095618724823,22.59223175048828,0.6865335702896118,2.2615859508514404,-0.020094294100999832,,,,,,,,,
1739401931.834788,0.5255094104759924,0.09597738989271103,-0.953190063178031,-2.0690830947353924,0.13770300121231685,2.137577873443274,-1.2753436737298303,-0.000441023500548385,0.0004501260878815677,0.0013373950816081743,-0.0007561348967863801,-0.0008608298815297399,-0.000873514950481951,0.0004412654555590188,0.2173345386981964,-21.87192153930664,-2.4333655834198,22.63983917236328,0.6938577890396118,2.2753188610076904,-0.05396880581974983,,,,,,,,,
1739401931.8457992,0.5255072882294414,0.09597932076189045,-0.95319184585087,-2.069081312020689,0.13770293610678325,2.1375845531457967,-1.2753452451686913,0.0004106062424153236,0.0017126923273902812,0.0006464567016252606,-0.00036100371668974963,-0.00047276782445280965,0.0008525922283825286,0.000831387415263658,0.2173345386981964,-21.89969253540039,-2.4095618724823,22.61603546142578,0.6673074960708618,2.2487685680389404,-0.04023589566349983,,,,,,,,,
1739401931.8561485,0.5255075657918123,0.09597928285153248,-0.9531957083177447,-2.069079565973136,0.13770462520298715,2.1375801667114627,-1.275340495005974,-3.9770636447585776e-05,0.0008445951215267625,-0.0005513091971459071,-0.0002769630083560696,-0.0008003857396882222,-0.00027288328691038805,0.0023034782108865984,0.2411382496356964,-21.89969253540039,-2.35798716545105,22.59223175048828,0.6801248788833618,2.2679946422576904,-0.05396880581974983,,,,,,,,,
1739401931.8667054,0.5255056581606018,0.0959772849100374,-0.953190063173851,-2.0690813120208955,0.1377038282685501,2.1375854614074172,-1.275343633668984,-0.0010073988973637,0.0002715414574357471,0.0005731579658862236,-0.0008285542536297789,0.00029844405661967605,0.001992511123192327,-0.0012804133742908585,0.2411382496356964,-21.87192153930664,-2.4333655834198,22.61603546142578,0.6865335702896118,2.2487685680389404,-0.027418512850999832,,,,,,,,,
1739401931.877659,0.5255053315007542,0.09597941080903438,-0.95319184585087,-2.06907952934367,0.13770456696832423,2.1375848079354975,-1.2753373689964405,-0.0010526296597080903,0.0004331929990146336,0.0002864754021685286,0.0002276754444164388,-0.0005696826664238229,-0.0001546119555409975,0.0030820583674912015,0.2411382496356964,-21.87192153930664,-2.4095618724823,22.59223175048828,0.6801248788833618,2.2551772594451904,-0.08051909506320953,,,,,,,,,
1739401931.8877687,0.5255119315305196,0.09597398786272122,-0.9531939297490237,-2.0690813160906294,0.13770456675087062,2.1375825202253513,-1.275338119550495,0.0012566891761078922,-0.00033954932395471567,-0.0005262212454635318,-0.0018313200799643468,0.00026116500901766275,-0.0015839401371817241,0.0033460685418636614,0.1935308277606964,-21.79654312133789,-2.38179087638855,22.61603546142578,0.6801248788833618,2.2615859508514404,-0.07411040365695953,,,,,,,,,
1739401931.8977697,0.5255033299056174,0.09597651716104855,-0.9531957352993407,-2.0690756668768637,0.13770461908069462,2.1375801272953345,-1.2753397763773948,-0.0021325109634536517,0.0009339960590615131,0.0006070609643764153,4.3162341944892125e-05,-0.00127587213857173,-9.638664581395901e-05,0.0017643061837329423,0.2689092457294464,-21.84811782836914,-2.35798716545105,22.54065704345703,0.6801248788833618,2.2679946422576904,-0.06037749722599983,,,,,,,,,
1739401931.9087572,0.5255071017985464,0.09597557240530599,-0.9531940339003935,-2.069081312020689,0.13770154511049235,2.1375826903986312,-1.2753483430275128,-0.0004531222376786475,-0.0009035528193869809,6.703815655691991e-05,-0.0019045472175335822,-0.0009357673888436082,0.0008680700136757495,-1.5830891683035883e-05,0.2173345386981964,-21.84811782836914,-2.38179087638855,22.61603546142578,0.6801248788833618,2.2615859508514404,-0.0008682189509272575,,,,,,,,,
1739401931.9187849,0.5255060515516894,0.09597257056072105,-0.9531957114273382,-2.0690756803722983,0.1377061012313979,2.1375840621120736,-1.2753426443653515,-0.0001062218043337013,-3.5644585744944884e-05,-0.0008054019380675478,0.0005231323386709368,-0.00017450332701694595,0.0021519525752520894,8.525419980703257e-05,0.2411382496356964,-21.79654312133789,-2.35798716545105,22.56842803955078,0.6673074960708618,2.2615859508514404,-0.06678618490695953,,,,,,,,,
1739401931.9296963,0.5255087254929701,0.09597233383782897,-0.9531952491412394,-2.069081310644302,0.13770537869172342,2.137581928378337,-1.275345414930376,5.916215965022899e-05,-0.0005942959202655595,0.0004388566867394278,-0.0013403981249108306,0.0011170710810275218,-0.00047110229132253407,-0.0016596972022264404,0.1935308277606964,-21.79654312133789,-2.35798716545105,22.61603546142578,0.6737161874771118,2.2679946422576904,-0.013685601763427258,,,,,,,,,
1739401931.9397423,0.5255054162043695,0.09597385987656686,-0.95319790624954,-2.0690776446274,0.13770461225598418,2.137584101180399,-1.2753454163120734,-0.0016097995836320753,0.0005875073021546264,-0.00029108913218101095,-0.00048711660425767656,-0.0006424383154179407,0.0009565854589108433,-0.002507683215441785,0.2411382496356964,-21.82431411743164,-2.35798716545105,22.56842803955078,0.6801248788833618,2.2615859508514404,-0.013685601763427258,,,,,,,,,
1739401931.9506848,0.5255033071039209,0.09597385986857507,-0.953194759868133,-2.0690777466660744,0.13770701388736553,2.1375838006260524,-1.2753417694976652,-0.001196906517013009,8.172864633386532e-05,0.0006498652966862052,-0.0006508120682978063,-0.00044776373572762656,0.0009302058038953162,-0.00032750308231222446,0.2689092457294464,-21.82431411743164,-2.4095618724823,22.56842803955078,0.6865335702896118,2.2551772594451904,-0.04023589566349983,,,,,,,,,
1739401931.960698,0.5255060175381842,0.09597453342558963,-0.9531939287990572,-2.0690777102982145,0.13770426485228388,2.1375829924132277,-1.2753448527730171,-0.0009637666366926452,0.0001921089542062139,0.0003999562028233265,0.00010410260927411848,-0.0010433729982750046,0.0013918047339250656,-0.0012128411683528795,0.2411382496356964,-21.82431411743164,-2.38179087638855,22.59223175048828,0.6801248788833618,2.2679946422576904,-0.020094294100999832,,,,,,,,,
1739401931.9707308,0.5255060162420551,0.09597728492144414,-0.9531940313545652,-2.0690788394982937,0.13770300136881095,2.137582422567704,-1.275343690363424,-0.001141834385716373,0.0011565684516146402,0.0015014061338261375,0.0009213729004211506,-0.0009823938478978789,-0.0010825784587044356,-0.0006185846420332517,0.2411382496356964,-21.87192153930664,-2.4095618724823,22.59223175048828,0.6938577890396118,2.2753188610076904,-0.027418512850999832,,,,,,,,,
1739401931.9807503,0.525509436284577,0.09597580860030606,-0.9531918819742854,-2.0690777466549677,0.13770538307984287,2.1375866255730815,-1.2753428716492137,0.0008448122277206979,0.0009411192738856481,0.00018024483085742955,4.1077593776828636e-05,-0.00017762226574358325,0.001093796566001032,0.0009302410173276979,0.2173345386981964,-21.84811782836914,-2.4095618724823,22.56842803955078,0.6737161874771118,2.2551772594451904,-0.03382720425724983,,,,,,,,,
1739401931.9916885,0.5255071052276111,0.0959824313578865,-0.9531918458510739,-2.0690793000945704,0.13770175706051427,2.1375791066706564,-1.275341387631742,0.0002923023332943586,0.002675183035148021,0.001203928018754505,7.553020302340492e-05,-0.0012741013563807762,-0.002583628821100385,-0.0007211454023982344,0.2173345386981964,-21.89969253540039,-2.4095618724823,22.59223175048828,0.6673074960708618,2.2679946422576904,-0.04756011441349983,,,,,,,,,
1739401932.0017767,0.5255070934053921,0.095977126937463,-0.9531957086508499,-2.0690830946938252,0.13770538300561325,2.137578696472398,-1.2753390986652087,-0.0015062878103970633,-0.0008452114760772067,-0.00022520114466490347,-0.00012139370517907412,0.0008799473363968888,-0.0017412949346963368,0.0015061845044429321,0.2173345386981964,-21.87192153930664,-2.35798716545105,22.63983917236328,0.6737161874771118,2.2679946422576904,-0.06678618490695953,,,,,,,,,
1739401932.0126584,0.5255075615359763,0.09597596831625436,-0.9531929549598731,-2.0690823101736426,0.1377053026587371,2.137584103116223,-1.2753452572270765,-0.00023734230954751466,-0.0002762600009650061,0.0006685746025277479,-0.0012398433342743981,-0.000215540019071387,0.000931379763715687,-0.0011645334857215738,0.2411382496356964,-21.82431411743164,-2.38179087638855,22.61603546142578,0.6865335702896118,2.2615859508514404,-0.013685601763427258,,,,,,,,,
1739401932.0227022,0.5255062674416853,0.09597731993996632,-0.9531917679443264,-2.069079529812789,0.13770218432154843,2.1375839855664,-1.2753484093473288,-0.001276158612335323,0.0014117064257947965,0.0008427843165595415,0.0005729367077706388,5.020695553247323e-05,0.0006189079139552777,-0.001421802187462132,0.2411382496356964,-21.87192153930664,-2.4095618724823,22.59223175048828,0.6737161874771118,2.2615859508514404,0.012864691205322742,,,,,,,,,
1739401932.0337903,0.5255033914618906,0.09597386375741516,-0.9531956824270803,-2.0690777466666583,0.13770372589066254,2.137581880301747,-1.2753506589797423,-0.0023072823326900434,-0.0009313163218749139,-0.00015562353691097523,0.00034183407384689264,-0.0004961687747299474,-6.857131045528219e-05,-0.0011300166544321146,0.2689092457294464,-21.82431411743164,-2.35798716545105,22.56842803955078,0.6608988046646118,2.2679946422576904,-0.0072769103571772575,,,,,,,,,
1739401932.0446687,0.5255076865773516,0.09597398881078874,-0.9531978938213377,-2.069077746666651,0.1377053830738816,2.1375841032832708,-1.2753404954462764,-0.000559621723163051,-0.0005448111422602966,-0.0012701570722407343,-4.897343664850631e-05,-0.0007790543206666529,0.0009176351768778451,0.00246492167625947,0.2411382496356964,-21.79654312133789,-2.35798716545105,22.56842803955078,0.6737161874771118,2.2615859508514404,-0.05396880581974983,,,,,,,,,
1739401932.0547736,0.5255057936593991,0.09597209817474057,-0.9531977881446119,-2.0690814306465395,0.1377046254197728,2.1375839413138733,-1.275341567511608,0.00027214873404973224,-0.0006391130191093616,-0.0011582014300164888,-0.00031654484247422264,6.394778956600997e-05,-0.00024049427695184764,-8.9168118467966e-05,0.2689092457294464,-21.79654312133789,-2.3302161693573,22.61603546142578,0.6801248788833618,2.2615859508514404,-0.05396880581974983,,,,,,,,,
1739401932.06567,0.5255099896531022,0.0959725715341163,-0.953193928638673,-2.069077812753693,0.13770765606008628,2.137580164790525,-1.275346137475275,0.0011120518987359977,-0.0009855536599084488,0.000489968170658904,0.0008452043115508869,0.002049880981349463,-6.877314422263579e-05,-0.0013347277499437661,0.2173345386981964,-21.79654312133789,-2.38179087638855,22.54065704345703,0.6544901132583618,2.2679946422576904,-0.0072769103571772575,,,,,,,,,
1739401932.0757413,0.525504021391924,0.09597456786327895,-0.9531940075846714,-2.069075802619914,0.13770538307985125,2.1375800487765626,-1.2753487381208086,-0.00127511861747707,0.0015041488938829402,0.0002398864290030725,-0.0006478543450901724,0.0008799124278053921,-0.0002274359260662234,-0.0014844968958984512,0.2689092457294464,-21.82431411743164,-2.38179087638855,22.56842803955078,0.6737161874771118,2.2679946422576904,-0.020094294100999832,,,,,,,,,
1739401932.086667,0.5255072519175481,0.0959701380430132,-0.9531978281917296,-2.069075666830828,0.13770730063979705,2.1375832278338787,-1.2753405123118802,-0.001530678004500718,-0.0005859539133753573,-0.0011959029124275996,-0.00038502144979154937,0.0006246473082096614,-0.00022133290344992948,9.81315323907761e-05,0.2173345386981964,-21.77273941040039,-2.3302161693573,22.54065704345703,0.6544901132583618,2.2679946422576904,-0.05396880581974983,,,,,,,,,
1739401932.0967875,0.5255054069420333,0.09597014940679831,-0.9531939256414044,-2.06907774666665,0.13770538307383218,2.1375833456418993,-1.2753394504223756,-0.0005224361700613879,-0.0006124620628833713,-0.00021432092623106455,-0.0005473661253018804,-0.0013911401199173275,0.0008212695210359441,0.0007475883451226471,0.2411382496356964,-21.77273941040039,-2.38179087638855,22.56842803955078,0.6737161874771118,2.2679946422576904,-0.06678618490695953,,,,,,,,,
1739401932.1077394,0.525508055909071,0.09596804478660667,-0.953191900943116,-2.0690786109906245,0.1377053830798512,2.137580924389585,-1.275339743594319,0.0002613427159704662,-0.0012340898366255237,0.0010717292714198415,0.0006049995504218222,0.0003994023929982485,0.00035801642276592015,0.0005828386122619429,0.2173345386981964,-21.77273941040039,-2.4095618724823,22.59223175048828,0.6737161874771118,2.2615859508514404,-0.06037749722599983,,,,,,,,,
1739401932.118751,0.525507446747279,0.09597598575569136,-0.9531946528582811,-2.0690802625819074,0.13770538291733625,2.13758092437164,-1.2753499558216355,-0.0010916174570985092,0.0012380317501059187,0.0002156049319979163,-0.0004498046050306045,-0.00021053913729392388,-0.0007430940580033294,-0.0005323677425547372,0.2411382496356964,-21.82431411743164,-2.38179087638855,22.59223175048828,0.6737161874771118,2.2615859508514404,-0.0008682189509272575,,,,,,,,,
1739401932.1297197,0.5255077911358995,0.09597557146297628,-0.9531941774724108,-2.069081312024828,0.1377085789371834,2.1375824651932147,-1.275350257871455,4.0885474340114224e-05,-0.0007820744688889036,-0.0003233652634106085,-0.0003681295391100959,0.0008693656685875149,-0.0002179389792737955,-0.0010636504675923752,0.2411382496356964,-21.84811782836914,-2.38179087638855,22.61603546142578,0.6737161874771118,2.2753188610076904,-0.0072769103571772575,,,,,,,,,
1739401932.1406646,0.5255070174335565,0.09597830849103071,-0.9531917322210011,-2.06907952934367,0.137707656078127,2.137583341067821,-1.27533973882428,-0.0012151693063442316,0.0019803300900872347,0.0014625003684005655,0.00014194169394443097,0.0011860604068969155,-0.0001735266044444975,0.0016865737261013741,0.2173345386981964,-21.87192153930664,-2.4095618724823,22.59223175048828,0.6544901132583618,2.2679946422576904,-0.06037749722599983,,,,,,,,,
1739401932.1507277,0.5255093986620514,0.09597964707203735,-0.9531939256349525,-2.0690802710903604,0.137705026196928,2.137584088768238,-1.2753402473276594,-0.00010482565968191867,0.0011194153030843984,-0.0012015507393140946,0.00039889645179352456,-0.0005353852427059699,0.00033097518592550124,-0.0012068345249282002,0.2173345386981964,-21.87192153930664,-2.38179087638855,22.59223175048828,0.6737161874771118,2.2615859508514404,-0.06037749722599983,,,,,,,,,
1739401932.1607356,0.5255099551306885,0.0959800277875284,-0.9531883644393585,-2.069081029425028,0.13770613927528003,2.1375816297217725,-1.2753465771111112,0.002026955754848688,0.00015907777735992045,0.0017241218988965736,-0.0005069734086749482,-0.0004974587197878867,-0.00021440954928181685,-0.0002483393414403351,0.2173345386981964,-21.89969253540039,-2.4571692943573,22.63983917236328,0.6673074960708618,2.2551772594451904,-0.027418512850999832,,,,,,,,,
1739401932.1707516,0.5255104743435292,0.09597728589471469,-0.9531978968207553,-2.0690799717667683,0.13770684720776039,2.137583293099859,-1.275340967891215,0.0016934071472296806,0.000602536676007741,-0.001677627856524405,0.0005002905911013013,-0.0005784703463085875,0.0006130568331605791,0.0004327186882680889,0.1697271168231964,-21.87192153930664,-2.35798716545105,22.56842803955078,0.6608988046646118,2.2679946422576904,-0.05396880581974983,,,,,,,,,
1739401932.1817377,0.525507013495116,0.09597569000878073,-0.9531940066346707,-2.06908334199685,0.13770300283726314,2.1375852633115504,-1.2753471147255981,-0.00038642073416317573,-0.00013273619874670719,-0.0005291589035033827,-0.0010734539743675075,-0.0022113303393718883,0.0001001921562005896,-0.0018345614570737107,0.2173345386981964,-21.84811782836914,-2.38179087638855,22.63983917236328,0.6938577890396118,2.2487685680389404,-0.03382720425724983,,,,,,,,,
1739401932.1927288,0.5255070517596241,0.09597560004105389,-0.9531957083191163,-2.0690813394969765,0.13771052425684643,2.137582362003075,-1.2753467740718936,-0.0005403996865960707,-0.0007856778503713236,-0.00019639410787218633,-0.0007955197564927128,0.003290084198139397,0.00033790702914130566,-0.00019301055768127515,0.2173345386981964,-21.84811782836914,-2.35798716545105,22.61603546142578,0.6673074960708618,2.2753188610076904,-0.0008682189509272575,,,,,,,,,
1739401932.2037334,0.5255053128691408,0.09597228535067762,-0.953198516608814,-2.069079860478618,0.13770542241672784,2.137584806697954,-1.2753415544475926,-0.0001614766750202267,-0.0005397833662699708,-0.001061608277346803,-0.000601478217307558,0.0007807313404435493,0.0008220252471168572,0.001933312119566653,0.2411382496356964,-21.77273941040039,-2.3302161693573,22.59223175048828,0.6737161874771118,2.2551772594451904,-0.05396880581974983,,,,,,,,,
1739401932.2137337,0.525505300974787,0.09597693557131179,-0.9531918458878816,-2.0690799716086095,0.13770386776169308,2.1375839332358373,-1.2753452577647564,-0.0008815265687906376,0.0010573271076057002,0.0007285890497500756,0.0004398474026972683,-0.00045183075208292433,0.0005383864062172068,-0.00037905117911104234,0.2411382496356964,-21.82431411743164,-2.4095618724823,22.56842803955078,0.6865335702896118,2.2615859508514404,-0.013685601763427258,,,,,,,,,
1739401932.2237353,0.5255073431964484,0.09597659731975178,-0.9531942537494115,-2.0690830960669144,0.13770765606008628,2.137584103249178,-1.2753455592043477,-0.0006010414323000583,0.0008446092084677498,0.0005768741141027805,-0.002203452458822812,0.0016837918353560626,0.0003861599538351521,-0.0009448335782710014,0.2173345386981964,-21.84811782836914,-2.38179087638855,22.63983917236328,0.6544901132583618,2.2615859508514404,-0.020094294100999832,,,,,,,,,
1739401932.2337806,0.5255074468559944,0.09597558126322589,-0.9531960334340395,-2.0690777484593856,0.13770566684621063,2.137584107664623,-1.275346776925156,-0.00028924328848201774,-0.00049723779777709,-0.0008945564686520269,-0.0003726649248454522,-0.0011555478997591652,0.0002854109534739476,-0.0011208145164815987,0.2411382496356964,-21.84811782836914,-2.35798716545105,22.56842803955078,0.6673074960708618,2.2615859508514404,-0.0008682189509272575,,,,,,,,,
1739401932.2447307,0.5255073608570858,0.0959738598687253,-0.9531939269786525,-2.069081641685915,0.13770540939925463,2.1375833456439683,-1.2753478341228308,0.0020354170888585814,0.0009905559042362793,0.0009143750003488247,-0.002541163893908024,-0.0004760791047067051,0.0005465954761496748,-0.0020682585815820303,0.2173345386981964,-21.82431411743164,-2.38179087638855,22.61603546142578,0.6737161874771118,2.2679946422576904,-0.0008682189509272575,,,,,,,,,
1739401932.2557485,0.5255089678156893,0.09597187362846497,-0.9531932232024826,-2.0690799719085833,0.13770614074007814,2.1375841033039733,-1.275348433293519,0.0012006934237486732,-0.0002852980572396026,0.000592993316156229,-0.00012449377444794158,1.7155131080852072e-05,0.00019707078940278309,-0.0007660137816029496,0.1935308277606964,-21.79654312133789,-2.38179087638855,22.56842803955078,0.6673074960708618,2.2615859508514404,-0.013685601763427258,,,,,,,,,
1739401932.2668378,0.5255053808229978,0.09597188817341061,-0.9531940908051069,-2.0690794529314904,0.13770538284510736,2.137579825505599,-1.2753389983739287,-0.00031724776533236475,-0.0003505283005218775,0.0003359260997285482,0.00032090021517146305,-0.0007574607360724972,-0.000700216199131833,0.0010416971271028442,0.2411382496356964,-21.79654312133789,-2.38179087638855,22.59223175048828,0.6737161874771118,2.2615859508514404,-0.06678618490695953,,,,,,,,,
1739401932.2787204,0.5255062546489498,0.09597601579337449,-0.9531883074792906,-2.069077746666219,0.13770610124878502,2.1375810537897224,-1.275346185651825,-0.001333758961419113,0.0009720893041625172,0.0015951854643989302,0.0003302007702602377,-0.0002979966934039606,-0.0009892560074540215,-1.5432307375030604e-05,0.2411382496356964,-21.82431411743164,-2.4571692943573,22.56842803955078,0.6673074960708618,2.2753188610076904,-0.0072769103571772575,,,,,,,,,
1739401932.2896874,0.5255089732784494,0.09598140972600593,-0.9531940425607242,-2.0690813211780554,0.13770422756781425,2.1375856186214466,-1.2753463305928288,0.0007365336235744282,0.0012016992004362098,-0.00023312653306664088,-0.00043384043323454715,-0.00041639263388392356,0.0009145923281497984,0.0005867773148791833,0.1935308277606964,-21.89969253540039,-2.38179087638855,22.61603546142578,0.6865335702896118,2.2487685680389404,-0.013685601763427258,,,,,,,,,
1739401932.2998223,0.525507022329419,0.09597581155250987,-0.9531957093190404,-2.0690795303613103,0.13770660731138526,2.1375856186241298,-1.2753467725647378,-0.0006518061730778008,-0.0014683891195287156,-0.0010985914580196525,7.296673653246066e-05,0.0005280596218712829,0.0010949763159584765,-0.000817908115872612,0.2173345386981964,-21.84811782836914,-2.35798716545105,22.59223175048828,0.6737161874771118,2.2487685680389404,-0.0008682189509272575,,,,,,,,,
1739401932.3107684,0.5255054079192917,0.09597197080268563,-0.9531957117598493,-2.0690813150731615,0.13770781469545168,2.1375837494452408,-1.275345270308356,-0.0008309749758585186,-0.0009591142200174175,0.00023823001945029497,-0.0004775263539552727,0.0009126607200531591,-0.0002701856835396105,-0.0012015981184550762,0.2411382496356964,-21.79654312133789,-2.35798716545105,22.61603546142578,0.6544901132583618,2.2615859508514404,-0.013685601763427258,,,,,,,,,
1739401932.321692,0.5255025998783005,0.09597738989290878,-0.9531957093170669,-2.0690843613770986,0.1377046254200714,2.1375832279056586,-1.275341291930761,-0.0006775637103007937,0.0003493125817512446,0.00014209443922731367,-0.0005068190052575166,-0.0011333525262596405,0.0002133539158359976,0.0009187179632770302,0.2411382496356964,-21.87192153930664,-2.35798716545105,22.61603546142578,0.6801248788833618,2.2679946422576904,-0.04756011441349983,,,,,,,,,
1739401932.333783,0.525507040006958,0.09597728883487922,-0.9531939256407311,-2.069084103018501,0.13770538307985125,2.1375834481125473,-1.2753391163210859,2.2541264983037086e-05,0.0008633422112243326,0.0010778633083980385,-0.0023554396850046524,7.799883226694741e-05,-0.00012077281652027403,0.0014407692912272265,0.2173345386981964,-21.87192153930664,-2.38179087638855,22.63983917236328,0.6737161874771118,2.2551772594451904,-0.06678618490695953,,,,,,,,,
1739401932.3446655,0.5255053024277828,0.09597763002796016,-0.9531965423002735,-2.06907942730634,0.13770432561285043,2.1375841033013145,-1.2753405122343757,-0.0007485574629018631,0.0015757798274884049,-0.0007607637677336824,-0.0002996679293829391,-0.0014187874927174212,0.0008088492388304331,0.001020709916826406,0.2411382496356964,-21.87192153930664,-2.35798716545105,22.59223175048828,0.6737161874771118,2.2615859508514404,-0.05396880581974983,,,,,,,,,
1739401932.3546789,0.5255033030333544,0.0959745714236038,-0.9531939256548491,-2.069079530359427,0.13770614072202128,2.1375833456438946,-1.275340200454301,-0.000842753145127652,-0.00031116263074934324,0.001184425949290058,-0.00020993949999683703,0.00048395378484341716,-4.846166856113817e-05,0.0011885176942735528,0.2689092457294464,-21.82431411743164,-2.38179087638855,22.59223175048828,0.6673074960708618,2.2679946422576904,-0.06678618490695953,,,,,,,,,
1739401932.3646827,0.5255070134949139,0.0959737285324247,-0.9531936916373055,-2.069076408623503,0.1377070570146406,2.1375841033039733,-1.2753415675322743,0.0005004059603592236,-0.0004386571015173341,-0.00015476250772071963,0.0006214495171062283,0.000711735564893497,0.0007091572925925923,0.001550250700814624,0.2173345386981964,-21.82431411743164,-2.38179087638855,22.54065704345703,0.6608988046646118,2.2615859508514404,-0.05396880581974983,,,,,,,,,
1739401932.374766,0.5255074451606586,0.09597703558756461,-0.953193934622679,-2.0690795293813546,0.1377053874758145,2.1375833456438946,-1.2753405079279683,-0.000165681989208144,0.0007767365558433212,0.00025962909901575956,0.0009216210368555581,0.00037727574879708396,-0.0006252700631991065,0.0007467784190679637,0.2411382496356964,-21.82431411743164,-2.38179087638855,22.59223175048828,0.6737161874771118,2.2679946422576904,-0.05396880581974983,,,,,,,,,
1739401932.3857508,0.5255053013052661,0.09597257444291472,-0.9531941338196442,-2.0690756668767953,0.13770614025239286,2.1375833439750034,-1.275342921877996,-0.0003063743853157573,-1.912808645893212e-05,-0.00041446547490879353,4.7748517058383e-05,0.0009749235977398697,-0.0003169875899760409,0.001687444757175993,0.2411382496356964,-21.79654312133789,-2.38179087638855,22.54065704345703,0.6673074960708618,2.2679946422576904,-0.06037749722599983,,,,,,,,,
1739401932.3967218,0.5255035533346839,0.09597669440459317,-0.9531939256419006,-2.069075749293094,0.13770765752271846,2.1375824792621363,-1.2753408879679171,-0.00040089007472674367,0.0007238925631611949,-0.0008097085308914486,-0.00026192357838861983,0.00117730097955097,-0.00035640386920038987,0.0013258709197675141,0.2689092457294464,-21.82431411743164,-2.38179087638855,22.54065704345703,0.6544901132583618,2.2753188610076904,-0.05396880581974983,,,,,,,,,
1739401932.4077392,0.525507967206982,0.09597398816674055,-0.9531961111443672,-2.069081312021154,0.1377068980749862,2.1375848609102137,-1.2753490913336618,0.0002484522498785451,-0.00022452409268671858,-0.00041016377520015907,-9.018022116461606e-05,-0.00011331954427559092,-0.0012371538043507795,-0.0011899521160149036,0.2173345386981964,-21.79654312133789,-2.38179087638855,22.61603546142578,0.6608988046646118,2.2551772594451904,-0.020094294100999832,,,,,,,,,
1739401932.4187315,0.5255070223306154,0.09597186615199212,-0.9531970833687924,-2.069075666841802,0.13770390920101588,2.1375809243895847,-1.2753452616129748,0.0001808754212859815,-0.0013704028075206419,-0.00043919193101955346,0.0012143272992532885,0.0005953404370057967,-0.0007450620934224023,-0.0015909086505261085,0.2173345386981964,-21.79654312133789,-2.3302161693573,22.54065704345703,0.6865335702896118,2.2615859508514404,-0.013685601763427258,,,,,,,,,
1739401932.4296627,0.5255053010105714,0.09597014785201867,-0.953193818746296,-2.0690776456449083,0.13770781256225825,2.1375856186061846,-1.2753406655029411,-0.0015645713433535043,-0.002704810042988829,9.486477803179485e-06,0.00013242947019938658,0.0017826540333442213,0.000561016243982366,-0.00015656670258496408,0.2411382496356964,-21.77273941040039,-2.38179087638855,22.56842803955078,0.6544901132583618,2.2487685680389404,-0.05396880581974983,,,,,,,,,
1739401932.4396968,0.525507731694091,0.09597599451610121,-0.953195464254754,-2.069082111719326,0.13770729625454264,2.137583345643894,-1.2753404947944063,0.00043762306246839655,0.0007673724271299015,2.4724137546577483e-05,-0.0013216620059366363,-0.0012977021452139042,-0.00031073846877037285,0.0007632418203318283,0.2173345386981964,-21.82431411743164,-2.35798716545105,22.59223175048828,0.6544901132583618,2.2679946422576904,-0.05396880581974983,,,,,,,,,
1739401932.4497082,0.5255091622177278,0.09597456853772446,-0.9531918454187469,-2.069079520884134,0.1377068983939146,2.1375833456438946,-1.2753381179352175,-0.0002859066099875823,-0.0007236238799889252,0.0011549048720344455,0.00023943305038261648,0.000617562572075287,-0.0007114701220553395,0.003352459816212067,0.2173345386981964,-21.82431411743164,-2.4095618724823,22.59223175048828,0.6608988046646118,2.2679946422576904,-0.07411040365695953,,,,,,,,,
1739401932.4607375,0.5255089654275003,0.09597639475752771,-0.9531939535014159,-2.0690790878277348,0.13770782420237582,2.1375840989433224,-1.275347834338122,4.938738379157043e-05,0.0013583794889668092,0.00035422486806347797,0.0005654359946009051,-0.0007155803006308756,0.0005565273004276359,-0.001584798238046956,0.1935308277606964,-21.84811782836914,-2.4095618724823,22.59223175048828,0.6801248788833618,2.2615859508514404,-0.0008682189509272575,,,,,,,,,
1739401932.470757,0.5255070144801147,0.09597799388098385,-0.9531957094637887,-2.0690837875546357,0.1377029421740133,2.1375841033038996,-1.2753456504939056,-0.00019290587807830375,0.0014488428985371636,-0.000646084360584081,-0.0006983173734640782,-0.00015392365803454809,0.000977750226143154,0.00011818140152486422,0.2173345386981964,-21.87192153930664,-2.35798716545105,22.61603546142578,0.6673074960708618,2.2615859508514404,-0.04023589566349983,,,,,,,,,
1739401932.481736,0.5255081104869506,0.09597865480104473,-0.9531957073547741,-2.06908427905911,0.13771036475739434,2.137584743064976,-1.275344733417807,0.0010216917804169513,0.0007249873971343083,2.699850563192205e-05,-0.0016825582137939283,0.0003939840139183862,-0.0002822166872499277,1.3301673982805886e-05,0.2411382496356964,-21.84811782836914,-2.35798716545105,22.61603546142578,0.6673074960708618,2.2551772594451904,-0.05396880581974983,,,,,,,,,
1739401932.4926689,0.5255061569699525,0.09597188819078889,-0.9531977971014368,-2.0690813123765994,0.13770612743754487,2.137580309073573,-1.275349894237121,-0.00043296107140112713,-0.0010491179776112576,-0.0008682387745810497,0.0008476117261755592,-0.00019396622782247105,-0.0009849361665671783,-0.00319664932596103,0.2173345386981964,-21.79654312133789,-2.3302161693573,22.61603546142578,0.6673074960708618,2.2817275524139404,-0.013685601763427258,,,,,,,,,
1739401932.5027256,0.5255091680779382,0.09597830859948757,-0.9531939257519129,-2.069077670137236,0.13771009718238558,2.137583306374108,-1.2753444068373472,0.0009940276875565553,0.000413970583094842,0.0002628874132776893,0.0007390814543357708,0.00017013681827739516,-9.53458622507025e-05,-0.0007704904104616441,0.2173345386981964,-21.87192153930664,-2.38179087638855,22.56842803955078,0.6608988046646118,2.2679946422576904,-0.03382720425724983,,,,,,,,,
1739401932.512732,0.5255092477108075,0.09597569002611145,-0.9532009449461957,-2.0690795079025075,0.13770765611425795,2.137579300831609,-1.275343544792059,0.0010561882922235015,0.0005389835871305663,-0.0023561415387875445,0.0006039996728954258,-0.00028302236378407205,-0.0010888178553820718,-0.0003775969244311215,0.2173345386981964,-21.84811782836914,-2.3302161693573,22.59223175048828,0.6544901132583618,2.2753188610076904,-0.04023589566349983,,,,,,,,,
1739401932.5227451,0.5255033030711663,0.09597651755931763,-0.9531977101599215,-2.0690777520444232,0.1377101030331515,2.137581681995828,-1.2753404317541575,-0.002132541494672145,0.0010482399793092852,-0.0006382799457539863,0.0010362370772161328,0.000545587918963494,-0.00033575246501993974,0.0007047914675726558,0.2689092457294464,-21.84811782836914,-2.3302161693573,22.56842803955078,0.6608988046646118,2.2551772594451904,-0.06678618490695953,,,,,,,,,
1739401932.5337613,0.5255077287506514,0.09597558117919955,-0.9531939243563161,-2.0690777438322576,0.13770841379242654,2.1375841032860277,-1.2753421202950912,-0.0006007292516678375,8.599201892559266e-05,-0.00019597305786380186,0.0005956320662803703,0.0004624102237713164,4.595573496785863e-05,-0.00021393287139543916,0.2173345386981964,-21.84811782836914,-2.38179087638855,22.56842803955078,0.6480814218521118,2.2615859508514404,-0.04023589566349983,,,,,,,,,
1739401932.5446868,0.5255070134989516,0.09597679938328714,-0.9531919279801823,-2.0690797867674022,0.13770614073992998,2.1375848609640515,-1.2753377098270666,-0.00031648238537770277,0.0006161930594285538,0.00018294565314815232,-0.0014860256060458246,-0.00010452618503121731,-0.0003492001093915462,0.0005633647858863826,0.2173345386981964,-21.82431411743164,-2.38179087638855,22.59223175048828,0.6673074960708618,2.2551772594451904,-0.08051909506320953,,,,,,,,,
1739401932.5556686,0.5255071194587269,0.09597567839381538,-0.9531957108538717,-2.0690795293480293,0.13770573703750552,2.1375833456438946,-1.2753395278849498,-1.2207457413483008e-05,0.00021530769455504984,-0.0009434842467171585,-0.00042604646180361766,-0.0006990904103608124,-0.00023278013649893537,0.001065467252352429,0.2173345386981964,-21.84811782836914,-2.35798716545105,22.59223175048828,0.6737161874771118,2.2679946422576904,-0.07411040365695953,,,,,,,,,
1739401932.5657637,0.5255098745184613,0.0959701525034493,-0.9531978690521938,-2.069081312020689,0.137704625421771,2.1375856186241298,-1.2753435835354578,0.00017547423836967776,-0.0010667884716495028,-0.0010389061745010944,-0.0012220430174064516,-0.0007594797831621074,0.0005848527224942446,-0.0013171331269032564,0.2173345386981964,-21.77273941040039,-2.3302161693573,22.61603546142578,0.6801248788833618,2.2487685680389404,-0.04023589566349983,,,,,,,,,
1739401932.575793,0.5255070136523818,0.09597101871389317,-0.9531918818276094,-2.069075667215957,0.1377061412274746,2.1375833456438946,-1.2753408095697845,0.00032641008134356303,-0.0011406493509441328,0.0005388416955596205,0.001227292768566029,-6.662891500616074e-05,-0.0006748018565828583,0.0009741085447921905,0.2173345386981964,-21.82431411743164,-2.4095618724823,22.54065704345703,0.6673074960708618,2.2679946422576904,-0.03382720425724983,,,,,,,,,
1739401932.5868194,0.5255072526826642,0.0959720444369657,-0.953195789262527,-2.069075666876797,0.13770390708832556,2.1375833456438946,-1.2753408871845815,0.000496287875032323,0.0008517071125341999,-0.0004258496587550681,0.0008333949359130173,-0.0007845828215860937,-4.737674687047653e-05,0.0010255848455281537,0.2173345386981964,-21.79654312133789,-2.35798716545105,22.54065704345703,0.6865335702896118,2.2679946422576904,-0.05396880581974983,,,,,,,,,
1739401932.5977335,0.5255053009755329,0.09597777717034248,-0.9531948969761344,-2.0690795568157694,0.1377053831342449,2.1375841033039733,-1.2753390976961008,-0.0011513834437753216,0.0015265152055795816,0.00011779941318565835,-0.00013751421673269972,-3.752006007048703e-05,0.0006354028577470017,0.0007191887161566183,0.2411382496356964,-21.84811782836914,-2.38179087638855,22.59223175048828,0.6737161874771118,2.2615859508514404,-0.06678618490695953,,,,,,,,,
1739401932.6086576,0.5255087273238404,0.09597187068872355,-0.953194249424526,-2.0690795293438247,0.13770587163028383,2.13758410524204,-1.2753441596768698,-0.0002525830732769646,-0.0009318537088205711,-0.0007828940288791292,0.00037877069035976475,0.0005818208302013693,0.00018823363993647962,-4.519575703327666e-05,0.1935308277606964,-21.79654312133789,-2.38179087638855,22.59223175048828,0.6608988046646118,2.2615859508514404,-0.05396880581974983,,,,,,,,,
1739401932.6186886,0.5255053140561571,0.09597385120773415,-0.9531978939379047,-2.0690813121337426,0.13770566699133718,2.1375833456439275,-1.2753444837558559,-0.0009903749646349698,-0.0007031644140444923,-0.001152351630979662,-0.0003300931637262093,-0.0008664778713093304,4.379096614920624e-05,-0.0006363356060538963,0.2411382496356964,-21.82431411743164,-2.35798716545105,22.61603546142578,0.6673074960708618,2.2679946422576904,-0.04756011441349983,,,,,,,,,
1739401932.6287622,0.5255053009744042,0.09597759985789028,-0.9531957070707889,-2.0690813133773376,0.1377057063293309,2.137584865324702,-1.2753423252263978,-0.0006532801030430794,3.528277322984828e-05,0.00024904622425405397,-0.0007445595375526958,-0.0013889409210915687,0.0003191659367868606,0.0001074172324946983,0.2411382496356964,-21.87192153930664,-2.35798716545105,22.61603546142578,0.6673074960708618,2.2551772594451904,-0.04756011441349983,,,,,,,,,
1739401932.6407003,0.5255053010105214,0.09597396485301943,-0.9531978938583909,-2.0690777466316654,0.13770462541732065,2.137584860964076,-1.2753441982403524,-0.0011053370558933185,-0.001571736321745351,-0.0004150837305699493,0.0005847888940557695,-0.0016249844941969309,0.0005012142719915619,9.791060254933323e-05,0.2411382496356964,-21.82431411743164,-2.35798716545105,22.56842803955078,0.6801248788833618,2.2551772594451904,-0.013685601763427258,,,,,,,,,
1739401932.6507976,0.5255086862792154,0.09597389486338984,-0.9531939266523788,-2.069085324158458,0.13770462541977288,2.1375824797466625,-1.2753453153624352,0.0009583454931303209,-0.0009408746650395932,0.0001537293753123634,-0.0009359256941028682,-0.0003108555456737559,-0.00031601372140274854,-0.0002771317190324358,0.1935308277606964,-21.82431411743164,-2.38179087638855,22.63983917236328,0.6801248788833618,2.2753188610076904,-0.013685601763427258,,,,,,,,,
1739401932.6616905,0.5255053009739583,0.09597580989658572,-0.9531919152397305,-2.0690813120709586,0.1377061407399296,2.1375849961442244,-1.2753393333308596,9.838137755389077e-05,-0.0009789059380073879,0.0004022586422638643,-0.00017678083331766604,-0.000518776262969378,0.0009054965966546491,0.0005613132647455488,0.2411382496356964,-21.84811782836914,-2.4095618724823,22.61603546142578,0.6673074960708618,2.2551772594451904,-0.06678618490695953,,,,,,,,,
1739401932.6717944,0.5255053019553291,0.09597194099276463,-0.9531939257529357,-2.0690830957151936,0.13770688068587372,2.137582479264435,-1.2753455084527068,-0.0007661123879096808,-0.0011804208648670284,0.0005472631109914016,-0.0006063325587579998,-0.0012845318510949927,-0.0004853584555418753,-0.00242313584480292,0.2411382496356964,-21.79654312133789,-2.38179087638855,22.63983917236328,0.6608988046646118,2.2753188610076904,-0.04756011441349983,,,,,,,,,
1739401932.682655,0.5255071312325005,0.09597213702252967,-0.9531939376325169,-2.0690756667718335,0.13770538356709622,2.137583345643886,-1.275343752124651,6.594847114076402e-05,-0.0006394627712909118,-0.0006814289711661273,0.0011788337740829527,-3.2844058912450465e-05,5.468809218269323e-05,-0.0007689744954078306,0.2173345386981964,-21.79654312133789,-2.38179087638855,22.54065704345703,0.6737161874771118,2.2679946422576904,-0.027418512850999832,,,,,,,,,
1739401932.6936564,0.5255073402168919,0.09597388622276615,-0.9531956996633111,-2.0690813120206886,0.1377046298076786,2.1375841033039733,-1.2753415544837028,0.00013188350877869947,-0.0006230297763580317,-0.001069134543592897,-0.0009931569567655626,0.000294660410850188,-9.38709943835322e-05,0.001966321440153196,0.2173345386981964,-21.82431411743164,-2.35798716545105,22.61603546142578,0.6801248788833618,2.2615859508514404,-0.05396880581974983,,,,,,,,,
1739401932.7047555,0.5255053363009867,0.09597557660202,-0.953192159678278,-2.0690795323961253,0.13770689840008224,2.1375841013659063,-1.2753468189000345,-0.0008169777612355633,-0.00015197092821260646,-0.0011062167125824689,-0.00021339475313748518,-0.0007629889588722811,-4.6165403150800696e-05,-0.00025160438095246705,0.2411382496356964,-21.84811782836914,-2.4095618724823,22.59223175048828,0.6608988046646118,2.2615859508514404,-0.027418512850999832,,,,,,,,,
1739401932.715771,0.5255070138220291,0.09597777994149617,-0.953195041320466,-2.0690777468173946,0.13770625921335933,2.1375848595104974,-1.2753437265421677,-0.00042222177225664955,0.001082816626898468,-0.0004377815679484096,6.188238546800826e-05,6.71576716392205e-05,-5.3598084351084085e-05,-0.0013513958275887662,0.2173345386981964,-21.84811782836914,-2.35798716545105,22.56842803955078,0.6673074960708618,2.2551772594451904,-0.05396880581974983,,,,,,,,,
1739401932.7267623,0.5255055402669125,0.09597472307786913,-0.9531957083139794,-2.0690777466666512,0.13770538308052002,2.137584878406646,-1.2753433755643384,-0.000584824817370533,0.00019731026379614337,-0.0002356903303161761,0.000580273193151198,0.0019737559054182736,0.002170528310701004,0.0009460625259354203,0.2411382496356964,-21.79654312133789,-2.35798716545105,22.56842803955078,0.6737161874771118,2.2551772594451904,-0.06678618490695953,,,,,,,,,
1739401932.737722,0.5255055511705712,0.095971889301911,-0.9531977893330238,-2.0690756668767953,0.1377061407399296,2.13758334564419,-1.2753400909031118,-0.00023932509146607015,3.865079481542378e-06,-0.0011659451073983648,0.001559260616178313,0.0006263435766161385,0.00021556798677934728,0.000749541990517578,0.2411382496356964,-21.79654312133789,-2.3302161693573,22.54065704345703,0.6673074960708618,2.2679946422576904,-0.06037749722599983,,,,,,,,,
1739401932.7487185,0.5255053111495052,0.09597257056077245,-0.9531957083177469,-2.0690756668767953,0.1377064493407189,2.1375841033039733,-1.275348946409374,-0.0002875902249467931,-0.0007291754477624871,-0.0004228508260656122,0.001012697726765076,-0.000284362108274785,0.00017261310800434796,-0.0008629023315277885,0.2411382496356964,-21.79654312133789,-2.35798716545105,22.54065704345703,0.6737161874771118,2.2615859508514404,-0.013685601763427258,,,,,,,,,
1739401932.7596805,0.5255111141260792,0.09597662221997164,-0.9531938135807497,-2.06907566547708,0.13770710894737884,2.1375820767528437,-1.2753438321637056,0.00109568947737986,0.0008463302388175115,0.000465723002909588,0.0012991803064670948,-0.0014583913512578141,-0.00026744282300430496,2.614959723679089e-05,0.1935308277606964,-21.84811782836914,-2.38179087638855,22.54065704345703,0.6938577890396118,2.2817275524139404,-0.05396880581974983,,,,,,,,,
1739401932.7706656,0.5255125872605083,0.09597460382574309,-0.953190066504271,-2.0690754371243285,0.13770782422556044,2.1375841033059753,-1.2753404948103548,0.0017754705295270627,0.00027521107863626333,0.0011770229127397904,0.0027944661563692455,0.0006332685709196741,-7.798158674001894e-05,0.0013059295715373105,0.1697271168231964,-21.82431411743164,-2.4333655834198,22.54065704345703,0.6801248788833618,2.2615859508514404,-0.05396880581974983,,,,,,,,,
1739401932.780708,0.5255087294315383,0.09597464757519346,-0.9531918458509264,-2.0690777438283368,0.13770614095661665,2.137584107664624,-1.2753428760089047,0.0004960979405994628,-0.0005649138395316272,0.0010104988444937888,0.001172364171960226,-0.00036837778602378987,9.258426052728339e-05,0.0017101736835881058,0.1935308277606964,-21.82431411743164,-2.4095618724823,22.56842803955078,0.6673074960708618,2.2615859508514404,-0.03382720425724983,,,,,,,,,
1739401932.7907624,0.5255070134949718,0.09597386020593547,-0.953197952940198,-2.0690821358686944,0.13770538454248984,2.137582479746736,-1.2753437533446197,-0.0007162260279926135,-0.0006547763618503832,-0.0015373219300228594,-0.0008160745135927783,-0.00042099706319504576,-0.0004304831156066233,-0.0012570323785816232,0.2173345386981964,-21.82431411743164,-2.3302161693573,22.61603546142578,0.6737161874771118,2.2753188610076904,-0.027418512850999832,,,,,,,,,
1739401932.8017035,0.5255070400948834,0.09597397651598417,-0.953196829090103,-2.0690777589941773,0.1377053830798595,2.13758526541142,-1.2753465439794471,-0.0009407291476740364,0.0004909697945037325,-0.0005802892090900523,0.0005667811189944996,-0.00155263458672967,-0.00010423133346129914,-0.0011096736573523642,0.2173345386981964,-21.82431411743164,-2.38179087638855,22.56842803955078,0.6737161874771118,2.2487685680389404,-0.0072769103571772575,,,,,,,,,
1739401932.811708,0.5255053814286392,0.09597473469612129,-0.9531957083669148,-2.0690813121339513,0.13770615894160879,2.137583383430219,-1.275340669226505,-0.001535317854846841,-0.000475090586927996,-0.0008166303460855886,-0.00013370815755251646,0.0005611550169207893,-0.0001243803401608526,0.000982400113833916,0.2411382496356964,-21.79654312133789,-2.35798716545105,22.61603546142578,0.6673074960708618,2.2679946422576904,-0.05396880581974983,,,,,,,,,
1739401932.821879,0.5255070136052926,0.09597472275403514,-0.9531939257517614,-2.069074991607516,0.1377068984003162,2.137583345644534,-1.2753398723145641,0.0004955433897038413,-0.0006696225484726034,-0.0009170610635289228,0.002148362015526033,-0.0014797465650940491,5.965710617393877e-05,0.0021518581767539565,0.2173345386981964,-21.79654312133789,-2.38179087638855,22.56842803955078,0.6608988046646118,2.2679946422576904,-0.06037749722599983,,,,,,,,,
1739401932.8327408,0.5255074467413952,0.09597401808478878,-0.9531917415018065,-2.0690795296672793,0.13770933995590584,2.1375841425498296,-1.2753451644196605,3.5471795081896235e-05,0.00016343030385583806,0.0004111008392014942,-0.0005292996350897701,0.0006242361023866091,0.0002899694752351404,-0.0011852799095914829,0.2411382496356964,-21.79654312133789,-2.38179087638855,22.59223175048828,0.6673074960708618,2.2615859508514404,-0.027418512850999832,,,,,,,,,
1739401932.8436928,0.5255087263790327,0.09597772856673828,-0.953197784111706,-2.0690795293436754,0.13770538313403025,2.1375841033046377,-1.2753404550870653,0.00026788999039753443,0.00014611248162354595,-0.0012742475447794876,-8.810599702657989e-05,0.0011300541708877494,-2.07340390313274e-05,0.0013948212528932648,0.1935308277606964,-21.84811782836914,-2.3302161693573,22.59223175048828,0.6737161874771118,2.2615859508514404,-0.05396880581974983,,,,,,,,,
1739401932.8547125,0.5255094006241449,0.09597568612458549,-0.9531957093170529,-2.0690853291328306,0.13770638940305063,2.1375841033039733,-1.2753398947787564,0.0007744387046200731,0.00019468708223706734,0.00017357553369843227,-0.0019342346278248095,-0.0007904606593120037,0.00019008832743063075,-0.0002399011902713438,0.2173345386981964,-21.84811782836914,-2.35798716545105,22.63983917236328,0.6608988046646118,2.2615859508514404,-0.06037749722599983,,,,,,,,,
1739401932.8647244,0.5255008326877563,0.09597567737389884,-0.9531995698216591,-2.069075669967091,0.13770801147175557,2.1375852141767613,-1.2753391379114458,-0.0009962590749912847,0.00036616719915582386,-0.0016928760028001024,0.0006563514106384123,0.00024177164646806772,0.00033869651719908297,-0.00014141880654966682,0.3165166676044464,-21.84811782836914,-2.3064124584198,22.54065704345703,0.6544901132583618,2.2551772594451904,-0.06678618490695953,,,,,,,,,
1739401932.8747807,0.5255070135110818,0.09597268429372093,-0.9531939350786918,-2.0690779969680553,0.13770629871052148,2.1375841033099547,-1.2753436336716661,0.0001379203161343371,-0.0002115618076006794,0.000964509883116124,-0.000782272056090683,0.00044666176267882076,0.0004446088813363096,-0.0009048414088041655,0.2173345386981964,-21.79654312133789,-2.38179087638855,22.56842803955078,0.6673074960708618,2.2615859508514404,-0.027418512850999832,0,0,0,0.000,0,0
1739401932.8856838,0.525503305976769,0.09597484017946785,-0.9531957096502189,-2.0690797765939797,0.13770689861758634,2.1375841033039733,-1.2753511305055385,-0.0012303641292441166,0.0014475975133670153,-0.000395831127416366,6.923361726794442e-05,0.00010071417628162383,0.0005809872642468006,-0.0021598399909927716,0.2689092457294464,-21.82431411743164,-2.35798716545105,22.59223175048828,0.6608988046646118,2.2615859508514404,-0.0008682189509272575,0,0,0,0.000,0,0
1739401932.895753,0.525507650749561,0.09597085902865314,-0.9531939266400639,-2.069075666880982,0.1377063118682207,2.1375848566034006,-1.275339737366745,0.0003371011364933211,-0.0015049488441324385,0.0007196693003187561,0.0009436088876193099,-1.63309346867708e-05,-0.0001989718138801541,0.0005568289617123706,0.2173345386981964,-21.77273941040039,-2.38179087638855,22.54065704345703,0.6673074960708618,2.2551772594451904,-0.06037749722599983,0,0,0,0.000,0,0
1739401932.9066992,0.5255087253833142,0.0959740971636491,-0.9531939256407311,-2.069083083360016,0.1377047453568036,2.1375841033039484,-1.2753482268877616,0.0007803779086189243,-0.0012246966469814905,-0.0003711034172873295,0.0003979128506479937,7.322570006255546e-05,-0.0001385856897911136,-6.044020048488164e-05,0.1935308277606964,-21.82431411743164,-2.38179087638855,22.63983917236328,0.6801248788833618,2.2615859508514404,-0.027418512850999832,0,0,0,0.000,0,0
1739401932.9177375,0.5255074471047786,0.09597565505189481,-0.9531956913112067,-2.0690795293436057,0.13770614659114638,2.1375856186241298,-1.2753454603021115,-0.000974480974629528,-0.0017058892794351488,0.0002688356975017463,-0.0007655023644509943,-0.00027541158090137364,0.0007728970740325061,-0.0006826485278128959,0.2411382496356964,-21.84811782836914,-2.35798716545105,22.59223175048828,0.6673074960708618,2.2487685680389404,-0.04023589566349983,0,0,0,0.000,0,0
1739401932.9286659,0.5255070135070289,0.0959787306183239,-0.953194972215649,-2.0690813120206886,0.13771035032037415,2.1375833458054,-1.2753453365279361,-0.00020113587152137212,0.0005897207941786548,-0.0005373838813025002,-0.0004218729463117161,0.0009805236617944964,2.410139076367755e-05,-0.0013136397132304481,0.2173345386981964,-21.84811782836914,-2.38179087638855,22.61603546142578,0.6407572031021118,2.2679946422576904,-0.04023589566349983,0,0,0,0.000,0,0
1739401932.93879,0.5255053127479399,0.09597660477234518,-0.9531918241985822,-2.069079264808221,0.13770566686434307,2.137584860964054,-1.2753436773299902,0.0005444964562998131,-8.997676274388999e-05,0.0007035076581540355,0.0008175553719481116,-0.00014883248521995872,0.0006554469931850052,-0.0005327383177930029,0.2411382496356964,-21.84811782836914,-2.4095618724823,22.61603546142578,0.6673074960708618,2.2551772594451904,-0.027418512850999832,0,0,0,0.000,0,0
1739401932.9497204,0.5255040192702799,0.09597598678146385,-0.9531938187501521,-2.069081309174709,0.13770766049948768,2.1375841033039733,-1.2753446954607663,-0.0016258986992583725,-0.001012013772461934,7.289313828178059e-05,-0.000943940024763977,0.0006130236155017898,-0.00015468977731250745,-0.0008492384658966869,0.2689092457294464,-21.82431411743164,-2.38179087638855,22.61603546142578,0.6544901132583618,2.2615859508514404,-0.027418512850999832,0,0,0,0.000,0,0
1739401932.9606855,0.525505938378178,0.0959777365347376,-0.95319404256007,-2.0690815592695695,0.13770730063982212,2.137584405282024,-1.275346020437501,-0.0008523858968227883,0.0011624713568051154,-0.0003126277767932065,-0.00012786823215296328,0.0003073128206979353,0.0008237157516638884,-0.0009103276087353973,0.2411382496356964,-21.84811782836914,-2.38179087638855,22.61603546142578,0.6544901132583618,2.2679946422576904,-0.0072769103571772575,0,0,0,0.000,0,0
1739401932.970788,0.5255070135057084,0.09597606464922874,-0.9531918488507974,-2.069082496334619,0.13770538307383218,2.1375835394027365,-1.275342591237267,-8.232722987173741e-05,-0.0008393068582157881,0.0005381692161644405,-0.001431167168397652,-0.00016327865202046642,0.0004282170339676292,0.0009621220166832762,0.2173345386981964,-21.82431411743164,-2.4095618724823,22.59223175048828,0.6737161874771118,2.2753188610076904,-0.04023589566349983,0,0,0,0.000,0,0
1739401932.981732,0.5255053130749885,0.09598044750731115,-0.9531918458508869,-2.0690795568702027,0.13770976675926652,2.1375841031484493,-1.2753403775411316,-0.000529315348628016,0.0023083106846466,0.0009951892334439424,-0.00010466446687956515,0.0023816001576785354,-0.00041966959297376656,0.0013964357063579575,0.2411382496356964,-21.87192153930664,-2.4095618724823,22.59223175048828,0.6737161874771118,2.2615859508514404,-0.05396880581974983,0,0,0,0.000,0,0
1739401932.992654,0.525505301410316,0.09597868203262387,-0.9531957083177447,-2.069075667027689,0.13770693642289827,2.1375833456438937,-1.2753492068821604,-0.0007238883983863741,0.002643955839950395,-0.00034820671771477974,0.00023226899666206857,0.0011574520537497059,-0.0003726961085470744,-0.001212194056632671,0.2411382496356964,-21.84811782836914,-2.35798716545105,22.54065704345703,0.6737161874771118,2.2679946422576904,-0.0072769103571772575,0,0,0,0.000,0,0
1739401933.002788,0.5255070403129233,0.09597825994061168,-0.9531939209711954,-2.0690795293436723,0.13770538310615724,2.1375841033039733,-1.2753459752519054,0.0004935191117847826,0.002110043743555157,0.000304315332859055,-0.0008250498513864212,-0.0016990491561681734,0.0004090571057756724,-0.0008292113518663136,0.2173345386981964,-21.87192153930664,-2.38179087638855,22.59223175048828,0.6737161874771118,2.2615859508514404,-0.04756011441349983,0,0,0,0.000,0,0
1739401933.0137255,0.525503910235628,0.09597672497201605,-0.9531897325967243,-2.0690756682334417,0.13770614090244473,2.1375851236962458,-1.2753467770953768,-0.0005215562117994772,0.00028025970512782455,0.0010462042714826903,0.0016023410822537493,-0.0010473440712979593,-0.0005776252504259934,0.00010166690587334556,0.2411382496356964,-21.82431411743164,-2.4095618724823,22.54065704345703,0.6673074960708618,2.2615859508514404,-0.0008682189509272575,0,0,0,0.000,0,0
1739401933.024706,0.5255054517361301,0.09597014942316436,-0.9531950062955545,-2.069077991081132,0.13770857168473852,2.1375809243953454,-1.2753471672496566,-0.00031337285334387844,-0.0024414946008907918,0.00019370563258401053,-0.0002439377283235311,0.0012717161965871795,-0.0005760163493784946,-0.0011802497563169639,0.2689092457294464,-21.77273941040039,-2.35798716545105,22.56842803955078,0.6480814218521118,2.2615859508514404,-0.027418512850999832,0,0,0,0.000,0,0
1739401933.035786,0.5255091592742552,0.095973895834859,-0.9531986223186373,-2.069073884201156,0.13770626360215585,2.137586678244314,-1.2753452630605517,0.0002534698027943506,1.704584433505872e-05,-0.0014436297108304879,0.0010337387379628338,0.0003923023200897403,0.0006942814240847109,-0.001179079618091848,0.2173345386981964,-21.82431411743164,-2.35798716545105,22.51685333251953,0.6673074960708618,2.2487685680389404,-0.013685601763427258,0,0,0,0.000,0,0
1739401933.0467255,0.5255087260640968,0.09597565112650912,-0.9531936915837691,-2.069083105962722,0.13771040578409371,2.137583345649876,-1.2753436729148724,-0.0006982009224406373,6.327823563424947e-05,0.0003989209023317554,-0.0011170827619580888,0.0011268039046561235,-0.0003882285847958476,0.0010569576158243772,0.1935308277606964,-21.84811782836914,-2.38179087638855,22.63983917236328,0.6673074960708618,2.2679946422576904,-0.027418512850999832,0,0,0,0.000,0,0
1739401933.0576577,0.5255070134949141,0.09597282424883562,-0.9531939296366674,-2.069079529343733,0.13771070132263016,2.137584900209908,-1.2753452579264826,0.00027675629093014794,-0.00053585968546048,0.0017725905829234752,0.00040363398237172187,0.0012453589277868589,-1.2974752582210378e-05,-0.000820741168539184,0.2173345386981964,-21.79654312133789,-2.38179087638855,22.59223175048828,0.6407572031021118,2.2551772594451904,-0.013685601763427258,0,0,0,0.000,0,0
1739401933.0677063,0.5255087260156451,0.09597109426728641,-0.9531939259738984,-2.06907952934367,0.137706147102091,2.137584109118839,-1.2753421188333547,0.0005572744104022153,-0.0016695736193694328,0.00046051830700499373,-0.0011335183802259254,-0.0015397522376523504,-0.0002641093566365832,0.00037018524098768584,0.1935308277606964,-21.77273941040039,-2.38179087638855,22.59223175048828,0.6673074960708618,2.2615859508514404,-0.04023589566349983,0,0,0,0.000,0,0
1739401933.0787663,0.5255070164383532,0.09597186495724776,-0.9531918471832929,-2.06907952934367,0.13770725970986247,2.1375848958492902,-1.2753444996200531,-0.00032153197336072086,-0.0011159390588262397,0.00041714223738281264,7.924369911476394e-05,0.0013432680824849057,3.912023762081703e-05,-0.0015710180515690702,0.2173345386981964,-21.79654312133789,-2.4095618724823,22.59223175048828,0.6673074960708618,2.2551772594451904,-0.020094294100999832,0,0,0,0.000,0,0
1739401933.0906634,0.5255056227198857,0.09597793936189976,-0.9531918458508775,-2.0690820537673793,0.13770300333141372,2.13758410475772,-1.2753471657960809,-0.0005238093693036605,0.0006564545942851952,0.00032378525086467505,-0.0005242532543905571,-0.001142109934654883,1.9646572621099803e-05,-0.001257838690153349,0.2173345386981964,-21.84811782836914,-2.4095618724823,22.61603546142578,0.6938577890396118,2.2615859508514404,-0.027418512850999832,0,0,0,0.000,0,0
1739401933.1006887,0.5255070136324179,0.09597580875767664,-0.9531900665049036,-2.0690778321395924,0.13770369961741327,2.1375841033039813,-1.2753500192922893,8.599069970122575e-05,6.26070274971299e-05,0.0008851494361745487,0.0001394830403841147,-0.001216232492639785,-0.00012784051190390058,-0.0026120177294572094,0.2173345386981964,-21.84811782836914,-2.4333655834198,22.56842803955078,0.6608988046646118,2.2615859508514404,-0.013685601763427258,0,0,0,0.000,0,0
1739401933.110754,0.5255053009741849,0.09597386084463967,-0.9531957054288699,-2.0690795293451174,0.1377068996459562,2.1375841033039733,-1.2753475862383699,-0.00045249019547293363,-0.00020145818853528396,0.0005332854093447838,-0.0009036977070628273,-9.400150284609443e-05,-0.0005588318735854013,-0.0013889085242414423,0.2411382496356964,-21.82431411743164,-2.35798716545105,22.59223175048828,0.6608988046646118,2.2615859508514404,-0.03382720425724983,0,0,0,0.000,0,0
1739401933.1217067,0.5255072640142987,0.09597420203430844,-0.9531940065852885,-2.069081311818807,0.1377057385001475,2.1375848609640515,-1.275338113816497,0.000302357010551314,0.0004521948225934138,0.0002485470585288695,0.00040914836564951026,-1.656150178364497e-05,0.0006420621031132559,0.0018223696661953644,0.2173345386981964,-21.82431411743164,-2.38179087638855,22.61603546142578,0.6737161874771118,2.2551772594451904,-0.07411040365695953,0,0,0,0.000,0,0
1739401933.1327271,0.5255070968937734,0.09597187489047652,-0.9531897398575565,-2.0690795296828304,0.1377083259337109,2.137584109118174,-1.2753390976938872,0.0006459928538148297,-0.00013793525610603075,0.0007213670422263773,0.0007145953019023131,0.0016827309750422634,-0.00011587575291576555,0.0020951203227021122,0.2173345386981964,-21.79654312133789,-2.4095618724823,22.59223175048828,0.6608988046646118,2.2615859508514404,-0.06678618490695953,0,0,0,0.000,0,0
1739401933.1427336,0.5255053010846112,0.09597772842243624,-0.953197788071935,-2.0690813120206943,0.13770688526046893,2.137584103304072,-1.2753452635271234,-0.0009327636245195026,-0.0005029099119779015,-0.001259799989766197,0.00011452284460599933,-0.0006129522102068382,0.00017011972994096237,6.702601982111218e-06,0.2411382496356964,-21.84811782836914,-2.3302161693573,22.61603546142578,0.6608988046646118,2.2615859508514404,-0.013685601763427258,0,0,0,0.000,0,0
1739401933.1537287,0.5255033148070872,0.09597387284156893,-0.9531956996509511,-2.069081312020689,0.13770937901360158,2.1375848609640515,-1.2753447333440684,-0.00146940296796591,7.616904405342427e-05,-0.00045465213944647276,-0.0010209565891152273,0.0009397040173485095,2.891531244058674e-05,-0.00019509654540586057,0.2689092457294464,-21.82431411743164,-2.35798716545105,22.61603546142578,0.6673074960708618,2.2551772594451904,-0.05396880581974983,0,0,0,0.000,0,0
1739401933.1637998,0.525508752615814,0.0959747257297963,-0.9531939346344209,-2.069077746666651,0.13770463863832777,2.1375848609640515,-1.2753455786567949,0.0009311039617391971,0.0005303082380161677,0.00014697448705288592,-0.00037542670503210615,-0.00098695891954672,0.00016477763714989373,-0.0012573406467772932,0.1935308277606964,-21.79654312133789,-2.38179087638855,22.56842803955078,0.6801248788833618,2.2551772594451904,-0.020094294100999832,0,0,0,0.000,0,0
1739401933.1747267,0.525507449684984,0.09597633529292313,-0.953193587635836,-2.069080280247727,0.13770658979929323,2.1375856186241298,-1.275340848656339,-0.00017383470166293423,9.222526938794414e-05,0.0008490960765131684,-0.00034101958989017503,8.646494822408038e-05,0.00014806593956799823,0.0018260471495174485,0.2411382496356964,-21.82431411743164,-2.38179087638855,22.59223175048828,0.6544901132583618,2.2487685680389404,-0.05396880581974983,0,0,0,0.000,0,0
1739401933.184744,0.5255070125683254,0.0959719708405569,-0.9531925753456755,-2.069081312033405,0.13770478336628866,2.1375833456438946,-1.2753511763910843,0.00011982171701083234,-0.0006726116611917504,0.00046204593269270195,-0.0008261138337591758,2.5833967494193275e-06,-0.0002713855296417932,-0.003096137649484412,0.2173345386981964,-21.79654312133789,-2.4095618724823,22.61603546142578,0.6801248788833618,2.2679946422576904,0.0064559997990727425,0,0,0,0.000,0,0
1739401933.1957564,0.5255070478532026,0.09597394166638405,-0.9531939256448435,-2.0690805892428292,0.13770462395802957,2.1375833456438946,-1.2753478322046614,0.0006965297746783664,-0.000805281754880166,-0.0005727493108445127,-0.00025262599980812944,-0.0017068501580364765,-0.00040277986266963194,-0.0013252981301617103,0.2173345386981964,-21.82431411743164,-2.38179087638855,22.61603546142578,0.6801248788833618,2.2679946422576904,-0.0008682189509272575,0,0,0,0.000,0,0
1739401933.2066588,0.5255068972292575,0.09597469656818654,-0.9531939253197332,-2.0690794528101693,0.13770689856251467,2.1375856186241298,-1.2753389969203839,-0.00011591222707052522,0.00037296927389023613,-0.00042085128628536377,-0.0007057298432270614,-0.0008678185437456839,0.0005526329758123182,0.000779207796771144,0.2173345386981964,-21.79654312133789,-2.38179087638855,22.59223175048828,0.6608988046646118,2.2487685680389404,-0.06678618490695953,0,0,0,0.000,0,0
1739401933.216692,0.5255104385344073,0.09598011959804512,-0.95319392564072,-2.069079529455428,0.1377046649109189,2.1375824797466625,-1.275344617465586,0.00021958747480865662,0.0011070609445156777,0.0005002350967856319,2.1338642816504485e-05,-0.00038021786401662633,-0.0004965750659025924,0.00017797847305202748,0.1697271168231964,-21.87192153930664,-2.38179087638855,22.59223175048828,0.6801248788833618,2.2753188610076904,-0.020094294100999832,0,0,0,0.000,0,0
1739401933.2267272,0.5255033030333297,0.09597681206804566,-0.9531939256407255,-2.069077746779706,0.1377084137208334,2.1375833456438946,-1.2753464858387584,-0.0009681462955333088,-0.0006304718966588917,0.0006762959040954139,0.0007551720631863066,0.0003271818309474874,-0.0005637547728304769,-0.00037835212330836426,0.2689092457294464,-21.82431411743164,-2.38179087638855,22.56842803955078,0.6480814218521118,2.2679946422576904,-0.0072769103571772575,0,0,0,0.000,0,0
1739401933.2377253,0.5255102013486359,0.09597773376722032,-0.9531939257517605,-2.069074589691085,0.1377069062007276,2.1375824797466625,-1.2753437075664202,0.0019242772421008492,-0.0002335745426068161,0.00012314334607166436,0.0012596345454877183,-0.0006785357358439304,-0.00032599542843862164,-0.0018073829199607655,0.2173345386981964,-21.84811782836914,-2.38179087638855,22.54065704345703,0.6608988046646118,2.2753188610076904,-0.04023589566349983,0,0,0,0.000,0,0
1739401933.2487032,0.5255107564821493,0.09597491103952582,-0.9531957114267278,-2.0690796657829598,0.13770689661238705,2.1375841163859253,-1.2753436909216345,0.0012983483022196503,0.0012049326291855946,-0.0008420731125221052,0.0008750900633828556,-0.0009176989453673876,-0.0002566143828376025,-0.0012136372489775606,0.1697271168231964,-21.82431411743164,-2.35798716545105,22.56842803955078,0.6608988046646118,2.2615859508514404,-0.06678618490695953,0,0,0,0.000,0,0
1739401933.258709,0.5255104650327138,0.09597670446301051,-0.9531925394444166,-2.069083094730208,0.13770842883402867,2.1375809644267267,-1.2753416113593987,0.0014249806773214313,-0.00046099059280342694,0.0008234480567659491,-0.0015261737010007989,0.0011361393695184163,-0.001340994289327613,0.0006257419130622082,0.1697271168231964,-21.82431411743164,-2.38179087638855,22.63983917236328,0.6480814218521118,2.2881362438201904,-0.05396880581974983,0,0,0,0.000,0,0
1739401933.2687254,0.5255070164388018,0.09597418663749561,-0.9531982205741756,-2.0690813132723576,0.13770685890912066,2.1375833456438946,-1.2753436911674154,-0.0009744708112260166,0.00017721799112175153,-0.001635536996601478,-0.0004296458383663591,-0.001150018636909049,2.5439326225986273e-05,-0.0006446690110785351,0.2173345386981964,-21.82431411743164,-2.35798716545105,22.61603546142578,0.6608988046646118,2.2679946422576904,-0.05396880581974983,0,0,0,0.000,0,0
1739401933.2796576,0.5255080318727418,0.09597267946948128,-0.9531964368331403,-2.0690802254785696,0.13770614659024638,2.1375833456438946,-1.2753458580166743,0.00033263059718139493,-0.001830328841110822,-0.0009817014148309248,5.137665321701385e-05,-0.00035221008986299887,-0.0006732351912985612,-0.0013630520354901356,0.1935308277606964,-21.79654312133789,-2.35798716545105,22.56842803955078,0.6673074960708618,2.2679946422576904,-0.04756011441349983,0,0,0,0.000,0,0
1739401933.2897308,0.525505309792745,0.09597770165036093,-0.953193925653063,-2.06907952088238,0.13770614074002865,2.1375833456438946,-1.2753424847214838,-0.0001352707033571328,-0.0002372870934644562,0.00042846129955567577,7.674065967972789e-05,0.0008990691173405969,-0.00044004600520330375,0.0006130511887064791,0.2411382496356964,-21.84811782836914,-2.38179087638855,22.59223175048828,0.6673074960708618,2.2679946422576904,-0.04023589566349983,0,0,0,0.000,0,0
1739401933.299734,0.5255053019554784,0.09597633963409986,-0.953193223630465,-2.0690777466665073,0.13770721138870204,2.137583502627321,-1.2753446991275177,0.00018733713235946476,-0.00047253600139983946,-0.0001380081603675424,0.0015415281537159158,0.0003891394367473668,0.0005973108541442064,-0.0007580787558056766,0.2411382496356964,-21.82431411743164,-2.38179087638855,22.56842803955078,0.6673074960708618,2.2679946422576904,-0.027418512850999832,0,0,0,0.000,0,0
1739401933.3097553,0.5255070134949306,0.09597581879494563,-0.9531900641612782,-2.0690797765925666,0.13770538309798278,2.13758486096671,-1.275344660928336,7.568491311565423e-05,-0.0003018788020396261,0.0020406119607227673,-0.0005620994243828568,0.0013088300949048893,-0.00046825323844112445,-0.00041870606051698034,0.2173345386981964,-21.84811782836914,-2.4333655834198,22.59223175048828,0.6737161874771118,2.2551772594451904,-0.020094294100999832,0,0,0,0.000,0,0
1739401933.3206801,0.5255033030333297,0.09597852079792435,-0.9531918429619445,-2.069081235492664,0.13770538307985136,2.1375841033039733,-1.2753447391591446,-0.0013465709219450163,0.0011821912940065806,0.0011171042061054082,-0.0010646669497357828,-0.0009305237714038867,0.000567023931629748,0.00046341788695667346,0.2689092457294464,-21.84811782836914,-2.4095618724823,22.61603546142578,0.6737161874771118,2.2615859508514404,-0.05396880581974983,0,0,0,0.000,0,0
1739401933.331642,0.525503329960348,0.0959785122806354,-0.9531919264744406,-2.069075666876363,0.1377111639310235,2.1375848609640515,-1.275344487411436,-0.0012495198245627273,0.00027183168074313617,0.0006702915080301709,0.000749795464168721,0.0011371017890742358,0.0007105312935815907,0.0008313573152422366,0.2689092457294464,-21.84811782836914,-2.4095618724823,22.54065704345703,0.6608988046646118,2.2551772594451904,-0.06037749722599983,0,0,0,0.000,0,0
1739401933.3416808,0.5255088055979771,0.09597469748156696,-0.9531936916386706,-2.0690795293436697,0.13770841379240176,2.1375841037884897,-1.2753453159333765,0.00033006331591291607,0.00023184215861989243,0.0008142909859244569,-0.001195989909960332,0.00045475501339946626,0.0007735141791546294,-0.0018355614289904672,0.1935308277606964,-21.79654312133789,-2.38179087638855,22.59223175048828,0.6480814218521118,2.2615859508514404,-0.013685601763427258,0,0,0,0.000,0,0
1739401933.351683,0.5255052884568289,0.095975012859827,-0.9531920886806451,-2.0690778290829495,0.13770538307985247,2.137579864751464,-1.2753442898133074,-0.001328376792222358,0.0001136701711070292,0.00044528264071782436,-3.909735427668539e-05,-0.0017438133832338703,-0.0020669671691706006,-0.00014540144466479714,0.2411382496356964,-21.79654312133789,-2.4095618724823,22.56842803955078,0.6737161874771118,2.2615859508514404,-0.06037749722599983,0,0,0,0.000,0,0
1739401933.3627112,0.5255087260155744,0.0959728198583376,-0.9531917678511007,-2.0690777466671157,0.13770618071861782,2.1375841032800467,-1.2753461720571142,0.0006109758403878995,-0.000124775702381885,0.0010234226326073105,0.0008952102220330786,0.0004038871318438954,-0.0005306862719325477,-0.0028793030094778353,0.1935308277606964,-21.79654312133789,-2.4095618724823,22.56842803955078,0.6673074960708618,2.2615859508514404,-0.0072769103571772575,0,0,0,0.000,0,0
1739401933.3727467,0.5255091593711421,0.09597606884106887,-0.9531936383720452,-2.0690777381633816,0.13770538324304327,2.137584103303973,-1.2753436336716444,0.0009648365506331693,-0.0009902971822734353,0.0002591013096011544,0.0012187738853857684,-0.000769690661917192,-0.00023555551892532665,0.0017881132245262247,0.2173345386981964,-21.82431411743164,-2.35798716545105,22.56842803955078,0.6737161874771118,2.2615859508514404,-0.027418512850999832,0,0,0,0.000,0,0
1739401933.3827775,0.5255070223615722,0.09597490973264934,-0.9531957172765321,-2.069077774138606,0.1377069115637251,2.1375834633814645,-1.275348348985981,0.0009008643046716706,0.00037199491317842876,-0.0009451519854466301,-5.958006835689214e-06,-0.00033030994657967693,-0.00015337716396182204,-0.002558487320168427,0.2173345386981964,-21.82431411743164,-2.35798716545105,22.56842803955078,0.6608988046646118,2.2679946422576904,-0.027418512850999832,0,0,0,0.000,0,0
1739401933.393673,0.5255070400222559,0.09597599743823924,-0.9531939346346182,-2.069081303517575,0.1377081474599528,2.137584860964716,-1.275345296714219,9.203125866721505e-05,0.0003514961831665505,0.0002674631136073055,-0.0006889111117674979,-0.000867290110227041,0.0009640296101593314,-0.0009285765846191434,0.2173345386981964,-21.82431411743164,-2.38179087638855,22.61603546142578,0.6737161874771118,2.2551772594451904,-0.013685601763427258,0,0,0,0.000,0,0
1739401933.4046893,0.5255108727641532,0.09597387154538238,-0.9531957087619357,-2.0690793032600316,0.13770629877427926,2.1375856186241298,-1.275343535560539,0.0013795412738349944,-0.001507242925367731,-0.0006470421798487236,-0.0003310896973375016,-2.639407975715179e-05,0.00034086990121876817,0.0006052400351184962,0.1935308277606964,-21.82431411743164,-2.35798716545105,22.59223175048828,0.6673074960708618,2.2487685680389404,-0.04023589566349983,0,0,0,0.000,0,0
1739401933.4147084,0.5255072519498484,0.0959786431324996,-0.953193925640733,-2.0690824963266032,0.13770966128971257,2.1375841033039733,-1.2753381310411702,0.0002103653635878741,-8.205126044037638e-05,-0.0002095920147439192,-0.0009013055973249354,-0.00016760900206522883,-0.0008072282542480385,0.0022616801090754694,0.2173345386981964,-21.84811782836914,-2.38179087638855,22.59223175048828,0.6737161874771118,2.2615859508514404,-0.07411040365695953,0,0,0,0.000,0,0
