IITGN-Robotics/Franka_IITGN_ROBOTICS/franka_ros/franka_iitgn/data/b_35.csv
time,fr3_joint1_pos,fr3_joint2_pos,fr3_joint3_pos,fr3_joint4_pos,fr3_joint5_pos,fr3_joint6_pos,fr3_joint7_pos,fr3_joint1_vel,fr3_joint2_vel,fr3_joint3_vel,fr3_joint4_vel,fr3_joint5_vel,fr3_joint6_vel,fr3_joint7_vel,fr3_joint1_eff,fr3_joint2_eff,fr3_joint3_eff,fr3_joint4_eff,fr3_joint5_eff,fr3_joint6_eff,fr3_joint7_eff,flexpin1,flexpin2,flexpin3,Force,ContactMic,ContactMic_gt
1739401967.8972402,0.5255178657820269,0.09592795853524116,-0.953210950838605,-2.0690733304040694,0.13771253904647843,2.1375785767070425,-1.2753496485216993,-8.566946117648331e-05,0.0009591311707051787,-0.0004815599514263731,0.0001029684955870208,0.001588808058432191,-1.985944762946439e-05,-0.0007414983559618601,0.2411382496356964,-21.72116470336914,-2.2826087474823,22.59223175048828,0.6938577890396118,2.2679946422576904,-0.020094294100999832,,,,,,,,,
1739401967.9092348,0.5255173741166318,0.09594467085235267,-0.9532109776085975,-2.069077495417657,0.13771099882788682,2.1375769537150004,-1.2753543836895762,0.0009219132672185312,0.0002170206250959052,-0.0008293314578878489,-0.0006067426967952406,-0.0007004509764343121,-0.0006554691921437553,-0.0010319569941331663,0.2411382496356964,-21.74496841430664,-2.2826087474823,22.61603546142578,0.6938577890396118,2.2817275524139404,-0.013685601763427258,,,,,,,,,
1739401967.9192383,0.5255175649482321,0.0959589566675989,-0.9532052960352558,-2.0690764298980935,0.13771242707295503,2.137576955168552,-1.2753468744198833,0.0007895986239160871,0.0008267178974896431,-0.0002407734261795841,0.0001835787187918572,-4.456984512350472e-05,-0.001890832803575139,-0.00032798941117979897,0.2173345386981964,-21.79654312133789,-2.35798716545105,22.59223175048828,0.6938577890396118,2.2817275524139404,-0.05396880581974983,,,,,,,,,
1739401967.9301524,0.5255166098588975,0.0959720077362313,-0.9531973194873113,-2.069076429902142,0.1377133061400322,2.137583339102943,-1.2753490489983386,-0.0012439428317877594,0.0014986903618383896,-7.452384252015792e-05,-0.0010888929745521592,-0.00042504906817161477,0.0011370146947991893,7.556998514235522e-05,0.2173345386981964,-21.84811782836914,-2.4333655834198,22.59223175048828,0.6865335702896118,2.2679946422576904,-0.05396880581974983,,,,,,,,,
1739401967.940222,0.5255212897862814,0.09597940641829822,-0.9531965101191271,-2.069077410787527,0.13771239784396055,2.1375841033038623,-1.2753507474773769,0.0006099105187208553,0.001270540507125573,0.0004932407744350054,-0.0004790832330174599,-0.000545332746985759,0.0009608213467483934,-0.0011561197641609322,0.1935308277606964,-21.87192153930664,-2.4333655834198,22.56842803955078,0.6865335702896118,2.2615859508514404,-0.04756011441349983,,,,,,,,,
1739401967.950268,0.5255192801244623,0.0959902248804755,-0.953194714909591,-2.0690784450174453,0.1377134641014843,2.137581367780724,-1.275349782740477,-6.269752843872525e-05,0.0018874704793267333,0.0005091087533495203,-0.0006540614031587517,-0.0007452421500359874,-0.0008258638835280331,-0.0006068025300208674,0.1935308277606964,-21.92349624633789,-2.4571692943573,22.61603546142578,0.6865335702896118,2.2753188610076904,-0.05396880581974983,,,,,,,,,
1739401967.9621863,0.5255168758478242,0.09599779485695722,-0.953196499191501,-2.069083057694053,0.1377138190402476,2.13758247957888,-1.2753465271543092,-0.0008976810382423534,0.0004910918638254658,-0.0010297887140630231,-0.0011581678507164806,-0.0010111666317322242,-0.00031251877800193335,0.0019881064266741824,0.2173345386981964,-21.97507095336914,-2.4333655834198,22.63983917236328,0.6865335702896118,2.2753188610076904,-0.08051909506320953,,,,,,,,,
1739401967.973169,0.5255152183027251,0.09600431061729875,-0.9532007009472991,-2.0690823705550563,0.13771346605835116,2.137582479728717,-1.2753525821213956,-0.0003819571517069057,0.00016984846048267717,-0.0008062239448327927,0.000854352333401381,-0.0013833358207826262,-0.0003859911276014882,-0.0016915060932300883,0.2411382496356964,-21.95126724243164,-2.38179087638855,22.63983917236328,0.6865335702896118,2.2753188610076904,-0.020094294100999832,,,,,,,,,
1739401967.9841783,0.5255207502543744,0.09600178229301022,-0.9532024577366622,-2.069082053755116,0.13771498365308293,2.137582479746662,-1.275344275320214,0.0007961280182010463,-0.0005343689648922784,-0.0006753512312832518,0.0006938702502981384,0.000817544395118252,-0.0002053944343905081,0.001343151685357319,0.1697271168231964,-21.87192153930664,-2.35798716545105,22.61603546142578,0.6737161874771118,2.2753188610076904,-0.06678618490695953,,,,,,,,,
1739401967.9941854,0.5255156404980084,0.09600407244760065,-0.9532070334555645,-2.0690813225472633,0.13771346427008996,2.137585663021701,-1.2753468788738815,-0.0013419242904256857,0.0006150234736545328,-0.001411864144453937,-0.0008927477898887572,-0.001295682608221646,0.0006376068143519728,0.0005083957504372815,0.2411382496356964,-21.92349624633789,-2.3302161693573,22.61603546142578,0.6865335702896118,2.2753188610076904,-0.05396880581974983,,,,,,,,,
1739401968.0051553,0.5255166098441211,0.09600155059260305,-0.9532070342758764,-2.0690817902684198,0.1377121889549482,2.1375834633874544,-1.275349391348727,-0.0007125076895387257,0.0016846253491005765,-0.002408010224179241,-9.579809621063426e-06,-0.0005673709914527377,0.0006864343989542001,-0.00022375635779895721,0.2173345386981964,-21.82431411743164,-2.3302161693573,22.59223175048828,0.6737161874771118,2.2679946422576904,-0.06037749722599983,,,,,,,,,
1739401968.015167,0.5255170434162522,0.0959967118023611,-0.95320063305149,-2.0690795294950126,0.13771702395116342,2.1375836571243556,-1.27535165479158,0.0005710479759909144,0.0005177944483791641,-8.100959735490485e-05,-0.0013619198292697577,0.0007736497236700022,0.0004565853182743243,0.00017058720198907568,0.2411382496356964,-21.79654312133789,-2.38179087638855,22.59223175048828,0.6865335702896118,2.2753188610076904,-0.013685601763427258,,,,,,,,,
1739401968.025231,0.5255166099880832,0.09599647390876444,-0.953207381410556,-2.069081311075884,0.13771759677672313,2.137584103323912,-1.275349668970437,0.0008818529273842429,-0.00037271879613774857,0.00028509492748242794,-0.000941099999264903,0.00023898430578544926,-0.00029380073148433793,-0.0008053548041486677,0.2173345386981964,-21.79654312133789,-2.3302161693573,22.61603546142578,0.6801248788833618,2.2615859508514404,-0.027418512850999832,,,,,,,,,
1739401968.036208,0.5255152155404799,0.09599718712715437,-0.9532073844553919,-2.0690783283907708,0.137713465643362,2.137584861125557,-1.2753556705977727,0.0007704515107934943,0.000878973254495445,0.00048035333186053914,-9.621746927288813e-05,-0.0007250380557057727,-0.00022620010771115604,-0.0016825939605349244,0.2411382496356964,-21.79654312133789,-2.3302161693573,22.61603546142578,0.6865335702896118,2.2551772594451904,-0.0072769103571772575,,,,,,,,,
1739401968.0462544,0.5255111869748126,0.0959974248657238,-0.9532091681135745,-2.0690777466161223,0.137714981540381,2.1375842601258968,-1.2753543880503653,-0.0006887070511428083,0.0016751386123083588,-8.709876341238303e-05,-0.00028479113632316814,-0.000551614925768014,-0.0003283393025006213,-0.0007133290078625631,0.2927129566669464,-21.79654312133789,-2.3064124584198,22.56842803955078,0.6737161874771118,2.2615859508514404,-0.020094294100999832,,,,,,,,,
1739401968.0571928,0.5255128993811391,0.09599571224075956,-0.9532035222799229,-2.069077737743467,0.13771498576575672,2.1375848669944784,-1.2753501507452816,-0.0004775069614136945,0.0007518693507907532,0.0025261888151357835,-0.0008906722228243327,0.000549828342131618,-0.0005828447530246643,-0.00011230761660126199,0.2689092457294464,-21.77273941040039,-2.38179087638855,22.56842803955078,0.6737161874771118,2.2551772594451904,-0.05396880581974983,,,,,,,,,
1739401968.0672219,0.52551668899459,0.0959963899116907,-0.9532014418776914,-2.0690777466664994,0.13771746020395026,2.1375848609641537,-1.2753549126822274,0.0006152284123346648,0.001186727570322344,0.0007254401100456458,-0.00044926966961231045,0.00037664724810876387,-0.0005070625482043934,-0.0006269284022516835,0.2173345386981964,-21.79654312133789,-2.4095618724823,22.56842803955078,0.6801248788833618,2.2551772594451904,-0.013685601763427258,,,,,,,,,
1739401968.0772405,0.525518313698001,0.09599357756810938,-0.953202262621085,-2.069077712653575,0.13771426716410792,2.1375834633814645,-1.2753502222949713,-0.0002817807715481789,0.0001211552351826702,5.776653322042962e-05,0.00033731361549030873,0.00042627438536981443,-0.0006743956044491232,-0.0004986975514822861,0.1935308277606964,-21.77273941040039,-2.35798716545105,22.56842803955078,0.6801248788833618,2.2679946422576904,-0.05396880581974983,,,,,,,,,
1739401968.0881648,0.5255148710004723,0.09599899176280312,-0.9532031725828741,-2.0690738841992,0.13771422826895025,2.1375818792335095,-1.275348702076441,-0.0012786239662633827,0.0005874869590230906,-0.0006462444654841257,0.001033452580740318,-0.000636160173519144,-0.0008608678844334602,0.0033152274852056114,0.2411382496356964,-21.84811782836914,-2.35798716545105,22.51685333251953,0.6801248788833618,2.2817275524139404,-0.05396880581974983,,,,,,,,,
1739401968.0982287,0.5255183501624537,0.09600036491495993,-0.9532034959761186,-2.069084877374727,0.13771367963924133,2.1375883418573776,-1.2753533020488572,0.0006839549176229512,-0.0002393113299221427,-0.00046427753417398085,-0.001400308243599707,-0.000943615934103596,0.0003801780918641967,-0.00012024571423620463,0.1935308277606964,-21.87192153930664,-2.38179087638855,22.66364288330078,0.6938577890396118,2.2615859508514404,-0.013685601763427258,,,,,,,,,
1739401968.1092105,0.525514660429797,0.09600000625027805,-0.9531993361677499,-2.069081315073144,0.13771855124244783,2.137584275492851,-1.2753507333605854,-0.000488903069999148,-0.0006559469917484188,0.0018594413783041023,0.0007102575592020224,0.0013002812523250356,0.0008006794943307529,0.0022010728794475435,0.2411382496356964,-21.87192153930664,-2.4095618724823,22.61603546142578,0.6737161874771118,2.2615859508514404,-0.04756011441349983,,,,,,,,,
1739401968.1212637,0.525514893468746,0.09600652322162438,-0.9532044984013376,-2.0690795292037154,0.1377185879848945,2.137585214393074,-1.2753493930829025,-0.0008078395093253135,0.0008397005290684569,-0.0014049341794248743,0.001020928518883714,0.001887664241384158,-0.0003707165995035447,0.0004939481999294108,0.2411382496356964,-21.92349624633789,-2.3302161693573,22.59223175048828,0.6737161874771118,2.2551772594451904,-0.06037749722599983,,,,,,,,,
1739401968.1322608,0.525516609735718,0.09600497915108697,-0.9532005061676787,-2.069082383432575,0.13771514348430683,2.137585672443525,-1.275354273310074,0.00028870004097926845,0.0009582292645056837,-0.00015019098286876817,-0.001303818094171217,-0.00191890907324044,-0.00042621715758472397,-0.0019484602014441135,0.2173345386981964,-21.87192153930664,-2.4095618724823,22.61603546142578,0.6737161874771118,2.2753188610076904,-0.020094294100999832,,,,,,,,,
1739401968.1442194,0.5255166085587527,0.09600285663309277,-0.9531993387380249,-2.069077792615583,0.13771732816461554,2.137583831632216,-1.275354913179522,0.0004568055844321403,-0.00024067938659068242,0.0016002143765311825,0.00041362531266605574,0.0016686392824575512,0.0002780744920013868,-0.00112297547729925,0.2173345386981964,-21.87192153930664,-2.4333655834198,22.59223175048828,0.6673074960708618,2.2679946422576904,-0.013685601763427258,,,,,,,,,
1739401968.1551538,0.5255128963495417,0.09600484709204554,-0.9532045206589776,-2.069079565969868,0.1377170190356783,2.137585716068227,-1.2753566038842146,-0.0007716488517072585,0.0009949176454799125,0.00010815033855710263,0.001111901611810258,-0.0011671182691890933,0.0002716433023976926,-0.0009591589048590546,0.2689092457294464,-21.89969253540039,-2.35798716545105,22.59223175048828,0.6865335702896118,2.2753188610076904,0.012864691205322742,,,,,,,,,
1739401968.1651897,0.5255144267918956,0.09600326619740696,-0.9532053036892992,-2.0690736016005484,0.13771470171937644,2.1375837096664836,-1.2753560664314614,0.0007010759046356508,0.0010460459996623575,0.00028456111961226954,0.0020407196457997824,0.0001889498733446343,-0.0016446258548027289,-0.0012097969645458147,0.2173345386981964,-21.84811782836914,-2.35798716545105,22.54065704345703,0.6865335702896118,2.2753188610076904,-0.0008682189509272575,,,,,,,,,
1739401968.175198,0.5255182875523129,0.09599824962450602,-0.9532073844553925,-2.069077746526696,0.1377150101335888,2.137585221589458,-1.2753549131727255,0.0011558838390132687,-0.0002589169337313349,-0.0005383599706685561,0.0009103277512956442,-0.0005135411049587388,0.0007231006321603338,-0.0005890470021045521,0.1935308277606964,-21.79654312133789,-2.3302161693573,22.56842803955078,0.6865335702896118,2.2615859508514404,-0.013685601763427258,,,,,,,,,
1739401968.1862178,0.5255166097355287,0.09599742584873865,-0.9532022616581135,-2.0690807412385657,0.13771824303210853,2.1375880566065546,-1.2753513943795842,0.0005469848336329369,-0.0008105365586426129,0.0004461782482540393,-0.0004612413616864617,0.001397095508090955,0.00018527056796501922,0.0016520665613826353,0.2173345386981964,-21.79654312133789,-2.35798716545105,22.56842803955078,0.6865335702896118,2.2679946422576904,-0.04023589566349983,,,,,,,,,
1739401968.1971848,0.5255166098427209,0.09599855339551046,-0.9532053046140199,-2.069072102590955,0.13771309119917563,2.137589258033326,-1.2753486354178187,-0.000678498157075926,0.00044614892518339566,-0.0007588886902940265,0.0008351031104700483,-0.0008647421920849324,0.0009385636211579973,0.0015480446361698782,0.2173345386981964,-21.77273941040039,-2.35798716545105,22.49304962158203,0.6938577890396118,2.2551772594451904,-0.06678618490695953,,,,,,,,,
1739401968.2072198,0.5255162164416881,0.0959957125094022,-0.9532034955601643,-2.0690778290829557,0.13771739635987254,2.1375874588226202,-1.2753526220020663,0.0009346428147607459,-0.00028473039687608914,-0.002321985629625645,-0.0010413546401987785,0.0020989125145071544,0.00036556864147489114,-0.001706620566109505,0.1935308277606964,-21.77273941040039,-2.38179087638855,22.56842803955078,0.6938577890396118,2.2615859508514404,-0.03382720425724983,,,,,,,,,
1739401968.2181995,0.5255166011640413,0.0959976105514113,-0.9532032086998555,-2.0690812865113473,0.13772160178739878,2.137585217442261,-1.2753501509059828,-0.0009394330488387009,0.002087810191995996,0.0006431697495959068,-0.00130894942095851,0.0011889187202853708,0.0002269365534049981,8.835496960994497e-05,0.2173345386981964,-21.82431411743164,-2.38179087638855,22.61603546142578,0.6801248788833618,2.2615859508514404,-0.05396880581974983,,,,,,,,,
1739401968.2291667,0.5255107929223176,0.09599952802832591,-0.9532006361851295,-2.069079526509103,0.13771826077917582,2.137586841120011,-1.27535015074397,-0.0014647402854322806,0.0007241936806806873,0.0010891438481881656,-0.0004994880482908101,0.0005450433598701621,-0.00034301386389417644,-0.0008525433038247262,0.2689092457294464,-21.82431411743164,-2.4095618724823,22.59223175048828,0.6865335702896118,2.2487685680389404,-0.05396880581974983,,,,,,,,,
1739401968.2392743,0.5255166088440726,0.09599814392921152,-0.9532013032757889,-2.069079971906674,0.1377182614667886,2.1375888535268803,-1.2753548997698563,0.00011469363911836763,-0.0009103860412102595,0.0017650497521860002,0.0006515540456603783,-0.0003592522495181619,0.0008575987178340399,-0.0004793498807404722,0.2173345386981964,-21.79654312133789,-2.38179087638855,22.56842803955078,0.6865335702896118,2.2615859508514404,-0.013685601763427258,,,,,,,,,
1739401968.2501736,0.5255145853174256,0.09599500206439433,-0.9532004452643733,-2.069081559282147,0.1377196020853677,2.1375877608026643,-1.2753564242446118,-0.0009060725640469352,-0.0023476914847798775,7.610614409052949e-05,-0.0005697866849540672,-0.001271528057049424,0.00038899001881250296,-0.00134500551487926,0.2411382496356964,-21.77273941040039,-2.38179087638855,22.61603546142578,0.6737161874771118,2.2679946422576904,-0.0008682189509272575,,,,,,,,,
1739401968.2601945,0.5255156122514526,0.09600326943313256,-0.953199421186237,-2.069079529347857,0.1377183147697687,2.1375881125559446,-1.2753524112802768,0.0005201721733447357,-0.00035291520824814863,0.0013545104586047839,2.7326846575594988e-05,0.00030410478696130843,-0.00014220872344552807,-0.0005481919115971605,0.2411382496356964,-21.84811782836914,-2.4333655834198,22.59223175048828,0.6865335702896118,2.2679946422576904,-0.03382720425724983,,,,,,,,,
1739401968.27027,0.525514503824048,0.09600184576441823,-0.9532045236871395,-2.0690813947761493,0.13771739589751933,2.137588460320811,-1.275348635422209,-7.379298023703325e-05,0.00011470666442839987,-0.00017595538342420525,-3.8186528329379815e-05,-0.0017095701445474542,-4.4686079865952555e-05,0.00033226985206640533,0.2173345386981964,-21.84811782836914,-2.35798716545105,22.61603546142578,0.6938577890396118,2.2615859508514404,-0.06678618490695953,,,,,,,,,
1739401968.2802997,0.5255163756966393,0.09600188363103213,-0.9532053014424041,-2.069081312361252,0.13771977321365145,2.1375818986859723,-1.2753509084040473,9.309009907660493e-05,-0.0003014714707631276,-0.0008702013019993186,0.0006421829809911869,0.0012345187902110667,-0.0022063579814694794,0.00033916546393749866,0.2173345386981964,-21.84811782836914,-2.35798716545105,22.61603546142578,0.6737161874771118,2.2817275524139404,-0.04756011441349983,,,,,,,,,
1739401968.29123,0.5255148973206697,0.09600282198233817,-0.9532053046655353,-2.069082839222937,0.1377224965277578,2.137588478652716,-1.2753477695270203,0.0005228319831349798,-0.0009360962290564501,-0.0003128811081052189,-0.0003718427387614156,0.0011741426118089282,-0.00011281048802815974,0.0013746786806454944,0.2411382496356964,-21.87192153930664,-2.35798716545105,22.59223175048828,0.6865335702896118,2.2615859508514404,-0.07411040365695953,,,,,,,,,
1739401968.3021543,0.5255148971793282,0.09600485470611417,-0.9532034921005804,-2.0690830988993865,0.13772216926856917,2.137587247631509,-1.275353329658357,-0.0009368410405748903,-0.0003531851914314033,0.0008437567386928298,0.00013618577868350606,0.0009146061745911562,-8.754947076052927e-05,-0.00043063453182431294,0.2411382496356964,-21.89969253540039,-2.38179087638855,22.63983917236328,0.6801248788833618,2.2753188610076904,-0.05396880581974983,,,,,,,,,
1739401968.3131797,0.5255200361567136,0.09600330419641834,-0.9532049368560057,-2.0690838364444217,0.13772084062284445,2.1375872480644067,-1.2753516548095545,0.0020868626593873187,0.00021113590897770928,-0.0002919365870628105,-0.0008718003045220304,0.00044804710607807517,0.0007550275341667063,-0.0003221445448770221,0.1697271168231964,-21.84811782836914,-2.38179087638855,22.63983917236328,0.6737161874771118,2.2753188610076904,-0.013685601763427258,,,,,,,,,
1739401968.3232646,0.5255128907143667,0.09599958630162814,-0.9532006837981719,-2.0690795386266516,0.13772129293972354,2.1375888653768365,-1.2753528338842284,-0.0002779924422537615,0.00014160369546665792,0.0009461258844837767,0.0004223197534491755,0.0008224176655404235,0.0009034928539598946,0.00020246876600753429,0.2689092457294464,-21.79654312133789,-2.38179087638855,22.59223175048828,0.6608988046646118,2.2615859508514404,-0.04023589566349983,,,,,,,,,
1739401968.3342514,0.5255128989530997,0.09599508028638795,-0.9532034170080156,-2.06907642083336,0.1377225140794019,2.137584935101053,-1.2753501499060838,-0.0009137939683215415,-0.001819210966382025,0.0007677017693184041,-0.00035628327098529745,0.0006926214197152503,-0.00017991610814150136,0.0003562271986485183,0.2689092457294464,-21.72116470336914,-2.38179087638855,22.54065704345703,0.6865335702896118,2.2679946422576904,-0.05396880581974983,,,,,,,,,
1739401968.3442714,0.5255158991656614,0.095997425463179,-0.9532007305568698,-2.0690756668895633,0.13771826672769016,2.137585692707332,-1.275351773457399,-6.673851905790044e-05,-0.0005324717566814221,0.0005990570120489468,0.000621195641129857,0.0007278418427011317,-0.00048457605757272395,-0.0004711395020195466,0.2173345386981964,-21.79654312133789,-2.4095618724823,22.54065704345703,0.6865335702896118,2.2615859508514404,-0.04023589566349983,,,,,,,,,
1739401968.3551812,0.5255128995224817,0.09599588035020418,-0.9532032056643931,-2.0690777067666963,0.13771768471860354,2.1375863712491,-1.2753527639537796,-0.001059491325243286,-0.0019179714618345685,0.00030265294981017966,-0.0006790365996078051,0.0007358557053087822,-0.0010900717485517052,-0.0015003358146104258,0.2689092457294464,-21.74496841430664,-2.38179087638855,22.56842803955078,0.6938577890396118,2.2817275524139404,-0.0072769103571772575,,,,,,,,,
1739401968.3651981,0.5255163758393048,0.09599571249395843,-0.953205300487296,-2.0690756668761194,0.13771857744405672,2.1375888716735365,-1.275354697787837,-0.00023132884872458277,-0.0007074080307062735,-0.0006011738955284267,0.0004400815528449812,-0.0004107961731692405,-6.158334354363794e-05,-0.001316841309998314,0.2173345386981964,-21.77273941040039,-2.35798716545105,22.54065704345703,0.6938577890396118,2.2615859508514404,-0.027418512850999832,,,,,,,,,
1739401968.3761506,0.5255110326529326,0.09600016817527346,-0.9532035210254866,-2.0690795293436697,0.13771734423534998,2.1375872481182445,-1.2753509084278947,-0.001784293090196649,0.0010180412390018278,0.0006370067809901214,-0.00048478896694503115,-0.0020655681219617123,-0.0010915987084608835,0.0007734015667058479,0.2927129566669464,-21.82431411743164,-2.38179087638855,22.59223175048828,0.6938577890396118,2.2753188610076904,-0.04756011441349983,,,,,,,,,
1739401968.3862548,0.5255163758366909,0.09599650254562292,-0.9532046055987158,-2.0690719006608846,0.13772296644917684,2.1375896293356336,-1.275351826629089,9.101250226343672e-05,0.00020319022636460838,-0.0008450496028623888,0.001196377949833368,0.00038396815883688813,-0.00020689216828780022,-0.0008129907721061743,0.2173345386981964,-21.77273941040039,-2.35798716545105,22.51685333251953,0.6737161874771118,2.2551772594451904,-0.04023589566349983,,,,,,,,,
1739401968.3962646,0.5255166088784247,0.09599829418106062,-0.9532073692618627,-2.0690816415347157,0.13771902147158332,2.1375888716755553,-1.275349746296896,-0.0005794613434425758,-3.2943746944860144e-05,-0.0011351403821436988,-0.0013311110395529506,3.113892565758861e-05,-0.0001935046543708301,0.0007518380339858357,0.2173345386981964,-21.84811782836914,-2.3302161693573,22.61603546142578,0.6801248788833618,2.2615859508514404,-0.06037749722599983,,,,,,,,,
1739401968.407224,0.5255182355885176,0.09599742485371161,-0.9532053004925672,-2.0690795293832145,0.137717435752684,2.1375888716755553,-1.2753462526515476,0.0006439031981490297,-4.1706354654273583e-08,-0.0010420051602339814,5.470509300989254e-05,-0.0009691298108896683,3.9186824674761396e-05,3.2985087101932245e-05,0.1935308277606964,-21.79654312133789,-2.35798716545105,22.59223175048828,0.6938577890396118,2.2615859508514404,-0.06037749722599983,,,,,,,,,
1739401968.4182608,0.5255141680268915,0.09600123932799125,-0.9532045766548892,-2.0690816416858846,0.13771738759496102,2.1375888716755553,-1.2753491038430151,-0.0008794170108485169,-0.0003316408598530572,-0.00070488445271555,0.00021684100658880432,-0.0007084298585251683,-0.0002669603751270792,0.00012163072634544643,0.2411382496356964,-21.82431411743164,-2.35798716545105,22.61603546142578,0.6938577890396118,2.2615859508514404,-0.05396880581974983,,,,,,,,,
1739401968.4291573,0.5255134969130594,0.09600566510888187,-0.9532031986306617,-2.069079532435671,0.13771719843783636,2.137586647441592,-1.2753517873773221,-0.0002366770828752463,0.001355411828188935,0.00022640134356804333,0.0012268626335224194,0.0005711184820932538,-0.00018861148191553313,-0.0003570335893668908,0.2411382496356964,-21.89969253540039,-2.35798716545105,22.59223175048828,0.6938577890396118,2.2817275524139404,-0.04023589566349983,,,,,,,,,
1739401968.439189,0.5255141852898199,0.09600533374169468,-0.9532073814594803,-2.0690817559405454,0.1377194899096474,2.1375912929378402,-1.2753512381576853,-2.4702921646952192e-05,0.0019174156919921175,-0.0013041306664946027,0.0011280265161095438,0.00021052723083448354,0.0005919637809725861,-0.0008417679250729514,0.2411382496356964,-21.87192153930664,-2.3302161693573,22.59223175048828,0.6801248788833618,2.2679946422576904,-0.05396880581974983,,,,,,,,,
1739401968.44922,0.5255165058371831,0.09600250951126088,-0.9532014421629961,-2.069086420304035,0.13772220879263464,2.1375903870136566,-1.2753501507501073,2.06211876228986e-06,0.00032116179672909745,0.0001825303557464429,-0.001298126259031363,-0.00017868310304602664,0.0006136351346998085,0.0008219629302521549,0.2173345386981964,-21.82431411743164,-2.4095618724823,22.63983917236328,0.6801248788833618,2.2487685680389404,-0.05396880581974983,,,,,,,,,
1739401968.460156,0.525514862654231,0.09600040787858874,-0.9532046021916369,-2.0690853211247764,0.1377205311077529,2.137590386995712,-1.2753549532156678,-7.373765364174592e-05,-0.0012299666496692857,0.00025157741937706385,-0.0008049254583505784,0.000579648394285044,0.0005455692818673521,-0.0004184191436131486,0.2411382496356964,-21.82431411743164,-2.35798716545105,22.63983917236328,0.6673074960708618,2.2487685680389404,-0.04023589566349983,,,,,,,,,
1739401968.4703007,0.5255183567211608,0.0960015920170967,-0.9532031206217348,-2.0690820847388576,0.13771978197577192,2.1375887539379854,-1.2753541020980055,0.001234951059733556,-0.0007311456861672879,0.00026366707162559617,-0.0010170989442809975,0.0006786496564363943,-0.0003988876176377634,-0.0014638842873726297,0.1935308277606964,-21.82431411743164,-2.35798716545105,22.59223175048828,0.6737161874771118,2.2615859508514404,-0.020094294100999832,,,,,,,,,
1739401968.4811997,0.5255183223636478,0.09600124190672953,-0.9532034439393995,-2.0690780058625435,0.1377173978422927,2.1375923525673293,-1.2753564284987122,0.00046956776180555527,-0.00011567671448419164,-0.00024808475314136246,0.0007973053718806572,-0.0016967765382958177,0.0009671640074506066,-0.001475124058144224,0.1935308277606964,-21.84811782836914,-2.38179087638855,22.56842803955078,0.6938577890396118,2.2679946422576904,-0.0008682189509272575,,,,,,,,,
1739401968.4922297,0.5255148973219915,0.09599880329444095,-0.9532031206331908,-2.0690777558631646,0.13771826276744692,2.1375888721839984,-1.2753540873184355,-0.00018616216153210429,-0.0011911648098369533,-0.000431961498481191,1.6151450339732358e-05,-0.0015349359905848818,-0.0005678628801865224,0.00028308036195403446,0.2411382496356964,-21.77273941040039,-2.35798716545105,22.56842803955078,0.6865335702896118,2.2615859508514404,-0.04756011441349983,,,,,,,,,
1739401968.5032177,0.5255166097357252,0.09599825082844753,-0.9532014334838907,-2.0690795568158213,0.13772052209793118,2.1375881140154793,-1.2753549663155652,0.0002490963581334536,-0.0009453002284085301,-0.0007722787621967779,-0.0005969990696666951,0.0010761453136562162,-0.00022327670619283292,0.0007962445110214153,0.2173345386981964,-21.77273941040039,-2.4095618724823,22.59223175048828,0.6673074960708618,2.2679946422576904,-0.04023589566349983,,,,,,,,,
1739401968.5142372,0.525512898953148,0.09600165935197354,-0.95320140686292,-2.0690756803724537,0.13772220878990732,2.137589931959707,-1.2753524080000398,-0.0005421374429522184,0.0008355362542801074,0.0006818488070540075,-0.00024917948119637125,0.0010720122271189313,0.0009398548504913222,-0.0005481101259485947,0.2689092457294464,-21.82431411743164,-2.38179087638855,22.56842803955078,0.6801248788833618,2.2615859508514404,-0.0072769103571772575,,,,,,,,,
1739401968.5242646,0.5255185516872426,0.0959960830493199,-0.9532004712414581,-2.069075666841802,0.13771917746948936,2.1375896308071396,-1.2753549174842516,0.0005892893712000273,-0.0004670371060031032,0.0015364586568854333,0.00020978388975534856,0.0010096844956087117,-0.0007562269478105335,-0.00011454415262896118,0.1935308277606964,-21.74496841430664,-2.38179087638855,22.54065704345703,0.6801248788833618,2.2551772594451904,-0.013685601763427258,,,,,,,,,
1739401968.5351627,0.5255163748776199,0.0959960290205821,-0.9532050674349882,-2.0690795323961253,0.13771932668988815,2.1375896295509826,-1.2753564685358487,0.0005600635488939063,-0.00048051712813557514,-0.00041626489134987933,-0.0005368100709501583,0.00019993825002397083,-0.00026656343330507605,-0.0015113579932773853,0.2173345386981964,-21.77273941040039,-2.35798716545105,22.59223175048828,0.6865335702896118,2.2551772594451904,-0.027418512850999832,,,,,,,,,
1739401968.5452805,0.5255183213964977,0.09599579127534649,-0.9532055084129417,-2.0690796117600203,0.1377173964022013,2.137589629335637,-1.275354913394198,0.0006689502325600758,-0.000982890102642588,0.00012505078321761512,3.899421488804238e-05,-0.001442105971330199,0.000264505766459281,-0.0017954088034511193,0.1935308277606964,-21.77273941040039,-2.35798716545105,22.59223175048828,0.6938577890396118,2.2551772594451904,-0.013685601763427258,,,,,,,,,
1739401968.5561442,0.5255148712146085,0.09599602814158291,-0.9532035104339601,-2.069080688144071,0.13771903743859734,2.1375881140154767,-1.27535415551867,-0.0003360003582223346,-0.0008967538740271104,0.0002757997253773689,0.00014309807969057784,-4.442513422777232e-05,-0.0007746762277785893,0.0008282380873833395,0.2411382496356964,-21.77273941040039,-2.38179087638855,22.56842803955078,0.6801248788833618,2.2679946422576904,-0.020094294100999832,,,,,,,,,
1739401968.5661788,0.5255180883595916,0.09600229038593282,-0.9532052266642177,-2.0690779939653616,0.13771873486571373,2.1375876013309543,-1.2753536707167215,-4.063839354101972e-05,0.0005400574161875957,-0.0002724921303935237,-6.46092053672791e-05,-0.00040880364884972667,0.00020800900952087394,7.009484550435537e-05,0.1935308277606964,-21.82431411743164,-2.35798716545105,22.56842803955078,0.6865335702896118,2.2753188610076904,-0.06037749722599983,,,,,,,,,
1739401968.5762265,0.525511186749447,0.09600252740856043,-0.9532073053829736,-2.06908249633462,0.1377232717474834,2.137589629341615,-1.2753505432749774,-0.0005019420262314057,1.938967991275774e-05,-0.0009322975107625684,-0.0002585093398416475,0.002113305826219186,-0.00021424555521443655,-0.0004474180288827352,0.2927129566669464,-21.82431411743164,-2.3302161693573,22.59223175048828,0.6801248788833618,2.2551772594451904,-0.05396880581974983,,,,,,,,,
1739401968.58717,0.5255183185115452,0.09600117074962179,-0.953203198634325,-2.0690814223026823,0.1377197776255661,2.1375896293356336,-1.2753549131810729,0.0014508088834022696,-0.0014136535087698912,-0.0004187893483578321,-0.0005795202479422296,0.0004645218168408542,0.00038148009656539605,-0.0015674449316626252,0.1935308277606964,-21.84811782836914,-2.35798716545105,22.61603546142578,0.6737161874771118,2.2551772594451904,-0.013685601763427258,,,,,,,,,
1739401968.598157,0.5255176174642403,0.09600516292043394,-0.9531993449863259,-2.069081312021311,0.13772053542365326,2.1375888847575073,-1.2753549175395078,0.0007299277252042985,0.000731386154839345,0.0016738167524723124,0.0002660067613781669,0.00046300228824135614,-0.0004682100911428422,-0.0006392765639085471,0.1935308277606964,-21.89969253540039,-2.4095618724823,22.61603546142578,0.6673074960708618,2.2615859508514404,-0.013685601763427258,,,,,,,,,
1739401968.6082077,0.5255149151342138,0.0960055604173411,-0.9532053045230395,-2.069081312020689,0.13772403393584928,2.1375885849659775,-1.275353295920228,-9.50605431527958e-05,0.0009470019681797916,-0.00040883851277604587,0.0010431652588341993,0.00041204282889102943,0.00027776668043332116,0.0008103564836304439,0.2411382496356964,-21.89969253540039,-2.35798716545105,22.61603546142578,0.6737161874771118,2.2679946422576904,-0.027418512850999832,,,,,,,,,
1739401968.6182184,0.525513532810999,0.0960080416411348,-0.953202232768795,-2.069082411243836,0.13771983030914195,2.137588871699482,-1.2753563882723307,-0.0007247422879619931,0.001533694673859394,0.00046850684033405873,-0.0008688332845598599,0.0007422488880205093,-7.474913921602772e-05,-0.001550038210309727,0.2173345386981964,-21.89969253540039,-2.35798716545105,22.61603546142578,0.6737161874771118,2.2615859508514404,-0.0008682189509272575,,,,,,,,,
1739401968.6292171,0.5255183214310256,0.0960045596243079,-0.9531996585529025,-2.06908131553999,0.13771902496390426,2.1375881140154767,-1.275348635424177,0.0006470963667403961,0.0008532401834562612,0.0012182387229453596,-0.00013154657191325185,-0.0003147588585714416,-0.0008485313320240239,0.0006830011267649305,0.1935308277606964,-21.84811782836914,-2.4333655834198,22.61603546142578,0.6801248788833618,2.2679946422576904,-0.06678618490695953,,,,,,,,,
1739401968.6402118,0.5255159075114644,0.09600433148735174,-0.9532035218458657,-2.069078572186307,0.13771932960521244,2.1375881140154767,-1.2753498635375407,-0.0006745058536471253,0.0005186362929563095,-0.0009210835631706866,0.001610968668201266,-0.0014586784980703234,-0.0005093864067446389,-0.0005431833725474625,0.2173345386981964,-21.84811782836914,-2.38179087638855,22.56842803955078,0.6865335702896118,2.2679946422576904,-0.06037749722599983,,,,,,,,,
1739401968.6502461,0.5255187196468978,0.09600058576806164,-0.9532042559835567,-2.0690774661157536,0.13771977225513085,2.1375896293356336,-1.2753494454196668,0.0008402797903086143,-5.613441938686291e-06,-0.0008831142144152775,0.0009485612826921101,-0.0009881875463625474,0.0004000475900223339,0.0008963595074610262,0.2173345386981964,-21.79654312133789,-2.35798716545105,22.59223175048828,0.6737161874771118,2.2551772594451904,-0.06037749722599983,,,,,,,,,
1739401968.6602964,0.5255148974667374,0.09600264996295475,-0.9532025079559538,-2.069079533273691,0.13772180544631224,2.1375872481182445,-1.2753532896223227,0.0005413334128537262,0.00036756654211101433,0.000135369875762176,0.0004065329729444105,0.0007983354295911006,-0.00042277898278286416,-0.0017310685641705311,0.2411382496356964,-21.82431411743164,-2.38179087638855,22.59223175048828,0.6865335702896118,2.2753188610076904,-0.027418512850999832,,,,,,,,,
1739401968.6711557,0.5255165828793664,0.09599774158224603,-0.9532004538309696,-2.069081324230533,0.13772049633053515,2.1375896293356336,-1.275354155518669,-0.00024849060980451654,-0.000689182611765872,0.0009278430069477293,-0.0011642541313452801,-0.0006967913690470251,-0.0004222868571815704,-0.00077102717877632,0.2173345386981964,-21.79654312133789,-2.38179087638855,22.61603546142578,0.6673074960708618,2.2551772594451904,-0.020094294100999832,,,,,,,,,
1739401968.6812527,0.5255125873761216,0.09599606776937215,-0.9532053042926016,-2.069079530361362,0.1377190763188929,2.137590386995712,-1.2753545479772352,-0.0010177535281136766,-0.0007558853707154616,-0.00023535743458005264,-0.0002988854319562726,0.0011307870206715967,3.923268795917394e-05,-4.747074837278516e-05,0.2689092457294464,-21.77273941040039,-2.35798716545105,22.59223175048828,0.6801248788833618,2.2487685680389404,-0.020094294100999832,,,,,,,,,
1739401968.6921618,0.5255128127114438,0.09600117055367058,-0.9532073845644232,-2.069077750849651,0.1377166974108105,2.1375881140154767,-1.2753549131810726,-0.0006731884414864395,0.0029552829181874085,-0.0011685996569238905,-0.0007138400995823578,0.0007045410650927849,-0.0002717187671864558,0.00042560010043921293,0.2689092457294464,-21.84811782836914,-2.3302161693573,22.56842803955078,0.6737161874771118,2.2679946422576904,-0.013685601763427258,,,,,,,,,
1739401968.7022161,0.5255148626533503,0.09599592462881464,-0.9532036010334062,-2.0690799993788924,0.13772282872708658,2.1375888716755553,-1.275355568369508,0.00032981594223441073,-0.0017853170684681953,0.0004177149495230251,-9.068962875735692e-05,0.0006521791422939589,-0.00012345888628806535,-0.00042410501928652835,0.2411382496356964,-21.74496841430664,-2.38179087638855,22.56842803955078,0.6608988046646118,2.2615859508514404,-0.020094294100999832,,,,,,,,,
1739401968.7131534,0.5255128733801714,0.09599795757422665,-0.9532043685462137,-2.069081032511446,0.13771977762757348,2.1375911839016464,-1.275347012536891,-0.0005607335100176049,-0.0007325882273896289,0.0006374843204388993,-0.0012844987482677768,-0.0015918516281943546,0.0025055491808445626,0.0014686517321683818,0.2689092457294464,-21.77273941040039,-2.35798716545105,22.63983917236328,0.6737161874771118,2.2423598766326904,-0.08051909506320953,,,,,,,,,
1739401968.72318,0.5255145037045029,0.09599840227193025,-0.9532014162689478,-2.0690795293087465,0.13772058539468163,2.1375889894137896,-1.275349393083902,0.0008691064212410452,-6.699172703542554e-05,0.0008453760882571232,0.0005143703630734828,-0.0014154331463342724,0.00020700323337784614,0.001331949494993994,0.2173345386981964,-21.79654312133789,-2.38179087638855,22.59223175048828,0.6938577890396118,2.2615859508514404,-0.06037749722599983,,,,,,,,,
1739401968.7332017,0.5255155958160125,0.09600261776195647,-0.953200723006469,-2.069081306569875,0.1377187478442425,2.1375881270980934,-1.2753493993826084,5.1207059703602305e-05,0.0008732155441939712,0.0020332363544977323,-0.001662125479354853,-0.0004970010376088773,-0.0006651926677449032,-0.0008848912611427874,0.2173345386981964,-21.82431411743164,-2.4095618724823,22.61603546142578,0.6865335702896118,2.2679946422576904,-0.06037749722599983,,,,,,,,,
1739401968.7442129,0.5255127883965541,0.09600166866597148,-0.9532027159726937,-2.0690796402495226,0.13771901853559565,2.1375881140155504,-1.2753534950081218,-0.0009829235036684506,-0.00042007296230306445,3.0804622662526776e-05,0.0010625382975128987,-4.257559117598264e-05,0.00035265312434103175,-0.0006805462943045941,0.2411382496356964,-21.82431411743164,-2.38179087638855,22.59223175048828,0.6801248788833618,2.2679946422576904,-0.027418512850999832,,,,,,,,,
1739401968.7543013,0.5255147928567667,0.09600167204200519,-0.9532006128757609,-2.069080280701821,0.13771719843786218,2.137589224888265,-1.2753533433898097,-0.0007037849669583863,-0.0008467787191087224,0.0004238387903825498,0.000861487234971249,-0.00028936485062781717,0.0004677294434029794,0.0004195329381248507,0.2411382496356964,-21.82431411743164,-2.38179087638855,22.59223175048828,0.6938577890396118,2.2615859508514404,-0.05396880581974983,,,,,,,,,
1739401968.7652628,0.5255163758375333,0.09600362089265121,-0.9532034179377482,-2.069081324243235,0.13771739638082317,2.137588114021458,-1.2753543256381152,-0.0001683926422581781,-0.0005327441047837979,0.00014684931435249244,0.0011731934789366838,-0.0004081075530849555,-0.00017781251789201553,-0.0013614538221904632,0.2173345386981964,-21.84811782836914,-2.38179087638855,22.61603546142578,0.6938577890396118,2.2679946422576904,-0.020094294100999832,,,,,,,,,
1739401968.7761815,0.5255149326419415,0.09600334949883571,-0.9532013630913111,-2.0690820939392705,0.1377198971651569,2.1375899840018935,-1.2753475492961306,-6.36190878030611e-05,-0.000809731776128206,0.0003980761897332675,-0.0012151311395767032,-0.0008213559532091315,0.0004970815626775554,0.0013014495919512644,0.2411382496356964,-21.84811782836914,-2.4095618724823,22.61603546142578,0.6737161874771118,2.2551772594451904,-0.06678618490695953,,,,,,,,,
1739401968.787197,0.5255166011759959,0.09600817501534417,-0.95320144219853,-2.0690813985084,0.1377197776017895,2.1375897470738705,-1.2753564415789223,0.0007738916794887629,0.0008409428284052434,-8.374704460587109e-05,-5.826566543570625e-05,0.0014120948256855774,-3.5429213689224724e-05,-0.0006661018709452919,0.2173345386981964,-21.87192153930664,-2.4095618724823,22.61603546142578,0.6737161874771118,2.2551772594451904,-0.0008682189509272575,,,,,,,,,
1739401968.7972035,0.5255144219587456,0.09600220080044597,-0.9532022587691823,-2.0690778385809425,0.1377205357476737,2.1375896293376275,-1.275353329820084,0.0002274269500092306,0.0014321400882082915,-6.189391062446037e-05,0.0016789608259757658,-0.001528660816476597,-7.47403606827152e-05,-0.0004206027635762499,0.2173345386981964,-21.84811782836914,-2.35798716545105,22.56842803955078,0.6673074960708618,2.2551772594451904,-0.05396880581974983,,,,,,,,,
1739401968.8072195,0.5255166097315667,0.09600230299278475,-0.9532004409492499,-2.069081313042844,0.13771638880972764,2.1375896293356336,-1.2753541571337328,0.0001130282836841535,-0.000357493567534703,0.002262601088110623,-0.0012414476160965012,-0.0024158738384985625,0.00036631647947881174,0.0006003231418947138,0.2173345386981964,-21.82431411743164,-2.38179087638855,22.61603546142578,0.6673074960708618,2.2551772594451904,-0.020094294100999832,,,,,,,,,
1739401968.8181639,0.5255148972031052,0.09600261910908431,-0.9532053016519388,-2.069077751075755,0.13771740955320988,2.137590386995712,-1.2753549533951214,0.0003275695444210087,0.000982535842509142,-0.0008684306673675459,-0.00023501715298094924,-0.0013746583519275383,0.0004767217454579815,-0.001099519267675619,0.2411382496356964,-21.82431411743164,-2.35798716545105,22.56842803955078,0.6938577890396118,2.2487685680389404,-0.04023589566349983,,,,,,,,,
1739401968.8282318,0.5255152152134283,0.09600062116882606,-0.9532042383023774,-2.0690795293437447,0.1377197777637978,2.137590386995712,-1.2753501507978071,0.0004441109648888753,0.0005717163582163531,-0.000758694190142184,8.650443302486249e-05,-0.000899330995616185,0.00045161266745977717,0.0018392329721700963,0.2411382496356964,-21.79654312133789,-2.3302161693573,22.59223175048828,0.6737161874771118,2.2487685680389404,-0.05396880581974983,,,,,,,,,
1739401968.839256,0.5255175163534677,0.09599838507482222,-0.9532091666866781,-2.06907952934367,0.1377190199954905,2.137588116115049,-1.2753486682571378,0.00015200003259605943,0.00040485172161681157,-0.0016283307265096386,0.0004065761828453997,-0.0008342103081256696,-0.0005092304767627277,0.0030436087034421853,0.1935308277606964,-21.79654312133789,-2.3064124584198,22.59223175048828,0.6801248788833618,2.2679946422576904,-0.07411040365695953,,,,,,,,,
1739401968.850208,0.5255164971698593,0.09599645883778564,-0.9532073841344142,-2.069077997985488,0.1377201353823182,2.137587248118256,-1.275349976432029,0.0002824773839340555,-0.0014958582901110464,-0.0007593397976566091,0.0007123673898140575,-0.0008766343686185731,-0.0004034710293214896,0.0011675072037030984,0.2173345386981964,-21.77273941040039,-2.3302161693573,22.56842803955078,0.6801248788833618,2.2753188610076904,-0.05396880581974983,,,,,,,,,
1739401968.8612404,0.5255159075095616,0.09599879320228816,-0.953203521988529,-2.069079648393691,0.13772084251407654,2.1375903913563623,-1.2753574881341911,-0.00027671643689774957,-0.000914037064977084,0.0004674450455381732,-0.0006736098645551978,0.0004680851370529668,-9.923098055264918e-05,-0.0025372639104054625,0.2173345386981964,-21.77273941040039,-2.38179087638855,22.59223175048828,0.6737161874771118,2.2487685680389404,-0.0008682189509272575,,,,,,,,,
1739401968.872151,0.5255139609503309,0.0959988995180175,-0.9532034959881543,-2.069079538840422,0.1377229664520638,2.1375896293356416,-1.275351563596802,0.0003915543369869371,-0.0014154881903245093,0.0007433666866167161,-0.001757271415719901,0.00016716960376421625,2.8569631535108643e-05,0.00028545138958826664,0.2411382496356964,-21.77273941040039,-2.38179087638855,22.59223175048828,0.6737161874771118,2.2551772594451904,-0.05396880581974983,,,,,,,,,
1739401968.8822305,0.5255183135738056,0.09600422640230258,-0.9532053046651132,-2.0690795385011973,0.13772069278964608,2.1375896293356336,-1.275356474067515,0.0010697259665769327,0.0014097799984539023,-0.0006073623172869264,7.815558405245565e-05,0.0003225533876713251,0.0002579133974325063,-0.002537627234560803,0.1935308277606964,-21.84811782836914,-2.35798716545105,22.59223175048828,0.6673074960708618,2.2551772594451904,-0.0008682189509272575,,,,,,,,,
1739401968.8931582,0.525514581144481,0.09599946227049146,-0.9532017559172171,-2.0690785158854923,0.1377214907153062,2.137587250056311,-1.275360078363939,-0.0011118176246232348,-0.0014945442109020937,-0.0007244841029192918,0.0010767395682535592,-0.0013207833921988718,-0.001221041566546776,-0.0029820734981567693,0.2411382496356964,-21.82431411743164,-2.4095618724823,22.56842803955078,0.6865335702896118,2.2753188610076904,-0.0008682189509272575,,,,,,,,,
1739401968.9032574,0.5255180090695697,0.09600062273925289,-0.953201445147431,-2.069081316442818,0.1377182624980919,2.1375881140155095,-1.2753486747319203,0.0002436512822641359,-0.00020254559481014444,-0.00015640219442397387,0.00034855126874292755,-0.0012096526858681401,-0.0009236909757213634,0.0015614732550791666,0.1935308277606964,-21.79654312133789,-2.4095618724823,22.61603546142578,0.6865335702896118,2.2679946422576904,-0.06678618490695953,,,,,,,,,
1739401968.9132822,0.5255200177088171,0.09600604425942733,-0.9532032013172307,-2.0690813121338176,0.13772084492534442,2.1375896293356336,-1.2753504525571426,0.0016911319004748863,0.0009333456031781212,3.993426355007509e-05,0.00019869367295474418,0.0009583950500270872,-0.0005300346350904768,0.00036945435537989247,0.1697271168231964,-21.87192153930664,-2.38179087638855,22.61603546142578,0.6737161874771118,2.2551772594451904,-0.06037749722599983,,,,,,,,,
1739401968.9242244,0.5255148968582389,0.09600450444383984,-0.9532034054665026,-2.069083538278246,0.13771978349396335,2.1375922042939193,-1.2753507289153965,9.685617061401736e-05,-0.0001098616177917256,-0.0005172699981824897,-0.00043251862355947945,0.000999582933350411,0.0011790299481499102,0.0010537321062335217,0.2411382496356964,-21.82431411743164,-2.38179087638855,22.61603546142578,0.6737161874771118,2.2423598766326904,-0.06678618490695953,,,,,,,,,
1739401968.9342437,0.5255143984194458,0.09600272436956055,-0.9532010769878616,-2.0690813120583904,0.13771826292954875,2.1375903870136566,-1.2753486354597063,-0.0005187533926023373,-0.0007207471070295969,0.0012499909446871444,0.00037070912842275875,0.0005972481193519399,0.00023857593995105765,0.0016052404353616863,0.2173345386981964,-21.82431411743164,-2.38179087638855,22.61603546142578,0.6865335702896118,2.2487685680389404,-0.06678618490695953,,,,,,,,,
1739401968.9452422,0.5255165750204025,0.0960043345540032,-0.953202496147053,-2.0690823379849044,0.13771838476118908,2.1375888714602147,-1.2753545094312362,0.0006961964558978768,-0.0002671109697141397,-0.0012303926209621136,-0.0002549035675862858,-0.0004868395173732191,-0.00013933400892195407,-0.0005242668727625268,0.2173345386981964,-21.84811782836914,-2.35798716545105,22.61603546142578,0.6865335702896118,2.2615859508514404,-0.020094294100999832,,,,,,,,,
1739401968.9552727,0.5255148960374324,0.09600261618672995,-0.953203487166801,-2.0690756682508167,0.13771901994356037,2.137587248118241,-1.2753481227457237,-0.00015753853752331512,-0.0017130773625509185,-0.0005329990493937413,0.0021729993061045563,-0.0016263200014209002,-0.0008786883886894747,0.0009097206738879332,0.2411382496356964,-21.82431411743164,-2.38179087638855,22.54065704345703,0.6801248788833618,2.2753188610076904,-0.07411040365695953,,,,,,,,,
1739401968.9662073,0.5255126392703335,0.09600261921792184,-0.9532052253802474,-2.0690809887135786,0.13771989570706433,2.1375896278820834,-1.275354913180851,-0.0015340178389652535,-4.825208215876136e-05,-0.001191432421665908,-0.0002433943749928334,-0.0002675737920160759,-0.0002196121177262787,-0.0009002560270955637,0.2689092457294464,-21.82431411743164,-2.35798716545105,22.56842803955078,0.6737161874771118,2.2551772594451904,-0.013685601763427258,,,,,,,,,
1739401968.9763026,0.5255148973175864,0.09600070008979274,-0.9532091671310854,-2.06907774773904,0.1377206533691428,2.1375903871571924,-1.275350190151331,0.0004353890315011482,0.0009840214090025392,-0.000896979756851942,0.00026901518078880683,0.00033383141724042476,-0.000402912831026754,-9.48280743499744e-05,0.2411382496356964,-21.79654312133789,-2.3064124584198,22.56842803955078,0.6673074960708618,2.2487685680389404,-0.05396880581974983,,,,,,,,,
1739401968.987162,0.5255183136966605,0.09599958281909218,-0.9532052787015122,-2.06907782912064,0.13771914388002307,2.137593463440783,-1.275354702472498,0.0007014078727445115,-0.0019460672191176768,-0.0008271259201484486,0.0008795900985209396,-0.000677690489833064,0.0014301459776057518,-0.0012248201338286501,0.1935308277606964,-21.79654312133789,-2.35798716545105,22.56842803955078,0.6801248788833618,2.2615859508514404,-0.027418512850999832,,,,,,,,,
1739401968.997252,0.5255138573066437,0.09600059484425325,-0.9532091936229417,-2.069084539824213,0.1377197776036634,2.137592814141984,-1.2753534075444386,-0.0004980177118173126,0.0008276141851477395,-0.0013861726518471294,-0.0028172412893656676,-0.00031108670978898477,0.0016009659888813208,-0.00014630611142935735,0.2411382496356964,-21.79654312133789,-2.3064124584198,22.61603546142578,0.6737161874771118,2.2551772594451904,-0.027418512850999832,,,,,,,,,
1739401969.0081966,0.525512791178341,0.0960003054848181,-0.9532046291463956,-2.0690777467979253,0.13772160452954257,2.13758891093939,-1.2753518137093076,-0.0013741211419118619,9.348696645704213e-05,-0.0014676004423632642,0.0002780764549597444,0.00019403861383024607,-0.000395195097519999,-0.0007131222334617506,0.2411382496356964,-21.79654312133789,-2.35798716545105,22.56842803955078,0.6673074960708618,2.2615859508514404,-0.04023589566349983,,,,,,,,,
1739401969.01821,0.525514169275683,0.0960026278733291,-0.9532034958697169,-2.069076036223915,0.13772327629387635,2.1375896293362984,-1.275355972817654,0.0010730812752181148,0.0008072002709875032,-0.0005971591778270223,0.0006393786789310115,-0.00023218325282775315,-0.0006244027882760204,-0.0004071511730784348,0.2411382496356964,-21.82431411743164,-2.38179087638855,22.54065704345703,0.6801248788833618,2.2551772594451904,-0.013685601763427258,,,,,,,,,
1739401969.028218,0.5255124791673221,0.09600048824377683,-0.9532014408072697,-2.069076442276808,0.13772207070522235,2.137589944395637,-1.2753533470445677,-0.000858831720227467,-0.00045861791149186997,0.0010133675177997925,0.001063738392231276,0.0017375531445873054,0.0007614358306471615,-0.0022424855290373116,0.2411382496356964,-21.82431411743164,-2.4095618724823,22.51685333251953,0.6673074960708618,2.2615859508514404,-0.06678618490695953,,,,,,,,,
1739401969.0391746,0.5255145037626242,0.0960047485563313,-0.9532052959630865,-2.0690757768173187,0.13771937426665326,2.13759129293592,-1.2753541561912882,-0.00040253976029814214,0.0009792754076370152,-2.589618890601092e-06,0.0008508342757866808,0.0006090048748479258,0.00010806488905445129,-0.001864115457873194,0.2173345386981964,-21.82431411743164,-2.35798716545105,22.54065704345703,0.6801248788833618,2.2679946422576904,-0.020094294100999832,,,,,,,,,
1739401969.0492003,0.5255142606780706,0.09600238194981013,-0.9531996556696043,-2.069081321179917,0.1377184651720448,2.1375888717293905,-1.2753551101991059,0.00010639839706339962,2.3591915965103975e-05,0.0009807813143220833,-0.0004285154293161097,0.00020323683061946652,-0.0005528820222904539,0.00022472958680274475,0.2173345386981964,-21.82431411743164,-2.4333655834198,22.61603546142578,0.6938577890396118,2.2615859508514404,-0.04023589566349983,,,,,,,,,
1739401969.0592535,0.5255176851804291,0.09600614894204146,-0.9532011815262771,-2.0690803931887363,0.13771977761966453,2.1375890330196334,-1.2753596124765687,0.0012464121817978191,0.0012206287658285686,0.0008952809990091626,-3.9811472169197135e-05,-0.0016151463625254403,0.0010240007909754043,-0.002500203055583958,0.1697271168231964,-21.87192153930664,-2.38179087638855,22.59223175048828,0.6737161874771118,2.2615859508514404,-0.0008682189509272575,,,,,,,,,
1739401969.0702126,0.5255197652373502,0.09600190882158711,-0.9532034439741823,-2.0690833450039365,0.13771902064353084,2.1375888716764657,-1.2753501565761436,0.00019487293348540824,-0.000632377758614391,-0.0008498818660398925,-0.0010066121378578773,-0.0005660828851109217,-0.0006054474290404512,0.0012947658090716792,0.1697271168231964,-21.82431411743164,-2.38179087638855,22.63983917236328,0.6801248788833618,2.2615859508514404,-0.05396880581974983,,,,,,,,,
1739401969.0803266,0.5255183220378951,0.09600262202064903,-0.953203518135305,-2.0690820907402463,0.13771944333641803,2.1375888716755553,-1.2753517698317116,0.0013100612128374724,-0.0007761068262766466,-0.0005213853414511832,-0.0005535612057694147,-0.0017828084269999025,-0.00016669453545052094,0.00016778274208497715,0.1935308277606964,-21.82431411743164,-2.38179087638855,22.61603546142578,0.6865335702896118,2.2615859508514404,-0.04023589566349983,,,,,,,,,
1739401969.0912004,0.5255148848032881,0.09600004102484408,-0.9532014412356801,-2.069081353063653,0.13772292526817942,2.1375888731291055,-1.2753509098575724,0.0003076048383104779,-0.00044372139126016007,0.00043221106020995676,0.0008662917581855139,0.0012578651862543934,-0.0005724093203577933,0.0010031777362890383,0.2411382496356964,-21.82431411743164,-2.4095618724823,22.61603546142578,0.6865335702896118,2.2615859508514404,-0.04756011441349983,,,,,,,,,
1739401969.102142,0.5255182183261974,0.09600433194063458,-0.9532031985277685,-2.0690795569667397,0.1377189711504959,2.1375888774897644,-1.275352531961366,-0.0002477273076443785,-0.00039717724081457403,-0.001260341602405666,0.0021129324227581315,-0.0005397169764951497,-0.00022271351672550026,0.0015116678901322678,0.1935308277606964,-21.84811782836914,-2.35798716545105,22.59223175048828,0.6938577890396118,2.2615859508514404,-0.03382720425724983,,,,,,,,,
1739401969.1131825,0.5255144170352478,0.09600338457883748,-0.9532053046298858,-2.069079538614558,0.13771977811426417,2.137587248118343,-1.2753477695270206,0.0004899295156604473,-0.0012011575018782972,-0.0007298166927863506,0.00010238719297155834,-0.0010975363595608282,-0.0007317549632002687,0.0007741684118771904,0.2173345386981964,-21.84811782836914,-2.35798716545105,22.59223175048828,0.6737161874771118,2.2753188610076904,-0.07411040365695953,,,,,,,,,
1739401969.1232233,0.5255154854207216,0.09600062116347993,-0.9532031985277738,-2.069079529381407,0.1377195317319883,2.1375911618621095,-1.2753549262608093,0.0015742946778105854,-0.0008992244822996736,7.709555231874635e-05,0.00034700358496037183,-0.000937116762892649,0.0018689290401922196,0.00013524801491774556,0.1935308277606964,-21.79654312133789,-2.35798716545105,22.59223175048828,0.6801248788833618,2.2551772594451904,-0.013685601763427258,,,,,,,,,
1739401969.133312,0.5255151633227356,0.09600030548496662,-0.9532032070593753,-2.0690802803607817,0.13772053527031006,2.1375888847834608,-1.2753518143388622,-0.0005854932969902558,-0.0010846313684007725,0.00045377833840580946,-0.00047809633775006165,-0.0007925199426192295,0.00035367833606440315,0.0018970904304892987,0.1935308277606964,-21.79654312133789,-2.38179087638855,22.59223175048828,0.6673074960708618,2.2615859508514404,-0.06678618490695953,,,,,,,,,
1739401969.1452234,0.5255151719840742,0.09600332939658067,-0.9532035219510908,-2.0690756770558862,0.13772312603019354,2.1375891780143306,-1.2753597687754243,4.950217846908509e-05,0.0013377042618089908,0.00020146193855260082,0.0010549615269990083,0.000597860221711525,-0.0005484201067419346,-0.001543650880781052,0.1935308277606964,-21.82431411743164,-2.38179087638855,22.54065704345703,0.6737161874771118,2.2679946422576904,-0.0008682189509272575,,,,,,,,,
1739401969.1562245,0.5255120882644893,0.09599914541232593,-0.9532035218815369,-2.069077758876492,0.13772339057132635,2.1375882317550485,-1.2753564299588493,0.0001109395279412717,-0.0002171103785531644,0.0001335232201025656,0.00018236869261533474,0.0003313668185506218,-0.000492906609459799,-0.0011839513859701683,0.2411382496356964,-21.77273941040039,-2.38179087638855,22.56842803955078,0.6801248788833618,2.2679946422576904,-0.0008682189509272575,,,,,,,,,
1739401969.1671636,0.5255161381730112,0.09599970042557279,-0.9532072804538884,-2.0690787104916617,0.13772300584323227,2.137592050590608,-1.2753509082385124,0.00045263067236580386,-0.0003178074379413758,-0.0017474890401075614,-0.00043325042762599667,0.0005498082213610755,0.0004891618884498379,0.0014785584333722763,0.1935308277606964,-21.79654312133789,-2.3302161693573,22.56842803955078,0.6737161874771118,2.2615859508514404,-0.04756011441349983,,,,,,,,,
1739401969.177174,0.5255156474706799,0.09600261909408626,-0.9532026612730513,-2.0690823926062643,0.1377190199961567,2.137588114069312,-1.275358196583317,-0.0003666824543800632,0.0005491031158448788,-0.0006303317318427147,-0.0027190964755219897,1.957742974913716e-05,5.129969300579428e-05,-0.0021705171423722323,0.2173345386981964,-21.82431411743164,-2.38179087638855,22.61603546142578,0.6801248788833618,2.2679946422576904,-0.013685601763427258,,,,,,,,,
1739401969.1872923,0.5255151761941755,0.0960014878009236,-0.9532014119842704,-2.0690777744962117,0.13772145712428488,2.1375881140154775,-1.275353413228812,0.0001216649191399348,0.00034010630843295264,-0.0004291987517376422,-0.00022326775706192343,-0.0005354160485497637,-4.4174214037106765e-05,-0.001056387211124844,0.1935308277606964,-21.82431411743164,-2.38179087638855,22.56842803955078,0.6865335702896118,2.2679946422576904,-0.027418512850999832,,,,,,,,,
1739401969.1973038,0.5255183181372728,0.09600263662851251,-0.953200471375094,-2.069079999831509,0.13772195258174577,2.1375902845263943,-1.275351892040943,0.0015542063342399697,-7.561927090910393e-05,0.00021108322454830856,0.0005055855636820778,0.0002657136573559766,0.0007591969965215784,0.00038499124430327564,0.1935308277606964,-21.82431411743164,-2.4095618724823,22.56842803955078,0.6673074960708618,2.2615859508514404,-0.04023589566349983,,,,,,,,,
1739401969.2092257,0.525515561053707,0.09600261910977803,-0.9531986341164899,-2.0690803396838042,0.1377166345062034,2.137588114023452,-1.275359319857913,-0.000723139528034371,0.00027786495394244333,0.001160777960291255,-0.0005917194884919019,-0.0019143900683364539,-0.0003158294528836663,-0.002223242484463142,0.2173345386981964,-21.82431411743164,-2.4095618724823,22.56842803955078,0.7002664804458618,2.2679946422576904,0.019273381680250168,,,,,,,,,
1739401969.2202108,0.5255152453288517,0.09600460314451158,-0.9532022279367446,-2.069082084743717,0.13772292216955448,2.13758898943107,-1.2753535930539974,-0.00122202287032702,0.0003708457997840518,0.0004319034801593161,-0.0008567244223858213,0.0004395378974023735,-0.00011846386110567575,-0.0007990273343865501,0.1935308277606964,-21.84811782836914,-2.35798716545105,22.59223175048828,0.6801248788833618,2.2615859508514404,-0.03382720425724983,,,,,,,,,
1739401969.2311976,0.5255182066461761,0.09600612307363907,-0.9531985559964645,-2.0690795569809333,0.1377212944558454,2.13759312767134,-1.2753564464321234,0.0011456132730275864,-0.0002117968934053873,0.0006383387739355021,0.0007463621658279218,0.00021800090689968235,0.0016670626535241655,-0.0012198704616894435,0.1935308277606964,-21.87192153930664,-2.4095618724823,22.59223175048828,0.6608988046646118,2.2615859508514404,-0.0008682189509272575,,,,,,,,,
1739401969.2421353,0.5255163744463759,0.09599889695743664,-0.9532024695052781,-2.0690827436928507,0.13771832060513742,2.1375884677847785,-1.2753512635551278,0.00019355393789526417,-0.0014443048272601224,0.00122313994159418,0.0008491098717384548,-0.001460059338462901,0.0009531588660934907,7.360137385688378e-05,0.2173345386981964,-21.77273941040039,-2.35798716545105,22.59223175048828,0.6865335702896118,2.2679946422576904,-0.04756011441349983,,,,,,,,,
1739401969.252224,0.5255161381875397,0.09600433163034432,-0.9532035837769857,-2.069084526274493,0.13771831498908405,2.1375881145558258,-1.2753565863292344,4.853633047863541e-05,-0.0005057260292917093,-0.0008574850144245185,-0.0008220131325627455,-5.786608594625934e-05,-0.0005648554856221916,-0.00031166979618769817,0.1935308277606964,-21.84811782836914,-2.4095618724823,22.61603546142578,0.6865335702896118,2.2679946422576904,-0.027418512850999832,,,,,,,,,
1739401969.2632039,0.525515896228742,0.0960060470741402,-0.9532034929686493,-2.0690817638723065,0.13772298844582212,2.13758725021782,-1.2753501900084356,-0.0002168296484529331,0.0024886843670073977,-7.065427282121822e-05,-0.0004904610174473599,0.0003707111276548108,-0.0011948090841434993,-0.00044489301110260806,0.2173345386981964,-21.87192153930664,-2.38179087638855,22.59223175048828,0.6865335702896118,2.2753188610076904,-0.05396880581974983,,,,,,,,,
1739401969.2741768,0.5255172726787883,0.09600061824584387,-0.9532051886444894,-2.069077746716949,0.13772099875378668,2.1375912012694833,-1.2753541555727257,1.4091645648532831e-05,-0.00117469692875525,0.00017740551899748176,0.0008478761704027204,0.0015929999375362276,0.0017239970180142612,-0.00029176495129891065,0.1935308277606964,-21.79654312133789,-2.35798716545105,22.56842803955078,0.6737161874771118,2.2551772594451904,-0.020094294100999832,,,,,,,,,
1739401969.2852197,0.5255158728383708,0.09600190589798037,-0.9532031957451854,-2.0690803575766004,0.13771967977031296,2.1375896314979146,-1.2753486354242531,-0.0001828411140276447,-0.000573568299491221,-0.0003371549352260057,5.509933234707188e-05,-8.135210604388009e-05,-0.0002703284213632143,0.0009817854105582248,0.2173345386981964,-21.82431411743164,-2.35798716545105,22.59223175048828,0.6865335702896118,2.2551772594451904,-0.06678618490695953,,,,,,,,,
1739401969.2952616,0.5255163401966708,0.09600062213108067,-0.9532030848607687,-2.0690800543370473,0.13772025490787776,2.1375906889737992,-1.275354913663374,-9.025666842563433e-05,-0.0009783206954963825,0.00027437998128011874,0.000611192299738761,0.0004015957860935276,0.00016286845484421238,-0.0001665728915354166,0.2173345386981964,-21.79654312133789,-2.35798716545105,22.56842803955078,0.6737161874771118,2.2551772594451904,-0.013685601763427258,,,,,,,,,
1739401969.3062108,0.5255159043235451,0.09600262105836123,-0.9532032878405241,-2.0690778302525694,0.13771990008942533,2.137589982566288,-1.2753501551046278,0.00020574449867587533,0.00020753728895478606,-0.00029369712602086127,0.00048724383407246734,7.837762306535148e-05,0.000275026340540426,0.0011520562318258058,0.1935308277606964,-21.82431411743164,-2.38179087638855,22.56842803955078,0.6737161874771118,2.2551772594451904,-0.05396880581974983,,,,,,,,,
1739401969.316238,0.5255182179916257,0.09600062116883706,-0.9531968511583029,-2.0690780061258414,0.1377237451327185,2.1375904044403087,-1.2753496256156158,-0.0010156072621836975,-0.00037709549318328873,0.0013869967291839846,0.000493116079471403,0.0021527282058620557,0.0014297353345279064,0.0012775905178314556,0.1935308277606964,-21.79654312133789,-2.4333655834198,22.56842803955078,0.6801248788833618,2.2487685680389404,-0.06037749722599983,,,,,,,,,
1739401969.3271823,0.5255155868395268,0.09600069132079482,-0.9532052742341612,-2.069082771505109,0.13772226136199217,2.137589642417684,-1.2753539448135098,0.0004892097683644791,-0.0007530733615982493,-0.0008521755721849448,-0.0016295200261248473,0.0015792699207770537,0.0012618508106449215,-0.0012156050634035058,0.2173345386981964,-21.79654312133789,-2.35798716545105,22.59223175048828,0.6801248788833618,2.2551772594451904,-0.03382720425724983,,,,,,,,,
1739401969.3381846,0.5255138732436354,0.09599922689884322,-0.9532032070948712,-2.069080274161118,0.13771949886219492,2.1375899313137583,-1.275357488198954,-0.000540669466294927,-0.00012231085903225872,-0.0008639664212384161,7.065703297390639e-05,0.0012211080330472729,-0.0005580172683190733,-0.0012513481280704522,0.2411382496356964,-21.79654312133789,-2.38179087638855,22.59223175048828,0.6801248788833618,2.2615859508514404,-0.0008682189509272575,,,,,,,,,
1739401969.349192,0.5255158990413283,0.09600030676046516,-0.9531986067609565,-2.0690799995044893,0.13772150816563516,2.1375881140334214,-1.2753528461612025,0.0006875536533142058,-0.0004481224334107188,0.0017939437455041195,0.0005338965502605809,-0.0008394391489997204,-0.0017463352053719264,0.001589154760885787,0.2173345386981964,-21.79654312133789,-2.4095618724823,22.56842803955078,0.6865335702896118,2.2679946422576904,-0.027418512850999832,,,,,,,,,
1739401969.359244,0.5255141592415531,0.09599945360502406,-0.9532027838721151,-2.0690802711285126,0.13772482664511637,2.1375901002859132,-1.2753512105360938,-0.00043005529862436177,-0.0010505826522447343,-0.0015901022312961267,0.0007620259281628185,0.0008449084299265664,0.00040647703930398994,1.514438216943892e-05,0.2411382496356964,-21.82431411743164,-2.38179087638855,22.59223175048828,0.6673074960708618,2.2551772594451904,-0.05396880581974983,,,,,,,,,
1739401969.3702035,0.5255165719642371,0.09600433162445386,-0.9532042872967569,-2.069082383446532,0.13771879157709316,2.1375896816643287,-1.2753473647625453,0.001300885656198577,0.0005394879371913875,-0.0004022354089019331,-0.0010505728423958053,-0.0005974809259945203,0.00203954397323463,0.001495226024768008,0.2173345386981964,-21.84811782836914,-2.35798716545105,22.61603546142578,0.6865335702896118,2.2551772594451904,-0.05396880581974983,,,,,,,,,
1739401969.3811574,0.5255152424416804,0.09600433163041028,-0.9532043305284862,-2.069080974248719,0.13772366704757033,2.137593110228368,-1.2753520086546521,-0.0003623778521677206,7.481323925773327e-05,0.0013552413708391405,6.231429252943216e-05,0.000213430547196762,0.0010226129596498244,-0.001447517730478945,0.1935308277606964,-21.84811782836914,-2.3302161693573,22.56842803955078,0.6801248788833618,2.2615859508514404,-0.07411040365695953,,,,,,,,,
1739401969.391222,0.5255145466391934,0.09599890832331724,-0.9532022237292981,-2.069083810981388,0.13772327181817928,2.1375942211726406,-1.2753549132506472,0.0005278486635143684,-0.001435789189168859,-0.00012170117089260517,-0.0007026863764300904,0.00046781127848985184,0.0010677595053132896,-0.0014380619698333616,0.2411382496356964,-21.77273941040039,-2.35798716545105,22.56842803955078,0.6801248788833618,2.2551772594451904,-0.013685601763427258,,,,,,,,,
1739401969.4021795,0.525516531839603,0.09600604404288046,-0.9532073805504431,-2.069084194105827,0.13771914438938918,2.1375888721859932,-1.2753478087728773,0.0004266789425411297,0.0004402544038028544,-0.0016543907416532858,-0.001338277692069033,-0.0006543403809565983,0.0012684889352867243,0.0018918781352727674,0.2173345386981964,-21.87192153930664,-2.3302161693573,22.63983917236328,0.6801248788833618,2.2615859508514404,-0.07411040365695953,,,,,,,,,
1739401969.4132082,0.5255138794539413,0.09600433163040847,-0.9532042905436688,-2.0690831039867468,0.1377204435279929,2.137589629335642,-1.275353289622101,-0.0007589848628086441,0.00039787782115280237,-0.000727913658500202,-7.462945460918536e-05,0.00037827216281887413,-0.0007713382046435088,-0.0005869763788263932,0.2411382496356964,-21.84811782836914,-2.35798716545105,22.63983917236328,0.6801248788833618,2.2551772594451904,-0.027418512850999832,,,,,,,,,
1739401969.4232137,0.5255117512702625,0.09600433159432391,-0.9532003757941633,-2.0690828396752035,0.13771936466144585,2.1375888716755553,-1.2753512123201654,-0.0021760554737392667,-0.00015305874548158762,-0.00020369427322248595,-0.000613078087387582,-0.0006946511477194975,-0.0005781064848352785,-0.0005857801965715293,0.2411382496356964,-21.84811782836914,-2.38179087638855,22.59223175048828,0.6865335702896118,2.2615859508514404,-0.05396880581974983,,,,,,,,,
1739401969.4342215,0.525516606936032,0.0960004980230436,-0.9532010921565981,-2.069080717779725,0.13772373939933177,2.1375904284861824,-1.2753524168183312,8.564635050998184e-05,-0.00019370755832901453,-0.0004035400320516619,-1.913752942084247e-05,0.0007682607412125145,0.00016229745508516177,-0.0003940622217335718,0.2173345386981964,-21.82431411743164,-2.4095618724823,22.56842803955078,0.6673074960708618,2.2753188610076904,-0.0072769103571772575,,,,,,,,,
1739401969.445158,0.5255120517248278,0.09600433161843672,-0.9532025850099004,-2.06908428038087,0.13771832110922974,2.1375925215581764,-1.2753525319429888,-0.00022403885907310378,0.0007256181779306936,0.00022576588426540705,-0.001667271924796152,-0.00027247540665490034,0.0011171488834286368,-0.0007738075108637166,0.2411382496356964,-21.84811782836914,-2.38179087638855,22.61603546142578,0.6865335702896118,2.2615859508514404,-0.03382720425724983,,,,,,,,,
1739401969.4551663,0.5255219533847407,0.09600433195518775,-0.9532025474399042,-2.0690803109356053,0.13772089304339252,2.137589931537001,-1.275350908888564,0.0026567560927173756,0.0005809986909680734,2.8176988999513073e-05,-0.0004883833068749686,2.2322579116133202e-05,0.00028439191699951023,0.00018287274554612478,0.1419561207294464,-21.84811782836914,-2.38179087638855,22.59223175048828,0.6737161874771118,2.2615859508514404,-0.04756011441349983,,,,,,,,,
1739401969.4662433,0.5255183185102005,0.09600412994350566,-0.9532007022948172,-2.0690778301136707,0.13771826375839052,2.137588876054155,-1.275344628877351,-0.00015197292809497744,0.0005180263608186026,0.001096716893345439,0.001862661585436591,-0.0015963037385616473,-0.0007144387929032157,0.0031440513594174157,0.1935308277606964,-21.84811782836914,-2.4095618724823,22.56842803955078,0.6865335702896118,2.2615859508514404,-0.07411040365695953,,,,,,,,,
1739401969.4782186,0.5255148972863184,0.09600261943407726,-0.9532052917174699,-2.0690778385796347,0.13772149071441975,2.1375888717293985,-1.275353289597133,4.379578110193477e-05,0.000278838487769452,-0.0017449124255493273,-7.738777209292415e-05,-0.0005697356754408983,-0.00099433686240532,0.001433208125090571,0.2411382496356964,-21.82431411743164,-2.35798716545105,22.56842803955078,0.6865335702896118,2.2615859508514404,-0.027418512850999832,,,,,,,,,
1739401969.4891922,0.5255175942458156,0.09600474993964528,-0.9532024547527693,-2.069078828706123,0.137722712302952,2.137593867888151,-1.2753517609461138,0.0009299731366344521,0.0018581510790389244,-0.0007598343245730666,0.0005134475346365188,-0.0008998496087834883,0.0008544887806436459,0.0009094379993182056,0.1935308277606964,-21.82431411743164,-2.35798716545105,22.56842803955078,0.6673074960708618,2.2551772594451904,-0.04023589566349983,,,,,,,,,
1739401969.4991958,0.5255162129759748,0.0960060441631701,-0.9531983881544137,-2.069083903599215,0.13772009667414858,2.137590427056559,-1.275353289621361,0.0003979763515242698,0.0013207624783005344,0.001463540365637549,-0.001979726248218372,-9.971000082452177e-05,-9.607980554737793e-06,0.00042747871249646874,0.1935308277606964,-21.87192153930664,-2.4095618724823,22.61603546142578,0.6801248788833618,2.2753188610076904,-0.027418512850999832,,,,,,,,,
1739401969.510268,0.5255163756847316,0.09600261910967921,-0.9532022621401948,-2.0690780763464756,0.13772362773616414,2.1375892249062103,-1.2753568486991518,0.000701540539950368,0.00023553387463697034,0.0015093151051106637,0.0006710327264152902,0.0008479087393083106,0.00039237559211000527,-0.0017617936176446453,0.2173345386981964,-21.82431411743164,-2.35798716545105,22.56842803955078,0.6801248788833618,2.2615859508514404,-0.0072769103571772575,,,,,,,,,
1739401969.5211432,0.525516519000567,0.09600254018871429,-0.9532053041847227,-2.06908436255615,0.13772100841169788,2.137588114663493,-1.275350150750618,0.0005480103874357218,-0.0008191788859918345,-0.0009851501078374755,-0.0011659405635838806,0.0003119314223579347,-0.0015432683834366203,0.0004230331451234453,0.2173345386981964,-21.82431411743164,-2.35798716545105,22.61603546142578,0.6673074960708618,2.2679946422576904,-0.05396880581974983,,,,,,,,,
1739401969.5312743,0.5255154882134953,0.09600433162907378,-0.9532021572285954,-2.0690813247343876,0.13772069436375833,2.1375896312737113,-1.275353289782942,-0.0003001859098544913,-0.00041846622201327787,0.00046234017202612365,-0.0007751990744371532,-0.0014133348676512731,-0.000928467507203829,-0.00036661979322052436,0.1935308277606964,-21.84811782836914,-2.35798716545105,22.61603546142578,0.6673074960708618,2.2551772594451904,-0.027418512850999832,,,,,,,,,
1739401969.5421355,0.5255136967891862,0.09599778033886938,-0.9532071230073399,-2.069082536464785,0.1377190380893328,2.1375897470732363,-1.2753486528668585,-0.0009128245900099438,-0.001712541005934814,-0.0009594083910151584,-0.0009846567966467533,-0.0012096122087033217,-0.0007134172045157913,0.000754834328904356,0.2173345386981964,-21.79654312133789,-2.3302161693573,22.59223175048828,0.6801248788833618,2.2551772594451904,-0.06678618490695953,,,,,,,,,
1739401969.5522366,0.525512873007656,0.09600434041945624,-0.9532013773301975,-2.069082780338824,0.13772225447698525,2.137592050590608,-1.275351853584596,-0.0008299325417997141,-0.00015177735471636714,-0.0006355549415171561,0.0003753350562803526,0.00020858043966530567,0.00045719844496272804,0.001654829330084648,0.2689092457294464,-21.84811782836914,-2.38179087638855,22.59223175048828,0.6801248788833618,2.2615859508514404,-0.06678618490695953,,,,,,,,,
1739401969.5632062,0.5255145811443818,0.09600509196662711,-0.9532011376926944,-2.0690835752652257,0.13771788389139059,2.1375881140334214,-1.2753588497714903,-0.0006062995935882464,0.0010024429793731061,0.0006783056771157243,-0.0005989843909981699,-0.0014685462132890408,-0.0008453033650605803,-0.0022446735832308586,0.2411382496356964,-21.82431411743164,-2.4095618724823,22.61603546142578,0.6938577890396118,2.2679946422576904,-0.0072769103571772575,,,,,,,,,
1739401969.5732343,0.5255127826190616,0.09600062121070412,-0.9532003990488433,-2.069083569293345,0.13772196730293632,2.1375888716755553,-1.2753501509593101,-0.0006757349653911986,0.00018084478283532325,0.0011127121080333172,0.001470232162238777,0.0004965038374130912,-0.0005666379215664584,0.0001473951235492923,0.2411382496356964,-21.79654312133789,-2.38179087638855,22.61603546142578,0.6865335702896118,2.2615859508514404,-0.05396880581974983,,,,,,,,,
1739401969.5841322,0.5255120863800801,0.09600238335720415,-0.9532032764117606,-2.0690826164441094,0.13771792131842298,2.137590386995712,-1.2753501507439702,-0.00035910180813518693,-0.00036378468479225624,0.0005978698038819812,0.00031950761756917187,0.00031581815893286344,0.0010883750931109917,0.0015111162793781233,0.2411382496356964,-21.82431411743164,-2.38179087638855,22.59223175048828,0.6938577890396118,2.2487685680389404,-0.05396880581974983,,,,,,,,,
1739401969.5941956,0.5255162149058918,0.09599890993522793,-0.9531993274886268,-2.0690777834529577,0.13772301896806266,2.1375931102280723,-1.2753573344330569,3.613646398011331e-05,-0.0012052907425896405,0.0005934164981145112,0.001190205677872983,-3.974916250983965e-05,0.0003134123956123716,-0.0022388637304721296,0.1935308277606964,-21.77273941040039,-2.4095618724823,22.56842803955078,0.6737161874771118,2.2615859508514404,-0.020094294100999832,,,,,,,,,
1739401969.604215,0.5255180796456779,0.0960026191096864,-0.9531984001066124,-2.0690784976086,0.1377223684424162,2.137588871699482,-1.2753560641064008,0.0018604304925164694,-0.0006273465339065809,0.0008643584269791177,0.0010102073618833388,0.0001172796357265118,-0.0005201423697937488,-0.0008330956900530249,0.1935308277606964,-21.82431411743164,-2.4095618724823,22.56842803955078,0.6801248788833618,2.2615859508514404,-0.03382720425724983,,,,,,,,,
1739401969.616148,0.5255183213991067,0.09600070319322163,-0.9532025474385992,-2.0690779289013106,0.13772414800999155,2.1375915392139113,-1.2753519567894895,0.0009638623279510747,-0.00014851860236167014,0.001271801946941451,7.647851928558697e-05,0.000263497500719944,0.0009033007736703523,-0.00020923333405352255,0.1935308277606964,-21.79654312133789,-2.38179087638855,22.54065704345703,0.6737161874771118,2.2753188610076904,-0.020094294100999832,,,,,,,,,
1739401969.6261995,0.5255145467983442,0.0960025811111591,-0.9531986225964102,-2.069077774189204,0.13772069346235827,2.1375890461796434,-1.2753493930162978,-2.901801110492461e-05,-0.00033337845844677084,0.0006069087127125441,0.0002868225290030929,0.000832156900666376,-9.326619039859611e-05,0.002057090379649507,0.2411382496356964,-21.82431411743164,-2.4095618724823,22.56842803955078,0.6673074960708618,2.2615859508514404,-0.06037749722599983,,,,,,,,,
1739401969.6362457,0.5255154869251282,0.09600062116818256,-0.9532024836300692,-2.0690779939160135,0.13772057673895566,2.1375892250527255,-1.2753534088125553,0.0005584206016601892,0.0009078439935278381,0.0009553520815870919,0.00028128826943781335,7.23719545651974e-05,-0.00036405495603825707,0.00026266101693640754,0.1935308277606964,-21.79654312133789,-2.35798716545105,22.56842803955078,0.6673074960708618,2.2615859508514404,-0.027418512850999832,,,,,,,,,
1739401969.647239,0.5255090027054815,0.09600261910967912,-0.9532013379406874,-2.06908132540013,0.13771742264319853,2.1375896293376284,-1.2753588632087576,-0.001839203292677708,0.00011577651647972905,0.002392342825750212,-0.0007623880281832218,-0.0009524402160606529,0.00013701073436856356,-0.0024699607628477266,0.2927129566669464,-21.82431411743164,-2.38179087638855,22.61603546142578,0.6938577890396118,2.2551772594451904,-0.0072769103571772575,,,,,,,,,
1739401969.6582854,0.5255166010566023,0.09600062116882606,-0.9532042805806433,-2.069080742482235,0.13772164823632108,2.1375923569824797,-1.2753486354422738,0.0009310868067016285,-0.000797332651304935,-0.0009337975805891386,-0.0006082781971732316,-0.0015345767732293297,0.001198108674725406,0.0020552817932169938,0.2173345386981964,-21.79654312133789,-2.35798716545105,22.56842803955078,0.6938577890396118,2.2679946422576904,-0.06678618490695953,,,,,,,,,
1739401969.669162,0.525514547761277,0.0960043316304103,-0.9532022510239192,-2.0690800863718732,0.1377225763073197,2.1375881155468135,-1.2753493930838908,-5.713282936937623e-05,0.0011013807672025373,0.0005997088990874053,0.00027708368980487985,0.0003297086913230489,-0.0008382078126030125,0.00026930891658287964,0.2411382496356964,-21.84811782836914,-2.35798716545105,22.56842803955078,0.6801248788833618,2.2679946422576904,-0.06037749722599983,0,0,0,0.000,0,0
1739401969.679171,0.5255166011700095,0.09600456839330485,-0.9532014039223243,-2.0690820542592183,0.1377225322847814,2.1375896293356593,-1.275355610773959,0.0009387344157262825,0.00118447619544826,-0.0005291764943733239,0.00038064341417558495,0.00030656251731730333,-0.000581561880596579,-0.0001863008325210362,0.2173345386981964,-21.84811782836914,-2.38179087638855,22.61603546142578,0.6865335702896118,2.2551772594451904,-0.013685601763427258,0,0,0,0.000,0,0
1739401969.6901817,0.5255144999599836,0.09600261911101567,-0.9532073839797969,-2.069082781381209,0.13771863211474847,2.1375920508052837,-1.2753502030757158,-0.0003609650446222761,-0.000706238442442139,-0.001681929010403241,-0.0001874825827833424,7.959436096555573e-05,0.000593770978320594,0.0010006020868420001,0.2173345386981964,-21.82431411743164,-2.3302161693573,22.59223175048828,0.6938577890396118,2.2615859508514404,-0.05396880581974983,0,0,0,0.000,0,0
1739401969.7002032,0.5255162685206657,0.09599867188520042,-0.9531995468533222,-2.069078491970179,0.13771681375798955,2.137591293575898,-1.2753486397875622,7.866187986663632e-05,-0.0016887574609821046,0.0016909697589153653,0.001519244136811372,-0.001489136842281119,0.0011104805922867095,0.0005592678827812782,0.2173345386981964,-21.77273941040039,-2.4333655834198,22.56842803955078,0.7002664804458618,2.2679946422576904,-0.06678618490695953,0,0,0,0.000,0,0
1739401969.7111516,0.5255180766491151,0.096006044150696,-0.9532007134717354,-2.0690843751549215,0.1377233126384066,2.137593227971625,-1.275349394537449,-0.0007899390629034306,-0.00035441748729184803,0.0005040376930701637,-0.0007018912134301757,0.000630647696551501,0.0029944595096464193,0.0019673014563497187,0.1935308277606964,-21.87192153930664,-2.38179087638855,22.61603546142578,0.6801248788833618,2.2615859508514404,-0.06037749722599983,0,0,0,0.000,0,0
1739401969.7211962,0.525516914406431,0.09600611105533392,-0.9532073834448695,-2.0690798176830096,0.13772268912320984,2.1375882318268205,-1.2753509478114342,0.0003575008868982423,-0.0002104190194221028,-0.001194009440944953,0.0006445591207543267,0.0017421145237631053,-0.00035398400935847266,0.0005851776730299862,0.1697271168231964,-21.87192153930664,-2.3302161693573,22.59223175048828,0.6865335702896118,2.2679946422576904,-0.04756011441349983,0,0,0,0.000,0,0
1739401969.7311995,0.5255137118709775,0.0960055391865113,-0.9531965391550472,-2.0690850004953156,0.13772178531784188,2.1375881154710217,-1.2753557100854596,-0.0008106582159534196,-0.00023339003576775547,0.0027942030475407676,-0.002159854157023913,-1.331164855636769e-05,-0.0008077803226784655,-0.002815786261151706,0.2173345386981964,-21.82431411743164,-2.4333655834198,22.66364288330078,0.6938577890396118,2.2679946422576904,-0.0072769103571772575,0,0,0,0.000,0,0
1739401969.7412088,0.5255183097956749,0.09599890869754664,-0.9532011821420349,-2.069078033712608,0.13772519896411548,2.1375903869957362,-1.275354155680839,0.0008391894949547536,-0.000842682808510582,0.00019755066445471478,0.001044316591877832,0.00048608642695984123,0.000226988963487463,-6.663067137789954e-05,0.1935308277606964,-21.77273941040039,-2.4095618724823,22.56842803955078,0.6673074960708618,2.2487685680389404,-0.020094294100999832,0,0,0,0.000,0,0
1739401969.7521322,0.5255138483189338,0.09600261910967942,-0.953201303252305,-2.0690845308178094,0.13772000419013306,2.1375920903203167,-1.2753478874260968,4.513748455174481e-05,0.0006493348383971808,-0.0008303161329223411,0.00018602055714675184,-0.0006264762218794809,0.0007919808396732582,0.001226480064908449,0.2411382496356964,-21.82431411743164,-2.38179087638855,22.61603546142578,0.7002664804458618,2.2615859508514404,-0.07411040365695953,0,0,0,0.000,0,0
1739401969.7621336,0.525516522836032,0.09600261910967914,-0.9532035179920543,-2.0690805458658676,0.1377214156544284,2.1375903870502198,-1.275357959250925,0.00015992381366796595,0.0014254902221322785,0.0006618775614802505,0.00034196196184863205,-0.00031309788398205837,0.00016138933342442252,-0.0021309363564350715,0.2173345386981964,-21.82431411743164,-2.38179087638855,22.59223175048828,0.7002664804458618,2.2487685680389404,-0.0008682189509272575,0,0,0,0.000,0,0
1739401969.7731862,0.5255144691442761,0.09600063004608138,-0.9532053046655309,-2.069081681524283,0.13772198260461674,2.1375899376662377,-1.2753564569116949,0.001264754475575933,-0.0003414008865675641,-0.0008694350717090597,-0.0007411372800836119,-0.0011009824085481473,0.00034974187777412485,-0.0017045238185081984,0.2173345386981964,-21.79654312133789,-2.35798716545105,22.61603546142578,0.6865335702896118,2.2615859508514404,-0.013685601763427258,0,0,0,0.000,0,0
1739401969.7832303,0.5255180003718779,0.0959989115712439,-0.9532035249319737,-2.069080303090874,0.137719366768544,2.137590871045996,-1.2753501943766195,0.0016003507278253538,-6.697410367287457e-05,4.5634925641644135e-05,0.0002866294717225031,-0.0014045156014301913,0.0014729472312918612,0.0004554911424313528,0.1935308277606964,-21.77273941040039,-2.38179087638855,22.59223175048828,0.6865335702896118,2.2487685680389404,-0.05396880581974983,0,0,0,0.000,0,0
1739401969.794276,0.5255124499318647,0.09600062116884257,-0.9532051915692669,-2.0690796518984738,0.13772273878587143,2.137589931316417,-1.2753557115220147,-0.001359513889616897,0.0008283829278800657,0.0005285387974888255,-0.001056555151073878,-0.0002667530514540508,0.0004370962652511435,-0.00014737645495652168,0.2411382496356964,-21.79654312133789,-2.35798716545105,22.59223175048828,0.6801248788833618,2.2615859508514404,-0.03382720425724983,0,0,0,0.000,0,0
1739401969.8051896,0.5255148940982525,0.09600261910967914,-0.9532050068644639,-2.06907873566293,0.13772344494143637,2.137591042676971,-1.275354405965974,0.0004816721295450613,0.0007000279231245466,-0.0005795616046208303,-0.00027661006935883134,0.0008342228004688324,0.00034412619315174584,-0.0015732847351895593,0.2411382496356964,-21.82431411743164,-2.3302161693573,22.56842803955078,0.6737161874771118,2.2551772594451904,-0.027418512850999832,0,0,0,0.000,0,0
1739401969.8152108,0.5255147846536234,0.0960007000897909,-0.9532030829302647,-2.0690756668935437,0.13772061434683547,2.137588115492962,-1.2753497986433147,-0.0002081734019384589,-0.00025853032772594895,0.0003250911264170806,0.0016785131765445712,-0.0014606090172815892,-0.0011709136190952367,0.00017992458005607005,0.2411382496356964,-21.79654312133789,-2.35798716545105,22.54065704345703,0.6801248788833618,2.2679946422576904,-0.06037749722599983,0,0,0,0.000,0,0
1739401969.8262515,0.5255165201782247,0.09600743628850977,-0.953203260866552,-2.0690796120991304,0.13772292721463625,2.137593985625729,-1.2753517757571193,-0.00026301422197438885,0.0021456733030833816,0.00016156556306213103,-7.73530444883196e-05,-0.0007703371398573829,0.001914107694235161,0.00038964974683014986,0.2173345386981964,-21.84811782836914,-2.38179087638855,22.59223175048828,0.6865335702896118,2.2551772594451904,-0.04023589566349983,0,0,0,0.000,0,0
1739401969.8371994,0.5255179162271979,0.09600262302453662,-0.9532014421972048,-2.0690814080039237,0.13772303194461882,2.1375888847820987,-1.2753493932454045,0.0014607220674961378,-1.311059565119177e-05,0.0006159187955648636,-0.0012536489236903278,0.0006734897317036694,-0.000233891092597065,0.0028896181914279994,0.1697271168231964,-21.82431411743164,-2.4095618724823,22.61603546142578,0.6865335702896118,2.2615859508514404,-0.06037749722599983,0,0,0,0.000,0,0
1739401969.8481555,0.5255151762698451,0.09600094551344442,-0.9532066824451483,-2.0690756792002127,0.13772331329504214,2.137589668581564,-1.275353289782943,-0.00021047709817551908,-0.00015396121223401756,-0.0022980152907741847,0.0024808072308651133,-0.00030328976670223245,0.0002823834380818976,0.00018283955222973445,0.1935308277606964,-21.79654312133789,-2.3302161693573,22.54065704345703,0.6801248788833618,2.2551772594451904,-0.027418512850999832,0,0,0,0.000,0,0
1739401969.8592284,0.5255165922923323,0.09600261781606141,-0.9532045910876797,-2.0690802802479356,0.13772333078393323,2.137593070353322,-1.2753486746701121,0.0005428479445409816,-0.00041821468404153243,-0.0012144614693118197,0.000508140914623417,-0.0002267877655584362,0.0010784570459844503,0.0022107657680112925,0.2173345386981964,-21.82431411743164,-2.35798716545105,22.59223175048828,0.6801248788833618,2.2350356578826904,-0.06678618490695953,0,0,0,0.000,0,0
1739401969.8692365,0.5255163632848361,0.09600546026440612,-0.9532044899472853,-2.0690760280882703,0.13772303178060968,2.13758811838211,-1.2753501373351894,0.0006284136588103974,0.001193140126943952,-0.0008718991574831073,0.0007277241790604586,-0.00032756513301101733,-0.0011132009822316063,0.0010804324124631549,0.2173345386981964,-21.82431411743164,-2.35798716545105,22.54065704345703,0.6865335702896118,2.2679946422576904,-0.05396880581974983,0,0,0,0.000,0,0
1739401969.8811598,0.5255142351399552,0.09600433197122635,-0.9532007358682553,-2.0690795669926603,0.13771973665595452,2.137593157102105,-1.2753501526819602,-9.885919055648029e-05,0.00012197603704809571,0.0006449800226679265,0.0008934886240156692,-0.0001468753702138948,0.00015993885587937067,3.117967781591374e-05,0.2173345386981964,-21.84811782836914,-2.4095618724823,22.59223175048828,0.6865335702896118,2.2551772594451904,-0.05396880581974983,0,0,0,0.000,0,0
1739401969.8912086,0.525515397646121,0.09600435793740052,-0.9532042268497142,-2.0690842791207174,0.13771951132701205,2.137589984075643,-1.2753501521975301,0.0001097230850788127,0.00013902187814509375,0.00020351748783822084,0.0004506424440330158,-0.0005264049090788904,0.0003961120767609635,0.001980434401190119,0.1935308277606964,-21.84811782836914,-2.3302161693573,22.61603546142578,0.6801248788833618,2.2551772594451904,-0.05396880581974983,0,0,0,0.000,0,0
1739401969.902215,0.5255165796172662,0.09600062116897458,-0.9532053045407313,-2.069079561053198,0.1377244367501994,2.137587267500917,-1.275348635424261,0.00012213316237594886,-0.0010657823921299291,-0.001479479916057571,0.001612297077912339,0.0007710860371868909,0.00036566659430173045,0.00043853880727624307,0.2173345386981964,-21.79654312133789,-2.35798716545105,22.59223175048828,0.6737161874771118,2.2753188610076904,-0.06678618490695953,0,0,0,0.000,0,0
1739401969.9122221,0.525514490971735,0.09600175108732509,-0.9532034176660198,-2.069077783296654,0.13772379008929403,2.137588916735941,-1.2753557885765057,-0.00016071207272921477,-0.0011241106752878718,0.00027988032083080846,0.0012114013201179582,0.0008901406285876863,0.0013575525722529002,-0.0003786669613536117,0.2173345386981964,-21.82431411743164,-2.38179087638855,22.56842803955078,0.6801248788833618,2.2615859508514404,-0.0072769103571772575,0,0,0,0.000,0,0
1739401969.9232173,0.5255141818446566,0.09600061824092736,-0.9532091657408723,-2.069081081342613,0.13772060999138203,2.137589673157736,-1.2753513793549918,-0.0001487284863024225,-0.0004036977494321391,-0.001659652712949895,-0.0008902747932988634,0.0002173344660410724,-0.0006078342181616116,-0.00018019689094200895,0.2173345386981964,-21.79654312133789,-2.3064124584198,22.56842803955078,0.6801248788833618,2.2551772594451904,-0.04756011441349983,0,0,0,0.000,0,0
1739401969.9341412,0.5255138481983012,0.09600261910966261,-0.9532031839835862,-2.069082125004853,0.13772471293448107,2.1375897863193076,-1.2753549146889012,-0.0015732752826855029,0.0006204233483794541,3.3260579276779576e-05,-0.0015307619689579476,0.0007405561682583886,0.0006380131856800568,9.105715733587921e-05,0.2411382496356964,-21.82431411743164,-2.38179087638855,22.59223175048828,0.6737161874771118,2.2551772594451904,-0.013685601763427258,0,0,0,0.000,0,0
1739401969.9452255,0.5255156709223436,0.09600432286141422,-0.9532053042318396,-2.0690817642372816,0.13772420591234222,2.1375908986480567,-1.275355670838961,-0.0005240275995162181,0.0009220297858150324,-0.0007736293631012505,-8.708238708360279e-05,4.033375438679992e-05,0.0010112681971942905,-0.0016563067100441248,0.2173345386981964,-21.84811782836914,-2.35798716545105,22.59223175048828,0.6737161874771118,2.2487685680389404,-0.0072769103571772575,0,0,0,0.000,0,0
1739401969.9552417,0.5255173821715723,0.09600262235740596,-0.953202496303516,-2.069082175878216,0.1377242021815267,2.137589682150847,-1.275347887479931,0.0010247119595061416,-0.00021573986543853768,0.0005729052296952497,-0.0009726937202663416,0.0011173136661851405,-0.0007827502378556528,0.0014164363952977165,0.1935308277606964,-21.82431411743164,-2.35798716545105,22.61603546142578,0.6737161874771118,2.2551772594451904,-0.07411040365695953,0,0,0,0.000,0,0
1739401969.96623,0.5255135667229779,0.09599770109314527,-0.9532050446102341,-2.069079776710497,0.13771879359212194,2.1375881140157746,-1.2753502686437101,-0.00023317576904592486,-0.0008715654634738677,0.0007215836333901921,0.0004153500275312698,-0.002203392919415036,-0.0008125971436289787,0.0020085217139046204,0.2173345386981964,-21.79654312133789,-2.35798716545105,22.59223175048828,0.6865335702896118,2.2679946422576904,-0.05396880581974983,0,0,0,0.000,0,0
1739401969.9771333,0.5255139573322264,0.09600167204161712,-0.953203495665694,-2.0690827531149383,0.13772214075196124,2.137588159560051,-1.2753533487166813,0.00014606897857110388,-0.0009672631407305632,0.0006038814968557751,-0.001718468448478654,-0.0011239903867478773,-0.000829148821279985,0.00024579299430481057,0.2411382496356964,-21.82431411743164,-2.38179087638855,22.59223175048828,0.6938577890396118,2.2679946422576904,-0.05396880581974983,0,0,0,0.000,0,0
1739401969.987135,0.525514867346787,0.09600817500115355,-0.9532056676483031,-2.06908238348717,0.13772304555349218,2.1375873004468247,-1.2753501900439834,-0.00041348175904636205,0.000561776331620252,1.8613523253186147e-05,-0.0005158576721559133,0.0006946606716482388,-0.0005250524404795526,0.001822558119920404,0.2411382496356964,-21.87192153930664,-2.38179087638855,22.61603546142578,0.6865335702896118,2.2753188610076904,-0.05396880581974983,0,0,0,0.000,0,0
1739401969.998129,0.5255172735386271,0.09600433164243902,-0.9532070710719942,-2.0690807411315606,0.13772455633801967,2.137589629335929,-1.2753501551048416,-0.0005602600878602538,9.177310199111867e-05,-0.0006167832750830819,0.00022792309725818273,9.619191998502688e-05,-0.0013296939975852868,0.0005526111523580389,0.1935308277606964,-21.84811782836914,-2.3302161693573,22.56842803955078,0.6737161874771118,2.2551772594451904,-0.05396880581974983,0,0,0,0.000,0,0
1739401970.0081842,0.5255155669208286,0.09600430824642094,-0.9532045939831923,-2.069083870142177,0.13772302805696313,2.1375885849657563,-1.275354913178931,-0.0003740908663033102,-6.53197785875861e-05,-0.000574475996101114,-0.0006651076092042499,0.0011151699300496548,-0.0009126446303764972,-0.0009519430513468697,0.2173345386981964,-21.84811782836914,-2.35798716545105,22.61603546142578,0.6865335702896118,2.2679946422576904,-0.013685601763427258,0,0,0,0.000,0,0
1739401970.0182025,0.5255162588734291,0.09600261910928312,-0.953199658225655,-2.0690825253155545,0.13772304555385473,2.137588871845036,-1.2753477695270206,-0.00017477671223296973,-0.0004859273044005029,-0.0006021487024848728,9.8230439565018e-06,0.0009454934064571241,-0.0012580169155809718,0.002654747158443332,0.2173345386981964,-21.82431411743164,-2.4333655834198,22.59223175048828,0.6865335702896118,2.2615859508514404,-0.07411040365695953,0,0,0,0.000,0,0
1739401970.0282226,0.5255155697145805,0.09600804209199457,-0.9532011041937165,-2.069081052639766,0.13772169395007572,2.137593872248804,-1.275350634776201,-0.0001349198528776242,0.000998094382718224,0.0017671521278268443,0.0007111486021951863,-0.0008319438186970868,0.00024223846599706557,0.0006151764789566241,0.2173345386981964,-21.89969253540039,-2.4095618724823,22.56842803955078,0.6938577890396118,2.2551772594451904,-0.05396880581974983,0,0,0,0.000,0,0
1739401970.038236,0.5255158818144673,0.0960033293983627,-0.9532028199725495,-2.069084309701047,0.1377222676724958,2.1375943519922367,-1.2753528794921805,0.0011227799276485896,7.003383112805559e-05,0.000448019543019086,-0.001005803536019872,-0.0008846484409405664,0.0013774170030227406,-0.00012443867735607603,0.2173345386981964,-21.82431411743164,-2.38179087638855,22.61603546142578,0.6801248788833618,2.2551772594451904,-0.04023589566349983,0,0,0,0.000,0,0
1739401970.0492315,0.5255140884171698,0.09600456839731444,-0.9532073844157803,-2.069081074349986,0.13772364427346884,2.1375888782162735,-1.2753534510255877,-0.000529680059810889,8.979283652500771e-05,-0.0015973513254627116,0.0005145229716916493,0.00030149178452943065,-0.001165951876832171,-0.0008375195405712975,0.2411382496356964,-21.84811782836914,-2.3302161693573,22.56842803955078,0.6801248788833618,2.2615859508514404,-0.027418512850999832,0,0,0,0.000,0,0
1739401970.0601308,0.5255136862398692,0.09600054224919778,-0.9532052265217499,-2.069082744766338,0.13772368073355457,2.137592808250058,-1.275350150960221,0.00040989970677061396,-0.0007792735819627228,-0.0008526832543752968,-0.001958163016838309,0.0004213367522097959,-0.0002516819776236471,0.0008112541876176394,0.2173345386981964,-21.79654312133789,-2.35798716545105,22.59223175048828,0.6801248788833618,2.2551772594451904,-0.05396880581974983,0,0,0,0.000,0,0
1739401970.0701985,0.5255166093731959,0.09600072639276966,-0.9532073815625078,-2.069078501125685,0.13772624433053132,2.137592353214016,-1.2753497462966115,0.0005983926356968063,0.00024864313788428754,-0.001735460597123638,-0.000415490838304901,0.00137087864056243,0.00028884783671551914,0.0007483811106736837,0.2173345386981964,-21.79654312133789,-2.3302161693573,22.56842803955078,0.6865335702896118,2.2679946422576904,-0.06037749722599983,0,0,0,0.000,0,0
1739401970.0811532,0.5255166088797447,0.09600262982753903,-0.9532035219409745,-2.0690756682348614,0.13772380305823817,2.1375938678961273,-1.2753561810357366,0.000867120854452459,-0.0002468705407520685,0.00017066332878796353,0.0007655696652111371,0.0003023349495699967,0.00012921399711200232,-0.0007694660024003795,0.2173345386981964,-21.82431411743164,-2.38179087638855,22.54065704345703,0.6801248788833618,2.2551772594451904,-0.0072769103571772575,0,0,0,0.000,0,0
1739401970.0921988,0.5255148973219751,0.09600260741786586,-0.9532024953405405,-2.0690797765925897,0.13772456087430507,2.137590858663794,-1.2753528914280134,0.0003783420138779323,0.00018083491606369435,0.0005216020499598962,0.00041518796943709247,0.0009832503199617337,0.0013611078162435908,-0.00035052369766369823,0.2411382496356964,-21.82431411743164,-2.35798716545105,22.59223175048828,0.6737161874771118,2.2487685680389404,-0.06678618490695953,0,0,0,0.000,0,0
1739401970.1022282,0.525515647792996,0.09600062106050085,-0.9532023955361442,-2.0690777470072077,0.1377223669930277,2.1375943366547925,-1.275352585265762,0.0005475424938996578,-5.544121062118792e-05,-0.0001609693314587521,0.0013654263941192003,-0.0015881193912524174,0.002622110946597518,0.00103011853937529,0.2173345386981964,-21.79654312133789,-2.4095618724823,22.56842803955078,0.6801248788833618,2.2423598766326904,-0.06037749722599983,0,0,0,0.000,0,0
1739401970.113195,0.5255166096946285,0.09600605292013699,-0.9532049897774437,-2.0690823865227173,0.1377193711527154,2.1375881334680007,-1.2753553972291092,0.0010622850691205112,0.001497784701136776,-0.0007078008324346516,-0.0010238519087682157,-0.0014479090710507471,-0.0005429821446055824,-0.0003293446077146209,0.2173345386981964,-21.87192153930664,-2.35798716545105,22.61603546142578,0.6865335702896118,2.2679946422576904,-0.013685601763427258,0,0,0,0.000,0,0
1739401970.123286,0.5255151763174684,0.09599890864824338,-0.9532042877564687,-2.069081650861448,0.13772328941738032,2.137588876198041,-1.2753528402463241,-0.0009681070676318764,0.0001862588644027849,-0.00022619857002498483,-0.0005499352586200675,0.0009870651121999842,-0.00045236978612860453,0.000762395039125545,0.1935308277606964,-21.77273941040039,-2.35798716545105,22.61603546142578,0.6801248788833618,2.2615859508514404,-0.04023589566349983,0,0,0,0.000,0,0
1739401970.1342528,0.5255118427410675,0.09599849030277535,-0.9532050677674617,-2.0690823014704045,0.13772217965401826,2.1375918037720485,-1.2753510653934912,-0.0014346231510985546,-0.00167122568281983,-8.927612720576838e-05,-0.0002262023148599686,0.00019803537804162095,-0.0006194881560297255,-0.00014683152157180868,0.2411382496356964,-21.79654312133789,-2.35798716545105,22.61603546142578,0.6938577890396118,2.2679946422576904,-0.04756011441349983,0,0,0,0.000,0,0
1739401970.1451614,0.5255145009057663,0.09600065623278164,-0.9532091671310907,-2.0690785285907487,0.13772333079223004,2.1375903417201996,-1.2753582112852515,-0.0003812500924395641,-0.0008979054322655499,-0.0008981065379335976,0.001506942045933155,0.00029510032398442795,0.00022748336838076844,-0.0026782435302644446,0.2173345386981964,-21.79654312133789,-2.3064124584198,22.56842803955078,0.6801248788833618,2.2615859508514404,-0.013685601763427258,0,0,0,0.000,0,0
1739401970.1552458,0.5255137669917941,0.09600433195578176,-0.9532014075315055,-2.069080518691661,0.1377237516914997,2.137591350127736,-1.2753528864845773,-2.298750251691182e-05,0.0004436160982442063,-0.00029803229355810344,-0.00018291519902674576,0.0011404877904720963,-1.279987914215168e-05,-0.0001859130636157921,0.2173345386981964,-21.84811782836914,-2.4095618724823,22.59223175048828,0.6801248788833618,2.2679946422576904,-0.04023589566349983,0,0,0,0.000,0,0
1739401970.16623,0.5255163748246116,0.09600546026441527,-0.953203287663926,-2.0690795581780015,0.13771791036152273,2.137588585522376,-1.2753501526883142,0.0012186098201914996,0.001842983642163668,-0.000128962769810715,-0.00021992022728843,-0.001644037419014597,0.000686360574105018,-0.0012425053494818643,0.2173345386981964,-21.82431411743164,-2.38179087638855,22.59223175048828,0.6938577890396118,2.2679946422576904,-0.05396880581974983,0,0,0,0.000,0,0
1739401970.178174,0.5255128319226686,0.09600264575748345,-0.9532013516775145,-2.069086336443314,0.1377221791467875,2.1375881271539257,-1.2753595101825732,0.001063204083366755,-0.0003427737563123547,0.0005988702744780479,-0.0017481131949894947,-0.0001634423727137399,-0.00029831617799403436,-0.0026556192764150112,0.2411382496356964,-21.82431411743164,-2.4095618724823,22.63983917236328,0.6938577890396118,2.2679946422576904,0.012864691205322742,0,0,0,0.000,0,0
1739401970.1881917,0.5255152021991941,0.09600478508795106,-0.9532031825921162,-2.069080274311854,0.1377245215058049,2.137590426295478,-1.275354956847431,-0.0003095185865349661,-7.059930798743787e-05,0.0007520936785755505,0.0005227242065973067,0.0007894941379745597,0.000855290408275228,-0.00041890894060875664,0.1935308277606964,-21.82431411743164,-2.38179087638855,22.59223175048828,0.6737161874771118,2.2487685680389404,-0.013685601763427258,0,0,0,0.000,0,0
1739401970.1982527,0.5255141692585105,0.09600065628149147,-0.9532035133159933,-2.0690780795099717,0.13772379464114914,2.1375903651931236,-1.2753509607325957,-0.0004774686364914724,-0.0006360459530646945,-0.000510338215240059,0.0008467246423943632,0.00028914935394420976,0.00020157531491851591,-0.00048185793390437157,0.2411382496356964,-21.79654312133789,-2.38179087638855,22.56842803955078,0.6801248788833618,2.2487685680389404,-0.04756011441349983,0,0,0,0.000,0,0
