IITGN-Robotics/Franka_IITGN_ROBOTICS/franka_ros/franka_iitgn/data/b_36.csv
time,fr3_joint1_pos,fr3_joint2_pos,fr3_joint3_pos,fr3_joint4_pos,fr3_joint5_pos,fr3_joint6_pos,fr3_joint7_pos,fr3_joint1_vel,fr3_joint2_vel,fr3_joint3_vel,fr3_joint4_vel,fr3_joint5_vel,fr3_joint6_vel,fr3_joint7_vel,fr3_joint1_eff,fr3_joint2_eff,fr3_joint3_eff,fr3_joint4_eff,fr3_joint5_eff,fr3_joint6_eff,fr3_joint7_eff,flexpin1,flexpin2,flexpin3,Force,ContactMic,ContactMic_gt
1739401995.0178742,0.5255213389297719,0.0959067132748639,-0.9532326228273145,-2.0690725674346186,0.13769175900457334,2.1375763794175775,-1.2753484799805876,-0.0006593178432310789,0.003612700478304719,-0.0013001379312344975,0.0006203314536807079,7.472251274462262e-05,0.0004688880144747113,0.0005184626728802601,0.2411382496356964,-21.72116470336914,-2.3064124584198,22.54065704345703,0.6673074960708618,2.2551772594451904,-0.013685601763427258,,,,,,,,,
1739401995.0288336,0.52551690890633,0.09592019011890174,-0.9532348434769121,-2.0690809705077124,0.13769455912481432,2.1375796362434585,-1.275351534449194,-0.0005213696442137831,1.0614792771518724e-05,-0.0003074058842970482,-0.0012563444743302868,-0.0007963404674477047,1.7741911816316345e-05,-0.0026271013053737464,0.2927129566669464,-21.61801528930664,-2.3064124584198,22.61603546142578,0.6737161874771118,2.2679946422576904,-0.0008682189509272575,,,,,,,,,
1739401995.039891,0.5255168336288741,0.09593281537207905,-0.9532372364395376,-2.0690763963687386,0.13769650468123038,2.1375806602741068,-1.2753500207527817,-1.4598504322681162e-05,0.0006021164825781532,0.00033148817311202884,0.001285357110284846,0.00030927135048578933,-0.000776968616570721,-0.00224580735567012,0.2689092457294464,-21.66958999633789,-2.2826087474823,22.51685333251953,0.6673074960708618,2.2817275524139404,-0.013685601763427258,,,,,,,,,
1739401995.0507772,0.5255181542496382,0.09593928455335157,-0.9532347375371663,-2.0690828668506325,0.13769580163227874,2.1375824797286804,-1.2753458212679958,0.0004448301166146678,0.0005557878253711057,0.0002664283504467828,-0.0011597509056261977,0.0004164767782469091,-0.0006126587754815909,-0.0005655542489300721,0.2411382496356964,-21.66958999633789,-2.3064124584198,22.59223175048828,0.6737161874771118,2.2753188610076904,-0.04023589566349983,,,,,,,,,
1739401995.061766,0.5255215413415366,0.09594351078980726,-0.9532234482183959,-2.0690718061650877,0.1376942877711395,2.1375848624176017,-1.275339390901257,0.0011813908976095015,0.0006216317681021449,0.001262674164091425,0.0008528181363702532,0.0006449148049662787,-0.0005357919449606797,0.0018096411053934796,0.1935308277606964,-21.66958999633789,-2.4571692943573,22.44147491455078,0.6865335702896118,2.2551772594451904,-0.06678618490695953,,,,,,,,,
1739401995.072822,0.5255232535350047,0.09594889475049115,-0.9532160887948905,-2.0690754393841586,0.13769834523859936,2.1375881969157096,-1.2753451449164157,0.00024582180534531324,-0.00032796257886858143,0.0010515768153784382,-0.0003100800179762542,0.001763244114620477,6.123932463404636e-05,0.00026932007545311416,0.1697271168231964,-21.74496841430664,-2.48494029045105,22.49304962158203,0.6801248788833618,2.2551772594451904,-0.05396880581974983,,,,,,,,,
1739401995.0828445,0.5255259786143666,0.09596446903908738,-0.9532170695464625,-2.0690768978455014,0.13769553391087141,2.137589627335645,-1.275344973206369,-0.0002565272063259704,0.0029309461071417584,-0.0009221575920277052,0.0009751074459831138,0.000929870068344558,0.001260202660467135,0.000683268308622921,0.1419561207294464,-21.87192153930664,-2.4571692943573,22.51685333251953,0.6801248788833618,2.2551772594451904,-0.06037749722599983,,,,,,,,,
1739401995.0938306,0.5255252897528804,0.09597671913226645,-0.9532188535254728,-2.069086422038311,0.13769580164150075,2.1375856927611334,-1.2753471603561752,-0.00038035836358942167,0.0004234725594848951,-0.0012776797178963711,-0.0001119183924273691,-0.0008829923028636903,-0.0006516746814017239,0.0009833078749393234,0.1419561207294464,-21.92349624633789,-2.4333655834198,22.63983917236328,0.6737161874771118,2.2615859508514404,-0.03382720425724983,,,,,,,,,
1739401995.1048007,0.5255182219731771,0.09599139435729857,-0.9532199333201082,-2.0690912171569065,0.13769597374213277,2.13758887165761,-1.2753472447231917,-0.001446363155504167,0.0015824326511195614,0.00045144264872033464,-1.132522985333159e-05,-0.00010598998581331584,0.0005584464660248676,-0.0004593774110401663,0.2411382496356964,-21.95126724243164,-2.4095618724823,22.69141387939453,0.6737161874771118,2.2615859508514404,-0.0072769103571772575,,,,,,,,,
1739401995.115817,0.5255181170999091,0.09599962042735614,-0.9532229530987707,-2.0690954607482794,0.13769585434152215,2.1375872481182445,-1.2753492791904484,-0.0002654613110578062,0.0011519548022276844,-0.00019695153142844932,6.192349355497892e-05,0.00016364760187709146,0.0001489959856030675,-0.0004949817625764879,0.2411382496356964,-21.97507095336914,-2.38179087638855,22.69141387939453,0.6737161874771118,2.2753188610076904,-0.04756011441349983,,,,,,,,,
1739401995.1268637,0.5255215410142738,0.09600387180079643,-0.9532244973616197,-2.069090848761909,0.1376957626048923,2.1375835622871704,-1.2753492679623222,0.0006821181759040243,0.0011776485296759967,-4.200908558103187e-05,0.0013126428741801384,0.0009611683392212545,-0.0021033275539449527,-0.0008285338602905601,0.1935308277606964,-21.97507095336914,-2.35798716545105,22.61603546142578,0.6865335702896118,2.2945449352264404,-0.020094294100999832,,,,,,,,,
1739401995.1378305,0.5255219742970912,0.09600066740327134,-0.9532213501500338,-2.0690887915918745,0.13770050581018947,2.1375872481102687,-1.2753449745940477,2.0397711557861503e-05,-0.00025735649663878406,0.0014543482339510888,0.0016298418422136126,-0.000335758578391951,-0.0005191264264727014,0.0009127768465016005,0.2173345386981964,-21.87192153930664,-2.4095618724823,22.61603546142578,0.6608988046646118,2.2753188610076904,-0.04756011441349983,,,,,,,,,
1739401995.148764,0.5255174036726243,0.09599870857619279,-0.9532227235185073,-2.0690968865952466,0.13769610699462836,2.137585996192768,-1.2753482449973972,-0.00047454726930050493,-0.0007164915100703152,0.0001412663979425756,-0.0017063938056343928,-0.0008019013973780124,-0.00011110965892035084,-0.00011231834906866994,0.2411382496356964,-21.82431411743164,-2.38179087638855,22.66364288330078,0.6801248788833618,2.2679946422576904,-0.027418512850999832,,,,,,,,,
1739401995.158847,0.5255181130173072,0.09600484578082287,-0.9532244973613208,-2.06909084838581,0.1376967688624459,2.1375872524430295,-1.2753446664083719,-0.00030279005044242936,0.0008542854073574465,-0.0001928328966241027,0.0009772633235570372,5.236573448150878e-06,-6.704805011868012e-05,-0.0012293480666588415,0.2411382496356964,-21.89969253540039,-2.35798716545105,22.61603546142578,0.6938577890396118,2.2753188610076904,-0.06037749722599983,,,,,,,,,
1739401995.1688774,0.5255198284933904,0.09599570942601948,-0.9532245238521244,-2.0690893957520107,0.13769733219043578,2.1375864904583852,-1.2753516649056544,0.0003664188176683577,-0.0009963495063542629,8.825844090406916e-05,0.0007430411651983823,0.000362707082937717,-0.0008861329955753217,-0.0006936765172395443,0.2173345386981964,-21.77273941040039,-2.35798716545105,22.59223175048828,0.6608988046646118,2.2817275524139404,-0.027418512850999832,,,,,,,,,
1739401995.1808312,0.5255161183468923,0.09599371327745293,-0.953229439482221,-2.0690852036205793,0.13770052779734904,2.1375881140154767,-1.2753460252810376,-0.0009204582643512203,-0.00048244275582989425,-0.00047894764496195414,0.0007958705283408387,0.0019137166474146395,-3.168155114955496e-05,1.5103741460675986e-05,0.2689092457294464,-21.74496841430664,-2.3302161693573,22.54065704345703,0.6737161874771118,2.2679946422576904,-0.04756011441349983,,,,,,,,,
1739401995.191818,0.5255198402672993,0.09598992502561027,-0.953231221884638,-2.06908334441352,0.13770046485600115,2.1375896293356336,-1.275354370114341,0.0009007758574444899,-0.0009304358825939186,-0.0004475868738341962,-0.0005733041258855761,0.0022268486458888485,-0.0003123465778940008,-0.0016985891031675816,0.2173345386981964,-21.69339370727539,-2.3064124584198,22.51685333251953,0.6737161874771118,2.2551772594451904,-0.013685601763427258,,,,,,,,,
1739401995.201834,0.5255215409779995,0.09599192264124656,-0.9532188522334338,-2.0690872834093827,0.13769978787669085,2.1375888717293905,-1.2753478175507957,0.0008618751452263363,0.0010311884552179384,-0.000130216629837327,-0.0010178576902909317,0.000538457374304851,0.00015513195871304328,7.220231461385162e-05,0.1935308277606964,-21.72116470336914,-2.4333655834198,22.56842803955078,0.6801248788833618,2.2615859508514404,-0.06037749722599983,,,,,,,,,
1739401995.212796,0.5255198402672974,0.09598683819419877,-0.9532206347872991,-2.0690872820450923,0.1377008657155224,2.137590388933779,-1.275343788089081,0.0006769161932706439,-0.0010256943955446345,-0.0007149392472315234,-0.0009317904572281459,0.0008329047534463966,0.0012016066480390777,0.0015113791370119688,0.2173345386981964,-21.69339370727539,-2.4095618724823,22.56842803955078,0.6673074960708618,2.2487685680389404,-0.06678618490695953,,,,,,,,,
1739401995.2228365,0.5255215498447889,0.09599567288905368,-0.9532167461864935,-2.0690816126511122,0.13770134239593937,2.137587252478928,-1.275350748482556,0.0007055984264608856,0.0011801995608555496,0.0005239683679042198,0.000952493844987649,0.0007703947029242866,-0.0019084696021743363,-0.001032029677992912,0.1935308277606964,-21.77273941040039,-2.4333655834198,22.49304962158203,0.6673074960708618,2.2753188610076904,-0.0072769103571772575,,,,,,,,,
1739401995.2338681,0.5255215410144213,0.0959933681945406,-0.9532206319696995,-2.0690824400571204,0.13770058490594395,2.137592808250095,-1.27534601888452,0.0005582332203105898,-0.0007749277251879596,0.0005791722101276008,-0.000595091545259848,-6.109038291257253e-05,-0.0013368022437139542,-0.00015990205346324676,0.1935308277606964,-21.74496841430664,-2.4095618724823,22.54065704345703,0.6737161874771118,2.2551772594451904,-0.04756011441349983,,,,,,,,,
1739401995.2448351,0.5255181159728094,0.0959948848029294,-0.953222829805326,-2.069090814733913,0.13769582775993053,2.1375906894822063,-1.2753478595815841,-0.0006889841503142933,-0.0007662214787478093,-0.0002417621052245897,-0.0006667831794444617,-0.0018769426224104495,-0.0003688294144905276,-0.0009201326483183928,0.2411382496356964,-21.77273941040039,-2.38179087638855,22.61603546142578,0.6865335702896118,2.2551772594451904,-0.04023589566349983,,,,,,,,,
1739401995.2558076,0.5255178775542303,0.09600086023066444,-0.9532231342032166,-2.0690888333486375,0.13770008313841364,2.1375897514518076,-1.2753507327188307,-0.00032404667121153376,0.0016754741722441676,-0.00042862871535186554,0.0007691670671212912,-0.00049400376875434,-0.00014154810255379233,0.002308465519964558,0.2411382496356964,-21.84811782836914,-2.4095618724823,22.59223175048828,0.6865335702896118,2.2551772594451904,-0.03382720425724983,,,,,,,,,
1739401995.266787,0.5255161179215943,0.09600110891453378,-0.9532204925149891,-2.069094388501792,0.13769832216770903,2.1375942385441524,-1.2753476270104984,-6.5365762791649515e-06,0.00010811865850278126,0.0007452366836259711,-4.154729640271451e-05,0.001210801254991372,0.0018983776271768824,-0.0005740905395871336,0.2689092457294464,-21.84811782836914,-2.4095618724823,22.66364288330078,0.6938577890396118,2.2551772594451904,-0.03382720425724983,,,,,,,,,
1739401995.277827,0.52551982849354,0.09600484590102859,-0.9532206392541435,-2.069094401835247,0.1376983221626563,2.1375879035503647,-1.2753500260945172,0.0006689465506999525,0.00010986007934186491,0.0014601459627433242,0.00017692799270023767,0.00019027752140263313,-0.0003408298926766716,2.6805547097986894e-05,0.2173345386981964,-21.89969253540039,-2.4095618724823,22.66364288330078,0.6938577890396118,2.2817275524139404,-0.013685601763427258,,,,,,,,,
1739401995.2887995,0.52551597772772,0.09600481948593083,-0.953226969886503,-2.0690966393578933,0.1376990282738355,2.1375889110908943,-1.2753452631631002,-0.0006625759386801719,-0.001508538223420983,-4.5282185663459166e-05,-0.0005099803272112638,-0.0016245333629428549,-0.0006427717836981824,0.00021495092940290982,0.2411382496356964,-21.89969253540039,-2.35798716545105,22.66364288330078,0.6865335702896118,2.2615859508514404,-0.05396880581974983,,,,,,,,,
1739401995.2997627,0.5255160385550731,0.09600761937415629,-0.9532254539956921,-2.0690919460844537,0.13769906956771127,2.137588231771066,-1.2753484025371946,-0.0005484605361525097,0.0009674682593232098,-0.0003647438039940188,0.00027365657021748147,-0.00030061261630743663,-0.0007159257635095148,-0.0007376229481476892,0.2689092457294464,-21.92349624633789,-2.35798716545105,22.63983917236328,0.6865335702896118,2.2679946422576904,-0.027418512850999832,,,,,,,,,
1739401995.309799,0.5255198284921946,0.09600975349397319,-0.9532209884502557,-2.0690948566693366,0.13769982724586816,2.1375905447721966,-1.275349442254819,0.0009896097053798494,0.0016800497979316997,0.0011980812720014306,-0.0007698808798569851,-0.0009343448477625712,-0.0008615615275626011,-0.0004365727443938044,0.2173345386981964,-21.92349624633789,-2.4095618724823,22.63983917236328,0.6801248788833618,2.2753188610076904,-0.020094294100999832,,,,,,,,,
1739401995.3208783,0.52551811302937,0.09600573139026189,-0.9532206352273328,-2.0690890662375723,0.13770048669890336,2.1375899329845693,-1.2753500256009376,-0.000577896737464456,0.00011422113114858338,0.001073773336002424,0.0007574325528610896,-0.0011328463402914808,-8.485403353670627e-05,-0.00046479241309662766,0.2411382496356964,-21.87192153930664,-2.4095618724823,22.59223175048828,0.6801248788833618,2.2615859508514404,-0.013685601763427258,,,,,,,,,
1739401995.331866,0.5255139457374469,0.09600432239170245,-0.9532206348942971,-2.069085212777326,0.13769995157107884,2.1375910552704216,-1.2753517811088217,-0.002243947364601827,0.0007037602388605874,0.0004431002858138539,0.0013005345943428075,-0.0005658465363228129,0.001425917757258567,-0.001000031387678633,0.2689092457294464,-21.84811782836914,-2.4095618724823,22.54065704345703,0.6801248788833618,2.2551772594451904,-0.027418512850999832,,,,,,,,,
1739401995.342774,0.5255212231105703,0.09600230338968122,-0.9532206348942965,-2.0690872833048877,0.13769906958649197,2.1375896818868325,-1.2753532840043083,-0.00030366442907808603,-1.5848422035255323e-05,5.4135385390745706e-05,-0.00023482121720289637,-0.00011233346425169421,0.001348235593825745,-0.0007457651042251175,0.1935308277606964,-21.82431411743164,-2.4095618724823,22.56842803955078,0.6865335702896118,2.2551772594451904,-0.013685601763427258,,,,,,,,,
1739401995.3528361,0.5255176826119287,0.0959940343629172,-0.9532209980935056,-2.069083114825257,0.13770058506846183,2.137590427033522,-1.2753446864697293,-0.0005278219080274571,0.00031537320942192845,2.5659163178643428e-05,0.0014431875039915437,0.00014291310659283546,-0.0011139982234490585,-0.0005400131146256402,0.2173345386981964,-21.74496841430664,-2.4333655834198,22.51685333251953,0.6737161874771118,2.2753188610076904,-0.05396880581974983,,,,,,,,,
1739401995.3628423,0.5255191133104788,0.09599403886643966,-0.9532241853929514,-2.06908161275093,0.13770058945636937,2.137593283614787,-1.2753463492824137,9.590370110862676e-05,0.00042940453273918836,0.0004464261072267228,-0.0005386722049202566,-0.0004533293105010675,0.0006823523947464869,0.00015643591366733538,0.2173345386981964,-21.74496841430664,-2.35798716545105,22.49304962158203,0.6737161874771118,2.2551772594451904,-0.05396880581974983,,,,,,,,,
1739401995.3737626,0.5255176822862263,0.09599814537271738,-0.9532227719929539,-2.0690834209427966,0.13770133819177308,2.1375949838420754,-1.2753468873887124,0.0001279135224576193,0.0020155033916533925,0.0002416395891850201,-0.0003805710203547098,-0.00047557116470387873,0.0012330866776470363,4.8847165197827235e-05,0.2173345386981964,-21.79654312133789,-2.4095618724823,22.51685333251953,0.6673074960708618,2.2487685680389404,-0.04023589566349983,,,,,,,,,
1739401995.3838325,0.5255198196268765,0.09599381825806437,-0.953223059102736,-2.069082346101681,0.13770134402858603,2.1375936350375593,-1.2753507847479644,0.0003044010745596535,0.0015274204564935468,-0.0002648667122557912,0.0008250324497844693,0.00022590742932973313,0.0006862468928610244,-0.002152767647414966,0.2173345386981964,-21.77273941040039,-2.38179087638855,22.54065704345703,0.6673074960708618,2.2615859508514404,-0.0072769103571772575,,,,,,,,,
1739401995.3938656,0.5255181155365941,0.09599582046789402,-0.9532258141315131,-2.0690888364501805,0.1377021016887632,2.1375909124540406,-1.2753445210641072,-0.0004407896675754424,0.0005567614468107599,-0.0010088453212594181,-0.0012879623491115228,-0.0004212642026467831,0.0007533909236235426,0.00012142487534637418,0.2411382496356964,-21.77273941040039,-2.38179087638855,22.59223175048828,0.6608988046646118,2.2487685680389404,-0.06037749722599983,,,,,,,,,
1739401995.4048316,0.5255181159728068,0.09599742487036032,-0.9532248959354864,-2.0690890660855374,0.13769855910885523,2.137590158915406,-1.2753501482656013,-4.956487245146089e-05,0.0005305729645804188,0.001018762625156833,-0.000470084937377228,-0.0007410485792059514,0.0005589082447292103,-0.0003005794516845558,0.2411382496356964,-21.79654312133789,-2.38179087638855,22.59223175048828,0.6938577890396118,2.2551772594451904,-0.013685601763427258,,,,,,,,,
1739401995.415804,0.5255198284935405,0.09600110902434596,-0.9532245357835496,-2.0690926313358933,0.1377028578881882,2.1375893994787893,-1.2753478217143088,0.00035308905193622096,0.000542908415239764,0.00010678944126809027,-0.0004685201726889423,0.0010087416849904741,0.00017318394827248315,-0.00041161610587587036,0.2173345386981964,-21.84811782836914,-2.35798716545105,22.63983917236328,0.6544901132583618,2.2615859508514404,-0.03382720425724983,,,,,,,,,
1739401995.4258223,0.5255181159728093,0.096005700698349,-0.9532258144533798,-2.0690908242715293,0.137705963029785,2.1375916049017865,-1.2753452631661006,0.00017812319720021994,-5.588468950361346e-05,0.0005993481362344618,0.0001228033098848019,0.002521455701255116,0.0007138322916193495,0.0025178462928090385,0.2411382496356964,-21.87192153930664,-2.38179087638855,22.61603546142578,0.6673074960708618,2.2753188610076904,-0.05396880581974983,,,,,,,,,
1739401995.4368417,0.5255159702055974,0.09600497884247976,-0.9532259205430567,-2.069094496647106,0.13770072241971337,2.137589747313138,-1.2753492813467984,-0.00040859962141561503,-0.0015267308789532323,0.000475790663506251,-0.0016485354663411515,-0.00019616949019700405,-0.0023270169021000447,-0.0010159669125597043,0.2411382496356964,-21.87192153930664,-2.38179087638855,22.66364288330078,0.6737161874771118,2.2551772594451904,-0.020094294100999832,,,,,,,,,
1739401995.4477677,0.5255181159606964,0.09600587603568657,-0.9532234665874527,-2.06909759418653,0.1377013557846875,2.1375912929305305,-1.2753469403564879,-0.0014203402990726167,0.0004330947762544148,-0.000566098598828706,-0.0020048528728997244,0.00099770298200123,-0.0014662247733261628,0.0003218843419669818,0.2411382496356964,-21.89969253540039,-2.38179087638855,22.69141387939453,0.6673074960708618,2.2679946422576904,-0.04023589566349983,,,,,,,,,
1739401995.4587882,0.5255181159728092,0.0960097545760434,-0.9532209571591196,-2.069095626031421,0.13770308063373288,2.1375923658652867,-1.275354674703691,0.0003021226473172615,0.001129815075419963,0.0006360285442169362,-0.0005265681792132321,0.0005300360180496397,0.0007838697708642509,-0.0017197283568735448,0.2411382496356964,-21.92349624633789,-2.4095618724823,22.63983917236328,0.6801248788833618,2.2679946422576904,-0.0072769103571772575,,,,,,,,,
1739401995.4688284,0.5255197225297276,0.09600743703126391,-0.9532227156671176,-2.0690917014333317,0.13770240884525828,2.1375908597091655,-1.2753535063754258,-1.2970807871603808e-05,0.0005164137750007771,-0.0002587403383461968,-7.115487851425614e-05,-0.00019378856769070805,0.0008404468567930612,-0.0017278856665748185,0.2173345386981964,-21.89969253540039,-2.38179087638855,22.61603546142578,0.6673074960708618,2.2551772594451904,0.0064559997990727425,,,,,,,,,
1739401995.4798348,0.5255159348837283,0.09600604414772593,-0.9532206086533754,-2.0690875318317485,0.13770146126216073,2.137593987786074,-1.2753496361673122,-0.0012826163520446893,-0.00037983792067960574,-0.0005798548125373999,0.0017205994987611588,-8.929498820577919e-05,0.001157485301931605,-0.0011240458431245933,0.2411382496356964,-21.87192153930664,-2.38179087638855,22.56842803955078,0.6673074960708618,2.2551772594451904,-0.020094294100999832,,,,,,,,,
1739401995.48986,0.5255215379248793,0.09600604415114145,-0.9532206010656062,-2.069091294383568,0.13770013731130284,2.137593167636365,-1.2753534091421455,0.0009231283765029764,0.0010693248717096354,-0.00024228380505998036,-0.0013898577887500585,-0.0010354989908058826,0.00139851229966901,-0.002055658926781185,0.1935308277606964,-21.87192153930664,-2.4095618724823,22.59223175048828,0.6865335702896118,2.2615859508514404,-0.013685601763427258,,,,,,,,,
1739401995.5008087,0.5255232535349854,0.0960023037505974,-0.9532203893349608,-2.069087310932178,0.13770058491197418,2.1375889290881234,-1.2753448676203278,0.00028726787253169426,0.00025845650968453075,-0.0001305124379134899,-0.00010914405393130972,0.0006353518082355616,-0.0011244188376171539,4.289903730159231e-05,0.1697271168231964,-21.82431411743164,-2.4095618724823,22.56842803955078,0.6737161874771118,2.2615859508514404,-0.06037749722599983,,,,,,,,,
1739401995.511799,0.5255215410142717,0.09599691070546161,-0.9532249396018451,-2.0690852039592764,0.13770227151690595,2.137590408724512,-1.2753484544047833,0.001040011934785289,-0.0008225493144799746,-0.00033120382140896555,0.0009863338519757936,0.0003935598338932723,-0.00013211210901542048,-1.1044172696455536e-05,0.1935308277606964,-21.74496841430664,-2.38179087638855,22.54065704345703,0.6608988046646118,2.2615859508514404,-0.06678618490695953,,,,,,,,,
1739401995.5227733,0.5255198288205893,0.09599691038246416,-0.9532266431660622,-2.06908728340982,0.13770454151404393,2.1375912054946467,-1.2753445458097283,0.0001536377758335056,0.00017054453712432154,7.681136850446264e-05,-0.001463106386596347,0.0003031681708352714,0.0008656518988049834,0.0003938321401865145,0.2173345386981964,-21.74496841430664,-2.35798716545105,22.56842803955078,0.6673074960708618,2.2551772594451904,-0.06037749722599983,,,,,,,,,
1739401995.5328772,0.5255181130293719,0.09599516765741128,-0.9532245063126183,-2.0690834209429405,0.13769982742644163,2.137593911665061,-1.2753453589102497,0.00014888384599906853,-0.00045419028700213976,0.0006667484484852759,0.0005438366154075628,0.00012902340500677814,-0.00026200386535322833,0.0002481032331378397,0.2411382496356964,-21.72116470336914,-2.35798716545105,22.51685333251953,0.6801248788833618,2.2551772594451904,-0.06678618490695953,,,,,,,,,
1739401995.543833,0.5255139712835813,0.09599443644280137,-0.9532297943665142,-2.0690890651420264,0.13770134256602617,2.1375936263164186,-1.2753520610075149,-0.0005390060433371963,0.0004079508909299261,-0.000534752728717219,-0.0019249948606155382,-0.00027669178023858926,-0.00031442051902389145,-0.0020049949651411996,0.2689092457294464,-21.74496841430664,-2.3302161693573,22.59223175048828,0.6673074960708618,2.2615859508514404,-0.0008682189509272575,,,,,,,,,
1739401995.5538514,0.5255158642054291,0.09599272095734193,-0.9532310713466693,-2.0690908459294137,0.13770425025391206,2.137589703472438,-1.275346886729216,7.609000960081581e-05,-0.0018126489731385654,-0.0007318764723849034,-0.001702250228423317,0.0007264248301912205,-0.0009803131777208957,0.0008594732920505498,0.2411382496356964,-21.72116470336914,-2.3302161693573,22.61603546142578,0.6801248788833618,2.2679946422576904,-0.04023589566349983,,,,,,,,,
1739401995.563926,0.525518114517464,0.09599856228492669,-0.9532277130901512,-2.0690908579211715,0.13770210030100755,2.1375899508827776,-1.2753446715428713,0.00024271003002749689,-0.0007803760015836542,0.0005095624756675948,-0.00046395875893788616,-0.00011902079964142939,-0.0014027202455304294,0.0016271724842355124,0.2411382496356964,-21.77273941040039,-2.35798716545105,22.61603546142578,0.6608988046646118,2.2615859508514404,-0.06037749722599983,,,,,,,,,
1739401995.5748322,0.525518000052169,0.09600261780861337,-0.9532249413959268,-2.069092634493379,0.1377013425660256,2.137588719817043,-1.2753452631640347,-0.00016259034779246987,0.00028374285827497027,0.0005851560504731713,-0.0010290385659564325,-0.0004894037900708458,-0.0004035433516849376,0.0014853263632911996,0.2411382496356964,-21.82431411743164,-2.38179087638855,22.63983917236328,0.6673074960708618,2.2753188610076904,-0.05396880581974983,,,,,,,,,
1739401995.585775,0.5255160915403487,0.09600601686981299,-0.9532256945837425,-2.06909087623597,0.13770211794023773,2.1375950361037286,-1.2753476627557843,-0.0005706016572279842,-0.0004231075221599193,0.00027239247704789976,-0.00015708012628704094,0.0008405966588798093,0.0004350249749313764,-0.00011091303347965359,0.2689092457294464,-21.87192153930664,-2.38179087638855,22.61603546142578,0.6608988046646118,2.2487685680389404,-0.03382720425724983,,,,,,,,,
1739401995.5968525,0.5255198271848968,0.09600806839852084,-0.9532258937580211,-2.069091109240522,0.1377013820574684,2.1375932471020342,-1.2753488033539861,0.00036642648404307357,-0.0004067688973624081,0.00024681800947461786,0.00035432839486627043,-0.00020227432453309274,-0.0006029992258512337,-0.0003094102457672467,0.2173345386981964,-21.89969253540039,-2.38179087638855,22.61603546142578,0.6673074960708618,2.2615859508514404,-0.027418512850999832,,,,,,,,,
1739401995.6068592,0.5255180276696245,0.09600898903546196,-0.9532206614395344,-2.069090940338989,0.1377035219074833,2.137593639506567,-1.2753452691249187,-0.0008943488844367657,-5.7532492253381236e-05,0.0011556692457807105,0.0011432306645547765,0.0010289990800547298,0.0005742615428671563,0.00046404033422526767,0.2411382496356964,-21.89969253540039,-2.4095618724823,22.61603546142578,0.6608988046646118,2.2615859508514404,-0.05396880581974983,,,,,,,,,
1739401995.6178026,0.5255198224971472,0.09600978092505956,-0.9532170682564388,-2.069092961144269,0.13770109829883445,2.1375899901824664,-1.2753481290910755,-0.00013522101724606345,0.00044984948867736983,0.000864645601054074,-0.000888698620785422,0.001023226314903413,0.000127212556726358,-0.00022193668897453763,0.2173345386981964,-21.92349624633789,-2.4571692943573,22.63983917236328,0.6737161874771118,2.2615859508514404,-0.03382720425724983,,,,,,,,,
1739401995.627825,0.5255205078669941,0.09600876125837905,-0.9532163675299758,-2.0690913201612355,0.13770253611805536,2.1375936380472593,-1.2753460630449063,-1.7602433414420915e-05,-0.00046971252027919625,0.001234534063056701,0.00045762545472811185,-0.0015434065073573243,0.002436776736732812,0.0013057232295540012,0.1935308277606964,-21.89969253540039,-2.4571692943573,22.59223175048828,0.6801248788833618,2.2615859508514404,-0.04756011441349983,,,,,,,,,
1739401995.6378305,0.5255173742086223,0.0960054644987018,-0.9532188493164577,-2.0690934068728026,0.13770111150039843,2.1375904199487916,-1.2753492679385123,-0.0007254733629135236,-0.0015879309461345006,0.0001949680127747491,-0.0001728785387753721,0.0008446412027568474,-0.0006756831081192474,0.000932150741487775,0.2411382496356964,-21.82431411743164,-2.4333655834198,22.61603546142578,0.6737161874771118,2.2615859508514404,-0.020094294100999832,,,,,,,,,
1739401995.6478455,0.525517685657206,0.09600476171591156,-0.953222723623437,-2.0690908502768757,0.1377010719722981,2.137593338014553,-1.2753479328126802,-0.0009403445489818425,-0.0002601009235399848,-0.0004650741244307461,-0.0008608331339183104,0.00017690772707055114,-9.226265930045363e-05,0.00028622896192242867,0.2173345386981964,-21.82431411743164,-2.38179087638855,22.61603546142578,0.6737161874771118,2.2551772594451904,-0.013685601763427258,,,,,,,,,
1739401995.6578481,0.5255212230865438,0.09600131395580268,-0.9532212979088786,-2.069089847472474,0.13770485450808573,2.1375925411452052,-1.275346377684395,0.0001397154192969987,-0.0002357245004886245,0.00030923372304855973,-0.00020658899535272402,-0.00038713692712844227,0.00038209865003077214,0.001123642032388642,0.1935308277606964,-21.79654312133789,-2.38179087638855,22.56842803955078,0.6737161874771118,2.2615859508514404,-0.013685601763427258,,,,,,,,,
1739401995.6687546,0.5255181247649936,0.09599519772129818,-0.9532248614245127,-2.0690909586667257,0.13769943754585465,2.1375929848501727,-1.275349280734901,0.00011167107141188312,-0.0016895180677341359,-0.0006241954568508855,-0.0013602044330003728,-0.0018854217559998781,-0.0002607658122037087,0.0004334989971905072,0.2411382496356964,-21.72116470336914,-2.38179087638855,22.61603546142578,0.6865335702896118,2.2551772594451904,-0.04756011441349983,,,,,,,,,
1739401995.6788433,0.5255198196633717,0.0959914867505856,-0.9532230591028993,-2.0690816392852676,0.13770338210505206,2.1375951372547415,-1.275348730564776,0.00029118482127287577,-0.0017668554051074857,0.00035884215367962827,0.0008888646899637481,-0.0008435264761588513,0.0002813207371252771,0.0005963842684846615,0.2173345386981964,-21.66958999633789,-2.38179087638855,22.49304962158203,0.6801248788833618,2.2487685680389404,-0.03382720425724983,,,,,,,,,
1739401995.688865,0.5255171622983433,0.09599519818649413,-0.9532228876123005,-2.069085212777343,0.1377045472593697,2.13759499693001,-1.2753494407990034,-0.00028649588764283115,-0.000260411812872102,0.0009399856658938341,-0.0002928083368856935,0.000292570068472536,0.00033399280737518285,-0.0008262743064841671,0.2411382496356964,-21.72116470336914,-2.4095618724823,22.54065704345703,0.6673074960708618,2.2487685680389404,-0.04756011441349983,,,,,,,,,
1739401995.700814,0.5255152538179751,0.09599682886327829,-0.9532237735943981,-2.0690895089890997,0.13770157361753868,2.1375936395617257,-1.2753477039953525,-0.000271480954097647,0.0007895688403628915,0.0015784751974318853,-0.001454644606543176,-0.0021040824191289054,0.00040779185215949695,-0.001932095974861017,0.2411382496356964,-21.74496841430664,-2.4095618724823,22.56842803955078,0.6938577890396118,2.2615859508514404,-0.03382720425724983,,,,,,,,,
1739401995.7108407,0.5255181041465566,0.09599882972666803,-0.9532277160115377,-2.0690904976957216,0.13770485002261243,2.1375943977072125,-1.2753516335071056,0.00030993363709576154,7.759388534919416e-05,-2.331447362641096e-05,-0.0006299368241382135,0.0012784232954140148,0.0013415084086117383,-0.001714876636956871,0.2411382496356964,-21.77273941040039,-2.35798716545105,22.56842803955078,0.6737161874771118,2.2551772594451904,-0.04023589566349983,,,,,,,,,
1739401995.721787,0.5255171269771551,0.09599690644860068,-0.9532254554506464,-2.069085217133607,0.13770225843143985,2.1375943917315086,-1.2753500321361482,-0.0009762463069709279,-0.0007820582136524539,0.00011845163273403785,0.0004741204003233791,-0.0009725446782313756,0.0005970170082751171,-0.0012234187299119893,0.2411382496356964,-21.74496841430664,-2.35798716545105,22.56842803955078,0.6608988046646118,2.2551772594451904,-0.013685601763427258,,,,,,,,,
1739401995.7318017,0.5255159698617998,0.0960043316303382,-0.9532259068057338,-2.0690908487288606,0.1377013425687044,2.1375943972225975,-1.2753484020406756,0.00036714045015280925,-4.739706994655329e-05,-0.00019365005878475898,-0.0010518768350961359,-0.0005471686812484639,0.00073958199338573,0.0001419528718654473,0.2411382496356964,-21.84811782836914,-2.38179087638855,22.61603546142578,0.6673074960708618,2.2551772594451904,-0.027418512850999832,,,,,,,,,
1739401995.7427804,0.5255180865263019,0.0960043316304103,-0.953223429957909,-2.069093702852758,0.1377016576674142,2.1375936400471343,-1.2753477638902668,-0.0006367291209523863,-0.0009747973217019675,0.0003713507583663016,-0.0009640264837473009,0.0004974545936058143,0.0008846184466128333,0.0011433620998605432,0.2411382496356964,-21.84811782836914,-2.38179087638855,22.63983917236328,0.6737161874771118,2.2615859508514404,-0.06037749722599983,,,,,,,,,
1739401995.7537615,0.5255198275122279,0.09601046490140933,-0.953224858983682,-2.0690909586582995,0.13770241762238522,2.137593635040464,-1.2753445070113019,0.0006945877822848948,0.0001988768339724208,-0.00048861963542426,-0.000575168660587315,0.00027284487303061303,-0.0006481595566041628,0.0023014390977142522,0.2173345386981964,-21.92349624633789,-2.38179087638855,22.61603546142578,0.6673074960708618,2.2615859508514404,-0.06037749722599983,,,,,,,,,
1739401995.7638168,0.5255215380708159,0.09601388386469518,-0.9532213501863477,-2.0690926318949487,0.1377015005488043,2.1375920164897413,-1.2753473868145229,0.0011353154296351235,0.0009453352875644389,-0.0003450065171532692,-0.0002930443996719545,0.0006702551716505337,-0.00030989631815437084,0.001503672228672514,0.1935308277606964,-21.95126724243164,-2.4095618724823,22.63983917236328,0.6673074960708618,2.2753188610076904,-0.06678618490695953,,,,,,,,,
1739401995.7747977,0.5255154027762025,0.09601486570356894,-0.9532228752509839,-2.069091096890266,0.1376998333139867,2.1375947526671726,-1.2753552199712603,-0.000984145374093512,0.0011827329191654028,-0.0009332890988044467,-0.00011445540155916836,-0.0016498753098139046,0.0010433698814587597,-0.003569415680371401,0.2689092457294464,-21.95126724243164,-2.38179087638855,22.61603546142578,0.6801248788833618,2.2615859508514404,-0.0008682189509272575,,,,,,,,,
1739401995.7848306,0.5255181185770869,0.0960137841669264,-0.9532247827799919,-2.069091099069407,0.13770201243774619,2.137593640065979,-1.2753484027650428,0.0002776541471983617,0.0010887194082944474,-0.001228092731596667,0.0012228853458805882,0.00039927011561938133,-4.739168663601799e-05,0.0004781907888184109,0.2411382496356964,-21.97507095336914,-2.38179087638855,22.61603546142578,0.6737161874771118,2.2615859508514404,-0.027418512850999832,,,,,,,,,
1739401995.7958043,0.5255161177049222,0.09601113213645632,-0.9532188262649106,-2.0690929611074806,0.13769910924750683,2.1375936400471374,-1.2753450310407162,-0.0006710548587300499,-0.000778709067752472,0.00014726556920804967,4.480597945765612e-05,-2.0340937040855918e-05,0.0003280226291676796,0.001844380066919849,0.2689092457294464,-21.89969253540039,-2.4333655834198,22.63983917236328,0.6865335702896118,2.2615859508514404,-0.020094294100999832,,,,,,,,,
1739401995.8058548,0.5255180364999441,0.0960086631844284,-0.9532206338238824,-2.06908932566419,0.13770450491557742,2.1375943977072156,-1.2753524491226877,0.00043094543406275055,0.0009229816365712149,0.0012860479634042568,0.00026831202395193726,0.00022669901427357003,-0.00032450681009379967,-0.0019066821007371621,0.2411382496356964,-21.82431411743164,-2.4095618724823,22.59223175048828,0.6801248788833618,2.2551772594451904,0.0064559997990727425,,,,,,,,,
1739401995.8168538,0.5255159613384922,0.09599989127889957,-0.953222714684146,-2.0690900550838864,0.13770363474943492,2.137592876572857,-1.275349969722694,-0.0015157823162697493,9.594355417086661e-05,0.00012949512116875578,-0.0009962670147349866,0.0007950008444275619,-0.0011772403136827703,0.0007142318169829799,0.2411382496356964,-21.77273941040039,-2.38179087638855,22.59223175048828,0.6480814218521118,2.2679946422576904,-0.05396880581974983,,,,,,,,,
1739401995.8278077,0.5255193952348969,0.09599519822814401,-0.9532248633948032,-2.069091291445542,0.13770215288106957,2.13759288222552,-1.2753513083877344,0.0013493114680594633,-0.002898408485969487,0.00030324569108002475,-0.0009790129616256253,-0.00015927253716577097,-0.00043520591201092547,-0.0018122612458965058,0.1935308277606964,-21.72116470336914,-2.38179087638855,22.59223175048828,0.6608988046646118,2.2679946422576904,-0.0072769103571772575,,,,,,,,,
1739401995.8378327,0.5255173976282775,0.09599894372407995,-0.9532268951878703,-2.0690816383036075,0.13770560777290247,2.1375936400471343,-1.2753481718100863,0.000588911744513466,7.886030423842399e-05,-0.00013764067091413525,0.0012616145929563371,0.0005979321580305513,-0.0006208701445244404,-2.4495992915738417e-05,0.2411382496356964,-21.77273941040039,-2.3302161693573,22.49304962158203,0.6673074960708618,2.2615859508514404,-0.03382720425724983,,,,,,,,,
1739401995.8489125,0.5255195812405886,0.0959986732927681,-0.9532229653143485,-2.0690835308313393,0.1377018574917712,2.137594397707215,-1.275345596104746,0.0004317180507285839,-0.00013588707565675344,0.002244129453969668,0.00027887243399349484,0.0022388340634847915,0.0007280308714415233,0.001686702287357104,0.2173345386981964,-21.77273941040039,-2.38179087638855,22.51685333251953,0.6673074960708618,2.2551772594451904,-0.06037749722599983,,,,,,,,,
1739401995.8598096,0.5255191132364075,0.09599918081042282,-0.953225217917123,-2.0690872807267504,0.1377025294700959,2.137594397707215,-1.2753484603731167,0.0013672391446162024,0.0006913385760059774,0.0013167541752491453,9.138303677456392e-05,0.0008317647712343381,0.00019426950635530865,-0.0005289758591768567,0.2173345386981964,-21.77273941040039,-2.38179087638855,22.56842803955078,0.6673074960708618,2.2551772594451904,-0.027418512850999832,,,,,,,,,
1739401995.8698754,0.5255198281543788,0.09600275203948588,-0.9532266953670542,-2.069089066086789,0.13770490701228022,2.137594397707215,-1.2753446321445723,0.0005073325522295994,0.0002107960977141616,-0.0010543356028651302,0.0003309679293856246,0.0009050670547499176,0.00020771712716298539,0.00010288150330505094,0.2173345386981964,-21.79654312133789,-2.3302161693573,22.59223175048828,0.6737161874771118,2.2551772594451904,-0.06037749722599983,,,,,,,,,
1739401995.8808873,0.5255181159728074,0.09600064817348485,-0.9532209914871779,-2.0690872835228684,0.1377006031861961,2.137594397707215,-1.2753496076801425,0.000591461982776001,-0.00012286776543137277,-0.0006784205895030253,0.00012322745490103522,-0.0010077842662051674,-0.0003444045556427923,0.0005050610279120989,0.2411382496356964,-21.79654312133789,-2.4095618724823,22.56842803955078,0.6737161874771118,2.2551772594451904,-0.05396880581974983,,,,,,,,,
1739401995.891797,0.5255144014776232,0.09600433552789435,-0.9532248870533464,-2.069087283643998,0.13770146174378972,2.1375919772439693,-1.2753453175409803,-0.0015366763835906135,-0.00018218000872723117,-0.00024498280088601157,0.0014896971255963852,-0.0013089197431027815,-0.0006761420467661668,0.0012526627543604457,0.2927129566669464,-21.84811782836914,-2.38179087638855,22.56842803955078,0.6673074960708618,2.2753188610076904,-0.05396880581974983,,,,,,,,,
1739401995.9028172,0.5255191089861461,0.0960088941109803,-0.9532188523385567,-2.0690911783240713,0.1377045589009201,2.1375936400469153,-1.275353177884761,-8.588132806571865e-06,0.0011184185374737352,0.0007329997621453835,-0.00013753976849083528,-0.00013308794573065605,8.546106834013212e-05,-0.0013493425723042545,0.2173345386981964,-21.87192153930664,-2.4333655834198,22.61603546142578,0.6673074960708618,2.2615859508514404,0.012864691205322742,,,,,,,,,
1739401995.9137893,0.5255159934222998,0.09600886935280058,-0.9532199328840364,-2.0690915935648593,0.13770106904108464,2.137590461132749,-1.275347106952334,-0.0013668347669922292,-0.00013649784958884406,0.0006318770334941439,-0.00023806596258530455,-0.00025502770502515567,-0.000958385375607898,0.0009611471277592369,0.2689092457294464,-21.89969253540039,-2.4095618724823,22.61603546142578,0.6801248788833618,2.2615859508514404,-0.04756011441349983,,,,,,,,,
1739401995.9247475,0.5255215410135684,0.0960105280890138,-0.9532227768056374,-2.069092915323439,0.1377020068108003,2.1375912588118022,-1.2753500953758923,0.0005283023771876907,-0.0002800363484482104,-0.00041530793495223744,-0.0012750019406477524,-0.0004751849209977669,-0.001050925687087745,-0.0003213107564434103,0.1935308277606964,-21.89969253540039,-2.4095618724823,22.63983917236328,0.6737161874771118,2.2817275524139404,-0.05396880581974983,,,,,,,,,
1739401995.934881,0.5255195897479127,0.09600687183491041,-0.953218848510659,-2.0690876507267695,0.1377005868802068,2.1375936400471365,-1.2753488517566156,0.00017782471241742636,-0.001464179875780272,0.0010364515882403948,0.001150737283666344,-0.0007617293637888945,-0.00014897339061237605,0.0002798571229904481,0.2173345386981964,-21.87192153930664,-2.4333655834198,22.56842803955078,0.6737161874771118,2.2615859508514404,-0.06037749722599983,,,,,,,,,
1739401995.9458585,0.5255174007130289,0.09600900321417352,-0.9532207143670933,-2.0690933772637234,0.13770378417612816,2.1375925804090077,-1.2753456790812765,-0.0005687392103324798,-9.889793984523483e-05,-7.771842381497482e-05,-0.00067102804953652,-0.00021586857996300004,-0.0006102800971189966,0.0005352467103490475,0.2411382496356964,-21.87192153930664,-2.4095618724823,22.63983917236328,0.6737161874771118,2.2615859508514404,-0.05396880581974983,,,,,,,,,
1739401995.956782,0.5255198284921946,0.0960075191239575,-0.9532226886839216,-2.0690909591058704,0.13770369023614215,2.1375984932254073,-1.2753478114143806,0.0007785171865349309,0.0005361470575260883,-2.7047815238290043e-05,-0.0014504590824020336,0.0009573899541718098,0.0012533192307319471,-0.0005506172854909217,0.2173345386981964,-21.84811782836914,-2.38179087638855,22.61603546142578,0.6865335702896118,2.2487685680389404,-0.03382720425724983,,,,,,,,,
1739401995.9668326,0.5255198196632228,0.09600166420113031,-0.9532227146837117,-2.0690872967520444,0.13770367995008448,2.1375936813118135,-1.2753454306956673,0.0003739846419878306,-0.0006663131590835328,0.0006265320299513088,0.0007769500065204409,0.0003241516775141017,0.00011631260145073059,0.0009501203228054485,0.2173345386981964,-21.79654312133789,-2.38179087638855,22.56842803955078,0.6608988046646118,2.2615859508514404,-0.05396880581974983,,,,,,,,,
1739401995.9778357,0.5255212188711487,0.09600581398923022,-0.9532252215562425,-2.0690898353056997,0.13770316665840374,2.1375969779074775,-1.2753468320171624,0.0002681578069808657,0.002024968219872813,-0.0006205701160290144,-0.00022634358087875926,-0.0010182019745549314,0.0011593684640355652,-0.0013640496368150206,0.1935308277606964,-21.82431411743164,-2.35798716545105,22.59223175048828,0.6608988046646118,2.2615859508514404,-0.05396880581974983,,,,,,,,,
1739401995.988778,0.5255198270745106,0.0959972648772427,-0.9532244983464057,-2.0690872834518417,0.13770455668522913,2.1375928824059005,-1.2753526271112623,0.0015298555917777038,-0.0007861703900206106,0.0002708975461738707,0.00016312585150072317,0.0009990826335089442,0.00047209210319994394,-0.003256449270585209,0.2173345386981964,-21.74496841430664,-2.35798716545105,22.56842803955078,0.6673074960708618,2.2679946422576904,-0.0008682189509272575,,,,,,,,,
1739401995.9988248,0.5255198284935165,0.09599787086418235,-0.953226990454231,-2.069083420942941,0.1377048500038488,2.1375943977072156,-1.275352081766245,-0.0004221272566268412,0.0009785850409921683,-0.0007692754852438011,0.0009055490101676444,-0.00022382701946966493,-7.821688418246299e-05,-0.0023176842735776713,0.2173345386981964,-21.74496841430664,-2.35798716545105,22.51685333251953,0.6737161874771118,2.2551772594451904,-0.0008682189509272575,,,,,,,,,
1739401996.0088372,0.5255212937653749,0.09599691364650087,-0.9532229619752697,-2.069089869437208,0.13770576564629855,2.1375943977072156,-1.2753534627810728,0.0004897078597184612,-0.0001583421833011,0.00043731067447655257,-0.0017091823757902976,0.0006961888614240763,0.0002510051810778827,-0.002487078920078754,0.1935308277606964,-21.74496841430664,-2.38179087638855,22.56842803955078,0.6673074960708618,2.2551772594451904,-0.013685601763427258,,,,,,,,,
1739401996.0198271,0.5255181149902671,0.09600515606040531,-0.9532267226026387,-2.0690852036345575,0.13770672071483175,2.1375928823870587,-1.2753489392352984,0.00041327457374774174,0.0025424166177853706,-0.0009763090455943616,0.00035211946581734815,0.0005983280925811636,-0.0006207828941107567,-0.0004067712882921365,0.2411382496356964,-21.84811782836914,-2.35798716545105,22.54065704345703,0.6608988046646118,2.2679946422576904,-0.05396880581974983,,,,,,,,,
1739401996.0298386,0.5255198281664751,0.0960048289106565,-0.9532244975078721,-2.069083457572407,0.13770329007661405,2.1375943977072156,-1.2753438331844942,0.0010085077524410245,0.000899282861968809,-0.000633343626907745,0.0009578343765831127,0.00016060638453149783,4.3437890948635815e-05,4.596807376873566e-05,0.2173345386981964,-21.82431411743164,-2.35798716545105,22.51685333251953,0.6608988046646118,2.2551772594451904,-0.04023589566349983,,,,,,,,,
1739401996.0408826,0.525523253098936,0.09599892038865046,-0.9532201450616891,-2.0690920334129648,0.13770181646646085,2.1375943977072156,-1.2753497478234646,0.0016477717389004162,-0.00122946185018084,0.0005798483580355348,-0.00012027133198240953,-0.0007561602548402567,0.0005036036787655986,0.00042782271050665076,0.1697271168231964,-21.77273941040039,-2.38179087638855,22.59223175048828,0.6673074960708618,2.2551772594451904,-0.05396880581974983,,,,,,,,,
1739401996.0517988,0.5255159613389385,0.09600648880351559,-0.9532188520957744,-2.0690908484656676,0.13770150643798473,2.137595155367294,-1.275345960156631,-0.0003820542469878031,-0.0006952012849027259,0.0006519367339481644,-0.00012150958482624242,-0.0013577139058717179,0.00048368680450671026,0.0010575727780513296,0.2411382496356964,-21.84811782836914,-2.4333655834198,22.61603546142578,0.6673074960708618,2.2487685680389404,-0.06037749722599983,,,,,,,,,
1739401996.062754,0.5255119777225936,0.09600908870249186,-0.9532206348942958,-2.0690908853933174,0.13770392436466122,2.1375925804090077,-1.2753511251442808,-0.0020973888723524797,0.0005287988359295186,-0.0002638213594278384,0.0002067497950462775,-0.0005135429323585646,-0.00010873205898365321,-0.0007703182381783548,0.3165166676044464,-21.89969253540039,-2.4095618724823,22.61603546142578,0.6544901132583618,2.2615859508514404,-0.013685601763427258,,,,,,,,,
1739401996.0728254,0.52551811593647,0.0960092403410021,-0.9532227930954195,-2.0690913740842274,0.13770533023540382,2.1375936399933018,-1.2753494059068515,0.0004515424249228048,0.0012918265979275452,-0.000943214057828333,0.0009901096839898115,0.0018188876244744632,-0.00014318817116309136,0.0012972027518699965,0.2411382496356964,-21.87192153930664,-2.4095618724823,22.59223175048828,0.6737161874771118,2.2615859508514404,-0.04756011441349983,,,,,,,,,
1739401996.083789,0.525517082825633,0.09601293921980643,-0.9532206320175485,-2.069090850284267,0.13770232543794308,2.137592882387058,-1.2753518694614367,-0.0009186099270298148,0.0015851251947485827,7.52667063046939e-05,0.0004951749661249009,-0.001511912981122182,-0.0002897630090783383,-0.00010704759278579699,0.2411382496356964,-21.92349624633789,-2.4095618724823,22.61603546142578,0.6865335702896118,2.2679946422576904,-0.0072769103571772575,,,,,,,,,
1739401996.0938687,0.5255193952412277,0.09600168660178543,-0.9532227806614921,-2.0690917095940016,0.13770522445651184,2.1375948007010335,-1.2753501422430258,0.0007648787147562396,-0.0015582887811495028,-0.00044492124778423175,0.0003731409850645869,0.00036071352794444177,-6.420456223105023e-05,0.000848632436055102,0.1935308277606964,-21.79654312133789,-2.4095618724823,22.61603546142578,0.6737161874771118,2.2487685680389404,-0.04023589566349983,,,,,,,,,
1739401996.1048386,0.5255161179956175,0.0960075308232122,-0.9532244973975099,-2.0690883827605946,0.1377046233043917,2.1375947526611667,-1.2753479735667963,-0.0013918128723636994,-0.0002302868363551876,-0.0009030928102895585,9.55958034310325e-05,1.1878848814098351e-05,0.0009142088421507234,0.0001213244657689312,0.2689092457294464,-21.84811782836914,-2.35798716545105,22.56842803955078,0.6801248788833618,2.2615859508514404,-0.04023589566349983,,,,,,,,,
1739401996.1158254,0.5255215406872229,0.09600751623749705,-0.9532237353169712,-2.0690921551738852,0.13770496989450673,2.137593640049231,-1.2753472894891136,-3.267768904633209e-05,-0.0008485937568113489,-0.0002599803644559948,-0.0012538810441406318,0.00037801437949938036,7.867381512365482e-05,0.0006203983392781374,0.1935308277606964,-21.84811782836914,-2.4095618724823,22.59223175048828,0.6737161874771118,2.2615859508514404,-0.04023589566349983,,,,,,,,,
1739401996.1267674,0.5255198284935387,0.09600658087784229,-0.9532227937973013,-2.069090055250598,0.13770470638027082,2.1375943977072156,-1.2753437539707542,0.00022191031482407078,0.00037792365813241543,0.0009725655494346971,-0.0013339008782678778,0.0009464397856449622,0.00046241171280770406,0.0014559096793121044,0.2173345386981964,-21.84811782836914,-2.4095618724823,22.59223175048828,0.6673074960708618,2.2551772594451904,-0.06678618490695953,,,,,,,,,
1739401996.1367805,0.5255188748192241,0.09600444999581917,-0.9532227810251184,-2.0690908039062785,0.13770536972933084,2.1375936400471374,-1.275345430527399,0.00021338949493170676,0.0013686133260264342,0.00176956860190712,-0.0008453245259774996,0.002585077131781873,0.0002342193693173166,0.00020387438686862334,0.2173345386981964,-21.84811782836914,-2.4095618724823,22.61603546142578,0.6737161874771118,2.2615859508514404,-0.05396880581974983,,,,,,,,,
1739401996.1468275,0.5255232270278991,0.09600001926423189,-0.9532236953218316,-2.0690891485023735,0.13770276432821343,2.1375943977072156,-1.2753483489665265,0.0011551045746745442,-0.00030516781175381007,0.00044003519165590975,0.0002122612356853811,0.00035163402768108906,-2.6330724526249543e-05,-0.0007809110297566671,0.1697271168231964,-21.74496841430664,-2.38179087638855,22.59223175048828,0.6673074960708618,2.2551772594451904,-0.04023589566349983,,,,,,,,,
1739401996.1568785,0.5255198284930916,0.09600206586410985,-0.9532248872859732,-2.0690844099399235,0.13770288284430762,2.137595155367294,-1.2753502664756013,0.0015119677243377936,0.0014802957999484091,-0.0008109734135686433,8.927275915780828e-06,-0.0003780658818206166,-0.0013669784405538996,-0.00042755092036520496,0.2173345386981964,-21.77273941040039,-2.38179087638855,22.51685333251953,0.6938577890396118,2.2487685680389404,-0.04023589566349983,,,,,,,,,
1739401996.1669164,0.5255197490206808,0.09599894410232461,-0.9532237746861234,-2.0690872834265632,0.13769995229913984,2.137595155367294,-1.2753484156723456,0.001007466719341317,0.0010527034714008904,-0.0002873541126988128,-0.0009167063337057926,-0.0027954180261479007,0.000401082846267301,0.0004563668042854098,0.2173345386981964,-21.77273941040039,-2.38179087638855,22.56842803955078,0.6801248788833618,2.2487685680389404,-0.027418512850999832,,,,,,,,,
1739401996.17782,0.5255177980809219,0.09600104081345627,-0.9532209793916885,-2.069086594540052,0.13770461905530829,2.137594892205009,-1.2753520372168001,-0.0010040342452138126,-0.0014540468918739803,0.001511464933802599,0.0012955636821274032,-0.0010569155626078122,0.0014885393243864093,-0.0005732986061998738,0.2411382496356964,-21.77273941040039,-2.4095618724823,22.56842803955078,0.6801248788833618,2.2551772594451904,-0.0008682189509272575,,,,,,,,,
1739401996.188757,0.5255181155349498,0.09600346233559649,-0.95322450717458,-2.069090848797649,0.13770462541973696,2.1375928961259,-1.275343968740206,0.0005528777212296329,0.0007634517813137373,0.00039441444304161007,4.906451668328332e-05,0.0008775673301951856,-0.0002501929157788026,0.003085469381257847,0.2411382496356964,-21.79654312133789,-2.35798716545105,22.61603546142578,0.6801248788833618,2.2679946422576904,-0.07411040365695953,,,,,,,,,
1739401996.198824,0.5255198284935331,0.0960027287161161,-0.9532273672146043,-2.069087530658712,0.13770491651448896,2.137594397707448,-1.2753448354807577,0.0008270007216132606,-0.000261009608841366,0.0001308221543228271,0.00034973441808289457,-0.00010764510447804667,0.0002928863788224251,0.0021925631216488366,0.2173345386981964,-21.82431411743164,-2.35798716545105,22.56842803955078,0.6673074960708618,2.2551772594451904,-0.06678618490695953,,,,,,,,,
1739401996.2097497,0.5255181159728093,0.09600512473800905,-0.9532188527058817,-2.069088025157901,0.13770533186553574,2.1375928823870587,-1.2753518711038998,-0.0003682579689898752,-0.0006927972618406489,0.0014303330438837922,0.0009418227516844016,0.0008074762491971784,0.00010451864009929253,-0.0014490625375042346,0.2411382496356964,-21.84811782836914,-2.4333655834198,22.56842803955078,0.6801248788833618,2.2679946422576904,-0.0072769103571772575,,,,,,,,,
1739401996.2198358,0.5255180011786786,0.09600587209595184,-0.9532236683584767,-2.0690890660993957,0.13770526461838523,2.1375936400471374,-1.2753536124725502,-0.0008583447759157675,0.00034905463592254483,-0.0013564135288448437,0.00144965547449895,0.001091309043114432,0.000437669355393384,-0.0009605875919522096,0.2411382496356964,-21.84811782836914,-2.38179087638855,22.59223175048828,0.6737161874771118,2.2615859508514404,-0.020094294100999832,,,,,,,,,
1739401996.2307825,0.5255181038713556,0.09600922773845627,-0.953218852222661,-2.06908916173044,0.1377003603756336,2.1375940109204823,-1.2753488045558448,-0.0008789367874786624,0.0001365773808457606,0.0006676053840609451,-7.561287808818213e-05,-0.0016764833937191167,5.460999953036652e-05,0.0005419538042459632,0.2411382496356964,-21.87192153930664,-2.4333655834198,22.59223175048828,0.6801248788833618,2.2615859508514404,-0.027418512850999832,,,,,,,,,
1739401996.241817,0.5255198244598703,0.09600538796959018,-0.9532244935092631,-2.069090876274177,0.1377045067055802,2.1375944114453587,-1.2753493087188834,-0.00023600021992318,-0.0001879915488856033,-0.0006224025761986553,-0.00024358428289965897,-0.00035020452113718116,0.0006357655441387601,0.0006574101942665432,0.2173345386981964,-21.84811782836914,-2.35798716545105,22.61603546142578,0.6801248788833618,2.2551772594451904,-0.020094294100999832,,,,,,,,,
1739401996.2518172,0.5255197486934271,0.09600924034149637,-0.9532227146839563,-2.0690875306601093,0.13770263286296106,2.1375928823877564,-1.2753499664647883,0.0005350681246522428,0.0003675057037247451,0.0010972433294407144,0.001281462885885571,-0.001522648151849844,-0.00031121781220767506,0.0018870650724650986,0.2173345386981964,-21.87192153930664,-2.38179087638855,22.56842803955078,0.6608988046646118,2.2679946422576904,-0.013685601763427258,,,,,,,,,
1739401996.262744,0.5255186829224987,0.09600922293266576,-0.953222714684152,-2.06909515085044,0.13770386141358348,2.137593376884852,-1.275347162795394,0.0004652475101532649,0.0007438487782262018,0.0002184409178712217,-0.0012231680029906353,-0.0006167297028474227,0.0011400246277588567,0.0005741897183378065,0.1935308277606964,-21.87192153930664,-2.38179087638855,22.61603546142578,0.6865335702896118,2.2679946422576904,-0.04756011441349983,,,,,,,,,
1739401996.2738583,0.5255197918156723,0.09600752792918973,-0.9532248152526099,-2.069094884225899,0.13770218429714082,2.13759439771559,-1.2753468656367926,0.00017767195264055922,-0.00015254791900857681,-0.001060914678996298,-0.0008568179546331375,-0.0011129787344380615,8.211073960467588e-05,-5.2445522164063754e-05,0.2173345386981964,-21.84811782836914,-2.35798716545105,22.63983917236328,0.6737161874771118,2.2551772594451904,-0.05396880581974983,,,,,,,,,
1739401996.2838595,0.525518113029163,0.09600751818615741,-0.953222706055492,-2.069087533723884,0.13770537721125428,2.1375943977072156,-1.2753468767219327,-0.0005087757968639961,0.0016785551116341867,0.0001952782074991482,0.0007084050432139073,0.00030186971230869805,-6.44445838568826e-05,1.1396253518263563e-06,0.2411382496356964,-21.84811782836914,-2.38179087638855,22.56842803955078,0.6737161874771118,2.2551772594451904,-0.05396880581974983,,,,,,,,,
1739401996.2948544,0.5255193952470433,0.09600297068216901,-0.9532199066430604,-2.069091590851118,0.13770426416409282,2.1375928823870587,-1.2753537889874924,-0.00011843257853518755,-0.0008477279818490932,0.000779965543816789,-0.0003873996832053357,0.00037605166430427226,-0.0006091233270719553,-0.002829875081645238,0.1935308277606964,-21.82431411743164,-2.38179087638855,22.61603546142578,0.6737161874771118,2.2679946422576904,-0.020094294100999832,,,,,,,,,
1739401996.3057823,0.5255178774088752,0.09600199079378684,-0.9532244972066193,-2.069089809202739,0.1377053786729975,2.13759040880494,-1.275349269669794,-0.0006887102730924283,0.00046426472500790407,-9.41868698525857e-05,-0.0007328760879539145,0.0006405237538191059,-0.0010645407592370804,-0.00118281678070615,0.2411382496356964,-21.77273941040039,-2.35798716545105,22.59223175048828,0.6737161874771118,2.2615859508514404,-0.020094294100999832,,,,,,,,,
1739401996.3168056,0.5255214615400654,0.09600071313438144,-0.9532227146841512,-2.0690902504007718,0.13770060416394858,2.1375936399750617,-1.2753496887486786,0.0014491106133584348,0.0006672966101144436,0.0008529257177284817,-0.0006772741571437597,-0.0017094842339764396,-7.365978031058657e-05,0.0005028610759058598,0.1935308277606964,-21.79654312133789,-2.38179087638855,22.56842803955078,0.6737161874771118,2.2615859508514404,-0.020094294100999832,,,,,,,,,
1739401996.326832,0.5255195782998585,0.09600356896044067,-0.9532228203269726,-2.069087295669883,0.1377038675162482,2.1375944389153636,-1.2753548932380252,9.605080250217783e-05,0.0013281989775526032,0.00020438541737313062,-0.0008592071137180402,0.00017636518804507926,0.0006926839165720353,-0.000586072765735809,0.2173345386981964,-21.79654312133789,-2.38179087638855,22.56842803955078,0.6865335702896118,2.2551772594451904,-0.013685601763427258,,,,,,,,,
1739401996.3378325,0.5255193687556359,0.0959990796139088,-0.9532188522174763,-2.0690834209429636,0.13770431681898315,2.1375951574023415,-1.2753426537576362,0.0006979183522539791,-0.0009071941683420299,0.0018009111854035182,0.0015952515628595853,-0.0008816655877200241,0.00044604628542829603,0.0016910402110742288,0.1935308277606964,-21.74496841430664,-2.4333655834198,22.51685333251953,0.6737161874771118,2.2487685680389404,-0.08051909506320953,,,,,,,,,
1739401996.3488529,0.5255181155244818,0.09600262890133808,-0.9532223923115355,-2.0690897685608207,0.1377042699934646,2.13759288238707,-1.2753511258012311,0.000598604797185295,-0.002937512699525179,-0.00020643779117082424,0.0001026514921675497,-0.001130093554584593,5.914437724895052e-05,-0.0020319837418399447,0.2411382496356964,-21.82431411743164,-2.35798716545105,22.56842803955078,0.6801248788833618,2.2679946422576904,-0.013685601763427258,,,,,,,,,
1739401996.359776,0.5255193157741976,0.09600285926475087,-0.9532227941451287,-2.0690872834238436,0.13770061193232275,2.1375936400471374,-1.2753497283666475,0.000553366769923099,-0.0007372221615456806,0.0001454892834684185,0.0007440802101096385,-0.0009544531327855123,-0.00013582459520977268,0.0004774112206080165,0.1935308277606964,-21.82431411743164,-2.38179087638855,22.56842803955078,0.6865335702896118,2.2615859508514404,-0.05396880581974983,,,,,,,,,
1739401996.369816,0.5255180363532487,0.09600825816433335,-0.9532241584424489,-2.069091593562999,0.1377037490686121,2.1375936400471374,-1.27535341136359,9.399129093498251e-05,0.0011961731028806897,0.0006178775170884924,-0.0011315494352364779,-0.00047620096106431014,0.000918292786837401,-0.0013154816893437217,0.2411382496356964,-21.87192153930664,-2.38179087638855,22.61603546142578,0.6865335702896118,2.2615859508514404,-0.013685601763427258,,,,,,,,,
1739401996.3798258,0.5255242180002827,0.09600360560510456,-0.9532244974946376,-2.0690951863587523,0.13770445727547329,2.137593587719328,-1.2753534134734592,0.0017308268578377166,-0.0004011324537088151,-0.00015724382817891623,-0.0014463850445969337,0.0005480804334380242,-0.00040279498201937466,-0.001370128207432863,0.1419561207294464,-21.82431411743164,-2.35798716545105,22.63983917236328,0.6544901132583618,2.2615859508514404,0.012864691205322742,,,,,,,,,
1739401996.3898447,0.5255215380533306,0.09600581493829514,-0.9532227146841543,-2.0690908502768215,0.13770213142570395,2.13759201648894,-1.2753538609512578,0.0004519136627133836,1.0791112142083284e-05,-0.0002141507448469517,0.0007149279610148083,-0.0017716621435220404,-0.0007793038102201665,-0.0016351383323704558,0.1935308277606964,-21.82431411743164,-2.38179087638855,22.61603546142578,0.6737161874771118,2.2753188610076904,0.0064559997990727425,,,,,,,,,
1739401996.4007878,0.5255169405435564,0.09601037570695635,-0.9532227146841521,-2.069089067104328,0.1377046248597006,2.13759365836187,-1.2753523509480529,-0.0008076225595467741,0.002355383071355133,0.0006798015417037027,0.000914718772642651,-0.000137552962871606,0.0003982097738680051,0.00010237802429520964,0.2173345386981964,-21.84811782836914,-2.38179087638855,22.59223175048828,0.6801248788833618,2.2615859508514404,-0.03382720425724983,,,,,,,,,
1739401996.410811,0.5255150036184536,0.09600751726232304,-0.9532188406615529,-2.0690852870537606,0.13770616219189916,2.1375928823873687,-1.2753464023144665,-0.00026133373787286403,0.00015773894581540013,0.000723964645971475,0.0009483014416476526,0.00010608167938351803,-0.00024266453589076657,0.0008705696738314786,0.2411382496356964,-21.84811782836914,-2.4333655834198,22.54065704345703,0.6673074960708618,2.2679946422576904,-0.04756011441349983,,,,,,,,,
1739401996.4208345,0.5255152427963463,0.09601123828263079,-0.9532204008906805,-2.0690911368266236,0.13770538291769954,2.1375943977072156,-1.2753487645866826,-0.0011044881015430826,0.0007583464967789925,0.001264488665787609,-0.00032096047790424506,0.00020765495180723097,-0.0001269763099599131,-0.0008595948034665091,0.2411382496356964,-21.89969253540039,-2.4095618724823,22.61603546142578,0.6737161874771118,2.2551772594451904,-0.027418512850999832,,,,,,,,,
1739401996.4317937,0.5255176699552061,0.09600752792948578,-0.9532236686841963,-2.0690895090283585,0.13770294195732574,2.1375936400471374,-1.2753485355132035,0.00035542502769298693,0.0002576807226802574,-0.0008977670714360415,4.444427848977907e-05,-0.0006007580955000296,-0.00011510204786253594,0.001480678440033576,0.2173345386981964,-21.84811782836914,-2.38179087638855,22.56842803955078,0.6673074960708618,2.2615859508514404,-0.05396880581974983,,,,,,,,,
1739401996.441803,0.5255197489841258,0.09600752792948639,-0.9532227941731678,-2.0690912914776507,0.13770374923209316,2.137595477974382,-1.2753453838995241,-0.0006163169987490964,0.0009082816409889921,-0.0001485947668107586,-0.001276892881296235,-0.0010702281916132729,0.0002537795454785215,0.0022265000037214955,0.2173345386981964,-21.84811782836914,-2.38179087638855,22.59223175048828,0.6865335702896118,2.2753188610076904,-0.05396880581974983,,,,,,,,,
1739401996.451857,0.5255176783643314,0.09600384351143444,-0.9532227146854981,-2.069085620823946,0.1377054225689872,2.137592882445679,-1.2753484482291686,0.0009001407250037995,0.0006359139053117843,-0.0004946860913276927,0.0024232800050960294,0.0014883441570683626,-0.00042596438821396426,0.0013615603817028648,0.2173345386981964,-21.79654312133789,-2.38179087638855,22.51685333251953,0.6737161874771118,2.2679946422576904,-0.027418512850999832,,,,,,,,,
1739401996.4628565,0.5255177715782797,0.0960031071793656,-0.9532244915308196,-2.0690872864746885,0.13770688084861163,2.1375936858339704,-1.275349391014861,-0.0006783266311025663,0.000158357544440476,-0.0010457978152244693,2.5447749355945624e-05,0.000738932186423096,0.0005295824251356027,1.715775847786283e-05,0.2411382496356964,-21.79654312133789,-2.35798716545105,22.56842803955078,0.6608988046646118,2.2615859508514404,-0.06037749722599983,,,,,,,,,
1739401996.473828,0.5255169674323085,0.09600097335007315,-0.9532206437245813,-2.069089075244218,0.13770538242969219,2.137594397707474,-1.2753508943328618,-0.0008183265743108546,0.000258217319741621,4.074319314224231e-05,-0.0009845123536292018,0.00011119944498228079,6.431340840944378e-05,-0.0004128614847833232,0.2173345386981964,-21.79654312133789,-2.4095618724823,22.59223175048828,0.6737161874771118,2.2551772594451904,-0.04756011441349983,,,,,,,,,
1739401996.4847596,0.5255178762298842,0.0960030272678657,-0.9532244986694163,-2.069090335865383,0.1377053830798476,2.137593338069086,-1.2753441697302041,0.0005499728880466557,0.00036539807764430143,-0.000637902658445719,-0.00024031876874352245,-0.00022557973934116956,4.2708073161280675e-05,0.0018123244351947127,0.2411382496356964,-21.79654312133789,-2.35798716545105,22.56842803955078,0.6737161874771118,2.2551772594451904,-0.06678618490695953,,,,,,,,,
1739401996.4948835,0.5255176823952198,0.09600133582862558,-0.9532234299399115,-2.069087281079301,0.1377059696116422,2.137592016471881,-1.2753481519624161,0.000622250164681044,0.00014754122765501116,-0.00022260562862153608,0.000432574370438514,-0.00043310701936046957,-0.0005860515926665031,1.2133912636878722e-05,0.2173345386981964,-21.79654312133789,-2.38179087638855,22.56842803955078,0.6673074960708618,2.2753188610076904,-0.06678618490695953,,,,,,,,,
1739401996.5058231,0.5255167171207854,0.09600263091396741,-0.9532227421602892,-2.069089066199875,0.13770753758569051,2.137593640047137,-1.275350908235775,-0.001648555308358223,-0.000750527328904247,0.0012034320448604764,-0.0002952123143999336,0.0010220437670499332,-6.859135418609103e-05,-0.0013692888721548297,0.2173345386981964,-21.82431411743164,-2.38179087638855,22.59223175048828,0.6544901132583618,2.2615859508514404,-0.04756011441349983,,,,,,,,,
1739401996.5168517,0.5255180364472583,0.09600555185190586,-0.9532256551804262,-2.069089066086836,0.13770538307784486,2.1375928823870582,-1.2753484743506944,0.0008318965683210543,0.0012499568449764234,-0.00027089157110954897,0.0005516164685034717,0.0003682979207683587,-0.00023044108838993097,0.001005857842574188,0.2411382496356964,-21.82431411743164,-2.38179087638855,22.59223175048828,0.6737161874771118,2.2679946422576904,-0.06678618490695953,,,,,,,,,
1739401996.5278559,0.5255119405442296,0.09600536771266475,-0.953223032581124,-2.069089067556535,0.13770276200768367,2.137593653783187,-1.2753548147649845,-0.002168629918649529,0.0009110587050642812,-0.00011803248478513522,0.0005131230808344678,-0.0002594280412737754,-0.0004458220748209955,-0.001775073826180895,0.2927129566669464,-21.84811782836914,-2.38179087638855,22.59223175048828,0.6865335702896118,2.2615859508514404,-0.0008682189509272575,,,,,,,,,
1739401996.5387475,0.5255198186318228,0.09600718296735916,-0.9532227146859465,-2.069089066086842,0.1377057378438385,2.1375936415734422,-1.275348140452894,-0.00010755781691298386,-0.0006498969635114078,0.0010231154555318989,0.0007710865099545371,0.0018607336908191305,0.0006695961366986832,-0.00011509643485331267,0.2173345386981964,-21.84811782836914,-2.38179087638855,22.59223175048828,0.6737161874771118,2.2615859508514404,-0.04023589566349983,,,,,,,,,
1739401996.548778,0.5255158786320638,0.09600909734281213,-0.9532206348942965,-2.0690921429619946,0.13770502766556997,2.1375928823870844,-1.2753475313549627,-0.0009751638356334892,0.0012189858710345382,0.001212947238471926,0.00048384090852950676,0.00018236841093501835,-0.0004970315043186452,0.0012353610351898072,0.2689092457294464,-21.89969253540039,-2.4095618724823,22.59223175048828,0.6737161874771118,2.2679946422576904,-0.06678618490695953,,,,,,,,,
1739401996.5589256,0.5255176827222744,0.09600751869119462,-0.9532227249316813,-2.0690909591565743,0.1377021828285944,2.1375936400471374,-1.2753441248493729,0.0006007417192497286,-0.0005404043860223087,-0.00034836484884459015,-0.00027493421685268035,-0.0004744441278620075,-0.0006005829230416301,0.0027157562140715315,0.2173345386981964,-21.84811782836914,-2.38179087638855,22.61603546142578,0.6737161874771118,2.2615859508514404,-0.06678618490695953,,,,,,,,,
1739401996.5698364,0.5255194404841322,0.09600571018064565,-0.9532206378379092,-2.06909343261279,0.13770538302565472,2.1375936400471374,-1.2753490294745873,-2.1016390986393384e-05,-0.0010932096470124132,0.0006157861109607513,-0.0007102187398203029,8.936806114171725e-05,-0.00012504588141357213,0.0012842535437608822,0.2411382496356964,-21.82431411743164,-2.4095618724823,22.61603546142578,0.6737161874771118,2.2615859508514404,-0.06037749722599983,,,,,,,,,
1739401996.5798492,0.5255149014175784,0.09600734689836224,-0.9532244973611878,-2.069090972384045,0.13770531287337406,2.1375943977072156,-1.2753536527307088,-0.0019405514537073176,-0.0002161088342662299,-0.0008186074276757607,-0.00026389463994722973,-3.2958151938761355e-05,9.990716798401303e-05,-0.0004090042479774714,0.2411382496356964,-21.87192153930664,-2.35798716545105,22.61603546142578,0.6737161874771118,2.2551772594451904,-0.013685601763427258,,,,,,,,,
1739401996.5908158,0.52551958903933,0.09600467503598176,-0.9532227146841521,-2.0690947563327686,0.1377060222661035,2.1375936400471374,-1.275354791994103,0.00026610380233909974,-0.0013827192302028983,-0.0002797843388612656,-0.0005511552365636509,0.001202523347186208,-0.00020001019978184382,-0.0014008040653319303,0.2173345386981964,-21.84811782836914,-2.38179087638855,22.66364288330078,0.6673074960708618,2.2615859508514404,-0.013685601763427258,,,,,,,,,
1739401996.6017375,0.5255197888829446,0.09600168626096912,-0.9532196988806155,-2.0690940908503896,0.13770450651230107,2.13759376351008,-1.275349977100871,-0.0006649897241564539,-0.0006963396130920273,6.305363087390754e-05,-0.0009101611440273535,7.399411353580524e-05,-0.00026660942956408543,0.0010568234254572045,0.2173345386981964,-21.79654312133789,-2.4095618724823,22.61603546142578,0.6801248788833618,2.2615859508514404,-0.027418512850999832,,,,,,,,,
1739401996.611801,0.5255151289266818,0.09600752399606262,-0.9532266392606235,-2.069087393353118,0.13770706654028378,2.137595913029463,-1.2753516540733387,-0.001706922209104109,0.0011605790412385828,-0.001095783481419413,0.0007964673187830036,0.0005981573524443434,0.0008737823720481595,-0.0026496710633532126,0.2689092457294464,-21.84811782836914,-2.35798716545105,22.56842803955078,0.6865335702896118,2.2423598766326904,-0.013685601763427258,,,,,,,,,
1739401996.6218066,0.525521510472966,0.09600484194186301,-0.9532227150474741,-2.0690895364630095,0.13770845326547948,2.1375928823870587,-1.2753534111500067,0.000281925982143067,0.0007411387861527412,-0.0001684133535877711,-0.0005072219688068307,0.002359102520185908,-0.00018887030526848768,-0.0002862239928883444,0.1935308277606964,-21.82431411743164,-2.38179087638855,22.56842803955078,0.6480814218521118,2.2679946422576904,-0.013685601763427258,,,,,,,,,
1739401996.631827,0.5255181159712576,0.09600087006142459,-0.9532206345733226,-2.0690872835242815,0.1377030018644713,2.1375920164898266,-1.2753481694900488,-0.00019127714695463445,-3.563976852244103e-05,0.0015320804655381127,0.000369153615986902,-0.0004925835476076872,-0.0003591794207571435,-0.0007393142444814499,0.2411382496356964,-21.79654312133789,-2.4095618724823,22.56842803955078,0.6938577890396118,2.2753188610076904,-0.03382720425724983,,,,,,,,,
1739401996.6428149,0.5255198284814276,0.0960001056655749,-0.9532266036419793,-2.0690872878189173,0.13770689834583627,2.1375939267569355,-1.2753553421409982,-0.0010601652516053347,2.19131689943537e-05,-0.0006083716320665626,0.0004603272680229315,0.0004259191215090033,-0.0001650745514478688,-0.002733799566227049,0.2173345386981964,-21.74496841430664,-2.3302161693573,22.56842803955078,0.6608988046646118,2.2551772594451904,-0.0008682189509272575,,,,,,,,,
1739401996.653782,0.5255195798274321,0.09599797567113637,-0.9532209826926811,-2.069087286462295,0.13770218429724798,2.137592886963083,-1.2753497871497388,0.0003827694713989216,-0.0001490166927608685,0.0007476610316866257,0.0004505878718462069,0.0005620884418647014,-0.00045510363863679926,0.0003552144326696529,0.2173345386981964,-21.74496841430664,-2.4095618724823,22.56842803955078,0.6737161874771118,2.2679946422576904,-0.05396880581974983,,,,,,,,,
1739401996.6648297,0.5255159692202398,0.09600356854388163,-0.9532227235203597,-2.0690890691393413,0.13770462536560124,2.137594397707293,-1.275346367909635,-0.0002974427306931594,-0.00027592118159377316,0.0014843755848206648,-0.00031039094141217214,-0.00034754591133483284,0.00023494113282771268,0.0009640790373201973,0.2411382496356964,-21.79654312133789,-2.38179087638855,22.59223175048828,0.6801248788833618,2.2551772594451904,-0.05396880581974983,,,,,,,,,
1739401996.675742,0.5255198018895316,0.09600289528447248,-0.9532244978457045,-2.069092033123848,0.137705541116653,2.137593641573365,-1.2753505105497378,0.0009324752587345447,-0.0005521914773161814,0.0001295061813335919,-0.0010758865224596377,0.0003132501405410436,3.6710639183899744e-05,0.0004231225739480431,0.2173345386981964,-21.82431411743164,-2.35798716545105,22.59223175048828,0.6737161874771118,2.2615859508514404,-0.013685601763427258,,,,,,,,,
1739401996.6877503,0.5255198020024371,0.09600750156992752,-0.9532206348942992,-2.0690895364778967,0.13770526460731364,2.137593640047146,-1.2753540212382624,0.0009047639245486839,0.0019793838922759193,5.2340381541605713e-05,0.0001515454453530639,-0.0008830078352363734,0.00020123375231396754,-0.0012711669826167829,0.2173345386981964,-21.84811782836914,-2.4095618724823,22.56842803955078,0.6737161874771118,2.2615859508514404,-0.020094294100999832,,,,,,,,,
1739401996.6977973,0.525519816719634,0.09600568421693267,-0.9532206378740745,-2.0690951999630114,0.1377085950254998,2.1375928823870587,-1.2753438081831279,0.00043385662491163073,-0.00010666878119067609,0.0005157023371091565,-0.0020942671675532355,0.00048739634249780775,-0.0004842980393056583,-6.268864480936615e-05,0.2173345386981964,-21.84811782836914,-2.4095618724823,22.63983917236328,0.6737161874771118,2.2679946422576904,-0.06678618490695953,,,,,,,,,
1739401996.7078552,0.5255153749768712,0.09600924041899415,-0.9532226886838224,-2.069095227428206,0.13770613640641938,2.1375939950070943,-1.275349350788619,-0.0022593207479698783,0.0008282021930712045,0.0002471560320779759,-0.0011592118097696962,-0.0005046317691572033,7.895300297066781e-05,-0.0005549135309839291,0.2689092457294464,-21.87192153930664,-2.38179087638855,22.63983917236328,0.6673074960708618,2.2679946422576904,-0.06037749722599983,,,,,,,,,
1739401996.7188153,0.5255191029776903,0.09600823987385401,-0.953219942915111,-2.069095610681419,0.13770335876266376,2.1375936538020293,-1.2753504236927757,-0.0001827245956171197,-0.00018575027578182515,0.0005054620146495077,-0.00046787140620661253,-0.000921019777714122,-0.0002552100638395194,0.0008130643543751289,0.2173345386981964,-21.84811782836914,-2.4095618724823,22.63983917236328,0.6865335702896118,2.2615859508514404,-0.04756011441349983,,,,,,,,,
1739401996.7288203,0.5255193942618178,0.09600581497973731,-0.9532229530988249,-2.069091404322262,0.13770734599378873,2.1375943983856165,-1.2753545704542493,0.0006165467560817396,-0.0012155489332222305,4.590221953957492e-05,0.0004352368423447149,0.0005997452403190011,0.00015696620386686824,-0.0011958920921196713,0.1935308277606964,-21.82431411743164,-2.38179087638855,22.59223175048828,0.6480814218521118,2.2551772594451904,-0.0072769103571772575,0,0,0,0.000,0,0
1739401996.7397642,0.5255167287128449,0.09600581540875279,-0.9532227150125467,-2.069090934396545,0.1377053830738239,2.137593640047141,-1.275349766425506,-0.0009486979557602859,-0.00021814876376506696,-0.0011099044915218294,0.00020921412910467952,-4.2889935496738996e-06,-0.0006075325505238483,0.00041945925600240977,0.2173345386981964,-21.82431411743164,-2.38179087638855,22.61603546142578,0.6737161874771118,2.2615859508514404,-0.04756011441349983,0,0,0,0.000,0,0
1739401996.7507591,0.5255169643656408,0.09600581443442231,-0.9532206348943021,-2.0690951405607563,0.13770573850014034,2.137592880933508,-1.2753509068948188,-0.0003989924738808473,0.00026883521710340376,0.00010087722292645234,-0.0018053785125248533,-5.16027519146494e-05,0.00022611990916945464,-0.0015793985928528797,0.2173345386981964,-21.82431411743164,-2.4095618724823,22.63983917236328,0.6737161874771118,2.2679946422576904,-0.04756011441349983,0,0,0,0.000,0,0
1739401996.7608075,0.5255181159203025,0.09600573746438894,-0.9532244973611712,-2.0690873662171243,0.13770111657575207,2.1375943982159495,-1.2753500295663216,0.0009221720243657007,0.0004373001927099878,-0.0007774890055250797,0.0004442855114831182,-0.0008561126985034517,9.998512615588196e-05,-0.001929711018620104,0.2411382496356964,-21.82431411743164,-2.35798716545105,22.56842803955078,0.6737161874771118,2.2551772594451904,-0.05396880581974983,0,0,0,0.000,0,0
1739401996.7717824,0.5255207821315179,0.09599997018334865,-0.9532227149042034,-2.069084410278157,0.13770602207990032,2.1375928823870614,-1.2753492525370107,0.0010938174705254211,-0.001305294862544053,-0.0006161698122986521,0.002235471032457978,0.0006421189733610131,-5.1850423750198816e-05,0.0006758350804297327,0.2173345386981964,-21.77273941040039,-2.38179087638855,22.51685333251953,0.6673074960708618,2.2679946422576904,-0.06037749722599983,0,0,0,0.000,0,0
1739401996.782811,0.5255149015971786,0.09600010688600788,-0.9532255304726827,-2.069088170649991,0.13770462541910305,2.1375931690968573,-1.2753453634616676,-0.0014910584809827386,-0.00024138352550418353,-0.0005491058886327556,-0.0007323586788214261,0.00016495000265086992,-0.0010051406358641496,0.0014457551903786108,0.2411382496356964,-21.74496841430664,-2.35798716545105,22.54065704345703,0.6801248788833618,2.2615859508514404,-0.06678618490695953,0,0,0,0.000,0,0
1739401996.7928421,0.525516090069356,0.09600210494716892,-0.9532248152701057,-2.069085205026853,0.13770511247720627,2.137597749295397,-1.2753493751498117,-0.0011612862133534194,0.0010540423985222203,-0.0010084150771758598,0.0013870992706641293,0.0005429602206263187,0.0007391454748273143,0.0007022587800166291,0.2689092457294464,-21.77273941040039,-2.35798716545105,22.54065704345703,0.6801248788833618,2.2551772594451904,-0.06037749722599983,0,0,0,0.000,0,0
1739401996.8038256,0.525511438524305,0.09600380869890605,-0.9532206348960911,-2.069091590548236,0.13770629431934722,2.1375936401225837,-1.2753492813899747,-0.002930594598625388,0.0005187792950934835,0.0017952438609421834,-0.0004287761904311659,0.0009191335553468375,-0.00026119540950485747,0.001324224869737554,0.2927129566669464,-21.79654312133789,-2.4095618724823,22.61603546142578,0.6673074960708618,2.2615859508514404,-0.04756011441349983,0,0,0,0.000,0,0
1739401996.8147745,0.5255198274956454,0.09600728824354367,-0.9532244976882199,-2.069091291331093,0.13770142663803692,2.1375928823870587,-1.2753531689312427,0.0013798120478290842,0.0013330759574765765,0.0005580406555467047,-0.0004914665024158145,-0.0009051103362344376,-0.000746018263670649,-0.0019171362893759861,0.2173345386981964,-21.84811782836914,-2.35798716545105,22.59223175048828,0.6801248788833618,2.2679946422576904,-0.027418512850999832,0,0,0,0.000,0,0
1739401996.82574,0.5255181156457549,0.09600269916601266,-0.9532242633577528,-2.069089040966435,0.13770497930519832,2.1375943977072156,-1.275354016792767,-0.00010555371116199591,-0.0009107498278526176,0.00035255891730315476,-0.00019934468708852904,0.0006451465868563119,-0.00038536545449144516,-0.0009114030882758287,0.2411382496356964,-21.82431411743164,-2.35798716545105,22.59223175048828,0.6801248788833618,2.2551772594451904,-0.020094294100999832,0,0,0,0.000,0,0
1739401996.8357556,0.5255195634749864,0.09599894805580345,-0.9532245091309652,-2.0690890671038935,0.13770035891966045,2.1375936400471374,-1.2753473890589675,0.0010761705835836783,-0.0028355464463023683,0.0005269355612697119,-0.00038549332564539584,-0.0016207316542249325,0.0002883216691062741,8.086064690073056e-05,0.2173345386981964,-21.77273941040039,-2.35798716545105,22.59223175048828,0.6801248788833618,2.2615859508514404,-0.04023589566349983,0,0,0,0.000,0,0
1739401996.8458085,0.5255168610662252,0.09600548787117962,-0.9532227941572111,-2.069091178429066,0.13770540624724165,2.1375932532604036,-1.2753474057542962,0.0003056376156222091,0.00039196179445903016,-0.0005466810143018213,-0.0011705446094324786,-7.251935570588101e-05,-0.00043599947952223535,-0.00033189666324247714,0.2173345386981964,-21.82431411743164,-2.38179087638855,22.61603546142578,0.6737161874771118,2.2679946422576904,-0.07411040365695953,0,0,0,0.000,0,0
1739401996.8568985,0.525520392025735,0.09600729116104499,-0.9532227264592549,-2.069089078302239,0.13770267138543799,2.1375943978830767,-1.2753481123015091,0.0007192414065384236,0.0004641295608542055,-0.0010679600922651636,0.0010972287501573828,-9.935333006944183e-05,2.4684834925892932e-05,0.0008931660533051059,0.1697271168231964,-21.84811782836914,-2.38179087638855,22.59223175048828,0.6608988046646118,2.2551772594451904,-0.06678618490695953,0,0,0,0.000,0,0
1739401996.8677757,0.5255197931668851,0.09600511390906276,-0.9532206378377579,-2.069087613188087,0.137703867697569,2.1375936400471374,-1.275354899750478,0.0008799496840197762,-0.00034247448400906444,0.0008464813442295199,0.0013100819188437709,-0.0008599771672432371,0.0004378539916677673,-0.00035992416326244324,0.2173345386981964,-21.82431411743164,-2.4095618724823,22.56842803955078,0.6865335702896118,2.2615859508514404,-0.013685601763427258,0,0,0,0.000,0,0
1739401996.877811,0.5255159702049992,0.09600751904035112,-0.953220955979251,-2.0690890662054726,0.1377053830798502,2.137593640216718,-1.2753498222747375,-0.0011178304572545686,0.00022166627389178314,-0.0012388427992528473,0.0019137575179809137,0.0005544814866718905,-0.00045537644055089455,0.0006943939675774123,0.2411382496356964,-21.84811782836914,-2.38179087638855,22.59223175048828,0.6737161874771118,2.2615859508514404,-0.04756011441349983,0,0,0,0.000,0,0
1739401996.8888304,0.5255215376226545,0.09600358070495744,-0.9532231963269404,-2.06908980787121,0.13770584376214096,2.1375934831202383,-1.275349024413003,0.000929437389158761,-0.0013093302576494255,-0.0009082505803773122,0.0006958241053915299,-0.0005437953374042772,-0.0009228212074056268,0.0011592817354695274,0.1935308277606964,-21.79654312133789,-2.38179087638855,22.59223175048828,0.6938577890396118,2.2615859508514404,-0.06037749722599983,0,0,0,0.000,0,0
1739401996.899762,0.5255197923727978,0.09600581443308578,-0.9532190909656242,-2.0690908899573475,0.13770422390025802,2.137594752666287,-1.2753573385709023,0.0008001723748122324,-0.0009568423295964586,0.0007621841587656994,0.00017129916728592386,0.0007304604191327497,0.0001625315872348839,-0.002085924075564285,0.2173345386981964,-21.82431411743164,-2.4333655834198,22.61603546142578,0.6865335702896118,2.2615859508514404,-0.020094294100999832,0,0,0,0.000,0,0
1739401996.9097645,0.5255181189156369,0.0960029742540044,-0.9532227146881953,-2.069092631441569,0.1377049808460934,2.1375943977260574,-1.2753543405471288,-0.00011786515301269522,-8.846525655965243e-05,0.00032562648755626633,7.753724664050679e-05,-0.00018113597255972895,-0.0002670163123582516,-0.0017600264505926479,0.2411382496356964,-21.82431411743164,-2.38179087638855,22.63983917236328,0.6801248788833618,2.2551772594451904,-0.0072769103571772575,0,0,0,0.000,0,0
1739401996.9208167,0.5255173618915004,0.09600866205552051,-0.9532220159443794,-2.069089148503133,0.13770254118619163,2.1375928823870587,-1.2753548550506575,-0.00024592116892543404,0.00030133902706898385,0.0001478496685033708,0.0007060330199039436,-0.0005259782318313496,-0.0005144637427489465,-0.00286584832760035,0.2173345386981964,-21.82431411743164,-2.38179087638855,22.59223175048828,0.6737161874771118,2.2679946422576904,-0.013685601763427258,0,0,0,0.000,0,0
1739401996.9308798,0.5255178510130142,0.09600727920205937,-0.9532265771470823,-2.069090333830826,0.13770877191959952,2.1375943802646122,-1.2753485830617506,-0.0007157262117304635,0.0010393989400596304,-0.001327286735873976,-0.0011108804214625242,0.0010620578159463746,-0.0006049115183356233,0.00026640443134636155,0.2411382496356964,-21.84811782836914,-2.3302161693573,22.56842803955078,0.6801248788833618,2.2551772594451904,-0.027418512850999832,0,0,0,0.000,0,0
1739401996.9418151,0.5255198245674592,0.09599996130512926,-0.953222723623486,-2.0690912913441255,0.1377069116413011,2.137593640047039,-1.2753468923301525,0.0017019336834764418,-0.00046590493702549686,-0.00034652997480296566,-0.0017724405220450566,0.0005528714181479645,-0.0002487046527514422,0.0002775769695436296,0.2173345386981964,-21.77273941040039,-2.38179087638855,22.59223175048828,0.6608988046646118,2.2615859508514404,-0.05396880581974983,0,0,0,0.000,0,0
1739401996.9528465,0.525519828493474,0.09600368450640173,-0.953224943957977,-2.0690930740416094,0.13770592911526924,2.137595881200596,-1.275353283606699,0.0010145109995782732,0.0003173128126375886,-0.00037426860752295564,-0.0006532144392548368,0.00045034596675257827,0.0009766785898060243,-0.0018968206189220304,0.2173345386981964,-21.82431411743164,-2.38179087638855,22.61603546142578,0.6801248788833618,2.2551772594451904,-0.027418512850999832,0,0,0,0.000,0,0
1739401996.963844,0.5255181125569662,0.0960034448528016,-0.9532230629953244,-2.069089078338528,0.13770350291598887,2.1375936400499285,-1.2753556693306416,6.92600865415295e-05,-0.00016276333733895637,0.00014868071379364614,0.0005392532653751207,-0.00037495677941707555,-2.0531233299420402e-05,-0.0024083816564357723,0.2411382496356964,-21.82431411743164,-2.38179087638855,22.59223175048828,0.6865335702896118,2.2615859508514404,-0.0072769103571772575,0,0,0,0.000,0,0
1739401996.9747453,0.5255154026308447,0.09600210507847118,-0.9532215895517255,-2.0690852036200287,0.1377057855342675,2.137595913027372,-1.275349334978211,-0.00025247419168896064,-0.001360242821269212,0.0009245650074338312,0.0007416840651664843,0.00010071302356829477,0.0007942650175441403,0.00023795306563935734,0.2689092457294464,-21.77273941040039,-2.4095618724823,22.54065704345703,0.6673074960708618,2.2423598766326904,-0.06037749722599983,0,0,0,0.000,0,0
1739401996.9847631,0.5255188394858378,0.09600915860625628,-0.9532187771757439,-2.0690872359012356,0.13771009717659544,2.1375955262406388,-1.2753454441836272,-0.00035896960183455604,0.0018851407162368376,0.0017184066775238216,0.0007561040709366355,0.00041491321417828496,0.0006710099362176923,0.000275084310427634,0.2173345386981964,-21.87192153930664,-2.4333655834198,22.54065704345703,0.6608988046646118,2.2487685680389404,-0.05396880581974983,0,0,0,0.000,0,0
1739401996.9947753,0.5255195537557952,0.09600144886323797,-0.9532273583828496,-2.0690915787443567,0.1377056962852319,2.1375928884982502,-1.2753520825660956,0.0007931272314304872,-0.0001416966543614202,-0.0014590108974205651,-0.0006239767740530723,0.00037373767901619865,-0.00014542289239961496,-0.002008942785853135,0.2173345386981964,-21.79654312133789,-2.35798716545105,22.59223175048828,0.6801248788833618,2.2679946422576904,-0.027418512850999832,0,0,0,0.000,0,0
1739401997.0048141,0.5255181156411078,0.09600377932054734,-0.95322453283991,-2.069093074498692,0.13770573851827567,2.1375944521670016,-1.2753548550527445,3.780871991297479e-05,-0.0009656608202080666,-0.0005996274166838063,-0.0013754830614527952,0.001312480163238181,0.00036372885958938926,-0.0026158961071700857,0.2411382496356964,-21.79654312133789,-2.35798716545105,22.61603546142578,0.6737161874771118,2.2551772594451904,-0.013685601763427258,0,0,0,0.000,0,0
1739401997.0157866,0.5255181149916573,0.09600573551281144,-0.9532206378383365,-2.0690946618566968,0.13770841421372898,2.1375920210694317,-1.2753508911708809,-0.0001740408496794682,-0.000937916092875391,0.0006593110698265931,-0.0016102045666565607,0.001010114850211312,-0.001074460058241003,-0.00012015068800991078,0.2411382496356964,-21.82431411743164,-2.4095618724823,22.66364288330078,0.6480814218521118,2.2753188610076904,-0.020094294100999832,0,0,0,0.000,0,0
1739401997.0258322,0.5255167290520067,0.09600924044976658,-0.9532244723419542,-2.0690939115086735,0.13770462541977568,2.137593640216744,-1.2753532309455273,0.0002051546149712428,0.0003273108496680955,-0.0002904253561140162,-0.00036205384407354287,-6.01568008847996e-05,0.00022245911016673564,-0.0006438738161038422,0.2173345386981964,-21.87192153930664,-2.35798716545105,22.61603546142578,0.6801248788833618,2.2615859508514404,-0.027418512850999832,0,0,0,0.000,0,0
1739401997.0367684,0.5255215370721896,0.0960058154087552,-0.9532227146840108,-2.0690914012325936,0.13770765589757128,2.1375943977072165,-1.2753445105876307,0.0011868417173891029,-0.0013596586662486998,-0.0010338940911388318,0.0006225865747714718,0.0008376319168780689,0.001105267465269729,0.0006709988958656127,0.1935308277606964,-21.82431411743164,-2.38179087638855,22.59223175048828,0.6544901132583618,2.2551772594451904,-0.07411040365695953,0,0,0,0.000,0,0
1739401997.0477343,0.5255173729179013,0.09600750000163819,-0.953222714684152,-2.0690859728896163,0.13770640984957472,2.1375943977072156,-1.2753553423515345,-0.0007735302703043786,0.0007913302659244075,0.0005008618366416012,0.0012349293292460302,0.0004008294077195483,-0.00035171710084134215,-0.0025256976185811272,0.2411382496356964,-21.84811782836914,-2.38179087638855,22.54065704345703,0.6737161874771118,2.2551772594451904,-0.0008682189509272575,0,0,0,0.000,0,0
1739401997.057824,0.5255215396934928,0.09600210494669799,-0.953222714684152,-2.0690912150715426,0.13770538309723968,2.1375928823870587,-1.2753556305935385,0.0008901508260904343,-0.0012915055109675288,-0.0012586778296321379,-0.0013614603039478687,-0.0005449634539582743,-0.0005602923454370058,-0.0014324691445548893,0.1935308277606964,-21.77273941040039,-2.38179087638855,22.61603546142578,0.6737161874771118,2.2679946422576904,-0.0072769103571772575,0,0,0,0.000,0,0
1739401997.067863,0.5255195075496238,0.0960058124857565,-0.9532234270509582,-2.0690947743138457,0.13770614317765478,2.1375936400471374,-1.275351716029384,-0.00029189965405084254,0.00017320474680606262,-0.0008313882809809336,-0.0017128731304160158,0.00033825851891659966,3.623902940326889e-05,0.000957483652752015,0.2173345386981964,-21.82431411743164,-2.38179087638855,22.66364288330078,0.6673074960708618,2.2615859508514404,-0.04023589566349983,0,0,0,0.000,0,0
1739401997.0787992,0.525515263342301,0.0960060526874417,-0.9532252185986552,-2.069090370914076,0.1377074213125405,2.1375936400471374,-1.2753489405799292,-1.838053387240853e-05,0.0011092419710438583,-0.00032700920050759275,-0.00076327274029712,0.00022443638099008578,-0.00017668377806423898,-0.0006130931638043172,0.2411382496356964,-21.82431411743164,-2.35798716545105,22.56842803955078,0.6865335702896118,2.2615859508514404,-0.027418512850999832,0,0,0,0.000,0,0
1739401997.0888126,0.5255213025473832,0.09600211374062594,-0.9532265771632409,-2.0690875311632144,0.1377038678198743,2.1375936400471374,-1.275353169375942,0.001406646120096227,-0.00019655813483124057,-0.0003650741166639737,-0.0002149897266354841,-0.0005559692977664197,-0.0010661685802632354,-0.0014414620324307691,0.1935308277606964,-21.77273941040039,-2.3302161693573,22.56842803955078,0.6865335702896118,2.2615859508514404,-0.0008682189509272575,0,0,0,0.000,0,0
1739401997.1008046,0.5255180364986035,0.0960057363434944,-0.9532266137804929,-2.0690909323497744,0.13770689840000827,2.1375944526514146,-1.2753500965929374,0.0006746882674096002,-0.0001835008586329594,-0.000880216671928952,-0.001745146541487899,0.0005808752502692635,0.0001506516939268313,-0.0006972041342550928,0.2411382496356964,-21.82431411743164,-2.3302161693573,22.61603546142578,0.6608988046646118,2.2551772594451904,-0.05396880581974983,0,0,0,0.000,0,0
1739401997.1108105,0.5255180894814074,0.09600207766540345,-0.953224735779957,-2.069087311221548,0.13770546059950278,2.1375935223098774,-1.2753541553528198,-0.0005459165856575744,0.0003125233963975554,-0.00011671461536142232,0.0012092351150538709,-0.0004164719562917427,-0.00020438525781728026,-0.001119158241340561,0.2411382496356964,-21.77273941040039,-2.35798716545105,22.56842803955078,0.6737161874771118,2.2615859508514404,-0.020094294100999832,0,0,0,0.000,0,0
1739401997.1217477,0.5255160346343614,0.09600112281945447,-0.9532301513367285,-2.069090497984792,0.13770300202541477,2.137594397706551,-1.2753479449117797,-0.0014050870509041409,-0.00023166499491273073,-0.002875927863402637,-0.0007204684386377172,-0.00011633722608737126,-0.0001568587275797384,0.00022401313555792406,0.2689092457294464,-21.77273941040039,-2.2826087474823,22.56842803955078,0.6938577890396118,2.2551772594451904,-0.06037749722599983,0,0,0,0.000,0,0
1739401997.1317806,0.5255160872879563,0.09599797612363475,-0.9532248604515134,-2.069087283464254,0.1377061800685606,2.1375945213316636,-1.275354980302379,-0.00155071963477194,-0.00011449230461873681,-0.00020609264947206283,-0.00034140968123819366,0.0006432388067275217,-0.0003041769718276578,-0.001485598586087733,0.2689092457294464,-21.74496841430664,-2.38179087638855,22.56842803955078,0.6673074960708618,2.2551772594451904,-0.0008682189509272575,0,0,0,0.000,0,0
1739401997.142824,0.5255195017352717,0.09600097630113896,-0.9532244973376183,-2.0690934036691204,0.1377053831342449,2.137592016490524,-1.2753551881067238,0.00046308350479184947,-0.0006057411216648496,9.17845115268128e-06,-0.001815751020606712,0.0003432690331913581,-0.0012358744865137265,-7.368329835137394e-05,0.2173345386981964,-21.79654312133789,-2.35798716545105,22.61603546142578,0.6737161874771118,2.2753188610076904,-0.0072769103571772575,0,0,0,0.000,0,0
1739401997.1538491,0.5255158608604356,0.09600286942595268,-0.9532229502137999,-2.069089927911197,0.13770294195732696,2.1375936407819878,-1.2753468509010237,-0.00015264355822501222,-0.0013440138323006505,-7.244626345138833e-05,0.0006784402051242365,-0.00015426315625355715,-0.0002686105104927844,0.0022027637014118053,0.2411382496356964,-21.79654312133789,-2.38179087638855,22.59223175048828,0.6673074960708618,2.2615859508514404,-0.08051909506320953,0,0,0,0.000,0,0
1739401997.1648116,0.5255204686085089,0.09600557849616335,-0.9532244975078558,-2.0690859821517193,0.1377064532230215,2.137592886965746,-1.275351774300371,0.0007234915566143262,7.886120678222367e-05,-0.0005522786752357626,0.0021428518680179304,0.0003697887623027396,-0.000658246538844449,-0.0009158694991682483,0.1935308277606964,-21.82431411743164,-2.35798716545105,22.54065704345703,0.6737161874771118,2.2679946422576904,-0.04023589566349983,0,0,0,0.000,0,0
1739401997.174822,0.5255208257403732,0.09600381746389001,-0.9532227146841545,-2.0690915765751,0.13770329739573883,2.1375947526672503,-1.2753492724028814,0.0005229587514691443,-5.6024545281096376e-05,0.0007354304136805436,0.00028469507694797643,-0.00019137203623381297,0.0003093551985993697,0.0002585890076634397,0.1935308277606964,-21.79654312133789,-2.38179087638855,22.59223175048828,0.6673074960708618,2.2615859508514404,-0.06037749722599983,0,0,0,0.000,0,0
1739401997.1857448,0.5255198285985191,0.09600924034195836,-0.9532217927130864,-2.0690873934631235,0.1377058247405612,2.1375944390912265,-1.2753486337681392,0.0013758172889272876,0.0007840718594737845,-0.00034376280824836413,0.0017844693042926786,-0.00022512463727006728,0.0008246352107925779,0.0015889252217299264,0.2173345386981964,-21.87192153930664,-2.4333655834198,22.56842803955078,0.6673074960708618,2.2551772594451904,-0.06678618490695953,0,0,0,0.000,0,0
1739401997.195749,0.5255215145233203,0.09600578877698747,-0.9532219517086034,-2.069094102796351,0.13770542402827796,2.1375943977079164,-1.2753523919117637,0.0008933347564067246,-0.0011302286432140012,-0.0001406620584480274,-0.0008470288471300185,-2.0793322346972007e-05,0.00032668060851211514,0.0011520144834825242,0.1935308277606964,-21.82431411743164,-2.4333655834198,22.61603546142578,0.6737161874771118,2.2551772594451904,-0.03382720425724983,0,0,0,0.000,0,0
1739401997.2058098,0.5255193595973943,0.09600210494581791,-0.9532227129338378,-2.069095968279235,0.13770450694842357,2.1375936405558797,-1.2753516521232664,0.0005867857611575144,-0.001990160515151769,0.00012144306271700528,-0.002438526428637869,-0.0008878512698849738,0.00017756474377690151,-0.0004043236396747469,0.1935308277606964,-21.77273941040039,-2.38179087638855,22.63983917236328,0.6801248788833618,2.2615859508514404,-0.04023589566349983,0,0,0,0.000,0,0
1739401997.215913,0.5255181158268506,0.09600853016153399,-0.9532227941569821,-2.069093114872895,0.13770614512582807,2.137592830059258,-1.2753569659251731,-0.00048382245273197194,0.0004973472740941159,-0.00027294343889617146,-0.0007244604861023028,1.1831746872378277e-05,-0.0003665487140806729,-0.002433101957311568,0.2411382496356964,-21.87192153930664,-2.38179087638855,22.61603546142578,0.6673074960708618,2.2679946422576904,0.012864691205322742,0,0,0,0.000,0,0
1739401997.226802,0.5255152549498593,0.09600381713911492,-0.9532206350037614,-2.069092034254612,0.1377068985625477,2.137595155366998,-1.2753521699121992,8.814725151436598e-05,-0.0005519317684946816,0.0005152455384179102,-0.00012520616019286867,0.0007949840954072358,0.0004610400316455628,-0.0005534444888882498,0.2411382496356964,-21.79654312133789,-2.4095618724823,22.59223175048828,0.6608988046646118,2.2487685680389404,-0.03382720425724983,0,0,0,0.000,0,0
1739401997.236809,0.5255150848322909,0.0960038086989042,-0.9532227903051042,-2.069088281579524,0.13770462541977382,2.137594397707215,-1.275349346177934,-0.0009908097909699194,-0.0011017762602823747,0.00028026404249585147,1.0275037530484057e-07,-0.0004851603271428008,0.0006292258197472924,0.001117813700696048,0.2689092457294464,-21.79654312133789,-2.38179087638855,22.56842803955078,0.6801248788833618,2.2551772594451904,-0.06037749722599983,0,0,0,0.000,0,0
1739401997.2468247,0.5255181071249942,0.09600284410918726,-0.9532265771523073,-2.0690875153631745,0.13770300186246218,2.137594397707215,-1.2753486220144574,-0.0002802048138164418,-0.0006554248394281808,-0.0023526701703598637,0.00024793420848484994,0.00037111595222365603,0.00010817030625631885,-0.002088604018822755,0.2411382496356964,-21.79654312133789,-2.3302161693573,22.54065704345703,0.6938577890396118,2.2551772594451904,-0.06678618490695953,0,0,0,0.000,0,0
1739401997.257813,0.5255171622983431,0.09600649327997501,-0.9532266431283831,-2.0690872966762712,0.13770141347345555,2.1375927646494883,-1.2753508832255633,0.0005558440181999486,0.0008313363032005667,-0.0005964740537163877,0.0005008729300974331,-0.0009979957279376613,-0.0006867165930885018,-0.00029279861095366313,0.2411382496356964,-21.84811782836914,-2.35798716545105,22.56842803955078,0.6801248788833618,2.2679946422576904,-0.020094294100999832,0,0,0,0.000,0,0
1739401997.2697525,0.5255191043693522,0.09600199094827487,-0.9532281248656861,-2.0690852067101244,0.1377061407158285,2.1375936400469153,-1.2753486309300346,0.00012944655298268565,-0.0004443005527869773,-0.0012659775486944418,0.0014074556196478896,0.00038296814622723087,-0.00015099885791945293,0.001714538175884043,0.2173345386981964,-21.77273941040039,-2.3064124584198,22.54065704345703,0.6673074960708618,2.2615859508514404,-0.06678618490695953,0,0,0,0.000,0,0
1739401997.2798448,0.525519828017049,0.09600310717857505,-0.9532227146828256,-2.069089067594237,0.13770763407501613,2.137593640047137,-1.2753501462742765,0.00013222922679171996,-0.00022182266690705724,0.0009355564001389488,0.0001457933874066742,0.0011701768690286043,0.0005256380823334937,0.001779569514905494,0.2173345386981964,-21.79654312133789,-2.38179087638855,22.59223175048828,0.6737161874771118,2.2615859508514404,-0.05396880581974983,0,0,0,0.000,0,0
1739401997.2918074,0.5255169292058784,0.09600381735563333,-0.9532245891609444,-2.0690920727555264,0.13770763873786063,2.137593640047137,-1.2753505461954515,-0.0005759283351124849,-0.00047397741197599975,-0.0003043851480880545,-0.0016906587421885424,-4.979734811158109e-06,-0.0004169236004211256,0.0013114996888301507,0.2173345386981964,-21.79654312133789,-2.35798716545105,22.59223175048828,0.6544901132583618,2.2615859508514404,-0.04756011441349983,0,0,0,0.000,0,0
1739401997.3028378,0.5255133723113438,0.09600571018080147,-0.9532206349311535,-2.069089066103807,0.13770539624346786,2.1375960109864827,-1.2753542224992376,-0.001283920563728701,-0.0004574333988267348,0.0018573167536262577,-0.0002365211452307206,-0.0003466870395800334,0.0009314602707115828,8.574418538067274e-05,0.2927129566669464,-21.82431411743164,-2.4095618724823,22.59223175048828,0.6737161874771118,2.2551772594451904,-0.0072769103571772575,0,0,0,0.000,0,0
1739401997.3138142,0.5255192883001564,0.0960082933984415,-0.9532244973611712,-2.0690895121545574,0.13770386775971932,2.137592882390094,-1.2753522035434637,0.0010001329102390052,0.0007233638602100963,0.0001744242557344174,-0.000806708200191239,-9.78213686521708e-05,-1.8209984052224053e-05,-0.0017999147055375961,0.1935308277606964,-21.87192153930664,-2.35798716545105,22.56842803955078,0.6865335702896118,2.2679946422576904,-0.027418512850999832,0,0,0,0.000,0,0
