IITGN-Robotics/Franka_IITGN_ROBOTICS/franka_ros/franka_iitgn/data/b_37.csv
time,fr3_joint1_pos,fr3_joint2_pos,fr3_joint3_pos,fr3_joint4_pos,fr3_joint5_pos,fr3_joint6_pos,fr3_joint7_pos,fr3_joint1_vel,fr3_joint2_vel,fr3_joint3_vel,fr3_joint4_vel,fr3_joint5_vel,fr3_joint6_vel,fr3_joint7_vel,fr3_joint1_eff,fr3_joint2_eff,fr3_joint3_eff,fr3_joint4_eff,fr3_joint5_eff,fr3_joint6_eff,fr3_joint7_eff,flexpin1,flexpin2,flexpin3,Force,ContactMic,ContactMic_gt
1739402019.1524627,0.5255340900176092,0.0958503715914259,-0.9532469087074542,-2.0690653378712787,0.13769569731058975,2.1375577719227516,-1.2753428892524716,0.0005646466819475093,0.0010615556427913352,-0.00036896700779516793,0.0006844719344435594,-0.0006437493531303155,-0.0002687036141131944,0.002265642347899473,0.2411382496356964,-21.89969253540039,-2.35798716545105,22.61603546142578,0.6343485116958618,2.2423598766326904,-0.03382720425724983,,,,,,,,,
1739402019.162526,0.5255326465415946,0.0958717241850948,-0.9532465592317323,-2.0690627922210334,0.13769902960665037,2.1375617747474327,-1.2753453009944913,0.00011536136921237177,0.0024952702254432183,0.0005979572565220166,4.826646640044663e-06,0.001562584319081748,-0.000843384569785126,0.0014865570471323253,0.2173345386981964,-21.77273941040039,-2.35798716545105,22.54065704345703,0.6737161874771118,2.2487685680389404,-0.013685601763427258,,,,,,,,,
1739402019.1735032,0.5255296666939582,0.09590360692119813,-0.9532448831948768,-2.0690677566768394,0.13770098240837558,2.1375676622285256,-1.2753452624365693,-0.0006484807144269097,0.0037705829573488094,-0.0004667898314923768,-0.0009025165314374456,0.0010206772631996843,0.0003389344263799635,0.00033820804479928353,0.2173345386981964,-21.77273941040039,-2.38179087638855,22.59223175048828,0.6673074960708618,2.2753188610076904,-0.05396880581974983,,,,,,,,,
1739402019.1844547,0.5255277137419255,0.09592490941332203,-0.9532507697269126,-2.0690717843970257,0.13769836603493624,2.137573330307647,-1.2753452486275827,-0.00039427484952131556,0.002893730259121269,-0.0007929264828080759,-0.0006816519156577414,0.0001226391650185514,0.0012321476637389586,-0.0004882945571736947,0.2411382496356964,-21.77273941040039,-2.3064124584198,22.61603546142578,0.6938577890396118,2.2615859508514404,-0.05396880581974983,,,,,,,,,
1739402019.1954584,0.525524826278438,0.09594615936830923,-0.9532469087076039,-2.0690751131313685,0.13770410984126377,2.1375760818786396,-1.2753437085974972,2.6663336667270707e-05,0.0027888776097674804,0.0008284473249586797,0.00017668314740270882,0.001198072408518973,0.000811107024288763,0.0002538228667501463,0.2411382496356964,-21.79654312133789,-2.35798716545105,22.61603546142578,0.6801248788833618,2.2487685680389404,-0.06678618490695953,,,,,,,,,
1739402019.205461,0.5255227925608058,0.09595381743462632,-0.9532489068745594,-2.069076316367754,0.137699194127338,2.1375756667203754,-1.2753378852470423,-0.00019590624560545734,0.0008605997147961525,0.0002478347791682794,0.0012236987431936044,-0.0005050222764249669,-0.00017506042472858595,0.0026109296347590653,0.2689092457294464,-21.77273941040039,-2.3302161693573,22.59223175048828,0.6865335702896118,2.2881362438201904,-0.08051909506320953,,,,,,,,,
1739402019.2164276,0.5255225668906557,0.09596758915932588,-0.9532425694031129,-2.0690809685824636,0.13770450475309381,2.137573809463012,-1.2753437458275496,5.512099767952848e-06,0.000961572351048728,8.473120335447258e-05,-0.0008874979975483685,0.002726725879812329,-2.9012380075027223e-05,0.00037444900703400674,0.2689092457294464,-21.87192153930664,-2.4095618724823,22.61603546142578,0.6801248788833618,2.2679946422576904,-0.06678618490695953,,,,,,,,,
1739402019.2265394,0.5255279783159728,0.0959762150738676,-0.9532379858052165,-2.0690725674858177,0.1377031451783658,2.137580047451662,-1.2753484020405534,0.001172800019930171,-0.00036518519901291863,0.0015069090559688791,0.0012971826932928678,2.9534024838186994e-05,0.001307127162750082,-0.0008671533221944579,0.1935308277606964,-21.87192153930664,-2.4333655834198,22.54065704345703,0.6801248788833618,2.2551772594451904,-0.027418512850999832,,,,,,,,,
1739402019.2375004,0.5255296820063209,0.09598189036659685,-0.9532341228413784,-2.069074648484866,0.13770454792212933,2.1375777112133196,-1.2753515409181424,0.0010498108124953561,0.0004912344739973329,0.0003775744708703565,-0.0004797230861272279,-0.0005260010147599354,-0.0003478255385809271,0.00010126056864599806,0.1697271168231964,-21.84811782836914,-2.48494029045105,22.56842803955078,0.6673074960708618,2.2753188610076904,-0.0008682189509272575,,,,,,,,,
1739402019.2485273,0.5255296908365887,0.09599129309224817,-0.9532377513048301,-2.0690820615505388,0.13770280143566374,2.13757933493239,-1.2753448690359357,-0.0003991870806989037,0.0015774895933579355,0.0003929663261487466,-0.0007609170979645213,0.00026017666594093183,-7.911953829285688e-05,0.0009984184680887987,0.1697271168231964,-21.92349624633789,-2.4333655834198,22.63983917236328,0.6865335702896118,2.2615859508514404,-0.06037749722599983,,,,,,,,,
1739402019.2595048,0.5255262667581534,0.0959949121108859,-0.9532397679839484,-2.069081027452716,0.13770146121431115,2.137580092592469,-1.2753507832601163,0.00022413146331330132,-0.0008662881672837595,-0.00020111277992428283,0.00010742479340483451,-0.000769777924172544,0.00034703583003304196,-0.001784729931998908,0.2173345386981964,-21.89969253540039,-2.4095618724823,22.63983917236328,0.6938577890396118,2.2551772594451904,-0.0072769103571772575,,,,,,,,,
1739402019.270493,0.5255247872778815,0.09599375851471834,-0.9532442761125046,-2.06908479755596,0.13770706700375146,2.13757770992153,-1.2753515409181424,-0.0001441258242461499,-0.0009092066077711505,-0.0008439082711675965,-9.552575453824157e-05,-0.00035559404991869877,-0.0006491350887576986,-0.0022896015304599148,0.2411382496356964,-21.84811782836914,-2.38179087638855,22.66364288330078,0.6865335702896118,2.2753188610076904,-0.0008682189509272575,,,,,,,,,
1739402019.2824914,0.5255272065515052,0.09599474237130723,-0.9532436347994191,-2.0690795293085267,0.1377046253896784,2.1375785772723095,-1.2753430930949745,0.0007254760412337195,7.078543449372753e-05,-0.00023725070421556097,4.924651382088251e-05,-0.00019716603440948254,-0.00040720296751073446,0.001513283516629404,0.2173345386981964,-21.84811782836914,-2.35798716545105,22.59223175048828,0.6801248788833618,2.2679946422576904,-0.06037749722599983,,,,,,,,,
1739402019.2944276,0.5255262657724963,0.09599091600544803,-0.9532436309086298,-2.069081312472904,0.13770463858348725,2.13757877344776,-1.2753497221637269,0.0006678403904250463,-0.000282735631817125,0.00011171597622777731,-0.00027145620087836873,0.0004882669208106187,-0.00048380391068273234,-0.0005755427213451796,0.2173345386981964,-21.82431411743164,-2.35798716545105,22.61603546142578,0.6801248788833618,2.2679946422576904,-0.0072769103571772575,,,,,,,,,
1739402019.3044536,0.5255269674783881,0.09599411050206952,-0.953241929052812,-2.0690721381522255,0.13770544347260605,2.1375793392941493,-1.275348523530874,0.0008131841160771958,0.0007921722417040968,0.0007251421686766738,0.002774944306408879,-0.0006856492313982996,-0.00028619713525118587,-0.00017147961111094406,0.2173345386981964,-21.79654312133789,-2.38179087638855,22.49304962158203,0.7002664804458618,2.2615859508514404,-0.05396880581974983,,,,,,,,,
1739402019.3154917,0.5255208428247439,0.09598932088558884,-0.9532479800226498,-2.069073654612135,0.13770392063124715,2.1375796935989753,-1.275343748064139,-0.0008006768275750705,-0.000621998400862318,-0.0004947272394800465,0.0012769233003515753,-4.268807380237245e-05,0.000591153628795485,0.0007270468207949716,0.2927129566669464,-21.77273941040039,-2.3302161693573,22.51685333251953,0.6865335702896118,2.2679946422576904,-0.06678618490695953,,,,,,,,,
1739402019.325495,0.5255243928570061,0.09598955651376756,-0.9532467876736676,-2.069075666875499,0.13770625921365778,2.137580445811481,-1.2753468707676956,0.00024231318779622242,0.0001012975931793244,-0.00023335814640893307,0.001183180303019083,0.00016818493606197884,-0.0013743205283635763,-0.0002498705813580141,0.2411382496356964,-21.77273941040039,-2.35798716545105,22.54065704345703,0.6673074960708618,2.2551772594451904,-0.04023589566349983,,,,,,,,,
1739402019.3365424,0.5255234034613151,0.09598931975487623,-0.9532460620546269,-2.0690779939155473,0.13770428901574422,2.137579336553429,-1.2753452631628273,0.0004069208363609418,-0.000663993350698778,0.0012724505060488246,0.0005433093039937919,-0.0009534505361779538,-0.0008929212142745394,0.0015876496850826048,0.2173345386981964,-21.77273941040039,-2.3302161693573,22.56842803955078,0.6801248788833618,2.2615859508514404,-0.05396880581974983,,,,,,,,,
1739402019.3475122,0.5255245238346665,0.09599145368426167,-0.9532446598409396,-2.06907421827454,0.13770937752004386,2.1375811585831546,-1.2753448340276448,0.0004520242026614203,0.0011413875083832125,-0.00043466057171649464,-0.0005620670218749209,0.00198170723347523,0.0014238232850323903,-0.00041763089142128726,0.2411382496356964,-21.77273941040039,-2.35798716545105,22.51685333251953,0.6801248788833618,2.2551772594451904,-0.06678618490695953,,,,,,,,,
1739402019.358445,0.5255245518207287,0.09599317191869076,-0.9532426864373394,-2.0690756669163655,0.1377046255007703,2.1375826722897737,-1.2753448675521784,0.00019733204391865036,0.0007982896863111261,-0.0010419300063282616,5.434244681783607e-05,-0.0007184865095443982,-0.0008941465383783057,-0.0005261880259943136,0.2411382496356964,-21.79654312133789,-2.4095618724823,22.54065704345703,0.6801248788833618,2.2615859508514404,-0.06037749722599983,,,,,,,,,
1739402019.3684804,0.5255224161740019,0.09598966275228228,-0.9532379863569904,-2.0690777466666512,0.13770335939544767,2.137584188306453,-1.2753452631692288,-0.0004031534943816772,0.00014925476097159556,0.000758681036552892,0.00015611080573220946,-0.0011660508509333321,0.00040881217050712707,0.0005379989657138452,0.2411382496356964,-21.77273941040039,-2.4333655834198,22.56842803955078,0.6938577890396118,2.2487685680389404,-0.05396880581974983,,,,,,,,,
1739402019.3804827,0.5255243140382929,0.0959933820929094,-0.9532418477751308,-2.0690777476841355,0.13770479801271351,2.137583748290181,-1.2753476443804865,-0.00041121634415562175,0.0007525901834773036,-0.0010443566603933105,4.135683796521847e-05,0.0006458605680892669,0.0008483551042493821,-0.00012139048338306912,0.2411382496356964,-21.82431411743164,-2.38179087638855,22.56842803955078,0.6801248788833618,2.2551772594451904,-0.03382720425724983,,,,,,,,,
1739402019.3914993,0.5255233252980168,0.09599938734837121,-0.9532397680963044,-2.069084279007457,0.13770439918469524,2.1375824797403813,-1.2753445056685624,-6.295743676314891e-05,0.0012280457861360567,0.0004186004750592753,-0.00025541838388750933,-0.0005583233019319368,0.0017662450836063086,0.0014732820197734219,0.2173345386981964,-21.87192153930664,-2.4095618724823,22.61603546142578,0.6865335702896118,2.2753188610076904,-0.06037749722599983,,,,,,,,,
1739402019.401501,0.5255279517720163,0.09599965155149791,-0.9532419571651826,-2.0690830947144563,0.13770935268924683,2.13758078721751,-1.275350783258065,0.000143837049325403,0.0007967539260715307,0.0003024542777621852,-0.00038706837117393524,0.0005696188803896393,-0.0005256114754684659,2.7147615462532978e-05,0.1935308277606964,-21.87192153930664,-2.4095618724823,22.63983917236328,0.6673074960708618,2.2615859508514404,-0.0072769103571772575,,,,,,,,,
1739402019.4115074,0.525527977879393,0.09600378414896549,-0.9532418477052014,-2.0690795290287345,0.13770849429090373,2.137581762025496,-1.275341367122622,0.0022365071847884575,0.0013119268528011233,-0.00014803432568930301,0.0008183265536275987,0.0011146260294757871,-0.0006663778938001222,0.002902063102178647,0.1935308277606964,-21.89969253540039,-2.38179087638855,22.59223175048828,0.6865335702896118,2.2679946422576904,-0.08692778646945953,,,,,,,,,
1739402019.4234269,0.5255255416001025,0.09599825472816771,-0.9532418509211187,-2.0690825515356592,0.13770940203238602,2.137584856594461,-1.275349975528897,0.00139628013990006,0.00019979953579172334,0.00022115730371357034,-0.00020351576430158142,0.0020299732462112615,0.00043073464062357524,-0.0014674709993651805,0.2173345386981964,-21.84811782836914,-2.38179087638855,22.61603546142578,0.6801248788833618,2.2551772594451904,-0.027418512850999832,,,,,,,,,
1739402019.4334304,0.5255216922110689,0.09600249660683735,-0.9532437992753642,-2.069084878851425,0.13770814599384368,2.137579864751431,-1.2753476489142168,0.00012388653926601268,-2.1113022190987538e-05,-0.0002591382980408224,-0.0011550834615163656,0.00044401625379546987,-0.0001662316615440462,0.0006817038594648094,0.2411382496356964,-21.87192153930664,-2.38179087638855,22.66364288330078,0.6865335702896118,2.2615859508514404,-0.03382720425724983,,,,,,,,,
1739402019.4434536,0.5255241170360728,0.09600078943720662,-0.9532397655735274,-2.0690817545837663,0.1377057436105575,2.137579809084366,-1.2753527733281462,-0.0007520096289035993,-0.00020843050952357032,0.0008795034173158285,0.0004854189629237606,-0.0007690329268903145,-0.0006364003635875615,-0.0016360936590012172,0.2173345386981964,-21.84811782836914,-2.4095618724823,22.59223175048828,0.6737161874771118,2.2679946422576904,0.0064559997990727425,,,,,,,,,
1739402019.4544249,0.525524313535541,0.09599794197134748,-0.9532477360858482,-2.0690796108277225,0.1377096483420437,2.137582874189134,-1.275346887219107,-0.00031650001344416353,-0.0011558774957534832,-0.00032630764706146893,0.00047864619370873373,0.002214724520198389,-2.1396104865745912e-05,0.0007083117744400686,0.2411382496356964,-21.84811782836914,-2.3064124584198,22.59223175048828,0.6737161874771118,2.2679946422576904,-0.04023589566349983,,,,,,,,,
1739402019.4644752,0.5255259122513577,0.09599794000664083,-0.9532466297360654,-2.069082136185058,0.13770604733567735,2.137580949150269,-1.275353462771922,8.450760439119719e-05,-0.00027623163985518174,0.00020691498267693184,-0.0011477704755510436,-7.259462532845704e-05,-0.0018507849501523325,-0.0024400877616742394,0.2173345386981964,-21.84811782836914,-2.35798716545105,22.61603546142578,0.6801248788833618,2.2753188610076904,-0.013685601763427258,,,,,,,,,
1739402019.475493,0.5255218407077957,0.0959932617394048,-0.9532397684802029,-2.0690761081940616,0.1377076194879292,2.1375838013000013,-1.2753500258217378,-0.00015733934150596526,-0.000919015918866973,0.0019002547901109663,0.0015013976475339186,0.000941231194768081,0.00028867521104023456,0.0004553604855555419,0.2689092457294464,-21.77273941040039,-2.4095618724823,22.51685333251953,0.6673074960708618,2.2551772594451904,-0.013685601763427258,,,,,,,,,
1739402019.4854949,0.5255216922474618,0.0959945715400639,-0.9532429259342167,-2.069077758821733,0.13771128338789076,2.137584803785093,-1.2753468868859528,-0.0006863166919586436,0.00016605269813870115,-0.0002639052566821609,-0.0008349240047314743,-0.00019439199685654943,0.0006424479508431583,0.0009659075293543419,0.2411382496356964,-21.79654312133789,-2.4095618724823,22.56842803955078,0.6608988046646118,2.2551772594451904,-0.04023589566349983,,,,,,,,,
1739402019.4964907,0.5255241198664587,0.09599346342823452,-0.9532397720003593,-2.069073884199845,0.13770625929228436,2.137584854988022,-1.2753468926799651,0.000255168333304377,0.00031533416070125207,0.00023244698394387996,0.0010817078900249976,-0.0003146175821131208,9.246951630332922e-05,4.774784109183041e-05,0.2173345386981964,-21.77273941040039,-2.4095618724823,22.51685333251953,0.6673074960708618,2.2551772594451904,-0.04023589566349983,,,,,,,,,
1739402019.5074809,0.5255235112606097,0.09599473007511143,-0.9532409117615119,-2.0690777470058124,0.13770542173006323,2.1375833057519142,-1.2753452240828849,-0.0015644827865882293,0.001599860433012721,0.0006311847261183529,0.00045098711653311017,-0.0005317650208339689,0.0007189932991609561,0.0005909367411217903,0.2411382496356964,-21.77273941040039,-2.38179087638855,22.56842803955078,0.6865335702896118,2.2679946422576904,-0.05396880581974983,,,,,,,,,
1739402019.5175393,0.5255262569589764,0.09599504164157509,-0.9532436304838718,-2.069077774138752,0.13770498863437197,2.1375836321919626,-1.2753445210638614,0.0018329164095646144,0.0013293959184629562,-0.00023967706418952153,5.54684709891802e-06,-0.0020145375943826627,-0.0006211822909601724,0.0016306935242669336,0.2173345386981964,-21.77273941040039,-2.35798716545105,22.56842803955078,0.6865335702896118,2.2615859508514404,-0.06037749722599983,,,,,,,,,
1739402019.528417,0.5255237653979933,0.09599446830691057,-0.9532419557382426,-2.0690813120208436,0.1377087537013006,2.137583946317887,-1.2753480198326028,-3.387623440683315e-05,-0.00012080343542395931,7.587519467023036e-05,-0.0012007071423345951,-0.00028896359725513304,-0.000316423727052105,-0.0006011865256031793,0.2173345386981964,-21.79654312133789,-2.38179087638855,22.61603546142578,0.6737161874771118,2.2615859508514404,-0.03382720425724983,,,,,,,,,
1739402019.53846,0.5255259179909355,0.09599464692005338,-0.9532418477769533,-2.0690770579018665,0.13770538963753273,2.1375833449952135,-1.2753515588031687,-0.0009354948656768649,-9.39426545452443e-05,-0.00016836682152107112,0.0012711073603303084,0.00026062613631547645,0.00020407158763878868,-0.0005646806572521487,0.2173345386981964,-21.77273941040039,-2.38179087638855,22.56842803955078,0.6737161874771118,2.2679946422576904,-0.0008682189509272575,,,,,,,,,
1739402019.5485256,0.5255238811674301,0.0959963594728111,-0.9532418567689671,-2.0690795293320057,0.1377105637480842,2.1375839463205355,-1.2753511587103956,-0.0008118188528233602,-4.02575435122591e-05,0.0001995317867869852,-0.00017543208594501092,-0.00033566935273150397,-2.2836872292863358e-05,-0.0014377314848201613,0.2173345386981964,-21.79654312133789,-2.38179087638855,22.59223175048828,0.6673074960708618,2.2615859508514404,-0.0072769103571772575,,,,,,,,,
1739402019.559496,0.5255277359592815,0.0959986844089551,-0.9532398489298994,-2.069081311415043,0.13770862919446708,2.13758303881979,-1.2753462011018646,0.0015268320317419757,0.0005825363849103885,0.0006931054687006385,-0.0004115650671794426,-0.000394661570547939,-0.0007402411181931793,-0.0005322208006021329,0.1935308277606964,-21.84811782836914,-2.4095618724823,22.61603546142578,0.6673074960708618,2.2615859508514404,-0.04756011441349983,,,,,,,,,
1739402019.5715096,0.5255179824244718,0.09599796566823174,-0.953243630452601,-2.0690795293436666,0.1377086082277381,2.1375824404947967,-1.2753509044367206,-0.0007246812679204617,-0.0007191718304226276,0.0007478714216163305,0.0002531909605223695,0.00010112599955028068,8.167701953436696e-05,-0.0019406600049064388,0.2927129566669464,-21.84811782836914,-2.35798716545105,22.59223175048828,0.6865335702896118,2.2753188610076904,-0.0072769103571772575,,,,,,,,,
1739402019.5824254,0.5255245136961573,0.09600197073505806,-0.9532465564487892,-2.0690841648498504,0.13770546514653587,2.137580911307559,-1.2753495328849391,0.00042170397818438733,0.00043097436139052394,0.0002660356737090023,-0.0007908332625059305,-0.00048372500389375945,0.00019745158257250344,-0.000635539066594328,0.2411382496356964,-21.89969253540039,-2.35798716545105,22.63983917236328,0.6865335702896118,2.2615859508514404,-0.027418512850999832,,,,,,,,,
1739402019.592503,0.5255237991924161,0.09599829282880006,-0.9532440424331958,-2.0690820842670603,0.13770743131372115,2.137583345589838,-1.2753511251552203,-7.30753599390184e-06,-0.000717488449991522,0.0009554296057708789,-0.00019430291901195045,0.0016804947063951696,5.5889401256652145e-05,-0.0007807727209664027,0.2173345386981964,-21.84811782836914,-2.38179087638855,22.59223175048828,0.6608988046646118,2.2679946422576904,-0.013685601763427258,,,,,,,,,
1739402019.6034613,0.5255224449952044,0.09599860338058876,-0.9532425763257395,-2.0690806287319785,0.13770926121712201,2.137582479746662,-1.275352031846436,-0.0017512202901595734,-0.0009415371571269793,0.00021347000474578542,3.826959086090969e-05,0.0010783367124589335,0.00024658383047048815,0.0007293089734300557,0.2689092457294464,-21.82431411743164,-2.38179087638855,22.59223175048828,0.6801248788833618,2.2753188610076904,-0.0072769103571772575,,,,,,,,,
1739402019.6144805,0.525524004906162,0.09599867632263089,-0.9532450046178311,-2.069077832480773,0.13770719549702765,2.137584860748711,-1.2753470062376773,0.0006949551787582243,7.929226088997118e-06,-0.00024186298217301671,0.002137331165854224,0.00017224556763700507,0.0006846090615501717,0.0017270462974672337,0.2173345386981964,-21.82431411743164,-2.38179087638855,22.56842803955078,0.6865335702896118,2.2551772594451904,-0.06678618490695953,,,,,,,,,
1739402019.6244848,0.5255262646667253,0.09599938772197684,-0.9532426157472565,-2.0690780773507846,0.13770460122886166,2.1375845077513382,-1.2753485754070735,0.0010675762404843338,0.0003729180033821194,-0.00047405595730292955,0.001623253338488411,0.0004757416938021799,0.0002023091399624434,0.0004764958268919791,0.2173345386981964,-21.82431411743164,-2.38179087638855,22.56842803955078,0.6938577890396118,2.2551772594451904,-0.05396880581974983,,,,,,,,,
1739402019.6345274,0.5255244734745175,0.09599742486915576,-0.9532398039736436,-2.069076408629086,0.13770353477620892,2.1375833456379127,-1.2753505641661815,0.0008766221617689605,-0.0001400383778403097,-0.00036796082745370356,0.0011952327658804988,-0.0002798274323056733,-0.00018662802115503661,-0.0015553316075594794,0.2411382496356964,-21.79654312133789,-2.4095618724823,22.54065704345703,0.6938577890396118,2.2679946422576904,-0.013685601763427258,,,,,,,,,
1739402019.6455083,0.5255216918149803,0.095990519570589,-0.9532438732860852,-2.0690824973521047,0.13770779800793748,2.137579982004509,-1.2753485420931714,-0.001277511606463353,-0.001912478759124287,0.00012758270673733424,-0.0007121221294604151,-0.000999408522860081,-0.0007727732538514183,-0.000212793379011236,0.2411382496356964,-21.74496841430664,-2.35798716545105,22.59223175048828,0.6938577890396118,2.2615859508514404,-0.027418512850999832,,,,,,,,,
1739402019.655528,0.5255244343982534,0.09599907935828081,-0.953240023814225,-2.069075941761109,0.13771368863711356,2.1375848608942567,-1.27535116516865,-0.001328469328318102,-0.0008880350225252145,-0.00033079732844762313,-0.0005271049953288325,0.0021348478821169325,7.597103150047334e-05,0.0007323745225446194,0.2411382496356964,-21.82431411743164,-2.4095618724823,22.54065704345703,0.6801248788833618,2.2551772594451904,-0.0072769103571772575,,,,,,,,,
1739402019.6664863,0.5255278684268379,0.09599571234708,-0.9532437155064658,-2.0690728069402478,0.13771018079028696,2.137582479746662,-1.2753487018290703,0.0007512965881087705,-6.55340299827331e-05,-0.0009543901776619002,0.000920355992155553,0.00054675447530088,-0.00020321171399628995,0.0002081150788470035,0.1935308277606964,-21.77273941040039,-2.35798716545105,22.51685333251953,0.6737161874771118,2.2753188610076904,-0.05396880581974983,,,,,,,,,
1739402019.6774552,0.5255262657582173,0.09599539532996247,-0.9532478957461215,-2.06907570350018,0.1377077250173341,2.1375841033039733,-1.275345307879179,0.0011460579030163382,-0.00023487856596337778,-0.0020573374500361813,0.0003335442187597066,0.00020895085426254537,0.0002706428821345913,0.0017587224763888666,0.2173345386981964,-21.77273941040039,-2.3302161693573,22.54065704345703,0.6673074960708618,2.2615859508514404,-0.05396880581974983,,,,,,,,,
1739402019.6884563,0.5255232987720752,0.09599707266466052,-0.9532418477874621,-2.0690795293438766,0.13770987263482382,2.1375839463205466,-1.2753520683942825,-0.00032910896636539807,-0.00023358959364005883,0.0007287103979763428,-0.0001605841637486214,0.000683520290237877,-0.00028977155069915476,-0.0014615688878317048,0.2173345386981964,-21.79654312133789,-2.38179087638855,22.59223175048828,0.6673074960708618,2.2615859508514404,-0.0008682189509272575,,,,,,,,,
1739402019.6995122,0.525520090531691,0.09599729049910798,-0.9532450046137186,-2.069077833303629,0.13771017978510153,2.137584860963165,-1.2753471620811292,-0.0009767421359362547,0.0010086521789507616,-0.0002531437680495833,0.0006420269629294971,0.00045462152779607507,0.001111452010710253,0.001818391109377239,0.2689092457294464,-21.82431411743164,-2.38179087638855,22.56842803955078,0.6737161874771118,2.2551772594451904,-0.04756011441349983,,,,,,,,,
1739402019.7104747,0.525524314696597,0.09600080790735671,-0.9532468692894649,-2.0690815596092365,0.1377108984475925,2.137584103465479,-1.2753512327330698,0.0004756979165006738,-0.00037888302270798474,-0.0006204528140334004,0.0014694421547134934,0.0009547251811729072,-7.387784412370678e-05,0.00046182608449690484,0.2411382496356964,-21.84811782836914,-2.35798716545105,22.61603546142578,0.6673074960708618,2.2615859508514404,-0.04023589566349983,,,,,,,,,
1739402019.7214515,0.5255196020788394,0.09600116163277755,-0.953244991770329,-2.0690780061295624,0.13770942213035708,2.137582479746665,-1.2753504057588245,-0.0015225885460072308,0.0007882658124064682,-0.00012678596088323314,0.0013391269211825794,-3.153219864197472e-05,-0.0005153887153245988,-7.068958402134634e-05,0.2689092457294464,-21.84811782836914,-2.38179087638855,22.56842803955078,0.6801248788833618,2.2753188610076904,-0.013685601763427258,,,,,,,,,
1739402019.732516,0.5255241156254178,0.09599942270239332,-0.9532418747625673,-2.0690816461080366,0.13771014176260965,2.137584390013772,-1.2753453703516135,0.0009886166987305117,0.00023362599484855098,0.00042087469935911,0.0009025485029472592,0.0002452366751253175,-0.0004895209263655529,0.0015022048547666874,0.2173345386981964,-21.82431411743164,-2.38179087638855,22.61603546142578,0.6737161874771118,2.2551772594451904,-0.06678618490695953,,,,,,,,,
1739402019.743414,0.5255272600682545,0.0960026111252567,-0.9532398759115275,-2.06908131247479,0.13771167831783854,2.137585618621471,-1.2753522321015063,0.0015508820273435094,0.0012464343391987319,-8.97287996073369e-05,-0.0006946527657806917,0.000758000518910577,0.00022823458050389627,-0.0017431338103180663,0.1935308277606964,-21.87192153930664,-2.4095618724823,22.61603546142578,0.6608988046646118,2.2487685680389404,-0.0072769103571772575,,,,,,,,,
1739402019.7544315,0.5255242074626779,0.09599941988359537,-0.9532425762781666,-2.06908142292658,0.13770907256098375,2.1375848609640515,-1.2753463671953844,0.0003662481715936099,-0.0008275531118584386,-0.0002551649105227216,0.00012863139624139254,-0.00020584132325352465,0.0002408730608797113,0.0016206587994860315,0.2411382496356964,-21.82431411743164,-2.38179087638855,22.61603546142578,0.6801248788833618,2.2551772594451904,-0.05396880581974983,,,,,,,,,
1739402019.7645113,0.5255259096370751,0.09599876770237246,-0.9532397678467185,-2.069082384789848,0.13770866593161737,2.137584507751342,-1.2753488880692718,1.8758961258288583e-05,-9.342608558977872e-05,0.00043832690064522095,-0.000824796809028996,-0.0009704483557377488,6.016688903158536e-06,-0.0008238721601001267,0.2173345386981964,-21.84811782836914,-2.4095618724823,22.61603546142578,0.6865335702896118,2.2551772594451904,-0.05396880581974983,,,,,,,,,
1739402019.7755141,0.5255261496868188,0.09600089549708579,-0.953239767985267,-2.069082005242423,0.137706929816295,2.1375841032979914,-1.2753504415039485,0.0008283496372177464,0.00131211739733429,0.0008609444541662341,-0.000144851749555236,-0.00015758518927777283,0.00025236826396978423,-0.001202122190916216,0.2173345386981964,-21.84811782836914,-2.4095618724823,22.59223175048828,0.6737161874771118,2.2615859508514404,-0.013685601763427258,,,,,,,,,
1739402019.7864988,0.525523586372603,0.09600018827930484,-0.9532450046137185,-2.0690795386313106,0.13770942356950194,2.137584821233678,-1.275345953675912,0.0009808835655467731,0.0009833767841845088,-0.0013559908688710082,0.0003178083846883903,0.0014905994045172886,2.299150846995948e-05,0.0011853902713608645,0.2411382496356964,-21.84811782836914,-2.38179087638855,22.59223175048828,0.6801248788833618,2.2551772594451904,-0.06037749722599983,,,,,,,,,
1739402019.796528,0.5255235904263875,0.0959973985467233,-0.9532379894700099,-2.0690796161692284,0.1377086264424553,2.1375834633807913,-1.2753516743579683,-0.00039632353988744223,-0.001404268107619688,0.0019354546345946057,0.0005823331293959944,-0.0002135341452558921,-0.0004260354900393797,-0.0009701768867532426,0.2411382496356964,-21.79654312133789,-2.4333655834198,22.59223175048828,0.6865335702896118,2.2679946422576904,-0.027418512850999832,,,,,,,,,
1739402019.8074248,0.5255259361245451,0.09599528512629536,-0.9532418477751484,-2.069075668346986,0.13771200306178383,2.137585618624794,-1.2753485217343605,-0.00018090349453708142,-0.0005237175367052402,-6.845000675848148e-05,0.00023704614396057012,0.00048560252367054824,-0.0004036217408201472,0.0008269621791681823,0.2173345386981964,-21.79654312133789,-2.38179087638855,22.54065704345703,0.6673074960708618,2.2487685680389404,-0.05396880581974983,,,,,,,,,
1739402019.8174589,0.525526265680577,0.09599355795448254,-0.953241847775125,-2.069078103803971,0.1377101812717771,2.1375833456438946,-1.2753453213239527,0.0021354841249158546,-0.0006029268819690646,0.0009120209236186978,-0.00014024881290954137,-0.0005280794857610205,0.0002555598884044838,0.0007345844661031342,0.2173345386981964,-21.77273941040039,-2.38179087638855,22.56842803955078,0.6737161874771118,2.2679946422576904,-0.05396880581974983,,,,,,,,,
1739402019.8284423,0.5255237316188291,0.09599360873501415,-0.9532400108190073,-2.069080275162317,0.13770460125376374,2.137584260933422,-1.2753481487119025,-0.00045605683611728715,0.00064323958753371,0.0007110849148803779,0.00016317354496223605,-0.0015202908313611083,-0.0001788264252090096,-0.0014042198999207212,0.2411382496356964,-21.74496841430664,-2.4095618724823,22.59223175048828,0.6938577890396118,2.2615859508514404,-0.04023589566349983,,,,,,,,,
1739402019.8384864,0.5255260263815359,0.09599708146974302,-0.9532419448262301,-2.069080222220705,0.137710181199584,2.1375841033066427,-1.275348416960827,0.0013997510218272803,0.00018605764059919348,0.0016498230492408687,-0.00026197365806046824,3.754427424499301e-05,-0.00013275158029639103,0.0002791220765877985,0.2173345386981964,-21.79654312133789,-2.4095618724823,22.56842803955078,0.6737161874771118,2.2615859508514404,-0.027418512850999832,,,,,,,,,
1739402019.8485284,0.5255232860494562,0.09599571234320328,-0.9532419557380957,-2.069078488455265,0.13771113783218425,2.1375848609640515,-1.275346397765346,0.00022039069729688006,-0.00046350127590611556,0.0005336483045183877,0.0011243349134566188,-0.0003864219097935537,-1.817659762904667e-05,-0.0004924950690059903,0.2173345386981964,-21.77273941040039,-2.38179087638855,22.56842803955078,0.6673074960708618,2.2551772594451904,-0.04756011441349983,,,,,,,,,
1739402019.859516,0.5255223270364063,0.09599618540568457,-0.953248138913094,-2.0690777466708377,0.13770935777622811,2.137584221041543,-1.2753505333523176,-0.0009273334199820875,-0.0005625897936841033,-0.0001986188741574218,0.001223666142223269,-0.0005816615102521233,-8.865494039072691e-05,-0.0016541094112546147,0.2411382496356964,-21.77273941040039,-2.3302161693573,22.56842803955078,0.6801248788833618,2.2615859508514404,-0.020094294100999832,,,,,,,,,
1739402019.869535,0.5255216554753118,0.09600284656096615,-0.953244641245682,-2.069076656211544,0.1377094235925627,2.137583350006539,-1.2753520470239177,-0.0006902949954129528,0.001721875123362409,-0.0003067673313206931,0.0020659330111442715,0.0009553190590984159,-0.00030582770699141837,-0.0008348340849613598,0.2411382496356964,-21.87192153930664,-2.35798716545105,22.54065704345703,0.6801248788833618,2.2679946422576904,-0.03382720425724983,,,,,,,,,
1739402019.8804593,0.525525909477314,0.0959974238954098,-0.9532419300578312,-2.0690845670743934,0.13770942489379723,2.137584860964076,-1.2753478075205946,-0.00048815787493809135,-0.0006147000231549792,-0.0002011530662342691,-0.000395875530889471,0.0003216258815214109,0.00012471970771018762,-0.002924541830159823,0.2173345386981964,-21.79654312133789,-2.38179087638855,22.61603546142578,0.6801248788833618,2.2551772594451904,-0.03382720425724983,,,,,,,,,
1739402019.8914149,0.5255261470704257,0.09600284785204893,-0.9532465444583931,-2.0690825914638933,0.13771018125377765,2.137584456516683,-1.2753488904146584,-0.0005386312910404755,0.00021386340141391232,-0.0021806153097644228,-3.435750286382505e-05,-0.0022463438198954138,0.00011355287099481987,-0.0005809998081954319,0.2173345386981964,-21.87192153930664,-2.35798716545105,22.59223175048828,0.6737161874771118,2.2615859508514404,-0.06037749722599983,,,,,,,,,
1739402019.9014904,0.5255224482776059,0.09599942367667674,-0.9532417817081259,-2.0690814341707666,0.13771018125375567,2.1375841033099547,-1.2753474074754803,-0.0017210330770027803,-0.0009066236742523423,-0.0003538426739347914,0.0004023557519365975,-0.0016121514628808908,-0.0005219906482291502,0.00022611585702917846,0.2689092457294464,-21.82431411743164,-2.38179087638855,22.61603546142578,0.6737161874771118,2.2615859508514404,-0.07411040365695953,,,,,,,,,
1739402019.9125013,0.5255279769953979,0.09600355817683703,-0.9532418478120123,-2.06908000074826,0.13770622481107436,2.1375841033039733,-1.2753475897032045,0.0015602639852510293,0.0014742701195817362,-0.000930445173857157,0.002068170769911728,-0.001503607371160276,0.00010647871594585873,0.0007928699638978843,0.1935308277606964,-21.87192153930664,-2.38179087638855,22.56842803955078,0.6801248788833618,2.2615859508514404,-0.04756011441349983,,,,,,,,,
1739402019.922523,0.5255234034640095,0.09599942282263246,-0.9532436304521447,-2.069081073994391,0.13770942792741045,2.1375848740460035,-1.2753468742563074,1.0310749688952913e-05,-0.0010030507728246917,-0.0018035147421793093,0.0003468880431753864,0.0008443037855210519,0.0009742354927110412,-1.6172191403590304e-05,0.2173345386981964,-21.82431411743164,-2.35798716545105,22.56842803955078,0.6801248788833618,2.2551772594451904,-0.05396880581974983,,,,,,,,,
1739402019.933513,0.5255231658650862,0.09600080503248144,-0.9532397679852694,-2.069082011498688,0.1377078132542771,2.1375833587259208,-1.275343750004538,0.0008565638273702808,3.0581877469081455e-05,0.0002805950086649736,-0.00011532081838273552,0.001140977006733766,-0.00042417188914403833,0.0008459724908087789,0.2173345386981964,-21.84811782836914,-2.4095618724823,22.59223175048828,0.6938577890396118,2.2679946422576904,-0.06678618490695953,,,,,,,,,
1739402019.94354,0.5255237918405199,0.09599982032164504,-0.9532436304521441,-2.0690813121467952,0.13770942359434885,2.1375841033046377,-1.275350405566619,-0.00034163127176678086,-0.0005308140310400112,-0.0012705796047429484,-0.0016756744976476428,0.00011003275082232394,-7.125716638802563e-05,0.0004126985246665217,0.2173345386981964,-21.82431411743164,-2.35798716545105,22.61603546142578,0.6801248788833618,2.2615859508514404,-0.04756011441349983,,,,,,,,,
1739402019.954484,0.5255234847556937,0.09599671458331037,-0.9532436304521441,-2.0690797776100527,0.13771019441747007,2.137584103949995,-1.2753481453266033,-0.0019202481329601289,-0.000473045540924485,-0.0007115514696562978,-0.0007176799882329709,0.00023715325452606395,-0.00014977514630335403,0.0011203483957134023,0.2411382496356964,-21.79654312133789,-2.35798716545105,22.59223175048828,0.6737161874771118,2.2615859508514404,-0.06037749722599983,,,,,,,,,
1739402019.9664125,0.5255259348197746,0.09599659334652702,-0.9532397419848894,-2.069075707626915,0.13771018076623545,2.1375848784066553,-1.2753457878499932,-0.0009429725942450469,0.0005474227857613085,0.0012475411742839935,0.0012287949672818736,-0.0011181309320102983,0.0005342949384403719,0.0011498541849753786,0.2173345386981964,-21.82431411743164,-2.4095618724823,22.54065704345703,0.6737161874771118,2.2551772594451904,-0.05396880581974983,,,,,,,,,
1739402019.9765823,0.5255231531608111,0.09599363536296929,-0.9532437474829802,-2.069081846157637,0.13771160293490975,2.13758486096415,-1.2753547860170336,0.0009947024400531726,-0.0014158675350981187,-0.001079272001222524,-0.0003243926917635923,0.0005793318988464348,-0.0008848232245438001,-0.003127210457799223,0.2173345386981964,-21.74496841430664,-2.35798716545105,22.59223175048828,0.6737161874771118,2.2551772594451904,-0.013685601763427258,,,,,,,,,
1739402019.9874198,0.5255230867178623,0.09599707995545743,-0.9532443722782291,-2.0690807258763133,0.13770884150336257,2.1375856186241298,-1.2753482530973619,-0.0006947189092851376,0.0001850551244237934,4.9120838439434625e-06,0.0011810865299893825,-0.0001543117300928516,0.00026173629477835194,-0.0003916934898490292,0.2173345386981964,-21.79654312133789,-2.35798716545105,22.56842803955078,0.6673074960708618,2.2487685680389404,-0.06037749722599983,,,,,,,,,
1739402019.9984527,0.5255237783716492,0.09599670288323046,-0.9532421745639525,-2.0690777773547127,0.13770942355815746,2.137588079124296,-1.275349804376991,0.00100902617084234,-0.0006772916988512974,0.00012911225242191,0.0012258999410724523,-0.00021430285459781367,0.0010271831172521163,-0.0005046478579787986,0.2173345386981964,-21.79654312133789,-2.38179087638855,22.56842803955078,0.6801248788833618,2.2551772594451904,-0.04756011441349983,,,,,,,,,
1739402020.0084603,0.5255241156169334,0.0960011352911722,-0.9532436304910005,-2.0690818654897987,0.1377108920943339,2.1375841033221397,-1.2753540610352272,0.0004268580944966568,0.0007521334403501458,0.0004428322959025365,-0.0008521252979701515,-7.481902258967471e-05,-0.0010578107643048461,-0.0011093120094180803,0.2173345386981964,-21.84811782836914,-2.35798716545105,22.59223175048828,0.6737161874771118,2.2615859508514404,-0.0072769103571772575,,,,,,,,,
1739402020.018485,0.525524301628484,0.09599671458106573,-0.95324813857938,-2.0690795324356883,0.13771124752666145,2.1375841033039733,-1.2753537934483792,-0.00039231516826801407,-0.0008945629837232295,-0.00140100729690908,0.0010510504750410174,0.0004601534956333127,0.00020594153175669278,-0.0009661370880461933,0.2411382496356964,-21.79654312133789,-2.3302161693573,22.59223175048828,0.6737161874771118,2.2615859508514404,-0.020094294100999832,,,,,,,,,
1739402020.0284922,0.5255202996737199,0.09600283907104054,-0.9532379943432165,-2.0690853199378316,0.13770906900402047,2.1375848624176017,-1.2753503741742496,-0.0016076218437459124,-0.00017128680639052086,0.0009029843308953684,-0.001501833384890452,-0.001480525275280584,0.000574173194615376,-0.00040327445017860426,0.2689092457294464,-21.87192153930664,-2.4333655834198,22.63983917236328,0.6801248788833618,2.2551772594451904,-0.020094294100999832,,,,,,,,,
1739402020.039413,0.5255269422125589,0.09600284767158385,-0.953241847775176,-2.0690827815780035,0.13771245423198902,2.1375833456439026,-1.2753449615519685,0.0008131974293295743,-0.0002718427943857101,0.00044308797188202895,0.0006357719170016208,0.0015237813947041583,-0.0008329275065306915,0.0017656919242885,0.1935308277606964,-21.87192153930664,-2.38179087638855,22.59223175048828,0.6544901132583618,2.2679946422576904,-0.06678618490695953,,,,,,,,,
1739402020.0495138,0.5255238786483996,0.09599945788658437,-0.9532395886855018,-2.069082002339931,0.13771023439615826,2.1375841033039733,-1.2753466495961538,-3.5219250266543694e-06,-0.00012800905642841609,0.0008281243324281403,-0.0006850511882722754,0.0014425036732438705,-0.0001384785310732769,0.0007529014617784326,0.2173345386981964,-21.82431411743164,-2.38179087638855,22.59223175048828,0.6737161874771118,2.2615859508514404,-0.08051909506320953,,,,,,,,,
1739402020.0615168,0.525521440592134,0.09600113565630987,-0.9532379852598319,-2.0690815871324917,0.13770866593389897,2.1375833456438946,-1.2753490310388182,-0.002049049540938909,-0.0007314953778887045,0.0011276469213613621,0.000516680976554169,0.00018642796888621954,-0.0017054991692650758,0.00022446983061023742,0.2411382496356964,-21.84811782836914,-2.4333655834198,22.61603546142578,0.6865335702896118,2.2679946422576904,-0.06037749722599983,,,,,,,,,
1739402020.0735228,0.5255252326421431,0.09599973853054944,-0.9532418477751248,-2.069078845551154,0.13770629809661095,2.137583816612119,-1.275348595178175,-0.000867523865206233,0.0007498714634209944,-6.560185651929758e-05,0.0013810840152707923,-0.0003523241907409725,9.746445446489488e-05,-0.00099766195757492,0.2173345386981964,-21.82431411743164,-2.38179087638855,22.56842803955078,0.7066751718521118,2.2679946422576904,-0.06678618490695953,,,,,,,,,
1739402020.0844555,0.5255241967893032,0.09599973896417975,-0.9532397679852693,-2.069079532398193,0.1377095947219899,2.1375833456447806,-1.2753540821313387,-0.000485707341514363,0.000630109982726199,0.00018798084216304874,0.0009925877598696315,-6.100942471910633e-05,-9.367972632992399e-05,-0.000693191539283425,0.2411382496356964,-21.82431411743164,-2.4095618724823,22.59223175048828,0.6801248788833618,2.2679946422576904,-0.04756011441349983,,,,,,,,,
1739402020.094491,0.5255242000556982,0.09599579127533772,-0.9532442761125046,-2.0690795663123493,0.13771226161107636,2.1375841033039733,-1.2753467713943354,-0.0003738880499451157,-0.0009586106163148388,-0.0012722626019670735,0.0010932481347133368,-0.00044698274702607306,-0.0001438031171095382,0.0010943397668640412,0.2411382496356964,-21.77273941040039,-2.38179087638855,22.59223175048828,0.6737161874771118,2.2615859508514404,-0.05396880581974983,,,,,,,,,
1739402020.1045032,0.52552137304588,0.09599571235035541,-0.9532443274362912,-2.069075950755784,0.13771094057421496,2.1375841033039733,-1.2753492121155725,-0.00027445186889025813,-0.0012273782142870778,-0.0011365137859541048,0.0008275119369182727,9.295531528500365e-05,-0.00011316190625883108,0.0009914378584895273,0.2411382496356964,-21.77273941040039,-2.35798716545105,22.54065704345703,0.6673074960708618,2.2615859508514404,-0.06678618490695953,,,,,,,,,
1739402020.1154404,0.5255194439549993,0.09599942281060306,-0.9532477360897963,-2.0690815714810102,0.13771205199421094,2.1375833456438946,-1.2753509069174138,-0.001298951851063361,-8.053112266577739e-05,-0.0012387320457253148,-0.00020004567276001142,0.001468792884775329,-0.0007135236199161702,0.00019948879818553535,0.2689092457294464,-21.82431411743164,-2.3064124584198,22.61603546142578,0.6608988046646118,2.2679946422576904,-0.04756011441349983,,,,,,,,,
1739402020.1255283,0.5255231276001812,0.09599200188743455,-0.9532427089757696,-2.0690759419413474,0.137713688643167,2.1375841037884897,-1.2753485771530133,-0.0006729797942785287,-0.0008359110659941437,0.0006829196963884153,0.0014179610578405313,0.000432994992311287,-0.0002284910006319818,0.0006804728368114515,0.2173345386981964,-21.72116470336914,-2.4095618724823,22.54065704345703,0.6801248788833618,2.2615859508514404,-0.06678618490695953,,,,,,,,,
1739402020.1365337,0.5255230603357811,0.09599674709055782,-0.9532418521220953,-2.0690777508511977,0.13771088479005375,2.1375849002099105,-1.2753549796397528,-2.8617828523129214e-05,0.0006879022230597736,0.002051668922675602,0.001115769292447223,0.001351352637242233,0.0015160423194339318,-0.0007550785730257195,0.2173345386981964,-21.77273941040039,-2.38179087638855,22.56842803955078,0.6801248788833618,2.2551772594451904,-0.027418512850999832,,,,,,,,,
1739402020.1475368,0.5255242339113612,0.0959977406677097,-0.9532397679852939,-2.06908357389025,0.13770898925352176,2.1375848609642727,-1.2753486354337928,0.0005962932285807602,0.001114471260011,0.0016631958844503922,-0.0007270577439420392,-0.0011593233495110476,4.233991609587623e-05,0.0011254090658073953,0.2411382496356964,-21.79654312133789,-2.4095618724823,22.61603546142578,0.6801248788833618,2.2551772594451904,-0.06678618490695953,,,,,,,,,
1739402020.158478,0.5255237663410479,0.09599871154936927,-0.9532436309332961,-2.0690820537801473,0.1377104898520931,2.1375833456438946,-1.2753514002476203,-0.0005655936782640219,-0.0007942958726796049,0.00024639456207659765,0.0003227970348906137,0.0009341362207702915,-0.0003333435146678363,-0.0003579872308740459,0.2173345386981964,-21.82431411743164,-2.35798716545105,22.61603546142578,0.6801248788833618,2.2679946422576904,-0.04023589566349983,,,,,,,,,
1739402020.1685429,0.5255245414583596,0.09600084337592493,-0.9532443679472082,-2.0690799820941357,0.13771278035891044,2.137585216276334,-1.2753525170561333,0.0013854722386469208,-0.00048795900052514476,-0.0008720774008319028,0.0005109395719946527,0.0006603984154673169,0.0004448580223900357,-0.0010416848483346343,0.2411382496356964,-21.82431411743164,-2.35798716545105,22.56842803955078,0.6801248788833618,2.2551772594451904,-0.03382720425724983,,,,,,,,,
1739402020.179409,0.5255222897694631,0.09600113535539163,-0.9532436314639494,-2.0690800909903446,0.13770459692270595,2.137582992437202,-1.2753463213546579,-0.00024373046377000726,0.00038911513939501717,-0.000117378475345731,0.00037725082008745366,-0.0026306717436668315,-0.0008363354438792605,0.0017816273390582188,0.2411382496356964,-21.84811782836914,-2.35798716545105,22.56842803955078,0.6938577890396118,2.2679946422576904,-0.07411040365695953,,,,,,,,,
1739402020.190519,0.5255247951371075,0.09600113240833567,-0.953241953822022,-2.069082004898328,0.13771169655583065,2.137584861446574,-1.2753502684733637,0.0006433650177808168,-0.0007206447439866001,-8.809449804547502e-05,0.001000550795875188,-0.00024401723982384754,0.00048633112829978443,0.00017178048114755155,0.1935308277606964,-21.84811782836914,-2.4095618724823,22.59223175048828,0.6608988046646118,2.2551772594451904,-0.05396880581974983,,,,,,,,,
1739402020.2025106,0.525525801678989,0.09599742519452212,-0.9532418480890146,-2.0690796485197085,0.13771018076621064,2.137584861448569,-1.2753563748632313,0.0015632077414828385,-0.0008924250100503998,-0.0012813227513679489,-3.8841583886796703e-05,0.0007679343072696371,-0.00024202208383522947,-0.0017879749666169413,0.1935308277606964,-21.79654312133789,-2.38179087638855,22.59223175048828,0.6737161874771118,2.2551772594451904,-0.0008682189509272575,,,,,,,,,
1739402020.213422,0.5255213464032664,0.09600284796032647,-0.9532379853082521,-2.0690803151767443,0.1377098955372136,2.137584103303976,-1.2753530693892834,-0.0015390852576167514,0.0010443721335376445,0.00018976463787586474,0.0002432733429245063,0.0007633244707094586,-0.0005191729260443134,-0.000834619972546222,0.2411382496356964,-21.87192153930664,-2.4333655834198,22.56842803955078,0.6801248788833618,2.2615859508514404,-0.020094294100999832,,,,,,,,,
1739402020.2235131,0.5255217218497782,0.09600295697735076,-0.9532418507730723,-2.06908132424501,0.13770698686172167,2.1375833462899165,-1.2753458040694456,-0.0016547901148587368,0.0006583518632871782,-0.0008533874800140599,0.00011567325860937616,-0.0009977304532457069,-0.00017219038262449764,0.0019530425007038394,0.2689092457294464,-21.87192153930664,-2.38179087638855,22.61603546142578,0.6737161874771118,2.2679946422576904,-0.05396880581974983,,,,,,,,,
1739402020.2344751,0.5255220528362681,0.09599784368480878,-0.9532379853082673,-2.0690817925699236,0.13770942406318987,2.1375844565166866,-1.275354786513755,-0.000596077517796951,-0.001152532583326901,0.0011825856258728521,0.0004958527947125431,-0.0006714888202580232,0.00038169446428926244,-0.0007472900948246353,0.2411382496356964,-21.77273941040039,-2.4333655834198,22.59223175048828,0.6801248788833618,2.2615859508514404,-0.013685601763427258,,,,,,,,,
1739402020.244484,0.5255232855994265,0.0960016593376676,-0.9532397679852694,-2.069079640703699,0.13771093891385786,2.1375856186420745,-1.2753485114379297,-0.0009403228158726807,4.060673614282589e-05,0.0009131496670215201,-0.00022790063677169246,0.00043250656749356335,0.0003470895745200768,0.000996512216473089,0.2173345386981964,-21.82431411743164,-2.4095618724823,22.59223175048828,0.6673074960708618,2.2487685680389404,-0.04023589566349983,,,,,,,,,
1739402020.2554126,0.5255213346240759,0.09599745248005721,-0.9532457922352436,-2.0690815724971023,0.13770866447096403,2.1375856186241298,-1.2753508681709047,-0.0012435589316404216,-0.0005468918869626122,-0.00021088225590461831,0.0004426363547065885,-0.0010498838143806453,-5.479570899865702e-05,-2.7673724798257566e-05,0.2411382496356964,-21.79654312133789,-2.3302161693573,22.61603546142578,0.6865335702896118,2.2487685680389404,-0.04756011441349983,,,,,,,,,
1739402020.2654285,0.5255230482345211,0.09599681960758333,-0.9532420906102514,-2.069083095832658,0.13771093891380923,2.137585619108646,-1.2753553086296834,-0.0013157574036608008,-0.00033483589941764476,-9.239393666734738e-05,0.00010107228350885692,0.00029083355125460864,4.2040042112753874e-05,-0.0011655833793425188,0.2173345386981964,-21.74496841430664,-2.38179087638855,22.63983917236328,0.6673074960708618,2.2487685680389404,-0.0072769103571772575,,,,,,,,,
1739402020.2764764,0.5255213346236334,0.0959974245625013,-0.9532436394843686,-2.069078894452822,0.1377094235936773,2.1375825189925215,-1.2753492724008368,-0.0009495240118496472,0.0002970905503122016,0.00043612416285176736,0.0001154341271726398,-0.0014731708004397514,-0.00021912671038648872,0.0011714631682494846,0.2411382496356964,-21.79654312133789,-2.35798716545105,22.54065704345703,0.6801248788833618,2.2753188610076904,-0.06037749722599983,,,,,,,,,
1739402020.2864902,0.5255240361399458,0.09599942281059785,-0.9532397679854223,-2.069078735716897,0.13771169608636735,2.137584860964716,-1.2753501512264418,-3.9189501240776085e-05,-4.462621160061564e-05,0.0018776080233822345,0.0006504912694339157,0.00019378919301401946,-9.206462725624963e-05,0.0003475141653154317,0.2173345386981964,-21.82431411743164,-2.4095618724823,22.56842803955078,0.6608988046646118,2.2551772594451904,-0.05396880581974983,,,,,,,,,
1739402020.2975142,0.5255255226913653,0.09600184695521474,-0.9532475019128608,-2.069082093411887,0.13770987904521997,2.1375841033039733,-1.2753508949950492,-0.0005012231699778701,0.0016430339920617517,-0.0005132216285455406,-0.000573359599700015,-0.0007873522862163872,-8.546881855458878e-05,-2.907671679789581e-05,0.2173345386981964,-21.84811782836914,-2.3064124584198,22.59223175048828,0.6673074960708618,2.2615859508514404,-0.04756011441349983,,,,,,,,,
1739402020.309452,0.5255270153346747,0.0959935785639865,-0.9532451155748342,-2.0690828539721022,0.13770866657767594,2.137584105403546,-1.275348824695407,0.0016212609379993674,-0.0021290557089054278,-0.0017674842966996296,0.00015613910299918605,-0.001372161675693503,4.4575627889183205e-05,8.818228864860655e-05,0.1935308277606964,-21.77273941040039,-2.38179087638855,22.59223175048828,0.6865335702896118,2.2615859508514404,-0.07411040365695953,,,,,,,,,
1739402020.3204823,0.5255231660211631,0.09599742485770471,-0.9532397680037162,-2.069080307738594,0.13770982583347008,2.1375866659713827,-1.2753549087151466,0.0005471673397430274,-0.00032891708716106246,-9.285106370384731e-05,0.0006619498610203051,-0.00039546078984736957,7.801779377728359e-06,-0.0012636334837041326,0.2173345386981964,-21.79654312133789,-2.4095618724823,22.59223175048828,0.6737161874771118,2.2753188610076904,-0.013685601763427258,,,,,,,,,
1739402020.3324745,0.5255231306510437,0.09600113533133421,-0.9532437078779206,-2.06908409296518,0.13770774013056228,2.1375824855866856,-1.2753564284990055,0.00019810774323654934,0.0006676811606505082,-0.0007800955798129006,-0.0011843785401691549,-0.0006822655679528384,-0.0003663534654143361,-0.002105249886428762,0.2173345386981964,-21.84811782836914,-2.35798716545105,22.63983917236328,0.6673074960708618,2.2753188610076904,-0.0008682189509272575,,,,,,,,,
1739402020.3434024,0.5255220498916345,0.09600284784003663,-0.9532418567691128,-2.0690834563590377,0.13771186101788396,2.137585017947489,-1.2753475484513035,0.0001297676356348123,0.00015353158577385584,5.048589845918231e-05,-0.00046189468198614715,0.00024292179263573325,-0.0001221911991125446,0.00025248584716304,0.2411382496356964,-21.87192153930664,-2.38179087638855,22.63983917236328,0.6673074960708618,2.2551772594451904,-0.06678618490695953,,,,,,,,,
1739402020.3534956,0.5255293459757865,0.09600137306856146,-0.9532397709833691,-2.069079639238193,0.13771053733972075,2.137586681544368,-1.2753509083856394,0.0011432505398764172,3.3830338081085255e-05,0.0004177241408801662,0.00018574443564859592,0.0011088248433180313,0.0005052184861388349,0.00022230161713730035,0.1697271168231964,-21.84811782836914,-2.4095618724823,22.59223175048828,0.6737161874771118,2.2679946422576904,-0.04756011441349983,,,,,,,,,
1739402020.3635254,0.5255230485985573,0.09599939521658254,-0.9532436304522963,-2.0690846497167987,0.1377086791154044,2.1375830438353254,-1.2753508547680423,-0.0007916332290241149,-0.0006648660579612147,-0.0011172532151743247,-0.0020591747972128756,-0.0014633257199996132,-0.0004344592726323017,0.00019891179415667528,0.2173345386981964,-21.82431411743164,-2.35798716545105,22.61603546142578,0.6865335702896118,2.2615859508514404,-0.04756011441349983,,,,,,,,,
1739402020.37444,0.5255271884348202,0.09600145198947457,-0.9532397681333161,-2.0690861819173008,0.13771018123572323,2.1375848609620576,-1.2753486334376332,0.001399603106829542,0.0006718514636266278,0.0016905416057980186,-0.001703344484058999,-0.00016644996190758884,0.0003507439295753386,0.0013565644396743872,0.1697271168231964,-21.84811782836914,-2.4095618724823,22.63983917236328,0.6737161874771118,2.2551772594451904,-0.06678618490695953,,,,,,,,,
1739402020.3844762,0.5255242349045628,0.09600113436236396,-0.9532436304521466,-2.0690806378895203,0.13771018564166015,2.1375841037884897,-1.2753501507439353,0.0006094907199383599,0.00018499863656777708,-0.000317622210003093,0.00020053148106522704,0.0007128821026211958,-0.00048482214969868453,0.00025149707239384184,0.2411382496356964,-21.84811782836914,-2.35798716545105,22.59223175048828,0.6737161874771118,2.2615859508514404,-0.05396880581974983,,,,,,,,,
1739402020.3954525,0.5255232978254706,0.09600230207257417,-0.9532419290528096,-2.0690827439247483,0.13771018125378043,2.137584860964054,-1.275351396317651,0.0003185066419316181,0.0012760974097666378,0.00038052649430223094,0.0014974827723438777,-0.00046742077674702024,0.00025212202596171365,0.0009407531248736742,0.2173345386981964,-21.82431411743164,-2.38179087638855,22.59223175048828,0.6737161874771118,2.2551772594451904,-0.04023589566349983,,,,,,,,,
1739402020.4054823,0.5255193485697928,0.09600029238023312,-0.9532418747580278,-2.069084567123248,0.13770942310613232,2.1375841037884897,-1.2753507862267481,-0.0008354965800452462,0.0004250879640667203,-0.00032286974405918356,-0.00016589965602898486,-0.00046861967523786517,-0.0002696822948717311,0.001985370678656292,0.2689092457294464,-21.79654312133789,-2.38179087638855,22.61603546142578,0.6801248788833618,2.2615859508514404,-0.04756011441349983,,,,,,,,,
1739402020.4164407,0.5255230866446535,0.09599942672412183,-0.9532428192212642,-2.0690788547263783,0.13771095224006064,2.1375833587258497,-1.275348702405626,0.0003735900650642345,0.0011983002621249895,-0.0006703406871382264,-0.00045053705015329773,0.0011754523919183164,-0.00019827600903337067,0.0027481366806380017,0.2173345386981964,-21.82431411743164,-2.38179087638855,22.56842803955078,0.6673074960708618,2.2679946422576904,-0.05396880581974983,,,,,,,,,
1739402020.4264474,0.5255235073185264,0.0959994491176576,-0.9532446022476878,-2.0690778382590813,0.13770866593382464,2.137582492828836,-1.2753501507194411,-0.00020778650144273242,0.0015097416938679763,0.0002536512446117145,0.00037428949420874097,-0.00015828961850984982,-0.00021192743180385352,0.0013100039049598385,0.2411382496356964,-21.82431411743164,-2.35798716545105,22.56842803955078,0.6865335702896118,2.2753188610076904,-0.05396880581974983,,,,,,,,,
1739402020.4374743,0.5255257222065185,0.095996663298374,-0.9532436434597068,-2.069077756277784,0.13771018141627064,2.1375835026275425,-1.2753516402112692,3.3540466173214486e-05,-0.00011128828251517734,-0.0010383636031444804,0.0007663637771383939,-0.0008206809225861689,-0.00019229440743977048,-0.00026742234187260034,0.1935308277606964,-21.77273941040039,-2.35798716545105,22.56842803955078,0.6737161874771118,2.2679946422576904,-0.04023589566349983,,,,,,,,,
1739402020.4474785,0.5255230765841844,0.0959977435902354,-0.9532397680963779,-2.069080301722711,0.13770989754156884,2.1375880398793257,-1.2753517743543579,-0.0012371324942702143,0.0007245969894283243,0.0010607107728114458,0.0005814897886445422,0.00028673278904277593,0.0005744733571962259,0.00029678999034771686,0.2173345386981964,-21.79654312133789,-2.4095618724823,22.56842803955078,0.6801248788833618,2.2551772594451904,-0.04023589566349983,,,,,,,,,
1739402020.4575133,0.5255200519390101,0.09599573866140464,-0.9532418734726839,-2.06908342576282,0.13770866610414031,2.137584865378537,-1.2753490646148873,-0.002051663581003992,-0.0016440636898136206,-0.000614941255039398,-0.0020603708664575183,0.00040861388907049474,-0.0002513149867763864,0.0012978659487840691,0.2689092457294464,-21.77273941040039,-2.38179087638855,22.63983917236328,0.6865335702896118,2.2551772594451904,-0.05396880581974983,,,,,,,,,
1739402020.4675224,0.5255240803036475,0.09599939650406038,-0.9532423029652206,-2.069078497576314,0.13771018125375856,2.1375849029391136,-1.2753477696701323,0.0005774335961380246,0.0006195665496071674,-0.0007092189741872856,0.00045652895265276206,-0.0002522273107114991,-0.0007257918848392094,0.0023349578864506107,0.2173345386981964,-21.82431411743164,-2.4095618724823,22.56842803955078,0.6737161874771118,2.2817275524139404,-0.07411040365695953,,,,,,,,,
1739402020.4785018,0.5255220588361952,0.09599989772620285,-0.9532397680281995,-2.0690777833088334,0.13770946519751548,2.1375859250166993,-1.275346254206866,-0.0008051206156377112,1.6512882781061298e-05,0.0021405927782572115,0.0019624618595935495,-0.0006959990216238697,-0.00014146002735851106,0.0012552448750550273,0.2411382496356964,-21.79654312133789,-2.4095618724823,22.56842803955078,0.6801248788833618,2.2551772594451904,-0.08692778646945953,,,,,,,,,
1739402020.4894104,0.5255220508618736,0.09599942281525617,-0.9532436332771459,-2.0690835403258463,0.13771018271646887,2.1375848609660535,-1.275350692532848,-0.000715132020236098,-2.8996420998218266e-05,-0.0006126551250584763,-0.0006221933547738045,-0.0006027054281794568,0.001102313459082595,-0.0009542765186474066,0.2411382496356964,-21.82431411743164,-2.35798716545105,22.61603546142578,0.6737161874771118,2.2551772594451904,-0.04023589566349983,,,,,,,,,
1739402020.4995105,0.5255231632588139,0.0960001330992867,-0.9532435957850185,-2.069080012078596,0.13771018125378043,2.1375849132918603,-1.2753556703239861,0.00018080790336598142,0.0005106218005658207,-0.0010921431460138493,0.0007368201394184388,0.0007013982026470238,0.0001794416575220168,-0.002582125805854923,0.2173345386981964,-21.82431411743164,-2.35798716545105,22.56842803955078,0.6737161874771118,2.2551772594451904,-0.0072769103571772575,,,,,,,,,
1739402020.511572,0.525523128035085,0.09600284785607503,-0.9532418477749292,-2.0690843198703845,0.13771093940137896,2.137584860964347,-1.2753540348376566,0.0007408799137702754,-0.0008212635224202828,0.000578972094834921,0.0002399829995098287,0.0007117656019048975,0.00016981968344928388,-0.0008491326768929144,0.2173345386981964,-21.87192153930664,-2.38179087638855,22.61603546142578,0.6673074960708618,2.2551772594451904,-0.020094294100999832,,,,,,,,,
1739402020.5224464,0.525525201778379,0.09600014483939663,-0.9532418477751249,-2.0690802833560884,0.13770946308482146,2.1375833456618394,-1.2753517742458715,-0.00025414586533175493,0.0003045708744729282,-0.0001434342464914925,0.0015057408664876535,-0.0011151852730082864,0.0003126645846133167,-0.0012577029142090523,0.2173345386981964,-21.82431411743164,-2.38179087638855,22.59223175048828,0.6801248788833618,2.2679946422576904,-0.04023589566349983,,,,,,,,,
1739402020.5325022,0.5255220587461712,0.09599942412194121,-0.953243630452144,-2.069078637041836,0.13771142597193614,2.137586094096566,-1.2753486309545847,0.0002764629414554715,-0.00034379714288555025,0.000735789226195581,0.0007081442020047844,0.0020049247273629693,0.0019854801644907305,0.002023329422994591,0.2411382496356964,-21.82431411743164,-2.35798716545105,22.54065704345703,0.6673074960708618,2.2487685680389404,-0.06678618490695953,,,,,,,,,
1739402020.5434794,0.525523772659888,0.09599813515845577,-0.9532457192358418,-2.0690764467729528,0.13771137332465808,2.1375853319223834,-1.275349388614148,0.0010922834849820713,-0.001241121651782147,-2.1460920622527052e-05,0.0013436467369640002,0.0010729956124905056,-0.00027969163610065445,0.0006246682597513073,0.2173345386981964,-21.79654312133789,-2.3302161693573,22.54065704345703,0.6673074960708618,2.2551772594451904,-0.06037749722599983,,,,,,,,,
1739402020.554427,0.525521449419123,0.0959994258792839,-0.9532381934748319,-2.069079817632603,0.1377109345267466,2.1375898625251626,-1.2753501507439606,-0.0008023056614163512,-0.0005255298988491818,0.0020347178763972925,0.0004539265845395466,0.00020609323509999724,0.0019092515455807432,-0.0004438983321906712,0.2411382496356964,-21.82431411743164,-2.4333655834198,22.59223175048828,0.6673074960708618,2.2487685680389404,-0.05396880581974983,,,,,,,,,
1739402020.5654016,0.5255247728567062,0.09600397551175295,-0.9532457915208593,-2.0690780224067598,0.13771169673640257,2.1375833457216866,-1.2753509084040473,-0.0003055528088234557,0.0007760435818197503,-0.001142774036804729,0.0016980651599565592,-0.00038783776404811555,-0.0007703132384996999,-0.0010454439968136165,0.1935308277606964,-21.84811782836914,-2.3302161693573,22.56842803955078,0.6608988046646118,2.2679946422576904,-0.04756011441349983,,,,,,,,,
1739402020.575437,0.5255213474877702,0.09600113635376584,-0.9532418491089225,-2.0690809888312947,0.13771093891383673,2.1375848609640524,-1.2753517744627854,-0.00032402300294056717,0.00021559956720005517,7.460080376327647e-05,0.0006262696606221326,-0.0009530021027385245,-0.0011463543820344015,-0.0002311540638620242,0.2411382496356964,-21.84811782836914,-2.38179087638855,22.56842803955078,0.6673074960708618,2.2551772594451904,-0.04023589566349983,,,,,,,,,
1739402020.5854635,0.5255215741325868,0.09599942281062036,-0.9532420793862663,-2.069081056939984,0.13771094037646892,2.137583346128411,-1.2753493930838935,-0.00035535385455480077,0.00011412697159809558,0.0006265102807112501,-0.001055056538580683,-0.00019860286211904524,-0.00017517716301252052,-5.3884428853632105e-05,0.2411382496356964,-21.82431411743164,-2.38179087638855,22.56842803955078,0.6673074960708618,2.2679946422576904,-0.06037749722599983,,,,,,,,,
1739402020.5964088,0.5255240273109801,0.09600061539407177,-0.9532376659530578,-2.0690828627568347,0.13771160358498075,2.1375833456977325,-1.2753509084040475,0.0009568360101067657,0.0004364159513167915,0.0007428284260097933,-0.000864180155658524,0.0011288106880104425,-0.0001576401883147515,-0.0008610647704242614,0.2173345386981964,-21.82431411743164,-2.4095618724823,22.59223175048828,0.6737161874771118,2.2679946422576904,-0.04756011441349983,,,,,,,,,
1739402020.6064982,0.5255240008352741,0.09600485847944269,-0.9532397419492912,-2.069081758710134,0.13770942361776461,2.1375849002099088,-1.2753485149047492,0.0008811011432196786,0.001352827759882326,0.00036771687625940545,-0.0011018359773988821,-0.0009432781857199765,-5.917947494985651e-05,0.0005379020112713366,0.2173345386981964,-21.89969253540039,-2.4095618724823,22.59223175048828,0.6801248788833618,2.2551772594451904,-0.06678618490695953,,,,,,,,,
1739402020.6174133,0.5255254850647235,0.09599668827414974,-0.9532436304163312,-2.0690795582226857,0.13771100076914958,2.137586415691792,-1.2753567302556603,0.0006597626543820653,-0.0013407970793032527,-0.0006423511051512202,-0.0006138922002665807,-0.00015398166345753747,0.0007468877148982867,-0.0020630623428195107,0.1935308277606964,-21.79654312133789,-2.35798716545105,22.59223175048828,0.6938577890396118,2.2423598766326904,-0.0072769103571772575,,,,,,,,,
1739402020.627477,0.5255230543517169,0.09599743373453098,-0.9532397679852688,-2.0690798681667215,0.13771217052183599,2.137584142550497,-1.2753486354421941,-0.0006512278230878545,-0.0005444854314305251,0.0003546521267999736,-0.00021538581581282274,0.0007429433614952329,-0.00016647903822667088,0.0010396020304350808,0.2173345386981964,-21.79654312133789,-2.4095618724823,22.59223175048828,0.6608988046646118,2.2615859508514404,-0.06678618490695953,,,,,,,,,
1739402020.6374803,0.5255248479686333,0.09599934389008859,-0.95324282310734,-2.0690777836524923,0.13771425619394573,2.1375848609660455,-1.2753558462241372,0.001213688950965,-0.00020097394626822547,-0.0005922402118607032,0.0008436607600222926,0.000923681460304018,-0.0002560458989401203,-0.0016413515514268917,0.1935308277606964,-21.82431411743164,-2.38179087638855,22.56842803955078,0.6673074960708618,2.2551772594451904,0.0064559997990727425,,,,,,,,,
1739402020.648486,0.5255235892982574,0.09599742779260019,-0.9532465449029752,-2.0690813247204805,0.13770866528978104,2.137584405335859,-1.2753532939793621,-0.00027820000342031724,-0.00017374718088602662,-0.0014351682375737754,-7.13435339375621e-06,-0.0016606949020541361,-0.0004129549918500624,-0.0021192595461364877,0.2411382496356964,-21.79654312133789,-2.35798716545105,22.61603546142578,0.6865335702896118,2.2679946422576904,-0.027418512850999832,,,,,,,,,
1739402020.6585298,0.5255252998947127,0.09599942573365125,-0.9532457117348122,-2.0690814254139736,0.13771018125374473,2.1375841193109717,-1.2753452087349484,0.0005297925764203208,-0.00010715897246467689,-0.00090497884822911,-0.0003393232039747452,4.505798959956675e-05,-0.0005544936104179962,0.001145969982884416,0.2173345386981964,-21.82431411743164,-2.3302161693573,22.61603546142578,0.6737161874771118,2.2615859508514404,-0.07411040365695953,,,,,,,,,
1739402020.6704519,0.5255238448291115,0.09600184576437992,-0.953242819258132,-2.0690813131895527,0.13771053521140994,2.1375824797467526,-1.2753580520418688,0.0001792357258889898,0.001014123656956196,0.00018890444223106507,0.0010177164080303481,-0.00032029077329516655,-0.0009311647117155883,-0.0020246743913000386,0.2173345386981964,-21.84811782836914,-2.38179087638855,22.61603546142578,0.6737161874771118,2.2753188610076904,0.012864691205322742,,,,,,,,,
1739402020.6804688,0.5255259202726164,0.09600577962376977,-0.9532436574391545,-2.069084554745939,0.1377108599335456,2.1375848609640515,-1.2753517340742766,0.0007933747165558697,0.0013128084398000743,-0.00015084992255450078,-0.001020153755092422,0.00010437916880462478,-2.536779966198362e-05,0.0013075966208690032,0.2173345386981964,-21.87192153930664,-2.35798716545105,22.61603546142578,0.6673074960708618,2.2551772594451904,-0.04023589566349983,,,,,,,,,
1739402020.6924355,0.5255213346398461,0.09599743365529602,-0.9532458204343534,-2.069086318146723,0.13771093891338815,2.1375865245582824,-1.2753493935681803,-0.0009530381237926504,-0.0016304469966769443,0.0005342193256520652,-0.00046863347719446004,-0.0010472794323257264,-0.0003164770860982924,0.0005765391907259272,0.2411382496356964,-21.79654312133789,-2.35798716545105,22.63983917236328,0.6673074960708618,2.2679946422576904,-0.06037749722599983,,,,,,,,,
1739402020.7024968,0.5255234803908392,0.0960014598924985,-0.953237985431648,-2.069083895885953,0.13771093891383399,2.137584103321918,-1.2753549111923412,-0.0002400410827745714,-0.00017684721851210405,0.0010502681309962382,-0.00015971241038103667,3.0193598293094944e-05,-0.0006865588130642837,-0.0009900097302376362,0.2411382496356964,-21.84811782836914,-2.4333655834198,22.61603546142578,0.6673074960708618,2.2615859508514404,-0.013685601763427258,,,,,,,,,
1739402020.7134707,0.5255237276518488,0.09600521645717573,-0.9532397719825333,-2.069082853934529,0.1377112943341232,2.137584273369352,-1.2753543492595547,0.0005476358558796216,0.0015254558357037293,0.0007709436137814329,-0.0005120465158733735,0.0007912922819461392,0.00025760859189065806,-0.0008931956164866706,0.2411382496356964,-21.87192153930664,-2.4095618724823,22.59223175048828,0.6673074960708618,2.2615859508514404,-0.027418512850999832,,,,,,,,,
1739402020.7244368,0.525525206143065,0.09600113537144678,-0.9532433964487915,-2.069080391209913,0.13771170031777624,2.1375877967780283,-1.2753522035102989,0.0012594190058547758,0.0014004494476759343,-7.853398614914931e-05,-0.0003573856869331744,0.00025460311466426756,0.0018415422371343027,-0.00037821507836757827,0.2173345386981964,-21.84811782836914,-2.35798716545105,22.59223175048828,0.6608988046646118,2.2615859508514404,-0.027418512850999832,,,,,,,,,
1739402020.7345498,0.5255252282450289,0.09599742505018223,-0.9532418847484884,-2.0690796494117856,0.137712360595012,2.1375889152969374,-1.2753493930777595,-4.964694647177444e-05,-0.00064123585554791,-0.0003660449854144936,-0.00019118095743502226,0.0012285317590519681,0.0011857071955180733,0.0006608982111259955,0.2173345386981964,-21.79654312133789,-2.38179087638855,22.59223175048828,0.6673074960708618,2.2487685680389404,-0.06037749722599983,,,,,,,,,
1739402020.7455049,0.5255259115837491,0.09599942378493902,-0.953241847775751,-2.069081795285182,0.13771058935297883,2.1375835159266083,-1.2753502192061854,0.0004623153703007301,0.000514782624213293,-0.0006625720288609355,0.00014512078814582282,4.2836326655559137e-05,0.0003696100067194632,0.001400277842537241,0.2173345386981964,-21.82431411743164,-2.38179087638855,22.59223175048828,0.6737161874771118,2.2679946422576904,-0.05396880581974983,,,,,,,,,
1739402020.7564359,0.5255215663009994,0.09600113922866767,-0.9532397679852694,-2.0690810477445365,0.13771018125452356,2.137585658661371,-1.2753588502379691,-0.0008466672556783669,0.00024067075924947678,0.00023500292335644675,-0.00026529668299124477,-0.0015434482034968327,0.0001792339122451093,-0.0014115126550665843,0.2689092457294464,-21.84811782836914,-2.4095618724823,22.56842803955078,0.6737161874771118,2.2753188610076904,-0.0072769103571772575,,,,,,,,,
1739402020.7664564,0.5255252194402823,0.0959994231354467,-0.9532407663017477,-2.0690853478049447,0.13771018125375567,2.1375841033578085,-1.275348635962613,0.0004800640256147895,0.0010178888796577206,-0.0006542943657895164,-0.0012821380210920937,-3.377204066635459e-05,-0.0004223058960818538,0.001054912160218473,0.2173345386981964,-21.82431411743164,-2.4095618724823,22.63983917236328,0.6737161874771118,2.2615859508514404,-0.06678618490695953,,,,,,,,,
1739402020.7764657,0.5255213350964804,0.0959975300977086,-0.9532418877646632,-2.069075790482873,0.13771084527483418,2.1375849791861388,-1.2753493930838997,2.488483061855709e-05,-0.0001633574189391821,0.00024236369075485509,0.0009182925062113409,0.0008034305948579146,-0.00022191336989696344,0.0011192551168609224,0.2411382496356964,-21.79654312133789,-2.38179087638855,22.54065704345703,0.6801248788833618,2.2551772594451904,-0.06037749722599983,,,,,,,,,
1739402020.7874053,0.5255233651811549,0.09599943450319186,-0.9532447217052169,-2.06907997499756,0.13771399724596264,2.1375851629427696,-1.2753552153183036,0.000939402605602055,0.0003998653391877403,-0.0014052981420084659,0.00042295043583939296,0.00033635559011348096,8.712942019472808e-05,-0.00045760433395546535,0.2173345386981964,-21.82431411743164,-2.35798716545105,22.56842803955078,0.6865335702896118,2.2615859508514404,-0.020094294100999832,,,,,,,,,
1739402020.7994385,0.5255238727263547,0.09600013309935264,-0.9532420940941224,-2.0690831083898096,0.13770903601033296,2.1375865266638368,-1.2753509084100298,0.0006844791929688596,-4.4858001751095535e-05,0.0006965105085087815,-0.0013538165002552048,-0.0008029343850352226,0.0009256677146808496,0.0011033443521566478,0.2173345386981964,-21.82431411743164,-2.38179087638855,22.63983917236328,0.6865335702896118,2.2679946422576904,-0.04756011441349983,,,,,,,,,
1739402020.8114097,0.5255231266672232,0.0960039768121827,-0.9532436308350617,-2.069083123576726,0.137710181416967,2.1375891169651573,-1.275348635496033,-0.00012941434863235847,0.0016220504940733086,0.0009648362384918743,0.0010060102897655268,-3.0994147337405604e-05,0.002013476819176838,0.0004676296651010436,0.2173345386981964,-21.84811782836914,-2.35798716545105,22.63983917236328,0.6737161874771118,2.2551772594451904,-0.06678618490695953,,,,,,,,,
1739402020.8214571,0.5255240140464309,0.09599743379913193,-0.9532428465357458,-2.0690795609235577,0.13771262237628118,2.137585024270221,-1.2753549131788575,0.0008304353545247146,-0.0011480538398530489,0.0008811729944645111,5.765105413583127e-05,-0.0004750482505961668,0.00045111286315999393,-0.0025509543613931327,0.2173345386981964,-21.79654312133789,-2.38179087638855,22.59223175048828,0.6801248788833618,2.2551772594451904,-0.013685601763427258,,,,,,,,,
1739402020.8325305,0.5255216625500209,0.09600397367137944,-0.9532421805529224,-2.069083547774952,0.1377086679018361,2.137585924963753,-1.275350146274302,-0.00010041884983189779,0.0012982552944608334,0.0007228246125042901,-9.600686789506163e-05,0.0007465287494840308,0.0006075999068943265,0.0020811910499079836,0.2411382496356964,-21.84811782836914,-2.38179087638855,22.61603546142578,0.6865335702896118,2.2551772594451904,-0.05396880581974983,,,,,,,,,
1739402020.8434122,0.5255213346254783,0.09599952805457869,-0.953244232877922,-2.0690798906012113,0.13771185453849644,2.137587282224368,-1.2753501507439438,-0.0007864665374127775,-0.0013961333823381112,-0.0015422362805483552,0.0016786073515110882,0.0009579969058385185,0.0010413257386170662,0.0015853599844065,0.2411382496356964,-21.82431411743164,-2.35798716545105,22.59223175048828,0.6608988046646118,2.2615859508514404,-0.05396880581974983,,,,,,,,,
1739402020.8534663,0.5255253002925948,0.09600226494145256,-0.9532436304623462,-2.0690802756186346,0.1377116965765875,2.137586695758697,-1.275354362341518,0.0004911603810435808,-0.0003016826520146169,-0.0005642528992824959,0.0013689573025876085,0.000279687723492298,0.001345386255198196,-0.0006796056955872807,0.2173345386981964,-21.82431411743164,-2.35798716545105,22.59223175048828,0.6608988046646118,2.2487685680389404,-0.027418512850999832,,,,,,,,,
1739402020.8643982,0.5255201314240904,0.09599950189195743,-0.9532383934536486,-2.0690805583645537,0.13771425763250164,2.137583345649975,-1.2753488814990142,-5.806704459943089e-05,-0.0004696308800716694,0.0006058167830467823,-0.0012619487947207284,6.411466562056034e-05,-0.0006328701749093998,0.0006700616176976281,0.2689092457294464,-21.82431411743164,-2.4095618724823,22.59223175048828,0.6673074960708618,2.2679946422576904,-0.07411040365695953,,,,,,,,,
1739402020.8745246,0.5255237198040236,0.09599571332469094,-0.9532418476448496,-2.0690785708470667,0.1377101351405185,2.1375848609640515,-1.2753529676341608,0.000568827156631797,-0.0020226345405252874,-0.00036908168741794716,0.0007904898804967191,-0.0011667226825356988,-0.0009452074631465077,0.0007639809079804511,0.2411382496356964,-21.77273941040039,-2.38179087638855,22.56842803955078,0.6801248788833618,2.2551772594451904,-0.05396880581974983,,,,,,,,,
1739402020.8865085,0.5255213464471874,0.09599966054783599,-0.9532416137717039,-2.069080713771119,0.13771093956791067,2.1375859732903897,-1.275353307133776,-0.0011308150683635215,-0.00020384602324704544,-0.0006521290442982005,-0.0004592013807786344,-0.00013219938971014222,0.00014409227683014492,0.0004136195201040248,0.2411382496356964,-21.82431411743164,-2.38179087638855,22.56842803955078,0.6673074960708618,2.2487685680389404,-0.027418512850999832,,,,,,,,,
1739402020.897415,0.5255247596651119,0.0959994257340491,-0.9532421714460044,-2.0690780795155006,0.13770622677931274,2.1375841556324495,-1.275355503174935,-5.6809369272881266e-05,0.0005573446595436676,-0.00048002650574088834,0.0004509275755039598,-0.002783579617926702,-8.7142950300196e-05,-0.0004375994779541426,0.1935308277606964,-21.82431411743164,-2.38179087638855,22.56842803955078,0.6801248788833618,2.2615859508514404,-0.013685601763427258,,,,,,,,,
1739402020.9074678,0.525524843062535,0.09600044878329451,-0.9532418477915692,-2.069079999734894,0.13771089926027574,2.1375849787042798,-1.2753541495890877,0.0003133663511920785,0.00046519620363112094,-2.509738625532023e-05,0.00027621870027330034,-0.0012316110437624469,0.0004032414696607014,-0.0008962083463510105,0.1935308277606964,-21.82431411743164,-2.38179087638855,22.56842803955078,0.6673074960708618,2.2551772594451904,-0.020094294100999832,,,,,,,,,
1739402020.9174724,0.5255213347331142,0.09599571235481044,-0.953243604451764,-2.069079556941542,0.13771069463839403,2.137585217208643,-1.275354087318402,-9.66602179318936e-05,-0.0019122361764822636,-0.00036332640896713335,0.0004877742879597608,0.0005568535087084755,-0.0002160301426771466,0.0005563127674405301,0.2411382496356964,-21.77273941040039,-2.35798716545105,22.59223175048828,0.6737161874771118,2.2615859508514404,-0.04756011441349983,0,0,0,0.000,0,0
1739402020.928426,0.5255252988753839,0.09599989729361154,-0.9532459243258851,-2.069079777044938,0.13771093891673208,2.1375874392080756,-1.2753532895842004,0.0007405006135091773,7.412489519676303e-05,-0.0018535167352468974,0.0004939311786250253,-0.0012556258276322635,0.0012453850725772503,-0.0008162770429132448,0.2173345386981964,-21.79654312133789,-2.35798716545105,22.59223175048828,0.6673074960708618,2.2615859508514404,-0.027418512850999832,0,0,0,0.000,0,0
1739402020.9393961,0.5255238772069375,0.09600021300854127,-0.9532446027993606,-2.0690820876419527,0.13771139819638561,2.1375833979905345,-1.275349510600736,0.0007057023331475498,0.0013746704363707303,-0.0007813356792307033,-0.0008681464508230628,0.0006736618195198013,-0.00020328477898644347,0.0006167602647616343,0.2173345386981964,-21.82431411743164,-2.35798716545105,22.59223175048828,0.6608988046646118,2.2679946422576904,-0.06037749722599983,0,0,0,0.000,0,0
1739402020.94948,0.5255247600061956,0.0959994578999695,-0.9532429000711229,-2.0690784889088816,0.13770815983950754,2.1375841033048597,-1.275357334435047,0.0006966055621918012,0.0002800242113379848,3.762576949317253e-05,0.001074610043695361,9.979988723568723e-05,-0.0008716853087375457,-0.0028425845576731178,0.1935308277606964,-21.82431411743164,-2.38179087638855,22.56842803955078,0.6938577890396118,2.2615859508514404,-0.020094294100999832,0,0,0,0.000,0,0
1739402020.9595094,0.525523050087815,0.09600284980251395,-0.9532428321546442,-2.069080231403151,0.13770866595187886,2.1375841033039733,-1.2753549138248796,0.0007929802693105077,0.00024700556222313286,0.0006315017236384518,0.0007849333517008927,-0.0004879747491448895,-0.0006794264993779599,-0.001687837970077215,0.2173345386981964,-21.87192153930664,-2.38179087638855,22.56842803955078,0.6865335702896118,2.2615859508514404,-0.013685601763427258,0,0,0,0.000,0,0
1739402020.970498,0.5255214268513958,0.09600292677303394,-0.9532397803120164,-2.0690827436970585,0.1377103002147304,2.137584238484146,-1.275349026877448,-0.00038896629905050097,0.0005269343966495433,0.0006562027561363172,0.0006392691487636803,0.00029766332140721626,-0.00022315807324363115,0.0008644454347281536,0.2411382496356964,-21.87192153930664,-2.4095618724823,22.59223175048828,0.6737161874771118,2.2615859508514404,-0.06678618490695953,0,0,0,0.000,0,0
1739402020.9814498,0.5255230560842131,0.09599751678226566,-0.9532388057307315,-2.069080559094494,0.13771105787548024,2.13758486112632,-1.2753501899920352,-0.0002978255154392244,-0.001041565545724897,0.001571067830085479,-0.00032283734419623946,8.908240198907141e-05,-0.00038306807452509635,0.0012639196977742427,0.2173345386981964,-21.79654312133789,-2.38179087638855,22.59223175048828,0.6673074960708618,2.2551772594451904,-0.05396880581974983,0,0,0,0.000,0,0
1739402020.9914777,0.5255240099761928,0.09600155400298795,-0.9532397679337521,-2.069081435492995,0.13771349851180298,2.1375873999559336,-1.2753525319620227,0.0007465104939630598,-0.0005506019404763913,0.0014489867433491077,-0.000725561021048513,0.0009100148180233488,0.0011299172060729294,-0.0004133478125505269,0.2173345386981964,-21.82431411743164,-2.4095618724823,22.61603546142578,0.6737161874771118,2.2615859508514404,-0.03382720425724983,0,0,0,0.000,0,0
1739402021.0024352,0.5255213714038837,0.09600216131590782,-0.9532447618169919,-2.0690838762777557,0.13771443464523678,2.137584103322583,-1.2753540918405917,-0.00014217245761975452,0.0007514542933785207,-0.0011373732382981682,0.00012233067501364516,0.0008082921592227384,-0.0006384751533986399,-0.00032869042897351066,0.2411382496356964,-21.84811782836914,-2.38179087638855,22.63983917236328,0.6608988046646118,2.2615859508514404,-0.04756011441349983,0,0,0,0.000,0,0
1739402021.0134711,0.525525192911778,0.09599965957928928,-0.9532418567497511,-2.069082164677675,0.13771094039192544,2.1375838587471314,-1.275350907759845,0.000554533258180022,0.0002786902833681245,-0.0006810078608677835,0.0007077462890627633,-0.00043727883256389937,0.00018909127247669183,-0.00010124590742105469,0.2173345386981964,-21.82431411743164,-2.38179087638855,22.61603546142578,0.6673074960708618,2.2679946422576904,-0.04756011441349983,0,0,0,0.000,0,0
1739402021.0244346,0.5255238428662148,0.09599942281193961,-0.9532387138095149,-2.06908440212797,0.1377077401312394,2.1375872824365985,-1.2753502030717743,-0.00021448988397514937,-8.268179086010115e-05,0.00118377198442189,-0.0006809165395972995,-0.0008767693377207059,-0.00015334531704046952,-0.0005158554562428962,0.2173345386981964,-21.82431411743164,-2.4333655834198,22.61603546142578,0.6673074960708618,2.2615859508514404,-0.05396880581974983,0,0,0,0.000,0,0
1739402021.0354772,0.5255230485660618,0.09600116163832252,-0.9532438732899944,-2.069084402291339,0.13771018118152678,2.137583345715676,-1.2753501507442644,-0.0007353738622681107,-0.0002871967715866958,-0.00013371529131977726,-0.0008903865441077415,-0.0016664222606913464,-2.458345115262503e-05,0.00023204075480882317,0.2173345386981964,-21.84811782836914,-2.35798716545105,22.61603546142578,0.6737161874771118,2.2679946422576904,-0.05396880581974983,0,0,0,0.000,0,0
1739402021.0464568,0.5255194162646583,0.09599954070503237,-0.9532436304535148,-2.0690777600244563,0.13770942359367688,2.1375833588873525,-1.2753518201528418,-0.0014049609026770334,0.0005157440985407257,-0.0006878513374849218,0.00036751264201800176,0.00017257930556028128,-5.946521066381354e-05,0.0007453501826359566,0.2689092457294464,-21.82431411743164,-2.35798716545105,22.56842803955078,0.6801248788833618,2.2679946422576904,-0.06678618490695953,0,0,0,0.000,0,0
1739402021.0574703,0.5255213640584689,0.09599575034866738,-0.9532425852701809,-2.0690799763535845,0.13771169673642733,2.1375833911885436,-1.2753517762573245,-0.00022429043390240685,-0.0006888919709925362,-0.0005087165993504687,0.0015642645000926703,0.0011108175464059548,-0.0013343102940182171,6.856719064828607e-05,0.2411382496356964,-21.77273941040039,-2.38179087638855,22.56842803955078,0.6608988046646118,2.2679946422576904,-0.04023589566349983,0,0,0,0.000,0,0
1739402021.0684094,0.525523287016654,0.09599695134417545,-0.9532408390278372,-2.069081867989398,0.1377096284319228,2.1375850185937573,-1.2753486354242638,0.00045740181517362047,-0.0003461017379654005,-0.00020266369339900917,0.00014648144899008357,0.0004601120372469679,0.00039817253429590724,0.0007242499368925489,0.2173345386981964,-21.79654312133789,-2.4095618724823,22.59223175048828,0.6737161874771118,2.2551772594451904,-0.06678618490695953,0,0,0,0.000,0,0
1739402021.078514,0.525523762404158,0.09599581756895272,-0.9532418477932632,-2.069082165165084,0.13770781384077888,2.137583345646564,-1.275351773639107,0.00022313410712556975,0.0002643449109326325,0.0007543853061651026,-0.0015496597145210622,-0.0020384260125602444,-0.0009208528844586636,-0.0005989768406993276,0.2173345386981964,-21.77273941040039,-2.38179087638855,22.61603546142578,0.6938577890396118,2.2679946422576904,-0.04023589566349983,0,0,0,0.000,0,0
1739402021.089499,0.5255193368321669,0.0960001360228793,-0.953241847775125,-2.0690863099556682,0.13770973609490436,2.1375833456438946,-1.2753525319613541,-0.0007793230869600102,0.0005442909309514125,0.001061475310518321,-0.0022081671223162635,-0.0014496467788682199,-0.0011478491764276314,8.514154372207537e-05,0.2689092457294464,-21.82431411743164,-2.38179087638855,22.63983917236328,0.6865335702896118,2.2679946422576904,-0.03382720425724983,0,0,0,0.000,0,0
1739402021.1004715,0.5255247864830925,0.09599944912161744,-0.953240797410037,-2.069080753843385,0.13771022075094,2.137584142711335,-1.2753493930838906,0.0005837032951756772,-0.0001837387887697745,0.0007272668560597483,0.00024004850876085677,-0.0002994544251572434,-0.000567924496157698,-0.0005203674767048173,0.1935308277606964,-21.82431411743164,-2.35798716545105,22.56842803955078,0.6737161874771118,2.2615859508514404,-0.06037749722599983,0,0,0,0.000,0,0
1739402021.1114712,0.5255231266176723,0.09599942378538152,-0.9532465445200569,-2.069080836141722,0.1377103398690575,2.1375849021486424,-1.2753509084040473,0.0005111792222503905,-0.0007592110158108072,-0.0011787350950254352,-0.0009497507336359218,-0.0011340581846406236,0.000367409290672027,0.00022500528126549176,0.2173345386981964,-21.82431411743164,-2.35798716545105,22.56842803955078,0.6737161874771118,2.2551772594451904,-0.04756011441349983,0,0,0,0.000,0,0
1739402021.1225004,0.5255230825747952,0.09600113836259397,-0.953239741978484,-2.0690842896780164,0.1377114130425953,2.1375841033578857,-1.2753509085103718,6.538490660504303e-05,0.0008793283555505886,0.0005128267020160462,-0.0014731071439222634,0.0005148741007924771,-0.001576517753809464,0.0008433210504391598,0.2173345386981964,-21.84811782836914,-2.4095618724823,22.61603546142578,0.6673074960708618,2.2615859508514404,-0.04756011441349983,0,0,0,0.000,0,0
1739402021.133401,0.5255258193397577,0.09599955573581782,-0.9532397679851226,-2.069082863697073,0.1377094300969535,2.137583855840031,-1.2753539946106571,0.0005833605393845387,-0.001487627190786296,-3.3489552540983607e-05,-5.072110162090081e-05,-0.00020012192103141587,0.00015300478734283827,-0.00039346631189375917,0.1935308277606964,-21.79654312133789,-2.4095618724823,22.59223175048828,0.6801248788833618,2.2679946422576904,-0.020094294100999832,0,0,0,0.000,0,0
1739402021.143422,0.5255213346774642,0.09599942584186096,-0.9532418477751249,-2.0690828275216773,0.13771341120920363,2.1375845742801736,-1.2753504256718358,-0.001134575730236127,-0.0005378130596523235,0.0005493531138121062,0.0007192179431967524,0.0025272518590329454,-0.00035307266462690143,0.0019246485612676243,0.2411382496356964,-21.82431411743164,-2.38179087638855,22.59223175048828,0.6865335702896118,2.2615859508514404,-0.04756011441349983,0,0,0,0.000,0,0
1739402021.1534696,0.5255196899318231,0.09600025001925165,-0.9532399068174872,-2.0690843924568236,0.13771115681032972,2.1375837032199136,-1.2753548997671311,-0.0006770660256658875,0.001424217213032874,0.0008652729029177506,-0.000369108589161621,-0.00017351083699481036,-0.0005218183812867126,-0.00039428249731397703,0.2689092457294464,-21.82431411743164,-2.4095618724823,22.61603546142578,0.6938577890396118,2.2679946422576904,-0.013685601763427258,0,0,0,0.000,0,0
1739402021.1634958,0.5255215734842537,0.09599942282461191,-0.9532404974881502,-2.0690844016100547,0.13771413775328423,2.1375829393602177,-1.2753521275137623,-0.00027243053370035165,-0.0005791317916234288,0.0009707608373729151,-0.0006193290404331598,0.0006734238727419382,-0.000665269373647865,-0.001582740077715684,0.2411382496356964,-21.82431411743164,-2.4095618724823,22.61603546142578,0.6673074960708618,2.2817275524139404,-0.04023589566349983,0,0,0,0.000,0,0
1739402021.1754627,0.5255255108043575,0.09600234335542551,-0.9532404703977215,-2.0690803397262107,0.13771093914857818,2.1375880413388613,-1.2753497887029352,0.0006565320449893992,0.0003578396837264715,0.00014452515407705635,0.0007415479906641881,-0.00018752629799897443,0.0001119400712099418,0.0002479877480178656,0.2173345386981964,-21.82431411743164,-2.38179087638855,22.56842803955078,0.6673074960708618,2.2551772594451904,-0.05396880581974983,0,0,0,0.000,0,0
1739402021.1854646,0.5255221977559696,0.09599742492232295,-0.9532420908985271,-2.0690809746341547,0.13771018125375697,2.1375845743260413,-1.2753532897808983,-0.0006125883226880057,0.0005566674932496896,-0.001193396133466547,0.0003711850328940154,-0.0003980981274918285,0.00013335603209732033,8.658263410629891e-05,0.2689092457294464,-21.79654312133789,-2.38179087638855,22.56842803955078,0.6737161874771118,2.2615859508514404,-0.027418512850999832,0,0,0,0.000,0,0
1739402021.1954665,0.5255231269927194,0.09600235457829787,-0.9532457102461169,-2.069079777664718,0.13771169819906226,2.1375841034734555,-1.2753545511358324,0.0001873138460065989,0.0008096117426203803,-0.0008768327470572515,0.0006267055156268706,-0.0011769035966395203,-0.0008002212236833278,-0.0011500730752211038,0.2173345386981964,-21.82431411743164,-2.3302161693573,22.59223175048828,0.6608988046646118,2.2615859508514404,-0.013685601763427258,0,0,0,0.000,0,0
1739402021.2064307,0.5255213612240475,0.09600113545614336,-0.9532436305631792,-2.069084649524194,0.13771236059500003,2.1375849917835748,-1.2753506723271928,-0.0006513488946867197,-0.00044728676157020726,-0.0002319035859155014,-0.0009260219760808491,-6.943661021039125e-06,-0.0001920840307355308,0.0009435967531894366,0.2411382496356964,-21.84811782836914,-2.35798716545105,22.61603546142578,0.6673074960708618,2.2551772594451904,-0.06037749722599983,0,0,0,0.000,0,0
1739402021.217429,0.5255213346237774,0.09599942281060377,-0.9532439542304619,-2.069084318821267,0.1377101944254955,2.1375848609647896,-1.275356428340692,-0.0006045813404210389,-0.000611792227716695,-0.0016088905261769674,-0.0017679047121386424,-0.0007771813706370315,0.00026788451633460303,-0.001040385405945996,0.2411382496356964,-21.82431411743164,-2.35798716545105,22.61603546142578,0.6737161874771118,2.2551772594451904,-0.0008682189509272575,0,0,0,0.000,0,0
1739402021.227469,0.5255240312342138,0.09600250462556346,-0.9532458159722355,-2.069080992597111,0.1377102997278546,2.1375833456438946,-1.275344524221717,0.0005368877899514003,0.0005224150587251586,0.0003150880507891851,0.0010973530934833948,-0.000284766597933568,-0.0011879149120849473,0.0017839108429180735,0.2173345386981964,-21.82431411743164,-2.35798716545105,22.56842803955078,0.6737161874771118,2.2679946422576904,-0.07411040365695953,0,0,0,0.000,0,0
1739402021.238522,0.5255215759874973,0.0960037949094425,-0.9532418602151672,-2.0690841940525786,0.13771169283629042,2.137585163588125,-1.2753525719185974,0.0002534839070626034,0.0013612463659930859,0.0003116073453092496,-0.0010431489245617807,0.0009725682061831839,-0.00037600859167605873,-0.00012707034978887426,0.2411382496356964,-21.87192153930664,-2.38179087638855,22.63983917236328,0.6608988046646118,2.2615859508514404,-0.06037749722599983,0,0,0,0.000,0,0
1739402021.2494743,0.5255230515427104,0.09599953695724404,-0.9532421265843016,-2.069080391310555,0.13771288130818862,2.1375857764046056,-1.275350450823136,-0.000918549845037978,0.0011120826780779561,-0.0011437409511947656,0.0005832501515269082,0.00038722828775373993,-0.000940000018439351,4.839927033716771e-05,0.2173345386981964,-21.82431411743164,-2.38179087638855,22.59223175048828,0.6608988046646118,2.2753188610076904,-0.05396880581974983,0,0,0,0.000,0,0
1739402021.2605064,0.5255234042816787,0.09600397648671288,-0.9532397809779486,-2.069077787483977,0.13771446385553332,2.1375856186965745,-1.2753545087330724,0.0003082502347056284,0.0013855710109630512,0.0007937571146624281,0.0004637581824531031,0.0011033226417286044,-0.00024102076783945512,-0.0008872758489807666,0.2173345386981964,-21.84811782836914,-2.4095618724823,22.56842803955078,0.6737161874771118,2.2487685680389404,-0.020094294100999832,0,0,0,0.000,0,0
1739402021.2715046,0.525524840561209,0.09600227603022499,-0.95324184788638,-2.0690827715043354,0.13771249444772013,2.1375841049190303,-1.275357108031237,0.0001777645374711183,0.0007479281067797842,0.0012934108732749348,-0.0008072073294597482,0.00045475447741053236,0.00029578413768106967,4.770364635999749e-06,0.1935308277606964,-21.82431411743164,-2.38179087638855,22.59223175048828,0.6544901132583618,2.2615859508514404,-0.027418512850999832,0,0,0,0.000,0,0
1739402021.2834427,0.5255279387007591,0.09599944926730579,-0.9532436304644815,-2.0690807547483283,0.1377153693225388,2.137584103303976,-1.2753541553603107,0.0026650408020482894,0.00028606500708339713,-0.0006665310725733157,2.2163767906235355e-05,0.002192392399935516,-0.00015794791142584254,0.0008628381911148322,0.1935308277606964,-21.82431411743164,-2.35798716545105,22.56842803955078,0.6608988046646118,2.2615859508514404,-0.020094294100999832,0,0,0,0.000,0,0
1739402021.2944205,0.5255230471503404,0.09599574872416348,-0.9532440342904197,-2.0690864281355306,0.13771170145627304,2.137585163426619,-1.2753549131788569,0.00034448101897189664,-0.0008162942114729732,-0.0005095029745175189,-0.0009923748100000036,-0.0005856614362158416,0.00030544095130459107,-0.0015942713661493686,0.2173345386981964,-21.77273941040039,-2.38179087638855,22.63983917236328,0.6608988046646118,2.2615859508514404,-0.013685601763427258,0,0,0,0.000,0,0
1739402021.3054636,0.5255222882979437,0.09600186936112916,-0.9532418479231888,-2.069082497517423,0.13771018320401823,2.1375852156482646,-1.2753495108214608,0.0006466046112960295,0.0018363794693288023,-0.00027173173397496836,-0.0003594164963714287,-0.0005649191164191472,-5.787260228637609e-05,0.0003084075111448693,0.2411382496356964,-21.82431411743164,-2.38179087638855,22.59223175048828,0.6737161874771118,2.2551772594451904,-0.06037749722599983,0,0,0,0.000,0,0
1739402021.3164403,0.525523047149742,0.09599856535390434,-0.9532409033556813,-2.0690843904199907,0.13771069480114384,2.1375852141787632,-1.2753495282647282,-0.000485003004113578,6.67070591512252e-05,0.000715115083412646,0.00028116147063985504,0.00126049110587022,0.0007722443855986415,0.0005095680732618864,0.2173345386981964,-21.77273941040039,-2.35798716545105,22.61603546142578,0.6737161874771118,2.2551772594451904,-0.06037749722599983,0,0,0,0.000,0,0
1739402021.326702,0.5255194161556339,0.09600155369275908,-0.9532436574182759,-2.0690778387475937,0.1377108584414476,2.137584861127551,-1.2753519317699862,-0.0015395442701692766,0.0009490717257899938,-0.00023366449043939753,0.002254495989603862,3.1681238101956104e-06,0.00039429359251126085,-0.0004746477842294647,0.2689092457294464,-21.82431411743164,-2.35798716545105,22.56842803955078,0.6801248788833618,2.2551772594451904,-0.04023589566349983,0,0,0,0.000,0,0
1739402021.3374298,0.5255230737447766,0.09599942282263195,-0.9532419275997184,-2.069085332261175,0.13771018321203532,2.137584103303974,-1.275354908710079,-0.00025986525749023505,-0.0007677597131349285,0.0005913981613106564,-0.0008463104906651268,-0.0004391089238215924,0.0004436266382640151,-0.0010092016214801307,0.2173345386981964,-21.82431411743164,-2.4095618724823,22.63983917236328,0.6737161874771118,2.2615859508514404,-0.013685601763427258,0,0,0,0.000,0,0
1739402021.3484113,0.5255230736357621,0.0959974641678438,-0.9532430119099266,-2.0690803397089783,0.13771246739773826,2.1375851629421025,-1.2753451682392112,0.00030229436941574413,-0.0003761368808229667,-0.0005676218627578902,0.001344751827697928,0.00032341398531577324,-8.896570067926758e-05,0.0024834713757914597,0.2173345386981964,-21.79654312133789,-2.4095618724823,22.56842803955078,0.6544901132583618,2.2615859508514404,-0.08692778646945953,0,0,0,0.000,0,0
1739402021.3585324,0.5255222887341582,0.0960012434825079,-0.9532398763738276,-2.069079533465933,0.13771278034092754,2.1375841076706057,-1.2753525320090628,-0.0008292539570001102,0.0013375348340688069,0.0006940875882148326,0.001888566827901465,0.0005054761410908756,0.00017260880452954925,6.473719782689933e-05,0.2411382496356964,-21.84811782836914,-2.4095618724823,22.59223175048828,0.6801248788833618,2.2615859508514404,-0.03382720425724983,0,0,0,0.000,0,0
1739402021.3704948,0.525527187446944,0.09600155660026298,-0.9532458192874502,-2.0690821210291652,0.13771236207657472,2.1375841599924574,-1.2753518920388498,0.0006956126217160895,0.0005724547565028143,-0.000921944322105254,-0.00011120903415447693,0.001122066751661423,-0.0003225517315664397,0.0009206189730540152,0.1697271168231964,-21.82431411743164,-2.35798716545105,22.59223175048828,0.6673074960708618,2.2615859508514404,-0.04023589566349983,0,0,0,0.000,0,0
1739402021.3815064,0.5255213349520219,0.0959974248857939,-0.9532436218388183,-2.069080637440145,0.13771161615547653,2.137588915276194,-1.2753526627811016,-0.0005537956161560105,-0.0013613406676177243,-0.001198277312503009,-0.0005206316167346594,0.0013605838747559513,-4.355352117430802e-05,-0.0021146289873821018,0.2411382496356964,-21.79654312133789,-2.35798716545105,22.59223175048828,0.6737161874771118,2.2487685680389404,-0.03382720425724983,0,0,0,0.000,0,0
1739402021.3915122,0.5255213256842988,0.09599955584406018,-0.9532398489297028,-2.0690845303450542,0.1377133800606588,2.1375848668340813,-1.2753549131810726,-0.001499267502687737,0.0004005835945744286,0.0003241181166663157,-0.0005473591810228745,-0.0007508090478583774,5.887586523384633e-05,-0.0019620843136082065,0.2411382496356964,-21.79654312133789,-2.4095618724823,22.61603546142578,0.6737161874771118,2.2551772594451904,-0.013685601763427258,0,0,0,0.000,0,0
1739402021.402432,0.5255259081672572,0.0959981353148086,-0.9532436304896127,-2.069084320214926,0.13770914423328007,2.1375835393848246,-1.2753453769818242,-0.00010894995594647919,-0.0009439428646221744,-0.00040585907363152135,-0.0009053396942851383,-0.0003348838195169105,-0.00034752625207725454,0.00047155285210908785,0.2173345386981964,-21.79654312133789,-2.35798716545105,22.61603546142578,0.6865335702896118,2.2753188610076904,-0.06678618490695953,0,0,0,0.000,0,0
1739402021.4134097,0.525523481747486,0.09599849015241797,-0.9532436292792104,-2.0690777468306485,0.13770943887818668,2.1375859600274882,-1.2753493930287088,-0.0005233051921623099,0.0006071667951884947,-0.0003151205350436562,0.0027269449064883165,8.782092851280672e-06,-0.0007630700665412138,0.0006382641404682933,0.2411382496356964,-21.79654312133789,-2.35798716545105,22.56842803955078,0.6801248788833618,2.2551772594451904,-0.06037749722599983,0,0,0,0.000,0,0
1739402021.4234707,0.5255213346357478,0.09599800321358236,-0.9532436304521374,-2.0690817652108096,0.13771353865107783,2.1375855336036196,-1.2753486499045739,-0.0008657325552600118,7.191130256703964e-05,-0.00037827962396750183,0.0005280036079291716,0.0014329533120770817,0.0006245228888101484,0.0013945284409409668,0.2411382496356964,-21.82431411743164,-2.35798716545105,22.59223175048828,0.6737161874771118,2.2615859508514404,-0.06678618490695953,0,0,0,0.000,0,0
1739402021.434503,0.5255276219962342,0.0960032663337169,-0.9532436344494072,-2.069078739217215,0.13771048987349757,2.1375841091262484,-1.2753560664560681,0.0014813537933057279,0.0012568203240628133,-0.0007225754801189802,0.00124059770713179,-0.0002094874357299679,-0.0004587792124508768,-0.0012364382098463086,0.1935308277606964,-21.84811782836914,-2.35798716545105,22.56842803955078,0.6801248788833618,2.2615859508514404,-0.0008682189509272575,0,0,0,0.000,0,0
1739402021.4454038,0.5255213357662866,0.0960022639051941,-0.9532418478861826,-2.069082591979641,0.1377133039549972,2.1375875841964445,-1.275354155516625,-0.00044544388516747774,0.000664501630659025,-0.0002766935550404777,-0.0007684452059416341,0.0016875373126173984,0.0026589691709941613,-0.002154430192808582,0.2411382496356964,-21.82431411743164,-2.38179087638855,22.59223175048828,0.6865335702896118,2.2679946422576904,-0.020094294100999832,0,0,0,0.000,0,0
1739402021.455473,0.5255247949864187,0.09600113969778602,-0.953239767985275,-2.0690777875216555,0.1377152085808453,2.137585163157443,-1.2753531915127694,0.00037580657465897385,-0.0001239033297248642,0.000817456853898023,0.002253767687734792,0.0019218336582863204,0.0011911275267072218,-0.0004198710727882794,0.1935308277606964,-21.84811782836914,-2.4095618724823,22.56842803955078,0.6673074960708618,2.2615859508514404,-0.04023589566349983,0,0,0,0.000,0,0
1739402021.465502,0.525523139808386,0.09599768793965745,-0.9532447897608227,-2.0690816428166543,0.1377116966521864,2.1375857378212326,-1.2753526482170392,0.00014686128291686005,-0.0012605037137565181,-0.0009626365402457605,0.0003100594611142994,0.00045286930133546044,-4.0441579314463806e-05,-0.0009038822034965914,0.2173345386981964,-21.79654312133789,-2.38179087638855,22.61603546142578,0.6608988046646118,2.2487685680389404,-0.03382720425724983,0,0,0,0.000,0,0
1739402021.4774606,0.5255213346241503,0.09600039627891367,-0.9532418880974696,-2.069081864963908,0.13771022675795408,2.137587288517752,-1.2753484247184375,-0.0017040088249694293,0.0011231185363444348,0.0007285891361975092,0.0013987881717245675,-0.0002634475533180568,0.000132804793601646,0.001011316274857518,0.2411382496356964,-21.82431411743164,-2.38179087638855,22.59223175048828,0.6737161874771118,2.2615859508514404,-0.08051909506320953,0,0,0,0.000,0,0
