IITGN-Robotics/Franka_IITGN_ROBOTICS/franka_ros/franka_iitgn/data/b_38.csv
time,fr3_joint1_pos,fr3_joint2_pos,fr3_joint3_pos,fr3_joint4_pos,fr3_joint5_pos,fr3_joint6_pos,fr3_joint7_pos,fr3_joint1_vel,fr3_joint2_vel,fr3_joint3_vel,fr3_joint4_vel,fr3_joint5_vel,fr3_joint6_vel,fr3_joint7_vel,fr3_joint1_eff,fr3_joint2_eff,fr3_joint3_eff,fr3_joint4_eff,fr3_joint5_eff,fr3_joint6_eff,fr3_joint7_eff,flexpin1,flexpin2,flexpin3,Force,ContactMic,ContactMic_gt
1739402085.2385538,0.5255552401046538,0.0961933976366827,-0.953337107977867,-2.0693253448829463,0.13810954586619142,2.1379692341179037,-1.2756376776136717,-0.00023983051051516553,0.0009841279177897717,1.3180277239800784e-05,0.0007420620117623455,0.0014526965925109557,-0.0004763396194161907,-0.001977690334995998,0.2689092457294464,-21.89969253540039,-2.4333655834198,22.59223175048828,0.6480814218521118,2.2487685680389404,-0.013685601763427258,,,,,,,,,
1739402085.249499,0.5255565013682033,0.09618426549432392,-0.9533388908365804,-2.0693237181095507,0.13810981607117534,2.137969991777982,-1.275636073424808,-0.0010500892733571357,-0.0008458403575411033,0.0002581905834384159,-0.0005853703816050793,0.0019089636131931836,0.00046444354693677824,-0.0011184155416428363,0.2411382496356964,-21.77273941040039,-2.4095618724823,22.56842803955078,0.6544901132583618,2.2423598766326904,-0.027418512850999832,,,,,,,,,
1739402085.2595618,0.525556610416951,0.09618927241088587,-0.9533388914906938,-2.069321651497687,0.13810717015294824,2.137969991777982,-1.275638435274734,-0.0007078842712369586,8.348859891730166e-05,-0.0002900471077326936,2.1571114313741918e-06,0.0013518207032242803,-0.00043372767187163327,-0.0010309314782322781,0.2689092457294464,-21.87192153930664,-2.4095618724823,22.56842803955078,0.6407572031021118,2.2423598766326904,-0.0072769103571772575,,,,,,,,,
1739402085.2715502,0.5255566054884155,0.09619339762005319,-0.9533371039079279,-2.069327359873646,0.1381071309864548,2.1379725302853454,-1.2756328751418629,0.00025964491188588197,0.0010465964828320616,0.000994964604809179,-0.001763155377288004,0.00011078940835106122,0.0006151778018331512,0.0008249691812484188,0.2411382496356964,-21.89969253540039,-2.4333655834198,22.61603546142578,0.6407572031021118,2.2487685680389404,-0.027418512850999832,,,,,,,,,
1739402085.282514,0.525559309441341,0.09619353683047491,-0.9533409953731059,-2.0693291489592904,0.13810610215815328,2.1379719173857863,-1.2756369603280844,0.0017516874301087442,0.0011250872212148011,-0.0010594519941509951,-0.0005018166999116629,-0.00038057210611911965,0.0006730671455648582,-0.00019059963775174492,0.2411382496356964,-21.87192153930664,-2.38179087638855,22.63983917236328,0.6407572031021118,2.2350356578826904,-0.020094294100999832,,,,,,,,,
1739402085.2935386,0.5255545034747092,0.09619139970729598,-0.9533431190101791,-2.069325463940419,0.1381041237164622,2.137971615341275,-1.275632914532989,-0.0006054784929121228,0.00019389458407949864,-0.0004893849887990635,0.0007955542950976759,-0.002044579663811564,0.0008876934038981898,0.00029417478766759035,0.2689092457294464,-21.87192153930664,-2.38179087638855,22.59223175048828,0.6544901132583618,2.2286269664764404,-0.05396880581974983,,,,,,,,,
1739402085.3054793,0.525554750052311,0.09618968717450062,-0.9533439112353035,-2.0693271293094035,0.13810612884497764,2.137969234117904,-1.2756431977084168,-0.0005095188675997486,-0.0002690055644250948,-0.0013466250025205933,-0.0007776742734035807,-0.001797112989277995,-0.00030798864990641827,-0.0017769967674227316,0.2689092457294464,-21.84811782836914,-2.38179087638855,22.61603546142578,0.6480814218521118,2.2487685680389404,0.03300629183650017,,,,,,,,,
1739402085.3155446,0.5255575464348085,0.09618797465376942,-0.9533409026500886,-2.069321039472262,0.1381079275931533,2.1379699917779824,-1.2756287168532692,0.00043136539844629523,-0.0008181478082681808,-0.0010515267017195907,0.0012931972925745955,0.0018555363427281584,-0.00017655902999196265,0.00023038481047739893,0.2689092457294464,-21.82431411743164,-2.38179087638855,22.56842803955078,0.6343485116958618,2.2423598766326904,-0.05396880581974983,,,,,,,,,
1739402085.3255475,0.5255565274159584,0.0961896871745006,-0.9533389022821421,-2.069321611819734,0.13810128182280548,2.1379699917779824,-1.2756302999509723,0.0001904440692839002,-7.924550998202677e-05,-0.00022017890154129143,0.0005940485775613605,-0.0010289266602599566,0.0001087179975949407,0.002150307438170098,0.2411382496356964,-21.84811782836914,-2.4095618724823,22.54065704345703,0.6544901132583618,2.2423598766326904,-0.04023589566349983,,,,,,,,,
1739402085.3365138,0.5255565101378845,0.09619171611495098,-0.9533410628888472,-2.0693266712293434,0.13810444110624806,2.137971602253341,-1.2756345385666126,-0.0007844551672780594,0.0013534263180365177,0.0003871715120108536,-0.00037040850704211215,-0.0007657698223115277,8.18302708639417e-05,0.0001507351990667037,0.2411382496356964,-21.87192153930664,-2.4095618724823,22.61603546142578,0.6544901132583618,2.2286269664764404,-0.04023589566349983,,,,,,,,,
1739402085.346539,0.5255565014711908,0.09618636495466382,-0.9533410363135321,-2.0693299304542294,0.13810482855597986,2.137968476457604,-1.2756341424809436,0.0005711097094115025,-0.0025767207671494106,8.0752981316989e-05,-0.0011258643753849593,0.000923093595700437,-0.0005943294122253272,0.0004860153650625401,0.2411382496356964,-21.77273941040039,-2.4095618724823,22.66364288330078,0.6608988046646118,2.2551772594451904,-0.04756011441349983,,,,,,,,,
1739402085.35852,0.5255584325034124,0.09621481346910617,-0.9533402461891056,-2.069324197998532,0.13810602987682055,2.137972942770604,-1.2756409759482523,0.0004625505470957131,0.0027434349289014196,0.00014127744664289008,6.719117060864868e-05,0.0003962221536830935,-0.0007598875663945081,-0.002074753446094592,0.1697271168231964,-21.74496841430664,-2.38179087638855,22.54065704345703,0.6938577890396118,2.2487685680389404,0.012864691205322742,,,,,,,,,
1739402085.3704953,0.5255503435256361,0.09624015350935948,-0.9533406509893735,-2.069329887557919,0.13810416062191277,2.1379787686787486,-1.2756360555464399,-0.0004724444540863764,0.0024193075418384134,-0.0006906193747007259,-0.0010260660559622953,-0.001360612834691674,0.0005173081222941627,0.0002935734755744986,0.2411382496356964,-21.79654312133789,-2.38179087638855,22.56842803955078,0.7066751718521118,2.2487685680389404,-0.027418512850999832,,,,,,,,,
1739402085.3815877,0.5255481015534208,0.09625029454890724,-0.9533395346690032,-2.06933106221588,0.13810431912753643,2.1379820231857063,-1.27563935267051,-0.0019227984629711311,0.00024880473581292083,0.00026093630293718095,-0.000909890194823732,-0.001251153701012123,0.0005727320949432835,0.00029722949475296243,0.2689092457294464,-21.66958999633789,-2.35798716545105,22.59223175048828,0.7066751718521118,2.2615859508514404,-0.027418512850999832,,,,,,,,,
1739402085.392553,0.525550064062609,0.0962692586672347,-0.9533423558984744,-2.069332014613562,0.13810919849375652,2.1379840503813523,-1.2756332840589548,-0.001197158949358987,0.0016762734417863651,-0.0006151136209234687,0.0003643093686013812,0.0016036660372002953,0.0010444863693364127,0.0009011138834343574,0.2411382496356964,-21.74496841430664,-2.3302161693573,22.59223175048828,0.7002664804458618,2.2753188610076904,-0.06037749722599983,,,,,,,,,
1739402085.4025536,0.5255513433003207,0.09628440909410366,-0.9533388112908852,-2.069332272494903,0.13810713854132745,2.1379867726817516,-1.2756336728452213,0.0003102269336654167,0.00148346556892629,0.0003022348291120322,0.00031860843374755725,0.00031748530501086195,0.0005620107739015952,0.00042657656709641195,0.1935308277606964,-21.74496841430664,-2.38179087638855,22.59223175048828,0.7130838632583618,2.2615859508514404,-0.04756011441349983,,,,,,,,,
1739402085.4134912,0.5255513315265631,0.09629505280793543,-0.953339898414872,-2.069329153814056,0.13810544700585906,2.137983947098204,-1.2756364205689457,0.0009557208561312085,-0.00011887422886876906,-2.0095290610232523e-05,0.0016500795665866058,-0.0006062446528881323,-0.0007085392913542946,-0.0014500347006923798,0.1935308277606964,-21.77273941040039,-2.38179087638855,22.54065704345703,0.7002664804458618,2.2753188610076904,-0.027418512850999832,,,,,,,,,
1739402085.4235504,0.5255502737295313,0.09630422032466028,-0.9533293024003364,-2.069333649467618,0.13810971643112843,2.137987851915309,-1.2756345436438954,-0.0006229901972117229,-0.0005955354221021873,0.00156749510985398,-0.0009074746217144207,0.0005909053208677807,0.0008398547935145999,0.00022901884948313699,0.1935308277606964,-21.79654312133789,-2.4571692943573,22.56842803955078,0.7002664804458618,2.2615859508514404,-0.04023589566349983,,,,,,,,,
1739402085.4335532,0.5255541297221985,0.09631644713096885,-0.9533290286755762,-2.069333569803376,0.13810843029639427,2.137986034641942,-1.275634900779205,0.0009032458161896085,0.0012676650001442857,0.0002874015440896742,-0.0007026474985033829,-0.0009089985039281056,0.0001704173933113657,0.0004580983576079632,0.1697271168231964,-21.84811782836914,-2.4571692943573,22.56842803955078,0.7066751718521118,2.2679946422576904,-0.04023589566349983,,,,,,,,,
1739402085.4435918,0.5255510570576156,0.09632242864335686,-0.9533307301368963,-2.069335352479046,0.13810819527558296,2.1379847130447374,-1.275639260121821,3.76369923700844e-05,0.0014085400154730944,-0.0005459102845580241,0.0009502559522966669,0.00011127460831938501,-0.00033486718580740937,-0.0003732068875807286,0.2173345386981964,-21.87192153930664,-2.4333655834198,22.59223175048828,0.7130838632583618,2.2881362438201904,-0.027418512850999832,,,,,,,,,
1739402085.4544997,0.5255484799816287,0.09633253460027243,-0.9533324744388134,-2.069343544381159,0.1381082011350398,2.1379836926584463,-1.2756360541295304,-0.0006523994869610767,0.001685142994724763,-0.0010704124680308658,-0.0007063695327287523,0.0005662976352464442,-0.001068854888848546,0.0005706223738431886,0.2173345386981964,-21.92349624633789,-2.4095618724823,22.66364288330078,0.7130838632583618,2.2881362438201904,-0.027418512850999832,,,,,,,,,
1739402085.4645755,0.5255502704517334,0.09633693171006968,-0.9533322743933109,-2.0693366692392265,0.13810895863263623,2.1379860738705183,-1.2756352963961737,-0.00014947628580580828,0.0009140008930434763,-0.0008763760514503897,0.000707217890481768,-0.0007840419402569811,0.00028470645427320507,0.000702315822717589,0.1935308277606964,-21.89969253540039,-2.4095618724823,22.56842803955078,0.7066751718521118,2.2679946422576904,-0.03382720425724983,,,,,,,,,
1739402085.4745808,0.5255520774908894,0.09633555181373679,-0.9533316389115805,-2.069340234597593,0.13810895895715875,2.137983653568778,-1.2756377178406748,0.00037142402516867896,0.00012048199497145267,0.0001316654348378271,0.00030916372022899775,-0.0005941538804394856,-0.0008562405388904872,-0.0016123596076295338,0.1697271168231964,-21.87192153930664,-2.38179087638855,22.61603546142578,0.7066751718521118,2.2881362438201904,-0.013685601763427258,,,,,,,,,
1739402085.4854817,0.5255476484101281,0.09633840708487151,-0.9533258213639916,-2.0693384556998047,0.1381097032915161,2.137987486720694,-1.2756386156057276,-0.0005734939914671246,0.0007466965194409995,0.0018599416015439864,0.0002270613736624187,-0.00038806880874466264,0.0024685243770512766,-0.002497219519078904,0.2173345386981964,-21.87192153930664,-2.4571692943573,22.59223175048828,0.7002664804458618,2.2679946422576904,-0.0072769103571772575,,,,,,,,,
1739402085.4955525,0.5255524423748236,0.09633135019412999,-0.9533302834859257,-2.069338735537971,0.13810971645500666,2.1379882051595063,-1.2756345446987043,0.0005340565296195034,-0.0005719847083687112,0.00031138036435773343,-0.0005269136048052596,0.0016428726135454708,0.0014923651986567658,-0.00022678970761178636,0.1935308277606964,-21.77273941040039,-2.4095618724823,22.56842803955078,0.7002664804458618,2.2615859508514404,-0.04023589566349983,,,,,,,,,
1739402085.5065417,0.5255510469968854,0.09632924778446961,-0.9533336120723231,-2.069338460458836,0.13811306277772484,2.137986792308003,-1.2756385741520782,-0.00025255373588832747,-0.0013220445752635855,0.0006275943681943483,0.00018774094204641054,0.00011032573722239428,-0.00046142223130460325,-0.0007932205374623156,0.1697271168231964,-21.74496841430664,-2.38179087638855,22.59223175048828,0.7002664804458618,2.2615859508514404,-0.03382720425724983,,,,,,,,,
1739402085.5165486,0.5255465334017472,0.09633127170605622,-0.953334592487844,-2.069337358008387,0.1381093034719614,2.137989213538385,-1.2756376777977179,-0.0009532512542538009,-0.0007543034313980904,0.001392951213161559,-0.0004449281173182383,0.0003820702491677769,-0.0005417017242742412,0.00010079167781460623,0.2411382496356964,-21.77273941040039,-2.38179087638855,22.56842803955078,0.7130838632583618,2.2679946422576904,-0.013685601763427258,,,,,,,,,
1739402085.5265532,0.5255502704477696,0.09632574595416929,-0.9533325127035217,-2.069336664262985,0.13810746099077378,2.1379875543586397,-1.2756376796001934,0.0018550341625168678,-0.0005064888825499554,0.0004609577207474781,0.0008577683650670449,-0.0004282799819402359,8.331894474395768e-05,0.0002733589604773367,0.1935308277606964,-21.72116470336914,-2.4095618724823,22.54065704345703,0.7194925546646118,2.2551772594451904,-0.013685601763427258,,,,,,,,,
1739402085.536603,0.5255519800848535,0.0963255457350325,-0.9533345585650921,-2.0693369753963737,0.1381084849017289,2.1379883868870846,-1.275638200564745,0.001395659012548846,-0.0008412935971087705,-0.0004904733252476852,-0.0012818017287695702,-0.0018192157358219454,0.00021957684669321684,-0.00023532808540733147,0.1697271168231964,-21.69339370727539,-2.38179087638855,22.56842803955078,0.7066751718521118,2.2753188610076904,-0.013685601763427258,,,,,,,,,
1739402085.5485566,0.5255502724334994,0.09632951041988597,-0.9533321111193926,-2.069335278220212,0.1381108430100582,2.1379851745591325,-1.2756334946634715,0.0005101692027665464,0.00019761696519096758,0.0009696912906512128,-0.00039736647743031947,0.0011985016840869102,-0.0019395360928386833,0.000337554337888789,0.1935308277606964,-21.74496841430664,-2.38179087638855,22.54065704345703,0.6938577890396118,2.2753188610076904,-0.04756011441349983,,,,,,,,,
1739402085.5595434,0.525551982926234,0.09633290519815492,-0.9533275512164635,-2.0693345639451888,0.13811488338799582,2.1379872029030587,-1.2756332772950505,0.00014090555916381815,0.0004621994723309987,0.0014175772086559657,-0.00014747273992181273,0.0038082971547072075,-0.0015356822672131453,0.00020895521498096796,0.1697271168231964,-21.79654312133789,-2.4333655834198,22.54065704345703,0.6938577890396118,2.2615859508514404,-0.05396880581974983,,,,,,,,,
1739402085.5704782,0.5255485579323215,0.09633127159660652,-0.9533277892588279,-2.0693346006859805,0.13811047581008223,2.1379883484720987,-1.2756329156815456,-0.000365237951142699,1.4450375772422048e-06,0.0011284041152116143,-3.037896734463654e-05,-0.00013948726550409054,-0.0017246904681581016,0.0010797885374424702,0.2173345386981964,-21.77273941040039,-2.4333655834198,22.54065704345703,0.6938577890396118,2.2487685680389404,-0.05396880581974983,,,,,,,,,
1739402085.5806108,0.5255519829737847,0.09633495575253903,-0.9533324164030433,-2.0693420172746753,0.1381097558237391,2.1379867579957663,-1.2756384354392962,0.0005904360363927249,0.0002366930343812743,-0.001750615664585948,-0.001742265288292339,-0.00032022605799409136,0.0016947018727957262,-0.0004360730746796248,0.1697271168231964,-21.82431411743164,-2.38179087638855,22.63983917236328,0.7002664804458618,2.2753188610076904,-0.0072769103571772575,,,,,,,,,
1739402085.5915587,0.5255499584484932,0.09633298119552705,-0.9533296956678649,-2.069336669243555,0.13811157648753203,2.137989737040786,-1.2756376776688538,-0.00035180536756921564,-0.001717274743242539,0.000466888432212491,0.00034625677659124197,-0.00019697422006894653,0.0003315348011258838,0.0002941062866089553,0.1935308277606964,-21.79654312133789,-2.4333655834198,22.56842803955078,0.6938577890396118,2.2679946422576904,-0.013685601763427258,,,,,,,,,
1739402085.6015837,0.5255485522036843,0.09633299299588005,-0.9533275468429634,-2.0693420201090347,0.138110474295987,2.137989937080295,-1.2756390376730011,-0.00011140754004126556,-0.0020771103363936096,0.0017089062406010788,-0.0018375256205713036,-0.0012988192239544042,0.0007664112429465197,-0.0012744443148196968,0.2173345386981964,-21.79654312133789,-2.4333655834198,22.63983917236328,0.6938577890396118,2.2753188610076904,-0.03382720425724983,,,,,,,,,
1739402085.6125267,0.5255462178980876,0.09633298509305727,-0.9533344861482089,-2.0693402355424166,0.13810988699789203,2.13799027826394,-1.2756393672719613,-0.0006956704345987042,-0.0005835124280677568,-0.001647582643685807,0.00024837482992390314,1.7562927671090856e-05,0.0002803323260960136,-0.003061236465819736,0.2173345386981964,-21.79654312133789,-2.38179087638855,22.61603546142578,0.7002664804458618,2.2679946422576904,-0.0008682189509272575,,,,,,,,,
1739402085.6225512,0.5255483238892734,0.09633840710100619,-0.9533313725325633,-2.069342706039412,0.13810973395522883,2.137988982409035,-1.2756424572835845,-0.0011389734284220636,4.648744580784095e-05,-0.001192696338187945,-0.00048414614969687867,-0.00014956560105330817,-0.00040603630680744135,-0.0032073385638336886,0.2173345386981964,-21.87192153930664,-2.38179087638855,22.63983917236328,0.7002664804458618,2.2551772594451904,-0.0008682189509272575,,,,,,,,,
1739402085.6334922,0.52554684541027,0.09633680890198534,-0.9533277508844206,-2.069336706094942,0.13810965025654523,2.1379883812379217,-1.2756321620067996,-0.0008744108461355724,0.0007534156174098312,0.0007612444978086308,0.001283286507175011,-0.0007336611290351643,0.0010270603149182588,0.0026756852715408112,0.2411382496356964,-21.84811782836914,-2.4333655834198,22.56842803955078,0.7002664804458618,2.2615859508514404,-0.06037749722599983,,,,,,,,,
1739402085.64356,0.5255426284506503,0.09633738476639299,-0.9533302834884124,-2.069340311127638,0.13810983941991697,2.1379885225786084,-1.2756354159060288,-0.0029644228935225953,-0.0006804452328609027,0.0005873600678910066,-0.00038772890372968896,-0.00011063476065613007,0.00030067525478734273,0.000668522054368755,0.2689092457294464,-21.82431411743164,-2.4095618724823,22.61603546142578,0.7002664804458618,2.2753188610076904,-0.06037749722599983,,,,,,,,,
1739402085.6545603,0.5255485575631377,0.09633615367324536,-0.9533344998896439,-2.0693366947537934,0.13811047557409464,2.1379915412670027,-1.2756365021086102,0.00020087070831072536,-0.00018566564150052754,-7.296097298208003e-05,0.0016735212199033129,-0.0006941463151670047,0.00038762472261924974,-0.00022098166665354105,0.2173345386981964,-21.79654312133789,-2.38179087638855,22.56842803955078,0.6938577890396118,2.2615859508514404,-0.06037749722599983,,,,,,,,,
1739402085.6655474,0.5255464518658723,0.09633349421352415,-0.9533315237074129,-2.069337588016659,0.1381113463309498,2.13798989763704,-1.275640936190988,-0.0005431169807369839,-0.0009243123360031279,0.0004488205416472881,0.0006739235141995921,-0.0001308426315395749,-0.0013455183240724915,-0.001852985714252691,0.2173345386981964,-21.77273941040039,-2.4095618724823,22.56842803955078,0.6865335702896118,2.2753188610076904,-0.013685601763427258,,,,,,,,,
1739402085.6755893,0.5255447694339316,0.09633137686353636,-0.9533293864272426,-2.0693387358684023,0.13811468633514257,2.137991547573037,-1.2756360541114353,-0.00116524752319603,-0.0005468335702432266,0.0007217912182141672,0.00020125670256135564,0.00020413708629229402,-0.00016416171148524714,-0.0010756039751518482,0.2689092457294464,-21.77273941040039,-2.4095618724823,22.56842803955078,0.6865335702896118,2.2615859508514404,-0.027418512850999832,,,,,,,,,
1739402085.6875465,0.5255485578248843,0.09633161662064284,-0.9533292695790744,-2.0693387355495734,0.1381097560046299,2.1379899369367674,-1.2756384755007535,0.00015122406628909947,-0.0008104936763252852,-0.0003039402167236433,-0.0007951912880013983,-0.0004557192500416474,-0.0004628397093889754,-0.00015652819801786747,0.2173345386981964,-21.77273941040039,-2.4095618724823,22.56842803955078,0.7002664804458618,2.2753188610076904,-0.0072769103571772575,,,,,,,,,
1739402085.6984801,0.525548554080414,0.09633711404490578,-0.9533275114727682,-2.069333495557017,0.13811077962081622,2.1379915606556574,-1.2756297763202258,2.5024542441927804e-05,0.0024620118251418117,0.0004961152723171008,0.001189317674519002,-0.001076160254846008,0.00016805289462003544,0.004249031929151054,0.2173345386981964,-21.82431411743164,-2.4333655834198,22.51685333251953,0.7002664804458618,2.2615859508514404,-0.08051909506320953,,,,,,,,,
1739402085.7085981,0.5255462178980548,0.09632748658186777,-0.9533275114847028,-2.069332806788345,0.13811250781052137,2.137990802995579,-1.275634001804496,-0.001711276211894827,-0.0016966560014964821,0.0005652738378576927,0.0008320660526885146,0.00036778466502568655,0.00037978876881267936,0.000617124702248344,0.2173345386981964,-21.72116470336914,-2.4333655834198,22.51685333251953,0.7066751718521118,2.2679946422576904,-0.05396880581974983,,,,,,,,,
1739402085.7195277,0.5255502704041782,0.09633127192229983,-0.9533293746157282,-2.0693366682987473,0.13811081111623622,2.137990534161461,-1.275633692213553,0.00040900861953252786,-0.0007170816118572939,0.0004318472739555028,0.0005477588252355536,0.00047548842600640397,-0.0002864967949640873,0.0016984706697244136,0.1935308277606964,-21.77273941040039,-2.4095618724823,22.56842803955078,0.6938577890396118,2.2679946422576904,-0.04756011441349983,,,,,,,,,
1739402085.7295818,0.5255489409293208,0.09633127203098539,-0.9533292941630845,-2.0693384528653658,0.13811478327065094,2.1379899366092774,-1.2756348784784934,0.00018942241251140428,-0.000338795945819286,0.0001756354518565808,0.00017068560848908189,0.0014569374580694478,-7.200447254145475e-05,0.0009648809189579344,0.1697271168231964,-21.77273941040039,-2.4095618724823,22.59223175048828,0.6938577890396118,2.2753188610076904,-0.07411040365695953,,,,,,,,,
1739402085.740667,0.5255506738300736,0.09633498595686137,-0.9533265754710221,-2.0693393703786036,0.13810971669556862,2.1379914429180853,-1.2756305339863598,0.0009553792679710299,0.0007333601757211406,0.0015927250760840227,-0.000880426411753702,-0.0006253209594911719,0.00015497407794956916,0.0009817310097436467,0.2173345386981964,-21.82431411743164,-2.4333655834198,22.59223175048828,0.7002664804458618,2.2615859508514404,-0.07411040365695953,,,,,,,,,
1739402085.751482,0.5255485550553355,0.09633529915077843,-0.9533313739462937,-2.0693387580434406,0.1381129096780042,2.1379902920576392,-1.2756345789630974,-8.505446781134759e-05,0.0008869829859077075,-0.00011063007680779137,-0.0011313416299723123,0.0006473732515042602,5.532634337168619e-05,-0.0007931955450112692,0.2173345386981964,-21.82431411743164,-2.38179087638855,22.59223175048828,0.7002664804458618,2.2817275524139404,-0.04023589566349983,,,,,,,,,
1739402085.7615192,0.5255495619424649,0.09633987913858015,-0.9533300021678773,-2.069340234707756,0.13811019346759448,2.1379905010363704,-1.2756357855770761,0.0016382132380525706,-0.0002837747201238734,-0.00015706566618716082,0.0003099122186477967,-0.0007143161635377268,0.0003799912915711507,-0.001954698129659705,0.1697271168231964,-21.84811782836914,-2.4095618724823,22.61603546142578,0.7002664804458618,2.2615859508514404,-0.03382720425724983,,,,,,,,,
1739402085.7725043,0.5255430308991541,0.09633309856663723,-0.9533316123741534,-2.0693414365679725,0.13811251573371341,2.1379923183097542,-1.2756352585141855,-0.002483864315004398,-0.0020227450462853387,-0.0003986774762471249,-5.6722396340720324e-05,-0.0006405587852385714,0.000375536692169964,6.89331921859724e-05,0.2927129566669464,-21.79654312133789,-2.38179087638855,22.59223175048828,0.7066751718521118,2.2551772594451904,-0.0072769103571772575,,,,,,,,,
1739402085.7825735,0.5255539770609675,0.09633752027519922,-0.9533313739556153,-2.0693423051416358,0.13811252162362808,2.1379891794382684,-1.2756391935422027,0.00241912175785479,-0.0006804228237246215,0.0005569518753140683,-1.549821625649537e-05,0.0009019171240317477,-0.0008095662730521625,-0.002522847538606534,0.1419561207294464,-21.84811782836914,-2.38179087638855,22.61603546142578,0.7066751718521118,2.2817275524139404,-0.0008682189509272575,,,,,,,,,
1739402085.794508,0.525543956337792,0.09633817834522126,-0.9533275114847031,-2.0693432967309073,0.13810971669135558,2.137989179664376,-1.2756353502529043,-0.0011575126758718943,-0.0002076664894447857,0.0014851758887051405,-0.0010350215958309377,-0.0015228506686497275,-0.0005099691844245988,-4.94439909148926e-05,0.2411382496356964,-21.82431411743164,-2.4333655834198,22.61603546142578,0.7002664804458618,2.2817275524139404,-0.03382720425724983,,,,,,,,,
1739402085.8045952,0.5255475867745515,0.09634184016296007,-0.95332718813094,-2.069339175800078,0.1381115895561437,2.1379899370983506,-1.2756413516808631,-1.3817290944703449e-05,0.0010747820391648504,0.0003708481291387441,-0.00014524438020040257,0.0007836445061613212,-0.0008366515476612374,-0.0016376455071777088,0.2173345386981964,-21.87192153930664,-2.4095618724823,22.59223175048828,0.6938577890396118,2.2753188610076904,-0.013685601763427258,,,,,,,,,
1739402085.8155198,0.525545489881997,0.09633617944475396,-0.9533315863222223,-2.069338770324842,0.13811563118533093,2.137990802995579,-1.2756329159168776,0.00027479521506670754,-0.0005920128136720107,-0.00023778418535269245,-0.00039315378745692056,-0.0007488057468245359,0.0014605617516604754,0.0015108069102311192,0.2173345386981964,-21.79654312133789,-2.38179087638855,22.59223175048828,0.6865335702896118,2.2679946422576904,-0.05396880581974983,,,,,,,,,
1739402085.8255587,0.5255440113182106,0.09633619221798785,-0.9533292941653185,-2.0693374210476483,0.13810820266583684,2.137992318315736,-1.275634034881902,-0.0007740362489560444,-0.00036987694470287853,0.0005995951984055682,0.0005562680129350718,-0.0001486259589514376,0.00016722995176149624,0.0006708472374977698,0.2411382496356964,-21.79654312133789,-2.4095618724823,22.54065704345703,0.7130838632583618,2.2551772594451904,-0.04756011441349983,,,,,,,,,
1739402085.8365066,0.5255437165749758,0.09633615118778556,-0.9533313739159117,-2.0693391674952295,0.1381104787056023,2.137992318315736,-1.2756369199541646,-0.001248896643404113,-0.00022997506173022233,-0.0006565134569982948,-6.52109516702733e-05,-0.001139073427727702,0.000822116406568822,0.00013241587685094533,0.2411382496356964,-21.79654312133789,-2.38179087638855,22.59223175048828,0.6938577890396118,2.2551772594451904,-0.020094294100999832,,,,,,,,,
1739402085.846564,0.5255512780216057,0.09633333926252102,-0.9533264890641179,-2.0693376655028612,0.13811200948688349,2.137990802995579,-1.2756416934994923,0.0005450863970007053,-0.00021687434955697504,0.0008874135648999708,-0.00039266027182874286,0.0018055083032915212,0.0004563971620647628,-0.0007594860027845303,0.1697271168231964,-21.79654312133789,-2.4095618724823,22.56842803955078,0.6938577890396118,2.2679946422576904,-0.0072769103571772575,,,,,,,,,
1739402085.8575273,0.5255485306360345,0.09633075738731968,-0.9533314663723826,-2.069339425684285,0.1381097184253547,2.137992318485317,-1.2756380465302906,0.0008505603224602071,-0.0009883146444798377,0.0005426244380432555,-9.965921722927739e-05,-0.0012012497132279365,0.0002847161543543474,-0.0009897829630673496,0.2173345386981964,-21.72116470336914,-2.4095618724823,22.56842803955078,0.7002664804458618,2.2551772594451904,-0.020094294100999832,,,,,,,,,
1739402085.86758,0.5255517588984672,0.09633807313065,-0.9533313739281739,-2.0693370022513258,0.13811250779252768,2.137992309812468,-1.2756380060889254,0.0015667646233196095,0.0010904546403142088,0.0004100949756692048,-0.0004548310243072538,-0.0001605659948469088,-0.00025129148359164845,-0.0008950923288684564,0.1419561207294464,-21.82431411743164,-2.38179087638855,22.56842803955078,0.7066751718521118,2.2551772594451904,-0.020094294100999832,,,,,,,,,
1739402085.8795433,0.525549876787796,0.09633246981122645,-0.9533313742786262,-2.069339428223773,0.13811262224581738,2.13799156065561,-1.2756329151849146,0.0015972170759650205,-0.0005264488503254198,-0.0004373953192855462,-0.00037513209102014604,0.00010342269888234705,-0.0001529836836465797,0.002163785602509199,0.1697271168231964,-21.74496841430664,-2.38179087638855,22.56842803955078,0.7066751718521118,2.2615859508514404,-0.05396880581974983,,,,,,,,,
1739402085.8895915,0.5255519452631274,0.09633246995616526,-0.9533313742786282,-2.069338477585927,0.13811484571358834,2.137990802995579,-1.275633556591181,0.00027432960245412453,9.658760783530962e-06,0.0005066401259768449,-0.0003336791521199148,0.0012241945453704388,-0.0005730024675112948,0.0012171095271363598,0.1697271168231964,-21.74496841430664,-2.38179087638855,22.59223175048828,0.6938577890396118,2.2679946422576904,-0.04756011441349983,,,,,,,,,
1739402085.9005263,0.5255476092570638,0.09633618041775033,-0.9533313827818972,-2.069339374052995,0.13810798021817616,2.137992318315736,-1.2756346582456588,-0.0001204969879812554,0.0004339589077272066,-0.0005037664026701934,-0.0013919429527764714,0.0008611988835619435,0.00021144269756724846,0.001044946781216969,0.2173345386981964,-21.79654312133789,-2.38179087638855,22.59223175048828,0.7002664804458618,2.2551772594451904,-0.06678618490695953,,,,,,,,,
1739402085.9115186,0.5255465060816603,0.09633620964773731,-0.95333137384463,-2.0693397304255785,0.13811337987606045,2.137990802995579,-1.275642026838787,0.00018023647134532417,0.0006069006620625105,-0.00023432251112385263,-0.00026074261831571244,-0.0010251833111404088,-0.0003062434904343564,-0.0008065215472212365,0.2411382496356964,-21.79654312133789,-2.38179087638855,22.56842803955078,0.7002664804458618,2.2679946422576904,-0.013685601763427258,,,,,,,,,
1739402085.9225202,0.5255475078536146,0.09633375760883058,-0.9533275157363357,-2.069341242129336,0.13811454415204322,2.1379915626906283,-1.2756377991835153,0.00012978505144338595,-0.002366913432295982,0.0009105268489133337,-0.0003816137005928831,0.00014339996251879785,0.0006995728929712607,-0.0019331225521399234,0.2173345386981964,-21.77273941040039,-2.4333655834198,22.61603546142578,0.6865335702896118,2.2615859508514404,-0.04023589566349983,,,,,,,,,
1739402085.932643,0.5255495346165707,0.09633818171062934,-0.9533334166984399,-2.069340464226535,0.1381109412710931,2.1379907899136383,-1.2756336735194402,0.0005797706154894344,0.00017688372355931567,-0.000839133314984106,-0.0004668570947506344,-0.0010107441140977664,-0.0002727459524134558,0.0006455980485595858,0.1697271168231964,-21.82431411743164,-2.38179087638855,22.61603546142578,0.7002664804458618,2.2679946422576904,-0.04756011441349983,,,,,,,,,
1739402085.9445431,0.5255482069312039,0.09634229358428312,-0.9533320890761829,-2.069337395941913,0.138111713500924,2.1379938351620464,-1.2756356579546873,-0.0003758078753327282,0.0013969027129904809,-0.0012760917756353624,0.0008061009699258225,0.000990468681925137,0.0012310210232917144,-0.0006781393060457024,0.2173345386981964,-21.84811782836914,-2.38179087638855,22.56842803955078,0.6938577890396118,2.2423598766326904,-0.03382720425724983,,,,,,,,,
1739402085.9545643,0.5255457119052038,0.09633817840825314,-0.9533275105257629,-2.069338795939643,0.13811336807414135,2.137991560825247,-1.2756384357724209,-0.0004954947256582204,0.0007414416120557618,0.0006315682118488916,0.0005985163009424737,0.0004019664193395674,0.0003205776252062053,-0.0027131646127771126,0.2173345386981964,-21.82431411743164,-2.4333655834198,22.59223175048828,0.7066751718521118,2.2615859508514404,-0.0072769103571772575,,,,,,,,,
1739402085.965487,0.5255454027398243,0.09634160343615246,-0.9533226867632155,-2.069339541643752,0.13810900456094632,2.137992318315737,-1.2756314063152558,-1.2574347265486554e-06,0.0017844542516956183,0.0025790050199300573,0.0005424607648655301,-0.0011586655606430406,-0.0002266631190214497,0.0018588317055407153,0.2173345386981964,-21.87192153930664,-2.4571692943573,22.59223175048828,0.7066751718521118,2.2551772594451904,-0.06678618490695953,,,,,,,,,
1739402085.9755628,0.5255464130080328,0.09633712746932904,-0.9533292678692782,-2.069340628775877,0.13811038189429461,2.137991426696639,-1.2756330497655326,-0.0007580120031085548,0.0005728568501566636,0.00010089007090423576,0.0005086882236083058,-0.00019333554179015136,0.0001402480217601767,0.0004360827985358587,0.2173345386981964,-21.79654312133789,-2.38179087638855,22.59223175048828,0.7066751718521118,2.2753188610076904,-0.05396880581974983,,,,,,,,,
1739402085.9865468,0.5255501534685177,0.0963381783746418,-0.95333043790223,-2.069340556359034,0.1381119105226202,2.137991560680884,-1.2756329958251513,0.0012288597207438191,0.000691776240120264,0.00024262347181773568,0.0002525860383867708,-0.0008238140591880742,0.0009539988336302988,0.0009940187209201974,0.1935308277606964,-21.82431411743164,-2.38179087638855,22.59223175048828,0.6938577890396118,2.2615859508514404,-0.027418512850999832,,,,,,,,,
1739402085.9974854,0.5255475082395763,0.09633447760426175,-0.9533291901584405,-2.0693414379716466,0.13811285598344103,2.137990816731629,-1.2756357779616196,-0.000524417784746142,-0.00036298685170241593,0.0003337655189410082,-0.0017454771898769055,0.00046722814871929017,-0.0007822933342343,-4.590875641505824e-05,0.2173345386981964,-21.77273941040039,-2.4095618724823,22.59223175048828,0.6737161874771118,2.2679946422576904,-0.06037749722599983,,,,,,,,,
1739402086.007548,0.5255474619662444,0.09633233659809597,-0.9533313867047197,-2.0693368998271926,0.13811414030816027,2.1379915606558906,-1.2756321620496849,0.00019503260371516807,6.116422209526386e-05,-0.0011957566712832513,-0.00044960219746102486,0.002083377827405266,-0.0002785108195303178,-0.001130112292950652,0.1935308277606964,-21.77273941040039,-2.38179087638855,22.56842803955078,0.7002664804458618,2.2615859508514404,-0.06037749722599983,,,,,,,,,
1739402086.0175536,0.5255463382226878,0.09633724143018392,-0.9533290601585178,-2.0693374718090776,0.13811418941014694,2.137991560655658,-1.2756334536909628,-0.0012074930548361365,0.002138112539195148,0.0008240048677319075,-0.00044357647977329417,-0.0009764928534056169,-0.0002166823677589976,-0.0002270637763760508,0.2173345386981964,-21.79654312133789,-2.4095618724823,22.56842803955078,0.6938577890396118,2.2615859508514404,-0.05396880581974983,,,,,,,,,
1739402086.0296187,0.5255463724612371,0.09633446790300858,-0.9533316123688358,-2.06934151355683,0.13810983479771607,2.1379910497183827,-1.2756336748284205,0.0007968854234696347,0.0002056812633096952,0.0001475626325099603,-0.0014978668413574369,-0.0005305362920162872,0.00020198036954269607,0.0007336953768699544,0.2173345386981964,-21.77273941040039,-2.38179087638855,22.59223175048828,0.7002664804458618,2.2753188610076904,-0.04756011441349983,,,,,,,,,
1739402086.041545,0.5255492264272802,0.09633618041775034,-0.9533322472153339,-2.0693366850545143,0.1381151988755582,2.1379915606577513,-1.2756353024109133,-4.248175797244466e-05,0.0002714881031665554,-0.0004762199177235774,0.0017180191344441508,-0.00021887115311339784,-0.0006263266032886417,-0.00017640678337643744,0.1935308277606964,-21.79654312133789,-2.35798716545105,22.54065704345703,0.6938577890396118,2.2615859508514404,-0.03382720425724983,,,,,,,,,
1739402086.0515523,0.5255509299942116,0.09633618431508194,-0.9533323315350787,-2.0693402432413297,0.13811357876053337,2.1379909403560773,-1.275637675870877,0.00046081799477943925,-0.0007574068542939671,-0.0001342391407332327,-0.0011689910526739347,0.0017241137713829434,0.00026045640416301404,-0.0013244497706419562,0.1697271168231964,-21.79654312133789,-2.38179087638855,22.61603546142578,0.7066751718521118,2.2679946422576904,-0.05396880581974983,,,,,,,,,
1739402086.0625088,0.5255475058957598,0.09634030868336539,-0.9533321581299123,-2.069337358008355,0.138113968909958,2.1379915613907667,-1.2756380530746583,-0.0003248259334729662,0.0010852509131662668,-0.00040126449152038627,0.0005605548783052839,0.000554334509210355,-8.32501994570973e-05,-0.0004435670028909215,0.2173345386981964,-21.82431411743164,-2.4095618724823,22.56842803955078,0.7002664804458618,2.2615859508514404,-0.013685601763427258,,,,,,,,,
1739402086.0725455,0.5255478481913617,0.09633849415069447,-0.9533313740970822,-2.069340567519818,0.13811446033250452,2.1379908029956165,-1.2756391974225707,-0.00077948635806344,0.0005987521640471732,-0.0005129286708354046,0.0002767269383738074,0.0014049791710107175,2.40499884279371e-05,-0.0005477270333748363,0.1935308277606964,-21.82431411743164,-2.38179087638855,22.61603546142578,0.7002664804458618,2.2679946422576904,-0.0008682189509272575,,,,,,,,,
1739402086.0825732,0.5255453998889512,0.09634042318729959,-0.9533285921514622,-2.069344772335628,0.1381124705109607,2.1379915592021077,-1.2756380575353925,-0.0007449236794432063,0.0005816686124674072,0.0004567699262583877,-0.001922595344045474,0.0006502645114076671,-0.0007331979450407033,-0.00036043317974897315,0.2173345386981964,-21.82431411743164,-2.4095618724823,22.63983917236328,0.7130838632583618,2.2615859508514404,-0.013685601763427258,,,,,,,,,
1739402086.0935678,0.5255457118536923,0.0963384941994805,-0.9533292941577591,-2.069342939737376,0.13811002635904196,2.13799080278023,-1.275633606410314,-0.0009783215291777184,-0.00021872550592779783,0.00022508437610353185,-0.0006086474501608075,-0.002570119010381891,0.00041295300416761523,0.000530346154545881,0.2173345386981964,-21.82431411743164,-2.4095618724823,22.63983917236328,0.7066751718521118,2.2679946422576904,-0.06037749722599983,,,,,,,,,
1739402086.104517,0.5255489288938754,0.09633989088111751,-0.9533275114847031,-2.069343321289425,0.13810901728689157,2.137991931367496,-1.2756365020432145,0.00036308781456270397,-0.0007762418759756752,0.0013924748087625904,-0.00043638803816891314,-0.00207738749036643,0.0011542327763190896,-0.0007354821870486964,0.1697271168231964,-21.84811782836914,-2.4333655834198,22.61603546142578,0.7066751718521118,2.2615859508514404,-0.06037749722599983,,,,,,,,,
1739402086.1145425,0.525549525943205,0.09634016564121227,-0.9533292941617221,-2.069342415685428,0.1381117091227038,2.1379941454532037,-1.2756336775292536,0.0010476458961751862,-0.0002924620452744378,0.00017971749805390807,0.0010212581666978247,9.23517117264072e-05,0.0010731743365248888,0.0018530491025230415,0.1697271168231964,-21.84811782836914,-2.4095618724823,22.61603546142578,0.6938577890396118,2.2679946422576904,-0.04756011441349983,,,,,,,,,
1739402086.1246133,0.5255499194518861,0.09634013944403415,-0.9533257175790083,-2.0693331510489097,0.1381098541709459,2.1379915622572807,-1.275637621903711,-0.000416607223206872,-0.0004026269641876722,0.0008681914265966458,0.0009105224525564591,-0.0006292939742790894,-8.729287921533394e-05,0.0008199744764605253,0.1935308277606964,-21.84811782836914,-2.4571692943573,22.51685333251953,0.7002664804458618,2.2615859508514404,-0.05396880581974983,,,,,,,,,
1739402086.1354735,0.5255436950480629,0.09633557418218634,-0.9533254054538576,-2.0693338399083037,0.138111396302747,2.137995697384002,-1.2756367446500334,-0.0013311787574305542,-0.0008840949269543804,-0.0004577655312882019,-0.00016981244715471645,-0.00042402532678348923,0.0013125352671660468,-0.0024774793029811483,0.2411382496356964,-21.74496841430664,-2.4333655834198,22.51685333251953,0.7130838632583618,2.2551772594451904,-0.03382720425724983,,,,,,,,,
1739402086.1455266,0.5255463350069746,0.0963403969671854,-0.9533257286650206,-2.0693376934325545,0.13811125771320823,2.137991420648953,-1.2756391929583546,-0.0003543616802715236,0.0008318923332153561,0.001245491512771662,0.0003337690761641241,-0.00026261441314033156,0.0009079163566783627,-0.0012931179092238523,0.2173345386981964,-21.82431411743164,-2.4571692943573,22.56842803955078,0.7002664804458618,2.2753188610076904,-0.0008682189509272575,,,,,,,,,
1739402086.1555536,0.525549247305804,0.09633625970106514,-0.9533275114847006,-2.0693377023555866,0.13811610427517607,2.137990803020703,-1.2756385559547598,-0.0006339344504617849,0.0010662020254408482,0.0006848082052270794,0.0002635807242164198,0.0007063430497487074,-4.406188131803095e-05,-0.0015234141025534773,0.1935308277606964,-21.79654312133789,-2.4333655834198,22.56842803955078,0.6865335702896118,2.2679946422576904,-0.0072769103571772575,,,,,,,,,
1739402086.1675074,0.5255471143078687,0.09633446800572591,-0.9533313739515776,-2.069337690901403,0.13811050072795839,2.137991051753353,-1.2756351564217336,0.00012458232227963785,-0.0009792460388796918,-0.0005935891894202092,-0.001258840783188468,0.0009408417599578614,-0.0004801707456735746,-0.0008070620373906161,0.1935308277606964,-21.77273941040039,-2.38179087638855,22.56842803955078,0.7066751718521118,2.2753188610076904,-0.06678618490695953,,,,,,,,,
1739402086.1775346,0.5255491619325683,0.09633099715741514,-0.9533333950471758,-2.0693356112514545,0.13811222608139914,2.1379926761134214,-1.2756436998692657,0.0020633890054305134,-0.0013137777832145888,-0.0013812247622753387,8.254746456041261e-05,-0.0008825139596758073,-0.00044267940131193916,-0.004287563199253632,0.1697271168231964,-21.72116470336914,-2.35798716545105,22.54065704345703,0.7194925546646118,2.2551772594451904,-0.0008682189509272575,,,,,,,,,
1739402086.1875744,0.5255476089241755,0.09633618919080614,-0.95333523642249,-2.0693359048183018,0.1381129844078048,2.137990803679962,-1.2756405411222567,0.0006626884779133493,1.5772713007867535e-05,-0.00196107032485022,-0.0001193333366334621,0.000387331452432355,-0.0003709321901619975,-0.0015585569892118828,0.2173345386981964,-21.79654312133789,-2.3302161693573,22.51685333251953,0.7130838632583618,2.2679946422576904,-0.020094294100999832,,,,,,,,,
1739402086.198562,0.5255499550905494,0.09633641750547202,-0.9533293294829931,-2.0693355451266395,0.13811368957656117,2.1379908029955828,-1.2756444038644625,0.0007066781226697257,0.0014453552126226128,0.00011169352735134472,0.0008913416558832122,0.00016093448669093815,-0.00010072600151026157,-0.0018312079022844321,0.1935308277606964,-21.79654312133789,-2.4095618724823,22.54065704345703,0.7066751718521118,2.2679946422576904,0.0064559997990727425,,,,,,,,,
1739402086.2095428,0.5255499310553662,0.09633449463838263,-0.9533342349747262,-2.0693394359607136,0.13811374190558784,2.1379900607227955,-1.2756369602601954,0.0010719632085489463,-0.0005293915558626479,-0.0013420601990623397,0.0005096802844541547,0.000999619725483819,0.0003192652489234595,-0.00019949157712260436,0.1935308277606964,-21.77273941040039,-2.38179087638855,22.56842803955078,0.7066751718521118,2.2753188610076904,-0.020094294100999832,,,,,,,,,
1739402086.2204907,0.525543790382855,0.09634160340021673,-0.9533292643255844,-2.0693433340022502,0.13811478512421443,2.137989145563484,-1.2756360540564784,-0.0017219836601984708,0.0022106197956737114,0.0006673930222028099,-0.0009225005019362746,0.000986540702222494,0.0001728744548803149,-0.0006745779136301086,0.2411382496356964,-21.87192153930664,-2.4095618724823,22.61603546142578,0.6865335702896118,2.2551772594451904,-0.027418512850999832,,,,,,,,,
1739402086.2315457,0.5255436867951693,0.0963391254101815,-0.9533292938402244,-2.069342468813337,0.1381128943975851,2.137992318262005,-1.2756321576842484,-0.0014969169126331024,0.0010042013777372158,0.00037222456074093816,-0.0004880347953296657,0.00018410518203915757,1.842028031799869e-05,0.001715591914325334,0.2411382496356964,-21.82431411743164,-2.4095618724823,22.61603546142578,0.6865335702896118,2.2551772594451904,-0.06037749722599983,,,,,,,,,
1739402086.2416086,0.5255478147011129,0.0963385216539077,-0.9533275029269241,-2.069343001147005,0.13811049876571507,2.1379931217626464,-1.2756401783407318,-0.00022674450028931488,0.0012270738846163524,0.0006344625839096788,0.00015723688669623764,-0.0002767079472025606,0.0004178049458811102,-0.0010065142657101267,0.1935308277606964,-21.82431411743164,-2.4333655834198,22.61603546142578,0.7066751718521118,2.2487685680389404,-0.020094294100999832,,,,,,,,,
1739402086.2525427,0.5255471147634373,0.09633841947277719,-0.9533275028178614,-2.069341550905316,0.1381143291128312,2.137991560712443,-1.2756329196668441,0.000262041195894689,0.00020538873078021816,0.0007255130492142335,-0.0006200921070539224,-0.0002318602840628972,1.85503610697973e-05,0.000931263334312059,0.1935308277606964,-21.79654312133789,-2.4333655834198,22.59223175048828,0.7002664804458618,2.2615859508514404,-0.05396880581974983,,,,,,,,,
1739402086.2625887,0.5255492203266504,0.09634444849005026,-0.9533262492281811,-2.0693433403620576,0.13811205549997413,2.13799080299558,-1.2756340013079421,-0.0007573289871642088,0.0014512914654561011,0.0002947961882448198,-0.0009762519142988838,-0.0010209978942245612,0.0002501906584296559,-0.0006429883207063995,0.1935308277606964,-21.87192153930664,-2.4095618724823,22.61603546142578,0.7194925546646118,2.2679946422576904,-0.05396880581974983,,,,,,,,,
1739402086.2734997,0.5255478137500383,0.0963403443166991,-0.9533257287904952,-2.069343334039157,0.1381126786313984,2.137991560655658,-1.2756415801167946,0.0006708988207881946,-0.0007000448610195239,0.000611107778381366,-0.0005227023892968978,-0.00037145307420835376,4.060055487535978e-05,-0.0018222307949275016,0.1935308277606964,-21.82431411743164,-2.4571692943573,22.61603546142578,0.7066751718521118,2.2615859508514404,0.019273381680250168,,,,,,,,,
1739402086.2835903,0.525549452415954,0.0963391255551214,-0.9533310505978143,-2.069341233731693,0.13811125399585691,2.1379908579397786,-1.275640178340832,0.0007245352172224574,0.0005799099200452537,-0.0008386796111623369,1.7343895523395686e-05,-0.0010451974552240896,4.604551748287327e-05,-0.001942804998311047,0.1935308277606964,-21.82431411743164,-2.35798716545105,22.61603546142578,0.7002664804458618,2.2679946422576904,-0.020094294100999832,,,,,,,,,
1739402086.294471,0.5255439319734435,0.09633844273294369,-0.9533331565810423,-2.0693376775106866,0.13811448215853603,2.1379919727374626,-1.2756395565403196,-0.0014112662000558642,0.0008185218522835586,-0.0002481287881126998,0.0006887166318605257,0.00028674522730163973,0.0007643717712161211,-0.00016433560161839555,0.2411382496356964,-21.82431411743164,-2.35798716545105,22.54065704345703,0.7002664804458618,2.2615859508514404,-0.0008682189509272575,,,,,,,,,
1739402086.3045895,0.5255425378673594,0.09633765104707828,-0.9533313740605931,-2.069341552064459,0.13810869307901436,2.1379908442107074,-1.2756343193949182,-0.0011155678264002113,-0.0007209043203294594,-9.583522145121816e-05,-0.0007969598635160749,-0.0016289392014237616,-0.00037072737253238277,0.0006934104045372207,0.2173345386981964,-21.77273941040039,-2.38179087638855,22.59223175048828,0.7130838632583618,2.2679946422576904,-0.0072769103571772575,,,,,,,,,
1739402086.3146,0.5255477772940782,0.09633531452039748,-0.9533313739515832,-2.0693374564725793,0.13811232312578176,2.1379926732777874,-1.2756429047316482,0.0008689139598924654,-6.851674717736573e-05,-0.00030906074147987256,-0.000685085873883703,0.0002463396639475008,0.0010295620296729279,-0.0007794106790043099,0.2173345386981964,-21.74496841430664,-2.38179087638855,22.54065704345703,0.7066751718521118,2.2615859508514404,-0.0072769103571772575,,,,,,,,,
1739402086.3255289,0.525543686381782,0.09633721550144835,-0.9533292941617221,-2.0693376982611342,0.1381112709682731,2.137990809102584,-1.2756351746737797,-0.0009749590406013597,0.000513424463163889,-0.0006976203503000935,0.0006773145950482898,-0.0006794619905590735,-0.001674445693245909,0.0008632525406937138,0.2411382496356964,-21.79654312133789,-2.4095618724823,22.56842803955078,0.7002664804458618,2.2679946422576904,-0.04756011441349983,,,,,,,,,
1739402086.3365085,0.5255471894080207,0.09633552441618883,-0.9533292249908997,-2.069338537729766,0.1381129785207664,2.1379924419402876,-1.2756376776391054,0.00016850180995071375,0.0008139093391274415,8.995453993245131e-05,0.0006689280301044503,-0.0012932180725282476,0.0011091570312345058,-0.00012102803735114694,0.1935308277606964,-21.77273941040039,-2.4095618724823,22.59223175048828,0.7130838632583618,2.2551772594451904,-0.013685601763427258,,,,,,,,,
1739402086.3475442,0.5255471201213749,0.096330766206419,-0.9533316123700265,-2.069337692901991,0.13811612328527245,2.1379926732759262,-1.275636054718424,0.0002735804192823452,-0.0013021862291890136,-0.0002582502483106328,-0.0005251461925432673,0.0008542973479749524,-0.0007738135628510709,-0.0008794106331224084,0.1935308277606964,-21.72116470336914,-2.38179087638855,22.56842803955078,0.6865335702896118,2.2615859508514404,-0.027418512850999832,,,,,,,,,
1739402086.3575459,0.5255436863655655,0.09633528341380437,-0.9533316123741944,-2.0693368976361484,0.1381113058571584,2.137994140874529,-1.2756342367580544,-0.0008516079456696431,-0.000269955104471757,-0.00027399540157446023,0.0011118071340980324,-0.0013897323293010962,6.394267493559455e-05,0.001096477412947237,0.2411382496356964,-21.77273941040039,-2.38179087638855,22.54065704345703,0.7002664804458618,2.2679946422576904,-0.03382720425724983,,,,,,,,,
1739402086.36851,0.5255471114068805,0.09633247010511531,-0.9533295053777435,-2.069337650958483,0.138115086071144,2.1379919705786565,-1.275635898624008,0.0007167553761852272,-0.0019335876126551136,0.0002508994038543152,0.0009217324496822733,0.00035061343165612176,0.0014003454116281399,0.0005833299869539344,0.1935308277606964,-21.74496841430664,-2.38179087638855,22.54065704345703,0.6938577890396118,2.2679946422576904,-0.06037749722599983,,,,,,,,,
1739402086.3785775,0.5255471460740538,0.09633910341645069,-0.953323728679095,-2.06934155136146,0.1381136895736599,2.137992318335509,-1.2756332774507102,0.00021945388467341012,0.0007494802597573097,0.0014878597244060423,-0.0012946134460265707,0.0005774295905954651,-0.0003391071486231826,-0.001505887782058817,0.1935308277606964,-21.79654312133789,-2.48494029045105,22.59223175048828,0.7066751718521118,2.2551772594451904,-0.05396880581974983,,,,,,,,,
1739402086.3895004,0.5255473454108878,0.09633746855245791,-0.953332089208664,-2.0693397686850834,0.13810974306709836,2.1379927282198934,-1.2756345387422294,0.00046374721155969373,-0.0002834193451874676,-0.0015468707643832872,0.0004152058214433544,-0.00018426436978263692,-0.00038929121436692346,-0.0006241699495265309,0.1935308277606964,-21.82431411743164,-2.38179087638855,22.56842803955078,0.7130838632583618,2.2615859508514404,-0.04023589566349983,,,,,,,,,
1739402086.3995538,0.5255454335572854,0.09634281224212363,-0.953329294173835,-2.0693392173722467,0.1381159524715478,2.137991561184173,-1.2756387652326433,-0.00035375600998033215,0.0007232996722870178,-0.0002730288069725251,0.0020087118548059897,-0.0005369180248134691,-0.00041033340645116003,-0.000851766035069061,0.2173345386981964,-21.84811782836914,-2.4095618724823,22.59223175048828,0.6865335702896118,2.2615859508514404,-0.013685601763427258,,,,,,,,,
1739402086.410535,0.5255471126910455,0.09634109891991696,-0.9533262521172591,-2.069341551208956,0.13811374158089934,2.1379899789848227,-1.2756377983008205,0.00047790818878727713,3.338600989304238e-05,0.001107280920599699,-0.0004103077915351993,2.5541692598856866e-05,0.0003791706803183393,0.0006496835403549666,0.1935308277606964,-21.82431411743164,-2.4095618724823,22.59223175048828,0.7066751718521118,2.2753188610076904,-0.013685601763427258,,,,,,,,,
1739402086.421539,0.5255512419629563,0.09633853043508202,-0.9533316889483612,-2.069341525840631,0.13811055122127117,2.1379899508344757,-1.275633672839089,0.0007938453583001359,0.00011464480660164598,-0.0012412947956606131,0.0011340475160662752,-3.157255337379259e-05,-0.0008047802886595599,0.0027124463154749225,0.1697271168231964,-21.82431411743164,-2.38179087638855,22.59223175048828,0.7066751718521118,2.2753188610076904,-0.04756011441349983,,,,,,,,,
1739402086.431584,0.5255453989270988,0.09634095485682304,-0.9533292941670565,-2.069343333933711,0.13811298435377883,2.137990807744076,-1.2756329153443267,-0.0011021020623948944,0.000918548330367604,-0.00011611648391693209,-0.0010776976141339016,-0.000636573861268849,-0.0009389568895054256,0.0012421321903500048,0.2173345386981964,-21.84811782836914,-2.4095618724823,22.61603546142578,0.7130838632583618,2.2679946422576904,-0.05396880581974983,,,,,,,,,
1739402086.4424736,0.5255495294422236,0.09634134409247092,-0.9533268094744425,-2.069341551362101,0.1381129844078152,2.1379915626907082,-1.2756329285877872,0.0007051949722468504,0.001959579981175417,0.0006939467625226802,-0.0006519960261806763,0.0002407551503962148,0.00021003753183033316,0.001531133527207425,0.1935308277606964,-21.82431411743164,-2.4333655834198,22.59223175048828,0.7130838632583618,2.2615859508514404,-0.05396880581974983,,,,,,,,,
1739402086.4545383,0.5255492184051895,0.0963345039653221,-0.9533313739502567,-2.0693397686850834,0.13811449826988023,2.1379919710685606,-1.2756346587429699,0.0004171205853892543,-0.0014402880434994736,-0.000362803887953933,-0.0005502709834756615,5.118056431838075e-06,0.0008764865330376666,0.0001973583926319722,0.1935308277606964,-21.77273941040039,-2.38179087638855,22.56842803955078,0.7002664804458618,2.2679946422576904,-0.06678618490695953,,,,,,,,,
1739402086.464571,0.5255437945980267,0.0963355858733888,-0.9533313739515776,-2.0693397686850834,0.13811374206786975,2.1379961506934184,-1.2756329705254092,-0.001295359489373449,-0.0009982053151951684,-0.00042903045188035166,0.00043856287324242355,0.00045646073784499474,0.0014386093674988356,-0.0007297235041996263,0.2689092457294464,-21.74496841430664,-2.38179087638855,22.56842803955078,0.7066751718521118,2.2551772594451904,-0.05396880581974983,,,,,,,,,
1739402086.4765024,0.5255453989020009,0.09633839455302629,-0.9533331566285967,-2.0693415513621027,0.138114381622473,2.1379924562110304,-1.275639139194887,-0.00038478063914050136,-0.00016976967672557538,-0.0012289648837414938,-0.0018025525057807708,0.0003856496745289719,0.0009165552428259032,-0.0011206032977581534,0.2173345386981964,-21.79654312133789,-2.35798716545105,22.59223175048828,0.7002664804458618,2.2551772594451904,-0.013685601763427258,,,,,,,,,
1739402086.4865441,0.5255471201806713,0.09633733681469671,-0.9533292679207955,-2.069337688895228,0.13811326959122497,2.1379908030528845,-1.2756360987611717,4.619056792351409e-05,0.0001425298616002883,0.00034106157493115654,0.0007017753995437115,9.962319872365371e-05,0.0004482135988537732,0.00039105533154763794,0.1935308277606964,-21.77273941040039,-2.38179087638855,22.54065704345703,0.7066751718521118,2.2679946422576904,-0.027418512850999832,,,,,,,,,
1739402086.4965448,0.5255486761014013,0.09633660758065132,-0.9533331565929308,-2.069335872205133,0.13811299561940563,2.13799080299558,-1.2756414188912564,-0.0002733326106603396,0.00041241065017502085,-0.000678420775694545,0.0003510400800637361,-3.471640168822799e-05,-0.0007867899197537585,-0.001683231474059199,0.1419561207294464,-21.77273941040039,-2.35798716545105,22.51685333251953,0.7130838632583618,2.2679946422576904,-0.013685601763427258,,,,,,,,,
1739402086.507567,0.5255449626841163,0.09633660797718137,-0.9533292941617219,-2.0693393826084168,0.1381126791726309,2.137989953038948,-1.2756426122502078,-0.00027677382339627826,-0.0006059003458642865,0.00015358025584434105,-0.0006486147158889846,-0.0004828392256149216,-0.0017111708630838096,-0.0005903451696372523,0.1935308277606964,-21.77273941040039,-2.4095618724823,22.59223175048828,0.7066751718521118,2.2753188610076904,-0.0008682189509272575,,,,,,,,,
1739402086.518493,0.5255453998369967,0.09633645371216619,-0.9533313710626465,-2.0693353930003715,0.13811368908453026,2.137991615826055,-1.2756360540755531,-0.0003825962144334566,0.0014776147238825712,-0.00019114885847173807,0.0008075392752013133,-0.00037749895526853537,0.0005418093019271581,0.0009858845373333076,0.2173345386981964,-21.79654312133789,-2.38179087638855,22.54065704345703,0.7066751718521118,2.2615859508514404,-0.027418512850999832,,,,,,,,,
1739402086.5295007,0.5255451614305632,0.09633653442999866,-0.953329291272742,-2.069343332950454,0.13811343677757704,2.1379908075751968,-1.275635543043148,-0.0005451344455543117,0.00015316284067565486,0.0009869837451484185,-0.0003753045101113773,-2.5468220273325602e-05,-0.00025163767603542336,-0.0002575791913293603,0.2173345386981964,-21.79654312133789,-2.4095618724823,22.61603546142578,0.7002664804458618,2.2679946422576904,-0.06037749722599983,,,,,,,,,
1739402086.5395548,0.5255471229612644,0.09633482190663761,-0.9533292046048412,-2.06933953878188,0.13811282546972334,2.1379899386246004,-1.2756369200277757,-0.00016286320988799345,-0.0004907179940746882,0.0002905374760178995,0.0007780369387231296,-0.0012432531927702598,-0.0012749288454515654,-0.0010523250482255718,0.1935308277606964,-21.77273941040039,-2.4095618724823,22.56842803955078,0.7130838632583618,2.2753188610076904,-0.020094294100999832,,,,,,,,,
1739402086.550518,0.5255471155798461,0.09633447713713687,-0.9533313738440746,-2.0693367705408843,0.1381137026984973,2.1379908030521144,-1.275630534458465,-0.0009912310008327824,-0.0012704707238688773,-0.00160852865828845,0.0015389869227752668,0.0005162294152289382,-0.000978195684799633,0.0013099339930086429,0.1935308277606964,-21.77273941040039,-2.38179087638855,22.54065704345703,0.7066751718521118,2.2679946422576904,-0.07411040365695953,,,,,,,,,
1739402086.560619,0.5255453989932173,0.09634094326728149,-0.9533293291619989,-2.069339760166262,0.13811369209619967,2.137992318485318,-1.275636960346038,-0.0006513918667831724,0.0013478384866413182,-0.0008114303393753959,0.0011500235755928742,0.0006053741935350533,-0.0010675037801451419,-6.764221389391704e-05,0.2173345386981964,-21.84811782836914,-2.4095618724823,22.56842803955078,0.6801248788833618,2.2551772594451904,-0.020094294100999832,,,,,,,,,
1739402086.5715184,0.5255471155797815,0.09633923501053022,-0.9533289821573593,-2.0693415428587856,0.13811297586011007,2.1379919156156157,-1.2756398087423078,-0.0006183715165456548,0.0004674127613751282,-0.00026214862384615716,-0.00029630896697632834,0.001679134274605529,0.0001435640735810117,-0.002352863681313947,0.1935308277606964,-21.82431411743164,-2.4095618724823,22.59223175048828,0.6865335702896118,2.2679946422576904,-0.027418512850999832,,,,,,,,,
1739402086.5834746,0.5255478173047387,0.09633853349086681,-0.9533292912710297,-2.0693415513620548,0.1381144822130944,2.1379915622446934,-1.2756417115608611,0.00045661139325384057,-4.83060751982288e-06,-0.00012998843397787451,8.41564957788816e-05,0.0002395491669711662,-6.331907301590061e-05,-0.0020920755369772553,0.1935308277606964,-21.82431411743164,-2.4095618724823,22.59223175048828,0.7002664804458618,2.2615859508514404,-0.0072769103571772575,,,,,,,,,
1739402086.5935566,0.5255453973733274,0.0963423404985937,-0.9533331563075881,-2.0693433340391216,0.13811596933232043,2.137993801809126,-1.275632975289468,-0.0012249058859398318,0.0009561501557403274,-0.0014102658824666707,-0.0007491475092516053,0.0007247156376139889,-2.7971922156647165e-05,-0.00011587844058134433,0.2173345386981964,-21.84811782836914,-2.35798716545105,22.61603546142578,0.6938577890396118,2.2551772594451904,-0.05396880581974983,,,,,,,,,
1739402086.6046093,0.5255478914182555,0.09634304884200487,-0.9533313739515722,-2.0693426452743373,0.13811298441987294,2.137992577355124,-1.27563785640137,0.0005338753562565327,0.000381065392583045,-0.001249495036697551,-0.0008555169111898526,-0.0008498091564065701,-0.0002944513926981452,-0.0009970509174065418,0.1935308277606964,-21.84811782836914,-2.38179087638855,22.61603546142578,0.7130838632583618,2.2817275524139404,-0.013685601763427258,,,,,,,,,
1739402086.6165757,0.5255449696000418,0.09633553332997237,-0.9533275113777055,-2.069337688578996,0.13811521758769205,2.1379930503357127,-1.2756313998594038,-7.084726317610555e-05,-0.0011232474600279827,0.0003504701664845442,0.0007333886951769168,8.785588882369787e-05,0.0005211870237902923,0.0031401055255148858,0.1935308277606964,-21.77273941040039,-2.4333655834198,22.54065704345703,0.6938577890396118,2.2615859508514404,-0.06678618490695953,,,,,,,,,
1739402086.627534,0.5255488239592472,0.09633794736645357,-0.9533292941617219,-2.0693359083258565,0.13811449540779183,2.13799268769287,-1.2756325195617328,0.0004923479724779889,2.0628427705105402e-05,-0.0002553751973789771,0.0021227694295920738,2.273207620452042e-05,-0.00019963597795252686,0.002355351677610775,0.1697271168231964,-21.79654312133789,-2.4095618724823,22.51685333251953,0.7002664804458618,2.2615859508514404,-0.06037749722599983,,,,,,,,,
1739402086.637538,0.525548823927612,0.09633755894393592,-0.9533275114847031,-2.0693415605195047,0.13811298003346517,2.1379915652534276,-1.2756328501893706,0.0013027392152225245,-0.00043222441512461685,0.0008637674969728873,-0.0015471565300461021,0.0002508317241568391,0.0006308753150689234,0.00019951586082237501,0.1697271168231964,-21.77273941040039,-2.4333655834198,22.59223175048828,0.7130838632583618,2.2615859508514404,-0.06678618490695953,,,,,,,,,
1739402086.6484709,0.5255488243556014,0.09633394496373242,-0.9533275114847031,-2.069337688895383,0.13811209258653093,2.1379908219887134,-1.27563919295839,0.0015749867162171533,-0.0010193084866471822,0.00031301794893234813,0.0008538310583424832,0.00029112076663253997,1.827195346923113e-05,-0.0014181833307919096,0.1697271168231964,-21.72116470336914,-2.4333655834198,22.54065704345703,0.7130838632583618,2.2679946422576904,-0.0008682189509272575,,,,,,,,,
1739402086.6584854,0.5255488209841747,0.09633933774346093,-0.9533292593518854,-2.069341443872062,0.1381143085326703,2.1379935596477533,-1.2756385564513892,0.0011793207013603847,0.00043049567491853835,0.0002081136490054632,5.682800058798743e-06,-0.0001203978567139789,0.0023127329294718607,-0.000945554025928373,0.1697271168231964,-21.79654312133789,-2.4095618724823,22.59223175048828,0.6938577890396118,2.2551772594451904,-0.0072769103571772575,,,,,,,,,
1739402086.6685371,0.5255453988860993,0.09633762587167449,-0.9533274325199964,-2.069341474830862,0.1381144953376261,2.1379915611854226,-1.2756403985746334,-0.00031467781445798166,-0.0009516783593298128,0.001053309968394858,-0.0009427993877051045,0.00026785893314759657,-0.0007451591461233723,-0.0020874269793724354,0.2173345386981964,-21.77273941040039,-2.4333655834198,22.59223175048828,0.7002664804458618,2.2615859508514404,-0.027418512850999832,,,,,,,,,
1739402086.6795783,0.525547458078614,0.09633937541706684,-0.9533313739502403,-2.0693408622810865,0.13811206853948133,2.1379941469606067,-1.27563247976393,0.0006125809382851023,-0.0002721098195523821,-0.0006978020655162645,-0.0005305860867074062,4.926943729788183e-05,0.0017819244594070567,0.0012920193663739942,0.1935308277606964,-21.79654312133789,-2.38179087638855,22.59223175048828,0.6938577890396118,2.2679946422576904,-0.03382720425724983,,,,,,,,,
1739402086.6895957,0.5255454259584607,0.09634134835068386,-0.953327510521726,-2.0693397422265787,0.13811298417380125,2.137994758527239,-1.2756334158772962,-0.000437944935185862,0.00032434164263526945,0.0006141188136147687,0.00015071827730118192,-0.00026289019728455,-5.249321607128573e-06,0.00045995048425990956,0.2173345386981964,-21.82431411743164,-2.4333655834198,22.56842803955078,0.7130838632583618,2.2753188610076904,-0.05396880581974983,,,,,,,,,
1739402086.6995988,0.525547190371456,0.09633541779990734,-0.9533285658035211,-2.0693376133828445,0.13811100413196062,2.1379908458116077,-1.2756349027741198,-0.0003697660869608476,-0.0005900116770772607,0.00014826088149703096,0.0006219709128258519,0.00013840390432133678,-0.0004697917829297295,0.00012137006851848792,0.1935308277606964,-21.74496841430664,-2.38179087638855,22.54065704345703,0.6938577890396118,2.2679946422576904,-0.04023589566349983,,,,,,,,,
1739402086.711572,0.5255488239280572,0.09634136556250321,-0.9533271100069504,-2.0693441983276757,0.13811055324956087,2.137994154591978,-1.2756392063448843,0.0010168314503934547,6.900937805402941e-05,0.0013553422826199093,-0.00028426594594293945,0.00029215134781897023,3.89893738768582e-06,-0.001574842328420382,0.1697271168231964,-21.82431411743164,-2.4095618724823,22.63983917236328,0.7066751718521118,2.2679946422576904,-0.0008682189509272575,,,,,,,,,
1739402086.7225115,0.5255470850229246,0.09634237688967574,-0.9533292681490124,-2.069341267739585,0.13811302388095836,2.1379910497373027,-1.2756390375075326,-0.0006912541674587385,0.0010663923884937344,0.00033931792939851497,0.0004777946377135359,-0.0002538575800618955,-0.0013892054774761985,-0.0024528440431030142,0.1935308277606964,-21.84811782836914,-2.4095618724823,22.61603546142578,0.7130838632583618,2.2753188610076904,-0.03382720425724983,,,,,,,,,
1739402086.7325284,0.5255516401992336,0.09634065169865862,-0.9533292840681492,-2.069341552405608,0.1381137435307522,2.1379908030583867,-1.275632916689791,0.002205445539374783,-0.0011416436491776339,0.0013244846890093885,-0.0006222638143790641,0.00033021570220083,-0.0010417349925117899,0.00041774410698459355,0.1697271168231964,-21.82431411743164,-2.4095618724823,22.59223175048828,0.7066751718521118,2.2679946422576904,-0.05396880581974983,,,,,,,,,
1739402086.7434947,0.5255454335692205,0.09633920871156326,-0.9533295679015151,-2.069343334189866,0.13811688094537014,2.1379885459113814,-1.2756356599290977,0.0005156865037844707,-0.0008556885227257383,-0.0007027145728860974,-0.0007029888276925504,0.0004561226393981066,-0.0020411968255874373,0.0007858362547952266,0.2173345386981964,-21.82431411743164,-2.4095618724823,22.61603546142578,0.6801248788833618,2.2881362438201904,-0.03382720425724983,,,,,,,,,
1739402086.7535615,0.5255473444309163,0.09633938505100341,-0.9533292864899825,-2.069341798611007,0.13811298294972352,2.137992851850648,-1.2756390777529294,0.0002610278100724532,-0.0004097869507803026,-0.0002629082770604015,-0.00046890817367756406,-0.0010158944286981697,0.0003918990158218801,-0.0008580942172475887,0.1935308277606964,-21.79654312133789,-2.4095618724823,22.59223175048828,0.7130838632583618,2.2615859508514404,-0.03382720425724983,,,,,,,,,
1739402086.7636135,0.525545710892025,0.09634137563205943,-0.9533292928777094,-2.0693419910921276,0.13811576751068322,2.137991986480491,-1.2756321595265698,-1.201069837112825e-05,1.0841298294369843e-05,-0.0007440910681798182,-2.7637510827194028e-05,0.0008740662008966664,0.00030135317205682666,0.0008472074353621161,0.2173345386981964,-21.82431411743164,-2.4095618724823,22.56842803955078,0.6865335702896118,2.2615859508514404,-0.06037749722599983,,,,,,,,,
1739402086.7745278,0.5255416887473187,0.09633766419610072,-0.9533313478441929,-2.069340098400509,0.13811296707121165,2.1379903084828387,-1.2756427983309326,-0.0020238579800125386,-8.732414917107215e-05,-0.000938437589460724,-0.0008094368625227207,0.0006772901519036445,-0.0016002148423438914,-0.0014160155575237946,0.2689092457294464,-21.77273941040039,-2.38179087638855,22.56842803955078,0.7130838632583618,2.2753188610076904,-0.0072769103571772575,,,,,,,,,
1739402086.785492,0.5255437646875522,0.0963376375282429,-0.9533275114488898,-2.069337672544649,0.1381129841917045,2.137990809667856,-1.2756346582709446,-0.0010468532101725794,-0.0001277257743673217,0.0005532301625476505,-7.163593953301537e-05,-0.0006710830244500801,-0.0005203483785757629,0.0011494053110176878,0.2411382496356964,-21.77273941040039,-2.4333655834198,22.54065704345703,0.7130838632583618,2.2679946422576904,-0.06678618490695953,,,,,,,,,
1739402086.7955346,0.5255436863693971,0.09633937671547155,-0.9533275114847012,-2.0693387963021355,0.13811449972796183,2.1379908213106513,-1.2756391945892618,-0.001294228450720482,0.0007589533705257472,-3.7474311330958044e-05,-8.80348113339413e-06,-4.19415359900556e-05,0.0012254465797985367,-0.0009611288782649328,0.2411382496356964,-21.79654312133789,-2.4333655834198,22.59223175048828,0.7002664804458618,2.2679946422576904,-0.0008682189509272575,,,,,,,,,
1739402086.806464,0.5255471229744935,0.09633726968750142,-0.9533296120531608,-2.0693376890030977,0.13811612328528355,2.137991549021002,-1.2756346984733211,0.0002810385613723873,0.0006909942125352345,-7.143497663243865e-05,-0.00013486596683805928,0.0017389158956904085,-0.0006948553807810523,0.001777677007626116,0.1935308277606964,-21.77273941040039,-2.4095618724823,22.54065704345703,0.6865335702896118,2.2753188610076904,-0.06678618490695953,,,,,,,,,
1739402086.8165836,0.5255453988863451,0.09634308836258094,-0.9533271910797627,-2.069341525747319,0.13811373089524104,2.1379915745885865,-1.27563166484345,-0.0012263979796471873,0.0028290544924682863,0.00090068686386744,-0.0002584429835800017,0.0009157093624745438,-0.0009799132056492043,0.0010843768802685707,0.2173345386981964,-21.84811782836914,-2.4095618724823,22.59223175048828,0.7066751718521118,2.2615859508514404,-0.07411040365695953,,,,,,,,,
1739402086.827536,0.5255471114068805,0.09633700865485101,-0.9533292966652995,-2.069335906815635,0.13811222674767468,2.137990802995658,-1.2756347146045615,-0.00017115172675729597,-7.867661322549118e-05,-0.0008665075558436992,0.000811586618006629,-0.001290885939220077,-0.0013671226441141356,0.0003968010042149105,0.1935308277606964,-21.79654312133789,-2.4095618724823,22.51685333251953,0.7194925546646118,2.2679946422576904,-0.04023589566349983,,,,,,,,,
1739402086.8385015,0.5255511726286072,0.09633694174227668,-0.9533288305700828,-2.0693451167161503,0.13811769851057576,2.1379910497183827,-1.2756305339648133,0.0018149711201808528,-0.00026076281829371555,0.0005216230582812803,-0.0018160444937894973,0.0001336249749381969,9.646334838425003e-05,0.0023408586948100445,0.1697271168231964,-21.77273941040039,-2.4095618724823,22.63983917236328,0.7002664804458618,2.2753188610076904,-0.07411040365695953,,,,,,,,,
1739402086.8485358,0.5255453988994077,0.096341583576765,-0.9533292591709394,-2.0693397686850834,0.13811374230263831,2.137991986705591,-1.2756360590225477,-0.0011329103540242895,0.0004248088855861735,0.0008544624011636334,0.0008004318590473655,-0.0003729713943560952,0.0012331040016377276,-0.0018674478054402086,0.2173345386981964,-21.79654312133789,-2.4095618724823,22.56842803955078,0.7066751718521118,2.2615859508514404,-0.027418512850999832,,,,,,,,,
1739402086.8585415,0.5255453988861495,0.09633553347567707,-0.9533254054533284,-2.069341550417295,0.13811180774072657,2.137995377107386,-1.2756346638868545,-0.0007083052981659008,-0.0008374344172128825,0.0003776976982505834,-0.0006773195807528657,-0.0019166202066649822,0.0009811810987771983,-0.0012662890665339232,0.2173345386981964,-21.77273941040039,-2.4333655834198,22.59223175048828,0.7130838632583618,2.2679946422576904,-0.04023589566349983,,,,,,,,,
1739402086.869531,0.5255457244860833,0.09634024597556198,-0.9533275114371487,-2.069343581288013,0.1381164393304305,2.1379952739077734,-1.2756325197279825,-0.0009468175026732228,-0.0005868972126224473,0.0006256951191310872,-0.00024672679482825243,0.000927594953054131,0.0022504459462748443,-0.0006596403522660102,0.1697271168231964,-21.84811782836914,-2.4333655834198,22.61603546142578,0.6865335702896118,2.2679946422576904,-0.06037749722599983,,,,,,,,,
1739402086.8804834,0.5255471114963814,0.09634308716237198,-0.9533331566285964,-2.069341551363498,0.13811446030725352,2.1379899371801123,-1.2756369261358083,0.0005993729861556156,0.0016366692969060762,-0.0021199189648333687,0.00034694175670283887,-0.00036687681752823334,-0.001193756780897043,-0.0014974376427596774,0.1935308277606964,-21.84811782836914,-2.35798716545105,22.59223175048828,0.7002664804458618,2.2753188610076904,-0.020094294100999832,,,,,,,,,
1739402086.8905308,0.5255470986519816,0.09634308717840984,-0.9533313739515776,-2.069343308529315,0.13811725139946382,2.137996011135805,-1.2756310466466716,-9.508074873277691e-05,0.00043025727094417955,-0.00020053217866290008,-0.0003729038812335878,-0.0002780656174340877,1.6352272403988467e-05,0.0017685259868699666,0.1935308277606964,-21.84811782836914,-2.38179087638855,22.61603546142578,0.7130838632583618,2.2615859508514404,-0.06678618490695953,,,,,,,,,
1739402086.9016042,0.5255454026289691,0.09634137076034788,-0.9533292680543446,-2.0693433340039844,0.1381098542690667,2.1379908442288516,-1.2756377886588968,-0.00014021737097488763,0.0007747736287375569,-0.0004963280705733838,-0.00025876200058071825,-0.0017261388080493671,-0.0016916048333173843,-0.0020356573194280692,0.2173345386981964,-21.82431411743164,-2.4095618724823,22.61603546142578,0.7002664804458618,2.2679946422576904,-0.05396880581974983,,,,,,,,,
1739402086.9125626,0.5255488325944119,0.0963413742366641,-0.9533275114846539,-2.06934154901758,0.138113691440084,2.137991560655735,-1.2756304401945986,-9.432521240531374e-05,-0.0004941490561915088,0.00019752805434325416,-0.00031630573801922344,-0.0002736313372030029,-0.00041447563100485365,0.0016581814181696236,0.1697271168231964,-21.82431411743164,-2.4333655834198,22.59223175048828,0.6801248788833618,2.2615859508514404,-0.06037749722599983,,,,,,,,,
1739402086.9235497,0.5255453988861981,0.09633766419609284,-0.9533290174784327,-2.06933976868507,0.13811525715403258,2.1379945132552596,-1.2756377985057108,-0.0009407715578349189,-0.0008770199110585847,-0.00011987071353725812,0.0004380966536162566,0.00016844475588037743,-0.00032843187099797406,-0.0007289208127571877,0.2173345386981964,-21.77273941040039,-2.4095618724823,22.56842803955078,0.6938577890396118,2.2679946422576904,-0.013685601763427258,,,,,,,,,
1739402086.934526,0.5255471114068805,0.09633936405049871,-0.9533313736290234,-2.0693415513621027,0.13811612328528222,2.137991357093727,-1.2756373178014673,-0.00021164273558642538,0.0002304569427006132,-0.0013177402441066658,-0.0008201162410835516,0.00017438735890390738,-0.000681086835968451,-0.0025047759854005354,0.1935308277606964,-21.79654312133789,-2.38179087638855,22.59223175048828,0.6865335702896118,2.2679946422576904,-0.05396880581974983,,,,,,,,,
1739402086.9464965,0.5255475087688394,0.09633858483235432,-0.953328349481246,-2.069339760181814,0.13811612962336828,2.1379908031682877,-1.2756416270895048,-0.0006353016406473571,0.00029870351987351256,-0.0005518257874371664,-0.0010944682149744514,0.0005832976191705736,-0.0009101967340560399,-0.002297372324850496,0.2173345386981964,-21.77273941040039,-2.4095618724823,22.56842803955078,0.6865335702896118,2.2679946422576904,-0.020094294100999832,,,,,,,,,
1739402086.9566379,0.5255415666104964,0.09633766409303303,-0.9533292928724199,-2.069341550102311,0.13811556598887623,2.1379921029752555,-1.2756352965882878,-0.0014180202990876653,0.0001772783551013445,0.0004798527317305914,-0.00021795612612454684,6.839497994035775e-05,-0.0006685857860000276,0.0009835976527831172,0.2411382496356964,-21.77273941040039,-2.4095618724823,22.59223175048828,0.7002664804458618,2.2615859508514404,-0.03382720425724983,,,,,,,,,
1739402086.967514,0.5255454075409765,0.09633766376305779,-0.953330018212104,-2.069339079920292,0.13811876477746246,2.1379965483710333,-1.2756345402259843,-0.0016963046291689694,-7.981946810575852e-05,0.00020395176083040894,0.0005235267066019666,0.0012785248076572046,0.002918368442801648,-0.0001509801819209606,0.2173345386981964,-21.77273941040039,-2.4095618724823,22.56842803955078,0.7002664804458618,2.2615859508514404,-0.04023589566349983,,,,,,,,,
1739402086.977515,0.5255488219472959,0.09633766419608789,-0.953333883242363,-2.069339767728611,0.13811373776584565,2.1379935965311603,-1.2756332556032637,-0.0005690938316960614,-0.00026603971258498394,-0.0022349954560721996,0.000807919498386325,-9.801243742906635e-05,0.0014769318115770448,0.0012085065643418335,0.1697271168231964,-21.77273941040039,-2.35798716545105,22.56842803955078,0.7066751718521118,2.2551772594451904,-0.06037749722599983,,,,,,,,,
1739402086.9875712,0.5255471118348366,0.09633395276017807,-0.9533313739638829,-2.0693397677402596,0.13811451208358175,2.13799420303187,-1.275638606777924,0.00016811302292120845,-0.0013277112456593805,-0.0004669048056439309,0.0009113031859495226,-4.397721659387489e-05,0.0011082209610008265,-0.0002930462084089283,0.1935308277606964,-21.72116470336914,-2.38179087638855,22.56842803955078,0.7002664804458618,2.2487685680389404,-0.013685601763427258,,,,,,,,,
1739402086.9985318,0.5255471123698647,0.09633937671680991,-0.953328593132608,-2.0693394850677342,0.13811448223107098,2.1379908030146657,-1.2756402197548087,0.0006143171173581033,0.0010632490160053432,0.0007049278134421959,-0.0009379588509467966,-0.0006498039901715663,-0.0008784244288560226,-0.001222831909628727,0.1935308277606964,-21.79654312133789,-2.4095618724823,22.59223175048828,0.7002664804458618,2.2679946422576904,0.0064559997990727425,,,,,,,,,
1739402087.0085561,0.5255478137381389,0.09633766419609521,-0.9533271881269826,-2.0693433330826494,0.13811195043395708,2.1379939259423084,-1.275637094271405,0.0012930826342413778,-0.0010870601423064136,0.0001467085336499351,-0.0006253197373757423,-0.0014254918160690679,0.0007965560575117713,-0.0020486849751072565,0.1935308277606964,-21.77273941040039,-2.4095618724823,22.61603546142578,0.6938577890396118,2.2551772594451904,-0.020094294100999832,0,0,0,0.000,0,0
1739402087.0194697,0.5255471894119852,0.09633767588809002,-0.9533321288157445,-2.069339768370142,0.1381162248389909,2.137997691806373,-1.2756345791296246,0.0006962761421182924,-0.0004495700216071744,0.00020072853376040575,0.00024072132065321037,-0.00039044430804556463,0.003201557097189324,0.00032494404496939753,0.1935308277606964,-21.77273941040039,-2.4095618724823,22.56842803955078,0.6865335702896118,2.2487685680389404,-0.04023589566349983,0,0,0,0.000,0,0
1739402087.029499,0.5255471114082014,0.09633590291007549,-0.9533259672742681,-2.0693433340391163,0.1381102472836575,2.1379903492580112,-1.2756329153450108,-0.0003230165549852388,-0.0003181521620824585,0.0015006111219321894,-0.00019444199769617525,-0.002748279621780799,-0.00035442037020793217,-0.0005516109608679242,0.1935308277606964,-21.74496841430664,-2.4571692943573,22.61603546142578,0.7002664804458618,2.2753188610076904,-0.05396880581974983,0,0,0,0.000,0,0
1739402087.0405078,0.5255436867934078,0.09634137466168725,-0.9533278033798003,-2.0693405789799852,0.13811298482334555,2.1379969341441996,-1.2756314179032815,-0.0007454766458198671,-2.3904707612109973e-05,-1.6640227690779266e-05,0.0008966549350999101,5.509202917150025e-05,0.001475241438410279,0.0012667935703270594,0.2411382496356964,-21.82431411743164,-2.4333655834198,22.61603546142578,0.7130838632583618,2.2551772594451904,-0.06678618490695953,0,0,0,0.000,0,0
1739402087.0505881,0.5255471114068828,0.09633932020551828,-0.9533257327339173,-2.069343334023569,0.13811516374905364,2.137989937633146,-1.2756336459179203,-0.00031743395726875406,-0.0012648358667287202,0.0011088054602637143,-0.00016702115223384887,0.0012585169416203155,-0.001490979118366054,0.0017078230351795882,0.1935308277606964,-21.79654312133789,-2.4571692943573,22.61603546142578,0.7066751718521118,2.2753188610076904,-0.06037749722599983,0,0,0,0.000,0,0
1739402087.061484,0.5255453988861493,0.09634134835037218,-0.9533271880952963,-2.069337691947683,0.138115270559791,2.137994903094451,-1.275638922475856,-0.0008224074458250893,4.413345134798155e-05,-0.00017616962630035267,0.0006223606436822904,0.00046474838033645034,0.0002048805806069703,-0.0010808965000388257,0.2173345386981964,-21.82431411743164,-2.4095618724823,22.54065704345703,0.6938577890396118,2.2615859508514404,-0.0072769103571772575,0,0,0,0.000,0,0
1739402087.0714912,0.5255454046095033,0.0963376641956497,-0.9533313739159112,-2.069337677557588,0.1381137420681175,2.1379942071367686,-1.2756376776219225,-0.000263751416900871,-0.0007443764909632837,-0.001492609798423044,9.519215221864821e-05,0.0005314543492612194,0.0009009887294163808,-0.0008108737826203799,0.2173345386981964,-21.77273941040039,-2.38179087638855,22.54065704345703,0.7066751718521118,2.2487685680389404,-0.013685601763427258,0,0,0,0.000,0,0
1739402087.082467,0.5255455115544949,0.09634095631235993,-0.9533236316072193,-2.0693397682651047,0.13811372829701998,2.137991064987046,-1.2756384359359232,-0.00022353109466450303,0.0004736604735959579,0.001180944274841421,0.0002758698608624198,-0.00043211337202550277,-0.00039582389559851056,-0.001580217381434162,0.2173345386981964,-21.84811782836914,-2.4571692943573,22.56842803955078,0.7066751718521118,2.2753188610076904,-0.0072769103571772575,0,0,0,0.000,0,0
1739402087.0925713,0.5255471210385588,0.09633927145278688,-0.9533313725250945,-2.0693415513620956,0.13811613644876475,2.1379911738880253,-1.2756391929338395,-0.0003657006528809169,-0.0006360893427986938,-0.000517281253815845,0.0011298089659584178,0.0010012814186183797,-0.001399208375947852,7.119174156321488e-05,0.1935308277606964,-21.79654312133789,-2.38179087638855,22.59223175048828,0.6865335702896118,2.2679946422576904,-0.0008682189509272575,0,0,0,0.000,0,0
1739402087.103513,0.5255416884246193,0.09633766419550101,-0.9533268401752288,-2.069343295016681,0.1381153758615552,2.1379961950200763,-1.2756380173551922,-0.0005280220688731133,-0.00042669612996555173,0.000850571840973247,-0.0016286188382912952,0.0001270635055098129,-0.0006348502265053766,-0.0005783889548364013,0.2689092457294464,-21.77273941040039,-2.4095618724823,22.61603546142578,0.6938577890396118,2.2615859508514404,-0.04756011441349983,0,0,0,0.000,0,0
1739402087.1155324,0.5255517362911668,0.09633563951521704,-0.9533275114351845,-2.0693376888950077,0.1381129858711198,2.1379953132508738,-1.2756332779636899,0.0016095748943079314,-0.0006357771864856894,0.0006478128402904013,0.00031713936514501066,-0.0018251054064295242,0.0015959046009710915,0.0009814275992579681,0.1697271168231964,-21.74496841430664,-2.4333655834198,22.54065704345703,0.7130838632583618,2.2679946422576904,-0.05396880581974983,0,0,0,0.000,0,0
1739402087.1274962,0.5255453988916293,0.0963376641960449,-0.9533257288076838,-2.069339079920299,0.13811326964589787,2.137990862545791,-1.2756384397440999,-0.0006790478031836866,-0.0008302355251039157,0.0008925153717151171,-0.0005437412200294698,-0.002382439665331551,-0.0008061628031630018,-2.3148743074389742e-05,0.2173345386981964,-21.77273941040039,-2.4571692943573,22.56842803955078,0.7066751718521118,2.2679946422576904,-0.0072769103571772575,0,0,0,0.000,0,0
1739402087.1375053,0.5255455062045903,0.09633182286846025,-0.9533295330163662,-2.0693370001265556,0.13811525738538433,2.1379904888017545,-1.2756402790629362,-0.00018121777767876395,-0.0016270198058436314,-0.0005081693237228546,0.00025952682745725223,0.00022892935618432737,-0.0005851089166224592,-0.0006706122173890444,0.2173345386981964,-21.72116470336914,-2.4095618724823,22.54065704345703,0.6938577890396118,2.2753188610076904,-0.0008682189509272575,0,0,0,0.000,0,0
1739402087.1475475,0.5255443883774961,0.09633984143753296,-0.9533292941657671,-2.0693433311930343,0.13811612767318832,2.1379969473738702,-1.2756388018048384,-0.0007232649930184699,0.00012050182377485336,0.000579570589463864,-0.002547068116091783,0.0011107362208353812,0.00136355091670967,-0.0019505534571589015,0.2411382496356964,-21.79654312133789,-2.4095618724823,22.61603546142578,0.6865335702896118,2.2551772594451904,-0.0072769103571772575,0,0,0,0.000,0,0
1739402087.158475,0.5255488595617248,0.09634133958431847,-0.9533313739515776,-2.069341474832666,0.1381152576047626,2.137994937555357,-1.2756333986222432,0.001513787835745713,0.0007215887123472297,-0.000841543447347318,0.0006967574134004502,0.0008472324288766721,-0.0002621829376101333,0.0005274095092518425,0.1697271168231964,-21.82431411743164,-2.38179087638855,22.59223175048828,0.6938577890396118,2.2753188610076904,-0.05396880581974983,0,0,0,0.000,0,0
1739402087.1685271,0.525549217438266,0.0963427955592303,-0.953332454618336,-2.069341517347731,0.1381125610128998,2.137995681073759,-1.2756376791117479,0.0001122176215512444,0.0009435679496838525,-0.0009779606658757596,0.00047810488745235176,-0.001135376308626194,0.002070979880387217,-0.002019656867644422,0.1935308277606964,-21.82431411743164,-2.35798716545105,22.59223175048828,0.7066751718521118,2.2679946422576904,-0.013685601763427258,0,0,0,0.000,0,0
1739402087.1795015,0.5255454249340836,0.096339376327897,-0.9533292930877847,-2.069341403875012,0.1381172494446196,2.1379965257282003,-1.2756317619021034,-0.0003579356328908504,2.793378037888939e-05,-0.00017353990439862495,-0.0005017018616619779,0.00019753426333892214,0.0019967601989629895,0.0008460286409269854,0.2173345386981964,-21.79654312133789,-2.4095618724823,22.59223175048828,0.7130838632583618,2.2615859508514404,-0.06678618490695953,0,0,0,0.000,0,0
1739402087.1895063,0.5255437944566704,0.09634383254305885,-0.9533303485874993,-2.0693402458781356,0.13811449848656654,2.137998021206003,-1.2756340013262597,-0.0011724309078021042,0.0007970846435482587,-0.0002885282947628149,0.0001480459894699242,1.7956983621948312e-05,0.0021266853249420274,-1.7622621119412327e-05,0.2689092457294464,-21.84811782836914,-2.35798716545105,22.56842803955078,0.7002664804458618,2.2487685680389404,-0.05396880581974983,0,0,0,0.000,0,0
1739402087.2005677,0.5255471114583977,0.09633766019190694,-0.9533331562904319,-2.0693433340400196,0.1381200924598177,2.1379979116587697,-1.2756393532243562,0.0006580667039041348,-0.0016488477642099188,-0.0014018686399245664,-0.0004975283141396339,0.0021119404168500507,0.0018625770063061386,-0.0015944647956141057,0.1935308277606964,-21.77273941040039,-2.35798716545105,22.61603546142578,0.6801248788833618,2.2487685680389404,-0.027418512850999832,0,0,0,0.000,0,0
1739402087.2125416,0.5255453988861495,0.09634350844670629,-0.9533313623958513,-2.0693415543795655,0.13811479517005443,2.1379965606616183,-1.2756352964147963,5.3076706445233845e-05,-0.00027570889680455623,-0.0011510565556764483,0.0003673297919339138,0.0004470139540144529,0.001582525399589031,0.0004110857836999506,0.2173345386981964,-21.82431411743164,-2.38179087638855,22.59223175048828,0.7066751718521118,2.2615859508514404,-0.03382720425724983,0,0,0,0.000,0,0
1739402087.2235665,0.5255478134171411,0.09634137466169458,-0.953329293840708,-2.069341551362108,0.13811530545459894,2.137992728455409,-1.275642451560194,0.000578618120003618,0.0006580859257637921,0.0001255637255669999,-0.0001842075701236027,0.0011136993514126007,-0.0002930094624148951,-0.0024629987234708575,0.1935308277606964,-21.82431411743164,-2.4095618724823,22.59223175048828,0.6938577890396118,2.2615859508514404,-0.0008682189509272575,0,0,0,0.000,0,0
1739402087.2354577,0.5255471114108433,0.09633934943550525,-0.9533321426659679,-2.0693376892343895,0.13811298440808745,2.137996195985533,-1.2756336907911061,0.00012793203431440582,-8.309166804688653e-05,-0.0010653211771630914,0.0009358077766441623,-9.31250758019937e-05,0.001193541235894002,0.0007869096253164676,0.1935308277606964,-21.79654312133789,-2.4095618724823,22.54065704345703,0.7130838632583618,2.2615859508514404,-0.04756011441349983,0,0,0,0.000,0,0
1739402087.2454813,0.5255471117278728,0.09633935040968412,-0.9533313739676574,-2.0693376888952297,0.1381152764023053,2.137995671688295,-1.2756360540563523,9.647348725790131e-05,3.7966820255343996e-05,-0.0001896374232265784,0.0004963985509366896,0.0006436509259496463,0.0005533297143721147,-0.0017176569736320185,0.1935308277606964,-21.79654312133789,-2.38179087638855,22.54065704345703,0.6938577890396118,2.2679946422576904,-0.027418512850999832,0,0,0,0.000,0,0
1739402087.25656,0.5255488537799051,0.09634137465723397,-0.953329285494929,-2.0693397686850834,0.13811525738837316,2.1379949301501195,-1.2756398834458602,0.0007973148566079669,0.0005110465306064763,-0.00017954835897624169,-0.0002910157807333924,-0.0004174479737547315,0.002440266350670564,-0.0035639708592623562,0.1697271168231964,-21.82431411743164,-2.4095618724823,22.56842803955078,0.6938577890396118,2.2753188610076904,-0.0072769103571772575,0,0,0,0.000,0,0
1739402087.2684958,0.5255488243435446,0.09633866642814283,-0.9533335197187732,-2.0693397686850834,0.1381152574061084,2.1379942030761456,-1.2756405410486564,0.0005167606054823009,0.0003026823810880625,-0.001132772957126139,-0.0003554867779566823,-0.0004978541487710021,0.0017419509725450527,-0.0018077759204981965,0.1697271168231964,-21.79654312133789,-2.38179087638855,22.56842803955078,0.6938577890396118,2.2487685680389404,-0.020094294100999832,0,0,0,0.000,0,0
1739402087.2795181,0.52554542488653,0.0963379018718421,-0.9533292941657597,-2.069343078941053,0.13811736799694535,2.137992336707959,-1.2756376778596035,0.00030326421553640483,0.0003123086337874942,-0.0005353533168760639,-0.0005259991588506837,0.00039039913509775063,-0.00039689973726124975,-0.0016454122147767044,0.2173345386981964,-21.77273941040039,-2.4095618724823,22.61603546142578,0.7130838632583618,2.2551772594451904,-0.013685601763427258,0,0,0,0.000,0,0
1739402087.2905278,0.5255516319690946,0.09633758517089623,-0.9533352619464285,-2.069337013621627,0.13811659725323897,2.13799652411822,-1.2756387973167818,0.001518943105584368,-0.0017080641716469783,-0.0022706659510192116,0.0004374055354975367,0.00116407884029999,0.0006805437617032687,-0.0011028789503949692,0.1697271168231964,-21.77273941040039,-2.3302161693573,22.56842803955078,0.6865335702896118,2.2615859508514404,-0.0072769103571772575,0,0,0,0.000,0,0
1739402087.3015723,0.525547119980509,0.09633940273467737,-0.9533283581125194,-2.0693377023751784,0.13811694134071792,2.137991704883936,-1.2756408814642048,-0.00013687384809187218,0.0004814521002997271,-0.0006130626389253737,0.0005394516566040544,0.00044558348273119556,-0.00048115880250404404,-0.0006936049601031239,0.1935308277606964,-21.79654312133789,-2.4095618724823,22.56842803955078,0.7066751718521118,2.2615859508514404,-0.027418512850999832,0,0,0,0.000,0,0
1739402087.312462,0.5255449675474694,0.09633766419614417,-0.9533274045924904,-2.0693376888913395,0.13811543135095422,2.1379932151056615,-1.2756405403928421,-0.0005268649616011659,-6.402467625968098e-05,0.0012129109527570913,0.0005470853158870231,-0.00027879574657785203,0.0003022178532057589,-0.0002156906521106858,0.1935308277606964,-21.77273941040039,-2.4333655834198,22.54065704345703,0.7194925546646118,2.2615859508514404,-0.020094294100999832,0,0,0,0.000,0,0
1739402087.3235614,0.5255456579428346,0.09633937379382772,-0.9533275085939616,-2.0693399141352993,0.1381152574423214,2.1379958044719616,-1.2756400610444354,-0.0007981266558079184,-0.00029443879521304174,-0.00027932635247953876,0.00018979286641546567,0.0007991911523876712,0.0011387681163750366,-0.0013052205624179093,0.2411382496356964,-21.79654312133789,-2.4333655834198,22.54065704345703,0.6938577890396118,2.2679946422576904,0.0064559997990727425,0,0,0,0.000,0,0
1739402087.333593,0.5255454332374033,0.09634066436897941,-0.9533254168031073,-2.069339768382709,0.13811222674773807,2.137992645755849,-1.275633605690828,-0.0004956104647002781,-0.00013250228008071724,0.0015401504104994453,0.0004327145449986602,-0.0011744466031909993,-0.0011315190066968433,0.00171469943794406,0.2173345386981964,-21.82431411743164,-2.4571692943573,22.56842803955078,0.7194925546646118,2.2817275524139404,-0.06037749722599983,0,0,0,0.000,0,0
1739402087.3445125,0.5255471114070743,0.09633945563378166,-0.9533313739498164,-2.0693415512571223,0.13811612328528355,2.1379936498354666,-1.275637622242946,-0.0005227764939903243,-0.0007850458593570151,-0.0005313854185531717,-0.00037278554451782324,5.575118915393713e-06,0.00010712287699667989,-0.0005076871983590138,0.1935308277606964,-21.79654312133789,-2.38179087638855,22.59223175048828,0.6865335702896118,2.2817275524139404,-0.05396880581974983,0,0,0,0.000,0,0
1739402087.354538,0.5255447423457448,0.09633937671816288,-0.9533313739515776,-2.069339796157181,0.1381147370427622,2.137995789257372,-1.2756332773015255,0.00022180243417523277,-5.803977504556659e-05,-0.00012343299252719951,0.0007663597260561124,-0.0013011297325323623,0.0002754659289106611,0.0002583405773039721,0.2689092457294464,-21.79654312133789,-2.38179087638855,22.56842803955078,0.7002664804458618,2.2679946422576904,-0.05396880581974983,0,0,0,0.000,0,0
1739402087.3645508,0.5255471239773003,0.09634592833314498,-0.9533342353015757,-2.069341633778867,0.1381137420719134,2.137995378710841,-1.2756314000307432,0.0005543753791814453,0.0023800212983518696,-0.00039838440758104877,-0.0014368781938668182,-0.0005829714074562875,0.000416889286722907,0.0012164675028099264,0.1935308277606964,-21.84811782836914,-2.38179087638855,22.59223175048828,0.7066751718521118,2.2679946422576904,-0.06678618490695953,0,0,0,0.000,0,0
1739402087.3745809,0.5255453985593133,0.0963391135867996,-0.9533331577672166,-2.0693396215145166,0.13811187164980462,2.1379913179205663,-1.275628282995737,-0.00040446347660728183,-0.0005093114336868925,-0.00041695576870674333,-0.00045806923426177726,-0.0013697510681051337,0.00045589669515733015,0.0009021270186649074,0.2173345386981964,-21.79654312133789,-2.35798716545105,22.56842803955078,0.6865335702896118,2.2679946422576904,-0.06037749722599983,0,0,0,0.000,0,0
1739402087.3854578,0.5255471932955926,0.09634308717692527,-0.9533313264023215,-2.0693397601809838,0.1381122267779088,2.137994939726821,-1.27564064124961,0.0012179075722507267,0.0002926958729491154,-0.0009844135208414216,0.00036252289941010943,-0.0007318357591958931,-0.001405856383636936,-0.003022650959634215,0.1935308277606964,-21.84811782836914,-2.38179087638855,22.56842803955078,0.7194925546646118,2.2615859508514404,-0.0008682189509272575,0,0,0,0.000,0,0
1739402087.395594,0.5255492261058426,0.09634053283405448,-0.9533292854941234,-2.0693415510470228,0.13811294503931665,2.1379932227749117,-1.2756384352982775,0.0014455621026146722,0.0001736366846120159,0.000446934926126983,-3.561655918592111e-05,-0.0014155427944064743,-0.002118047017830438,-0.0006529873956034932,0.1935308277606964,-21.82431411743164,-2.4095618724823,22.59223175048828,0.7130838632583618,2.2615859508514404,-0.0072769103571772575,0,0,0,0.000,0,0
1739402087.4064584,0.5255454017870178,0.09634308717365854,-0.9533310656420108,-2.0693390799202973,0.13811449972775058,2.1379960571581242,-1.2756421808547018,-0.00021824998055736805,0.0006226556363316144,0.00015425683054081664,0.0011966377350040509,-0.0011098611204823762,0.00040416803478391316,-0.0028588549778373463,0.2173345386981964,-21.84811782836914,-2.35798716545105,22.56842803955078,0.7002664804458618,2.2615859508514404,-0.0072769103571772575,0,0,0,0.000,0,0
1739402087.416493,0.5255471213576922,0.09634150758287706,-0.9533257286652754,-2.069337003171235,0.13811525738805117,2.137992574353694,-1.2756380195549986,0.0010675057659850422,-0.0003467318244286502,0.0014318441352148528,0.0007818757513170969,0.0003156279289093838,-0.0011516345476695353,-0.000850731803935594,0.1935308277606964,-21.79654312133789,-2.4571692943573,22.54065704345703,0.6938577890396118,2.2817275524139404,-0.020094294100999832,0,0,0,0.000,0,0
1739402087.42749,0.5255471144029775,0.09633182290454666,-0.9533292941617196,-2.069337686049192,0.13811525933823107,2.137994958096141,-1.2756340415534908,0.0006894509948245423,-0.0018752605605494783,0.00014161913272332376,0.0008223478486090044,0.0004534624322409301,-5.6434533366847564e-05,0.0008778002781355601,0.1935308277606964,-21.72116470336914,-2.4095618724823,22.54065704345703,0.6938577890396118,2.2615859508514404,-0.05396880581974983,0,0,0,0.000,0,0
1739402087.4376678,0.525541540598223,0.09633766418406663,-0.9533282257774633,-2.0693397686850674,0.13811354571597895,2.13799209711563,-1.2756390822104853,-0.0013847542136548627,-0.0004092633541965102,0.00023153508788911146,-0.0006165824593543983,-0.0003002996169199608,-0.00030681812221792484,-0.0015735871282861686,0.2411382496356964,-21.77273941040039,-2.4333655834198,22.56842803955078,0.7066751718521118,2.2615859508514404,-0.03382720425724983,0,0,0,0.000,0,0
1739402087.4485288,0.5255492174255496,0.09633766452087278,-0.9533306719453492,-2.0693398507864464,0.13811561719513676,2.1379967690250155,-1.2756346587643157,0.0005804186311095183,-0.00018985388721294973,-0.0010612715683613843,-0.0010858517149969955,0.0002830954662014337,0.00016245302197576622,0.002496723704567305,0.1935308277606964,-21.77273941040039,-2.38179087638855,22.56842803955078,0.6938577890396118,2.2551772594451904,-0.06678618490695953,0,0,0,0.000,0,0
1739402087.459503,0.5255471114544348,0.09634137465768132,-0.9533312958394773,-2.0693356765254323,0.138114460361504,2.1379960113870333,-1.2756366229551657,-0.00011261314558432876,0.00043576604716152634,-0.00026186547676890437,0.0015027486948219853,-0.00019570562508789904,-0.0008527449960138177,-0.0018372000362494342,0.1935308277606964,-21.82431411743164,-2.38179087638855,22.51685333251953,0.7002664804458618,2.2615859508514404,-0.06037749722599983,0,0,0,0.000,0,0
1739402087.4696043,0.5255516319686551,0.09633937671682642,-0.9533292161592591,-2.069339768681193,0.13811342724187153,2.1379924623652613,-1.275639193009451,0.0013219961255383104,-0.0008040031663281329,0.0008430764848223296,0.0001022662450150665,-0.0002350322567467278,-0.0013350232716784172,0.0016630159900683675,0.1697271168231964,-21.79654312133789,-2.4095618724823,22.56842803955078,0.7066751718521118,2.2551772594451904,-0.0008682189509272575,0,0,0,0.000,0,0
1739402087.4805331,0.5255453989337037,0.096341385700119,-0.9533261740078005,-2.06934514418824,0.13811525754523454,2.137992115357097,-1.2756321575187066,-0.0005001030839109189,0.0009928615836738435,0.0003385453201924085,-0.0013002431917898448,0.0004153132952594115,0.0011616336967288088,0.00011242654272886142,0.2173345386981964,-21.82431411743164,-2.4095618724823,22.63983917236328,0.6938577890396118,2.2615859508514404,-0.06037749722599983,0,0,0,0.000,0,0
1739402087.4915042,0.5255471114068805,0.09634137465770025,-0.9533313652789132,-2.0693397700417817,0.13811618514059926,2.1379915764842488,-1.2756329196484504,0.0002655006078245266,0.0010933328203614852,-0.0006755996453500135,-0.00020846580651327255,0.0009227313370463472,-0.000837969558799179,0.0015653066506440176,0.1935308277606964,-21.82431411743164,-2.38179087638855,22.56842803955078,0.7130838632583618,2.2615859508514404,-0.05396880581974983,0,0,0,0.000,0,0
1739402087.5015552,0.5255471114068805,0.09634209371535914,-0.95333067194117,-2.069341561876139,0.13811374228461412,2.137995803087564,-1.2756384486828267,-1.6529925434274965e-05,0.001124332697829593,8.006195255558002e-05,-0.0002931614976039094,0.0012102462152747931,0.0015265587060215768,-0.0013532357032652257,0.1935308277606964,-21.82431411743164,-2.38179087638855,22.59223175048828,0.7066751718521118,2.2679946422576904,-0.0072769103571772575,0,0,0,0.000,0,0
1739402087.5124793,0.5255456342805362,0.09633948487183734,-0.9533273834411329,-2.0693413691299583,0.13811374271795562,2.1379919514547168,-1.2756392063980861,0.0004621864614505519,0.00036017010274309977,0.0011207993435494116,-4.1916525820493236e-05,-0.000173575387391775,-9.436780573398923e-06,-0.0015926077928361969,0.2173345386981964,-21.79654312133789,-2.4333655834198,22.61603546142578,0.7066751718521118,2.2615859508514404,-0.0008682189509272575,0,0,0,0.000,0,0
1739402087.5235662,0.5255432531202661,0.09634483463139115,-0.9533292931980222,-2.069345559268101,0.13811480244091873,2.137991235655091,-1.275638493379497,-0.0012073211623296403,0.0018710252657553866,0.00029800283773295154,-0.0011478048452643554,-0.0003645419613800385,0.0007729559111644093,-0.00044171980582641214,0.2173345386981964,-21.87192153930664,-2.4095618724823,22.61603546142578,0.7002664804458618,2.2679946422576904,-0.0072769103571772575,0,0,0,0.000,0,0
1739402087.5345213,0.5255453723467443,0.09634137465787666,-0.9533310620560281,-2.0693415514123488,0.13811449972968162,2.137996443739022,-1.2756325612789527,0.00018405513729314698,-0.00011727054656287023,-0.00031107974005484403,-0.0005308849955443621,0.0006027380449022167,0.0015382233039616469,-0.0007343472720376313,0.2173345386981964,-21.82431411743164,-2.38179087638855,22.59223175048828,0.7002664804458618,2.2615859508514404,-0.06037749722599983,0,0,0,0.000,0,0
1739402087.5455432,0.5255453988859994,0.09633940302381469,-0.9533292854575023,-2.0693419173957346,0.1381147455104288,2.1379941826001434,-1.2756346728283836,-0.000972999580940677,-0.0010419024226524798,0.0015027465048839449,0.00037001329631092874,-0.0003600802224498314,-0.0009101028365411625,0.0003087497111593931,0.2173345386981964,-21.79654312133789,-2.4095618724823,22.56842803955078,0.6865335702896118,2.2679946422576904,-0.04023589566349983,0,0,0,0.000,0,0
1739402087.5555458,0.5255453988861492,0.09634151158891345,-0.9533257284865442,-2.069339768721472,0.1381161232619508,2.137996512304482,-1.2756336867467635,-0.00034189807805303234,0.00030997155952577524,0.001696441851449996,-0.0002642998506107432,0.00029924797601338317,0.0007411882452603878,0.00039769595075035116,0.2173345386981964,-21.79654312133789,-2.4571692943573,22.56842803955078,0.6865335702896118,2.2615859508514404,-0.04756011441349983,0,0,0,0.000,0,0
