IITGN-Robotics/Franka_IITGN_ROBOTICS/franka_ros/franka_iitgn/data/b_39.csv
time,fr3_joint1_pos,fr3_joint2_pos,fr3_joint3_pos,fr3_joint4_pos,fr3_joint5_pos,fr3_joint6_pos,fr3_joint7_pos,fr3_joint1_vel,fr3_joint2_vel,fr3_joint3_vel,fr3_joint4_vel,fr3_joint5_vel,fr3_joint6_vel,fr3_joint7_vel,fr3_joint1_eff,fr3_joint2_eff,fr3_joint3_eff,fr3_joint4_eff,fr3_joint5_eff,fr3_joint6_eff,fr3_joint7_eff,flexpin1,flexpin2,flexpin3,Force,ContactMic,ContactMic_gt
1739402119.6429894,0.5256811258816182,0.09585561919073614,-0.9533416855510362,-2.0690692122010472,0.13772441360336063,2.137566545137727,-1.275378344429663,0.0001296961478147561,-5.39680200166351e-05,0.00015381429138812603,0.0023705929905392287,-0.0013221808823391502,-0.00021482025765133498,-0.0015329034993103933,0.2411382496356964,-21.82431411743164,-2.38179087638855,22.56842803955078,0.6343485116958618,2.2487685680389404,-0.013685601763427258,,,,,,,,,
1739402119.6550426,0.5256782736533042,0.09585733167523308,-0.9533448332036719,-2.0690768954710945,0.13772590714062283,2.137566545137801,-1.2753760543605805,0.0004953675359464206,-0.00026442446191517297,-0.001318233434549009,-0.0005175158473457793,0.000271559615623334,-2.9082548415000953e-05,-3.6606429715295907e-06,0.2411382496356964,-21.84811782836914,-2.3302161693573,22.63983917236328,0.6215311288833618,2.2487685680389404,-0.0008682189509272575,,,,,,,,,
1739402119.6651149,0.5256774153682175,0.09585724374469606,-0.9533427529764079,-2.069072878740192,0.13772363416019637,2.137566545137801,-1.275374276787088,-0.0005750267340368897,0.0002001270696837371,-0.0012141237797537521,0.00027509839470280667,-0.0011404194765336198,0.00035187428283510106,3.1899137982102903e-05,0.2927129566669464,-21.84811782836914,-2.35798716545105,22.61603546142578,0.6407572031021118,2.2487685680389404,-0.04023589566349983,,,,,,,,,
1739402119.677005,0.525682416803063,0.09586230763337004,-0.9533420377206682,-2.069073636565682,0.13772003901171093,2.1375673027978794,-1.2753764509916115,0.0013448120809170941,0.0004970678326276662,-0.0009474763242959454,0.00028023404478744445,-0.0012738793437479508,0.00013645335849637606,-0.0009287798753385298,0.1935308277606964,-21.72116470336914,-2.35798716545105,22.59223175048828,0.6801248788833618,2.2423598766326904,-0.0072769103571772575,,,,,,,,,
1739402119.6880097,0.5256775225214739,0.09588435891425474,-0.9533379334516724,-2.069067219388441,0.13772304558707366,2.137572766316391,-1.275375322504992,-0.00024049598834555738,0.0007100794619649404,0.0008939726995696828,0.0006070007202221598,0.0006540413163301507,-0.0004325461244528362,-0.0010577929499306037,0.2173345386981964,-21.66958999633789,-2.4095618724823,22.46924591064453,0.6865335702896118,2.2753188610076904,-0.013685601763427258,,,,,,,,,
1739402119.6990469,0.525679182323274,0.09591451089878321,-0.9533405718825199,-2.0690697262588036,0.13772462077944345,2.1375785707303385,-1.2753786978619106,0.0003858484416476818,0.00378058334906908,-0.0009401031430193729,0.001636303240536788,0.0002823994714579222,0.001304141278803489,-0.0010414853383723687,0.1697271168231964,-21.77273941040039,-2.35798716545105,22.49304962158203,0.7002664804458618,2.2679946422576904,-0.013685601763427258,,,,,,,,,
1739402119.7100046,0.5256763811954926,0.09592596059484963,-0.9533417197039961,-2.069083094366638,0.137721435184631,2.137580144920266,-1.2753718825118872,0.0002099928515743186,0.0023083186766517244,-0.00014773434772518773,-0.0018919650612387131,-0.00010283754538111044,-0.0006730916556320025,0.0012233607479216473,0.2173345386981964,-21.69339370727539,-2.35798716545105,22.63983917236328,0.7002664804458618,2.2551772594451904,-0.06037749722599983,,,,,,,,,
1739402119.7201042,0.5256733314622366,0.0959420945010844,-0.9533448323867165,-2.0690779949330156,0.13772304555482104,2.1375771107010864,-1.2753729994100633,-0.0008620717817605908,0.002365420532804527,-0.0013358102543813944,0.0012114373032111418,2.847147458992104e-05,-0.0031909780952057956,7.398341596635588e-05,0.2173345386981964,-21.74496841430664,-2.3302161693573,22.56842803955078,0.6865335702896118,2.2817275524139404,-0.06037749722599983,,,,,,,,,
1739402119.7310665,0.5256749663256275,0.0959528713536374,-0.9533409336214678,-2.0690817912136747,0.13772306332245693,2.1375840901595087,-1.275370175236035,-6.876789708455645e-05,0.0001714534595611925,-0.0008725419626429952,0.0008073593459364734,0.0012274524603035288,0.0006292919660852031,0.00012635301153463235,0.1935308277606964,-21.74496841430664,-2.38179087638855,22.59223175048828,0.6865335702896118,2.2615859508514404,-0.06037749722599983,,,,,,,,,
1739402119.742067,0.5256746454785349,0.09596512134246628,-0.953338505222903,-2.069078859268464,0.13772858798094778,2.1375824797464396,-1.2753718083273213,-0.0004142659038890475,0.0004060465601423914,-0.0005157748091744362,0.0006233881260905204,0.0015365489660418106,0.00012510849169577925,0.00010530430564803289,0.1935308277606964,-21.79654312133789,-2.38179087638855,22.56842803955078,0.6801248788833618,2.2753188610076904,-0.06037749722599983,,,,,,,,,
1739402119.7530744,0.5256749623869826,0.09597215690453288,-0.9533310811449052,-2.0690828661737304,0.1377247004626075,2.1375833587258466,-1.2753706022701028,-2.073107901316468e-05,0.0002711840486184778,0.0011812298077865464,-0.0006712601565394651,-0.00044555728686094127,0.0002673589694704226,0.0013105138932876044,0.1935308277606964,-21.77273941040039,-2.4333655834198,22.59223175048828,0.7130838632583618,2.2679946422576904,-0.08051909506320953,,,,,,,,,
1739402119.7639928,0.5256766726201612,0.09598433915061103,-0.9533336551624222,-2.069088728440423,0.13772786965200937,2.1375833456439683,-1.2753707593464683,-0.00016639700603920726,-0.00026989896828496775,0.0003890809500668019,-0.0008916713710980036,-0.0005381394646374363,0.0005217207856969993,0.00067135594979975,0.1697271168231964,-21.87192153930664,-2.4333655834198,22.63983917236328,0.6938577890396118,2.2679946422576904,-0.06037749722599983,,,,,,,,,
1739402119.7740345,0.5256747246242772,0.09599600228396675,-0.9533376476457274,-2.0690913019694124,0.1377262770413901,2.1375821159987,-1.2753775737389716,-0.0014148167901645208,0.0004055077485969015,-0.0011367282256559326,-0.0014475926548292103,0.0004963009363235898,0.00022753563693641703,-0.0006122205286843898,0.1935308277606964,-21.95126724243164,-2.38179087638855,22.66364288330078,0.7002664804458618,2.2817275524139404,-0.06037749722599983,,,,,,,,,
1739402119.7851067,0.5256766758866116,0.09599841366766723,-0.9533375166804099,-2.0690877379844173,0.13772697783178617,2.137582479914839,-1.2753834997132936,0.0008989807921429144,-0.0003992875204494523,-0.0006989983912287592,0.0008953370567864828,0.00011176608111309856,-0.0005774416082938283,-0.0026448945922240025,0.1697271168231964,-21.89969253540039,-2.38179087638855,22.61603546142578,0.6938577890396118,2.2753188610076904,-0.0072769103571772575,,,,,,,,,
1739402119.7971005,0.5256749633578107,0.0959989648423379,-0.9533413108337611,-2.0690944140653804,0.13772697783082308,2.1375817264472348,-1.2753733129744447,0.0004792121681496757,0.00033798558386693967,-0.001871501459513392,-0.0017538875356375087,0.0011246331160326343,-0.0005656235391097961,0.0006143107692872604,0.1935308277606964,-21.84811782836914,-2.3302161693573,22.66364288330078,0.6938577890396118,2.2817275524139404,-0.06037749722599983,,,,,,,,,
1739402119.808049,0.5256747249392316,0.09599934387352525,-0.9533338890265713,-2.069090811601418,0.1377278962193887,2.1375844576098406,-1.27537172573103,-0.000254518029969591,-0.00011242167681748045,0.0012704887822867978,0.00048669546743428875,0.0006261978294787617,0.0007550461383940193,-1.7911770355691684e-05,0.1935308277606964,-21.82431411743164,-2.4333655834198,22.61603546142578,0.6865335702896118,2.2679946422576904,-0.07411040365695953,,,,,,,,,
1739402119.8180707,0.5256749604143708,0.09600203233141832,-0.9533355591903916,-2.069089057581677,0.13772835552122156,2.137582834469416,-1.2753761398156007,0.0002199474597867141,0.0010017657240316469,0.0008066323410868168,0.0006838841252609419,0.0009370298056229076,0.00043930166236704496,-0.0016044669355019822,0.1935308277606964,-21.87192153930664,-2.4095618724823,22.59223175048828,0.6865335702896118,2.2753188610076904,-0.03382720425724983,,,,,,,,,
1739402119.8280838,0.5256732508491757,0.09599718810225183,-0.9533373499720371,-2.069088141792956,0.1377294104802219,2.137582479748665,-1.275373456618414,-0.00034481009744622565,-0.0008861133018594052,-0.0007516629018533554,-0.00034618806843628126,-0.0008301283140731228,-0.0008942482595532414,0.0016289079718389589,0.2173345386981964,-21.79654312133789,-2.35798716545105,22.61603546142578,0.7002664804458618,2.2753188610076904,-0.04756011441349983,,,,,,,,,
1739402119.840015,0.5256730124306133,0.0959994228092665,-0.9533397717331931,-2.0690834208926665,0.1377274678219463,2.1375848624176017,-1.2753712591514481,-0.00035555774808638776,0.0014489351110983514,-0.0007668262203757074,0.0006181690008076519,-0.00046580876066660816,-0.0009899171625316037,0.0014514547323974754,0.2173345386981964,-21.82431411743164,-2.35798716545105,22.51685333251953,0.6938577890396118,2.2551772594451904,-0.07411040365695953,,,,,,,,,
1739402119.8500316,0.525672944727473,0.09599285549669888,-0.9533447524858563,-2.0690862467080984,0.13772860139643184,2.137582833605419,-1.2753795924907891,0.0002870903281398802,-0.0003197153919054051,-0.0011744116932462462,-9.396872498657727e-05,-2.9667450876066774e-05,0.0010731689106421984,-0.0012887689880118807,0.2173345386981964,-21.77273941040039,-2.3302161693573,22.59223175048828,0.6801248788833618,2.2753188610076904,-0.0072769103571772575,,,,,,,,,
1739402119.8610077,0.5256749276108595,0.09599371439203873,-0.9533356718764291,-2.069087283393899,0.13772551516400994,2.1375832982753997,-1.2753733410689156,0.000988576913287902,0.00010288463774098315,0.0015567163137990485,-0.0017785372731320467,-0.00036662002247707056,-0.0003574015645847263,0.0006039902319188478,0.1935308277606964,-21.74496841430664,-2.4095618724823,22.56842803955078,0.7066751718521118,2.2817275524139404,-0.06037749722599983,,,,,,,,,
1739402119.871071,0.5256707505245349,0.0959898580302784,-0.9533380695400073,-2.069081638265921,0.13772784588848985,2.137588830312106,-1.275378607153138,-0.0008139356461526898,-0.0009572365861215525,0.00011791979954872448,0.00017782117316475846,-0.00038615805685954913,5.027293545219553e-05,-0.0013864675433547362,0.2173345386981964,-21.72116470336914,-2.38179087638855,22.49304962158203,0.6865335702896118,2.2615859508514404,-0.0072769103571772575,,,,,,,,,
1739402119.8820395,0.5256730119804338,0.0959937143599772,-0.9533338980138062,-2.0690870538215536,0.13772819804456715,2.1375888716753217,-1.2753786823178044,2.542185028321794e-05,-0.00019341611762120202,0.000608601709218113,-0.0009073049461520574,0.0008638261231940015,0.0007346567596781765,-0.0023220497517292956,0.2173345386981964,-21.74496841430664,-2.4333655834198,22.56842803955078,0.6865335702896118,2.2615859508514404,-0.013685601763427258,,,,,,,,,
1739402119.8920424,0.5256707078384829,0.09599371051083333,-0.9533356718588625,-2.069089057579677,0.13773139192136974,2.1375888716755553,-1.2753725964882021,-0.002023798090452674,-0.0012745716261531408,0.00012736184571938514,-0.0018161757013685311,0.0005695150383629523,-0.00023237162825637413,0.001229657203741361,0.2411382496356964,-21.74496841430664,-2.4095618724823,22.59223175048828,0.6865335702896118,2.2615859508514404,-0.06678618490695953,,,,,,,,,
1739402119.9030669,0.5256732508445042,0.0959957125294288,-0.9533408341040424,-2.0690844351763475,0.13773123569723075,2.1375881140154767,-1.2753796314216186,-0.00035435275831287685,0.0004493419037442482,-0.0012159168642292776,0.0004512707324505904,0.0006591850841158695,0.0005878112851139542,-0.002883697167535609,0.2173345386981964,-21.77273941040039,-2.3302161693573,22.54065704345703,0.6938577890396118,2.2679946422576904,-0.0072769103571772575,,,,,,,,,
1739402119.9130812,0.5256742124658664,0.09599934388964126,-0.9533416144292823,-2.0690872833968013,0.13772698292524932,2.1375881140154767,-1.275378516672688,-0.00012074822946367967,0.0005962360667372757,-0.0021207659854111595,0.0014197326352914737,-0.0009076011051613855,0.0006413149854008722,-0.0005847301827700529,0.1935308277606964,-21.82431411743164,-2.3302161693573,22.56842803955078,0.6938577890396118,2.2679946422576904,-0.013685601763427258,,,,,,,,,
1739402119.9240592,0.5256748485630763,0.09599870959758425,-0.9533395343255928,-2.0690890660868337,0.13772575838020923,2.1375888716755553,-1.2753725564480358,0.001250822029566727,-0.0016171830474315386,-0.0016440562668528385,-0.00020336470228981022,-0.0010846336775600228,0.000288750469693098,-0.00044343846791776356,0.1935308277606964,-21.82431411743164,-2.35798716545105,22.59223175048828,0.6801248788833618,2.2615859508514404,-0.04023589566349983,,,,,,,,,
1739402119.934064,0.5256749511594535,0.096006558526142,-0.9533396137984473,-2.069092630496064,0.13772931948684836,2.1375872481182445,-1.2753725962581666,0.000709857623596302,0.0008797803527700223,-0.0013758367748874256,-0.0001866141066491946,-0.0018586389537204743,-0.00031309044480091244,-4.691337374435517e-05,0.1935308277606964,-21.92349624633789,-2.35798716545105,22.63983917236328,0.6737161874771118,2.2753188610076904,-0.06678618490695953,,,,,,,,,
1739402119.944068,0.5256749502877646,0.09600121425230268,-0.9533359102786378,-2.069090848763837,0.13773209568738976,2.137586490458166,-1.2753698340127908,0.0008126538027835858,-0.0006709252264806347,-0.0002520648383613527,-0.0003132467856647593,0.0003262462001696335,-0.00018502946647467672,0.0006497339764627875,0.1935308277606964,-21.84811782836914,-2.4095618724823,22.61603546142578,0.6865335702896118,2.2817275524139404,-0.05396880581974983,,,,,,,,,
1739402119.954069,0.5256700716075341,0.09600145101653013,-0.9533385328856998,-2.069089066086834,0.13772947722571927,2.1375881140154767,-1.2753748692372966,-0.00038759263455633773,0.0009821412741258502,-0.0014288644917113142,9.116542991660697e-05,2.8181490826667294e-05,0.0003863808361826685,-0.0018122148000425846,0.2173345386981964,-21.84811782836914,-2.4095618724823,22.59223175048828,0.6737161874771118,2.2679946422576904,-0.04756011441349983,,,,,,,,,
1739402119.9640706,0.5256730120497238,0.09600406742915195,-0.9533377516970202,-2.069094415135376,0.13772819853258716,2.1375882317530466,-1.2753730119746094,0.0011765000757680078,0.0008035084703672291,-0.0003497387263089509,-0.0009048657215191497,-0.0005047479732206528,0.0015757671333386744,-0.0004695699263832906,0.2173345386981964,-21.84811782836914,-2.38179087638855,22.66364288330078,0.6865335702896118,2.2679946422576904,-0.027418512850999832,,,,,,,,,
1739402119.9760492,0.5256695402409052,0.0960042925112573,-0.9533416141154434,-2.0690909403375244,0.13772697783282595,2.137588114016141,-1.2753741116257353,-0.0009449392024006883,0.002149825924937759,-0.0013221332768213873,-7.344764713354838e-05,-0.0015500396421894288,0.0002148964615769466,-0.0006045479334870406,0.2689092457294464,-21.84811782836914,-2.3302161693573,22.61603546142578,0.6938577890396118,2.2679946422576904,-0.05396880581974983,,,,,,,,,
1739402119.9860609,0.5256711007213289,0.09599745552492908,-0.9533395343255876,-2.0690872834103318,0.1377270173613333,2.137588154052397,-1.2753764930285565,6.910492721952174e-05,-0.0004048123599199398,-0.0005428311198815227,0.00027570404365272357,-0.0006678722075271647,-0.0005569032302795698,5.8029452416745203e-05,0.2173345386981964,-21.79654312133789,-2.35798716545105,22.56842803955078,0.6938577890396118,2.2945449352264404,-0.03382720425724983,,,,,,,,,
1739402119.9972508,0.5256742887492869,0.09599742530295988,-0.9533371546391437,-2.06908906653905,0.1377263776989711,2.1375881140334214,-1.2753772463279853,0.00039230643190623737,-0.0009310778045024783,-0.0006438487302017114,0.00030803288260259026,-0.00032076968408737447,-0.00014970369561479255,-0.0004887153287717703,0.1697271168231964,-21.79654312133789,-2.38179087638855,22.59223175048828,0.7002664804458618,2.2679946422576904,-0.027418512850999832,,,,,,,,,
1739402120.0080144,0.525674686200755,0.09599398657182472,-0.9533388323119567,-2.069087280575394,0.13772937910044253,2.13759205107446,-1.2753733526975155,-0.00016705353371989674,-0.0008328445771533895,-0.0011549112277133913,0.00014464994669996707,0.0004296078242478219,0.001058879335043208,0.0005616711255507779,0.1935308277606964,-21.74496841430664,-2.35798716545105,22.56842803955078,0.6865335702896118,2.2615859508514404,-0.06037749722599983,,,,,,,,,
1739402120.0180461,0.5256712645839172,0.09599253059830223,-0.9533358837034845,-2.069083103312483,0.13772657451324588,2.1375923527833427,-1.275374584458746,-0.00037416927514433715,-0.0014484837356493843,-0.00018849078069067872,0.0008290362219498095,-0.0002946808274735615,0.00065319156483694,-0.00031496069499423727,0.2411382496356964,-21.74496841430664,-2.38179087638855,22.54065704345703,0.7002664804458618,2.2679946422576904,-0.020094294100999832,,,,,,,,,
1739402120.029068,0.5256702837518686,0.09599376806196537,-0.9533382988320315,-2.0690851270436896,0.13772936067031527,2.1375876014087174,-1.275377233172259,0.00031948647067305046,-0.0004160243477274328,-0.0004796918835141607,0.0003992518516013209,-0.000635772109884537,0.0001417249058711038,-0.0015627340625831302,0.2173345386981964,-21.74496841430664,-2.4095618724823,22.54065704345703,0.6737161874771118,2.2753188610076904,-0.027418512850999832,,,,,,,,,
1739402120.0390708,0.5256712869957144,0.09599571234992742,-0.9533395069787287,-2.0690890660855374,0.13772895619069161,2.137588871681538,-1.2753788568031572,-0.0004566045170150569,-0.0006596366254744725,4.774905629887846e-06,-0.0007758855778400864,0.001477417005852015,-0.0008674090930261898,-0.0008897126567527964,0.2411382496356964,-21.77273941040039,-2.35798716545105,22.59223175048828,0.6801248788833618,2.2615859508514404,-0.013685601763427258,,,,,,,,,
1739402120.0490983,0.5256747248380719,0.09599719979885027,-0.9533337096314367,-2.069087282465007,0.13773064840395075,2.1375896307891837,-1.275378116585573,0.0012497131685170072,-0.00013860945632464256,0.0009527831271466326,-4.7382092459228236e-05,0.0017180087599833415,0.0010765071415552523,0.0006480044152955312,0.1935308277606964,-21.79654312133789,-2.4333655834198,22.56842803955078,0.7002664804458618,2.2551772594451904,-0.020094294100999832,,,,,,,,,
1739402120.0600882,0.5256776843621701,0.09600155760880125,-0.9533377257561911,-2.069083137220623,0.13773105204278296,2.1375897470732115,-1.275375837837797,0.0015945183768752242,0.0009134431777554069,0.00033928555686916454,0.0012193092895815246,-0.0010355608649982263,0.0005380716130300832,0.0012629272645561618,0.1419561207294464,-21.82431411743164,-2.38179087638855,22.54065704345703,0.6865335702896118,2.2551772594451904,-0.027418512850999832,,,,,,,,,
1739402120.07106,0.5256722132994412,0.09599742477354177,-0.9533338891815477,-2.069090848752188,0.13772627273419244,2.1375888716762197,-1.2753715368453475,-0.000733333033807388,-0.0004369775832642678,0.0006249770287501094,-0.0002350150917490593,-0.0005390957777520728,-7.493141057551107e-05,0.0020049823123664055,0.2173345386981964,-21.79654312133789,-2.4333655834198,22.61603546142578,0.7002664804458618,2.2615859508514404,-0.06678618490695953,,,,,,,,,
1739402120.0820582,0.5256703795365182,0.09599966881161638,-0.9533377526297149,-2.069092631440872,0.1377294322392244,2.1375896293356336,-1.275375737623576,-0.0007535256146576592,-0.000555358388632627,-0.00029299686272870316,-0.0010484040302810263,0.002646439898292593,-0.00017894218223212736,-0.0005075140521825179,0.2173345386981964,-21.82431411743164,-2.38179087638855,22.63983917236328,0.6865335702896118,2.2551772594451904,-0.04023589566349983,,,,,,,,,
1739402120.092071,0.5256700414706396,0.0960049874912783,-0.9533402495813414,-2.069092631440872,0.13772967748736717,2.1375884672281864,-1.2753725914848175,-0.00044757229148771247,0.0009249223428699976,-0.00047358927223171033,-0.0014041329549173997,-0.00077110148632007,-1.2206559566957059e-05,0.0010636463758481537,0.2173345386981964,-21.87192153930664,-2.35798716545105,22.63983917236328,0.6801248788833618,2.2679946422576904,-0.06678618490695953,,,,,,,,,
1739402120.102072,0.5256700365591823,0.096002085342146,-0.9533378180741028,-2.0690901599990688,0.13772862100960245,2.1375888716815368,-1.2753782735692103,-0.0007256309630061489,-8.273233002742416e-05,0.0006382221678818125,0.0006491257350549244,-0.000661887069679334,0.00015082877830404628,-0.0010173126431017973,0.2173345386981964,-21.84811782836914,-2.4095618724823,22.61603546142578,0.6801248788833618,2.2615859508514404,-0.020094294100999832,,,,,,,,,
1739402120.1122122,0.5256719949115157,0.0960016715870231,-0.9533395461356908,-2.0690908487521886,0.13772837512213185,2.1375928103495943,-1.275378976718033,0.0012605778135926066,-0.0006403648271848196,-4.838527130002955e-05,0.0006940939536036467,-0.0005354966930347653,0.00035234798162226533,-0.0021409720242592926,0.1935308277606964,-21.82431411743164,-2.35798716545105,22.61603546142578,0.6865335702896118,2.2551772594451904,-0.0008682189509272575,,,,,,,,,
1739402120.12306,0.5256717476639573,0.09600803916364709,-0.953337673647495,-2.0690944138029552,0.13773088385589352,2.1375892772340306,-1.275373808371592,0.00028280627729952143,0.0016727306064659893,-0.000300236593531083,-0.0005691086990524728,0.0005041085950633318,0.0006171576190062706,-7.275717191502888e-05,0.1935308277606964,-21.89969253540039,-2.38179087638855,22.66364288330078,0.7002664804458618,2.2615859508514404,-0.04756011441349983,,,,,,,,,
1739402120.1330936,0.5256725790206581,0.09600219978997711,-0.9533377519742963,-2.0690852066724092,0.13772670261638936,2.1375881183829955,-1.2753764930105878,-2.110160485945976e-06,-0.0011966557716061792,-0.0011958933560154575,0.001462813680762146,0.0005013494744245126,0.0002743329420623965,-0.0013766965955970603,0.1935308277606964,-21.84811782836914,-2.38179087638855,22.54065704345703,0.7066751718521118,2.2679946422576904,-0.03382720425724983,,,,,,,,,
1739402120.144055,0.5256729991898463,0.09600261895329922,-0.9533310027115232,-2.06909084876387,0.1377263966069486,2.1375864730155874,-1.2753733367084874,0.001973083177776473,0.0006261720337498902,0.002416935742307116,-6.816781144750213e-06,0.000170367350051602,-0.001659345104915531,-0.000407873760573289,0.2173345386981964,-21.82431411743164,-2.4333655834198,22.61603546142578,0.7002664804458618,2.2817275524139404,-0.06037749722599983,,,,,,,,,
1739402120.15502,0.525671824245053,0.09599890864809399,-0.9533328748295864,-2.0690890891256055,0.13772870989987515,2.137588114015378,-1.2753787565083885,0.0007510074525934835,-0.0011247776792656862,0.0007472847259541948,-0.0003959880255061175,0.00010862757511039282,-0.0002641875629321101,-0.0025156378484032724,0.1935308277606964,-21.77273941040039,-2.4333655834198,22.59223175048828,0.7066751718521118,2.2679946422576904,-0.013685601763427258,,,,,,,,,
1739402120.1650708,0.5256710692714831,0.09600062127708528,-0.9533395257506323,-2.0690852036203493,0.1377325087072782,2.1375881140154767,-1.2753748694692533,0.00015548892452936942,0.0009313994695616715,-0.0009822980978156102,8.065115401606926e-05,0.002394408042041072,-0.00027767464118518464,0.00041932156808435723,0.2173345386981964,-21.79654312133789,-2.35798716545105,22.54065704345703,0.6865335702896118,2.2679946422576904,-0.04756011441349983,,,,,,,,,
1739402120.1760738,0.5256760004862179,0.09599446123433364,-0.9533392210370095,-2.069086951782326,0.1377317608868848,2.1375889109214117,-1.2753698609682034,0.000253944769082363,-0.001370390292187545,0.0005735254011586254,0.0004602732252342366,0.00108347794123764,-0.0008472413545725881,0.0023677390928782014,0.1697271168231964,-21.74496841430664,-2.35798716545105,22.56842803955078,0.6938577890396118,2.2615859508514404,-0.08051909506320953,,,,,,,,,
1739402120.1870582,0.5256727013512181,0.09599667393051994,-0.95334339777184,-2.069087292565309,0.13772857220106616,2.1375899869092154,-1.2753744642100735,0.0008464502284575833,-0.0005972025352135392,-0.0019829953084317623,-0.000521201994512747,-0.0002872371937288373,6.353970119674112e-05,-0.0005487276471348124,0.1935308277606964,-21.74496841430664,-2.3064124584198,22.56842803955078,0.6938577890396118,2.2551772594451904,-0.05396880581974983,,,,,,,,,
1739402120.1970918,0.5256718595294371,0.09599901387203816,-0.953341617058899,-2.069083128822493,0.13773084591548382,2.1375933184522133,-1.2753744650298462,0.00022349235994912334,0.0016822714141488668,-0.001251680167588349,0.001110893601670639,-0.00014728806957451838,0.0014609350123052172,2.2631673667358287e-06,0.1935308277606964,-21.77273941040039,-2.3302161693573,22.54065704345703,0.7002664804458618,2.2551772594451904,-0.05396880581974983,,,,,,,,,
1739402120.208024,0.525675841426276,0.09599863666546435,-0.9533402486183644,-2.069083420931228,0.13773270466775336,2.1375912929506895,-1.275378121163854,0.0013263952376546414,-0.0003170320758930859,-4.281250075061072e-05,9.842622567281169e-05,0.0007985446176119568,-0.0004374823734234482,-0.0009659824661583858,0.1697271168231964,-21.77273941040039,-2.35798716545105,22.51685333251953,0.6938577890396118,2.2679946422576904,-0.020094294100999832,,,,,,,,,
1739402120.2190192,0.5256700588481417,0.09600084612993125,-0.953337990180196,-2.0690909311801517,0.13773084548878375,2.1375915259883986,-1.2753737466096826,0.0006270256077915806,0.0005641279519889034,-0.00016960288771522257,-0.0008270631360213004,-0.001415577949690218,0.00011108869202962885,-0.0014049323871176088,0.2173345386981964,-21.79654312133789,-2.38179087638855,22.61603546142578,0.7002664804458618,2.2753188610076904,-0.06037749722599983,,,,,,,,,
1739402120.230027,0.5256683991506534,0.09600048824489833,-0.9533377556108393,-2.069090852834259,0.13773099761022592,2.1375911658162274,-1.2753756953338844,-0.00019202045065601616,0.001053150714627113,0.00034430099711881847,-0.00018797211925286034,-0.00037496627389934934,0.0010340266146345283,-0.000980843212217585,0.2411382496356964,-21.82431411743164,-2.38179087638855,22.61603546142578,0.7002664804458618,2.2551772594451904,-0.013685601763427258,,,,,,,,,
1739402120.2400937,0.5256734572411828,0.09600399617556006,-0.9533405764121647,-2.069090848763922,0.13773178747177742,2.1375888717015754,-1.2753770309124304,0.001282014589443552,0.0012279094761644528,-0.000653247359032972,-0.00038291492337342507,-0.0001944342166777231,-0.0007394157323765158,-0.00028391852452467497,0.1697271168231964,-21.87192153930664,-2.35798716545105,22.61603546142578,0.6938577890396118,2.2615859508514404,-0.04023589566349983,,,,,,,,,
1739402120.2510772,0.5256663217367904,0.09600433176319505,-0.9533356718645954,-2.0690908488769066,0.13772870846793714,2.137591294867932,-1.2753796277143035,-0.00172427083419816,0.0008189980256420982,0.0007022528788056269,0.0003394579184106849,-0.0006628122282557658,0.0006574506808292802,-0.001336827749410986,0.2689092457294464,-21.84811782836914,-2.4095618724823,22.61603546142578,0.7066751718521118,2.2679946422576904,-0.0072769103571772575,,,,,,,,,
1739402120.261147,0.5256718281165511,0.09600432773308547,-0.9533339156726475,-2.0690926314408773,0.13773176102546256,2.1375888849191114,-1.2753756176306965,0.0003859852968461461,-0.0017137550023360653,0.0005526829309254147,-0.00022421717288964178,0.0009798207772033314,-0.0007744414911105372,-0.000268760903402069,0.1935308277606964,-21.84811782836914,-2.4333655834198,22.63983917236328,0.6938577890396118,2.2615859508514404,-0.04023589566349983,,,,,,,,,
1739402120.2720153,0.5256700321985315,0.09600433209952623,-0.9533354292248879,-2.0690930740039244,0.13773175521719236,2.1375876144129315,-1.2753820531063882,-0.0003363390348325078,-0.0006195993032171364,0.00023180384071809176,-0.00016938726820267498,0.0005651272001025916,-0.0011685764038282948,-0.0018148258961936292,0.2173345386981964,-21.84811782836914,-2.4095618724823,22.61603546142578,0.6938577890396118,2.2753188610076904,-0.013685601763427258,,,,,,,,,
1739402120.2820327,0.5256728932213238,0.0960097633817298,-0.9533338891775849,-2.0690926324960417,0.13772781459489278,2.1375872495779977,-1.2753783103805998,7.436523940000639e-06,0.0016063130283697272,0.0006302144153125691,-0.0006438454023149709,-0.0010223694581195095,-0.0008058005922531728,-0.0012092807787123768,0.2173345386981964,-21.92349624633789,-2.4333655834198,22.63983917236328,0.7002664804458618,2.2753188610076904,-0.027418512850999832,,,,,,,,,
1739402120.2929862,0.5256734925772584,0.09600436800555473,-0.9533377516485684,-2.069089148503139,0.13773170859423187,2.1375881198296858,-1.2753763253005206,0.0010895346026595658,-0.0004086094666878628,-0.0008893424965406989,0.00035396028267186064,0.00010901441549910024,-0.000649440785859002,1.9518942217577775e-05,0.1697271168231964,-21.84811782836914,-2.38179087638855,22.59223175048828,0.6938577890396118,2.2679946422576904,-0.04023589566349983,,,,,,,,,
1739402120.3049946,0.5256771690092799,0.09600605595160085,-0.9533354377482952,-2.069089066426461,0.13772837520250827,2.1375896467782693,-1.2753803721269408,0.0009876910402215413,0.0012839936390404328,0.00011177097420107666,0.0002645557613834142,-0.0016011161691705765,-0.00018014109624768287,-0.0008248934757084305,0.11815241724252701,-21.87192153930664,-2.4095618724823,22.59223175048828,0.6865335702896118,2.2551772594451904,-0.0008682189509272575,,,,,,,,,
1739402120.3150766,0.5256709950300649,0.09599899146645792,-0.9533368244638838,-2.069085203619961,0.13773248266651178,2.1375888721601704,-1.2753772502040208,0.0001378218320525874,-0.000126735607357886,-0.0002646342545386019,-0.0003314408485685325,0.0013710032718092383,-0.0010371053256349873,-0.00010452393083843758,0.2173345386981964,-21.77273941040039,-2.38179087638855,22.54065704345703,0.6865335702896118,2.2615859508514404,-0.027418512850999832,,,,,,,,,
1739402120.3260376,0.5256710295051424,0.09599994339010141,-0.9533356705695095,-2.0690834124396713,0.1377326268379736,2.1375923527295018,-1.2753778740254054,-0.00036705592909548677,0.0006249504569000681,-0.0002084103675777206,0.0003264946875786576,0.00044029059031783804,0.0005053188436322212,-0.0012668374911271596,0.1935308277606964,-21.77273941040039,-2.4095618724823,22.51685333251953,0.6865335702896118,2.2679946422576904,-0.04023589566349983,,,,,,,,,
1739402120.3370607,0.5256678864190504,0.0959996189543019,-0.953338143550521,-2.06908696878872,0.13773176110356353,2.1375912949397144,-1.2753749377076988,-0.00024589733062454035,0.0011950624914551838,-0.000680194259013822,-0.00033071554808203286,0.0002858339692847976,-0.00017564015491772428,-0.00038565666396888916,0.2173345386981964,-21.77273941040039,-2.35798716545105,22.56842803955078,0.6938577890396118,2.2679946422576904,-0.020094294100999832,,,,,,,,,
1739402120.3471127,0.5256700331674079,0.09599867232224689,-0.9533416141075922,-2.0690869993707914,0.13773054068006801,2.137589629999612,-1.2753817005758126,0.0001561874253589028,0.0006623087319021364,-0.0011266126250174468,-0.00026811780834143774,-0.001627080020548762,2.171531047689165e-05,-0.0021769088288096858,0.2173345386981964,-21.77273941040039,-2.3302161693573,22.59223175048828,0.6938577890396118,2.2551772594451904,-0.013685601763427258,,,,,,,,,
1739402120.358009,0.5256718271354102,0.09599898756772565,-0.9533403261652534,-2.069088793752529,0.13773327072037894,2.137588990866679,-1.2753779569146697,0.0005596641311085402,-4.547655953854161e-05,-5.428451981102201e-05,-0.0005584707091973603,0.0010407988691030839,-0.0013975473103263526,-0.0011402041161267765,0.1935308277606964,-21.77273941040039,-2.35798716545105,22.59223175048828,0.6801248788833618,2.2615859508514404,-0.027418512850999832,,,,,,,,,
1739402120.368092,0.525668284357768,0.09600070009112742,-0.953335674815562,-2.069089066082222,0.13773176158918168,2.1375935177086767,-1.275375929605853,-0.0004727868168583264,0.0008106736601969024,0.00040694424312962235,-0.00022170051261496902,-5.681596485495737e-05,0.0011025828266860434,0.0006605857834311822,0.2411382496356964,-21.79654312133789,-2.4095618724823,22.59223175048828,0.6938577890396118,2.2615859508514404,-0.04756011441349983,,,,,,,,,
1739402120.3789957,0.5256746057418556,0.09599899926150003,-0.9533406126715344,-2.069087283409815,0.13773176061753817,2.1375888732091677,-1.275372596497437,0.0011909136770255845,0.0002991741346681261,-0.0006310023342619125,0.0005442675498855118,5.015772188615529e-05,-0.0009754388192064717,0.00206095965922183,0.1935308277606964,-21.77273941040039,-2.38179087638855,22.56842803955078,0.6938577890396118,2.2615859508514404,-0.06678618490695953,,,,,,,,,
1739402120.3891273,0.5256717447675574,0.09600604415267605,-0.9533423953969884,-2.0690890661998877,0.13773112256696943,2.1375938695032324,-1.2753797496437054,0.0007219300781118336,0.0004768046248133723,-0.002109184835356198,-0.00013801853016451996,-0.0010352470418694372,0.0006375037668752495,-0.0007231288319658165,0.1935308277606964,-21.87192153930664,-2.35798716545105,22.59223175048828,0.7002664804458618,2.2551772594451904,-0.0072769103571772575,,,,,,,,,
1739402120.4000497,0.5256726895631046,0.09600261914576555,-0.9533377253433469,-2.069090844984623,0.13773019532702313,2.137592758132448,-1.2753717175129327,0.001267573525201671,-0.0004724491637309976,-0.00021846083073739987,5.226054557401288e-06,0.00036941692971360066,-0.00036588949333993763,0.0007531034510664366,0.1935308277606964,-21.82431411743164,-2.38179087638855,22.61603546142578,0.6801248788833618,2.2679946422576904,-0.07411040365695953,,,,,,,,,
1739402120.4120138,0.5256717446881006,0.09600838408284243,-0.9533356359074217,-2.069093067182913,0.13773310093068541,2.137589342652051,-1.2753762041652774,-8.062079925177397e-05,0.00043842343832658744,-0.00010215443483703535,-0.0006302335446790986,0.001006561869992677,0.0005786032888138739,-0.00014292065510849517,0.1935308277606964,-21.89969253540039,-2.4095618724823,22.63983917236328,0.6865335702896118,2.2615859508514404,-0.04023589566349983,,,,,,,,,
1739402120.4220514,0.5256702706169535,0.09600829054881443,-0.9533377595157062,-2.0690908518187685,0.13773435335555573,2.1375872612028552,-1.2753799967498933,-0.00018515781046712926,-0.0001502322013018847,-0.0021077659315544084,0.00024614894581929605,-0.001076540867452625,-0.0015836301519148192,-0.002229766853591275,0.2173345386981964,-21.89969253540039,-2.38179087638855,22.61603546142578,0.7066751718521118,2.2753188610076904,-0.0072769103571772575,,,,,,,,,
1739402120.4330513,0.5256676842231603,0.09600892168237325,-0.9533338888607459,-2.0690927535391097,0.1377340242386429,2.1375873704318797,-1.2753749232546658,-0.0003655137762493162,7.883543427543842e-05,0.0003316670345023026,-0.0006581468019254246,0.0009261937890829546,-0.0017507472535042536,-0.00018223920504753044,0.2411382496356964,-21.87192153930664,-2.4333655834198,22.63983917236328,0.6737161874771118,2.2753188610076904,-0.04756011441349983,,,,,,,,,
1739402120.4440837,0.5256700321947874,0.09600459518566012,-0.9533395333626087,-2.0690890406907703,0.13773166515394702,2.1375896469404325,-1.2753820131238278,0.00021523393396251058,-0.0005532037185592934,-0.0009066660669764944,-0.00017144160268903885,-0.0005609466971213046,-0.0006970814397239313,-0.0030585656467181357,0.2173345386981964,-21.84811782836914,-2.35798716545105,22.59223175048828,0.6938577890396118,2.2551772594451904,0.012864691205322742,,,,,,,,,
1739402120.4550002,0.5256682666957369,0.09600657696402128,-0.9533377475120013,-2.069090772234289,0.13773176110302465,2.1375896448193257,-1.2753764988427587,0.00011143377928789721,-2.532462313442835e-05,-0.000625974587008247,9.817028933304592e-05,0.00017335794205569378,-0.0010233188527634064,-9.86487156419633e-05,0.2411382496356964,-21.84811782836914,-2.38179087638855,22.61603546142578,0.6938577890396118,2.2679946422576904,-0.03382720425724983,,,,,,,,,
1739402120.4650528,0.5256697260780009,0.09600088565189417,-0.9533321055414876,-2.0690890782927682,0.13772883558914598,2.137588989975415,-1.2753764935133698,0.00020533484622566994,-0.0002715151336607136,0.0017066179960197722,-0.00011377541799017504,-0.002032262041554823,-0.0010003618374646941,0.0012534783667728653,0.2173345386981964,-21.79654312133789,-2.4571692943573,22.59223175048828,0.6801248788833618,2.2615859508514404,-0.03382720425724983,,,,,,,,,
1739402120.4750867,0.525671480131438,0.0959998308956792,-0.9533397727441504,-2.069085192282474,0.13773177857814659,2.137593149637438,-1.2753788744075707,0.00032301826366486707,0.0007308453810621473,-0.0010354656482088264,0.0003951293154263865,-0.0013208234285080394,0.0009833904493068023,-0.0011398659144338146,0.1935308277606964,-21.74496841430664,-2.35798716545105,22.54065704345703,0.6938577890396118,2.2615859508514404,-0.013685601763427258,,,,,,,,,
1739402120.4860482,0.5256700321978767,0.09599962778344219,-0.9533377516490171,-2.069089040577006,0.13773100344352082,2.137590433393235,-1.275374111811169,0.0010792426527496861,-0.0004086296427593362,-3.629827453003183e-05,-0.0002282318393692845,0.00031317242779328215,0.0008127668896167939,0.00015776245352458257,0.2173345386981964,-21.77273941040039,-2.38179087638855,22.59223175048828,0.7002664804458618,2.2753188610076904,-0.05396880581974983,,,,,,,,,
1739402120.4960763,0.5256727419840995,0.09599533112388692,-0.9533377256481884,-2.069089066086402,0.13773338904878182,2.137589688016103,-1.2753796317446298,0.0015553236743114218,-0.0025679162763977727,0.0006403285445619998,-0.0006019327115359937,-0.0005324655585263019,0.0002778677891407944,-0.001385608694638052,0.1697271168231964,-21.69339370727539,-2.38179087638855,22.59223175048828,0.6801248788833618,2.2551772594451904,-0.0072769103571772575,,,,,,,,,
1739402120.5061173,0.5256700321862616,0.09600062120491268,-0.9533380682555975,-2.069081638265921,0.13773310089459195,2.1375903889347723,-1.2753828500663773,0.0003780386666408158,0.0008738127106327195,0.0003814984948831034,0.001773764006380882,0.0012554073111409737,-0.0006386992147559272,-0.0012082044897342994,0.2173345386981964,-21.79654312133789,-2.38179087638855,22.49304962158203,0.6865335702896118,2.2487685680389404,-0.0072769103571772575,,,,,,,,,
1739402120.5170608,0.5256700321983745,0.09599891745317758,-0.9533383542377796,-2.0690890638499817,0.13773339782726657,2.1375901526137326,-1.27537552618756,-0.0001971118500636625,1.3367857505888205e-05,-2.4050355388202904e-05,-0.000597760793554268,0.001292016943657686,-3.5502097495407337e-05,-0.0010079701221502014,0.2173345386981964,-21.77273941040039,-2.38179087638855,22.59223175048828,0.6801248788833618,2.2551772594451904,-0.05396880581974983,,,,,,,,,
1739402120.5279784,0.5256695989518938,0.0959991454110391,-0.9533356718621145,-2.0690845148551626,0.13773176132032727,2.13759165217507,-1.2753741685076123,0.00028778427327989917,1.4770844788499675e-05,-0.00014886699997923675,0.001019312782915626,0.00014340119161653617,0.001427386550377814,0.0016536304062710837,0.1935308277606964,-21.77273941040039,-2.4095618724823,22.54065704345703,0.6938577890396118,2.2679946422576904,-0.05396880581974983,,,,,,,,,
1739402120.5380738,0.5256717445737508,0.0960007000938005,-0.9533356718587129,-2.0690926304843997,0.1377310535743607,2.1375920571100857,-1.2753781165868288,0.0008821354440804177,-0.0013712414155342921,-0.00048190468168014187,-0.001090095215253624,-0.0007607972764492862,-0.000307796087110986,-0.0011655823603801186,0.1935308277606964,-21.79654312133789,-2.4095618724823,22.63983917236328,0.6938577890396118,2.2615859508514404,-0.020094294100999832,,,,,,,,,
1739402120.5490193,0.5256700675196431,0.09599989175132685,-0.953337673326436,-2.0690890660868178,0.1377326269888166,2.137591820784055,-1.2753733541510905,7.491579602833667e-05,-0.0010621195701991416,-0.0010867307644228034,0.00022509166431511343,-2.3509362871135166e-07,0.0008734575444939724,0.0006578077073023497,0.2173345386981964,-21.77273941040039,-2.38179087638855,22.59223175048828,0.6865335702896118,2.2679946422576904,-0.06037749722599983,,,,,,,,,
1739402120.5590591,0.5256717450463539,0.09600631891856876,-0.9533354375338582,-2.069089066086834,0.13773176110356622,2.1375892661469487,-1.2753792786934255,-0.0003026609094776643,0.0012214997282475916,-0.00031880924946062206,-0.00030029096613913976,0.00022654780809950575,-0.0006838825471733908,-0.0011570696657067637,0.1935308277606964,-21.87192153930664,-2.4095618724823,22.59223175048828,0.6938577890396118,2.2615859508514404,-0.0072769103571772575,,,,,,,,,
1739402120.5690694,0.5256683196776488,0.09600742232727924,-0.9533359101663262,-2.069090848763853,0.13773338531093698,2.1375889894198052,-1.2753787437853044,-0.0008176438870301522,-0.00038888154698808356,0.00028648168895093693,0.0002845864369348061,0.0008080764225810075,-0.0009273474435142168,-0.001454413064240829,0.2411382496356964,-21.84811782836914,-2.4095618724823,22.61603546142578,0.6801248788833618,2.2615859508514404,-0.05396880581974983,,,,,,,,,
1739402120.5800843,0.5256663217367904,0.09600828419601043,-0.9533356718600582,-2.0690926405982384,0.13773176104956653,2.137591840422488,-1.2753765330916262,-0.0014383282756666013,2.4054524277271035e-05,0.00038872558015253086,-0.0005266676891590831,-0.0008139091214102262,-0.0011644821634237395,0.0004772693673213177,0.2689092457294464,-21.87192153930664,-2.4095618724823,22.63983917236328,0.6938577890396118,2.2753188610076904,-0.06037749722599983,,,,,,,,,
1739402120.59101,0.5256724599748431,0.0960029729134259,-0.9533374396083423,-2.0690883786787486,0.13773339782459113,2.1375897107977417,-1.2753777347388133,0.0010512101794417827,-0.0005039844254348217,-0.0003777566974977319,0.0008188932454010792,4.0412921334294155e-05,-0.0013860533612614126,-0.0007563313319909456,0.1935308277606964,-21.82431411743164,-2.38179087638855,22.59223175048828,0.6801248788833618,2.2817275524139404,-0.027418512850999832,,,,,,,,,
1739402120.6020386,0.5256717447231434,0.09600370341882056,-0.9533388318855757,-2.0690891769888373,0.13773176115781224,2.1375886654017484,-1.2753748709275299,0.00033756244573926556,-0.0003802247640991316,-0.0015675046347918586,-0.00036257198341674675,-0.000424361759599609,3.342528556970559e-05,-0.0009534636678999865,0.1935308277606964,-21.79654312133789,-2.35798716545105,22.59223175048828,0.6938577890396118,2.2753188610076904,-0.04756011441349983,,,,,,,,,
1739402120.6120682,0.5256700351418139,0.09600515694257418,-0.95333567088384,-2.069089069141168,0.1377333715380446,2.137592867794805,-1.2753764930285822,-0.0006062697013174698,0.001411231089161486,0.0007563544049760181,0.000315375033814121,0.0004418354683961198,0.0008063554312843144,0.0006661792752899635,0.2173345386981964,-21.84811782836914,-2.4095618724823,22.59223175048828,0.6801248788833618,2.2679946422576904,-0.03382720425724983,,,,,,,,,
1739402120.6221037,0.525670032198524,0.09600094858661043,-0.9533356705746939,-2.0690908749763643,0.1377309947078927,2.137591351797908,-1.2753709729341418,0.0005742649049701375,-0.0005423837001114871,0.0008490480941271773,-0.0008259824738108377,8.662587464539344e-05,-0.0002617547841575618,0.002578600999133478,0.2173345386981964,-21.79654312133789,-2.4095618724823,22.61603546142578,0.7002664804458618,2.2679946422576904,-0.08051909506320953,,,,,,,,,
1739402120.6330507,0.5256717447191058,0.09599939249012679,-0.953337751648566,-2.069085169606933,0.1377336932616499,2.1375918179008813,-1.2753812554634463,0.0008501330412449644,-0.0005598101036992412,-0.0007174631847851542,0.00074164988543714,0.0010118518291269097,9.276635679197282e-05,-0.001375851450290753,0.1935308277606964,-21.74496841430664,-2.38179087638855,22.54065704345703,0.6865335702896118,2.2679946422576904,0.0064559997990727425,,,,,,,,,
1739402120.6430562,0.5256700321983746,0.09599343813317342,-0.9533356718587128,-2.0690872834092384,0.1377334373337919,2.1375921089561842,-1.2753748127827875,-4.509693747882672e-05,-0.002248169331658592,0.0004671073846612586,-0.0010446174113474304,0.001538839455072074,-1.9170111292644013e-05,0.0012432826636583892,0.2173345386981964,-21.69339370727539,-2.4095618724823,22.56842803955078,0.6801248788833618,2.2615859508514404,-0.04756011441349983,,,,,,,,,
1739402120.6530633,0.5256700321983746,0.09599907665330557,-0.9533363871144501,-2.0690852036199594,0.13773206970524762,2.1375932301200384,-1.2753727142280624,-0.00015868111929229456,-0.0005441005735150689,0.0005983976640260217,-0.0009314184967194421,0.0007186727362270345,-0.0007378188514308727,0.0014871767445109,0.2173345386981964,-21.74496841430664,-2.4095618724823,22.54065704345703,0.7002664804458618,2.2615859508514404,-0.06678618490695953,,,,,,,,,
1739402120.664055,0.5256685582052386,0.09599894766972407,-0.9533357513356102,-2.0690854508688563,0.1377368901061649,2.1375942783522754,-1.2753796319067998,-0.00013257920466502277,6.62068172270362e-05,-0.0006513119809210566,-1.715852509720961e-05,0.001718633404520081,-0.0006474101688741377,-0.0005393368293826751,0.2411382496356964,-21.77273941040039,-2.4095618724823,22.54065704345703,0.6865335702896118,2.2551772594451904,-0.0072769103571772575,,,,,,,,,
1739402120.6750429,0.5256725827126778,0.09600065140945263,-0.953337751976066,-2.06908728341121,0.1377326273503987,2.1375928765183487,-1.2753810447569744,0.00046873159656994666,0.0001805174831814343,-9.966391986926967e-05,-0.00040553980744319445,0.0003997702315281014,0.0014152174587934996,-0.0023701511591730845,0.1697271168231964,-21.79654312133789,-2.38179087638855,22.56842803955078,0.6865335702896118,2.2679946422576904,-0.0072769103571772575,,,,,,,,,
1739402120.6860604,0.525670041013882,0.09600062127759741,-0.9533395344346094,-2.069094405614622,0.1377327061057344,2.13759283005915,-1.275371861437669,-0.0003292922548485059,-0.0004534991261813414,6.334968636892961e-05,-0.0009549884321924398,-2.431763082702307e-05,0.0003621550503926007,0.0014855031512401682,0.2173345386981964,-21.79654312133789,-2.35798716545105,22.66364288330078,0.6865335702896118,2.2679946422576904,-0.07411040365695953,,,,,,,,,
1739402120.6970792,0.5256683197139986,0.09600505068809019,-0.953335671858713,-2.069092631440856,0.13773298971706058,2.1375912187388937,-1.2753801406310226,-0.0003814558986048799,-0.0005423627128564971,0.000545118614575557,-0.0005480188011476617,0.000859277454148073,0.0013674029574190492,-0.0010576700217938605,0.2411382496356964,-21.84811782836914,-2.4095618724823,22.63983917236328,0.6938577890396118,2.2551772594451904,-0.0072769103571772575,,,,,,,,,
1739402120.7080894,0.5256699232911229,0.09600888575108996,-0.9533356816701771,-2.069087286914486,0.13773262556351276,2.1375909546982883,-1.2753764799552207,-0.0003510794838701034,0.0010882698143517505,-0.0008923350739976194,0.0009094758848477338,-0.00034385603620481337,0.0008475155116435971,-0.0007142656540200488,0.2173345386981964,-21.87192153930664,-2.4095618724823,22.56842803955078,0.6865335702896118,2.2753188610076904,-0.03382720425724983,,,,,,,,,
1739402120.71901,0.5256717447189009,0.0960063072263713,-0.9533308471372495,-2.0690872956196436,0.13773176110356358,2.137593504864966,-1.2753772899344682,-0.0008712200182429547,0.0005890995908460131,0.0018176189330607975,0.0005263788399247282,-0.0008982785497513815,0.0014811067968959633,2.868148795197008e-05,0.1935308277606964,-21.87192153930664,-2.4333655834198,22.56842803955078,0.6938577890396118,2.2615859508514404,-0.027418512850999832,,,,,,,,,
1739402120.7290616,0.5256691103409786,0.09600464840131699,-0.9533356718071956,-2.0690920330738027,0.13773608318979935,2.1375882513736855,-1.2753741118118331,-0.0005416264238497817,-0.0012456453610402106,-0.0004496326161207402,-0.000986469221057793,0.0029393841805941128,-0.00230703827221735,0.0009912092459348027,0.1935308277606964,-21.84811782836914,-2.4095618724823,22.59223175048828,0.6938577890396118,2.2679946422576904,-0.05396880581974983,,,,,,,,,
1739402120.73998,0.525669190266692,0.09600828457730198,-0.9533356715377203,-2.0690918649333527,0.13773262702519698,2.137592847711994,-1.2753772899344928,0.00032469287097370544,0.0001514476759671345,-0.001339032808519519,-0.0005613816892450915,-0.0001954649299307045,-0.0007434781511804457,-0.0007188249223920831,0.2411382496356964,-21.87192153930664,-2.4095618724823,22.61603546142578,0.6865335702896118,2.2551772594451904,-0.027418512850999832,,,,,,,,,
1739402120.7509868,0.5256700459491679,0.09600747525238448,-0.9533395342185846,-2.069090848466126,0.13773306467922372,2.1375914302641132,-1.275375735369144,0.0004654134559777817,0.0003528831546842681,-0.0015859099177917045,0.00016732605556764275,0.00021488942621135734,0.0005314047219700688,0.0011622135782298126,0.2173345386981964,-21.84811782836914,-2.35798716545105,22.61603546142578,0.6938577890396118,2.2679946422576904,-0.04023589566349983,,,,,,,,,
1739402120.762022,0.5256700409197536,0.09600365812715964,-0.9533395099846769,-2.0690876130750087,0.1377317479880917,2.137592865118707,-1.275382055098512,-0.00038646570446140984,-0.0008834410187958984,-0.0004942470950844012,0.0012783890913672618,-0.0011066511993037794,-0.002004028892900046,-0.0012841175953754043,0.2173345386981964,-21.82431411743164,-2.35798716545105,22.56842803955078,0.6938577890396118,2.2551772594451904,-0.013685601763427258,,,,,,,,,
1739402120.772077,0.5256700311809386,0.09600510510789372,-0.9533377487595,-2.0690909586541126,0.137734142375053,2.137592511669259,-1.2753772522139775,0.00048319098528741436,-0.00016181574813592045,0.00025122276817171813,-0.00045767511137666445,-6.495882128526793e-05,-0.0011027181029145254,0.00040177159980975843,0.2173345386981964,-21.82431411743164,-2.38179087638855,22.61603546142578,0.6737161874771118,2.2679946422576904,-0.027418512850999832,,,,,,,,,
1739402120.7831075,0.5256700320530138,0.09600360529295235,-0.9533374828352953,-2.069087283410435,0.13773100734536217,2.137592407074035,-1.2753742295487471,-0.00015376923720317106,0.0007066862753027248,0.0002788893440548437,0.0005031457590036516,-7.975479258237795e-05,-0.0009474542834353083,-0.00013951468903085573,0.2173345386981964,-21.82431411743164,-2.38179087638855,22.56842803955078,0.7002664804458618,2.2679946422576904,-0.05396880581974983,,,,,,,,,
1739402120.7940242,0.5256748441606333,0.096000949957617,-0.9533356606285198,-2.0690852036199594,0.1377317611035883,2.137588486363915,-1.2753741118118331,0.002027714408145609,-0.0008086006911530205,0.00011672801397256532,-0.00027276337407528846,0.0005940012855324241,-0.001475167980742669,0.00015093146659073557,0.1935308277606964,-21.79654312133789,-2.4095618724823,22.54065704345703,0.6938577890396118,2.2679946422576904,-0.05396880581974983,,,,,,,,,
1739402120.8040786,0.5256702706694429,0.09600296218868697,-0.9533379900669574,-2.0690870538215536,0.1377326270007987,2.1375935222351203,-1.275375381671253,0.0005084294832854051,0.0007085014564581062,-0.0005886323471315983,-0.00017356906817060245,0.001234734437003118,0.0006495321192342174,0.0015697110866434154,0.2173345386981964,-21.82431411743164,-2.38179087638855,22.56842803955078,0.6865335702896118,2.2615859508514404,-0.04023589566349983,,,,,,,,,
1739402120.8150425,0.5256717538778185,0.09600379082002973,-0.9533368156362334,-2.069090848875611,0.13773405453249526,2.137591218792162,-1.2753740725633154,0.0008115401049248658,-4.915804006098084e-05,0.0003549588048800995,-0.0003608844416188782,0.0009923781624992258,-0.00026238762473826724,0.0013894909509822276,0.1935308277606964,-21.79654312133789,-2.38179087638855,22.61603546142578,0.6865335702896118,2.2551772594451904,-0.05396880581974983,,,,,,,,,
1739402120.8260157,0.525666321736842,0.09600103964029758,-0.9533356631866358,-2.0690872939238285,0.1377333890568403,2.137591543422029,-1.2753788741920002,-0.0012558977192794582,-0.00047722306335096145,-1.6203848468584244e-05,-0.00012301729787176903,-0.0003260927647474251,-0.0009383914525833107,-0.0013665360846426236,0.2689092457294464,-21.77273941040039,-2.4095618724823,22.56842803955078,0.6801248788833618,2.2753188610076904,-0.013685601763427258,,,,,,,,,
1739402120.836122,0.5256700410286923,0.09600135653320403,-0.9533374396438613,-2.0690926405984165,0.13773176110364074,2.1375920164818147,-1.2753799338841854,0.0003662466091648695,-0.0002134937437936163,-0.0002903530194347843,-0.0027854712221889377,-0.0004529835743512591,0.0008153071382784378,-0.0018002147660094213,0.2173345386981964,-21.77273941040039,-2.38179087638855,22.63983917236328,0.6938577890396118,2.2753188610076904,-0.013685601763427258,,,,,,,,,
1739402120.8470812,0.5256717447191556,0.0960029985910051,-0.9533361540904152,-2.069087393298265,0.13773303624908892,2.1375925789554575,-1.2753803895721951,0.0002862571856864157,0.0009355051876905121,0.0002899753768612898,-0.0003456284703298127,-0.000357008062470718,0.0008945597529871003,-0.0016926634161966152,0.1935308277606964,-21.79654312133789,-2.4095618724823,22.56842803955078,0.6801248788833618,2.2615859508514404,-0.0008682189509272575,,,,,,,,,
1739402120.8580213,0.5256663217367904,0.09600086186931404,-0.953337750693758,-2.069089066088695,0.1377321171680151,2.137590445991569,-1.2753757490964541,-0.0019261317461710835,-0.0012965530591842263,-0.001249162915185069,-0.0004719547407688988,0.000317193110690162,-0.001013869364733277,-0.0005071542732831991,0.2689092457294464,-21.79654312133789,-2.38179087638855,22.59223175048828,0.6938577890396118,2.2753188610076904,-0.04023589566349983,,,,,,,,,
1739402120.8681111,0.5256716647375035,0.09600502488331182,-0.9533398983969215,-2.069090650615274,0.13773257451147541,2.137591253006681,-1.2753766114660625,-0.00025815633930762534,-0.00011377341632451013,-0.00029658278269944767,-0.0005879200555219088,-0.00011291521689918812,-0.00019978645791907568,-0.0009635233646040697,0.1935308277606964,-21.82431411743164,-2.38179087638855,22.63983917236328,0.6865335702896118,2.2817275524139404,-0.03382720425724983,,,,,,,,,
1739402120.880049,0.5256717184457336,0.09601120038762505,-0.9533356719071701,-2.069090848830732,0.137734142970719,2.13759252901281,-1.275378116586537,0.00016182349742590847,0.0004979164580862187,0.0008692189391092143,-0.0009939774799412517,0.00017867178247995308,0.0008358636793447484,-0.0012953205671134716,0.1935308277606964,-21.89969253540039,-2.4095618724823,22.61603546142578,0.6737161874771118,2.2679946422576904,-0.020094294100999832,,,,,,,,,
1739402120.891031,0.5256717447190563,0.09600679133374303,-0.9533356718230471,-2.069090848763853,0.13773147735526534,2.137592838779886,-1.2753730914188959,0.0002536671844929529,-4.3758193729707295e-05,0.0008158504038790714,-0.0005479331530135041,-0.00038539662375946013,0.0006825467519271983,0.0012494648906416074,0.1935308277606964,-21.84811782836914,-2.4095618724823,22.61603546142578,0.7002664804458618,2.2679946422576904,-0.05396880581974983,,,,,,,,,
1739402120.9020317,0.5256734572398368,0.09600657163563085,-0.9533356689697816,-2.069091099065205,0.1377356683120771,2.1375951379244444,-1.2753796289932746,0.0012763713056444695,2.3270462438084827e-05,-0.0003435945935649134,-0.0002041839912253159,0.00021207145928677168,0.0025797955239325846,-0.0006500120721439233,0.1697271168231964,-21.84811782836914,-2.4095618724823,22.61603546142578,0.6865335702896118,2.2487685680389404,-0.0072769103571772575,,,,,,,,,
1739402120.9120522,0.5256700321983745,0.09600310716302365,-0.9533331871713843,-2.06908753066295,0.13773495993767412,2.13759090497072,-1.2753729621400427,-0.0004834613774840837,-0.0012463159829145059,0.0008864506812891279,0.00011099707984296204,0.0001412661556494347,-0.0009281430816776649,0.0011059872124556595,0.2173345386981964,-21.79654312133789,-2.4333655834198,22.56842803955078,0.6938577890396118,2.2817275524139404,-0.06678618490695953,,,,,,,,,
1739402120.923026,0.5256683175336567,0.09600573615900306,-0.95333567185475,-2.069088781526089,0.13773583018936394,2.137592830057252,-1.2753717301117675,-0.0009618526274608326,-0.0001110940180469439,0.0005544078550305345,0.0005968118778153252,0.0006981875523686622,-0.0008438296024523271,0.0025461362533892276,0.2411382496356964,-21.82431411743164,-2.4095618724823,22.61603546142578,0.6865335702896118,2.2679946422576904,-0.07411040365695953,,,,,,,,,
1739402120.933092,0.5256684531134469,0.09600296548099853,-0.9533338921251329,-2.069089807413562,0.1377317617538501,2.1375928823843995,-1.2753751699957232,-0.0007993885394013275,-0.00039008376766039196,0.0010576340059323885,0.00021327733173983813,-0.0008729600949285126,0.00036002331284453446,0.0013689818889187659,0.2411382496356964,-21.82431411743164,-2.4333655834198,22.59223175048828,0.6938577890396118,2.2679946422576904,-0.05396880581974983,,,,,,,,,
1739402120.9440875,0.5256700321991278,0.09600310438481403,-0.9533375162185322,-2.069089066091019,0.13773100344349162,2.137592016489826,-1.2753748694772207,0.00019974136925822846,-0.00028908094178172925,0.000704333298351096,-0.00022589824917402604,-0.0013497676518775086,6.192490693494756e-05,-0.00033431065847270474,0.2173345386981964,-21.79654312133789,-2.38179087638855,22.59223175048828,0.7002664804458618,2.2753188610076904,-0.04756011441349983,,,,,,,,,
1739402120.955038,0.5256700321983746,0.0960020786361573,-0.9533356719664001,-2.0690872835228684,0.13773602630955187,2.1375936398856314,-1.275381608676156,0.0009134513071673187,-7.919654225950739e-05,0.0008046276067155373,0.0005575474318881425,0.00022906532269419556,0.00034300071526796686,-0.0005748304650311141,0.2173345386981964,-21.77273941040039,-2.4095618724823,22.56842803955078,0.6938577890396118,2.2615859508514404,0.0064559997990727425,,,,,,,,,
1739402120.9660687,0.5256700321983746,0.09600010570715786,-0.9533377516485686,-2.0690852036199594,0.13773176111159202,2.1375936400471365,-1.2753823398709083,-0.00017397896701988223,-0.00045640769266171123,-0.00043529419310257356,0.0009953945682345607,-0.0009788500155124336,0.0004976759313289635,-0.001380935953402277,0.2173345386981964,-21.74496841430664,-2.38179087638855,22.54065704345703,0.6938577890396118,2.2615859508514404,-0.0072769103571772575,,,,,,,,,
1739402120.9770029,0.525671744682767,0.09600570920646186,-0.9533356718587129,-2.069089066086834,0.1377352042075453,2.1375940444945054,-1.2753781209618058,0.00014020205069241367,0.0026343980611758244,0.0004903964847725885,-0.0007991285881563968,0.0007490831821877358,0.0005634664746346999,-0.0005705979646735282,0.1935308277606964,-21.82431411743164,-2.4095618724823,22.59223175048828,0.6737161874771118,2.2551772594451904,-0.020094294100999832,,,,,,,,,
1739402120.9870095,0.5256737874659434,0.09600199679442059,-0.9533354378552926,-2.069089066086834,0.13773619729330744,2.1375920164838447,-1.275374124893195,4.092151933141199e-05,-0.0002153393673333371,0.0014883279644405212,0.0003206993816260861,0.001634865362730043,-5.68540875648073e-05,0.0006758462028672826,0.1935308277606964,-21.77273941040039,-2.4095618724823,22.59223175048828,0.6938577890396118,2.2753188610076904,-0.05396880581974983,,,,,,,,,
1739402120.9970129,0.5256699262691557,0.09600199538701781,-0.95333567185475,-2.0690912913269055,0.13773338538606425,2.137592016489826,-1.2753731073338326,-0.0010802962086788374,-9.691903113632786e-05,0.0010063559327891476,-0.0009245093332815001,0.0010779623205938375,-0.00015082796381528976,0.00011643261113923327,0.2173345386981964,-21.77273941040039,-2.4095618724823,22.59223175048828,0.6801248788833618,2.2753188610076904,-0.06678618490695953,,,,,,,,,
1739402121.0070574,0.525667788314727,0.09600515152968965,-0.9533377487596373,-2.0690926310586417,0.13773338531094925,2.137594397707215,-1.2753820546226462,-0.0007781016415507859,0.0002616699407063848,0.00018853178961948398,-0.0009731626392097112,0.000785615640863532,0.0008688995258391483,-0.0015903316984780807,0.2173345386981964,-21.84811782836914,-2.38179087638855,22.63983917236328,0.6801248788833618,2.2551772594451904,-0.013685601763427258,,,,,,,,,
1739402121.018025,0.525669793741795,0.09600570678452201,-0.9533358013815018,-2.0690908487638464,0.13773582578341265,2.1375928823870582,-1.2753764930824176,-0.00016491318493264432,-0.00023080244510495626,0.0004709683326308538,-0.00048222666184329657,0.0013225913469278902,0.0007078398236146251,0.0003308841347739379,0.2173345386981964,-21.82431411743164,-2.4333655834198,22.61603546142578,0.6865335702896118,2.2679946422576904,-0.03382720425724983,,,,,,,,,
1739402121.028059,0.5256715053180342,0.09600206940145015,-0.9533348562279561,-2.0690908844485114,0.13773329738947732,2.137593640047137,-1.27537453152679,0.0003390278040076167,-0.0016143632792577673,0.001546126735364431,-0.00047127675610431145,0.0014107761502394085,0.0006529441023675519,0.000711031578168216,0.1935308277606964,-21.77273941040039,-2.4095618724823,22.61603546142578,0.6938577890396118,2.2615859508514404,-0.06037749722599983,,,,,,,,,
1739402121.0389814,0.5256700194421197,0.09600563144360154,-0.9533336551736694,-2.069089161052318,0.13773258602086824,2.1375912588297474,-1.2753733934035933,0.00014754131975662697,0.0002897930687397773,0.00014772292650422908,-0.00011350180481585443,-0.0004216859987426137,-1.961100283510075e-05,0.0003632818645599732,0.2173345386981964,-21.82431411743164,-2.4333655834198,22.59223175048828,0.6865335702896118,2.2817275524139404,-0.06037749722599983,,,,,,,,,
1739402121.049976,0.5256700321983026,0.09600581540771673,-0.9533338891803729,-2.0690908486594104,0.1377317552709646,2.1375928823870582,-1.2753757358532178,-0.0009325964928178426,-0.0005827205857789096,0.0005606843109987661,2.5010889373350905e-05,-0.0014621889932771514,0.00010700374489184793,0.00038630974525107086,0.2173345386981964,-21.82431411743164,-2.4333655834198,22.61603546142578,0.6938577890396118,2.2679946422576904,-0.04023589566349983,,,,,,,,,
1739402121.0601404,0.5256700321983745,0.09600373854693729,-0.9533387053228848,-2.0690927232487186,0.13773101676961857,2.1375912588297474,-1.275382810982037,0.0006077435353082737,-0.0019072285403133051,-0.0006969976191346986,-0.0012031016452226783,-0.001523127901385449,-0.0005042946209849707,-0.0018353076663758642,0.2173345386981964,-21.79654312133789,-2.38179087638855,22.63983917236328,0.7002664804458618,2.2817275524139404,-0.0072769103571772575,,,,,,,,,
1739402121.072044,0.5256717434109105,0.09600413385108941,-0.953340249479711,-2.0690890660873524,0.13773268160591146,2.1375928823870582,-1.2753741161897654,0.0011529147373185106,-0.0003745826743593271,-0.000966565133522237,-0.00029244957665676814,0.0005650027565505696,-0.000710063963702314,-0.0003338323047444694,0.1935308277606964,-21.79654312133789,-2.35798716545105,22.59223175048828,0.6865335702896118,2.2679946422576904,-0.05396880581974983,,,,,,,,,
1739402121.0820808,0.5256717446827596,0.09600710954986647,-0.9533375176135195,-2.069088272405402,0.13773176549177935,2.1375916632771164,-1.2753725971913348,-9.20781227113554e-05,0.0015724506019786063,0.000703747850409585,-0.00012005874548261654,-0.00037733421331549076,-0.0006786673036218911,0.00035934899529306043,0.1935308277606964,-21.87192153930664,-2.38179087638855,22.56842803955078,0.6938577890396118,2.2753188610076904,-0.06678618490695953,,,,,,,,,
1739402121.0929909,0.5256663217367902,0.09600131280249484,-0.9533357510092592,-2.0690872834153975,0.13773350291831782,2.1375928823850647,-1.27537725068864,-0.001367273063767872,-0.0010099961968211316,0.0005382866894421568,0.0008772852969836958,2.9590257178210714e-05,0.00029095477485786137,-0.0008650040307713286,0.2689092457294464,-21.77273941040039,-2.4095618724823,22.56842803955078,0.6801248788833618,2.2679946422576904,-0.027418512850999832,,,,,,,,,
1739402121.1030416,0.5256693159614908,0.09600381742765703,-0.9533394293651116,-2.069091291326906,0.13773262700680677,2.1375928780264073,-1.2753781180394188,-7.472648394527974e-05,0.0005464558642837301,-0.0006125015412859166,-0.0012173004962285627,-0.0007593620488264715,-0.00015474822411610378,-0.00037425953772923147,0.2173345386981964,-21.79654312133789,-2.35798716545105,22.59223175048828,0.6865335702896118,2.2679946422576904,-0.020094294100999832,,,,,,,,,
1739402121.1130488,0.5256700323396863,0.09599718678627292,-0.9533377487590449,-2.069086594657592,0.13773461176387275,2.137592882387034,-1.2753749217990642,-0.0003407632885853554,-0.0022990397631331805,-7.82685946531611e-05,0.0004483082097757387,9.218675709375137e-05,0.00022418798626626602,0.00022429074767137103,0.2173345386981964,-21.74496841430664,-2.38179087638855,22.56842803955078,0.7002664804458618,2.2679946422576904,-0.04756011441349983,,,,,,,,,
1739402121.1240215,0.5256717443920593,0.09600357762429552,-0.9533374636160277,-2.0690890660751697,0.1377350127646491,2.1375928823870582,-1.2753772506895222,0.00020340661390378398,0.0001501453839317903,-0.00029016125695498674,0.00011659338572324275,0.0005052335566159925,6.644952657043247e-05,-0.0016019189181961735,0.1935308277606964,-21.79654312133789,-2.35798716545105,22.59223175048828,0.6938577890396118,2.2679946422576904,-0.027418512850999832,,,,,,,,,
1739402121.1350431,0.5256663217367897,0.09600289678418268,-0.9533357509947952,-2.069087283409815,0.1377342419580966,2.1375928825566395,-1.27537553774396,-0.0005554258510185605,0.0002669456132790988,5.6313790515435177e-05,0.000182517079607892,2.007788988599808e-05,-0.00015722550370323094,0.0004283521918053686,0.2689092457294464,-21.79654312133789,-2.4095618724823,22.56842803955078,0.7002664804458618,2.2679946422576904,-0.05396880581974983,,,,,,,,,
1739402121.1450686,0.5256678864311626,0.09600373853134544,-0.9533395343269278,-2.0690872068803943,0.1377317616459558,2.137592016489829,-1.2753748694953955,5.295642467462522e-05,-0.0009583165223709933,-0.0006595003114059008,0.00011228370631966852,0.00013046460785865548,0.0008731478451633096,-0.00010991103061553867,0.2173345386981964,-21.79654312133789,-2.35798716545105,22.56842803955078,0.6938577890396118,2.2753188610076904,-0.04756011441349983,,,,,,,,,
1739402121.1560798,0.5256717447069928,0.09600210191546744,-0.9533317831509119,-2.069087640546678,0.1377341291981251,2.1375928823870587,-1.2753725964376175,0.0005718982655106018,-0.0012239738171729798,0.0010667656801466303,-0.00017506616132730376,-0.0004141046979587911,0.00026880549626505477,0.0020299981832459604,0.1935308277606964,-21.77273941040039,-2.4333655834198,22.56842803955078,0.6737161874771118,2.2679946422576904,-0.06678618490695953,,,,,,,,,
1739402121.1670048,0.525667998842765,0.0960054997248445,-0.9533388322796611,-2.0690890662059362,0.13773691170836116,2.1375912457477955,-1.2753741118111677,-0.0009670619860079176,0.00022896531295819248,-0.0006948904753426047,-0.0013175890907384435,0.0016709843626257703,-3.605097165695849e-05,0.0013075328193429753,0.2411382496356964,-21.82431411743164,-2.35798716545105,22.59223175048828,0.6865335702896118,2.2817275524139404,-0.05396880581974983,,,,,,,,,
1739402121.1770887,0.5256692733501486,0.0960038164917872,-0.9533377516446053,-2.0690926405982393,0.13773191909232657,2.137594399233369,-1.2753733547971127,0.00038261496125711707,-0.0010481362618906813,-0.0010436755611234647,-0.0008623002491003646,-9.837628568425294e-05,0.0008328023486088937,0.0011092224701888663,0.2411382496356964,-21.79654312133789,-2.38179087638855,22.63983917236328,0.6938577890396118,2.2551772594451904,-0.06037749722599983,,,,,,,,,
1739402121.1879742,0.5256717094032183,0.09600577164553144,-0.9533359083695073,-2.0690908487639046,0.13773588282705596,2.1375951553673023,-1.2753741118111723,0.0006201967232591427,-0.001117403491547718,0.0003846475581646635,0.0002343602991081124,0.00015254116060566496,0.00037719721229444625,0.0012224818519044481,0.1935308277606964,-21.82431411743164,-2.4095618724823,22.61603546142578,0.6865335702896118,2.2487685680389404,-0.05396880581974983,,,,,,,,,
1739402121.1980364,0.5256700321977764,0.096011001627435,-0.9533394996624196,-2.069090848763853,0.13773262721845136,2.1375936400471374,-1.2753773160983972,0.0003902012365978791,0.0010603096724606416,-0.0013240065625323288,-1.9194083860195067e-05,-0.00012840848963829616,-0.00014241582436051877,1.6761891850949277e-05,0.2173345386981964,-21.89969253540039,-2.35798716545105,22.61603546142578,0.6865335702896118,2.2615859508514404,-0.027418512850999832,,,,,,,,,
1739402121.2080815,0.5256734572398368,0.09600760703040657,-0.9533355938569857,-2.069094661366788,0.13773495988617293,2.1375943977072156,-1.2753835660591255,0.0008785901785480501,0.0007606561517952183,0.0009208057420826529,-0.0013933424479663017,-8.788540828394984e-05,0.0005769768565284242,-0.0021260268537306583,0.1697271168231964,-21.84811782836914,-2.4095618724823,22.66364288330078,0.6938577890396118,2.2551772594451904,-0.0008682189509272575,,,,,,,,,
1739402121.2190664,0.5256700321983745,0.09600073955071986,-0.9533395343251472,-2.0690890660882295,0.13773427793220233,2.1375928823870587,-1.275375752882849,0.0003192759721729097,-0.002001520676117408,-0.0006697098202254684,0.00011295037255820066,0.0010242104396583963,-0.00023598319318620753,0.0005202021673219686,0.2173345386981964,-21.79654312133789,-2.35798716545105,22.59223175048828,0.6737161874771118,2.2679946422576904,-0.04023589566349983,,,,,,,,,
1739402121.2300794,0.5256707115355909,0.09600584570227702,-0.9533377516485684,-2.0690888648857997,0.1377317611043318,2.1375936400471374,-1.275383466011383,5.143961095546755e-05,0.0005673326159532782,0.00030441333502670637,-0.0006731039529274114,-4.14501824814405e-05,0.0007258086089609406,-0.0027358534994577754,0.1935308277606964,-21.82431411743164,-2.38179087638855,22.61603546142578,0.6938577890396118,2.2615859508514404,-0.013685601763427258,,,,,,,,,
1739402121.241002,0.5256717447132734,0.09600381746807315,-0.9533377488686536,-2.069085533273956,0.1377313515354205,2.1375943977072156,-1.2753736996005043,0.0006208239821838169,-0.0003062923090819662,-0.0004608596147756032,0.00033398691530858976,0.00023241368714598052,0.00028298861472925857,0.0010620615049995704,0.1935308277606964,-21.79654312133789,-2.38179087638855,22.54065704345703,0.7066751718521118,2.2551772594451904,-0.06678618490695953,,,,,,,,,
1739402121.251049,0.525668318369448,0.09600308087223029,-0.9533342248972455,-2.0690872822687076,0.13773414233968137,2.1375936400471374,-1.275374882410375,-0.001219557359158869,-0.0016531042198154162,0.0014765245657327917,0.0001919111629592056,-0.0005493325790911783,0.00010670738596221001,0.0002494221553003943,0.2411382496356964,-21.79654312133789,-2.4333655834198,22.56842803955078,0.6737161874771118,2.2615859508514404,-0.04756011441349983,,,,,,,,,
1739402121.2619727,0.5256717447190984,0.0960045294081122,-0.953339432841412,-2.0690908487638464,0.1377352092318831,2.1375920164898266,-1.275378879252803,0.0005082561294181278,-0.0002221644785494935,0.00018188235887896324,-3.061654364144872e-05,0.0007050863719907204,-0.0001655623821088276,-0.0002752577130014222,0.1935308277606964,-21.79654312133789,-2.35798716545105,22.61603546142578,0.6737161874771118,2.2753188610076904,-0.013685601763427258,,,,,,,,,
1739402121.272005,0.5256700321983745,0.09600210495922772,-0.9533356694041283,-2.0690855607572547,0.1377317220339414,2.1375936400471374,-1.2753814906947887,-0.0002939128701782071,0.0006148320805427321,0.0009255106626556314,-0.0004610319805929281,-0.00026999358598194434,0.000803026643541711,-0.0006543227649371164,0.2173345386981964,-21.77273941040039,-2.4095618724823,22.54065704345703,0.6865335702896118,2.2615859508514404,-0.027418512850999832,,,,,,,,,
1739402121.2820802,0.5256683196776433,0.09600381746790236,-0.9533347358449905,-2.0690890660928822,0.13773262698547298,2.1375920164898266,-1.275378718125389,-0.0010165060026186422,0.0006042064232859119,0.0004472675322155883,-0.00036305089320943,0.0005232419953010536,-0.0005072740245718191,-0.0012449910904761964,0.2411382496356964,-21.79654312133789,-2.4095618724823,22.59223175048828,0.6865335702896118,2.2753188610076904,-0.04023589566349983,,,,,,,,,
1739402121.2930768,0.5256707474541118,0.09599987024342338,-0.953339430308216,-2.069085213794811,0.13773414297101508,2.1375943977072156,-1.275374111861682,0.0003388106119275747,-0.0010071945358682633,5.713043127303884e-05,0.0006566405933604843,0.0006220073595825566,0.0006763134042706854,0.0008714230860727012,0.2173345386981964,-21.74496841430664,-2.35798716545105,22.54065704345703,0.6737161874771118,2.2551772594451904,-0.05396880581974983,,,,,,,,,
1739402121.305079,0.5256700204259634,0.09599918584763038,-0.9533377506853957,-2.069087283409834,0.13773340098914874,2.1375936813306557,-1.2753803896379938,-0.0001586601408228695,-0.0018965469404800333,-0.0003001735568017568,0.0003756006297473997,-0.0008014318797718478,0.0004879441001521469,-0.0017478546656267786,0.2173345386981964,-21.77273941040039,-2.38179087638855,22.56842803955078,0.6801248788833618,2.2615859508514404,-0.0008682189509272575,,,,,,,,,
1739402121.3160179,0.5256700043992039,0.09600453222833051,-0.9533356456177846,-2.069089063240747,0.13773050499730602,2.137592886965819,-1.275379147484962,-0.0006750557080877817,0.00041654450795766885,0.000583436202816123,-0.0006935345788183186,-2.871213931228097e-05,-0.0002220004012188975,-0.0007060268067299689,0.2173345386981964,-21.79654312133789,-2.38179087638855,22.59223175048828,0.7002664804458618,2.2679946422576904,-0.04756011441349983,,,,,,,,,
1739402121.3260288,0.525671744718635,0.09600381737174747,-0.9533377516129027,-2.069089395751982,0.13773023265213502,2.137595155367371,-1.2753736562020304,0.0006460441256819791,-0.00013376952829621954,0.0007822058568734815,-0.0009788984768618841,-0.0007658228227661713,0.0007536456179797543,0.0006387151689342767,0.1935308277606964,-21.79654312133789,-2.38179087638855,22.59223175048828,0.7066751718521118,2.2487685680389404,-0.06678618490695953,,,,,,,,,
1739402121.33604,0.5256700321983745,0.09600287041631916,-0.9533356456177846,-2.0690891485198817,0.13773556985198482,2.1375928823870587,-1.2753772660107274,-0.0005409168255024132,-0.0009356666298631489,0.0017208411095631611,-0.00074970017747562,0.0008715759510119752,-0.000480859607023945,-0.0019967582446701166,0.2173345386981964,-21.79654312133789,-2.38179087638855,22.59223175048828,0.6737161874771118,2.2679946422576904,-0.04023589566349983,,,,,,,,,
1739402121.3469834,0.5256662157366386,0.09600511390772624,-0.9533335658603068,-2.0690910970187257,0.1377294527813387,2.1375920164898266,-1.275378874248937,-0.0015264283911012916,-0.00018721742662654254,0.0010474595753674838,0.0003253046158958234,-0.00033889233140908337,-0.00087191200567373,-0.001133150976821058,0.2689092457294464,-21.82431411743164,-2.4095618724823,22.61603546142578,0.6865335702896118,2.2753188610076904,-0.013685601763427258,,,,,,,,,
1739402121.3590345,0.5256719831370865,0.09600382039375437,-0.9533356718468244,-2.069090888447176,0.1377310048882043,2.1375936400471374,-1.2753796319061355,0.0009423957805314305,0.0003993126790728681,0.0008697853289816943,-0.00017666135978842355,-0.0004389589081246042,0.0008394095464430516,-0.0006523045127958358,0.1935308277606964,-21.79654312133789,-2.4095618724823,22.61603546142578,0.7002664804458618,2.2615859508514404,-0.0072769103571772575,,,,,,,,,
1739402121.3691044,0.5256736956597619,0.09600381746791867,-0.9533416137944507,-2.069089066087058,0.1377349394721851,2.137592016998569,-1.275372596652958,0.0015312954282417574,-0.0009504639965160434,-0.0009698737923973667,0.0004101729197570362,0.0002824573469679309,-0.0001932649077761641,0.0005682821696544094,0.1697271168231964,-21.79654312133789,-2.3302161693573,22.59223175048828,0.6673074960708618,2.2753188610076904,-0.06678618490695953,,,,,,,,,
1739402121.380018,0.5256672705067206,0.0960075279294864,-0.9533376736474266,-2.0690949390622495,0.13773338466109994,2.1375928823870614,-1.2753772900959992,-0.0011912448083871128,-0.00032071601168254433,0.0006595502139003628,-0.0011386055318602876,-0.0005576994209108518,-0.0001677814697398023,-0.00018356196710980982,0.2689092457294464,-21.84811782836914,-2.38179087638855,22.63983917236328,0.6801248788833618,2.2679946422576904,-0.027418512850999832,0,0,0,0.000,0,0
1739402121.3920832,0.525667885019307,0.09600424208241418,-0.9533335788361632,-2.0690872579130346,0.13773263138870348,2.137592886965742,-1.275374111811391,-0.0016418517032274896,-0.0006152823655892657,0.0021298956727312138,0.0008405912488872568,-0.0002868633731399912,-0.00026265039437038245,0.001106676603092531,0.2173345386981964,-21.77273941040039,-2.4333655834198,22.56842803955078,0.6865335702896118,2.2679946422576904,-0.05396880581974983,0,0,0,0.000,0,0
1739402121.4020875,0.5256724599627222,0.09600009828555653,-0.9533354378535407,-2.069089618045549,0.13773268690595894,2.137593640047163,-1.2753741205324702,0.0007031262834847314,-0.0012076354585644502,0.0006218155448357019,0.000466617949056876,-0.0013059426683854243,0.0006830385003105882,0.001919006903115218,0.1935308277606964,-21.74496841430664,-2.4095618724823,22.56842803955078,0.7130838632583618,2.2615859508514404,-0.05396880581974983,0,0,0,0.000,0,0
1739402121.4130116,0.5256727419881371,0.09600581801374057,-0.9533377506842704,-2.069089066100013,0.13773369203831762,2.1375936400471374,-1.275374873831947,0.0005243478339286792,0.0008229621608363131,0.0002295728367500835,-0.00038440581632757795,0.0005856367752473459,8.035916530392349e-06,-0.00011149555833729852,0.1697271168231964,-21.82431411743164,-2.38179087638855,22.59223175048828,0.6865335702896118,2.2615859508514404,-0.04756011441349983,0,0,0,0.000,0,0
1739402121.4239683,0.5256734572357993,0.09600186818429114,-0.9533377781395163,-2.0690880685340716,0.1377327453182303,2.1375928823870587,-1.2753752114866836,0.0011050336947521422,-0.00021663430532260753,1.86498579152574e-05,0.0005919738872010992,-0.0009649360377725701,-0.0003764903870617201,0.0010846232496753434,0.1697271168231964,-21.77273941040039,-2.38179087638855,22.61603546142578,0.6865335702896118,2.2679946422576904,-0.08051909506320953,0,0,0,0.000,0,0
1739402121.4340866,0.5256683193505944,0.09600189454857676,-0.9533356719681778,-2.0690872843802164,0.13773176110557,2.1375928823870587,-1.2753764935848546,-6.818179523789843e-05,-0.0006084246438180872,-6.210418662397397e-05,0.0008556809677696534,-0.0013166118158726532,-0.00032319500145430675,0.00043958412465591474,0.2411382496356964,-21.77273941040039,-2.4095618724823,22.56842803955078,0.6938577890396118,2.2679946422576904,-0.03382720425724983,0,0,0,0.000,0,0
1739402121.4450023,0.5256700321983727,0.09600581151023592,-0.9533394561817848,-2.069085199840734,0.1377317611035663,2.1375928823870587,-1.2753725964914557,-0.00043264721107776267,-0.0003653256075977016,-0.0008339482648085945,0.0017363125491823383,-0.0010428393966047255,-0.0004890196834690103,0.0025461918524922154,0.2173345386981964,-21.82431411743164,-2.35798716545105,22.54065704345703,0.6938577890396118,2.2679946422576904,-0.06678618490695953,0,0,0,0.000,0,0
1739402121.455031,0.5256734572398368,0.0959999740810542,-0.9533395080833378,-2.0690890571635867,0.1377348063420339,2.1375936812552863,-1.275378874246057,8.14385471815649e-05,-2.7822803237186473e-05,-0.0008326908662908424,-0.0012587607784295878,0.0003501211117494553,0.0005999145803236159,-0.0009594674617676054,0.1697271168231964,-21.77273941040039,-2.3302161693573,22.59223175048828,0.6801248788833618,2.2615859508514404,-0.013685601763427258,0,0,0,0.000,0,0
1739402121.4660382,0.5256717447191057,0.0959979497851637,-0.9533377516366799,-2.069088758491326,0.13773424611316437,2.1375936400473696,-1.2753725616062466,0.0004988323520714671,-0.0014427248369643958,0.00010655395242034022,-8.31996106336599e-05,0.0002595704111026762,-0.00042226893634093784,0.0016399240702691918,0.1935308277606964,-21.74496841430664,-2.38179087638855,22.59223175048828,0.7002664804458618,2.2615859508514404,-0.06678618490695953,0,0,0,0.000,0,0
1739402121.4770026,0.5256717447191057,0.09599996281099411,-0.9533415018831947,-2.0690901599973324,0.13773298243939286,2.1375928823870587,-1.2753761275835174,0.001670560153317146,-0.0003518236184332106,-0.0004271178932913585,-0.0009725094948846123,0.00011619579922677197,6.916222905521833e-05,-0.0005123712172357322,0.1935308277606964,-21.77273941040039,-2.3302161693573,22.61603546142578,0.6865335702896118,2.2679946422576904,-0.07411040365695953,0,0,0,0.000,0,0
1739402121.487044,0.5256707474541118,0.09600546071530261,-0.9533377516466678,-2.0690852161589905,0.1377360305409611,2.1375888375754384,-1.2753788743205203,-6.70022872542066e-05,-0.0004962891419104793,0.00025673290940854843,0.0006020271253758567,0.0004937198979671216,-0.0011152602579372992,-0.00018702222765395354,0.2173345386981964,-21.82431411743164,-2.38179087638855,22.56842803955078,0.6938577890396118,2.2753188610076904,-0.013685601763427258,0,0,0,0.000,0,0
1739402121.4980578,0.5256700289319242,0.0960091615272505,-0.9533355938575728,-2.0690928788288376,0.13773176134435403,2.13759439768927,-1.275375775136665,-0.00015234536058196296,0.0008943724992893263,0.0012848806031416557,-0.0015328017460090452,0.0004748786754860276,-1.78945134312731e-05,0.0008690669352301827,0.2173345386981964,-21.87192153930664,-2.4095618724823,22.63983917236328,0.6938577890396118,2.2551772594451904,-0.06678618490695953,0,0,0,0.000,0,0
1739402121.5099657,0.5256683196776248,0.09600753867395684,-0.9533367262841046,-2.069092631442268,0.13773764970434899,2.137593640047137,-1.2753788743178356,-0.00033922703283040354,-0.0007363564819167544,5.694938417671522e-05,-0.0006207120267479414,0.0008086762351678931,0.0004926703747145584,-0.0018570074964563473,0.2411382496356964,-21.84811782836914,-2.35798716545105,22.63983917236328,0.6801248788833618,2.2615859508514404,-0.013685601763427258,0,0,0,0.000,0,0
1739402121.520115,0.5256717447191057,0.09600760692621763,-0.9533395339887437,-2.069087310881914,0.13773105660996687,2.1375912588297474,-1.2753803900507306,0.0005862524258985274,0.0006302940881462839,-0.0012017073161148225,0.0002705930907740332,0.0009536324744441697,-0.0007753141962681174,-0.0022592945386271423,0.1935308277606964,-21.84811782836914,-2.35798716545105,22.56842803955078,0.7002664804458618,2.2817275524139404,-0.0008682189509272575,0,0,0,0.000,0,0
1739402121.5310473,0.5256734572398368,0.09600755433441278,-0.953339897308781,-2.0690890936721424,0.13773100344378805,2.137594397707215,-1.2753733541510932,0.0012646248754280586,0.0002489574546866789,-0.0006382041117466958,-0.0007417514297795966,-0.0007788697582949867,0.0005175367068606603,0.0003284864137193574,0.1697271168231964,-21.84811782836914,-2.38179087638855,22.59223175048828,0.7002664804458618,2.2551772594451904,-0.06037749722599983,0,0,0,0.000,0,0
1739402121.5410933,0.5256724958570252,0.09600753085974578,-0.9533398973451199,-2.069087283410282,0.1377322876521429,2.137593640047137,-1.2753756425610832,0.00041334473778132616,0.00028591395486050896,-0.0011230105183944444,0.0010720222295158672,0.000667513836195487,0.0006539779545912349,0.0003750805986932086,0.2173345386981964,-21.84811782836914,-2.38179087638855,22.56842803955078,0.6938577890396118,2.2615859508514404,-0.05396880581974983,0,0,0,0.000,0,0
1739402121.5519998,0.5256693198999839,0.09600499989213505,-0.9533377506977039,-2.069087283409815,0.13773172715062196,2.137593640047137,-1.275377237615325,-0.00018698760787184217,-0.0009483851553584222,-0.00044280201889171383,0.0008790277348981907,-0.0002462105428109734,0.0004027908542799191,-7.245216234101425e-05,0.2173345386981964,-21.82431411743164,-2.38179087638855,22.56842803955078,0.7002664804458618,2.2615859508514404,-0.027418512850999832,0,0,0,0.000,0,0
1739402121.5630405,0.5256700321943536,0.09600589465376348,-0.9533356371915341,-2.069089068194482,0.13773445092583003,2.137594399233443,-1.2753741658077946,0.00026853637633897647,8.573373237635013e-05,0.0006427157091473835,-0.0001225446032981135,0.0009326140763343847,0.00047749033159450626,-0.001071555285775067,0.2173345386981964,-21.82431411743164,-2.4095618724823,22.59223175048828,0.6801248788833618,2.2551772594451904,-0.05396880581974983,0,0,0,0.000,0,0
1739402121.5740192,0.5256716642650996,0.09600294794747997,-0.9533395343253919,-2.0690831913546908,0.13773262700681776,2.137592882387067,-1.2753749087174087,4.993579450155626e-05,-0.0010919131531649463,-1.9732318860758442e-05,0.002066397776869326,4.1986461149967856e-05,-0.0003024766847842377,0.0003589514237357505,0.1935308277606964,-21.82431411743164,-2.35798716545105,22.51685333251953,0.6865335702896118,2.2679946422576904,-0.04756011441349983,0,0,0,0.000,0,0
1739402121.5849726,0.5256690745990183,0.09600381734345603,-0.9533377781395217,-2.0690852860349622,0.1377326270007987,2.1375928823870587,-1.275379631960192,-0.00044269044843911964,0.000182299050892707,0.0007178998282915817,0.0009935334126532553,2.559783382085994e-08,4.7830210308428856e-05,-0.001137319455847506,0.2173345386981964,-21.79654312133789,-2.38179087638855,22.54065704345703,0.6865335702896118,2.2679946422576904,-0.0072769103571772575,0,0,0,0.000,0,0
1739402121.595003,0.5256678864149456,0.09600210494716885,-0.9533377604793348,-2.0690852036213547,0.13773100344348796,2.1375920164898266,-1.2753787899401436,-0.00021833638833884244,-0.0006369350587756971,-0.00012793529139475,0.0005197462905006659,-0.0008561680325157315,-0.000594957250413762,-0.0005661689889345053,0.2173345386981964,-21.77273941040039,-2.38179087638855,22.54065704345703,0.7002664804458618,2.2753188610076904,-0.013685601763427258,0,0,0,0.000,0,0
1739402121.6050448,0.5256699967317483,0.096005815300496,-0.953339530473829,-2.069087310881914,0.13773414280850033,2.137593653783187,-1.2753740093408639,-0.00025712471255548354,0.0022586138020760363,0.00011922656220057976,-0.00017682786310608504,0.0014704918257962252,0.0006297404223046527,0.0013834199760935748,0.2173345386981964,-21.82431411743164,-2.35798716545105,22.56842803955078,0.6737161874771118,2.2615859508514404,-0.06678618490695953,0,0,0,0.000,0,0
1739402121.6151214,0.5256692733513592,0.0960038173596411,-0.9533356680067395,-2.06908728341028,0.13772793306843045,2.137595155367526,-1.2753779059033234,0.00019541098432474956,0.0010833133631310173,0.0010828731583037666,-0.00031412217387526267,-0.0010487932750142589,0.000824095820280506,-0.0008967726371324478,0.2411382496356964,-21.79654312133789,-2.4095618724823,22.56842803955078,0.7002664804458618,2.2487685680389404,-0.03382720425724983,0,0,0,0.000,0,0
1739402121.6260319,0.5256700322037581,0.096003816168791,-0.9533377516128809,-2.069085204976606,0.13773415552150908,2.1375928823870587,-1.275371730656031,-0.00012887282511558993,0.00046099096820839344,-0.00016914265972494462,-0.0006894585809560765,-2.371255751033093e-05,-0.0002221948510888531,0.0013303429220329506,0.2173345386981964,-21.79654312133789,-2.38179087638855,22.54065704345703,0.6737161874771118,2.2679946422576904,-0.07411040365695953,0,0,0,0.000,0,0
1739402121.6370077,0.5256721779655865,0.09600010599589126,-0.9533357662668012,-2.0690890656669274,0.13773582578347615,2.1375936400471374,-1.2753791080237649,-0.00016335183213837107,-0.0006877017593487614,0.0007458216839713487,-0.0002381575522531911,-0.00042539835250584603,0.00012072667364644803,-0.0009779542198974206,0.2173345386981964,-21.74496841430664,-2.4095618724823,22.59223175048828,0.6865335702896118,2.2615859508514404,-0.04756011441349983,0,0,0,0.000,0,0
1739402121.6479993,0.5256697933195046,0.09600752807416277,-0.9533395343261205,-2.069093320937883,0.13773338030465648,2.1375943977072156,-1.275372653203839,0.0005673820633499249,7.71212436020142e-05,-0.00017262844739568953,-0.0005442845310139704,0.00031559617835639207,0.00015672046459455608,0.0015824850169472672,0.2173345386981964,-21.84811782836914,-2.35798716545105,22.61603546142578,0.6801248788833618,2.2551772594451904,-0.06678618490695953,0,0,0,0.000,0,0
1739402121.65903,0.5256717417716211,0.09600385262565117,-0.9533395343255876,-2.0690891852875195,0.1377349613487304,2.1375936446258206,-1.2753787579629976,0.00035657670174958693,-0.00026826360476590226,-0.0008896279111491065,0.00015941653694566556,0.0007272753060649087,0.0007070885093733187,-0.0021981769557260855,0.1935308277606964,-21.79654312133789,-2.35798716545105,22.59223175048828,0.6938577890396118,2.2615859508514404,-0.013685601763427258,0,0,0,0.000,0,0
1739402121.6690633,0.5256700053803559,0.09600380577610583,-0.9533338891816939,-2.069089066087507,0.13773274554646556,2.1375943584613846,-1.2753772506879797,-0.00022993081572983797,-0.0011024589438367064,-0.0002092378032429676,5.0269202265336075e-05,-2.3982769636102708e-05,0.0002050562344788328,3.0007518617362406e-05,0.2173345386981964,-21.79654312133789,-2.4333655834198,22.59223175048828,0.6865335702896118,2.2551772594451904,-0.027418512850999832,0,0,0,0.000,0,0
1739402121.6800272,0.5256724731498301,0.09600750151417291,-0.9533366252120369,-2.069087283409815,0.13773342480274942,2.1375943977069936,-1.2753772114427795,-6.481066711721043e-05,-0.0007711660662034702,-2.5456712389681406e-05,0.0016781797190198308,-0.0003071797915037481,0.000780273970073698,-0.0008488509351726132,0.1697271168231964,-21.84811782836914,-2.4095618724823,22.56842803955078,0.6801248788833618,2.2551772594451904,-0.027418512850999832,0,0,0,0.000,0,0
1739402121.690084,0.525667374816979,0.0960092405582818,-0.9533377516647136,-2.069087283409815,0.1377324251253246,2.1375928823870582,-1.2753733619026937,-0.001578776440094118,0.0016985311079239114,-0.00035910699941880524,0.0007875449994644108,0.001279958491636222,-0.00024348262033260207,0.0009856118371674245,0.2411382496356964,-21.87192153930664,-2.38179087638855,22.56842803955078,0.7002664804458618,2.2679946422576904,-0.06037749722599983,0,0,0,0.000,0,0
1739402121.7010465,0.5256697143016019,0.09600210505568313,-0.9533377256481885,-2.06909340366912,0.1377365395399245,2.137593640047137,-1.2753772506886798,-0.00012351462585309593,-0.001360029625268063,-0.00047103000859120554,-0.0018426436194096771,0.0010650314200917564,0.0008301766726787476,-0.0012097562010979857,0.2173345386981964,-21.77273941040039,-2.38179087638855,22.61603546142578,0.6938577890396118,2.2615859508514404,-0.027418512850999832,0,0,0,0.000,0,0
1739402121.7129958,0.5256747393780767,0.09600380869890666,-0.9533357778223791,-2.069089807847947,0.13773414234792977,2.137593640047137,-1.2753804296030242,0.0021563234514560027,-0.0010552865156385658,0.0004186390343195169,0.00024072193148228757,0.0011352985310500187,-5.8811162757151455e-05,-0.0015535542657394868,0.1419561207294464,-21.79654312133789,-2.4095618724823,22.59223175048828,0.6737161874771118,2.2615859508514404,-0.027418512850999832,0,0,0,0.000,0,0
1739402121.7230089,0.5256717447150651,0.09600381746785265,-0.9533356712233828,-2.069089066091021,0.13773465822452755,2.1375928823870582,-1.2753783103447105,0.0003405798852286244,-0.0007119883441867705,0.001722142569313236,0.000663675745182992,0.00023276560276973748,-0.00015953598208986777,-0.0018374153993171907,0.1935308277606964,-21.79654312133789,-2.4095618724823,22.59223175048828,0.6938577890396118,2.2679946422576904,-0.027418512850999832,0,0,0,0.000,0,0
1739402121.7339811,0.5256717437379593,0.09600381746790214,-0.9533395343255768,-2.0690852066724146,0.13773449795282255,2.137593640047137,-1.2753800516397014,0.00014224324999357197,0.0008225446307891399,-0.0001202993585482623,0.001015171836628598,0.000664831196299597,0.0001261541316749338,-0.0013329133808497,0.1935308277606964,-21.79654312133789,-2.35798716545105,22.54065704345703,0.6737161874771118,2.2615859508514404,-0.013685601763427258,0,0,0,0.000,0,0
1739402121.744986,0.5256682136048122,0.09600372977794121,-0.9533395431559053,-2.0690890660868395,0.1377327454748976,2.1375928823870582,-1.2753789142850829,-0.0016885236483232065,0.0009542210837618869,-0.0007746846552650451,-9.616396573938716e-05,-0.0007458387325600827,-0.0006332898592471916,-0.001625502760333682,0.2411382496356964,-21.79654312133789,-2.35798716545105,22.59223175048828,0.6865335702896118,2.2679946422576904,-0.04023589566349983,0,0,0,0.000,0,0
1739402121.7550604,0.5256664008808049,0.0960038174664171,-0.9533338720117812,-2.069081638265921,0.13773659677171574,2.1375937636715854,-1.275374151902365,9.084367250238761e-05,0.0009588603490535806,0.0006993118768025327,0.0016733831024477617,0.0015585134031090248,0.00011673840655489415,0.0012954169966387255,0.2689092457294464,-21.79654312133789,-2.4333655834198,22.49304962158203,0.6801248788833618,2.2615859508514404,-0.08051909506320953,0,0,0,0.000,0,0
1739402121.7650876,0.5256661739117717,0.09600581540875519,-0.9533395343252968,-2.06908620611105,0.13773262705519607,2.137593640049231,-1.2753805015434185,-0.0005120038282107245,0.0019301798368500888,-0.0008360159945225332,-0.0008360442278773677,0.000474978528864827,8.158611530019863e-05,-0.0007998991976315962,0.2411382496356964,-21.82431411743164,-2.35798716545105,22.56842803955078,0.6865335702896118,2.2615859508514404,-0.0008682189509272575,0,0,0,0.000,0,0
1739402121.7760057,0.5256700321620358,0.09600010668154027,-0.9533377603718888,-2.069087287461511,0.1377317611035672,2.1375928823870587,-1.275371730757622,0.0004989972910649793,-0.0016237517441569484,0.0005372159762893783,-0.0008101866869852459,-0.0005891986980442107,0.00010082513859319502,0.0018575079256491413,0.2173345386981964,-21.74496841430664,-2.38179087638855,22.56842803955078,0.6938577890396118,2.2679946422576904,-0.07411040365695953,0,0,0,0.000,0,0
1739402121.7860236,0.5256678599038704,0.09600581540875337,-0.9533395344346531,-2.0690908487638757,0.13773263144287515,2.137592014551759,-1.2753765061105107,-0.0005184844570249479,0.0008201268606315136,-0.0005231770503559646,-0.000904237867638238,-0.0012309371914537219,-0.000504770678714633,-3.3819287558351855e-07,0.2173345386981964,-21.82431411743164,-2.35798716545105,22.61603546142578,0.6865335702896118,2.2753188610076904,-0.03382720425724983,0,0,0,0.000,0,0
1739402121.7970018,0.5256678834754607,0.09600380869890605,-0.953335645617787,-2.069093183892323,0.13773387024051853,2.1375936400471263,-1.2753784741593028,-0.001529094656253316,-0.0004393834139770745,0.0009632727116037504,-0.0011587175329325068,0.0018284556679415756,0.00040347691607775125,-0.0009714470461246069,0.2173345386981964,-21.79654312133789,-2.38179087638855,22.61603546142578,0.6865335702896118,2.2615859508514404,-0.020094294100999832,0,0,0,0.000,0,0
1739402121.807012,0.5256699261981728,0.09600367436619016,-0.953335567821527,-2.0690908488033983,0.13773449776229896,2.1375928823870582,-1.2753775526727427,-0.0004893163506866468,-0.00016335107153949417,0.0013072929769243691,-0.00024351202197348226,0.0006896049969832355,1.9921318814493117e-05,-0.00014342702458064628,0.2173345386981964,-21.82431411743164,-2.4095618724823,22.61603546142578,0.6737161874771118,2.2679946422576904,-0.03382720425724983,0,0,0,0.000,0,0
1739402121.8170748,0.5256699262327665,0.0960075254042752,-0.953333671789982,-2.0690908487638535,0.13773278497139108,2.1375936385935868,-1.2753725834274454,-7.97288426743857e-05,-0.00018796787145100235,0.0009028101526361314,-0.00040610868330470966,-0.0006798348087558013,-0.0004272599969436704,0.0011833336522833037,0.2173345386981964,-21.84811782836914,-2.4095618724823,22.61603546142578,0.6865335702896118,2.2615859508514404,-0.06678618490695953,0,0,0,0.000,0,0
1739402121.8272593,0.5256717447173113,0.09600368747247394,-0.9533384630185262,-2.069090848763853,0.13773353971648242,2.137593253260379,-1.275377263770367,-0.0005573685304460717,-0.0005412278749215473,-0.0005453547944272172,-2.192693567155954e-05,0.0003531792131175349,0.0006535523538266891,-0.0006085749432485038,0.1935308277606964,-21.82431411743164,-2.38179087638855,22.61603546142578,0.6801248788833618,2.2679946422576904,-0.027418512850999832,0,0,0,0.000,0,0
1739402121.8380783,0.5256734572398368,0.09600776523226351,-0.9533377160224338,-2.0690924028700954,0.13773262721836063,2.1375951553693873,-1.275372648819335,0.0007191757095491468,0.0005981750383262034,0.0003280717243868166,-0.00033536007185428537,-0.0003735503419284025,0.0006715530223998915,0.0021153153582561613,0.1697271168231964,-21.84811782836914,-2.38179087638855,22.63983917236328,0.6865335702896118,2.2487685680389404,-0.06678618490695953,0,0,0,0.000,0,0
1739402121.8490024,0.525671665246246,0.09600752793082598,-0.9533377516483673,-2.0690890660855437,0.13773844685557043,2.1375920164898266,-1.275375737306842,3.398434848319475e-05,0.000885868481278784,-6.94540472580192e-05,0.0010113398362586506,0.00048554330956314287,-0.0002598862604312881,-0.0001457146040066724,0.1935308277606964,-21.84811782836914,-2.38179087638855,22.59223175048828,0.6737161874771118,2.2753188610076904,-0.04023589566349983,0,0,0,0.000,0,0
1739402121.8590395,0.5256717447177599,0.09600750162249813,-0.9533356575250924,-2.069087283409815,0.13773262707369635,2.1375928823870587,-1.275379631906168,0.0011237678392470641,0.0011514991940370675,-0.00012929200009068016,0.0010795940057882066,9.710883240889818e-05,0.00026777332201250077,-0.0005154605403114188,0.1935308277606964,-21.84811782836914,-2.4095618724823,22.56842803955078,0.6865335702896118,2.2679946422576904,-0.0072769103571772575,0,0,0,0.000,0,0
1739402121.8700275,0.525670879763523,0.09600573648764187,-0.9533377516484876,-2.0690873698960544,0.13773415553884186,2.1375920164898266,-1.2753786635394753,-0.000113052349013293,-0.00015100168733848994,4.352909389687077e-05,0.00033502839597668397,-1.2999019157881582e-05,-0.0006312594777404391,-0.0012497287357748172,0.2173345386981964,-21.82431411743164,-2.38179087638855,22.56842803955078,0.6737161874771118,2.2753188610076904,-0.027418512850999832,0,0,0,0.000,0,0
1739402121.8809924,0.5256717416714348,0.09600381454445793,-0.9533377256125226,-2.0690852036204475,0.13773338921137143,2.1375928844220287,-1.2753781209544948,0.0010653516849233984,0.0002152561477122457,-0.000725480641772958,0.0007242122747569903,0.0008099471871783562,0.00019437906154830094,-0.00030041755282783546,0.1935308277606964,-21.79654312133789,-2.38179087638855,22.54065704345703,0.6801248788833618,2.2679946422576904,-0.020094294100999832,0,0,0,0.000,0,0
1739402121.8920822,0.5256700312172109,0.09600199971920133,-0.9533355678570458,-2.069088272405402,0.1377326284634593,2.137593639401126,-1.2753807427789479,-0.00033971381780734556,-0.0013875818578833292,0.0014492464827258464,-0.001131946360904308,-0.00016123322106954645,0.0005644121605681161,0.00022022595108193467,0.2173345386981964,-21.77273941040039,-2.4095618724823,22.56842803955078,0.6865335702896118,2.2615859508514404,-0.0008682189509272575,0,0,0,0.000,0,0
1739402121.903047,0.5256717447191003,0.09600213718132482,-0.9533395343250004,-2.0690913279619547,0.13773607513185668,2.13759515536729,-1.2753749876953275,0.0006385701278718802,-0.0006135081902966177,-0.0009199839606755459,-0.0005795749176657345,-0.0005950804644841922,0.0009912809029400714,-0.0006863918325263307,0.1935308277606964,-21.77273941040039,-2.35798716545105,22.59223175048828,0.6938577890396118,2.2487685680389404,-0.04756011441349983,0,0,0,0.000,0,0
1739402121.9131243,0.5256682225441481,0.09600381746953981,-0.9533395343255875,-2.0690873937522904,0.1377322751951488,2.137593995007094,-1.2753772921851134,-0.0008465763136548178,8.88577888598884e-05,-0.0003050150998891864,-0.00015407368840648808,0.0010557918898589308,0.0004776472862190939,0.00012381238207127506,0.2411382496356964,-21.79654312133789,-2.35798716545105,22.56842803955078,0.6938577890396118,2.2679946422576904,-0.05396880581974983,0,0,0,0.000,0,0
1739402121.924024,0.5256681077013831,0.09600727914981945,-0.9533374906817912,-2.0690920331402003,0.13773336732724828,2.137593640049231,-1.2753744651913685,-0.0004559107011256376,0.0004944604165271513,0.0002792273836379664,-0.00048124937693147236,-0.0004292968870660274,-5.553529880879183e-05,1.0370903558716777e-05,0.2411382496356964,-21.84811782836914,-2.38179087638855,22.59223175048828,0.6801248788833618,2.2615859508514404,-0.05396880581974983,0,0,0,0.000,0,0
1739402121.9350216,0.5256717407933235,0.09600202602480175,-0.9533356717502423,-2.069087314968604,0.13773180059461168,2.1375936400471374,-1.2753812017962312,0.000541778512086671,-0.00048056674765135514,0.0008386403252512491,-0.00028003438563383684,-3.012702201137294e-05,-4.750043363573785e-05,-0.0019064706068545492,0.1935308277606964,-21.77273941040039,-2.4095618724823,22.56842803955078,0.6938577890396118,2.2615859508514404,-0.0072769103571772575,0,0,0,0.000,0,0
1739402121.9450555,0.5256716652461796,0.0960028665176559,-0.9533376476470465,-2.0690908487643873,0.13773339051208555,2.137595155876036,-1.2753741118377548,-2.770271698967824e-05,-0.0006627232103691526,0.00043048660197350885,1.5241179752678168e-05,-8.884804789935144e-05,0.0010539309357962658,0.00018509452054719244,0.1935308277606964,-21.79654312133789,-2.38179087638855,22.61603546142578,0.6801248788833618,2.2487685680389404,-0.05396880581974983,0,0,0,0.000,0,0
