IITGN-Robotics/Franka_IITGN_ROBOTICS/franka_ros/franka_iitgn/data/b_40.csv
time,fr3_joint1_pos,fr3_joint2_pos,fr3_joint3_pos,fr3_joint4_pos,fr3_joint5_pos,fr3_joint6_pos,fr3_joint7_pos,fr3_joint1_vel,fr3_joint2_vel,fr3_joint3_vel,fr3_joint4_vel,fr3_joint5_vel,fr3_joint6_vel,fr3_joint7_vel,fr3_joint1_eff,fr3_joint2_eff,fr3_joint3_eff,fr3_joint4_eff,fr3_joint5_eff,fr3_joint6_eff,fr3_joint7_eff,flexpin1,flexpin2,flexpin3,Force,ContactMic,ContactMic_gt
1739402170.3352723,0.5256766758911033,0.095895580501887,-0.9533505070250055,-2.0690623528735195,0.13773912472396613,2.1375808502525477,-1.2753819230668206,0.0017023301398881707,0.0023323799801265137,0.0002254416046503723,0.00046379366220297333,0.0018104071418179638,-0.0008521493690139748,0.0007605482400584963,0.1697271168231964,-21.84811782836914,-2.38179087638855,22.61603546142578,0.7002664804458618,2.2487685680389404,-0.08051909506320953,,,,,,,,,
1739402170.3453493,0.5256722971748761,0.09590023987875221,-0.953350425189502,-2.069062767348785,0.1377365598212928,2.137580029369008,-1.2753837856965085,-0.000557120760130442,0.0014841225278352144,-0.0010200554249812218,6.897515560535947e-05,-0.0006463503799901357,0.0006243014460930311,0.00020106652279978108,0.2173345386981964,-21.72116470336914,-2.38179087638855,22.56842803955078,0.6938577890396118,2.2679946422576904,-0.05396880581974983,,,,,,,,,
1739402170.3563392,0.5256700365718111,0.09591973013138859,-0.9533483621355667,-2.069060724567575,0.13773616303555736,2.137584046596793,-1.2753908366586806,-0.0001580298487009503,0.0009307427397400401,-0.0006711097859683338,0.00018747495332212006,0.00041171539972910013,0.000969484187513775,-3.413773811810402e-05,0.2173345386981964,-21.66958999633789,-2.38179087638855,22.54065704345703,0.7066751718521118,2.2615859508514404,-0.020094294100999832,,,,,,,,,
1739402170.3663392,0.5256678847959927,0.09594465462236619,-0.9533494570402625,-2.069064872028362,0.13773826226066777,2.137583345642934,-1.2753886598408577,9.602525232106923e-05,0.003480274711967797,0.0012715932627298365,-0.0005127254262641385,0.0009499192622553321,-0.0001293920071172962,-0.0011954097630624597,0.2173345386981964,-21.74496841430664,-2.38179087638855,22.56842803955078,0.7066751718521118,2.2679946422576904,-0.04756011441349983,,,,,,,,,
1739402170.3773155,0.5256680014430021,0.09596447966753005,-0.953351271838976,-2.069070947553337,0.1377398782188808,2.137582025518185,-1.27539123827646,5.880894910011337e-05,0.001970776354866857,0.0005841373502262327,-0.0014964425920936694,0.0006813856985916837,0.0011970722977847194,-0.0009433514141348678,0.2411382496356964,-21.74496841430664,-2.35798716545105,22.61603546142578,0.6938577890396118,2.2881362438201904,-0.020094294100999832,,,,,,,,,
1739402170.3883116,0.525669241809209,0.09597195263612951,-0.9533455379833508,-2.0690714045597427,0.13773740049609792,2.1375824812181823,-1.2753920610761056,0.0013782519526093985,-4.379862017609936e-05,0.0016179520143731769,-0.0008240853673088563,0.0009908162135056815,-0.0002210605110552787,-0.00021985023381588132,0.1935308277606964,-21.72116470336914,-2.4095618724823,22.61603546142578,0.7002664804458618,2.2753188610076904,-0.013685601763427258,,,,,,,,,
1739402170.398347,0.5256653394575257,0.09598585401430222,-0.9533501598938969,-2.0690717386417807,0.13773774842675005,2.1375828340525467,-1.2753892152081476,-0.00016507497159342147,0.0006163480284372293,0.00022809226592645197,-0.00032998683564481387,-0.001182933204467797,-5.3068660677884336e-05,0.0015651632280859527,0.2411382496356964,-21.77273941040039,-2.38179087638855,22.61603546142578,0.6938577890396118,2.2817275524139404,-0.03382720425724983,,,,,,,,,
1739402170.4103084,0.525665101027274,0.0959918790669648,-0.9533434855823483,-2.069068200766051,0.13773668360367777,2.137583892599594,-1.2753901371353635,-0.0015194543658658799,-0.0009982618378265576,0.0010936481497406715,0.0012445200837623025,0.0010161310892813533,0.0013631328301448478,0.0008319234074094682,0.2411382496356964,-21.72116470336914,-2.4333655834198,22.56842803955078,0.6938577890396118,2.2753188610076904,-0.027418512850999832,,,,,,,,,
1739402170.4213538,0.5256705624218444,0.09600966213800936,-0.9533367890212056,-2.0690682099234348,0.13773856472180915,2.1375856980763883,-1.2753884017363815,0.0011536748857571386,0.002630481031549945,0.00036448035803134685,0.0003946999252814704,-0.00039662829999047555,0.0010351793513678018,-0.0006973630441963216,0.1697271168231964,-21.84811782836914,-2.48494029045105,22.56842803955078,0.7130838632583618,2.2753188610076904,-0.05396880581974983,,,,,,,,,
1739402170.4313803,0.5256702385945031,0.0960156197989121,-0.9533421380551638,-2.0690721324148202,0.13773582652427774,2.137582821186578,-1.2753879004308033,0.0010346676916650236,0.0008657979314644457,-0.0015734023743571223,-0.0001445807973398214,0.0001849285686757635,-0.0007035551932071029,-0.0007267140939491622,0.1697271168231964,-21.87192153930664,-2.4095618724823,22.61603546142578,0.7130838632583618,2.2817275524139404,-0.05396880581974983,,,,,,,,,
1739402170.4423394,0.525666111537296,0.09601948440145548,-0.9533421062527383,-2.0690796461534067,0.1377361702642623,2.137584056047356,-1.2753917527252385,-0.0011279671725597182,-0.0009779243634819997,-0.0014731436017301962,-0.0015077200608103031,-0.0005530333343657559,0.00029299196389396404,-0.0014278023973232996,0.2173345386981964,-21.84811782836914,-2.4095618724823,22.69141387939453,0.7002664804458618,2.2753188610076904,-0.013685601763427258,,,,,,,,,
1739402170.4543445,0.5256685249969925,0.0960252209155761,-0.9533405221735824,-2.0690751129722393,0.1377351802178005,2.137585614982731,-1.2753876023414066,0.000260835388892316,-0.0006881622063510357,0.0005907366592672076,-0.0004489535822540501,-0.0007046766137078888,0.0009910761166750139,0.0008197648735887773,0.1935308277606964,-21.87192153930664,-2.4333655834198,22.61603546142578,0.7066751718521118,2.2881362438201904,-0.06037749722599983,,,,,,,,,
1739402170.4662983,0.525666813535666,0.09602985518589328,-0.9533441801202547,-2.069076895814651,0.13773855594555412,2.1375829901668904,-1.275386842979565,-0.0006072425512493108,-0.0003552068649101853,-0.0004953113285257207,-0.000518254192915531,3.893321125534102e-05,-0.0003010808954714005,0.0010176152562996834,0.2173345386981964,-21.84811782836914,-2.38179087638855,22.63983917236328,0.7130838632583618,2.2753188610076904,-0.06678618490695953,,,,,,,,,
1739402170.4772656,0.525670238589019,0.09603060486089961,-0.9533403264832798,-2.0690751131376324,0.13773581485938075,2.1375868948814984,-1.2753856824959255,0.0008418499415075956,0.00016862762889864185,0.0010274175380726473,-0.0011812326935163819,-0.0013184861719152388,0.0014502596639835495,-0.0002275151651091235,0.1697271168231964,-21.84811782836914,-2.4333655834198,22.61603546142578,0.7002664804458618,2.2753188610076904,-0.07411040365695953,,,,,,,,,
1739402170.4873202,0.525670238589019,0.09602756121177533,-0.9533421091603486,-2.069071556286863,0.13773616353850557,2.1375864889986333,-1.2753852234700427,0.002126570271270893,-0.0006906117334879428,0.0010519660328482852,0.00026061797918155023,0.0008611285421709113,-0.0006886573726726996,0.0021875930049676563,0.1697271168231964,-21.77273941040039,-2.4095618724823,22.56842803955078,0.7002664804458618,2.2817275524139404,-0.05396880581974983,,,,,,,,,
1739402170.498343,0.5256667355464165,0.09602735206039183,-0.9533421091603486,-2.069071779188841,0.13773946141808321,2.137587248118236,-1.275385875977941,0.0002711985094037369,0.0006644623929839269,0.00130850632823266,0.0004583926581776043,-7.764704749005792e-06,0.0007382574689956733,0.00037032772475203523,0.2173345386981964,-21.77273941040039,-2.4095618724823,22.56842803955078,0.6938577890396118,2.2753188610076904,-0.04756011441349983,,,,,,,,,
1739402170.5083551,0.5256668019913918,0.09602247478420872,-0.9533459831829478,-2.0690733305668982,0.13773545649092,2.1375822519056484,-1.2753927863452639,-7.710145063602584e-05,-0.00156553193059588,0.000991761290319465,4.6554733003592206e-05,-0.00040315884385467237,-0.0015167532642601507,-0.0006392799985367357,0.2173345386981964,-21.74496841430664,-2.35798716545105,22.59223175048828,0.7066751718521118,2.2817275524139404,-0.013685601763427258,,,,,,,,,
1739402170.52038,0.525662916994838,0.09602247364927628,-0.9533472311373957,-2.069075109067692,0.13773890676332423,2.13758811399155,-1.2753868827078267,0.0005605610282214034,-0.0005141298868927439,-2.00380281548528e-05,-0.000627319087244828,0.0012310719761836411,0.00019777915096159504,-0.0005698361325368268,0.2411382496356964,-21.74496841430664,-2.38179087638855,22.61603546142578,0.7130838632583618,2.2679946422576904,-0.06678618490695953,,,,,,,,,
1739402170.5323772,0.5256650923559224,0.09602317523751311,-0.9533473437043709,-2.0690677781985727,0.13773612485322523,2.1375861884801153,-1.2753894887966928,-8.379153409979304e-05,-0.00014181742318076753,-0.0003436881436421407,0.0007379340643192801,-0.0011250373192032647,-0.0004551850619462588,1.8303499262424484e-05,0.2411382496356964,-21.74496841430664,-2.38179087638855,22.51685333251953,0.7066751718521118,2.2753188610076904,-0.013685601763427258,,,,,,,,,
1739402170.5433147,0.5256646731766011,0.09602460563795959,-0.9533487796860748,-2.069071511154652,0.13773912543429812,2.137586490452184,-1.2753900358864005,0.0008389509582778644,0.00021044777250050595,-0.00041459148971613674,-7.250432558491687e-05,-0.00026777348871112253,0.0003427822843508284,-0.0010923903295640867,0.2173345386981964,-21.74496841430664,-2.35798716545105,22.56842803955078,0.7002664804458618,2.2817275524139404,-0.04023589566349983,,,,,,,,,
1739402170.5540137,0.525666500532271,0.09602278970602841,-0.9533403526422245,-2.0690694679935318,0.13773541700215713,2.1375881140154767,-1.275391184986538,0.0005430542512323761,-0.0004160934862714557,-0.00021965035355370904,0.0004392424593382397,-0.0009340043782089531,-0.00021913138210767397,0.0009244422471696552,0.2173345386981964,-21.74496841430664,-2.4333655834198,22.54065704345703,0.7066751718521118,2.2679946422576904,-0.027418512850999832,,,,,,,,,
1739402170.5643368,0.5256667875454096,0.09602544531133748,-0.9533441976171452,-2.0690728878975606,0.13773892583152714,2.137586608680252,-1.2753899662799162,-0.0011997159167114382,-0.0005127181285223873,-0.001611012115332072,-0.00027130589664419927,0.001301764041102479,-0.0005094013033583129,8.360007235628554e-07,0.2173345386981964,-21.77273941040039,-2.38179087638855,22.61603546142578,0.7130838632583618,2.2817275524139404,-0.0008682189509272575,,,,,,,,,
1739402170.576374,0.5256651023348738,0.09602890537307918,-0.9533434736945159,-2.069075121590655,0.13773709219032235,2.1375881094939877,-1.2753883625795117,0.0006324570147074998,0.0006048507122473495,-0.00021590612396072914,-9.90103163472864e-06,0.0015966409506205938,0.00015079119483032773,-0.0010791657396050946,0.2411382496356964,-21.82431411743164,-2.38179087638855,22.61603546142578,0.6938577890396118,2.2679946422576904,-0.05396880581974983,,,,,,,,,
1739402170.587346,0.5256647035222056,0.09603401304723658,-0.9533441094759987,-2.0690768958146672,0.13773762700197606,2.137586490942674,-1.2753876177752632,-0.00013478332894471587,0.001521028890945502,-0.0013288481124089481,-0.0005750732078398998,-0.00021061135209038214,-0.00033132315729553495,-0.0013883894640192383,0.2173345386981964,-21.87192153930664,-2.38179087638855,22.63983917236328,0.6938577890396118,2.2817275524139404,-0.03382720425724983,,,,,,,,,
1739402170.598357,0.5256648655967049,0.09602926542526354,-0.9533410284922444,-2.0690751131376324,0.13773942895493127,2.1375872481182525,-1.275388376189112,-0.0005908174469366056,-0.0011849272049928496,0.000499697954365176,0.00029619415303908916,0.0008658651741906592,0.000499859659828195,-0.0010936249906541727,0.2411382496356964,-21.79654312133789,-2.4333655834198,22.61603546142578,0.7066751718521118,2.2753188610076904,-0.027418512850999832,,,,,,,,,
1739402170.6093032,0.5256651010263824,0.09603309087129809,-0.9533403176543329,-2.0690751131376324,0.13773580164370072,2.1375872481182445,-1.2753878166141666,0.0005805662085760162,0.00016851410764047377,0.0020403811376041602,0.0005623582538701998,-0.00011072452171284006,-0.0010133094978946758,0.00033152582394844186,0.2411382496356964,-21.84811782836914,-2.4333655834198,22.61603546142578,0.7002664804458618,2.2753188610076904,-0.020094294100999832,,,,,,,,,
1739402170.6213002,0.5256639954487538,0.09603137824252406,-0.9533421104442682,-2.069076921324458,0.1377355178510331,2.1375864902966604,-1.275387355162217,-0.00024361059490127178,-0.0010454915518921556,-0.0007396363714739534,-0.0004146488532404816,-0.0001764986057347251,-0.0002761668148581437,-0.00028421961619133835,0.2173345386981964,-21.82431411743164,-2.4095618724823,22.63983917236328,0.7066751718521118,2.2817275524139404,-0.05396880581974983,,,,,,,,,
1739402170.6323032,0.5256650215818613,0.09602938056630442,-0.9533442236173799,-2.0690751162870393,0.13774067809374757,2.137587248118244,-1.2753914390328478,0.000968861431203321,-0.0004411723372085614,0.0007348773941245491,0.0007860864329234145,0.0004334207484213996,-0.00010745540666918285,-0.0022357793656030355,0.2411382496356964,-21.79654312133789,-2.38179087638855,22.61603546142578,0.6865335702896118,2.2753188610076904,-0.027418512850999832,,,,,,,,,
1739402170.6423457,0.5256643913379684,0.09603350954161427,-0.9533481906478983,-2.0690784281903714,0.13773580817308054,2.1375857327980876,-1.2753868473383452,0.00045792220002455186,0.0004584748599242586,-0.0008269613274427372,-0.0010289975542278286,-0.0015342770127706278,-0.0006567267011723394,0.000826860719337077,0.2173345386981964,-21.82431411743164,-2.35798716545105,22.66364288330078,0.7002664804458618,2.2881362438201904,-0.06678618490695953,,,,,,,,,
1739402170.6523697,0.5256657961747945,0.09602743451843193,-0.9533449982360395,-2.0690753967507267,0.13774018659703866,2.1375872481182445,-1.2753840704493602,0.0003748094144036813,-0.00047162846077925083,0.0014212436690894167,0.00020455616719945648,0.0005208617882746975,8.913661824560691e-06,0.00022938248773400778,0.2173345386981964,-21.77273941040039,-2.4095618724823,22.59223175048828,0.7002664804458618,2.2753188610076904,-0.06037749722599983,,,,,,,,,
1739402170.6633399,0.5256639014992507,0.09602758896691678,-0.9533462581557821,-2.069071547830251,0.13773480024856782,2.1375872655608474,-1.2753934469388488,0.00036653271785432566,0.00046119703237123405,0.0007248630815287836,-0.0002457001323860875,-0.00028718946199110025,-0.0006237543038182835,-0.0012353504376723177,0.2173345386981964,-21.77273941040039,-2.35798716545105,22.56842803955078,0.7130838632583618,2.2753188610076904,-0.0072769103571772575,,,,,,,,,
1739402170.6733422,0.5256665790668308,0.09602764158087417,-0.9533444500288313,-2.0690715600660945,0.13774044175417013,2.137588114015772,-1.2753915383524796,0.00020589403125119052,0.0007537789677026649,0.0005526745409638655,0.00029345387073089954,0.0008633854257099223,-8.998738177457802e-05,0.000553934693524242,0.2173345386981964,-21.77273941040039,-2.38179087638855,22.56842803955078,0.7002664804458618,2.2679946422576904,-0.027418512850999832,,,,,,,,,
1739402170.6842678,0.5256658510685165,0.09602769430429799,-0.9533421221441796,-2.0690694717730382,0.13773586069070012,2.1375896693725536,-1.2753885746584568,0.001173938641477935,-0.0006773623814705567,-4.339473993348144e-05,0.0010987296951834751,-0.0002571925752316884,0.0001801279054906989,0.0016294661994304984,0.2173345386981964,-21.77273941040039,-2.4095618724823,22.54065704345703,0.7002664804458618,2.2817275524139404,-0.04023589566349983,,,,,,,,,
1739402170.6943042,0.5256667833579765,0.09602575774701344,-0.9533421091605685,-2.069071547783658,0.13773506297256857,2.1375864963262017,-1.2753899810409213,0.0007494201622773646,7.020636655502165e-05,0.0010888009177210949,-0.0002896639736245926,-0.0023630755047334808,-0.0009557215289618941,-0.0009319621960376154,0.2173345386981964,-21.74496841430664,-2.4095618724823,22.56842803955078,0.7066751718521118,2.2817275524139404,-0.013685601763427258,,,,,,,,,
1739402170.7052677,0.5256619779494577,0.09602566864973106,-0.9533442178395153,-2.0690733304606135,0.13773476040774862,2.1375881140155095,-1.2753871819987845,-0.0010517374332314894,-0.0005070240278007626,-0.0017093754098121445,-0.0003800150960656046,-0.0006125073343985927,0.00024384724833522784,0.0010251939095846099,0.2411382496356964,-21.74496841430664,-2.38179087638855,22.59223175048828,0.7130838632583618,2.2679946422576904,-0.06037749722599983,,,,,,,,,
1739402170.715302,0.5256640754033904,0.09602935540203046,-0.9533424123350804,-2.069071556286863,0.13773611217639065,2.137586490458166,-1.2753883575002418,-0.0009829552993200442,-0.0003499530741270582,0.0008714656549271572,0.0005195701189212537,0.00042569303032552274,-0.0003328420908016037,-0.0006034075050015614,0.2411382496356964,-21.79654312133789,-2.4095618724823,22.56842803955078,0.7066751718521118,2.2817275524139404,-0.027418512850999832,,,,,,,,,
1739402170.7253814,0.5256678152668673,0.09602938040950669,-0.9533421207212074,-2.0690733304607574,0.1377355726366759,2.137586490458166,-1.2753900077182068,0.0005045653392343595,0.0010374646393905786,-0.0003561413505214549,8.230245714352803e-06,0.0005769992779149392,-0.0008693379058666543,-0.0014130401362363158,0.1935308277606964,-21.79654312133789,-2.4095618724823,22.59223175048828,0.7066751718521118,2.2817275524139404,-0.027418512850999832,,,,,,,,,
1739402170.7363076,0.5256608814939333,0.09602720313240605,-0.9533441889502694,-2.0690768958496437,0.13773504542293336,2.1375881140154767,-1.2753915551486208,-0.0011310781336252957,-0.00037700777685482803,-0.0007599460151808911,-0.001497997996581786,-0.0010849787913394411,0.00011226839196646352,-0.002155247039034338,0.2689092457294464,-21.77273941040039,-2.38179087638855,22.63983917236328,0.7066751718521118,2.2679946422576904,-0.027418512850999832,,,,,,,,,
1739402170.7463417,0.5256654806692812,0.09602914558783078,-0.9533421101233257,-2.0690715477835946,0.13774204854640676,2.1375872481182445,-1.275387303953543,0.0006580271142626848,4.73355585223136e-06,0.0012859360893045764,0.0005069491603013278,0.0012625585978063114,0.0002277670554444695,-0.0004724005081431924,0.1935308277606964,-21.79654312133789,-2.4095618724823,22.56842803955078,0.6938577890396118,2.2753188610076904,-0.06037749722599983,,,,,,,,,
1739402170.756378,0.5256680155584514,0.09603309130057455,-0.9533421095883547,-2.0690753427258937,0.13773948022203325,2.1375888716755553,-1.2753873441998158,0.001338628872407485,-1.260080014585068e-05,0.0002405886030380446,0.00024771796463430196,0.0014407116530424098,0.000106366346035368,0.0003669918147628017,0.1697271168231964,-21.84811782836914,-2.4095618724823,22.61603546142578,0.7066751718521118,2.2615859508514404,-0.05396880581974983,,,,,,,,,
1739402170.7672966,0.5256650999086361,0.09603161558280346,-0.9533459268215394,-2.0690761540692564,0.13773597910880733,2.137588876036206,-1.2753868972394922,0.0004937466284483244,-0.0009402870614058705,-0.0006394758490592941,0.0005612898061480576,0.00014720240336358272,0.00030643491963579857,0.0008396068669621693,0.2411382496356964,-21.82431411743164,-2.35798716545105,22.63983917236328,0.7002664804458618,2.2615859508514404,-0.06678618490695953,,,,,,,,,
1739402170.7773333,0.5256647501821724,0.09603169403866017,-0.9533444229528656,-2.069075433589903,0.1377378980334411,2.137585737158812,-1.2753868596306968,0.001573271208257615,-0.001104819625366354,0.00015682332308794385,-0.0006650856357450402,4.150517765182148e-07,-0.0008648938646817136,-0.0004493191055494805,0.2411382496356964,-21.82431411743164,-2.38179087638855,22.59223175048828,0.7130838632583618,2.2881362438201904,-0.04023589566349983,,,,,,,,,
1739402170.7882946,0.525666552150809,0.09602947145770875,-0.9533487809535565,-2.069075113499433,0.13773816721464133,2.137588131458104,-1.2753919487404766,0.0003603129588328251,-0.0007780094067071987,-0.0019725689009330734,0.00035717414917567136,2.4726501413219464e-05,7.453256426302602e-05,-0.0008884233572126022,0.2173345386981964,-21.79654312133789,-2.35798716545105,22.61603546142578,0.7194925546646118,2.2679946422576904,-0.020094294100999832,,,,,,,,,
1739402170.7983496,0.525666475431192,0.09603341835716972,-0.9533441899607574,-2.06907486599372,0.13774046165085016,2.1375872486030567,-1.2753872661532382,0.0007770816379630922,0.0008668076809860031,0.00043049957383428883,0.00038005673071348905,0.0012507110140050448,0.0002522506084501261,0.0005175306884190295,0.2173345386981964,-21.84811782836914,-2.38179087638855,22.61603546142578,0.7002664804458618,2.2753188610076904,-0.06037749722599983,,,,,,,,,
1739402170.8083584,0.5256648400543221,0.0960324974146802,-0.9533403277673161,-2.0690733569110424,0.1377425678932348,2.1375884672281944,-1.2753872653470624,-0.0012787418400978063,0.0011434694748890721,-3.5439821569920125e-05,0.0006034884496047655,0.001909668102304187,0.00046570854888725185,0.000814074427547017,0.2411382496356964,-21.79654312133789,-2.4333655834198,22.59223175048828,0.6801248788833618,2.2679946422576904,-0.06037749722599983,,,,,,,,,
1739402170.819319,0.5256637325188834,0.09603241747637273,-0.9533441889502114,-2.0690736944917254,0.13773664285873843,2.13758649046016,-1.2753875414722076,-0.0013888636383637381,0.0006797572450903132,-0.0006258335416251516,0.0011318300713283737,0.0005155888088931549,0.0005845889130932714,0.0002175613919822609,0.2173345386981964,-21.82431411743164,-2.38179087638855,22.56842803955078,0.7066751718521118,2.2817275524139404,-0.06037749722599983,,,,,,,,,
1739402170.8293881,0.5256646984768114,0.09603077256445063,-0.9533490140996761,-2.0690676894472406,0.13773811278536427,2.1375865037016237,-1.2753915551553652,0.0006122841877018751,-0.0011722048022246754,-0.002330273320575847,0.0014643612667704989,-0.0009191402848132613,0.00011340296953006566,-0.0016861318719666664,0.2173345386981964,-21.77273941040039,-2.35798716545105,22.51685333251953,0.6938577890396118,2.2817275524139404,-0.027418512850999832,,,,,,,,,
1739402170.840341,0.5256657879650716,0.09602854049493882,-0.9533452639259657,-2.0690700832385835,0.13773660383915598,2.1375872481721543,-1.2753887674214572,-0.00011474370739259301,-0.0014812508410295077,-0.0008556811547196862,0.0004108612329461871,0.0006740173750051865,-0.0007806086852118723,-0.0010792221685820267,0.2173345386981964,-21.74496841430664,-2.4095618724823,22.51685333251953,0.7066751718521118,2.2753188610076904,-0.020094294100999832,,,,,,,,,
1739402170.8513265,0.5256621760317819,0.09602862071369253,-0.9533386478256394,-2.069069468499867,0.13773814916389437,2.137588114661499,-1.2753859950049544,-0.0012046201057139354,-3.7217285765465686e-05,0.002081331980719266,0.0007639604922356366,-0.00029314348626861895,0.0011203909246911734,0.0012933542934760287,0.2411382496356964,-21.74496841430664,-2.4571692943573,22.54065704345703,0.7194925546646118,2.2679946422576904,-0.04756011441349983,,,,,,,,,
1739402170.8623102,0.5256670806498075,0.09602886299825966,-0.9533420778507529,-2.0690696985268104,0.13773651902364317,2.137587248118248,-1.2753880620263651,0.0004840270174994942,0.001054847155952648,0.0005751701207032038,0.00023024284425179529,-0.00020211436709082292,-0.0006979701895812906,-9.458280463055821e-05,0.1697271168231964,-21.74496841430664,-2.38179087638855,22.54065704345703,0.7066751718521118,2.2753188610076904,-0.05396880581974983,,,,,,,,,
1739402170.8732655,0.5256648553071909,0.09603254996896282,-0.9533441885748994,-2.0690761610329864,0.1377361745976276,2.137587287364101,-1.275393140112943,-0.00045546555688962513,0.0015211899329768059,0.00022887282028489472,-0.0003066751871943045,-0.0007378906306768444,-0.00015164992764246736,-0.0014606527985777348,0.2411382496356964,-21.79654312133789,-2.38179087638855,22.59223175048828,0.7002664804458618,2.2753188610076904,-0.013685601763427258,,,,,,,,,
1739402170.8833826,0.5256638889821311,0.09603232524966028,-0.9533421207160667,-2.069073330613528,0.1377355360590286,2.1375908467489175,-1.2753907398391238,0.0014113704346599668,0.0008760889745753951,-1.114158018098257e-06,4.651125359307563e-06,-0.002249273475998653,0.0026930077638202717,-0.001839038808847457,0.2173345386981964,-21.79654312133789,-2.4095618724823,22.59223175048828,0.7066751718521118,2.2817275524139404,-0.03382720425724983,,,,,,,,,
1739402170.8944273,0.5256645996111713,0.09603256761381306,-0.9533459716272885,-2.069076895814652,0.13773838044706543,2.1375886479117225,-1.2753917207497196,0.00041486108247457273,0.00019686639794856906,-0.0003548216134868146,-0.0007803322215868803,-0.00041949645253717407,0.0014531821376560774,0.0003752675493283781,0.2173345386981964,-21.79654312133789,-2.35798716545105,22.63983917236328,0.7066751718521118,2.2753188610076904,-0.013685601763427258,,,,,,,,,
1739402170.9053366,0.5256639679022459,0.09603154943730147,-0.9533449169608449,-2.0690769042802355,0.13773663012247814,2.1375865035480195,-1.2753817969867094,0.0005798004131247138,-0.0017507673674783094,-0.0005789893124687027,-0.0010034577894642883,-0.0015359877021985067,-0.0006327973983591335,0.0021304257487173286,0.2173345386981964,-21.79654312133789,-2.38179087638855,22.63983917236328,0.7066751718521118,2.2817275524139404,-0.07411040365695953,,,,,,,,,
1739402170.9163015,0.5256621759858418,0.09603789402453278,-0.9533459802981263,-2.069076997853926,0.13773902007326339,2.1375872502178908,-1.2753868332859117,-0.0009964782951318659,0.0010718945393035245,-0.0010328773162765,-0.00044227993154115597,0.0001672582153655967,0.0016727808879294156,0.0029132601598043026,0.2411382496356964,-21.87192153930664,-2.35798716545105,22.63983917236328,0.7002664804458618,2.2753188610076904,-0.05396880581974983,,,,,,,,,
1739402170.9263992,0.5256636636001296,0.09603220701912463,-0.9533422141249926,-2.0690751135592746,0.13773689047680285,2.13758724957183,-1.2753867039125695,-0.0009656603663016054,0.00029771159687871213,0.000485005688928591,-0.0004864893096347554,-0.0005339111103828129,-0.0005710055791576645,0.0004792637095071021,0.2173345386981964,-21.82431411743164,-2.4095618724823,22.61603546142578,0.7194925546646118,2.2753188610076904,-0.04023589566349983,,,,,,,,,
1739402170.9373682,0.5256653673431585,0.0960317304144154,-0.9533428930242501,-2.06908082428984,0.13773628770353144,2.1375865486001837,-1.275389055376038,-1.1051279968642548e-05,-0.0015200779993173991,-0.00016418084753645605,-0.001916096973639537,-0.0013395441429853918,-0.0003767934387474831,-0.0003801073743382769,0.1935308277606964,-21.82431411743164,-2.4095618724823,22.66364288330078,0.7066751718521118,2.2817275524139404,-0.04756011441349983,,,,,,,,,
1739402170.9483078,0.5256693233638379,0.09603432614282784,-0.9533449965979233,-2.0690754564648546,0.1377401082717221,2.137588114661827,-1.2753934484658203,0.0002389909821052938,-0.0004772329908065685,1.8300319637445727e-05,-0.0004870190302439095,-0.0004913150873923493,0.00042182626914584226,-0.0009929447392538469,0.1419561207294464,-21.82431411743164,-2.4095618724823,22.61603546142578,0.7002664804458618,2.2679946422576904,-0.0072769103571772575,,,,,,,,,
1739402170.959352,0.52566365482654,0.09603313032778837,-0.9533442015178046,-2.0690736620939165,0.13773392427158332,2.137590846748264,-1.275393177898979,-0.0006624882854490413,-0.0007680540857599594,0.00021714751236392505,0.00017869865262732493,-0.000893905186261525,0.0003741987925009583,-0.000919119328203697,0.2173345386981964,-21.84811782836914,-2.38179087638855,22.59223175048828,0.7194925546646118,2.2817275524139404,-0.013685601763427258,,,,,,,,,
1739402170.9703386,0.5256674730885633,0.0960328903444687,-0.9533385424981389,-2.0690733332956603,0.13773429947975174,2.13758888492721,-1.275392664804013,-8.24310533221527e-05,-0.00022406568210784445,0.0008362506541517283,0.0007181258702391171,-0.0016598814361944178,0.0006166378536287845,0.0007284316720167648,0.1935308277606964,-21.79654312133789,-2.4571692943573,22.59223175048828,0.7130838632583618,2.2615859508514404,-0.013685601763427258,,,,,,,,,
1739402170.9813218,0.5256637589427823,0.09602673831295401,-0.9533421091603412,-2.0690716507676448,0.13773937115093993,2.137589931313759,-1.2753868484301456,-0.0003930191427715464,-0.001458850908664583,0.0011405605938795877,0.0004952688856942849,0.001325050149981373,0.001122075066619588,0.0005032237408485705,0.2173345386981964,-21.74496841430664,-2.4095618724823,22.56842803955078,0.7002664804458618,2.2615859508514404,-0.04023589566349983,,,,,,,,,
1739402170.9913666,0.5256636660588768,0.0960287332861876,-0.9533428115985991,-2.0690733332967803,0.13773631652533988,2.137586503558063,-1.275385627450621,-0.0002571102131785013,-0.0002290067568020034,0.0006555550474895242,-0.0003710118682020771,2.9397258857780822e-05,-0.0004744296906134685,0.00037970494726565873,0.2173345386981964,-21.77273941040039,-2.4095618724823,22.59223175048828,0.7002664804458618,2.2817275524139404,-0.04023589566349983,,,,,,,,,
1739402171.002344,0.5256619419807176,0.0960286294724985,-0.9533444229575897,-2.069072236548394,0.13773632984819725,2.1375881140155504,-1.2753934093572306,-0.0023704492185003855,-0.0004765124578737272,0.0004455369612072663,0.0003553036442252212,0.00036292953801892293,-0.0006086007900468098,-0.0007721591708658192,0.2411382496356964,-21.74496841430664,-2.38179087638855,22.56842803955078,0.7002664804458618,2.2679946422576904,-0.0072769103571772575,,,,,,,,,
1739402171.012346,0.5256642780017616,0.09602873331821456,-0.9533420708996013,-2.0690722375048503,0.13773585866910046,2.1375904284861824,-1.2753930044413206,-0.00025366923290421023,0.0002047561041522199,0.0010973153565841708,0.0004651406131054711,-0.0012564938407857165,0.0011402109208360285,-0.0027569041709458245,0.2173345386981964,-21.77273941040039,-2.4095618724823,22.56842803955078,0.7002664804458618,2.2753188610076904,-0.013685601763427258,,,,,,,,,
1739402171.0232894,0.5256654459897516,0.09603082614117679,-0.9533421091601326,-2.0690717773757488,0.13773621619346102,2.1375872483515383,-1.2753930209228386,0.00014898864880089063,0.0008082848154834329,0.00036769553397854267,-0.0002468850443000516,0.0008636850420865565,-0.0007198987644829742,-0.0012357123851375797,0.1935308277606964,-21.77273941040039,-2.4095618724823,22.56842803955078,0.7002664804458618,2.2753188610076904,-0.013685601763427258,,,,,,,,,
1739402171.0333385,0.525663978383998,0.09603446909648426,-0.9533423432707663,-2.069071547892461,0.13773795181473675,2.13758811401548,-1.275389551926154,0.00010307953249400633,0.0020595853881931647,0.0005978433802204556,0.0015742970389811452,0.0005159350638378726,-0.0015434029463779096,0.0005441527242151375,0.2173345386981964,-21.82431411743164,-2.4095618724823,22.56842803955078,0.7194925546646118,2.2679946422576904,-0.04023589566349983,,,,,,,,,
1739402171.0443406,0.5256649849935774,0.09603233983606499,-0.9533421207200378,-2.0690760865695377,0.13774048082397147,2.137588114499993,-1.2753895690401553,0.00014411582918920644,-7.08227876569326e-05,0.00017049973040506467,-0.0003778087137722489,-0.0003926810844982132,0.00060438827259738,-0.0014403354308957163,0.2411382496356964,-21.79654312133789,-2.4095618724823,22.59223175048828,0.7002664804458618,2.2679946422576904,-0.04023589566349983,,,,,,,,,
1739402171.0552974,0.5256660725424519,0.09603153904402283,-0.9533421105513372,-2.069075801942595,0.13773936184501923,2.137587265794134,-1.275395560577305,0.0002024289270047843,-0.000879667774780498,0.0016578920010862392,-0.0012397753458777447,0.00048523051849218247,-0.0007541086918899542,-0.00327255450556708,0.2173345386981964,-21.79654312133789,-2.4095618724823,22.61603546142578,0.7066751718521118,2.2753188610076904,0.0064559997990727425,,,,,,,,,
1739402171.065317,0.5256636818266828,0.09603596400230088,-0.9533456785349903,-2.069073331732022,0.1377361297931046,2.137588587065628,-1.2753913077966093,0.0003377291662081225,0.0003719424604788854,8.850496182313339e-05,0.00045468454103763994,-0.0008977423726973287,-7.121511788364611e-05,-0.0013432005024281556,0.2173345386981964,-21.84811782836914,-2.35798716545105,22.59223175048828,0.7066751718521118,2.2679946422576904,-0.020094294100999832,,,,,,,,,
1739402171.0763087,0.5256622539856755,0.09603457161312856,-0.9533445126125228,-2.069077621531934,0.13773650282724698,2.137586529873539,-1.2753836684070707,-0.0005905376242025878,-0.00018233772528086477,0.0001706771838022042,-0.0014574873855125229,0.0010879863181026354,-0.0020971648543421945,0.0017218535348707713,0.2411382496356964,-21.82431411743164,-2.38179087638855,22.63983917236328,0.7259012460708618,2.2817275524139404,-0.06678618490695953,,,,,,,,,
1739402171.0863874,0.5256681750649188,0.0960361906959705,-0.9533428111724364,-2.0690781062923955,0.13773464829336265,2.1375915003989587,-1.2753854659150419,0.0016505456782615457,-8.252959925518022e-06,-0.00022368513349260163,-0.0007394713052889107,-0.0011620727418202598,-0.00046034337631558383,0.002000255139313199,0.1935308277606964,-21.84811782836914,-2.4095618724823,22.61603546142578,0.7130838632583618,2.2753188610076904,-0.04756011441349983,,,,,,,,,
1739402171.0972714,0.5256678595700982,0.09603628800230438,-0.9533428111745722,-2.069077585051239,0.13773753844097136,2.137591199984967,-1.2753868075512023,0.0017573345666247275,-0.00034747550834313124,-0.000671046051951617,-4.4156476545878336e-05,-0.00048485023879847025,0.0013477798118109818,-0.0006629095078871137,0.1697271168231964,-21.84811782836914,-2.4095618724823,22.63983917236328,0.7130838632583618,2.2817275524139404,-0.04023589566349983,,,,,,,,,
1739402171.1073313,0.5256632241570439,0.09603628717060461,-0.9533421091722373,-2.0690725455121552,0.13773896158362336,2.137588432033923,-1.2753895619248223,0.000664199260938283,0.00033708131231330644,3.8306955944691483e-05,0.0010465299564806942,0.0008218250185670626,0.001265741939938838,-0.0005191500809877336,0.1935308277606964,-21.84811782836914,-2.4095618724823,22.56842803955078,0.7130838632583618,2.2753188610076904,-0.03382720425724983,,,,,,,,,
1739402171.118347,0.5256666964974113,0.09603457464985936,-0.9533392481373995,-2.0690751131432643,0.1377361590684253,2.1375928803749216,-1.275389174094498,0.0004698017943285794,-0.00031269405023997654,0.0009902302947285445,0.00045557989762972056,-0.0014133379201150484,0.0012923094346924955,-0.0014240552784108977,0.2173345386981964,-21.82431411743164,-2.4095618724823,22.61603546142578,0.7002664804458618,2.2679946422576904,-0.04756011441349983,,,,,,,,,
1739402171.1283739,0.5256656013980439,0.09603457464985936,-0.9533421094328893,-2.069069479436409,0.13773593959867472,2.1375885070392786,-1.2753821921033932,0.0004399401636667539,-0.00036446562931008946,0.0003302961705556282,0.0010651695762306937,-0.00033105741819376195,0.0011455007336847133,0.0010298687532289375,0.1935308277606964,-21.82431411743164,-2.4095618724823,22.54065704345703,0.7002664804458618,2.2679946422576904,-0.06678618490695953,,,,,,,,,
1739402171.139333,0.5256670799748049,0.09602802314205236,-0.9533421091603532,-2.069073560154047,0.13774010615434293,2.1375907291788443,-1.2753915145397028,-0.0001294023214650542,-0.0012048584827369802,0.0015570656102570002,-0.0001994990664528894,-0.0002406648039503751,-0.0011238900574057904,-0.0009396334529364811,0.1697271168231964,-21.77273941040039,-2.4095618724823,22.59223175048828,0.7002664804458618,2.2817275524139404,-0.027418512850999832,,,,,,,,,
1739402171.150384,0.5256670796855101,0.09603256793466426,-0.9533459716391119,-2.069073357230596,0.13773982880406016,2.137591293153181,-1.275388410573284,0.0008461994062677562,0.00037884947438683223,0.00017691577520990347,0.00033213335939954547,0.0002736350373928342,0.0008493024173098141,0.00031037971891833887,0.1697271168231964,-21.79654312133789,-2.35798716545105,22.59223175048828,0.7066751718521118,2.2679946422576904,-0.05396880581974983,,,,,,,,,
1739402171.1612887,0.5256653670221156,0.09602929053634983,-0.9533462056306437,-2.0690733304607645,0.13773760223471251,2.1375918399014178,-1.2753862463611263,-0.000817423016879644,0.0005103195099259176,0.00010913735821423709,-0.0011703937363731637,0.0008934235955044328,0.000359585198141866,0.0003704558494401196,0.1935308277606964,-21.72116470336914,-2.35798716545105,22.59223175048828,0.6865335702896118,2.2753188610076904,-0.06037749722599983,,,,,,,,,
1739402171.1712956,0.5256655980820958,0.09603086422446215,-0.9533441918430982,-2.0690694793314304,0.1377390822801862,2.1375905614995037,-1.2753886145265065,0.0001600153278094104,-0.00040061071318916845,0.0007972313431705585,0.000645489470366469,0.0008562455282821006,0.0005140936724600471,-0.0007662638841079952,0.1935308277606964,-21.77273941040039,-2.38179087638855,22.54065704345703,0.7130838632583618,2.2487685680389404,-0.04023589566349983,,,,,,,,,
1739402171.1823237,0.5256636545026879,0.09603062742538077,-0.9533448881597053,-2.0690694683087383,0.13773557540841386,2.1375911367055944,-1.275385745234199,-0.00018104806524585297,-0.0007484783822615895,-0.00026312643549157144,0.002148266903925139,-0.00039084015328266753,0.0009314720807499406,0.0007759653031498745,0.2173345386981964,-21.77273941040039,-2.38179087638855,22.54065704345703,0.7066751718521118,2.2817275524139404,-0.04023589566349983,,,,,,,,,
1739402171.1923416,0.5256636545013836,0.09603094328919529,-0.9533483643964574,-2.069075343670707,0.13773699269877465,2.1375883128417312,-1.275388456848245,-8.145723787759203e-05,0.0008344837296003564,-0.0018222324989477289,-0.0005788049167071232,-0.00010070228784294498,-0.0018692288365720709,0.0010614093350220487,0.2173345386981964,-21.77273941040039,-2.3302161693573,22.61603546142578,0.7002664804458618,2.2753188610076904,-0.04023589566349983,,,,,,,,,
1739402171.2023654,0.5256612276878921,0.09603453957521456,-0.9533441889555045,-2.0690771794358884,0.13773907985963385,2.1375881183941585,-1.2753864945853106,-0.0019842351559747127,0.0006228722692948805,-0.00012562226346164476,-0.0003246435085245714,0.0014628935979071086,-0.0007273283121624001,0.0020070428624017075,0.2411382496356964,-21.82431411743164,-2.38179087638855,22.61603546142578,0.7130838632583618,2.2679946422576904,-0.06678618490695953,,,,,,,,,
1739402171.2133336,0.5256638884927073,0.09603086386290346,-0.9533403274463068,-2.069075113277604,0.13773936336197157,2.1375887791912445,-1.275383419252876,2.567095946349708e-05,-0.0010309771617873882,0.0024720746822538132,0.0005800295513275463,-7.06362483263166e-05,0.0007410463829816221,-0.0002046213031148958,0.2173345386981964,-21.77273941040039,-2.4333655834198,22.61603546142578,0.7066751718521118,2.2753188610076904,-0.06037749722599983,,,,,,,,,
1739402171.2243457,0.5256636546088214,0.09603257670900567,-0.953344188950206,-2.069074248813659,0.13774119314781655,2.137587411134094,-1.2753875666598427,-0.0010678126009451676,-0.000774848762639559,-0.00038918817628499165,-0.00024889693714875223,-0.00015080919124323513,-0.0002239558434361121,0.0001444105006658178,0.2173345386981964,-21.79654312133789,-2.38179087638855,22.59223175048828,0.6938577890396118,2.2753188610076904,-0.03382720425724983,,,,,,,,,
1739402171.2343526,0.5256690774837008,0.09603457497539404,-0.9533420830973852,-2.069076031821166,0.13774135744859264,2.137589787112884,-1.2753859825349276,0.0012422638116692288,-0.0017958180744114696,-0.000343768656360974,-0.0009488947656852094,0.0003022017564467931,-1.1227649432378039e-05,-0.0017166694207383492,0.1419561207294464,-21.82431411743164,-2.4095618724823,22.61603546142578,0.6938577890396118,2.2817275524139404,-0.04756011441349983,,,,,,,,,
1739402171.2443693,0.5256653670221149,0.09603257703454648,-0.9533421091599072,-2.0690771833317516,0.13773913211839692,2.137588823984046,-1.275386783814571,0.0005894796309705147,-0.0008432969741665435,-5.4320757798614314e-05,-1.174618146955613e-05,0.0010302334517713865,0.0003165388084657283,-0.0007527342861845514,0.1935308277606964,-21.79654312133789,-2.4095618724823,22.61603546142578,0.7002664804458618,2.2753188610076904,-0.06678618490695953,,,,,,,,,
1739402171.2552843,0.5256707942837922,0.09603288446824278,-0.953342745193253,-2.069073356087085,0.1377401212847013,2.1375885850284875,-1.2753868007015108,0.0026202532127154402,-0.0013492530225352923,-0.0007347996067847166,0.0007066591287945337,-0.0010381135721607736,-0.0004262743584273028,0.0009051242141007097,0.11815241724252701,-21.79654312133789,-2.38179087638855,22.59223175048828,0.7002664804458618,2.2679946422576904,-0.027418512850999832,,,,,,,,,
1739402171.2653031,0.5256653670221872,0.0960308964282349,-0.9533420913117386,-2.0690778711366042,0.13773476660219328,2.1375875938722846,-1.2753904849408397,0.00017828992047344317,-0.0001997893516810028,-0.0002129016551583272,-0.0014816835437372745,-0.00032835430544900484,-0.0006677077980966673,-0.0012603010460273383,0.1935308277606964,-21.77273941040039,-2.4095618724823,22.61603546142578,0.7130838632583618,2.2817275524139404,-0.027418512850999832,,,,,,,,,
1739402171.2753444,0.525667079542846,0.09603937226449047,-0.9533421871605819,-2.069077260195692,0.13773842023069108,2.137588706569717,-1.2753837081602166,0.001238128511234919,0.001233377816877053,0.00019740464415109074,-5.393840621844832e-05,-0.0003186305616677427,0.0006650275542538129,0.0022623134926583735,0.1697271168231964,-21.84811782836914,-2.4095618724823,22.61603546142578,0.7066751718521118,2.2753188610076904,-0.08051909506320953,,,,,,,,,
1739402171.2863462,0.5256619419806524,0.09603111421677939,-0.953342237639981,-2.069072341461061,0.13773982685213354,2.1375893327572943,-1.275390744967752,-0.0008052113626277274,-0.0008807559227503171,0.00014306610682083241,0.0006661373824434795,0.0014887824519371885,0.00015961533830103743,-0.001015366427781882,0.2411382496356964,-21.77273941040039,-2.4095618724823,22.56842803955078,0.7066751718521118,2.2679946422576904,-0.0072769103571772575,,,,,,,,,
1739402171.2973492,0.5256619419806524,0.09603257812389086,-0.9533432150359598,-2.0690760855331907,0.1377390713071669,2.1375920027017385,-1.2753880098942523,-0.001254093323546819,0.00019912115227520736,-0.00024510370315944965,-0.0002444978043266286,0.0007542031572804193,0.0019226114115669182,0.0017235104943018479,0.2411382496356964,-21.79654312133789,-2.35798716545105,22.59223175048828,0.7130838632583618,2.2753188610076904,-0.027418512850999832,,,,,,,,,
1739402171.3083658,0.5256673135462662,0.09603281514508981,-0.9533462056150825,-2.0690715846466454,0.13773734764953025,2.137589839464772,-1.2753868999172908,0.0003972830694419367,0.0007253673446394412,-0.0005758568798366378,0.00016277143659003878,-0.0008435605967374757,-0.0009784511640022454,0.0008494616186734488,0.1697271168231964,-21.79654312133789,-2.35798716545105,22.56842803955078,0.7002664804458618,2.2817275524139404,-0.06678618490695953,,,,,,,,,
1739402171.318427,0.5256649840264362,0.0960310225834456,-0.9533459976289242,-2.0690751244755323,0.13773980094239513,2.1375884852280467,-1.2753826454495631,0.00010870232995513506,0.0001632742227611776,-0.0010104496699355429,-8.239538630776808e-05,0.0007791692964132618,-0.0005680376439891637,0.000715240071720697,0.2411382496356964,-21.77273941040039,-2.35798716545105,22.61603546142578,0.7066751718521118,2.2679946422576904,-0.06678618490695953,,,,,,,,,
1739402171.3302612,0.5256628782961593,0.09602887536328752,-0.9533459720553599,-2.069073339068925,0.13773572723618666,2.1375922208727585,-1.2753900245449248,-0.0004441161201728676,-0.00014902218389699524,-0.0017023789623795155,6.476733022577167e-05,0.0003983458204367278,0.0016462185380017157,-0.0006367278857247701,0.2411382496356964,-21.74496841430664,-2.35798716545105,22.59223175048828,0.7130838632583618,2.2615859508514404,-0.027418512850999832,,,,,,,,,
1739402171.3402696,0.5256636545066692,0.09603226102519838,-0.9533459178371892,-2.0690754235245645,0.13774024924268766,2.1375897280718217,-1.275388659966727,-0.0005930167150512388,-0.00016012706622429453,-0.00045055811861723235,-0.0006971490355143035,0.0010684634482605797,-2.6902233033864863e-05,-0.00025814674716237315,0.2173345386981964,-21.79654312133789,-2.38179087638855,22.59223175048828,0.6938577890396118,2.2817275524139404,-0.04756011441349983,,,,,,,,,
1739402171.3503757,0.5256636573903147,0.09603261196991829,-0.9533459803232955,-2.06907333049606,0.137740108327191,2.137587606839584,-1.2753859956628901,5.967661748920514e-05,0.000386817368830842,-0.0005337676416435984,0.0014355213121158312,0.0004127106733126814,-0.0014919194016197036,0.0001233379256839357,0.2173345386981964,-21.79654312133789,-2.35798716545105,22.59223175048828,0.7002664804458618,2.2817275524139404,-0.04756011441349983,,,,,,,,,
1739402171.3603966,0.5256636531932373,0.09603260756366261,-0.9533483896627131,-2.0690733430580495,0.13773509863528607,2.137591822687082,-1.2753826610617789,0.0001239710115883624,0.0022038069067057886,-0.0015182974369373253,-0.0005688705946524117,-0.0017654850871832528,0.0020461247861896124,0.0016895048163886833,0.2173345386981964,-21.77273941040039,-2.35798716545105,22.59223175048828,0.7066751718521118,2.2679946422576904,-0.06678618490695953,,,,,,,,,
1739402171.3713255,0.525665679026653,0.0960345981246948,-0.9533403147505223,-2.0690743338465616,0.1377376801443019,2.1375891737164125,-1.275384765051366,0.00020164026283920537,0.0004563687925192869,0.0010149141960345458,-0.00023086957876921043,-0.00023109563599387197,-0.000962341575631197,-0.00016792720801055714,0.1935308277606964,-21.82431411743164,-2.4333655834198,22.59223175048828,0.6938577890396118,2.2679946422576904,-0.05396880581974983,,,,,,,,,
1739402171.3823667,0.5256653708864987,0.09603457464990352,-0.9533442151911087,-2.0690733684064435,0.13773692102277177,2.1375895857281217,-1.2753875352047321,0.0004423154880294803,0.0005750462880166179,0.0005721224820074585,-0.0005004022888655662,0.000346656316208598,0.0001505359658844404,0.0013266452051228454,0.1935308277606964,-21.82431411743164,-2.4095618724823,22.59223175048828,0.7002664804458618,2.2679946422576904,-0.06037749722599983,,,,,,,,,
1739402171.3932955,0.5256677080193596,0.0960352865942275,-0.9533421093030119,-2.0690718567363415,0.13774018515324993,2.137591544837695,-1.2753909116378879,0.0007673304279642631,-0.0009033999736179083,-0.00032360681241919923,0.0008932203954677713,-0.00024592463614861687,0.0007576423312271485,-4.50239812469879e-05,0.1935308277606964,-21.82431411743164,-2.4095618724823,22.56842803955078,0.7002664804458618,2.2753188610076904,0.0064559997990727425,,,,,,,,,
1739402171.4042602,0.5256628818625351,0.09603561180472296,-0.9533385438063108,-2.069076921360032,0.13773740046619698,2.137591892937168,-1.275383811890537,-0.0013423452063546053,0.0015426490885452613,0.0023730449772778445,2.39734876652999e-06,0.0012869272818521462,0.0011698665491258829,-8.45740289400703e-05,0.2411382496356964,-21.82431411743164,-2.4571692943573,22.63983917236328,0.7002664804458618,2.2753188610076904,-0.05396880581974983,,,,,,,,,
1739402171.4143062,0.5256653930384119,0.09603842345530554,-0.953340352804702,-2.0690763154233793,0.13773800048750337,2.137592002921265,-1.2753882527747198,0.0005722324885119914,9.205235508859895e-06,0.00041253407815796365,0.0003489543919763354,0.0009124344724116423,0.0009398576197451939,8.075111453055301e-06,0.1935308277606964,-21.84811782836914,-2.4333655834198,22.59223175048828,0.6938577890396118,2.2753188610076904,-0.027418512850999832,,,,,,,,,
1739402171.4243262,0.5256637325038455,0.0960308642968096,-0.9533385438076478,-2.069079651970247,0.13774098430891527,2.137591258829058,-1.2753845259644954,-0.0009278046208304931,-0.0008792907546942716,0.0014241395852631835,-0.0017591844862694086,-0.0003057339522124446,-0.0006425626694669861,0.001008936745178894,0.2173345386981964,-21.77273941040039,-2.4571692943573,22.63983917236328,0.6938577890396118,2.2817275524139404,-0.04756011441349983,,,,,,,,,
1739402171.4352708,0.5256636631683237,0.09603671344894674,-0.9533441872907343,-2.069070156810366,0.1377376803864463,2.137587263413414,-1.2753860742233538,-0.0011599778567369674,-8.35605989153335e-05,-0.0018149952808480308,0.0010795149386431573,-0.00023150882204174604,-0.001464504484604927,0.0011872841850658453,0.2173345386981964,-21.82431411743164,-2.38179087638855,22.54065704345703,0.6938577890396118,2.2881362438201904,-0.06037749722599983,,,,,,,,,
1739402171.4462907,0.5256636586744309,0.0960325780473658,-0.9533441889501761,-2.069077213386669,0.13774059534112057,2.1375904216705552,-1.2753926646156675,0.0002690620369362596,-0.00016779671566609207,0.0003361385264950854,-0.002042593759022119,0.0013068774916923642,-0.0008902191745308992,0.000475960958874093,0.2173345386981964,-21.79654312133789,-2.38179087638855,22.63983917236328,0.7002664804458618,2.2615859508514404,-0.013685601763427258,,,,,,,,,
1739402171.45637,0.5256636632038664,0.09603097107217269,-0.953344189378194,-2.069073330462406,0.13773856599411632,2.1375888331427846,-1.2753905821701728,-0.0001399433255297901,0.00011925330323287045,0.000856118650645406,0.0008470538957839014,-0.001816098164192606,0.0008223425895212793,-0.0015859721490974743,0.2173345386981964,-21.77273941040039,-2.38179087638855,22.59223175048828,0.7130838632583618,2.2753188610076904,-0.0072769103571772575,,,,,,,,,
1739402171.4663749,0.5256634131395126,0.09603087341356807,-0.9533484170539198,-2.0690715604860084,0.1377363332764108,2.1375884668662155,-1.2753896734857266,-0.001431231776341406,4.50914421581467e-05,-0.0013030094180052167,0.0007952619529925787,-0.00040518147836066364,0.0005265303345770879,-0.00019795006738545674,0.2173345386981964,-21.77273941040039,-2.35798716545105,22.56842803955078,0.7002664804458618,2.2753188610076904,-0.04023589566349983,,,,,,,,,
1739402171.477283,0.525664050899003,0.0960333267409853,-0.9533462949947908,-2.0690740192254693,0.13774018562483892,2.1375887140036296,-1.2753924209986853,-3.185819632438541e-05,0.0018899664584594558,0.0006431681533541507,0.0007835308430737963,6.578114619393825e-05,0.00028088963499629013,-0.0020170157655161314,0.2411382496356964,-21.79654312133789,-2.38179087638855,22.59223175048828,0.7002664804458618,2.2753188610076904,-0.020094294100999832,,,,,,,,,
1739402171.488329,0.5256650454191405,0.09603494986960197,-0.9533428896354053,-2.0690695476841823,0.13773947648065274,2.137592710650696,-1.275386828195484,-0.0007652237958333418,0.000940079298452597,0.00011336541941051666,0.001133481986558007,0.001053335272703095,0.000592323346105156,0.0017818210525879592,0.2173345386981964,-21.79654312133789,-2.4095618724823,22.54065704345703,0.7002664804458618,2.2679946422576904,-0.05396880581974983,,,,,,,,,
1739402171.4992557,0.5256620190441637,0.09603062780048234,-0.9533460765961262,-2.069069570033416,0.1377375438855642,2.1375918575673634,-1.275389566939888,-0.0006782386300694275,-0.000746619821356462,-0.00133909629518122,0.0011943626371678845,-0.001321898153762448,0.0010668205649498532,-0.0012129571959696684,0.2411382496356964,-21.77273941040039,-2.35798716545105,22.54065704345703,0.6865335702896118,2.2753188610076904,-0.04023589566349983,,,,,,,,,
1739402171.5093286,0.5256670795789468,0.09602991756940883,-0.9533459452438601,-2.0690716243135907,0.13773734198933577,2.1375912457468984,-1.2753861882703144,0.0001957905455835557,-0.001348992633431336,-0.0005616801382737241,0.0014277818210880976,0.00044311808927991977,0.0008758638764220206,0.0004131586109477512,0.1697271168231964,-21.77273941040039,-2.35798716545105,22.56842803955078,0.7002664804458618,2.2817275524139404,-0.06037749722599983,,,,,,,,,
1739402171.5204062,0.525663657390315,0.09603386565797085,-0.9533421091601997,-2.069075114537779,0.13773873419395055,2.137591166303439,-1.2753941823769468,-0.000618547308003307,-0.00040846000706944467,0.0004269535514655227,-0.0005797280118801331,-3.663859957495492e-05,-0.0001581201931896485,-0.0025970164211288494,0.2173345386981964,-21.82431411743164,-2.4095618724823,22.61603546142578,0.7066751718521118,2.2551772594451904,-0.0008682189509272575,,,,,,,,,
1739402171.531364,0.5256653670221311,0.09603852847293243,-0.953344893849396,-2.0690701567935235,0.13773935589528769,2.1375888179611864,-1.2753911836916272,0.0005705070029136841,0.0014722518725651152,-0.0007345403670852538,0.0024244053093644465,-0.00073991153854932,-1.233180448932352e-05,-0.0008058918545795573,0.1935308277606964,-21.84811782836914,-2.38179087638855,22.54065704345703,0.7002664804458618,2.2753188610076904,-0.027418512850999832,,,,,,,,,
1739402171.5413775,0.5256636545013836,0.09603480864656984,-0.9533404554978515,-2.0690733333067013,0.13773932433738592,2.137592527666631,-1.2753865302985616,-0.0006880523409726648,-0.001047890364240206,0.0008737873206964983,0.00024288577991544777,-9.25537154775702e-05,8.70175061493407e-05,0.0005129316183228722,0.2173345386981964,-21.82431411743164,-2.4333655834198,22.59223175048828,0.7066751718521118,2.2679946422576904,-0.06678618490695953,,,,,,,,,
1739402171.5523255,0.5256622889733784,0.09603457790652717,-0.9533413937599846,-2.069077618592527,0.13773876931265644,2.137588832728268,-1.2753832512549181,-0.0001293281753962424,3.138643881655131e-05,0.00034024416569408423,-0.0005263899203178445,0.0001486791214509722,0.0008814894952911326,0.0014420746338095636,0.2411382496356964,-21.82431411743164,-2.4095618724823,22.63983917236328,0.7066751718521118,2.2753188610076904,-0.06678618490695953,,,,,,,,,
1739402171.5642843,0.5256638099968799,0.09603466579959108,-0.9533421874784426,-2.0690772274462197,0.13773444596215997,2.1375920164180187,-1.2753926501940718,-0.00017822269099985428,-0.00020818577493049933,0.00011691083244943389,-0.0012794110498472815,-0.0014944350290855485,0.0011029002216693753,-0.001865885889081157,0.2173345386981964,-21.82431411743164,-2.4095618724823,22.63983917236328,0.7130838632583618,2.2753188610076904,-0.013685601763427258,,,,,,,,,
1739402171.574311,0.5256632212557807,0.09603184028647387,-0.9533403176534541,-2.06907514715258,0.13774047538697112,2.13758893054434,-1.2753851208471332,0.00022749083081453154,0.0003420508947524891,0.00151112942598402,0.0003802103112747707,0.0016024293399023275,-0.0009084094901349793,0.0006365443067637394,0.1935308277606964,-21.77273941040039,-2.4333655834198,22.61603546142578,0.7002664804458618,2.2615859508514404,-0.08051909506320953,,,,,,,,,
1739402171.5843337,0.5256636544650449,0.09603555040236868,-0.9533421091601991,-2.069078106603811,0.13773588503637035,2.1375912190196185,-1.2753838193438245,0.0004116535055189682,0.00039587092314357383,0.0004866337444857683,-0.00031745719498131955,0.0008244637893604202,0.0010199247130541428,-0.00019061016988330802,0.2173345386981964,-21.82431411743164,-2.4095618724823,22.61603546142578,0.7130838632583618,2.2817275524139404,-0.05396880581974983,,,,,,,,,
1739402171.594364,0.5256653405311598,0.09603257708411433,-0.9533414068913721,-2.069073367460196,0.1377398010148921,2.1375915062916673,-1.2753868819919472,-0.00028407128194625464,-0.000861476229716475,0.00041656048228314404,8.883047265412155e-06,-0.0010028858446009838,-0.00044131009052949215,0.0012074035619180404,0.1935308277606964,-21.79654312133789,-2.38179087638855,22.59223175048828,0.7066751718521118,2.2753188610076904,-0.06678618490695953,,,,,,,,,
1739402171.605333,0.5256646673268456,0.09603257675723435,-0.953342447160054,-2.069071862509593,0.13774055574965638,2.1375889313164986,-1.2753858417526915,-0.00033143573493081416,-0.0013861069993577736,0.0007570848562593767,0.0007241688927928943,0.0005145121536157106,-0.0008825630505230374,9.593507909171626e-05,0.2173345386981964,-21.79654312133789,-2.4095618724823,22.56842803955078,0.7002664804458618,2.2881362438201904,-0.06678618490695953,,,,,,,,,
1739402171.6173651,0.5256674175535037,0.09603119820730838,-0.95334211782905,-2.0690717862968153,0.13773982750462044,2.1375894240800752,-1.275387619222933,0.0025979459379381654,-0.00041243696152107627,0.0006845567960340308,-0.0012208576419258368,0.00034409833476874954,5.4608687510631585e-06,-0.0008913993152291086,0.1697271168231964,-21.77273941040039,-2.4095618724823,22.56842803955078,0.7066751718521118,2.2881362438201904,-0.03382720425724983,,,,,,,,,
1739402171.6282895,0.525667157544622,0.09602890476965559,-0.953344756722507,-2.0690746207184674,0.13773984043381207,2.137592015841777,-1.2753883979519995,0.0004171106915116129,-0.0010350613814780292,-0.0005005396152530761,-0.0006504472736215616,0.0002962563367542113,0.0018831949846219846,-0.0007600454620292796,0.1697271168231964,-21.74496841430664,-2.4095618724823,22.56842803955078,0.7066751718521118,2.2753188610076904,-0.05396880581974983,,,,,,,,,
1739402171.6383452,0.5256627520821631,0.09603086418892746,-0.953344293959538,-2.06907180387851,0.13773906691949211,2.137585790051806,-1.2753841782115705,0.0004109706566819975,-0.00025819718222277045,0.00015901147375491174,0.00019512316228582435,-0.0005951434244133316,-0.002794967288873567,0.00019382894774203261,0.2689092457294464,-21.77273941040039,-2.38179087638855,22.56842803955078,0.7130838632583618,2.2881362438201904,-0.05396880581974983,,,,,,,,,
1739402171.6492648,0.5256663030516472,0.09603258061542257,-0.953342082705654,-2.0690733559718657,0.13773740100859475,2.1375922271697037,-1.275387004051148,0.0003421171580820715,-0.0002994069119084336,0.0012292976162948817,-0.00013954849783815663,-0.00012961600682069672,0.0011453723826603133,0.0003856000466223809,0.1935308277606964,-21.79654312133789,-2.4095618724823,22.59223175048828,0.7002664804458618,2.2615859508514404,-0.05396880581974983,,,,,,,,,
1739402171.6593008,0.5256599440556512,0.09603100208059263,-0.9533451509638171,-2.0690755076128298,0.1377352157627472,2.1375928692811788,-1.2753893387715038,-0.0013907897329400202,-0.0012375832289156596,-0.00014545420076471694,-0.0008390887502132858,7.178402754368584e-05,0.0014547584259106175,-0.00036547359469691286,0.2689092457294464,-21.74496841430664,-2.38179087638855,22.59223175048828,0.7066751718521118,2.2679946422576904,-0.0072769103571772575,,,,,,,,,
1739402171.6693723,0.5256653670221151,0.0960355239451874,-0.9533460496446552,-2.0690715637189774,0.13773905907081727,2.137593594825352,-1.2753854489471144,0.00041950252562210995,0.001464836439286373,-0.0005527112362128425,0.0007876442038938511,0.0006366481449304674,0.00021135460811667873,0.0009074347166789211,0.1935308277606964,-21.82431411743164,-2.35798716545105,22.54065704345703,0.7002664804458618,2.2615859508514404,-0.06678618490695953,,,,,,,,,
1739402171.6803663,0.5256656876934684,0.09603257671436509,-0.9533459716633295,-2.069073360076417,0.13773541162360575,2.137590501169414,-1.275382617339401,0.0017345777674747957,-0.0016780804194602861,-0.0009486936465498607,-0.0001140739137664199,-0.0013340214463938948,-0.00017617092196824574,0.0020846404993686922,0.1935308277606964,-21.79654312133789,-2.35798716545105,22.59223175048828,0.7130838632583618,2.2881362438201904,-0.06678618490695953,,,,,,,,,
1739402171.6913805,0.5256612703174027,0.09603458246496312,-0.9533429151721297,-2.0690778691417435,0.13774059977056344,2.1375900422081915,-1.2753845784359306,-0.00020562054018397698,0.00020268884877340954,-0.0009356471324799732,-0.0007377602410317044,0.0011495621089401909,-0.00010058631222189478,0.0008447897284165155,0.2173345386981964,-21.82431411743164,-2.4095618724823,22.61603546142578,0.7002664804458618,2.2817275524139404,-0.04756011441349983,,,,,,,,,
1739402171.7023058,0.5256655656908052,0.09603769634673286,-0.9533403625816856,-2.0690755073130194,0.1377378948613928,2.1375901479500916,-1.2753874843293447,-0.0004561977355264995,0.0013920578813615741,0.0009915302842671378,-0.001368143944361981,-0.00031761324471992917,0.0001835635955149676,0.001272798919975636,0.1935308277606964,-21.82431411743164,-2.4333655834198,22.59223175048828,0.7130838632583618,2.2881362438201904,-0.06037749722599983,,,,,,,,,
1739402171.712319,0.5256690800489457,0.09603086565179163,-0.95334210916096,-2.0690771795738283,0.1377397850683098,2.1375919641560355,-1.2753930558060695,0.0011170337564072293,-0.0015199561616750085,0.0013424954392578636,3.3029630271168764e-05,0.0011251566490436753,0.00039312187338658356,-0.0029025053122418223,0.1419561207294464,-21.77273941040039,-2.4095618724823,22.61603546142578,0.7066751718521118,2.2753188610076904,-0.013685601763427258,,,,,,,,,
1739402171.7223275,0.525663654501427,0.09603682865208123,-0.9533459748371468,-2.0690779051842414,0.1377378032475166,2.1375908376596904,-1.2753937650153433,-0.00014123460689323912,0.0004214019394494007,-0.0007633622235171633,-0.0003514731554129522,0.00234443182652399,-0.0006525581885197736,-0.00198507144848153,0.2173345386981964,-21.82431411743164,-2.35798716545105,22.61603546142578,0.6938577890396118,2.2753188610076904,-0.0072769103571772575,,,,,,,,,
1739402171.7333465,0.5256636541743348,0.09603913835009331,-0.9533458102286922,-2.0690796322697973,0.1377343453112448,2.137591258809784,-1.2753896856899358,8.981653517031145e-05,1.6962742232123885e-05,-0.0005323303254347526,-0.002926874519896403,-0.0018703663365187875,-0.0004414396698598645,-0.0005061891097121018,0.2173345386981964,-21.84811782836914,-2.35798716545105,22.66364288330078,0.7130838632583618,2.2817275524139404,-0.03382720425724983,,,,,,,,,
1739402171.7443385,0.525663654501383,0.09603089057400686,-0.9533480517377675,-2.069073359856424,0.13773580667927585,2.137591430128857,-1.275383716175659,-0.0005923927445477133,-0.001089391838044585,-0.0008109216528492194,0.000797659861945748,-0.0002266408204996042,0.00012253523899001967,0.0008480084339576367,0.2173345386981964,-21.77273941040039,-2.3302161693573,22.59223175048828,0.7130838632583618,2.2679946422576904,-0.06678618490695953,,,,,,,,,
1739402171.754384,0.5256636545013836,0.09603355624333688,-0.9533441929091152,-2.06907333056609,0.13773911058054422,2.1375874053193353,-1.27538992269171,-0.0005399333311657227,-0.00041737833401076115,0.00113499995053378,0.000327011236077751,0.00048600911189234855,-0.0012505310632523322,0.001084007596802212,0.2173345386981964,-21.79654312133789,-2.38179087638855,22.59223175048828,0.7130838632583618,2.2753188610076904,-0.04023589566349983,,,,,,,,,
1739402171.7644217,0.5256636506837954,0.09602989473660942,-0.953338543913375,-2.0690764260704237,0.13773905963715236,2.137590500607062,-1.2753930551610149,-0.0015053924397256191,-5.662014741879783e-05,0.0014441590793983214,-0.0010549977451387868,-0.00016921425526544777,0.0007272043878855034,-0.002410914341002563,0.2173345386981964,-21.74496841430664,-2.4571692943573,22.59223175048828,0.7002664804458618,2.2881362438201904,-0.013685601763427258,,,,,,,,,
1739402171.7752924,0.5256636545370279,0.09603192771591484,-0.9533441918391359,-2.0690761110470315,0.13773947436627756,2.1375885895148268,-1.2753858288854159,-0.0009227636596480608,0.000972204386695494,0.0006920085765681364,-0.00024005663724555458,0.00032138864749217786,-0.00045981154773910886,0.0004314723581884272,0.2173345386981964,-21.77273941040039,-2.38179087638855,22.59223175048828,0.7002664804458618,2.2679946422576904,-0.06678618490695953,,,,,,,,,
1739402171.7862659,0.5256619419806526,0.09603268222442017,-0.9533444229536407,-2.0690746387200534,0.1377355682362315,2.137591245669727,-1.2753845777542023,-0.0016116498822411032,0.001123882674609042,-0.0011299664318900676,-0.001272799225537456,-0.0006824026334260204,-0.0006896494522892013,0.0010887506501320878,0.2411382496356964,-21.79654312133789,-2.38179087638855,22.56842803955078,0.7130838632583618,2.2817275524139404,-0.04756011441349983,,,,,,,,,
1739402171.7963026,0.5256619419806524,0.09603110248145545,-0.9533441980489502,-2.0690751131899776,0.13773932283626872,2.1375936400469144,-1.2753887837470115,-0.0003473113103916602,-0.0014794005982174208,-0.0009456094147092827,0.00012199296702537863,0.00088847684922375,0.0014806070884428309,-0.00017627331259619135,0.2411382496356964,-21.77273941040039,-2.38179087638855,22.61603546142578,0.7066751718521118,2.2615859508514404,-0.013685601763427258,,,,,,,,,
1739402171.8063252,0.5256636554643607,0.0960308734157935,-0.9533441976171516,-2.069076315108012,0.1377394867021349,2.1375928823870582,-1.275389879064708,0.00035647833534663574,-0.0018565737437946993,-6.516387252202054e-05,-0.00047324280174109004,0.0009476873983154627,0.000405384712442874,0.0009538388248128003,0.2173345386981964,-21.77273941040039,-2.38179087638855,22.59223175048828,0.7066751718521118,2.2679946422576904,-0.04023589566349983,,,,,,,,,
1739402171.817328,0.5256644372563659,0.09603608701231552,-0.9533421117222799,-2.0690754307848898,0.13773832680905532,2.1375928823870582,-1.2753874995523675,0.0008878365150845127,0.00102077177459321,0.0015816825180732098,-0.00031986713779563725,-0.00016571389737619327,0.0007326769098523621,-0.0009827866598600102,0.2173345386981964,-21.84811782836914,-2.4095618724823,22.59223175048828,0.7194925546646118,2.2679946422576904,-0.03382720425724983,,,,,,,,,
1739402171.828291,0.5256638350367429,0.09603542448534898,-0.9533459716272378,-2.069071649974649,0.137738207687572,2.1375912413871445,-1.2753857624508902,3.0602527515830784e-05,-0.00019468930433947653,-0.0006150141190102086,-0.0007394720294037623,0.0011254019610034442,-0.00019313692098504634,0.0007368658795694346,0.2173345386981964,-21.79654312133789,-2.35798716545105,22.56842803955078,0.7194925546646118,2.2817275524139404,-0.04023589566349983,,,,,,,,,
1739402171.8393269,0.5256625070721975,0.09603371233950972,-0.9533441892711966,-2.069078135894003,0.13773984196668607,2.137592016489531,-1.2753848161238845,-7.410444851883695e-05,-0.0007977843906833682,-0.0005296808119054994,-0.0011637986959105893,0.002745350033240142,7.671075592573478e-05,0.0028110064875236157,0.1935308277606964,-21.77273941040039,-2.38179087638855,22.61603546142578,0.7066751718521118,2.2753188610076904,-0.04756011441349983,,,,,,,,,
1739402171.8493547,0.5256619505222849,0.09603311831506166,-0.9533441133292544,-2.0690789876708666,0.13773647222032714,2.137589845817403,-1.2753882468359323,-0.00016970757748632737,-3.815090248635822e-05,-0.00014677534247948176,-0.0008854218729599436,-0.0008882403036736346,-0.0004958219284497233,-0.0007264561325244568,0.2411382496356964,-21.77273941040039,-2.38179087638855,22.63983917236328,0.7066751718521118,2.2817275524139404,-0.05396880581974983,,,,,,,,,
1739402171.8602695,0.5256619418716844,0.09603087595641908,-0.9533403524832827,-2.0690733561222,0.13773980067087202,2.13759363567851,-1.275384436743981,-0.0009746782187539793,-0.002223474913765551,0.0007364419187610055,0.0005909807466170995,0.0008974592205436979,0.0007767672627188839,0.0005675228916352389,0.2411382496356964,-21.77273941040039,-2.4333655834198,22.59223175048828,0.7066751718521118,2.2615859508514404,-0.06037749722599983,,,,,,,,,
1739402171.8703303,0.5256674730528951,0.09604014865452465,-0.9533421207165135,-2.0690757114813296,0.13774059979059464,2.1375880799152855,-1.2753889764298718,0.0011667024317060003,0.0018701842997847643,0.0006224390005334085,0.0003351808409561377,0.0018548249532013917,-0.0006974880978885935,0.00014139465808129975,0.1935308277606964,-21.87192153930664,-2.4095618724823,22.59223175048828,0.7002664804458618,2.2817275524139404,-0.04023589566349983,,,,,,,,,
1739402171.8803377,0.5256636545370494,0.09603745903212173,-0.9533452292061475,-2.069077496814627,0.1377394940392859,2.1375961809474737,-1.275393591418303,-0.0005587485690192136,-6.484181731602047e-05,-1.834152659552365e-05,-0.0008894856568013676,0.0004027526230930339,0.0016879197056603593,-0.0009578612656817146,0.2173345386981964,-21.82431411743164,-2.4095618724823,22.61603546142578,0.7002664804458618,2.2679946422576904,-0.0008682189509272575,,,,,,,,,
1739402171.890341,0.5256690774836996,0.09603542746513836,-0.9533459704788638,-2.069074030603457,0.13774054289232332,2.1375894415874015,-1.275387619210232,0.0007325068603514488,-0.00016330468025759057,-0.0013375728009632545,-0.0011297868352904926,0.0016204649675407039,-0.0006815331147742446,-4.231482559266921e-05,0.1419561207294464,-21.79654312133789,-2.35798716545105,22.59223175048828,0.7002664804458618,2.2881362438201904,-0.03382720425724983,,,,,,,,,
1739402171.900348,0.5256674465619436,0.09603534365826606,-0.9533421091603292,-2.0690739244066303,0.1377390843076615,2.1375928823691144,-1.275383683230613,3.4363204606868364e-05,-0.00016402135153649477,-0.00019404834478538882,-1.8915764692753988e-05,0.002257663112074194,0.00038206671145523205,-5.713413195777878e-05,0.1935308277606964,-21.82431411743164,-2.4095618724823,22.56842803955078,0.7130838632583618,2.2679946422576904,-0.06678618490695953,,,,,,,,,
1739402171.9113436,0.5256646527767594,0.09603925315766737,-0.9533421091603486,-2.0690740286868903,0.13773816819642787,2.137590956851697,-1.2753882424817173,-0.0003102783802771059,0.0008488687652109738,0.0004901510580772834,0.00021563568070196131,-0.0008358920839685112,0.0002171787218049465,-9.368637992870216e-05,0.1935308277606964,-21.84811782836914,-2.4095618724823,22.59223175048828,0.7194925546646118,2.2753188610076904,-0.05396880581974983,,,,,,,,,
1739402171.922256,0.5256653670180829,0.0960334058626061,-0.9533441890928674,-2.069076165027506,0.1377386103598391,2.137591258823766,-1.2753868970292224,0.0003424251355673059,0.00013037446644139971,-0.001142662273250661,0.0005879297754429259,-0.000201103905715354,0.0006729599369761239,0.00033190382808299577,0.1935308277606964,-21.79654312133789,-2.38179087638855,22.59223175048828,0.7130838632583618,2.2817275524139404,-0.06678618490695953,,,,,,,,,
1739402171.9333432,0.5256645905150644,0.09603353021415657,-0.9533462949809888,-2.0690735630362798,0.13773931994733551,2.1375912588297474,-1.2753876064534333,0.0006446310190684739,0.0005827868786583332,-0.00039071890530565224,0.000267655892850873,0.0013460831234904892,0.00013780146567896764,-0.0006122966053999583,0.2173345386981964,-21.79654312133789,-2.38179087638855,22.59223175048828,0.7130838632583618,2.2817275524139404,-0.06037749722599983,,,,,,,,,
1739402171.9443848,0.5256619419824137,0.09603353508492933,-0.9533441889660557,-2.069077843912079,0.13773815866921527,2.1375928823870582,-1.275389121719733,-0.00015988667537281958,6.715506218549525e-05,0.0009653987379058724,-0.0016103115103625572,0.0006072092794623001,0.0004971653631048601,-0.0006580658813241259,0.2411382496356964,-21.79654312133789,-2.38179087638855,22.63983917236328,0.6938577890396118,2.2679946422576904,-0.04756011441349983,,,,,,,,,
1739402171.955373,0.5256619419806524,0.09603205822898413,-0.9533441902341737,-2.069074048834723,0.1377405558941915,2.1375904619238124,-1.275386581969465,-0.00040287318168987874,0.0008978895761319523,-9.939833051700599e-05,0.0004251420353121129,0.0011961350364296736,-0.0008755459077479663,0.0010775243749119362,0.2411382496356964,-21.74496841430664,-2.38179087638855,22.59223175048828,0.7002664804458618,2.2881362438201904,-0.06037749722599983,,,,,,,,,
1739402171.9664283,0.5256637585029037,0.09603542786835617,-0.9533459716272306,-2.0690723480397373,0.13773647216590862,2.137591258829526,-1.275392821781361,-0.00025937862810729057,0.0009221810529027952,-0.0004839843813268807,0.0005128410318937038,-0.00044160588750594436,0.00039407021974975957,-0.0018037956309471808,0.2173345386981964,-21.79654312133789,-2.35798716545105,22.56842803955078,0.7066751718521118,2.2817275524139404,-0.013685601763427258,,,,,,,,,
1739402171.9773128,0.52566322125549,0.09603375137154012,-0.953345579725249,-2.069074339834718,0.1377413513651252,2.137590501169669,-1.2753876578102676,-4.876279029328724e-05,0.0009600013634956618,-0.0004561048151244553,0.0006046565782145171,0.00020533162373595785,-0.00045116253199950555,0.0003748517781299814,0.1935308277606964,-21.77273941040039,-2.38179087638855,22.56842803955078,0.6938577890396118,2.2881362438201904,-0.06037749722599983,,,,,,,,,
1739402171.9873285,0.5256653315554888,0.09603329174059291,-0.9533448901098689,-2.0690741340143224,0.13774059832855878,2.137592016489826,-1.2753843621293373,-0.0002594510574201068,0.0003715814525216778,-0.0008414230881781518,0.0005342626805374899,0.0021935368802539837,-5.687928217005649e-06,0.00028377439991906833,0.1935308277606964,-21.79654312133789,-2.38179087638855,22.59223175048828,0.7002664804458618,2.2753188610076904,-0.06037749722599983,,,,,,,,,
1739402171.9982677,0.5256634160826043,0.09603179443599956,-0.9533441889541623,-2.069073586613004,0.13774024437099933,2.1375912588297474,-1.2753914988809694,-0.0008406914868625661,-0.0009450148754374164,0.0012577757050080424,3.390456844154955e-05,0.0002876479194837831,-0.00012060694175143172,-0.0009123135497868729,0.2173345386981964,-21.74496841430664,-2.38179087638855,22.59223175048828,0.7002664804458618,2.2817275524139404,-0.027418512850999832,,,,,,,,,
1739402172.0083563,0.5256635751314837,0.09603776526495018,-0.95334313463137,-2.069077905048605,0.13773948459221522,2.1375913829629387,-1.275393179359839,-8.27584695770456e-05,0.00027677816429995226,-0.00016958219830765636,-0.0011631859867291478,-0.0007139073629530339,0.0007001006228088816,-0.002016403178173162,0.2173345386981964,-21.82431411743164,-2.4333655834198,22.61603546142578,0.7066751718521118,2.2817275524139404,-0.013685601763427258,,,,,,,,,
1739402172.019352,0.5256636632747264,0.09603861656705251,-0.9533420865371557,-2.069075477184356,0.1377375442603635,2.1375912583459313,-1.2753909956063176,-2.6513271564820092e-05,-7.803709756152991e-05,0.00017697310537774353,0.0006140167287497487,-0.00022492564900907912,-0.00048071458183771313,-0.0004934464410199996,0.2173345386981964,-21.84811782836914,-2.4095618724823,22.59223175048828,0.7130838632583618,2.2817275524139404,-0.020094294100999832,,,,,,,,,
1739402172.0303242,0.5256653670221644,0.09603300310902334,-0.9533424299385721,-2.069075728534544,0.13773877391147632,2.1375920164898234,-1.2753873022227955,-0.00020020373916084005,-0.0016639264357520144,-5.782104198845263e-05,0.00060201256176195,-0.00013081388837110316,0.0001581117461146519,-0.001412885147735124,0.1935308277606964,-21.77273941040039,-2.4095618724823,22.59223175048828,0.7066751718521118,2.2753188610076904,-0.027418512850999832,,,,,,,,,
1739402172.0403337,0.5256636545013836,0.0960374618532523,-0.9533462949864187,-2.0690810607073287,0.13774221699243241,2.1375928823870582,-1.2753876590322961,-0.00036315458033535386,0.0010549217459945356,-0.0011801250311940436,-0.0015171270539418352,0.0019339019482099034,0.0005425053226644972,2.369445169029692e-05,0.2173345386981964,-21.82431411743164,-2.38179087638855,22.66364288330078,0.6865335702896118,2.2679946422576904,-0.06037749722599983,0,0,0,0.000,0,0
1739402172.0512974,0.5256671839723559,0.0960412024625874,-0.9533421091722373,-2.0690793055075463,0.1377364809961018,2.1375928823870582,-1.2753920278050708,0.0015821688672227833,0.002230336373661261,0.0005061626811265963,-0.0002555483966578014,-0.0010027170875398965,0.0009822450220946933,-0.0001778655500229091,0.1697271168231964,-21.87192153930664,-2.4095618724823,22.63983917236328,0.7066751718521118,2.2679946422576904,0.0064559997990727425,0,0,0,0.000,0,0
1739402172.062289,0.5256670785634681,0.09603777839949945,-0.9533420427469275,-2.0690742530536124,0.1377387751633697,2.137590501169669,-1.2753833037074258,0.0005457675842084535,0.00177952722122313,0.0001320648248884388,0.0013369353597700343,0.0003863366601250524,-0.0008073283006666771,0.0015137866897159344,0.1697271168231964,-21.82431411743164,-2.38179087638855,22.59223175048828,0.7066751718521118,2.2881362438201904,-0.08692778646945953,0,0,0,0.000,0,0
1739402172.0722961,0.525661944869578,0.09603135790802847,-0.9533440285206498,-2.069075737345839,0.13774135598271714,2.1375923873631715,-1.2753919494350858,-0.001084640298933688,-0.00043192269666316526,-0.00021304072038583633,0.00013916453089162395,0.0016942822448485725,0.0003733681945723821,-0.003244205826311673,0.2411382496356964,-21.74496841430664,-2.38179087638855,22.59223175048828,0.6938577890396118,2.2753188610076904,-0.013685601763427258,0,0,0,0.000,0,0
1739402172.0823777,0.5256637334655496,0.09603135804065127,-0.9533421091576317,-2.0690764298904134,0.13773947941291168,2.137592016496107,-1.2753869577186085,-0.00010813039768690948,-0.0009600092074671378,0.0007135633090938589,-1.5522060462806275e-05,-5.089807158995495e-05,0.00022204159362786884,3.490140312466586e-05,0.2173345386981964,-21.74496841430664,-2.4095618724823,22.59223175048828,0.7002664804458618,2.2753188610076904,-0.027418512850999832,0,0,0,0.000,0,0
1739402172.092379,0.5256634940852819,0.09603206965948696,-0.9533462949809863,-2.0690764299021414,0.13774007127356655,2.1375888375754384,-1.275386895552623,-0.00045306000659231825,0.00039175414222760027,-0.0010018623687373712,-0.0006400297609697776,0.0007345660512421112,-0.0009551341676073206,0.0001945444571898572,0.2173345386981964,-21.74496841430664,-2.38179087638855,22.59223175048828,0.7002664804458618,2.2753188610076904,-0.06678618490695953,0,0,0,0.000,0,0
1739402172.1033397,0.5256670805049174,0.09603285216560833,-0.9533441889977586,-2.069074392127054,0.13773553613098616,2.1375920164180457,-1.2753896284824495,-0.00012424645752146652,-0.000549171747307424,0.0005063679704451321,3.7970796854421265e-05,-0.0012169024356590966,0.00037254564550386705,-0.0009975296353209085,0.1697271168231964,-21.79654312133789,-2.38179087638855,22.56842803955078,0.7066751718521118,2.2753188610076904,-0.04023589566349983,0,0,0,0.000,0,0
1739402172.1142817,0.5256600223619373,0.09603311439412242,-0.9533480514170791,-2.0690764005066855,0.13773895259300176,2.137592882387058,-1.275384582764605,-0.001408888372370009,-0.0007744268242210107,-0.0008304963641856855,-0.0016150652521005103,0.0010237304911583055,0.0008208858138423767,0.0025286797577682906,0.2689092457294464,-21.77273941040039,-2.3302161693573,22.59223175048828,0.7130838632583618,2.2679946422576904,-0.04756011441349983,0,0,0,0.000,0,0
1739402172.1253161,0.52566365450271,0.09603577653609831,-0.9533430451740296,-2.0690695739691667,0.13773820817288362,2.137593626965185,-1.2753883774407895,1.571134084838333e-05,0.0009411285503803623,0.0005077566217777366,0.0025198408556404276,0.0008105672125787264,9.150007314979655e-06,0.0006791768244627691,0.2173345386981964,-21.79654312133789,-2.4095618724823,22.54065704345703,0.7194925546646118,2.2615859508514404,-0.05396880581974983,0,0,0,0.000,0,0
1739402172.1362603,0.5256597962134405,0.09603405815982682,-0.9533423431774187,-2.0690738554590062,0.1377421252889468,2.1375912457477706,-1.2753884119012222,-0.0012231325634359045,0.0008783038058473001,-1.4765973806910569e-05,0.0007160917042882591,-6.407027995824834e-05,-0.0006866803143990848,-9.136421988373278e-05,0.2411382496356964,-21.77273941040039,-2.4095618724823,22.56842803955078,0.7130838632583618,2.2817275524139404,-0.05396880581974983,0,0,0,0.000,0,0
1739402172.1473541,0.5256654018198386,0.09603570102814327,-0.9533480517393923,-2.069072273863811,0.13773917206007905,2.137593640047063,-1.2753840481300105,0.000379074044556593,0.00044185846598421947,-0.001540599153805939,0.001056912096124268,-0.00015806048705759943,0.0007760486725377498,0.002219887175837239,0.1935308277606964,-21.79654312133789,-2.3302161693573,22.56842803955078,0.7002664804458618,2.2615859508514404,-0.08051909506320953,0,0,0,0.000,0,0
1739402172.1582587,0.5256653670223113,0.09603777807353293,-0.9533413283552465,-2.069071866187874,0.13774222187791302,2.137592016998569,-1.2753833814605195,0.00021716003418073207,0.0011761209398158958,0.0008164367053867551,0.0004267198038816921,0.0018240376686503156,-0.00023940436126871143,-0.00022220391493929157,0.1935308277606964,-21.82431411743164,-2.38179087638855,22.56842803955078,0.6865335702896118,2.2753188610076904,-0.06037749722599983,0,0,0,0.000,0,0
1739402172.168304,0.5256638885048038,0.09603268256203096,-0.9533401920178262,-2.069076352065881,0.13774135745135022,2.137590501169678,-1.275389920573638,0.0006442700180834038,-0.0019130443252170822,0.000256419684511443,0.0006649700231359864,0.001844178144192168,-0.0007056299261069959,-0.0018979250361895522,0.2173345386981964,-21.79654312133789,-2.4333655834198,22.59223175048828,0.6938577890396118,2.2881362438201904,-0.04023589566349983,0,0,0,0.000,0,0
1739402172.1783423,0.525663666061071,0.09603776521715368,-0.9533403265880499,-2.0690736635039952,0.13773754567957025,2.1375893840520166,-1.2753942058015295,-0.00013853974942165242,-0.0005020000930765424,0.0010220521420873478,0.000746164389758479,0.0003132703586761338,-0.0012727327385295346,-0.000920731236688254,0.2173345386981964,-21.82431411743164,-2.4333655834198,22.59223175048828,0.6865335702896118,2.2615859508514404,-0.0008682189509272575,0,0,0,0.000,0,0
1739402172.190326,0.5256619155254302,0.09603404156954741,-0.9533441927657742,-2.069082049252416,0.13773445813043494,2.137593640023112,-1.2753854436925423,-0.00184232393832038,-0.00034337734987709297,0.00022562833789748518,-0.0024366844373026756,-0.0015049798562228561,0.00047705212685054325,0.002512923621583134,0.2411382496356964,-21.77273941040039,-2.38179087638855,22.63983917236328,0.7130838632583618,2.2615859508514404,-0.06678618490695953,0,0,0,0.000,0,0
1739402172.200353,0.5256615347344024,0.09603746194347747,-0.9533459716272449,-2.06907930650299,0.13773726030739158,2.137592016489826,-1.2753868883006756,-0.0007312782178644081,7.01252476992116e-05,-0.0005513648252523948,-0.0011326253363113813,-0.0006403854123210129,-0.00020899380113973586,0.0011168569403534321,0.2173345386981964,-21.82431411743164,-2.35798716545105,22.63983917236328,0.7194925546646118,2.2753188610076904,-0.06678618490695953,0,0,0,0.000,0,0
1739402172.212317,0.5256657605201994,0.0960370654767574,-0.9533421096240042,-2.0690736663358487,0.1377384210941011,2.137592016489826,-1.2753919612317866,-0.00031427136914141316,0.0007100751809206731,0.0007898848847555627,0.0004082485512386558,-0.00016273445242535436,9.015184802360111e-05,-0.001139201022270568,0.2173345386981964,-21.82431411743164,-2.4095618724823,22.59223175048828,0.7066751718521118,2.2753188610076904,-0.013685601763427258,0,0,0,0.000,0,0
1739402172.2223172,0.5256643565235328,0.09603127764161754,-0.9533421091603512,-2.069074646894586,0.13773936822947766,2.1375920121291756,-1.2753897321995804,-0.00013739593358649352,-0.0007769116068508049,-0.00045085407317475303,-0.0001251284903328808,0.0005988333397106973,0.00029030948469800747,-0.0015401880616385379,0.2173345386981964,-21.74496841430664,-2.4095618724823,22.56842803955078,0.7066751718521118,2.2753188610076904,-0.03382720425724983,0,0,0,0.000,0,0
1739402172.2332861,0.5256653679890548,0.09603205827335698,-0.9533421091603487,-2.0690752279317612,0.13773446384219007,2.1375905010081393,-1.2753868065641947,0.0003969880014117964,-0.0004905378167647286,0.0004985221989019551,0.0015963913559907572,-0.00048295950542342705,-0.0002100447491465552,-8.17796914620052e-06,0.1935308277606964,-21.74496841430664,-2.4095618724823,22.61603546142578,0.7130838632583618,2.2881362438201904,-0.027418512850999832,0,0,0,0.000,0,0
1739402172.2433662,0.525662505999182,0.09603554314367503,-0.9533487796682661,-2.069074647174577,0.137738326245266,2.1375928823870556,-1.2753907583325017,-0.0002182228698628904,0.00019895530269084101,-0.001131477366346801,-0.00030038259585353326,0.0013190231267620669,-0.000643184656030415,-0.0013729618663009114,0.1935308277606964,-21.79654312133789,-2.35798716545105,22.56842803955078,0.7194925546646118,2.2679946422576904,-0.03382720425724983,0,0,0,0.000,0,0
1739402172.2543283,0.525663680453312,0.0960320582738109,-0.9533442929992787,-2.0690746472251216,0.1377398021525206,2.1375928823870582,-1.2753879445214105,0.0002914788257417453,7.774654843553295e-05,0.0004771744891992311,-0.00020285333205085748,0.00030445107528942006,-9.237797057061727e-05,-0.0007558248198011884,0.2173345386981964,-21.74496841430664,-2.38179087638855,22.56842803955078,0.7066751718521118,2.2679946422576904,-0.05396880581974983,0,0,0,0.000,0,0
1739402172.2643452,0.5256671575441325,0.09603199089208272,-0.9533441979022385,-2.0690716281097417,0.1377358603663366,2.137590461132749,-1.2753900192366,0.00036951202715260244,0.00046087873883013397,0.000499652845726613,0.0019013118266656228,-0.000689278115256595,-6.13384101557378e-05,-0.002207656270304815,0.1697271168231964,-21.74496841430664,-2.38179087638855,22.56842803955078,0.7002664804458618,2.2615859508514404,-0.027418512850999832,0,0,0,0.000,0,0
1739402172.275311,0.5256599440402397,0.09603577915607764,-0.9533460064014446,-2.069075447704976,0.13773629506741378,2.1375929235234277,-1.275391065302253,-0.0011468532119206251,0.00030331621532564857,-0.002241471172721596,-0.0013779864180970883,-0.0007985756478226977,0.00035347327563024864,-7.993143977133091e-05,0.2689092457294464,-21.79654312133789,-2.35798716545105,22.61603546142578,0.7002664804458618,2.2679946422576904,-0.027418512850999832,0,0,0,0.000,0,0
1739402172.2862813,0.5256656010255351,0.0960357804586556,-0.9533451253920713,-2.069076429886534,0.13773832678676146,2.1375928823872905,-1.2753915362046027,7.243455672218568e-05,-0.0001656402195512964,0.0002179096787700917,-0.0008776523434066896,-1.272178667372268e-05,-0.00027718826697589727,0.0005820479163715906,0.1935308277606964,-21.79654312133789,-2.38179087638855,22.59223175048828,0.7194925546646118,2.2679946422576904,-0.027418512850999832,0,0,0,0.000,0,0
1739402172.2963073,0.5256674759457908,0.09603293268119036,-0.9533442005217874,-2.0690739584603377,0.13774135680131475,2.1375920164898266,-1.2753928636544456,0.0011382570805070218,0.0009438678145536198,8.494740757206214e-05,0.00024508151317105737,0.0008217458440549473,-0.00037014081115584267,-0.003216224415475244,0.1935308277606964,-21.79654312133789,-2.38179087638855,22.56842803955078,0.6938577890396118,2.2753188610076904,-0.0072769103571772575,0,0,0,0.000,0,0
1739402172.3072598,0.525663220939759,0.09603564255033578,-0.953338180716183,-2.0690757411334695,0.1377382692807506,2.1375928823870587,-1.2753906398783474,-0.00023085009451796664,0.00043917892628846203,0.002174400984363902,0.0005502383567736625,0.0002693826341339372,-5.0819919679579734e-05,-0.0028562936902131473,0.1935308277606964,-21.82431411743164,-2.4333655834198,22.59223175048828,0.7194925546646118,2.2679946422576904,-0.0072769103571772575,0,0,0,0.000,0,0
1739402172.317285,0.5256653220710682,0.09603574515623402,-0.9533421060715543,-2.0690763190330452,0.13773588520001787,2.1375936400471374,-1.2753837668013348,6.506799112555216e-06,-0.00025876379021157506,0.0015622461998307043,0.0002036948120116191,-0.0008903528396753458,0.00040756819291484705,0.000314397300463216,0.1935308277606964,-21.79654312133789,-2.4095618724823,22.59223175048828,0.7130838632583618,2.2615859508514404,-0.05396880581974983,0,0,0,0.000,0,0
1739402172.3273368,0.5256636554635994,0.09603769636417615,-0.9533421091602964,-2.0690764261210335,0.13773704390907476,2.137591258829748,-1.275387536442843,-0.001141918271885892,0.00027986298214411536,0.0007458298584082219,-0.0004907648509392995,-0.0003909034682846796,-0.00020911747581739925,-0.0009456578689967837,0.2173345386981964,-21.82431411743164,-2.4095618724823,22.59223175048828,0.7002664804458618,2.2817275524139404,-0.06037749722599983,0,0,0,0.000,0,0
1739402172.3383257,0.525663654501389,0.096037752030743,-0.9533421362307032,-2.0690751504575133,0.1377398011031955,2.1375920164898266,-1.2753896866238001,-9.417345237289085e-05,2.4936172899499873e-05,0.0006751268382887989,-3.7572297317936586e-06,-0.0011448405623130902,-0.00018724046595367712,0.0006602998589760249,0.2173345386981964,-21.82431411743164,-2.4095618724823,22.61603546142578,0.7066751718521118,2.2753188610076904,-0.04023589566349983,0,0,0,0.000,0,0
1739402172.3493161,0.5256653670221149,0.0960337252577153,-0.9533421092678045,-2.06907818596771,0.13773906691882604,2.1375936400471374,-1.2753893278070587,-0.00020067885439978837,-0.001462361893805097,0.00018468735462043594,0.0003072977645818925,0.0004028442890953197,0.000677894645117614,0.000696247976250793,0.1935308277606964,-21.77273941040039,-2.4095618724823,22.61603546142578,0.7130838632583618,2.2615859508514404,-0.0072769103571772575,0,0,0,0.000,0,0
1739402172.3593485,0.5256636541743348,0.09603206477750453,-0.9533441929091104,-2.0690743292796276,0.13774135105901966,2.1375928823870587,-1.275389961120704,-0.0014053059871766043,-0.0013732166212818756,-0.0006281012975272572,0.00023226020834171335,-0.0004345645645550336,5.9880431372513884e-05,-0.0014365382633502845,0.2173345386981964,-21.74496841430664,-2.38179087638855,22.59223175048828,0.6938577890396118,2.2679946422576904,-0.013685601763427258,0,0,0,0.000,0,0
1739402172.370349,0.525665367022113,0.09603577915649472,-0.9533424325141341,-2.0690746472132644,0.1377387758703147,2.137591258829748,-1.275386895073973,-0.0003913952583239257,0.0005889930941082299,0.0013848879700293203,-0.0001585587790371365,-0.0002237010835124522,-0.0001845081670852043,-0.0003551211991279909,0.1935308277606964,-21.79654312133789,-2.4333655834198,22.56842803955078,0.7066751718521118,2.2817275524139404,-0.06678618490695953,0,0,0,0.000,0,0
1739402172.3813345,0.5256619331503346,0.09603192913883722,-0.9533441889620928,-2.0690760973298454,0.1377394714285008,2.137591629703093,-1.2753864425904087,-0.0008135488827096224,0.00015250664901045948,-0.00023255215624253973,0.0005926928331800105,-0.00045905499517319946,0.00021468815662169282,0.0009142058645215849,0.2411382496356964,-21.77273941040039,-2.38179087638855,22.59223175048828,0.7066751718521118,2.2817275524139404,-0.06037749722599983,0,0,0,0.000,0,0
1739402172.3922956,0.5256619448695337,0.09602993122208846,-0.9533403264833297,-2.0690761453381232,0.13773616799016897,2.13759201649192,-1.2753909548462075,-0.0008340489334182871,-0.0009076025763670404,0.0013913240995509885,-0.0002306011033960498,2.1382702097376466e-05,-0.0003653370889884613,-0.001607109525986692,0.2411382496356964,-21.74496841430664,-2.4333655834198,22.61603546142578,0.7066751718521118,2.2753188610076904,-0.020094294100999832,0,0,0,0.000,0,0
1739402172.402386,0.525665367343156,0.09603192805367912,-0.9533459716272233,-2.0690763957490783,0.13774064929614768,2.1375920164898266,-1.2753861535409097,7.811678747751e-05,2.4042258149609868e-05,-0.0010359002276488084,-0.00040413890907420655,0.002507642085601039,-0.0003004913349517563,0.0013284932845570212,0.1935308277606964,-21.77273941040039,-2.35798716545105,22.59223175048828,0.7002664804458618,2.2753188610076904,-0.03382720425724983,0,0,0,0.000,0,0
1739402172.4132824,0.5256636545013854,0.09603406918879205,-0.953344214841568,-2.0690734452545514,0.1377398416439529,2.1375920164898266,-1.275393897533465,0.0003359314858617924,0.0004949874955467623,-0.0002165950824507275,0.0003485740835884139,0.0015239991317317371,0.0002413734379165095,-0.0019679659020730702,0.2173345386981964,-21.77273941040039,-2.38179087638855,22.59223175048828,0.7066751718521118,2.2753188610076904,-0.0072769103571772575,0,0,0,0.000,0,0
1739402172.4233167,0.5256637315213772,0.09603206902049582,-0.9533469817294079,-2.069075446026808,0.1377383263235085,2.1375897847177403,-1.2753881825014062,-0.0005083072007351423,0.00016637169636141326,-0.0004502656142027321,0.00024333396109246943,0.0017622567351725281,-0.00033982407519470795,-8.966031659400967e-06,0.2173345386981964,-21.74496841430664,-2.38179087638855,22.61603546142578,0.7194925546646118,2.2945449352264404,-0.020094294100999832,0,0,0,0.000,0,0
1739402172.4333491,0.5256636545026879,0.09603121907532698,-0.9533405605340458,-2.0690754565283647,0.1377396836790922,2.137593640047835,-1.275384818062609,-0.00041475878323849835,-0.0004704551126613381,0.0008620435752583391,-0.00022622703957081674,0.0006612858451875671,0.0008384213918787992,0.0006754229777350579,0.2173345386981964,-21.77273941040039,-2.4333655834198,22.61603546142578,0.7066751718521118,2.2615859508514404,-0.04756011441349983,0,0,0,0.000,0,0
1739402172.444256,0.5256636545370494,0.09603569728655288,-0.9533421871628099,-2.0690764298865836,0.13773726352011548,2.1375920164898266,-1.2753822573270643,-0.00020879336717288398,0.0004977126068122402,0.0006289476712690685,-1.818501333403119e-05,-0.0007892864238029508,-0.0009991044173378342,-0.00031948692282953226,0.2173345386981964,-21.79654312133789,-2.4095618724823,22.59223175048828,0.7002664804458618,2.2753188610076904,-0.06678618490695953,0,0,0,0.000,0,0
1739402172.4542856,0.5256670755092446,0.09603364028368744,-0.9533441804421998,-2.0690746217153153,0.13773735561051081,2.1375912589993287,-1.2753868410372913,0.0007999293895503917,-0.0003941149092754859,6.316193324317425e-05,0.001113326997328454,-0.0005557740188219956,-0.00025640812183455727,0.0026034434819330963,0.1697271168231964,-21.79654312133789,-2.38179087638855,22.56842803955078,0.7002664804458618,2.2817275524139404,-0.05396880581974983,0,0,0,0.000,0,0
1739402172.4652495,0.5256619331503118,0.09603375442912992,-0.953344188985822,-2.069075432185109,0.13774029111802233,2.1375905011696705,-1.2753859954473685,-0.001304794417641838,2.0224071520642004e-05,5.2687538332928194e-05,-8.010216651993898e-05,0.00136118242169805,-0.0005271405550192399,-0.0003127846468898365,0.2411382496356964,-21.77273941040039,-2.38179087638855,22.59223175048828,0.6938577890396118,2.2881362438201904,-0.04756011441349983,0,0,0,0.000,0,0
1739402172.4753096,0.5256660951396034,0.0960356424525907,-0.9533439057259394,-2.0690761236625845,0.13773908445308164,2.1375920164898266,-1.2753913163025663,0.000535197053227767,-6.666331128648298e-05,0.00017546575742794355,-7.234153617728933e-05,0.0015197032782074329,-0.00017209517926194962,-0.0018602342945030546,0.1935308277606964,-21.82431411743164,-2.38179087638855,22.59223175048828,0.7130838632583618,2.2753188610076904,-0.020094294100999832,0,0,0,0.000,0,0
1739402172.4862747,0.5256619419847627,0.09603359417074332,-0.9533441976153987,-2.069072342837511,0.1377401784830817,2.1375920164898266,-1.275389985204815,-0.0016686186686213449,-0.00037523066568180953,-0.000656833843839549,0.00197339422290116,0.0007777564414464479,-0.00018939973153048057,-0.0005032703474831628,0.2411382496356964,-21.74496841430664,-2.38179087638855,22.56842803955078,0.7066751718521118,2.2753188610076904,-0.013685601763427258,0,0,0,0.000,0,0
1739402172.4963765,0.5256647557678976,0.09603406698713969,-0.9533413943327479,-2.0690757325950635,0.1377400389425708,2.1375928823870587,-1.2753880622055613,-0.0002851939850665726,-9.489745947638254e-05,0.0012474394821342138,0.0011717694838579184,6.670629647536225e-05,2.2595930761909206e-06,-0.0006959590626678463,0.1935308277606964,-21.77273941040039,-2.4095618724823,22.59223175048828,0.7066751718521118,2.2679946422576904,-0.05396880581974983,0,0,0,0.000,0,0
1739402172.507317,0.5256653670186643,0.09603406826270403,-0.9533441919777633,-2.0690718893276268,0.1377397236588997,2.1375928823870587,-1.2753826623518214,0.00037931145198863566,-0.0005490396699277309,-0.0004445526863133697,0.0006475289216097359,0.001421093769273849,0.00017026961970874224,0.0006578485673233428,0.1935308277606964,-21.77273941040039,-2.38179087638855,22.56842803955078,0.7066751718521118,2.2679946422576904,-0.06678618490695953,0,0,0,0.000,0,0
1739402172.518315,0.5256639145051839,0.096037856994948,-0.9533423808268878,-2.0690817012482383,0.13774059832799307,2.1375920164898266,-1.2753896850931772,0.00035476029882837125,0.00029371168739844453,-0.0007248167905751574,-0.0002277945532604944,0.00013876707724531446,-0.0004540248768377733,0.00011599020021835677,0.2173345386981964,-21.82431411743164,-2.4095618724823,22.66364288330078,0.7002664804458618,2.2753188610076904,-0.04023589566349983,0,0,0,0.000,0,0
1739402172.5293517,0.5256636583547595,0.09603406793837543,-0.9533442018270974,-2.0690799949408105,0.13773907114490241,2.1375928823870587,-1.2753830423037322,0.00010951664353780569,5.098615506691226e-07,0.00020316653782641119,-0.000267639579744629,0.00021210552209703762,0.0005402585177474752,0.0030329109622250824,0.2173345386981964,-21.77273941040039,-2.38179087638855,22.63983917236328,0.7130838632583618,2.2679946422576904,-0.06037749722599983,0,0,0,0.000,0,0
1739402172.5412517,0.5256663642871304,0.096038204306141,-0.9533442152268693,-2.0690764285374175,0.13774008635218768,2.1375924114367786,-1.2753879015520009,0.0005397470701823218,-3.961742453168502e-05,0.001588655873050016,0.00039864772302567917,-0.0008005226656699388,-0.00122148414106142,0.00023503676972380308,0.1697271168231964,-21.82431411743164,-2.4095618724823,22.59223175048828,0.7002664804458618,2.2679946422576904,-0.027418512850999832,0,0,0,0.000,0,0
1739402172.5523615,0.5256670795388083,0.09603197286119308,-0.9533421120611686,-2.0690745451858876,0.13773860327653004,2.1375928823844,-1.2753924035375257,0.0008787274596158033,-0.0005648963462170854,0.0014618693736589796,0.0006427539731164058,-0.0011361094235677212,0.00025690764052658773,-0.002185862549232188,0.1697271168231964,-21.74496841430664,-2.4095618724823,22.56842803955078,0.7066751718521118,2.2679946422576904,-0.020094294100999832,0,0,0,0.000,0,0
1739402172.563315,0.525663654822376,0.09603206902029185,-0.9533424211649144,-2.0690782125789684,0.13774022665454225,2.1375927646494883,-1.2753878278357809,-0.0006778030150705464,-0.0003020183442902876,0.0005754035454069925,-0.0013749106857397003,0.0003365436609389293,0.00023611839787086674,-0.0009008444438349986,0.2173345386981964,-21.74496841430664,-2.4095618724823,22.61603546142578,0.7002664804458618,2.2679946422576904,-0.020094294100999832,0,0,0,0.000,0,0
1739402172.5743296,0.5256636318623403,0.09603406793792625,-0.9533490958474882,-2.069079130932206,0.13773690512779851,2.137590501169005,-1.275389883312361,-0.0006524009395252416,0.00021089892398329347,-0.0020739987706618625,-0.0016236697007651444,0.0004908133972770651,-0.00016007705067139574,-0.0007535772610599563,0.2173345386981964,-21.77273941040039,-2.35798716545105,22.61603546142578,0.7194925546646118,2.2881362438201904,-0.04023589566349983,0,0,0,0.000,0,0
1739402172.584348,0.5256652914007799,0.09603206967154401,-0.9533442188554013,-2.06907364385494,0.13773908428454876,2.137592016489826,-1.2753893663936497,0.00046120858014116043,-0.00035913464098679716,-0.0001150214931122576,3.697151192004697e-05,-0.00027993716780355655,-0.00015714555692589876,0.00045472595272111934,0.1935308277606964,-21.74496841430664,-2.38179087638855,22.56842803955078,0.7130838632583618,2.2753188610076904,-0.03382720425724983,0,0,0,0.000,0,0
1739402172.595314,0.5256670833934735,0.0960320699970732,-0.9533399633936431,-2.069074617604157,0.13774067893609512,2.1375920225947374,-1.275387645513615,0.0013880195254455387,-0.0009964032590785835,0.0013237162975691355,-0.00032248699539312597,0.0006999884794578626,0.00022605966640610993,0.0013011261508421063,0.1697271168231964,-21.74496841430664,-2.4095618724823,22.56842803955078,0.7002664804458618,2.2753188610076904,-0.06037749722599983,0,0,0,0.000,0,0
1739402172.6063323,0.525663657390322,0.096032060231038,-0.9533410361751996,-2.069076427055999,0.13773984213136733,2.1375920164898377,-1.2753841540941218,-0.0001083977519589347,-0.0006402932763039838,0.0003770704142892988,-0.0007287850747636842,0.0006780636472954753,-1.5608970121116107e-05,-0.0001253662868602413,0.2173345386981964,-21.74496841430664,-2.4333655834198,22.59223175048828,0.7066751718521118,2.2753188610076904,-0.08692778646945953,0,0,0,0.000,0,0
1739402172.6172464,0.5256646556183345,0.09603553435427153,-0.9533441879810765,-2.069072580930722,0.13773907130742566,2.1375905011696696,-1.2753880462643987,0.00012214364962881668,0.00013152218081653646,-5.356807069471461e-05,0.0015647945696823221,-0.0002907137738166978,-0.0009873633095863993,-1.767424109531577e-05,0.1935308277606964,-21.79654312133789,-2.38179087638855,22.56842803955078,0.7130838632583618,2.2881362438201904,-0.05396880581974983,0,0,0,0.000,0,0
1739402172.627335,0.5256647500176792,0.09603577948066962,-0.9533421091603432,-2.0690763193479813,0.1377430406970604,2.137593640273245,-1.2753895123578771,-0.0007306691152823529,0.0002649712110860049,0.0005910655307403344,-0.0010146833087788989,0.0020067841878597067,0.0006645127542256714,0.0009659746210853065,0.2411382496356964,-21.79654312133789,-2.4095618724823,22.59223175048828,0.7066751718521118,2.2615859508514404,-0.04023589566349983,0,0,0,0.000,0,0
1739402172.6383114,0.5256691150913207,0.09603656306123522,-0.9533421081792023,-2.0690734452541197,0.13773830933167017,2.1375928823870596,-1.2753900833705758,0.0005462067378289045,0.0004244796387291459,0.00045046405751070066,0.0008996679047872662,-0.0009661354360715854,-0.00024017866169206476,0.0003376603272962956,0.1419561207294464,-21.84811782836914,-2.4095618724823,22.59223175048828,0.7194925546646118,2.2679946422576904,-0.0008682189509272575,0,0,0,0.000,0,0
1739402172.6483135,0.5256657605340763,0.0960377772741613,-0.953342510515202,-2.0690781018850286,0.13773861057653308,2.1375904968090187,-1.2753848795952543,-8.758637670039086e-05,0.00043796620969875535,0.0006867862019670876,-0.0005381218311582142,-0.00035068318773651434,-0.0005901644858273803,0.0006245363463820552,0.2173345386981964,-21.82431411743164,-2.4333655834198,22.61603546142578,0.7130838632583618,2.2881362438201904,-0.04756011441349983,0,0,0,0.000,0,0
