IITGN-Robotics/Franka_IITGN_ROBOTICS/franka_ros/franka_iitgn/data/b_41.csv
time,fr3_joint1_pos,fr3_joint2_pos,fr3_joint3_pos,fr3_joint4_pos,fr3_joint5_pos,fr3_joint6_pos,fr3_joint7_pos,fr3_joint1_vel,fr3_joint2_vel,fr3_joint3_vel,fr3_joint4_vel,fr3_joint5_vel,fr3_joint6_vel,fr3_joint7_vel,fr3_joint1_eff,fr3_joint2_eff,fr3_joint3_eff,fr3_joint4_eff,fr3_joint5_eff,fr3_joint6_eff,fr3_joint7_eff,flexpin1,flexpin2,flexpin3,Force,ContactMic,ContactMic_gt
1739402224.6875718,0.5256705039830745,0.09601762952443343,-0.9533323714687337,-2.0689328906299838,0.13770058497817847,2.137563406260334,-1.2753645766830493,0.00020677564443868902,0.0012818863021600204,-0.0006587377021811339,-0.0006496295908852051,0.00011794332652844775,-0.00016465318247476027,-0.000537153569641687,0.1697271168231964,-21.89969253540039,-2.4571692943573,22.63983917236328,0.6737161874771118,2.2753188610076904,-0.05396880581974983,,,,,,,,,
1739402224.6986105,0.5256704888948658,0.09602769583343292,-0.953332106509162,-2.068932918464967,0.13769938710021556,2.1375626486002552,-1.2753652926626131,-0.0011114011184551811,0.0013173721254120118,-5.5408528919926854e-05,-0.00021388219867978195,-0.00035705603543196375,0.0009460565988024397,3.1909171870154416e-05,0.1697271168231964,-21.95126724243164,-2.4571692943573,22.63983917236328,0.6865335702896118,2.2817275524139404,-0.04756011441349983,,,,,,,,,
1739402224.7095358,0.5256685566305948,0.09603890550808127,-0.9533356458583329,-2.0689330050644217,0.13769745968153116,2.137563406260334,-1.2753654900302571,-0.00030328443868346425,0.003833111564970876,-2.8310372233139174e-05,0.0010538256200762024,-0.0015591369929603837,0.0006532388354386044,-0.001079737491658358,0.1935308277606964,-21.97507095336914,-2.4095618724823,22.63983917236328,0.7002664804458618,2.2753188610076904,-0.04756011441349983,,,,,,,,,
1739402224.7196088,0.525668236117191,0.09603376426413388,-0.9533368067556778,-2.068937984003306,0.1376991090771646,2.1375626486002552,-1.2753732740800232,-0.0007450811671550391,-0.0006783083163707836,0.00029750270899483,0.0011091084843672762,0.00031926157911467255,-0.0002536697121767877,-0.0019723083231460727,0.2411382496356964,-21.87192153930664,-2.38179087638855,22.66364288330078,0.6865335702896118,2.2817275524139404,-0.0072769103571772575,,,,,,,,,
1739402224.7315655,0.525671026071594,0.09603151419702431,-0.9533378860638495,-2.068934439852967,0.13769906958586445,2.1375650298176447,-1.2753697307583949,0.000922825536845805,-0.0012660404261654323,-0.0002055416102946006,0.00015515267839865185,8.830624755292505e-05,0.00030909464565440016,7.895847947513094e-05,0.1935308277606964,-21.79654312133789,-2.38179087638855,22.61603546142578,0.6865335702896118,2.2615859508514404,-0.04023589566349983,,,,,,,,,
1739402224.7415729,0.5256651013679868,0.09603407640324416,-0.9533357513323314,-2.068933428793112,0.13770060974037673,2.137564271673049,-1.2753670486700623,-0.0009163443677684521,0.001755397720220224,0.0008039329577649148,-0.0005639621786088167,0.0012046091061505297,-0.0003172225842080385,-0.0002451481398519418,0.2411382496356964,-21.84811782836914,-2.4095618724823,22.59223175048828,0.6865335702896118,2.2679946422576904,-0.06037749722599983,,,,,,,,,
1739402224.7525032,0.5256654468264309,0.09602767958675716,-0.9533356718591616,-2.068934675768544,0.13769906959448436,2.137565148039729,-1.2753743337875645,-0.0008376331162334546,-0.000589853282773908,0.00045354546353203765,-0.0004836041883509643,8.087731533160258e-05,0.00048042862989123236,-0.002897281945140059,0.2411382496356964,-21.77273941040039,-2.4095618724823,22.61603546142578,0.6865335702896118,2.2615859508514404,-0.0072769103571772575,,,,,,,,,
1739402224.7625625,0.5256633444655593,0.09602778188674252,-0.9533378311214282,-2.0689333156459258,0.1376990695857906,2.137564324491381,-1.2753662912058297,-0.0013259449346865494,0.0006876650058363239,0.0007919671698890362,-0.0004503701350936037,-0.0011297404008505073,0.0007915967287234088,0.0011498243547371323,0.2689092457294464,-21.77273941040039,-2.38179087638855,22.59223175048828,0.6865335702896118,2.2679946422576904,-0.06678618490695953,,,,,,,,,
1739402224.7725852,0.5256633415086394,0.09602590996094737,-0.9533416160972512,-2.0689311094037444,0.13770018754160748,2.1375650312720813,-1.2753711550173312,-0.001003275143842663,0.00014155635674621773,0.00042564906260068804,0.00012015064506281482,0.00117405443437405,-0.0004279289066157401,-0.001493050705895854,0.2689092457294464,-21.74496841430664,-2.3302161693573,22.56842803955078,0.6801248788833618,2.2615859508514404,-0.0072769103571772575,,,,,,,,,
1739402224.7835572,0.5256668135480053,0.09602566994879758,-0.9533426733763638,-2.068930880822354,0.13770302619166438,2.137566442668487,-1.2753621996672513,0.00041766077743713115,1.866667628424276e-05,0.000375753358606028,0.0004273780436901727,0.00020271917836894794,0.0008177885736897718,0.0008844866096443836,0.2173345386981964,-21.74496841430664,-2.35798716545105,22.56842803955078,0.6801248788833618,2.2615859508514404,-0.07411040365695953,,,,,,,,,
1739402224.793593,0.5256658772128834,0.09602237783208124,-0.9533388640172294,-2.0689288094222835,0.1377027701518962,2.1375634064457665,-1.275368579842803,-0.00027767899064436516,-0.00020566472408858872,0.0009329193531904651,-0.00023649898275533026,0.002905398212211177,-0.0008158656199118735,0.0008128367770824793,0.2173345386981964,-21.66958999633789,-2.4095618724823,22.54065704345703,0.6673074960708618,2.2753188610076904,-0.020094294100999832,,,,,,,,,
1739402224.803602,0.5256651010109685,0.09602398377068944,-0.9533388864754802,-2.06892872304924,0.13770378387524107,2.137564429140996,-1.2753676114761545,0.000270492719698644,0.0011006312556622955,0.000994703791911445,0.0008850334509631693,0.000998693577598522,9.697425740882553e-05,-0.0015229555664346586,0.2411382496356964,-21.72116470336914,-2.4095618724823,22.54065704345703,0.6737161874771118,2.2679946422576904,-0.04023589566349983,,,,,,,,,
1739402224.815532,0.5256685260682877,0.09602766496634901,-0.9533356732213935,-2.0689284713664327,0.13770013803158263,2.1375642871784715,-1.2753656479575672,0.00038327233512236235,0.0007529022026123776,-0.0005429116852827805,0.0014829526825417766,0.00038273451754651847,-0.001117124744366442,0.00045714641429266025,0.1935308277606964,-21.77273941040039,-2.4095618724823,22.54065704345703,0.6865335702896118,2.2679946422576904,-0.05396880581974983,,,,,,,,,
1739402224.8265018,0.5256658153195857,0.09602901211207777,-0.9533387175327146,-2.068931930253661,0.1376990696459932,2.1375660901018816,-1.2753638755938044,-0.0003994053786228639,4.946391950430313e-06,-0.0017155710551244772,-0.0004765389558390664,-0.001150642905237723,-0.000398947420392589,0.001127235897553071,0.2411382496356964,-21.79654312133789,-2.38179087638855,22.59223175048828,0.6865335702896118,2.2615859508514404,-0.08692778646945953,,,,,,,,,
1739402224.8365946,0.5256658162865949,0.09603213248236826,-0.9533378176313773,-2.068934726585962,0.13770582555728342,2.137564629736912,-1.2753693375209403,-0.0015762365007859721,-0.0005606670125854674,-0.0012516896776788057,-0.00016183873758421016,0.0007711717742747682,0.0003675914688242701,-0.0003614488860706999,0.2411382496356964,-21.82431411743164,-2.4095618724823,22.59223175048828,0.6608988046646118,2.2679946422576904,-0.013685601763427258,,,,,,,,,
1739402224.8475785,0.5256685263993743,0.09603449557076278,-0.9533356836809216,-2.0689326635455827,0.13770058546869307,2.1375658049223447,-1.2753672997543561,-8.155489393932584e-05,0.0012396617282521758,-0.0009532396494429563,-0.00011643727035380417,0.0017226315863920762,-0.0006987777641033921,0.000321786517981914,0.1935308277606964,-21.82431411743164,-2.4095618724823,22.59223175048828,0.6737161874771118,2.2551772594451904,-0.06678618490695953,,,,,,,,,
1739402224.8576112,0.5256679621587965,0.09603973315358302,-0.9533355948389194,-2.0689344461759633,0.13769978803989305,2.137569268370458,-1.2753694553122676,-0.00011970342163779944,0.0017256238880424119,-0.001285723547435792,0.00019562441294695138,-0.0006956492141075972,0.00023653209459288828,-0.0003999175399202168,0.2411382496356964,-21.89969253540039,-2.4095618724823,22.61603546142578,0.6801248788833618,2.2615859508514404,-0.013685601763427258,,,,,,,,,
1739402224.8686323,0.5256668135637078,0.09603629064247698,-0.953335750903148,-2.0689344462809407,0.13769982724564717,2.1375657045745076,-1.2753708528237147,0.0001337150557480742,-0.0009457948987583018,0.00037010469878403157,-0.0003624098400253925,-0.0006189114209790552,0.0007374730056689759,-0.0005702596276593293,0.2173345386981964,-21.84811782836914,-2.4095618724823,22.61603546142578,0.6801248788833618,2.2679946422576904,-0.0008682189509272575,,,,,,,,,
1739402224.8795943,0.525666816490996,0.09603457464987895,-0.9533377529572099,-2.068932663533937,0.13769906958579015,2.137570501564598,-1.2753638217685772,-0.0003449752610301896,-0.0015201781507174794,0.00029479538051111517,0.0010789822235196356,-0.00059517957717867,0.0024027038502122773,0.0008842831714535829,0.2173345386981964,-21.82431411743164,-2.38179087638855,22.59223175048828,0.6865335702896118,2.2551772594451904,-0.06037749722599983,,,,,,,,,
1739402224.8905616,0.5256623166968709,0.09603126337859609,-0.9533402494743496,-2.068936512470315,0.13769987112491652,2.137565045079003,-1.2753630642705187,-0.0009030926796644136,-0.00161605971986744,-0.0008258959200010548,0.00024525338382394086,-0.00020582821916650894,-0.0015156563511911885,0.002222686959848939,0.2411382496356964,-21.77273941040039,-2.35798716545105,22.61603546142578,0.6801248788833618,2.2615859508514404,-0.06678618490695953,,,,,,,,,
1739402224.9015725,0.5256671314337563,0.0960345746506105,-0.9533359907447567,-2.0689316064497594,0.13770485162882157,2.1375680518069493,-1.2753627500330782,0.0010457083600926987,-0.00083386807683395,0.0009383178361951643,0.0013438952363963512,0.001518881151360183,0.0006253080208627172,0.0029995671235683837,0.2173345386981964,-21.82431411743164,-2.4095618724823,22.56842803955078,0.6737161874771118,2.2753188610076904,-0.06678618490695953,,,,,,,,,
1739402224.9125454,0.5256651010286199,0.09603518772358435,-0.9533380021697535,-2.068930633682102,0.13769824179986584,2.137568530332319,-1.2753665692788798,-0.00016144214352983453,0.0005364899794623591,0.0006424859290209521,0.0010158118371479154,-0.0013505369503114379,0.001351707466473046,0.0016492686141000431,0.2411382496356964,-21.79654312133789,-2.38179087638855,22.56842803955078,0.6938577890396118,2.2679946422576904,-0.04023589566349983,,,,,,,,,
1739402224.9225757,0.5256730996119683,0.0960308117883495,-0.953335673280167,-2.068930906327546,0.13770524648664523,2.137568865932973,-1.275362329037506,0.0017896149873542545,-0.0002931285324331965,0.0007927250197019141,-0.00038074305480671733,0.001532632582595684,0.00026500048337314445,0.00017194126362333505,0.1697271168231964,-21.77273941040039,-2.4095618724823,22.56842803955078,0.6737161874771118,2.2679946422576904,-0.07411040365695953,,,,,,,,,
1739402224.9326172,0.5256668135960083,0.09602431224629152,-0.9533356721857857,-2.068927913835594,0.13770369012849423,2.1375709426896083,-1.2753693375051822,-0.0008680195859621804,-0.0015203904318713307,0.0012652480535113272,0.0008464891146138515,0.0003217937752213324,0.0003379156786966334,-0.0015683794502502927,0.2173345386981964,-21.72116470336914,-2.4095618724823,22.56842803955078,0.6865335702896118,2.2487685680389404,-0.013685601763427258,,,,,,,,,
1739402224.9436128,0.5256684480671481,0.09603085183144185,-0.9533356721857635,-2.0689309611138262,0.1377004912930301,2.1375697923729327,-1.2753685800580452,0.00014618320211481458,0.0011647576082303476,0.0019792432490241315,-0.00045334054023661715,-0.0006469664728639583,0.0009109249420650664,-8.523429658218286e-05,0.1935308277606964,-21.77273941040039,-2.4095618724823,22.56842803955078,0.6865335702896118,2.2615859508514404,-0.020094294100999832,,,,,,,,,
1739402224.9545681,0.525666804880323,0.09603099912137163,-0.9533360349489076,-2.0689288010325217,0.1377056534467493,2.1375690361684647,-1.2753674293352473,-0.0006736719729301278,0.0006769686510973295,-0.00038388776933456824,0.0006907206850743302,0.001189926123456034,0.0008351218952306179,-0.0009033576407628482,0.2173345386981964,-21.74496841430664,-2.4333655834198,22.54065704345703,0.6673074960708618,2.2679946422576904,-0.03382720425724983,,,,,,,,,
1739402224.9655828,0.5256651010266786,0.09602883120755806,-0.9533377516849072,-2.0689288010320688,0.1376998731481016,2.1375705558492317,-1.2753663944737963,-0.0008081662012863072,-0.00033651245826093627,-0.0002409464709239606,-6.408694968763114e-05,0.0009912212006584523,0.000862766237110024,0.0005452872694070481,0.2411382496356964,-21.74496841430664,-2.38179087638855,22.54065704345703,0.6801248788833618,2.2551772594451904,-0.04756011441349983,,,,,,,,,
1739402224.975602,0.5256632090497854,0.09602673538117351,-0.9533379900671477,-2.068932660446488,0.13769907104868417,2.137568687316439,-1.2753632167915439,-0.0008813974576834182,-0.0002868850797892304,5.092575213033182e-07,1.882775986117191e-05,-0.0008465431434471905,-0.0004124401336091777,0.00013366054189033953,0.2689092457294464,-21.74496841430664,-2.38179087638855,22.59223175048828,0.6865335702896118,2.2679946422576904,-0.06678618490695953,,,,,,,,,
1739402224.9865189,0.5256668132271625,0.09602873345487765,-0.9533370851062797,-2.0689326624517603,0.13769988450532586,2.137567412609193,-1.2753618422168995,-0.0002200955808107472,-0.0009177680089947164,-0.0003813575306435891,0.0005720560933973734,-0.00011036882428186866,0.0002656841160925111,0.0018298633252841717,0.2173345386981964,-21.77273941040039,-2.38179087638855,22.61603546142578,0.6801248788833618,2.2817275524139404,-0.08051909506320953,,,,,,,,,
1739402224.9965208,0.5256675288032885,0.09603799954697836,-0.9533356728285713,-2.068934446032701,0.13770013584762747,2.1375680568942723,-1.2753661986321916,-0.00022621908099996633,0.0006638483888975519,0.0007864395260324623,-0.00011251722129202688,-0.0007498811910904468,-0.0008944761173935295,5.147098079280154e-05,0.2173345386981964,-21.87192153930664,-2.4095618724823,22.61603546142578,0.6865335702896118,2.2753188610076904,-0.04023589566349983,,,,,,,,,
1739402225.0066607,0.5256668125966926,0.09603699944049093,-0.9533356718587292,-2.068932697512017,0.13770140833975766,2.1375669164057283,-1.2753685842033553,-0.00056927517595314,0.0009371721581045377,0.000793748736823441,0.00039673466979072493,-0.0004295393375757664,-0.0005868196005920396,-0.0012117476133805024,0.2173345386981964,-21.84811782836914,-2.4095618724823,22.59223175048828,0.6938577890396118,2.2679946422576904,-0.020094294100999832,,,,,,,,,
1739402225.017549,0.5256651803926823,0.09603457465388014,-0.9533377516485685,-2.0689390483368864,0.13769912816344954,2.1375681353202336,-1.275366200563407,2.9282803981819103e-05,0.0009672399463050997,-4.242474942015286e-05,-0.0005293307737298793,-0.0003776892073990313,-0.00019213781523188376,6.419823045607776e-05,0.2411382496356964,-21.82431411743164,-2.38179087638855,22.63983917236328,0.6865335702896118,2.2753188610076904,-0.04023589566349983,,,,,,,,,
1739402225.027592,0.5256622929871267,0.09603800099346055,-0.9533416141154432,-2.0689389839598653,0.13769944700110354,2.1375705558486393,-1.275371738100985,-0.001115382306615799,-0.0006618720042031341,-0.0016938963346912381,-0.0007246175745954563,3.010422862145226e-05,-0.0006601764851509792,-0.0007090054479597256,0.2411382496356964,-21.87192153930664,-2.3302161693573,22.63983917236328,0.6865335702896118,2.2551772594451904,0.0064559997990727425,,,,,,,,,
1739402225.0385666,0.525662994980192,0.09603945136778966,-0.953337831448477,-2.0689362373718025,0.1376983280688294,2.1375689095481207,-1.2753715138281208,-0.0009753656696061758,0.0009528566703699927,0.0002647294442151548,-0.00015879250207482127,-0.0003765218124611615,0.00031718702160280215,-0.0016008275894925134,0.2411382496356964,-21.84811782836914,-2.38179087638855,22.63983917236328,0.6938577890396118,2.2679946422576904,-0.0072769103571772575,,,,,,,,,
1739402225.0495079,0.5256646988380925,0.09603531605489371,-0.9533363871512394,-2.0689308849511314,0.13769928750174673,2.1375681614953894,-1.2753701415065077,-0.0005074607528303225,-0.001126293224282001,0.001152520259451221,0.0023899536581681174,-0.00011976672166649378,0.00015313437217574387,-0.001541223822944077,0.2173345386981964,-21.82431411743164,-2.4095618724823,22.56842803955078,0.6938577890396118,2.2753188610076904,-0.03382720425724983,,,,,,,,,
1739402225.0605083,0.5256685000320951,0.0960330029637475,-0.9533395356458964,-2.0689351257834496,0.13769987991908061,2.1375697981890047,-1.2753656523641845,0.0014869063505056187,-0.0010411508106235013,-0.000578477789957394,0.0004117898469373579,-0.00034144950852564544,0.0006012497358843069,0.0026846975652014687,0.1935308277606964,-21.77273941040039,-2.35798716545105,22.61603546142578,0.6801248788833618,2.2615859508514404,-0.05396880581974983,,,,,,,,,
1739402225.0705874,0.5256685251051639,0.09603192916900329,-0.9533363871144577,-2.0689308808257603,0.1376973162555488,2.1375681760854666,-1.2753641764409185,0.0011673114702562923,-0.001430285296054339,-0.00023614510480665307,0.0013189333559697697,-0.000884542298785148,0.0006402255884164611,0.0014484106025073413,0.1935308277606964,-21.77273941040039,-2.4095618724823,22.56842803955078,0.6938577890396118,2.2753188610076904,-0.06037749722599983,,,,,,,,,
1739402225.0806959,0.5256685260682715,0.09603301316931426,-0.9533398974278933,-2.068932901590474,0.13770262523628848,2.137569040529173,-1.2753723063628017,-0.0007683043844657269,-0.00022672405687097628,-0.0009453633111363474,0.00042599384510237653,0.0012484177587601573,-0.00010932092388615873,-0.0007508466065939335,0.1935308277606964,-21.77273941040039,-2.38179087638855,22.59223175048828,0.6865335702896118,2.2679946422576904,-0.027418512850999832,,,,,,,,,
1739402225.091554,0.5256678230950501,0.09603094623514816,-0.9533356720161809,-2.0689288010334126,0.1377042590649754,2.1375697979738866,-1.2753712136688924,0.0001932228978492929,-0.0005676505300924809,0.0010216753514657073,0.0011266217484789582,0.0009305448089862952,0.0007481219753892172,-0.0033520985674615035,0.1935308277606964,-21.77273941040039,-2.4095618724823,22.54065704345703,0.6737161874771118,2.2615859508514404,-0.0072769103571772575,,,,,,,,,
1739402225.1015923,0.525666816479091,0.09603094622440657,-0.95333774875964,-2.0689288010320688,0.1377015197695895,2.1375686873164352,-1.2753676578311754,-0.0005871324855444498,-0.0005350430080123347,-0.0011610619308148541,0.0011862100511311016,0.0011409119441106912,-0.00011479393967968961,-0.0013836928121334557,0.2173345386981964,-21.77273941040039,-2.38179087638855,22.54065704345703,0.6673074960708618,2.2679946422576904,-0.06678618490695953,,,,,,,,,
1739402225.1125255,0.5256668010288718,0.09602918266760431,-0.9533338891816776,-2.0689309573513444,0.13770411049201858,2.1375697977027164,-1.2753678511435036,0.00043154520913948,0.0006958129315325638,0.0001566346722214479,0.00017638418283496608,0.0010798628249554941,0.0004909474263148895,0.0011710618222047873,0.2173345386981964,-21.74496841430664,-2.4333655834198,22.56842803955078,0.6801248788833618,2.2615859508514404,-0.027418512850999832,,,,,,,,,
1739402225.122572,0.5256651020077598,0.09603118093888756,-0.9533377516485684,-2.0689288262040098,0.13770421294800086,2.1375713135093752,-1.2753658036806863,-9.412840931901636e-05,-0.000322866406840409,0.0002964946035283989,0.00016568884178424798,0.0014816809023455576,0.000538315243600047,0.0018017903153734007,0.2411382496356964,-21.77273941040039,-2.38179087638855,22.54065704345703,0.6801248788833618,2.2487685680389404,-0.04756011441349983,,,,,,,,,
1739402225.1325781,0.5256622140216822,0.09603545183675709,-0.9533356836324699,-2.068935429557036,0.1377002397831924,2.1375705558493054,-1.2753663178244112,-0.0013026977845972906,0.00044784350133213793,0.0005391329169848823,-0.0009612632644174796,0.0009960602038923258,5.7250446216589146e-05,0.0003501348111208353,0.2411382496356964,-21.79654312133789,-2.4095618724823,22.59223175048828,0.6801248788833618,2.2551772594451904,-0.04023589566349983,,,,,,,,,
1739402225.1425827,0.5256643988698897,0.09603265693661177,-0.9533398974163785,-2.068927019440388,0.13770238881296182,2.137569798189227,-1.2753697365726702,-0.0003642155361310252,-0.0006474459293701153,-0.0001712258010494496,0.0017239796093185798,0.0002656404142409387,-4.137272077055215e-05,-0.0008022852810016425,0.2411382496356964,-21.79654312133789,-2.38179087638855,22.51685333251953,0.6865335702896118,2.2615859508514404,-0.04023589566349983,,,,,,,,,
1739402225.1536098,0.5256685259599693,0.09603258072408509,-0.9533377556983209,-2.0689382951473356,0.137702177902209,2.1375690405291485,-1.2753691857539873,0.0006572970230236451,0.0008390886753595719,0.00016170319173501498,-0.0004556735354210588,0.0021085874409650317,-0.0007255528890124296,-0.0018919994394849423,0.1935308277606964,-21.79654312133789,-2.38179087638855,22.63983917236328,0.6737161874771118,2.2679946422576904,-0.05396880581974983,,,,,,,,,
1739402225.1645749,0.5256631030859719,0.09603528963257395,-0.953339906246121,-2.0689344547258885,0.13770230803104383,2.1375681702712654,-1.275370174525501,-0.0008348540877110303,0.00013460858101073397,0.0007809931653763149,-0.00036185995409042165,-0.001042509448680539,-0.0005832753775619397,-0.00033157780598490534,0.2689092457294464,-21.82431411743164,-2.38179087638855,22.61603546142578,0.6865335702896118,2.2753188610076904,-0.03382720425724983,,,,,,,,,
1739402225.175559,0.5256664200375059,0.09603866325233268,-0.9533377609271141,-2.0689382439877257,0.13770536990733212,2.1375698025498533,-1.2753667219215712,-7.87428754166036e-05,0.00029048575971361444,-0.0003250407851705011,-0.0014402228448594375,0.0005439475328990368,0.00022152669467209816,0.0016777462943567234,0.1935308277606964,-21.84811782836914,-2.38179087638855,22.66364288330078,0.6737161874771118,2.2615859508514404,-0.04023589566349983,,,,,,,,,
1739402225.1856048,0.5256688552775827,0.09603335456889665,-0.9533357895964399,-2.068938011533937,0.1376994447514279,2.13757221944361,-1.2753682787228935,0.0006503270663783729,-0.0005635253792444536,-0.0001855207062626585,0.00018092975509628062,-0.0005032381873183384,0.0006704996432132647,-0.0006868737375810732,0.2173345386981964,-21.77273941040039,-2.4095618724823,22.66364288330078,0.6865335702896118,2.2679946422576904,-0.05396880581974983,,,,,,,,,
1739402225.196562,0.525668494035087,0.09604245297355099,-0.9533339274470687,-2.068938243952685,0.13770421536947808,2.1375690405470933,-1.2753700444051952,0.0009207701849359854,0.0013620847691697574,0.0005189122887504917,-0.000814546992811695,0.0006075313703116814,-0.0003187352381631186,-8.322300204558533e-05,0.1935308277606964,-21.89969253540039,-2.4333655834198,22.66364288330078,0.6801248788833618,2.2679946422576904,-0.04756011441349983,,,,,,,,,
1739402225.2065668,0.5256650981373518,0.09603719546125487,-0.9533395346532845,-2.068930883660283,0.13770489749329057,2.1375681746319164,-1.2753633777667714,-0.00012355140389627998,0.00031942258257091076,-0.0010769415591675077,0.0012555508930997162,0.0012021194627074771,-0.00044532464892660275,0.002440860787533873,0.2411382496356964,-21.79654312133789,-2.35798716545105,22.56842803955078,0.6673074960708618,2.2753188610076904,-0.07411040365695953,,,,,,,,,
1739402225.2175198,0.5256651007058167,0.09603406787349432,-0.9533357513315744,-2.0689347645761598,0.13769908786170865,2.1375690405291485,-1.275374845533364,-0.0006502367298801536,0.00035626236011503175,0.0004241629669033863,-0.0003137518952053825,-0.000550971311141443,-0.00015415524334325755,-0.003443154547830167,0.2411382496356964,-21.77273941040039,-2.4095618724823,22.61603546142578,0.6865335702896118,2.2679946422576904,-0.0072769103571772575,,,,,,,,,
1739402225.2275329,0.52566510102682,0.09603752893143043,-0.9533377516499143,-2.0689344716911613,0.1376987367380436,2.1375705558493054,-1.2753700599154367,-0.00038254402173909334,2.198169198583066e-05,-0.0003281118258925826,0.0003832029401285674,-0.00021883008901411803,-0.00038583227386320004,-0.00038004406508995085,0.2411382496356964,-21.82431411743164,-2.38179087638855,22.61603546142578,0.6938577890396118,2.2551772594451904,-0.04756011441349983,,,,,,,,,
1739402225.2375727,0.5256668135475566,0.09603371244982496,-0.9533342070731328,-2.068932930879943,0.13769956104015554,2.1375682138777727,-1.2753697457866853,0.0008105422201711319,-0.0009781783973138206,-0.00040035457665832516,0.0004340208867735897,-0.0009847428448829933,-0.00022666484561092144,-0.0007359647747174461,0.2173345386981964,-21.77273941040039,-2.4333655834198,22.59223175048828,0.6865335702896118,2.2753188610076904,-0.04756011441349983,,,,,,,,,
1739402225.247588,0.5256668138746055,0.09603398752484298,-0.9533423952469229,-2.0689290561346647,0.13770422832271084,2.137574795856038,-1.2753748061940542,0.00016883133470635027,0.0003880882113462373,-0.002029811206254029,0.0008338822098600048,-0.0008094747125904051,0.0018496762236075632,-0.002033052080650541,0.2173345386981964,-21.77273941040039,-2.35798716545105,22.54065704345703,0.6801248788833618,2.2551772594451904,-0.0072769103571772575,,,,,,,,,
1739402225.258598,0.52567022981523,0.09602716647634563,-0.9533395340207452,-2.0689288009554474,0.13770307887068828,2.13757055587324,-1.2753701293538606,0.0009168669210649738,-0.0010919948773862433,-0.0005220225624623738,4.643127594539956e-05,0.00038742086999191523,0.0005946050643323962,-0.00011028909032217852,0.1697271168231964,-21.72116470336914,-2.35798716545105,22.54065704345703,0.6801248788833618,2.2551772594451904,-0.020094294100999832,,,,,,,,,
1739402225.269569,0.5256643990165152,0.09603372379358008,-0.953337751757583,-2.0689315793497203,0.137703513158432,2.1375681746319164,-1.275371368233373,-0.0009120567702134841,0.00045260574444221324,-0.0002883180008747054,0.0007168775179809694,-0.00013401194101366894,-0.0011182362339459476,-0.0018025369406005506,0.2411382496356964,-21.77273941040039,-2.38179087638855,22.56842803955078,0.6801248788833618,2.2753188610076904,-0.027418512850999832,,,,,,,,,
1739402225.2796,0.5256623980678946,0.09603161264095623,-0.9533370496383096,-2.068928809547167,0.13770181863486028,2.137570556010811,-1.2753700618349413,-0.0022253907725818703,0.00012205205440374398,0.00022097210409189642,0.0013417926512936796,-0.000722161576083017,-0.00015750373898851182,-0.0001658898637579585,0.2689092457294464,-21.77273941040039,-2.38179087638855,22.54065704345703,0.6673074960708618,2.2551772594451904,-0.04756011441349983,,,,,,,,,
1739402225.290621,0.5256650981339145,0.09603182047896347,-0.9533395343216247,-2.0689295011345927,0.13770240947964021,2.137569798189228,-1.2753678222516127,0.00023179725488130492,-0.0006094838157656403,-0.0005598406677086382,0.00037727995836580686,0.0006024933607355083,-0.0003340711215148069,0.0003063443133014149,0.2411382496356964,-21.74496841430664,-2.35798716545105,22.54065704345703,0.6673074960708618,2.2615859508514404,-0.06678618490695953,,,,,,,,,
1739402225.3015897,0.5256668135475403,0.09603471353539152,-0.9533396137984472,-2.0689309148389516,0.1376994783711914,2.1375673769349173,-1.2753654066497464,-5.131185413022516e-05,0.00041494794506589364,-0.0007062644765995539,0.00039959727467581423,0.00010930533094576608,-0.0006161495071039735,0.0007983040595429336,0.2173345386981964,-21.79654312133789,-2.35798716545105,22.56842803955078,0.6865335702896118,2.2551772594451904,-0.06037749722599983,,,,,,,,,
1739402225.3125386,0.5256668930204164,0.0960346538030221,-0.9533423963301318,-2.0689327012914416,0.1377053259581389,2.137570555777525,-1.2753678278865834,-0.0001043578603144398,-0.00015886905943920748,-0.0011240890665995497,-0.00045849230128790805,0.0016569264822455083,0.00016745484276703683,-0.0007332655833810832,0.2173345386981964,-21.82431411743164,-2.35798716545105,22.59223175048828,0.6737161874771118,2.2551772594451904,-0.06678618490695953,,,,,,,,,
1739402225.3235378,0.5256685260687365,0.09603258564357184,-0.953335671874869,-2.0689353645292208,0.1377046115515044,2.1375713135093832,-1.2753693371408676,0.0012243529310035448,-0.0006519024734212832,0.001340778442741995,-0.0009510214293238322,0.001378602382593309,0.00012254275174728606,0.00013836845562946475,0.1935308277606964,-21.79654312133789,-2.4095618724823,22.61603546142578,0.6801248788833618,2.2487685680389404,-0.05396880581974983,,,,,,,,,
1739402225.3335404,0.5256668135475567,0.09603639264428418,-0.9533377516485693,-2.0689326635456005,0.13770294335636019,2.1375648019766307,-1.275369983846292,-0.00037418988305203355,0.0007128517188499738,-0.0002060871812148027,0.0007634098888578919,0.0007522057743704184,-0.001634407593688034,0.0010013203112380212,0.2173345386981964,-21.84811782836914,-2.38179087638855,22.59223175048828,0.6938577890396118,2.2679946422576904,-0.04756011441349983,,,,,,,,,
1739402225.3445287,0.5256706718354999,0.09603635171001815,-0.9533356718587129,-2.068935137880148,0.1377025235626711,2.1375705558413296,-1.2753667684276855,0.0008696021515875224,-0.001001676378517738,0.0008269267621267811,-7.983311452725856e-05,0.0003162602331432544,0.00045985305788716346,0.0013009934635820628,0.1935308277606964,-21.84811782836914,-2.4095618724823,22.61603546142578,0.6938577890396118,2.2551772594451904,-0.06678618490695953,,,,,,,,,
1739402225.355573,0.5256668135596696,0.0960377744753788,-0.9533380960309605,-2.06893444621486,0.137699601250889,2.137572977103615,-1.2753669615167986,4.171645219620742e-05,0.0002192342531797761,-0.0019478815856001992,0.00020089627136614792,-0.0005669717372870936,0.0005807511874020823,0.0009623443859527229,0.2173345386981964,-21.82431411743164,-2.38179087638855,22.61603546142578,0.6865335702896118,2.2615859508514404,-0.07411040365695953,,,,,,,,,
1739402225.3665082,0.5256651026862954,0.09603769636475186,-0.953337129297497,-2.0689335827967965,0.1377021915234416,2.13757055586725,-1.2753678281198666,-0.0006096281046983453,-0.0002016504618925929,-0.00015520510616378724,0.00010538177402044137,-4.839781081262141e-06,-0.00019280490671744134,0.0022156121104476532,0.2411382496356964,-21.82431411743164,-2.38179087638855,22.59223175048828,0.7002664804458618,2.2551772594451904,-0.06678618490695953,,,,,,,,,
1739402225.3774948,0.5256685263953461,0.09603293137858851,-0.9533321067212129,-2.068932675891611,0.13769924729563737,2.1375713135093837,-1.2753709668353919,0.0002880919109400766,-0.0001303558724305115,0.0007839538280375996,0.0006876476444945351,-0.001652525904872563,0.0002480003697580155,-0.0005531713200256738,0.1935308277606964,-21.79654312133789,-2.4571692943573,22.59223175048828,0.6865335702896118,2.2487685680389404,-0.04023589566349983,,,,,,,,,
1739402225.3875935,0.5256651009198335,0.09604320133358205,-0.9533354378552964,-2.068932765643359,0.1377038501298274,2.1375705558493054,-1.2753667095482242,-0.0004433072235524887,0.0016465915676680274,0.0014009732492155503,0.00011682179291518865,-0.00012422765895356313,0.0007673395280394029,0.0011096869338189362,0.2411382496356964,-21.89969253540039,-2.4095618724823,22.59223175048828,0.6865335702896118,2.2551772594451904,-0.04023589566349983,,,,,,,,,
1739402225.3976173,0.5256668930204146,0.09603553142462389,-0.95333567185475,-2.0689315570377422,0.1377045859283311,2.1375747944018224,-1.2753643471548908,-0.00026757352896529513,0.00020600107912606983,0.00026665665654878007,-0.0002986177757772774,-0.000184960837543157,0.0028814370657351453,0.0010634003105818137,0.2173345386981964,-21.79654312133789,-2.4095618724823,22.54065704345703,0.6801248788833618,2.2551772594451904,-0.06037749722599983,,,,,,,,,
1739402225.4085646,0.5256685260687365,0.09603569744591108,-0.9533396402187417,-2.068933658674218,0.13770320357587812,2.1375699610107812,-1.2753677103583734,0.0001919196289017758,0.0015584116556607301,-0.0013391548321323205,-0.0007862227354491968,-0.0005070478595162132,0.0009697739620939637,0.0014467967163724225,0.1935308277606964,-21.79654312133789,-2.35798716545105,22.59223175048828,0.6801248788833618,2.2615859508514404,-0.06678618490695953,,,,,,,,,
1739402225.4185765,0.5256652190008962,0.0960302780444772,-0.9533396136932432,-2.068930906348584,0.1377046249081489,2.1375681751191906,-1.2753678963640338,-1.7979137870585498e-05,-0.0012531481612276072,0.00022655558086331809,-0.0003996185185204679,0.0008400404987410187,-0.0009388646058905244,-0.0005087492887200486,0.2689092457294464,-21.72116470336914,-2.35798716545105,22.56842803955078,0.6801248788833618,2.2753188610076904,-0.027418512850999832,,,,,,,,,
1739402225.4295874,0.5256651010751087,0.09603364024847705,-0.95334026135553,-2.068932663461403,0.1377011779415133,2.137573487299754,-1.2753685857536206,0.00020672370901656667,0.0011402785434070826,-0.0005540592418724133,-0.00032505174709822186,-0.001729123451453915,0.0010247881888264126,0.00011702536314796286,0.2411382496356964,-21.79654312133789,-2.35798716545105,22.59223175048828,0.7002664804458618,2.2615859508514404,-0.06037749722599983,,,,,,,,,
1739402225.4404926,0.5256702357000882,0.09603182224287297,-0.9533395421970323,-2.0689308817667316,0.13770460786213462,2.1375690405499737,-1.2753693419860361,0.0012398458507878781,0.00013627511170616842,0.0007957209955449644,0.00040832935001222843,-0.00022507232994295289,0.0003653817314209726,0.00044784771879892817,0.1697271168231964,-21.77273941040039,-2.35798716545105,22.56842803955078,0.6801248788833618,2.2679946422576904,-0.05396880581974983,,,,,,,,,
1739402225.4504986,0.5256668135475077,0.09603471646475176,-0.9533385762477563,-2.068931119858278,0.13770265960559003,2.1375705558493054,-1.2753737526617404,0.00013269694326184945,-0.0005956386528415711,-6.803426185420094e-05,0.0001716905589732695,-0.0009715325790792345,0.00046083994563007825,0.0009536694267950516,0.2173345386981964,-21.79654312133789,-2.38179087638855,22.56842803955078,0.6938577890396118,2.2551772594451904,-0.013685601763427258,,,,,,,,,
1739402225.4605844,0.5256675288032939,0.09603158593492091,-0.953337869400103,-2.0689333551021987,0.137705520546557,2.1375705558493054,-1.2753701692939168,0.0006527935388830201,-0.0001894034925631109,-0.00028390789677512434,-0.00025509325469154354,0.0009147872611558984,-0.00011125226834754395,-0.000539518647147051,0.2173345386981964,-21.77273941040039,-2.38179087638855,22.59223175048828,0.6801248788833618,2.2551772594451904,-0.020094294100999832,,,,,,,,,
1739402225.4705844,0.5256702474314496,0.09603776956804644,-0.9533403565282783,-2.068934446187675,0.13770431683414264,2.137569798189227,-1.275367826612485,0.001504892113608065,0.0012107127993231253,-0.0010748587860942558,-0.0010123003493337239,0.00041726208787963917,9.928040912402948e-05,0.0014706583604249257,0.1697271168231964,-21.82431411743164,-2.35798716545105,22.61603546142578,0.6737161874771118,2.2615859508514404,-0.06678618490695953,,,,,,,,,
1739402225.4826205,0.5256682946873644,0.09603877459919613,-0.9533356748067935,-2.068938090893844,0.1377038150988179,2.1375681746319164,-1.2753741058744665,-9.626545220739252e-05,0.0006335232882598853,0.00017665537739272987,-0.0005362391031688464,-0.000512536511042039,-0.0009836539368731567,-0.0017643680786040344,0.1935308277606964,-21.84811782836914,-2.4095618724823,22.66364288330078,0.6865335702896118,2.2753188610076904,-0.013685601763427258,,,,,,,,,
1739402225.493528,0.5256647071953469,0.09603681644315767,-0.9533330563270885,-2.0689318246849258,0.13770386775959548,2.1375727263602227,-1.2753701010996652,-0.0006497444445961155,-0.0015351733153140838,0.0004638076649268329,0.0004000629740276682,-0.000606349708246909,0.002062846273344082,0.0002773768723413943,0.2173345386981964,-21.82431411743164,-2.4571692943573,22.56842803955078,0.6865335702896118,2.2487685680389404,-0.04756011441349983,,,,,,,,,
1739402225.504496,0.5256668178236394,0.09604120343554812,-0.9533356717934159,-2.0689326635042717,0.1377039072508378,2.137569042475191,-1.275371685411119,-7.874124872664174e-05,0.00045385773151003104,-0.0007630607324961003,0.0010122624401789318,-0.0004671925700090949,-6.041766040978979e-05,-0.00021810055506015083,0.2173345386981964,-21.87192153930664,-2.4095618724823,22.59223175048828,0.6865335702896118,2.2679946422576904,-0.03382720425724983,,,,,,,,,
1739402225.5145805,0.5256668135476291,0.09603877897587895,-0.9533335771771325,-2.068936238615994,0.13770390725150658,2.13756979818926,-1.275371724656311,0.0002358581891363449,0.00039670539513323474,0.0008273925825628306,-0.0004438761822255606,0.001155699670735632,0.0005713835647917675,0.0002041382046846742,0.2173345386981964,-21.84811782836914,-2.4333655834198,22.63983917236328,0.6865335702896118,2.2615859508514404,-0.03382720425724983,,,,,,,,,
1739402225.5255623,0.5256668135475567,0.09603777545764695,-0.953335671853429,-2.068935144808903,0.1377015260341175,2.137570557787372,-1.2753654068651203,7.08865945928768e-05,-0.0008453863829433175,-0.0004940546950206118,0.0001815702985096652,-0.0008895840587450755,6.48223425503805e-05,0.00012874666904674482,0.2173345386981964,-21.82431411743164,-2.4095618724823,22.61603546142578,0.7066751718521118,2.2551772594451904,-0.06037749722599983,,,,,,,,,
1739402225.5355875,0.5256665795441364,0.09604096612617241,-0.9533394274351363,-2.0689326648676096,0.13770279711114503,2.137569798189238,-1.275367671118499,0.00018764468856570645,0.0012019595455549327,-0.0008699585378693232,0.001249001294407289,8.028090479075402e-05,-0.000561676121298464,0.0007401855928432396,0.2173345386981964,-21.87192153930664,-2.35798716545105,22.59223175048828,0.6865335702896118,2.2615859508514404,-0.06678618490695953,,,,,,,,,
1739402225.5466313,0.5256668106573046,0.09603941163278867,-0.9533356452961907,-2.0689309573513524,0.13770498083401828,2.137569969708156,-1.2753693434387003,-0.000716816823558387,0.0014934399024549032,0.0004999521358120896,0.0009398104664079155,0.00023233185521723178,0.00020207506220637405,0.000777765295950796,0.2173345386981964,-21.84811782836914,-2.38179087638855,22.56842803955078,0.6801248788833618,2.2615859508514404,-0.05396880581974983,,,,,,,,,
1739402225.5575707,0.5256684133999255,0.09603135805136781,-0.9533377515058997,-2.068933428794444,0.13769985574073587,2.1375698025527825,-1.2753666090099285,-3.95132600709385e-05,-0.0015448482254409128,-0.00017121732940787404,0.0002529085112335271,0.00022642244134448125,0.00035134847903988407,0.0014222836380707272,0.1935308277606964,-21.74496841430664,-2.38179087638855,22.59223175048828,0.6938577890396118,2.2615859508514404,-0.07411040365695953,,,,,,,,,
1739402225.5684905,0.5256687644862309,0.09603197949365873,-0.953337636965472,-2.0689309573556645,0.137702226578833,2.137569040044656,-1.2753693214728334,0.0005626998712706347,-0.000627683518082051,3.2084281058957635e-05,-0.0002623781536339802,-0.00075941152596477,-0.0005696414182142413,-0.00040380864871311835,0.1935308277606964,-21.74496841430664,-2.38179087638855,22.56842803955078,0.7002664804458618,2.2679946422576904,-0.05396880581974983,,,,,,,,,
1739402225.5785234,0.5256668135489025,0.09602811584395776,-0.9533377517569374,-2.0689326635343686,0.1377061407398301,2.1375681746319137,-1.2753685857793844,6.784455157475894e-05,-0.0014574346304315837,-0.0004909865230827596,-0.00040313189454325396,0.00061336856415461,-0.000728374503271537,0.0005851979038084281,0.2173345386981964,-21.72116470336914,-2.38179087638855,22.59223175048828,0.6673074960708618,2.2753188610076904,-0.06037749722599983,,,,,,,,,
1739402225.588625,0.5256668096956485,0.09603679871915846,-0.953341684017387,-2.0689330529347347,0.13770564469862562,2.1375690405291485,-1.2753685857795085,-0.00026773508370486906,0.00024350088950766675,-0.001005299986586246,-0.0003684293635877509,0.00016579194111277407,-0.0001710497473695764,0.0005524544316233896,0.2173345386981964,-21.82431411743164,-2.35798716545105,22.56842803955078,0.6865335702896118,2.2679946422576904,-0.06037749722599983,,,,,,,,,
1739402225.5995712,0.525666813547535,0.09603206999154838,-0.9533377916376798,-2.068933352275989,0.13770298870877862,2.1375705558493054,-1.2753685857795085,-0.00020977374597203586,0.00027867373949862077,0.001217361426352701,0.00022478152391138548,-0.00044283112608250444,-9.223604025768704e-05,0.0002827440444875817,0.2173345386981964,-21.74496841430664,-2.4095618724823,22.59223175048828,0.6938577890396118,2.2551772594451904,-0.06037749722599983,,,,,,,,,
1739402225.6105573,0.5256685174014946,0.09603190573651728,-0.9533363871503489,-2.0689288096519807,0.13770223103844664,2.1375690405291485,-1.2753756604404882,-3.692158404744136e-05,-0.000576514114027259,0.0008833512186902867,0.001634723605594772,-0.001259016905957002,-0.0007311640479454896,-0.002574812542522986,0.1935308277606964,-21.77273941040039,-2.4095618724823,22.54065704345703,0.7002664804458618,2.2679946422576904,-0.0008682189509272575,,,,,,,,,
1739402225.6215603,0.5256685231793078,0.09603395073323748,-0.9533341276043108,-2.068936512470363,0.13770386775962024,2.1375722194435363,-1.2753756255555038,0.00023736480925265073,-0.0009378022452563898,0.0009163429615550399,-0.0009832486611581234,0.00018149164674020462,0.0006482050400338221,-0.0021883139503642507,0.1935308277606964,-21.77273941040039,-2.4333655834198,22.61603546142578,0.6865335702896118,2.2679946422576904,-0.0008682189509272575,,,,,,,,,
1739402225.6325607,0.5256651009792656,0.09603578041021506,-0.9533356720166295,-2.068932893091093,0.13770924637107768,2.1375697981952086,-1.2753706136226903,-0.00016445264083529189,0.00031295876669311916,0.0008048232049564915,0.00017077097983410978,0.0014461088944449942,-0.00011780820843652671,-0.0005803546148460872,0.2411382496356964,-21.79654312133789,-2.4095618724823,22.59223175048828,0.6801248788833618,2.2615859508514404,-0.04023589566349983,,,,,,,,,
1739402225.642603,0.5256651010268246,0.09603947920099752,-0.9533377255411937,-2.0689375076716043,0.13770264668294416,2.137569798189227,-1.2753739876464039,-0.00011449460335469621,0.00014935605823606594,-0.0005121977028785654,-0.0009291275689277936,-0.0005203758378761622,-0.0006986259405058177,0.001436763985440142,0.2411382496356964,-21.84811782836914,-2.38179087638855,22.61603546142578,0.6938577890396118,2.2615859508514404,-0.013685601763427258,,,,,,,,,
1739402225.6535246,0.5256629949960434,0.0960378308435932,-0.9533348428558629,-2.0689353986643444,0.13770244661824932,2.1375704533799875,-1.275373342399418,-0.0007585200885324745,-0.000598299863381867,0.000535316953257756,-0.0015404101959878432,0.0003475163389775356,0.00015670259174887038,-2.666469242078198e-05,0.2411382496356964,-21.82431411743164,-2.4333655834198,22.61603546142578,0.6865335702896118,2.2679946422576904,-0.020094294100999832,,,,,,,,,
1739402225.6636183,0.5256689506123094,0.09603846255704801,-0.9533368195756238,-2.0689401921622097,0.1377029419332595,2.137569798213154,-1.275375621194533,0.00011737876570603619,-0.0010187379422519772,-0.0006640787329468652,-0.0028347125580234084,0.00017466618019635618,0.0004717253282123932,-0.002501764810526971,0.2173345386981964,-21.84811782836914,-2.38179087638855,22.66364288330078,0.6673074960708618,2.2615859508514404,-0.0008682189509272575,,,,,,,,,
1739402225.6756432,0.5256668400505736,0.09604121231242856,-0.9533356719624676,-2.068934457525964,0.1377038677416372,2.137571313563219,-1.275368585941014,0.000492627163015243,0.0010822082558171046,0.0008622721149627538,0.0003858495365256268,0.0014406678167233089,0.0011363511027961764,0.0012579857932041947,0.2173345386981964,-21.87192153930664,-2.4095618724823,22.61603546142578,0.6865335702896118,2.2487685680389404,-0.06037749722599983,,,,,,,,,
1739402225.6865568,0.5256651010268752,0.09603570460152618,-0.9533354378674058,-2.0689309438675267,0.13770781835183607,2.1375691582667184,-1.2753724837526597,0.0006042404804317248,-0.0008990150879710716,0.001453927456106452,0.002141650848291008,0.0014298038224878937,0.0005575771799831029,-0.0015967324551460352,0.2411382496356964,-21.79654312133789,-2.4095618724823,22.54065704345703,0.6801248788833618,2.2679946422576904,-0.027418512850999832,,,,,,,,,
1739402225.6965647,0.5256664203645546,0.09603949091896255,-0.9533356718547502,-2.0689317996311734,0.1377046256363605,2.137570556335816,-1.275366164525223,0.0005073318061076084,0.000650959455542701,0.0002776827103933169,0.001461000865644726,0.0008779402004668777,0.0002238350023666542,0.0014936027877480067,0.1935308277606964,-21.84811782836914,-2.4095618724823,22.56842803955078,0.6801248788833618,2.2551772594451904,-0.05396880581974983,,,,,,,,,
1739402225.7065756,0.5256687248833752,0.09603777839951595,-0.9533395343255874,-2.0689326673248543,0.1377046254197839,2.1375699551726783,-1.2753724416342211,0.0009919183221712398,0.000174061094269024,-0.00061902921111138,0.0006297292865292043,0.000534088276754598,0.0011912361206248803,-0.002388525187194475,0.2173345386981964,-21.82431411743164,-2.35798716545105,22.59223175048828,0.6801248788833618,2.2615859508514404,-0.0008682189509272575,,,,,,,,,
1739402225.7175353,0.5256651000674449,0.09603777833911965,-0.9533356728398593,-2.068930892159623,0.13770474389320264,2.1375697981895225,-1.275369208253431,-0.00017879390724687152,0.0003283459290330494,0.00037798006698784277,0.000852983953539102,0.0006962787140668747,-0.0004316444610739591,0.00041028663742659734,0.2411382496356964,-21.82431411743164,-2.4095618724823,22.56842803955078,0.6801248788833618,2.2615859508514404,-0.05396880581974983,,,,,,,,,
1739402225.7285273,0.5256668135118855,0.09602898486864586,-0.9533377516485739,-2.0689326928930236,0.13770848822412313,2.137569798727579,-1.2753709669961344,-4.882744066243681e-05,-0.0009788600925098821,9.538149372872812e-05,-0.0003760784884676567,0.0005288495687740079,0.0010270207953763273,-0.0002625821414417711,0.2173345386981964,-21.74496841430664,-2.38179087638855,22.59223175048828,0.6865335702896118,2.2615859508514404,-0.04023589566349983,,,,,,,,,
1739402225.7385302,0.5256685260682873,0.0960319869334857,-0.9533395343255876,-2.0689309658551114,0.1377029420355746,2.137569798189236,-1.2753741116886759,0.000635500583051266,-0.0004050024933381132,-0.00039408481424665415,0.0007043521661618147,0.00011371393231280312,-0.0004787809634939141,-0.0019179224601112601,0.1935308277606964,-21.74496841430664,-2.35798716545105,22.56842803955078,0.6673074960708618,2.2615859508514404,-0.013685601763427258,,,,,,,,,
1739402225.7496045,0.5256629949603776,0.09603405900334414,-0.9533356983496661,-2.0689354186635383,0.1377011779234594,2.1375713198081012,-1.2753756211946645,-0.0012381373757744843,2.1470380278631714e-06,0.0007447426951044161,-0.0006396652327458846,5.281209666718983e-06,0.0004309797405556,-0.001786414968243527,0.2411382496356964,-21.77273941040039,-2.4095618724823,22.59223175048828,0.7002664804458618,2.2487685680389404,-0.0008682189509272575,,,,,,,,,
1739402225.7605608,0.525666581477044,0.09603791381361568,-0.9533356718588625,-2.0689373032898786,0.1377053962375465,2.137570857881227,-1.2753728224478118,4.484701732076119e-05,0.0009684490677046708,0.00013457462308866933,-0.001789955223783068,0.0012698894049987374,0.000435691551661093,8.406742398482184e-05,0.2173345386981964,-21.79654312133789,-2.4095618724823,22.61603546142578,0.6737161874771118,2.2615859508514404,-0.027418512850999832,,,,,,,,,
1739402225.7715826,0.5256651010255154,0.09603554301123433,-0.9533377545920076,-2.0689288378956956,0.1377022485903629,2.1375690405351304,-1.2753662040799632,4.16462100955435e-06,0.00033853224994435634,-0.0008936113545697207,0.0009731922430596215,-0.00010730528631632615,-0.0004198452229786712,0.0019087788766250825,0.2411382496356964,-21.79654312133789,-2.38179087638855,22.54065704345703,0.7002664804458618,2.2679946422576904,-0.08051909506320953,,,,,,,,,
1739402225.7816515,0.5256699256214816,0.0960342666092463,-0.953335674802202,-2.06893452554043,0.13770442841914313,2.1375705558493054,-1.2753740535466578,0.0005566483856807598,-0.0005457483331664745,0.000273866671214165,-0.0011103028354431128,0.001673803136489467,0.0002751899219613737,-0.0014937438228422727,0.1697271168231964,-21.77273941040039,-2.4095618724823,22.61603546142578,0.6938577890396118,2.2551772594451904,-0.013685601763427258,,,,,,,,,
1739402225.7924833,0.5256650997410893,0.09603777829212597,-0.9533327848535698,-2.068934457514102,0.13770390725889076,2.1375693942263747,-1.2753741233167826,-0.000379341011029337,7.834246151500178e-05,0.001027440982360252,-0.0004438369710658334,0.0018887649862762475,-0.00016986503194924395,-0.002620012723520352,0.2411382496356964,-21.82431411743164,-2.4095618724823,22.61603546142578,0.6865335702896118,2.2679946422576904,-0.013685601763427258,,,,,,,,,
1739402225.8024971,0.5256668132265425,0.09604235838196795,-0.9533359367193536,-2.068937277764711,0.13770304135427433,2.1375690405351384,-1.2753741063592872,-0.0001439478201704366,0.0002488170633055338,-8.93147377628497e-05,-0.0005205048682068627,0.000667749852143349,-0.0013045619214406901,-0.0009085526444847808,0.2173345386981964,-21.84811782836914,-2.4095618724823,22.61603546142578,0.6938577890396118,2.2679946422576904,-0.013685601763427258,,,,,,,,,
1739402225.812594,0.5256685260682824,0.09603576954503222,-0.9533377516530539,-2.068932929982657,0.13770386824790834,2.1375705732919084,-1.2753748523367132,-0.0003316043867047264,-0.0010878290291847126,-0.0002669325292240022,-0.0002931452383109256,-0.0001261058650929749,0.0008742942626977287,-0.0009136409709626374,0.1935308277606964,-21.79654312133789,-2.38179087638855,22.59223175048828,0.6865335702896118,2.2551772594451904,-0.04023589566349983,,,,,,,,,
1739402225.824496,0.5256706718354998,0.09603570138975795,-0.9533366255330293,-2.068933666921175,0.13770706670481525,2.137570555849404,-1.2753772848107958,0.0007731896205835807,0.00035827202259860764,-0.0005400249827570513,0.00021885638927573298,0.0010340658415348475,0.00018440218234417574,-0.0020342550828393443,0.1935308277606964,-21.79654312133789,-2.4095618724823,22.59223175048828,0.6865335702896118,2.2551772594451904,-0.013685601763427258,,,,,,,,,
1739402225.8345983,0.5256668122757002,0.09603777839906967,-0.953337778181244,-2.0689372237761043,0.13770462543783105,2.137570595095162,-1.2753666754769495,0.0005486030764224188,0.000656141054255066,-0.0005242694954240642,-0.0013700088998597239,0.00035825907672413257,0.0002295658443966934,0.001136479818219893,0.2173345386981964,-21.82431411743164,-2.38179087638855,22.63983917236328,0.6801248788833618,2.2551772594451904,-0.08051909506320953,,,,,,,,,
1739402225.8456135,0.5256664200374986,0.09604090691211756,-0.9533377516487183,-2.0689308836969564,0.1377061962571604,2.1375698156320513,-1.275367828176364,0.0008432064681867969,0.0013440863198319443,0.0005968234486381676,0.0018491620762782757,1.0936510176322593e-05,0.0005633476991583972,0.0005209925667002548,0.1935308277606964,-21.84811782836914,-2.38179087638855,22.56842803955078,0.6938577890396118,2.2615859508514404,-0.06678618490695953,,,,,,,,,
1739402225.8564928,0.5256668106467369,0.0960357453089097,-0.9533398974157804,-2.0689352124149907,0.13770538456051862,2.137569158266817,-1.2753688419064382,0.0005401355054627131,-0.0003256403539564794,-7.903179712213956e-05,-8.859047830425101e-05,0.00019443761127801366,-0.00037826587181150463,0.0007947629747421255,0.2173345386981964,-21.79654312133789,-2.38179087638855,22.61603546142578,0.6737161874771118,2.2679946422576904,-0.04023589566349983,,,,,,,,,
1739402225.8665621,0.5256684833883697,0.09603585937903253,-0.9533416802381545,-2.0689374308363364,0.13770649469760893,2.137568178994561,-1.2753678279223764,0.0008956888559605537,0.0005087845966464736,-0.00104792334533819,-0.0008199580855349229,0.0012229923340430567,-0.0004932938471539792,0.0009606885573938007,0.1935308277606964,-21.79654312133789,-2.35798716545105,22.61603546142578,0.6673074960708618,2.2753188610076904,-0.06678618490695953,,,,,,,,,
1739402225.8784952,0.5256622929855418,0.09603554281878439,-0.9533356719071654,-2.0689290317219577,0.1377054020961035,2.13757055584933,-1.2753698673219565,-0.0013767087325508652,0.0002587805070636602,-0.0007858502000028208,0.0010616916490519006,0.0016124178028062025,-2.0095776827284658e-05,-4.567967217791974e-05,0.2411382496356964,-21.79654312133789,-2.4095618724823,22.54065704345703,0.6737161874771118,2.2551772594451904,-0.013685601763427258,,,,,,,,,
1739402225.8885095,0.5256689588709272,0.09603406793659026,-0.953335672185762,-2.068929084650704,0.13770388092351632,2.1375722194435363,-1.275370913854208,3.565152197096816e-05,-0.00023815380922555726,0.0008330187945291284,0.0002990207400744567,-0.00014167265139419934,-0.00041049668689433644,-0.0010594891689792252,0.2173345386981964,-21.77273941040039,-2.4095618724823,22.51685333251953,0.6865335702896118,2.2679946422576904,-0.013685601763427258,,,,,,,,,
1739402225.8985574,0.5256702385183528,0.09603682914035847,-0.9533399062461037,-2.0689327441575234,0.13770462541999584,2.1375713536001393,-1.2753709674273572,0.0015550155082824696,0.00045521964066744334,-0.00029054423047021366,-0.00021964876415084915,0.0002582118703213256,-0.00010882107004043032,-8.440123411063551e-05,0.1697271168231964,-21.82431411743164,-2.38179087638855,22.59223175048828,0.6801248788833618,2.2753188610076904,-0.04023589566349983,,,,,,,,,
1739402225.9095674,0.5256661408646907,0.09603546403358518,-0.9533380989865625,-2.068929133919756,0.1377046278574978,2.1375706083565653,-1.2753709225994385,-0.0008337436689563037,0.00013451849560186307,-0.0006013278705189146,0.00035714423210054256,0.000526291558609545,0.0012549595239392541,0.0008973566561950789,0.2173345386981964,-21.79654312133789,-2.38179087638855,22.54065704345703,0.6801248788833618,2.2551772594451904,-0.013685601763427258,,,,,,,,,
1739402225.9205303,0.5256699252890974,0.0960357803447927,-0.9533377500737148,-2.068932663504581,0.13770619339482854,2.137569044890688,-1.275372467243126,-0.0005424687646931623,0.0004334120181692001,0.0005506682156577994,0.001082056745308355,0.00015111639433522536,-0.001407169549634765,0.0005840497687276245,0.1697271168231964,-21.79654312133789,-2.38179087638855,22.59223175048828,0.6673074960708618,2.2679946422576904,-0.027418512850999832,,,,,,,,,
1739402225.9325566,0.5256627959923122,0.09603769882436923,-0.9533384669043028,-2.0689365153047374,0.13770142539132074,2.137574038195303,-1.2753685859948207,-0.001232724980648666,0.00042353531190519986,-0.0006570549025654629,-0.0007536846214248179,-0.0018057161787416087,0.000785291206571862,0.0011306251992959618,0.2411382496356964,-21.82431411743164,-2.38179087638855,22.61603546142578,0.6801248788833618,2.2615859508514404,-0.06037749722599983,,,,,,,,,
1739402225.943483,0.5256685144638856,0.09603601722110827,-0.9533354378593303,-2.0689326638605525,0.13770111942677965,2.1375690406069183,-1.2753733104219813,0.00014854883014984172,0.0004183119565924815,0.0003411071169823689,0.0009953409390244716,-0.0007691573195694377,7.096881364628078e-05,-0.00022730303218020662,0.1935308277606964,-21.79654312133789,-2.4095618724823,22.59223175048828,0.6737161874771118,2.2679946422576904,-0.020094294100999832,,,,,,,,,
1739402225.953644,0.5256651007057676,0.09604051689412667,-0.9533387847944237,-2.0689365927789676,0.1377031905508332,2.1375690405291485,-1.2753717241722458,-0.0010986677111648909,0.001366218643593994,-0.0005620859601057199,-0.00018554047185916246,-0.001590168157000917,-0.0012325961859500723,-0.0016404127201747397,0.2411382496356964,-21.84811782836914,-2.38179087638855,22.61603546142578,0.6801248788833618,2.2679946422576904,-0.03382720425724983,,,,,,,,,
1739402225.9646068,0.5256668048807615,0.09603706776005005,-0.953335671864545,-2.0689389936872478,0.13770738550351308,2.1375729921236344,-1.2753629864561475,-0.000624351020425028,-0.00019644078639535984,0.00038865186233737734,4.37841053698706e-06,0.002401446345932523,0.0006729986908108591,0.003107144669633249,0.2173345386981964,-21.82431411743164,-2.4095618724823,22.63983917236328,0.6608988046646118,2.2615859508514404,-0.08051909506320953,,,,,,,,,
1739402225.9755292,0.525672622774761,0.09603789242854006,-0.9533395343619264,-2.0689345520100275,0.13770386397042778,2.1375708709273384,-1.275367526123213,0.0022996670598904056,0.0006721169425221891,-0.001811829011682758,-9.00481036908364e-05,0.00029809977073249846,-9.486659881512209e-05,0.0017767594535884727,0.1697271168231964,-21.82431411743164,-2.35798716545105,22.61603546142578,0.6865335702896118,2.2615859508514404,-0.06037749722599983,,,,,,,,,
1739402225.9855633,0.52566439616801,0.09603791132664476,-0.9533338891816945,-2.068937432189874,0.13770528944078725,2.1375705602281228,-1.2753676441630897,-0.0010629734372257103,-0.00014286477071643352,0.00037760088944015083,-0.00046429866108763427,0.00018891384402261306,0.00030249674125971623,0.002405976711346917,0.2411382496356964,-21.79654312133789,-2.4333655834198,22.61603546142578,0.6865335702896118,2.2551772594451904,-0.04023589566349983,,,,,,,,,
1739402225.997557,0.5256622929818038,0.09603690617488266,-0.9533357075070327,-2.0689344831802887,0.1377028892324156,2.1375720711694863,-1.2753678281011132,-0.001334716887624725,-0.00035752592112848016,-0.0006566412903754647,0.00013924116580513532,-0.0012041316573602313,0.000664248897180893,0.00141614871058339,0.2411382496356964,-21.77273941040039,-2.4095618724823,22.61603546142578,0.7002664804458618,2.2423598766326904,-0.06678618490695953,,,,,,,,,
1739402226.0085442,0.5256701220516249,0.09603578051211879,-0.9533338805149676,-2.0689329556196148,0.13770462536681496,2.13757285723358,-1.2753678276353537,0.0010165117917138766,-0.000375446005908224,3.262740660049906e-05,0.000483828709650481,-0.0013992512376799385,0.0014701300190025006,0.0014600179336790998,0.1697271168231964,-21.79654312133789,-2.4333655834198,22.56842803955078,0.6801248788833618,2.2487685680389404,-0.06678618490695953,,,,,,,,,
1739402226.019487,0.525664681480071,0.09603649074734683,-0.9533377694726795,-2.068935428332804,0.13770415152605364,2.1375690797837197,-1.2753756255552795,0.0004669480102882877,0.0002901897134947624,0.00010207386546347291,-3.0510183574333067e-05,-0.0006477305531261082,-0.0006785384360915236,-0.0012915217921884085,0.2173345386981964,-21.79654312133789,-2.38179087638855,22.59223175048828,0.6801248788833618,2.2679946422576904,-0.0008682189509272575,,,,,,,,,
1739402226.0295243,0.5256675274832178,0.09603578923968785,-0.9533356631922214,-2.068932947163099,0.1377053832343408,2.13757055584997,-1.275372482317128,0.0004798669935731566,0.0001805920504162722,0.0016552562833143333,0.0010081448655901016,0.0006970703693947914,-0.00028205941250891465,-0.00020177092507830076,0.2173345386981964,-21.79654312133789,-2.4095618724823,22.56842803955078,0.6737161874771118,2.2551772594451904,-0.027418512850999832,,,,,,,,,
1739402226.0395463,0.5256629689007565,0.0960394909203959,-0.9533395343254408,-2.068933377808528,0.1377046229820506,2.137573734763693,-1.2753682857395243,-0.002094668658433508,0.001433164852589122,-0.0005446386232420792,-0.0004677786764748765,0.0018438615589596535,0.0003000210315354405,0.001112571645177402,0.2411382496356964,-21.84811782836914,-2.35798716545105,22.59223175048828,0.6801248788833618,2.2551772594451904,-0.05396880581974983,,,,,,,,,
1739402226.0506008,0.5256668093385485,0.09603878774487515,-0.9533402495813248,-2.06893476080901,0.13770538291729495,2.1375705559031406,-1.2753739388222909,0.000663210668152638,0.0009775132647076152,-0.0012518721612078962,-0.0009744201695311273,0.000797624948185674,-0.000733876922691108,-0.001431127075564803,0.2173345386981964,-21.84811782836914,-2.35798716545105,22.61603546142578,0.6737161874771118,2.2551772594451904,-0.020094294100999832,,,,,,,,,
1739402226.0615551,0.52566852606828,0.09603577785230523,-0.9533377516499143,-2.068929030632586,0.13770569364887736,2.137569798189227,-1.2753678268827724,0.00044566996854363884,0.0006367923675453947,-0.00014981928407315528,0.0006392450364522556,0.0006094221618713077,-0.0007389723626239741,0.001733350940207937,0.1935308277606964,-21.79654312133789,-2.38179087638855,22.54065704345703,0.6801248788833618,2.2615859508514404,-0.06678618490695953,,,,,,,,,
1739402226.072517,0.5256685260682878,0.09603578045864823,-0.9533377516485685,-2.0689344575149504,0.13770538308588143,2.1375705573028556,-1.2753685872330516,0.00045549846669779253,-0.0004302346423875822,0.0013882336317541147,-0.0007097640713266945,0.0003675621808705776,0.0004857171836679195,-0.00018793963701486103,0.1935308277606964,-21.79654312133789,-2.38179087638855,22.61603546142578,0.6737161874771118,2.2551772594451904,-0.06037749722599983,,,,,,,,,
1739402226.0825863,0.5256651010268254,0.09603382997131593,-0.9533433971195109,-2.0689308809270948,0.13770390578820296,2.1375705950951867,-1.2753709844395251,-0.00036087734469748714,-0.00011247443975953764,-0.0015370093940506287,8.54946310140246e-05,-0.000322278885478578,-0.0005726420894830743,-0.00044350917331831415,0.2411382496356964,-21.77273941040039,-2.3064124584198,22.56842803955078,0.6865335702896118,2.2551772594451904,-0.04023589566349983,,,,,,,,,
1739402226.0926547,0.5256651010268254,0.09603777806995134,-0.9533377526297204,-2.0689311105151655,0.13770462542041692,2.1375699159274615,-1.2753710847347628,0.0007400224723373202,0.00013411733435422617,-1.7188295634462344e-05,0.0007397753786887793,0.000406464571358028,3.405598167602278e-05,-0.001005437565218511,0.2411382496356964,-21.82431411743164,-2.38179087638855,22.56842803955078,0.6801248788833618,2.2615859508514404,-0.04023589566349983,,,,,,,,,
1739402226.1034958,0.5256667312665186,0.09603574530091451,-0.953333888860707,-2.0689339542825382,0.13770300186246218,2.13757055584997,-1.2753701011003298,0.0003470892404515045,0.00035098907533862836,0.0010520046422730703,-0.0006256655479897087,0.000582712738814486,-0.0010878462012829763,0.0008672882719929594,0.2173345386981964,-21.79654312133789,-2.4333655834198,22.56842803955078,0.6938577890396118,2.2551772594451904,-0.04756011441349983,,,,,,,,,
1739402226.1135633,0.525668421744382,0.09603993557195963,-0.9533387054318957,-2.068936232999197,0.1377046254197729,2.137572977103615,-1.2753685804498243,0.0005465249936571266,0.0005614944978070739,-0.00010217762624649613,0.00022567169796684208,0.00037063620349126294,2.2488839469815905e-05,0.0013287024679276517,0.1935308277606964,-21.82431411743164,-2.38179087638855,22.63983917236328,0.6801248788833618,2.2615859508514404,-0.06037749722599983,,,,,,,,,
1739402226.1235678,0.5256685260665211,0.09603949084826754,-0.9533339687797222,-2.0689383754560544,0.137705276277137,2.137570601124704,-1.2753717892756928,0.0009627195632389179,0.0004702411218395499,0.000733904463354361,-0.0008081384141069184,0.0008154467767395295,-0.0006467354919904774,-0.0006357711674248425,0.1935308277606964,-21.84811782836914,-2.4333655834198,22.63983917236328,0.6865335702896118,2.2551772594451904,-0.0072769103571772575,,,,,,,,,
1739402226.13453,0.5256685261773041,0.09603848868819918,-0.9533356807258188,-2.068937511564043,0.13770416469771948,2.1375698374891745,-1.2753706649476568,0.0009649990306663137,0.00030611793376580064,0.00013696268625744466,-0.0014552639896851652,-0.0007702207356390224,-0.0004894821854831328,0.0013247395008588357,0.1935308277606964,-21.82431411743164,-2.4095618724823,22.61603546142578,0.6801248788833618,2.2615859508514404,-0.03382720425724983,,,,,,,,,
1739402226.1445973,0.525666809374658,0.09603994727657861,-0.9533356702781272,-2.0689332532858704,0.1377038679144072,2.1375697981898925,-1.275368590122213,-0.0003196299058266167,0.0006682556343425746,0.001013507134537887,0.0010726448438403667,0.0005720498974556904,-0.0005840788214172123,0.0007334158111294136,0.2173345386981964,-21.82431411743164,-2.4095618724823,22.56842803955078,0.6865335702896118,2.2615859508514404,-0.06037749722599983,,,,,,,,,
1739402226.1556256,0.5256609970195011,0.09603788363971251,-0.9533377516485595,-2.0689348332456303,0.13770544298498763,2.1375701001672778,-1.2753713714442905,-0.0007689410650642643,0.0012364914184732087,-2.4317685038069867e-05,0.00035302341253650566,-0.0005731995450640413,9.448025574163222e-05,-0.0006677975762927617,0.2689092457294464,-21.82431411743164,-2.38179087638855,22.59223175048828,0.7002664804458618,2.2679946422576904,-0.03382720425724983,,,,,,,,,
1739402226.1665556,0.5256651010149366,0.09603769929518031,-0.9533388316793987,-2.0689347301204797,0.13770462543783013,2.1375714835807442,-1.2753654083166768,-0.0008158273082540789,-0.0001796170466659418,-0.00011819219695790402,0.0005687730481975448,-0.0008051569426821641,0.00020938696162744715,0.0005869789648687751,0.2411382496356964,-21.82431411743164,-2.35798716545105,22.59223175048828,0.6801248788833618,2.2487685680389404,-0.06037749722599983,,,,,,,,,
1739402226.1784937,0.525670238589019,0.09603862128741601,-0.9533338891777274,-2.0689354951341588,0.13770388547382886,2.137569798351693,-1.2753662044907876,0.0009074729456039099,-0.0001295684596300904,0.000407925261255789,-0.0007528194785500889,0.0014087763458565318,-0.00043078829970125544,0.0014154512207229491,0.1697271168231964,-21.79654312133789,-2.4333655834198,22.59223175048828,0.6865335702896118,2.2615859508514404,-0.08051909506320953,,,,,,,,,
1739402226.188562,0.5256684440725764,0.09603578058295872,-0.9533356718587128,-2.068930991380405,0.13770300186256215,2.1375705558493063,-1.275371882431466,0.0010793409319827018,-1.5340184945736974e-05,0.0005412328459034319,0.0009296018168168834,-0.00035022113752140383,3.171952452682788e-05,-0.0001153674124373279,0.1935308277606964,-21.79654312133789,-2.4095618724823,22.56842803955078,0.6938577890396118,2.2551772594451904,-0.06037749722599983,,,,,,,,,
1739402226.19861,0.5256651009184393,0.09603406793793386,-0.9533395608165408,-2.068934840337664,0.13770694823138274,2.137569798189227,-1.2753702188930642,0.0002499890484269207,-0.00022714053226286228,-0.0016842243717203535,0.0009683997815303181,-0.000286428204366681,0.00056041856384294,-0.0007794309002039312,0.2411382496356964,-21.77273941040039,-2.35798716545105,22.59223175048828,0.6865335702896118,2.2615859508514404,-0.04756011441349983,,,,,,,,,
1739402226.2095313,0.525666102870502,0.09603406793793176,-0.9533356718952012,-2.0689347383438457,0.13770386783125557,2.1375702735001574,-1.2753678281743706,-0.0007914507156864791,0.0009132317207498071,0.000721980308862455,-0.00026404090745669475,-0.0007191247824306228,0.0002601623042770658,0.002439136039820257,0.2173345386981964,-21.77273941040039,-2.4095618724823,22.59223175048828,0.6865335702896118,2.2615859508514404,-0.06678618490695953,,,,,,,,,
1739402226.219597,0.5256661115252607,0.09603406793793176,-0.9533377781395223,-2.0689315697268245,0.13770464297139334,2.1375705577954216,-1.2753748635345543,-0.00024902114498667543,0.00019108940218217529,-0.0003377154069822629,0.000157452426510436,0.00019557612190808555,0.0001114601991160045,-0.0024394240378255534,0.2173345386981964,-21.77273941040039,-2.38179087638855,22.56842803955078,0.6801248788833618,2.2551772594451904,-0.0072769103571772575,,,,,,,,,
1739402226.230513,0.5256686320281378,0.0960357800246167,-0.9533376476835367,-2.0689327655420597,0.13770335582021553,2.1375701045279394,-1.2753748591739025,0.0006152513095704356,0.0005526787178181582,0.0005964528364710486,-0.0006880225180461478,-0.0011094113242613893,-5.576727164614508e-06,-0.0012761396632007202,0.1935308277606964,-21.79654312133789,-2.38179087638855,22.59223175048828,0.6938577890396118,2.2679946422576904,-0.0072769103571772575,,,,,,,,,
1739402226.2415137,0.5256650984655412,0.0960357804586605,-0.9533379900665606,-2.0689326663339425,0.13770462417582272,2.137569159726275,-1.275367775792037,-1.585659531392258e-05,0.00046987393779658626,-0.0003572115795859225,0.00015224369884158997,0.0010206311021982318,-2.4355301882927286e-05,0.000926899553687875,0.2411382496356964,-21.79654312133789,-2.38179087638855,22.59223175048828,0.6801248788833618,2.2679946422576904,-0.06678618490695953,,,,,,,,,
1739402226.253481,0.525665101026811,0.09603409424492003,-0.9533356718600587,-2.0689344721057,0.1377039090384957,2.1375699180270424,-1.2753725235006823,-0.0003433355059784872,-0.0008240903301067512,0.0002968445381435421,-0.00014988419059465408,0.0002826503343712131,0.00016952100969759739,-0.00011703740939838933,0.2411382496356964,-21.77273941040039,-2.4095618724823,22.61603546142578,0.6865335702896118,2.2615859508514404,-0.027418512850999832,,,,,,,,,
1739402226.263497,0.5256668132265643,0.09603949189502561,-0.9533356718587129,-2.0689372013405163,0.137706898400707,2.137570555851335,-1.275368585780206,0.0005783673105811223,0.002058586790910499,0.00017174243485787482,-0.0005239910295723467,-0.00036391135559280007,-0.00038140640720004656,0.0015061146215401252,0.2173345386981964,-21.84811782836914,-2.4095618724823,22.61603546142578,0.6608988046646118,2.2551772594451904,-0.06037749722599983,,,,,,,,,
1739402226.2735162,0.5256685795771044,0.09603778727677682,-0.953336625569368,-2.0689401119929527,0.1377047380426629,2.137569811271179,-1.2753717246569758,0.0006726905182126762,-0.0009539401098189348,-0.001391732780350592,-0.0012350457983593896,0.00027101499581536905,0.00012813548197395066,0.00025686420558448746,0.1935308277606964,-21.82431411743164,-2.4095618724823,22.66364288330078,0.6801248788833618,2.2615859508514404,-0.03382720425724983,,,,,,,,,
1739402226.2835855,0.5256685259621966,0.09603778749344008,-0.9533356807051818,-2.0689344717213407,0.1377087456794742,2.1375713529169675,-1.275370106913866,0.00014585059299711267,-9.863134681947631e-05,0.0008348083631779407,-0.0003548521512403249,0.0012103172071262702,-0.0005809593704872497,0.002181989116582833,0.1935308277606964,-21.82431411743164,-2.4095618724823,22.61603546142578,0.6737161874771118,2.2487685680389404,-0.04756011441349983,,,,,,,,,
1739402226.2935848,0.5256675900546052,0.09603778337050904,-0.9533416935884527,-2.068932774041872,0.13770615981112966,2.1375697981898942,-1.2753687033556713,9.777235817549798e-05,-0.0006769810004652037,-0.0015429078902105932,0.0018156278058415972,0.0014728698623189332,-0.00017434808291311965,0.0013168102142668485,0.1935308277606964,-21.82431411743164,-2.3302161693573,22.59223175048828,0.6673074960708618,2.2615859508514404,-0.06037749722599983,,,,,,,,,
1739402226.3045297,0.5256685173605449,0.09603611366010202,-0.9533356983501148,-2.0689336668853024,0.1377056897305683,2.137573739124344,-1.2753724867322038,-3.056088795427804e-05,-0.0007279290140190486,-0.00012660029615753192,-0.000376760161912102,-0.000586220601571951,-7.154772128759279e-05,-0.0004070004233703924,0.1935308277606964,-21.79654312133789,-2.4095618724823,22.59223175048828,0.6801248788833618,2.2551772594451904,-0.027418512850999832,,,,,,,,,
1739402226.315582,0.5256685164384683,0.09603578046054388,-0.953339531436806,-2.0689354675536995,0.13770431834179825,2.137574193743141,-1.275369329711637,2.9509445312211576e-06,0.00029284130989165315,-0.0006916914294062249,-0.000739273609067872,-0.0005663656470728715,0.0012469565243809647,0.0010889481072464745,0.1935308277606964,-21.79654312133789,-2.35798716545105,22.61603546142578,0.6737161874771118,2.2615859508514404,-0.05396880581974983,,,,,,,,,
1739402226.3265057,0.5256650978168477,0.09603801516241055,-0.9533336551782574,-2.068940154359539,0.13770386336577928,2.137568645607009,-1.2753678281197929,-6.589785792017792e-05,0.00026944146846370645,0.0015400001654446388,-0.0015889759146971855,-0.0010697056677612792,-0.0008164398358320096,0.0025168600479613438,0.2411382496356964,-21.82431411743164,-2.4333655834198,22.66364288330078,0.6865335702896118,2.2753188610076904,-0.06678618490695953,0,0,0,0.000,0,0
1739402226.3365216,0.5256685260682336,0.09603777840352562,-0.9533398935599093,-2.068934729934563,0.13770462590724347,2.1375698025578536,-1.2753724823170542,0.0010492210461236233,0.0002813492409745407,-0.0011237302076486354,3.292872031082636e-05,-9.23062090650195e-05,0.0005702404919247942,0.0002949240712552476,0.1935308277606964,-21.82431411743164,-2.38179087638855,22.59223175048828,0.6801248788833618,2.2615859508514404,-0.027418512850999832,0,0,0,0.000,0,0
1739402226.3465288,0.5256647075167746,0.09603601754633517,-0.9533356373368292,-2.0689316065741807,0.1377038677597028,2.137571211524657,-1.275374105874475,-0.0005021605913283278,0.00020112704450434018,0.0012115206495498087,-9.956030311939038e-05,-0.00038664075783060046,0.0010757176863772499,-0.0006286404582987763,0.2173345386981964,-21.79654312133789,-2.4095618724823,22.56842803955078,0.6865335702896118,2.2615859508514404,-0.013685601763427258,0,0,0,0.000,0,0
1739402226.3565688,0.52566852178839,0.09603791231109186,-0.9533396402876466,-2.0689345491968694,0.13770335728275138,2.137569798261032,-1.2753701010996652,-0.00025056683482836304,0.000439643752061714,-0.000763533812395249,-0.0008156550968845357,7.78702747011807e-05,0.0010976777715319326,0.000905035733894816,0.1935308277606964,-21.79654312133789,-2.35798716545105,22.61603546142578,0.6938577890396118,2.2615859508514404,-0.04756011441349983,0,0,0,0.000,0,0
1739402226.366604,0.525665066359628,0.09603430471286065,-0.9533417292372207,-2.06893164611671,0.137703933580273,2.1375705602099564,-1.2753693432242459,-0.0019800122252150434,-0.0003050932684704463,-0.001965623507848682,0.00026830402724541965,0.00013792599071967473,0.001370265718264459,0.0009990040536611434,0.2411382496356964,-21.77273941040039,-2.3302161693573,22.56842803955078,0.6865335702896118,2.2551772594451904,-0.05396880581974983,0,0,0,0.000,0,0
1739402226.3775349,0.5256668135473609,0.09603406793926836,-0.953340613653314,-2.0689288013513245,0.13770375123681627,2.1375698156318546,-1.2753678106772663,-0.0005125309280226661,-0.00020775448632469546,-0.0015991749252586447,0.002194768346479988,-0.0024152049571728442,-0.0015146172188406244,0.0012464637791454653,0.2173345386981964,-21.77273941040039,-2.38179087638855,22.54065704345703,0.6865335702896118,2.2615859508514404,-0.06678618490695953,0,0,0,0.000,0,0
1739402226.387545,0.5256667355464165,0.09603777839951604,-0.9533418529095393,-2.0689356481463466,0.13770466507145782,2.137569197674376,-1.2753693608818943,-0.0007799724300984929,0.00020883029761626092,-0.0011732043196661373,-0.000777403052860949,0.00019070635996922778,-0.0003298096204953039,0.0013875814763916875,0.2173345386981964,-21.82431411743164,-2.3302161693573,22.59223175048828,0.6801248788833618,2.2679946422576904,-0.05396880581974983,0,0,0,0.000,0,0
1739402226.397554,0.5256685260669669,0.0960349121261459,-0.9533385593766593,-2.0689326890592956,0.1377046254204444,2.137568350675663,-1.275375621194927,0.00038661439299536945,0.00035166621511244786,0.00017775474836381657,0.0009028950452745298,-0.0007809902919923128,0.0012443809369101235,-0.0014105238067007874,0.1935308277606964,-21.74496841430664,-2.4095618724823,22.59223175048828,0.6801248788833618,2.2753188610076904,-0.0008682189509272575,0,0,0,0.000,0,0
1739402226.4084892,0.5256685525592412,0.09603575413848472,-0.953334865655286,-2.0689372022853174,0.13770504521118127,2.1375716667250746,-1.2753728241705202,0.000639782763921747,0.0006783724937698798,0.0010410204006245018,-0.0022448568914068103,-0.0012996977078852555,0.00029776190860304893,-0.0013779969888995662,0.1935308277606964,-21.79654312133789,-2.38179087638855,22.61603546142578,0.6737161874771118,2.2487685680389404,-0.06037749722599983,0,0,0,0.000,0,0
1739402226.4185488,0.5256685260684374,0.0960389863132489,-0.9533398973994889,-2.068928801047627,0.1377053772815759,2.1375682925329857,-1.2753741058984007,0.00022980456751047992,2.9335798831996553e-05,-7.237602899520953e-05,0.0024724072459698728,-0.0004947115346065305,-0.0008696323207330076,-0.0011668238048430117,0.1935308277606964,-21.82431411743164,-2.38179087638855,22.54065704345703,0.6737161874771118,2.2753188610076904,-0.013685601763427258,0,0,0,0.000,0,0
1739402226.4285588,0.5256641649061471,0.09603949094070333,-0.9533377781758602,-2.0689327740414396,0.1377044761983785,2.137569040531145,-1.2753694671528637,-0.0014517763679526366,0.0008547240762359027,-0.0002503028233882623,0.0005594733790687154,-7.155589416853509e-05,-0.0005930571112737525,0.0005394684266598902,0.2411382496356964,-21.84811782836914,-2.38179087638855,22.59223175048828,0.6938577890396118,2.2679946422576904,-0.05396880581974983,0,0,0,0.000,0,0
1739402226.439597,0.5256668135422723,0.09604120625546564,-0.9533370497474738,-2.068933644419946,0.13770300382096476,2.137568645582196,-1.2753748635352518,0.00010640427462235122,0.0013443411985744119,6.867723156899584e-06,0.00038800568218060657,-3.326411379472871e-05,-0.0009979477633704707,-0.0012894080554639606,0.2173345386981964,-21.87192153930664,-2.38179087638855,22.56842803955078,0.6938577890396118,2.2753188610076904,-0.0072769103571772575,0,0,0,0.000,0,0
1739402226.4496222,0.5256685174014945,0.09603564256645923,-0.9533377604669995,-2.068932697558821,0.13770462541980605,2.1375729771115908,-1.2753724823170542,0.0011822224151700098,-0.0003507687223894533,-0.0007248816878233653,0.0015594891394190478,-0.0001313868755888644,8.735922970243154e-05,-0.00027340158293036554,0.1935308277606964,-21.82431411743164,-2.38179087638855,22.59223175048828,0.6801248788833618,2.2615859508514404,-0.027418512850999832,0,0,0,0.000,0,0
1739402226.4604826,0.5256622813943436,0.09603777838745918,-0.9533341280363878,-2.0689365642598925,0.1377046254197729,2.1375729777675825,-1.2753765271286746,-0.0012668790732156643,-0.0012027748074332145,-0.00018591184406986617,-0.001028443500997886,-0.0003726017405768717,0.0002691550808720348,-0.002159731781055138,0.2411382496356964,-21.82431411743164,-2.4333655834198,22.63983917236328,0.6801248788833618,2.2615859508514404,-0.020094294100999832,0,0,0,0.000,0,0
1739402226.470538,0.5256647065060468,0.09603588568661588,-0.9533338891857389,-2.0689315822948022,0.13770386775969456,2.1375704548873844,-1.2753685858333437,-0.00041055996970269077,-4.655556909801691e-05,0.0005123641537306275,0.0013498920600778326,-0.0002621053032773072,-0.0006115910815579336,0.0008206650190020214,0.2173345386981964,-21.79654312133789,-2.4333655834198,22.56842803955078,0.6865335702896118,2.2679946422576904,-0.06037749722599983,0,0,0,0.000,0,0
1739402226.4814742,0.5256647075048803,0.09603578031457488,-0.9533331871714332,-2.0689366269359724,0.13770335728275138,2.137569158490043,-1.2753722885761574,-0.0005932003155787087,-0.0014708144686919355,0.001422099336454041,-0.0003757201162070535,-0.00046247465129390557,-0.0010032008181543352,0.0007346184774936705,0.2173345386981964,-21.79654312133789,-2.4333655834198,22.61603546142578,0.6938577890396118,2.2679946422576904,-0.020094294100999832,0,0,0,0.000,0,0
1739402226.4915943,0.5256668134048932,0.09603578045866051,-0.9533377516366799,-2.068938635734937,0.1377046268884269,2.137570155764585,-1.275377297546323,-0.00013321913795930236,-0.0008432145894967055,-1.8223102675334426e-05,-0.0008599497331721262,-0.0006045438199981578,-0.0007305656671907983,-0.0012359793064183324,0.2173345386981964,-21.79654312133789,-2.38179087638855,22.63983917236328,0.6801248788833618,2.2615859508514404,0.012864691205322742,0,0,0,0.000,0,0
1739402226.5025759,0.5256668135475558,0.0960392545797907,-0.9533397727441666,-2.0689328931357847,0.1377046429714004,2.137568233260461,-1.2753713216634555,0.0002438888722072061,0.0007721105724988532,-0.0006156214768972643,-0.00017327492098085187,-0.0006914021835547966,-0.0004525093337726368,-0.0006950768300849602,0.2173345386981964,-21.84811782836914,-2.35798716545105,22.59223175048828,0.6801248788833618,2.2753188610076904,-0.04023589566349983,0,0,0,0.000,0,0
1739402226.513506,0.5256650884724582,0.09603193213957957,-0.953339534219936,-2.0689357331803264,0.13770386775979365,2.1375729771577814,-1.27537076937438,-0.0011454318069424336,-0.0007747600404667601,-0.0006515359298986712,-0.0013847333171637848,-0.0003410009240997164,0.00014119744988855157,-0.00013485942422484414,0.2411382496356964,-21.77273941040039,-2.35798716545105,22.59223175048828,0.6865335702896118,2.2615859508514404,-0.05396880581974983,0,0,0,0.000,0,0
1739402226.5235362,0.5256667351182142,0.09603870792386955,-0.9533396134774531,-2.0689309829131366,0.13770245209159243,2.137570562201859,-1.2753678417104877,-0.00015960792290673132,0.0021246693150163065,-0.0007231056393094711,0.0013077476703130136,-0.0009666608707348392,-0.00048177619789996655,0.0006650726551992952,0.2173345386981964,-21.82431411743164,-2.35798716545105,22.56842803955078,0.6865335702896118,2.2551772594451904,-0.06678618490695953,0,0,0,0.000,0,0
1739402226.5335767,0.5256685174001664,0.09603193201205733,-0.953337747907017,-2.0689330237524044,0.13770467073748144,2.137571398767975,-1.2753756211948617,0.000878355232746044,0.00017099701752865611,-0.00028383109908770767,-0.00026825389017607275,0.0006461381702653461,0.00039588535753354575,-0.0003058020725634384,0.1935308277606964,-21.77273941040039,-2.38179087638855,22.56842803955078,0.6801248788833618,2.2753188610076904,-0.0008682189509272575,0,0,0,0.000,0,0
1739402226.5445645,0.52567023858897,0.09603620886003174,-0.9533356719677081,-2.0689372040816183,0.13770538308010705,2.1375702822934946,-1.2753693807473763,0.0010179458160982837,0.000506881265856457,0.00010961640403466894,-0.0030426213204621634,-0.00060266311690838,0.00046176197013844797,0.0015230552143979885,0.1697271168231964,-21.77273941040039,-2.4095618724823,22.61603546142578,0.6737161874771118,2.2615859508514404,-0.05396880581974983,0,0,0,0.000,0,0
1739402226.5559776,0.525670238589019,0.09603578090378537,-0.953337857612382,-2.0689308836719156,0.13770386781386623,2.13757015285822,-1.2753667684819519,0.0010007657833505644,0.00034434607120563366,-0.0010931830457334157,0.0009184207612192487,0.00018660700653885663,-0.0012091999189094119,0.0006416772413289955,0.1697271168231964,-21.79654312133789,-2.38179087638855,22.56842803955078,0.6865335702896118,2.2615859508514404,-0.06678618490695953,0,0,0,0.000,0,0
1739402226.5665443,0.5256668135475566,0.09603577767319886,-0.9533416799507344,-2.068932660446504,0.1377052646064218,2.1375690405311505,-1.2753788046790295,0.0002252259577486411,-0.00038415636598745635,-0.0008139950644815144,0.0008623858775401938,0.001552433418075896,-0.0017513970571144174,-0.003503018826677552,0.2173345386981964,-21.79654312133789,-2.35798716545105,22.59223175048828,0.6737161874771118,2.2679946422576904,-0.0008682189509272575,0,0,0,0.000,0,0
1739402226.5765576,0.5256664200375059,0.09603777839946885,-0.953337787115192,-2.0689344490103334,0.1377030062483606,2.1375706750404255,-1.2753733484297047,0.00029802559994465146,0.0004210446540332071,-0.0006591714658403256,-0.0014411511624061932,-0.0009206741844509402,-3.298412105169884e-05,-0.001406987899617359,0.1935308277606964,-21.82431411743164,-2.38179087638855,22.61603546142578,0.6938577890396118,2.2551772594451904,-0.020094294100999832,0,0,0,0.000,0,0
1739402226.5876143,0.5256684480195933,0.09603949102850641,-0.9533338891818941,-2.0689354440679026,0.13770300348763684,2.137569079775678,-1.2753709669968987,8.048037211936924e-05,0.0004058189582724891,0.00010719958753380328,0.0005859027283665547,0.00032295367653776435,-1.6381515853411437e-05,8.791164818085782e-05,0.1935308277606964,-21.84811782836914,-2.4333655834198,22.59223175048828,0.6938577890396118,2.2679946422576904,-0.04023589566349983,0,0,0,0.000,0,0
1739402226.5985854,0.5256699930285526,0.09603585937962962,-0.9533385328816621,-2.068930906693756,0.13770538307987876,2.137569041983363,-1.275368064079527,0.00015964387679065468,-0.0006072531997341297,-0.0020720616834813124,-0.00039627469430496477,-0.0005072550353432654,0.00015349478222775488,0.0010384870139834535,0.1697271168231964,-21.79654312133789,-2.4095618724823,22.56842803955078,0.6737161874771118,2.2679946422576904,-0.06678618490695953,0,0,0,0.000,0,0
1739402226.6086216,0.5256689593133824,0.09603777839996153,-0.9533321065208253,-2.0689309913995593,0.13770388092340896,2.1375744031979202,-1.2753772113216186,0.0008721823715086233,-0.0009875207589560562,0.0005422322743390517,0.0017430687596741116,-0.00011446456160449494,0.002030431984807737,-0.00048573993027159045,0.2173345386981964,-21.82431411743164,-2.4571692943573,22.56842803955078,0.6865335702896118,2.2615859508514404,0.012864691205322742,0,0,0,0.000,0,0
1739402226.6205013,0.5256654197886963,0.0960350714733799,-0.9533346043304338,-2.0689312165442035,0.1377038809234833,2.1375728635582933,-1.2753724955603234,0.000517013174594893,-0.000986041031055766,0.0010191073793738524,0.0007939932208986969,-0.0010233715408289714,0.0006547130165421468,0.0004583866168463557,0.2173345386981964,-21.79654312133789,-2.4333655834198,22.56842803955078,0.6865335702896118,2.2487685680389404,-0.027418512850999832,0,0,0,0.000,0,0
1739402226.6314778,0.5256685262110203,0.09603406793659768,-0.9533378311227738,-2.0689371823045133,0.13770763409309827,2.1375717595922015,-1.2753714270396004,0.0004394653898050135,-0.0016353847454434966,-0.0007589164621710436,-0.00019235186619908772,0.001695688021115184,-0.0002589570136896028,0.0003713820258618427,0.1935308277606964,-21.77273941040039,-2.38179087638855,22.63983917236328,0.6737161874771118,2.2753188610076904,-0.027418512850999832,0,0,0,0.000,0,0
1739402226.6415405,0.5256651000638508,0.09603406793793173,-0.9533356456191324,-2.0689315561073514,0.13770427020011977,2.1375713180922515,-1.2753685857616373,-0.000938810863736319,-0.0010975420658162521,-4.468108695853605e-05,0.0019349097680309013,-0.00020066564273071586,7.115830990265615e-05,0.0012393127472319202,0.2411382496356964,-21.77273941040039,-2.38179087638855,22.54065704345703,0.6801248788833618,2.2487685680389404,-0.06037749722599983,0,0,0,0.000,0,0
1739402226.6515975,0.5256668125845633,0.09603777839951601,-0.9533377197821711,-2.0689357248273974,0.13770462687639215,2.137570608661709,-1.2753704543123745,-9.865593413459309e-05,0.00016875807142888182,-5.853568176799969e-05,0.00012441284698187376,-0.0004055077796077282,0.0012007146373679608,-0.0003845873658387861,0.2173345386981964,-21.82431411743164,-2.38179087638855,22.59223175048828,0.6801248788833618,2.2551772594451904,-0.04756011441349983,0,0,0,0.000,0,0
1739402226.6625993,0.5256702385890135,0.09603293268119036,-0.9533377516483885,-2.068932740080638,0.13770540046896368,2.137569817247184,-1.2753748635365474,0.0016035093056200786,-0.0009669874505555464,-6.751944951808508e-05,0.0009033025650289401,0.0023150273797194632,0.0005184290069083159,-0.0007189051957471229,0.1697271168231964,-21.79654312133789,-2.38179087638855,22.59223175048828,0.6737161874771118,2.2615859508514404,-0.0072769103571772575,0,0,0,0.000,0,0
1739402226.6735082,0.5256629949960434,0.0960358593996384,-0.9533356810160795,-2.068935656755021,0.13770398623322244,2.1375719817822043,-1.2753693434395867,-0.0013007851080785498,0.0005286175558974613,0.00028148180123957164,-0.00040187768905430756,-0.0006903028060663139,0.0001551410419359434,0.0002670494018911397,0.2411382496356964,-21.79654312133789,-2.4095618724823,22.59223175048828,0.6865335702896118,2.2551772594451904,-0.05396880581974983,0,0,0,0.000,0,0
1739402226.6835392,0.5256684438585815,0.09603619880531934,-0.9533357513317277,-2.0689345482658807,0.1377038682492459,2.137573892255785,-1.2753765269671689,0.0005601878996553969,0.0003098230238738099,0.00021944857231546348,-0.000872630308048576,-0.0005733743077104446,0.0003250003849304972,-0.0016688329118339708,0.1935308277606964,-21.77273941040039,-2.4095618724823,22.61603546142578,0.6865335702896118,2.2551772594451904,-0.020094294100999832,0,0,0,0.000,0,0
1739402226.693578,0.5256629989760627,0.09603407187134978,-0.9533395343269334,-2.0689308846028838,0.13770627237708202,2.1375727658240873,-1.27537335408232,-0.0013888561118538104,-0.0007273461834131588,-0.0012201931531586603,0.001116783664101648,0.0010126949870119834,0.00040393275939717955,0.0011983006342328154,0.2689092457294464,-21.77273941040039,-2.35798716545105,22.56842803955078,0.6673074960708618,2.2487685680389404,-0.020094294100999832,0,0,0,0.000,0,0
1739402226.7045422,0.5256661086121114,0.09603175357738172,-0.953338052369945,-2.0689333904759697,0.13770489897223853,2.137569234278244,-1.2753733656569226,-0.0005957717689325019,-0.0019593382264935445,-0.000678213465201801,0.00029732928530489634,0.00044359092771797406,-0.0009921564550559895,-0.0009816674255379468,0.2173345386981964,-21.74496841430664,-2.38179087638855,22.59223175048828,0.6865335702896118,2.2753188610076904,-0.020094294100999832,0,0,0,0.000,0,0
1739402226.7154753,0.5256636062106154,0.09603406793614556,-0.9533362831146277,-2.0689347806769707,0.1377030018682834,2.137569406829792,-1.2753741058745733,-9.507589345550014e-05,-0.0003047366162987615,-0.00015558537495908388,0.0003332121345617754,-0.001483806281156732,-0.0003796269183581012,-0.0006063353279648555,0.2411382496356964,-21.77273941040039,-2.4095618724823,22.61603546142578,0.6938577890396118,2.2679946422576904,-0.013685601763427258,0,0,0,0.000,0,0
1739402226.7255664,0.5256702298969108,0.09603777839951598,-0.9533395314470081,-2.0689347297989604,0.13770408128704434,2.1375697988414526,-1.2753726807909513,0.000679041611912824,0.00011225189897336044,-0.0020146069190180495,0.000332030681975202,-0.00010461716340959206,-0.001338098536178911,-0.0008880567230240688,0.1697271168231964,-21.82431411743164,-2.35798716545105,22.59223175048828,0.6938577890396118,2.2615859508514404,-0.05396880581974983,0,0,0,0.000,0,0
1739402226.7365108,0.5256668135475077,0.09603649464467813,-0.953339613798431,-2.0689326978386195,0.13770355889414032,2.137569920287451,-1.2753749160965424,0.0005690879774129754,-0.00042379555401958285,-0.0012238601149413173,0.0003499032947753763,-0.000559437192143444,0.0005664424874364254,-0.0017132104069784468,0.2173345386981964,-21.79654312133789,-2.35798716545105,22.59223175048828,0.6801248788833618,2.2615859508514404,-0.0072769103571772575,0,0,0,0.000,0,0
1739402226.7465835,0.5256630992340643,0.09603941182741221,-0.9533338891830397,-2.0689329696172067,0.13770706701178076,2.1375698030364623,-1.2753688863053396,-0.0009659633958409974,-8.49482854121497e-05,0.0007015846099893446,0.00017549212922158186,0.00025950596111300336,-0.0003213062422361064,0.0017747526496453834,0.2689092457294464,-21.84811782836914,-2.4333655834198,22.59223175048828,0.6865335702896118,2.2615859508514404,-0.06678618490695953,0,0,0,0.000,0,0
1739402226.7584777,0.5256685260682662,0.09603295931250978,-0.9533377781395217,-2.0689329299364316,0.13770388392091037,2.1375690581332845,-1.275367945863414,0.0006080580407921276,-0.0007112324753411781,-0.00047109416827584944,0.0009749382394047677,0.0003082021565527351,-0.00041053608295800676,0.0012690703229534662,0.1935308277606964,-21.79654312133789,-2.38179087638855,22.59223175048828,0.6865335702896118,2.2679946422576904,-0.06678618490695953,0,0,0,0.000,0,0
1739402226.768493,0.525665864872511,0.09603949480165334,-0.9533338892908597,-2.068930880928407,0.13770870049849016,2.137569059425401,-1.275369343924768,-0.0010917609186216846,-0.00039283681645708177,0.0014768653947007202,0.0014087904285984476,0.0004702236102010473,-0.0005805576495683084,0.0024023909456193327,0.2173345386981964,-21.84811782836914,-2.4333655834198,22.56842803955078,0.6737161874771118,2.2679946422576904,-0.05396880581974983,0,0,0,0.000,0,0
1739402226.7794724,0.5256630770802372,0.09603777839953793,-0.9533356718950522,-2.0689350400401376,0.13770331486988321,2.13757085976553,-1.2753693303576372,-0.001035245824200883,-0.00018373309790918862,3.243895670585259e-05,0.0007209296202877608,-0.0005506611012185644,0.0011696709432438871,0.0007233908171664851,0.2689092457294464,-21.82431411743164,-2.4095618724823,22.59223175048828,0.7002664804458618,2.2615859508514404,-0.05396880581974983,0,0,0,0.000,0,0
1739402226.7896016,0.5256685220039633,0.0960377709091899,-0.9533395256587949,-2.068935441203654,0.13770646252256516,2.1375690407086316,-1.275370101260949,1.818096585317144e-05,0.0006477414466798595,-0.0002144579826742481,-0.00013975120806329424,-7.585071694045495e-05,7.242768190916798e-06,0.000290471208841497,0.1935308277606964,-21.82431411743164,-2.35798716545105,22.61603546142578,0.6737161874771118,2.2679946422576904,-0.04756011441349983,0,0,0,0.000,0,0
1739402226.8005488,0.5256668048807404,0.09603578002457441,-0.9533357777868111,-2.0689372492858635,0.13770462542586637,2.137569053664937,-1.2753709678044263,0.0006937446293307286,-0.0006082748476229544,0.0003443612866574531,-0.0018323691509895014,-0.0006873313084983047,-0.00038470595538858264,-0.00025191836884498327,0.2173345386981964,-21.79654312133789,-2.4095618724823,22.63983917236328,0.6801248788833618,2.2679946422576904,-0.04023589566349983,0,0,0,0.000,0,0
1739402226.81057,0.5256678240578804,0.09603578089169244,-0.9533356718605068,-2.0689309788310055,0.1377049384084671,2.137570466462162,-1.275369199538126,0.0005025329683190986,-0.00064753224141368,0.000344990304616565,0.001798917438007669,-0.0009440586220710775,-0.0005682734054989128,0.0010879310148433341,0.1935308277606964,-21.79654312133789,-2.4095618724823,22.54065704345703,0.6865335702896118,2.2679946422576904,-0.05396880581974983,0,0,0,0.000,0,0
1739402226.8215508,0.525666709534148,0.09603578045867028,-0.9533376447581172,-2.0689327740783208,0.13770538309798278,2.1375708752941076,-1.2753748904869744,-2.2869491181403182e-05,-0.000696710118868559,0.00020929579962605086,0.0002608775121781043,-8.500297402505867e-05,0.00028999163304524277,-0.000541189052490499,0.2173345386981964,-21.79654312133789,-2.38179087638855,22.59223175048828,0.6737161874771118,2.2615859508514404,-0.03382720425724983,0,0,0,0.000,0,0
1739402226.8324986,0.5256667878740297,0.09603230719301008,-0.9533377516483673,-2.0689328931923914,0.1377038853113138,2.137571083974588,-1.2753728635838395,0.0007175755347830775,-0.0015158963030311263,-0.0005125191486397071,0.0002872605903636056,0.00041394495759549104,0.0017166688616741576,-0.0014078680637772856,0.2173345386981964,-21.74496841430664,-2.38179087638855,22.59223175048828,0.6865335702896118,2.2551772594451904,-0.06037749722599983,0,0,0,0.000,0,0
1739402226.8425024,0.5256668135471219,0.0960357805709391,-0.9533395343255875,-2.068934701382899,0.13770538324266346,2.137569856501686,-1.2753709845119454,0.000948961070295718,-0.0004828945794115308,0.0007271295658864207,0.00023000398067646863,0.001030983320748714,0.00020342088417893818,0.00043807523982980235,0.2173345386981964,-21.79654312133789,-2.35798716545105,22.61603546142578,0.6737161874771118,2.2615859508514404,-0.04023589566349983,0,0,0,0.000,0,0
1739402226.852536,0.5256640045435369,0.09603122026872028,-0.9533396406164493,-2.0689311104145074,0.1377049983916841,2.137573279082653,-1.2753764872536664,0.0007766379666022079,-0.0005741022144760482,-0.00039139707225071803,0.0008986626983050661,-0.0005973615519054473,0.0004364753844220584,-0.0006729786997406466,0.2173345386981964,-21.77273941040039,-2.35798716545105,22.56842803955078,0.6801248788833618,2.2679946422576904,0.0064559997990727425,0,0,0,0.000,0,0
1739402226.862585,0.5256651005512649,0.09603404152139629,-0.9533339689834024,-2.0689311117787956,0.13770462753878412,2.1375699728485427,-1.2753729950015795,0.0007256926580997381,-0.00029689478138364466,0.0002997900255603701,0.0006246904336321918,0.0009093051585793089,0.00011913320665629384,-0.0008890311118247933,0.2411382496356964,-21.77273941040039,-2.4333655834198,22.56842803955078,0.6801248788833618,2.2615859508514404,-0.020094294100999832,0,0,0,0.000,0,0
1739402226.873551,0.5256677582340846,0.09603206120749294,-0.953339534326038,-2.068927336441669,0.13770388677396067,2.1375751868613753,-1.2753709668333981,0.0004930376915333831,-0.0017088937369130737,-0.0006280845632876371,0.002699605713864506,-0.0001117409027686053,0.0005633441245002151,-0.0004781038002311859,0.2173345386981964,-21.74496841430664,-2.35798716545105,22.49304962158203,0.6865335702896118,2.2551772594451904,-0.04023589566349983,0,0,0,0.000,0,0
1739402226.8835793,0.5256653279376752,0.09604061955380376,-0.9533328638176702,-2.0689339430502796,0.13770462590828392,2.1375741547145943,-1.275367845562465,2.7864564012121244e-05,0.002506853564544916,0.0017704105490068192,-0.00107121146871428,-0.0006099212628755321,0.000776623281303628,0.00043339053687049107,0.2411382496356964,-21.82431411743164,-2.4095618724823,22.56842803955078,0.6801248788833618,2.2615859508514404,-0.06678618490695953,0,0,0,0.000,0,0
1739402226.8945584,0.5256685144423318,0.09603735509248888,-0.9533384668633561,-2.068936828403428,0.13770614079410218,2.1375737410706086,-1.2753665033265553,0.0001088222983163705,0.0006434813488047354,-0.0005914683266249676,7.521194335912616e-05,-0.0010587658493315286,0.0012117129498763297,0.0004760520016350118,0.1935308277606964,-21.84811782836914,-2.38179087638855,22.61603546142578,0.6673074960708618,2.2551772594451904,-0.06037749722599983,0,0,0,0.000,0,0
1739402226.9055438,0.5256651000637828,0.09604120342892158,-0.9533356722988154,-2.06893731504538,0.13770690051270312,2.137569055782489,-1.2753685858215882,-0.0005569775076010232,0.0009325881774585554,0.0005601690599348339,-0.00020715833911180367,-0.0006996145073467444,-0.0010939107977158576,0.0006944681948893149,0.2411382496356964,-21.87192153930664,-2.4095618724823,22.61603546142578,0.6608988046646118,2.2679946422576904,-0.06037749722599983,0,0,0,0.000,0,0
1739402226.9164858,0.5256632334146171,0.09603781347550032,-0.953333888860704,-2.068932930895706,0.13770725943898016,2.1375737362173295,-1.2753715357866682,-0.0003265127244238803,-0.00010877320993523445,-0.00021618746643583414,0.0006205765355028516,0.0007398749767371972,0.001224456720519965,0.0004376828442931921,0.2411382496356964,-21.82431411743164,-2.4333655834198,22.59223175048828,0.6673074960708618,2.2551772594451904,-0.027418512850999832,0,0,0,0.000,0,0
1739402226.9265177,0.5256685259296623,0.09603949092084121,-0.9533355968010067,-2.0689354528906194,0.13770386924127476,2.1375713708977253,-1.2753713201935777,0.0013277317344733137,7.324916413938752e-05,-0.00027255917217541327,-0.0013937717305652082,-0.0002897763367398986,0.0012072502221946294,4.3933633784975145e-05,0.1935308277606964,-21.84811782836914,-2.4095618724823,22.59223175048828,0.6865335702896118,2.2487685680389404,-0.04023589566349983,0,0,0,0.000,0,0
1739402226.9365814,0.5256668103376309,0.09603581553464734,-0.9533377516472974,-2.0689365157718904,0.13770300186248727,2.1375734485393836,-1.275370967002879,-0.0006002920959770424,-7.038923337381916e-05,6.802817971942059e-05,-0.000933141703198968,-0.0009177610903582157,0.0011760971724964746,0.0004368422184830447,0.2173345386981964,-21.79654312133789,-2.38179087638855,22.61603546142578,0.6938577890396118,2.2615859508514404,-0.04023589566349983,0,0,0,0.000,0,0
1739402226.9475985,0.5256668397174994,0.09603972800811736,-0.9533406136526641,-2.0689326900002336,0.13770424089411798,2.137569058046193,-1.2753725215629108,0.0010736032014640648,0.0012695440719883997,-0.0016584626580292364,0.0018277905036346086,0.0003704810564021562,0.0002477042966462715,9.331557671666933e-05,0.2173345386981964,-21.84811782836914,-2.38179087638855,22.59223175048828,0.6865335702896118,2.2679946422576904,-0.027418512850999832,0,0,0,0.000,0,0
1739402226.9585516,0.5256650227048407,0.09603578046000132,-0.953335671874869,-2.068937443106009,0.1377084882255607,2.1375751534288323,-1.2753678282815977,-0.0008571402883178023,-0.0004556125109952133,4.620455290783897e-05,-0.0007532718234338016,0.001370509436135062,0.00023641013354689289,0.0011964844601124478,0.2411382496356964,-21.79654312133789,-2.4095618724823,22.61603546142578,0.6865335702896118,2.2551772594451904,-0.06678618490695953,0,0,0,0.000,0,0
1739402226.9695344,0.5256722240098443,0.09603578922765907,-0.9533377604788864,-2.0689318250504654,0.13770614081817759,2.1375713194014447,-1.2753701411370288,0.0015141112736516483,0.0006148379522234021,-0.0015038389566216432,-0.0002571423885377286,-0.00033657121543421986,0.0007274091383225455,0.0008447954491775191,0.1419561207294464,-21.79654312133789,-2.38179087638855,22.56842803955078,0.6673074960708618,2.2487685680389404,-0.07411040365695953,0,0,0,0.000,0,0
1739402226.9795492,0.5256647890221945,0.09603546403899328,-0.9533377256482383,-2.0689350644005087,0.1377075404360169,2.137572465512276,-1.2753717246749208,-0.00024621774693886576,-0.001363924689487718,3.954231214695639e-05,-0.0002898544157010547,-9.18403805139646e-05,-0.00015478147717911154,-0.000674603686365329,0.2411382496356964,-21.79654312133789,-2.38179087638855,22.59223175048828,0.6865335702896118,2.2753188610076904,-0.03382720425724983,0,0,0,0.000,0,0
1739402226.990472,0.5256651015782208,0.09603577948027268,-0.953337049638161,-2.068934449443853,0.13770644936145127,2.1375702571749264,-1.2753762251507337,-0.0009340883130466969,-0.000360134959550233,-0.0003564420926769547,-0.0010999882037188034,0.0002967681277830894,0.0004926281255703128,0.000834873264923602,0.2411382496356964,-21.79654312133789,-2.38179087638855,22.61603546142578,0.6737161874771118,2.2679946422576904,-0.013685601763427258,0,0,0,0.000,0,0
