IITGN-Robotics/Franka_IITGN_ROBOTICS/franka_ros/franka_iitgn/data/b_42.csv
time,fr3_joint1_pos,fr3_joint2_pos,fr3_joint3_pos,fr3_joint4_pos,fr3_joint5_pos,fr3_joint6_pos,fr3_joint7_pos,fr3_joint1_vel,fr3_joint2_vel,fr3_joint3_vel,fr3_joint4_vel,fr3_joint5_vel,fr3_joint6_vel,fr3_joint7_vel,fr3_joint1_eff,fr3_joint2_eff,fr3_joint3_eff,fr3_joint4_eff,fr3_joint5_eff,fr3_joint6_eff,fr3_joint7_eff,flexpin1,flexpin2,flexpin3,Force,ContactMic,ContactMic_gt
1739402250.9602027,0.5256621815849704,0.09596261537452903,-0.9533601324396253,-2.069084881096222,0.13772896554132508,2.137576121899904,-1.275375374521865,-0.0011871928185389986,0.0034739766891998033,0.00016463500382189397,0.0020953218928850535,-0.0011813140398870608,-4.109180196318199e-05,7.374458414578149e-06,0.3165166676044464,-21.69339370727539,-2.3064124584198,22.56842803955078,0.6865335702896118,2.2753188610076904,-0.03382720425724983,,,,,,,,,
1739402250.971133,0.5256635364946319,0.09599090949074768,-0.9533594304432277,-2.0690831373210865,0.13773257430461924,2.137580132608454,-1.2753710089971384,-7.627717596227375e-05,0.0030311632433938926,0.00018369490887133017,0.000625971091419604,0.0006938930088372446,-0.001756519439008895,0.0011798114133541658,0.2927129566669464,-21.69339370727539,-2.3064124584198,22.54065704345703,0.6865335702896118,2.2817275524139404,-0.06678618490695953,,,,,,,,,
1739402250.981255,0.5256630685641569,0.09601450557848268,-0.9533555679750323,-2.0690888363586013,0.13773274596088098,2.1375824797197445,-1.2753735870526455,-0.00011407611088198014,0.0021982731310022747,0.0014763157587133083,0.0005605632826413195,-3.626297579823276e-05,0.0004223937988131706,0.0004506449697144895,0.2689092457294464,-21.74496841430664,-2.35798716545105,22.59223175048828,0.6865335702896118,2.2753188610076904,-0.05396880581974983,,,,,,,,,
1739402250.9922025,0.5256668135469721,0.09603241397882543,-0.953349957498312,-2.0690898790105985,0.13773627815607442,2.1375833456438937,-1.2753769387167657,-0.000123776506980344,0.0027039395600499884,0.001432813012777051,0.00125626216484992,-2.2073152926090902e-05,-0.00015898996696623848,-0.0018005944659094304,0.2173345386981964,-21.79654312133789,-2.4333655834198,22.56842803955078,0.6737161874771118,2.2679946422576904,-0.020094294100999832,,,,,,,,,
1739402251.0032578,0.5256658774268783,0.09604310810275457,-0.9533488575605673,-2.0690941862457173,0.13773338468295318,2.1375817279007845,-1.2753718960764717,-0.0006467895255193407,0.0013494966190131944,-0.00036390198322827405,-0.000715777985538249,-0.000931392112258404,-4.3234311878562214e-05,0.0026180256209272492,0.2173345386981964,-21.79654312133789,-2.4333655834198,22.61603546142578,0.6801248788833618,2.2817275524139404,-0.06037749722599983,,,,,,,,,
1739402251.015173,0.525666813399609,0.09606413795683932,-0.9533406760905115,-2.0690977520129894,0.13773413358602699,2.1375849306597177,-1.2753770418656538,0.0015549700867337791,0.0005471998052146028,0.0005096051701118771,-0.0007563507594661994,0.0007554178311128853,-0.0002863459181561965,-0.0008747590688840146,0.2173345386981964,-21.89969253540039,-2.48494029045105,22.66364288330078,0.6737161874771118,2.2679946422576904,-0.020094294100999832,,,,,,,,,
1739402251.026211,0.5256661115372951,0.09607636815742278,-0.9533400514224986,-2.069102918454479,0.13773283175228943,2.1375857269120813,-1.2753715335135305,-0.00010472719242575468,0.0005487652860048619,0.0017854110660867582,-0.00030241118757319796,-0.0003816970447322967,0.000499510115362981,5.7185692810947245e-05,0.2173345386981964,-21.95126724243164,-2.50874400138855,22.69141387939453,0.6938577890396118,2.2881362438201904,-0.04756011441349983,,,,,,,,,
1739402251.0371306,0.5256667875458557,0.09608516061250195,-0.9533420148612044,-2.0691041755435604,0.1377341437856049,2.137587207257321,-1.2753763577703274,0.00027115635538062493,0.0009508231421215063,-0.0003349523569950031,-0.000507486163306411,-0.0002988145410532059,0.0005546830358363488,0.00032458030111923164,0.2173345386981964,-21.95126724243164,-2.4571692943573,22.66364288330078,0.6737161874771118,2.2753188610076904,-0.03382720425724983,,,,,,,,,
1739402251.0471692,0.5256651458311907,0.09608698209026759,-0.9533438098620945,-2.069100623924898,0.13773262700087308,2.1375896288490406,-1.2753717305873484,-0.00038601204588061065,-0.0005871324213560815,0.00022617603070321495,0.0005661013615851406,-0.00014555329495601825,0.0014561127278872204,0.001824206939933876,0.2411382496356964,-21.89969253540039,-2.4571692943573,22.61603546142578,0.6865335702896118,2.2551772594451904,-0.07411040365695953,,,,,,,,,
1739402251.057251,0.5256665678816674,0.09609136811383473,-0.9533434855770627,-2.069104200617326,0.13773604418620108,2.137587208872385,-1.275372596329947,-0.0002606715002207089,0.0009151222193934155,0.0001391122172830532,-0.00036113628787518514,0.0011762472693450535,0.0008578644207385125,-0.0006591109851204397,0.2173345386981964,-21.89969253540039,-2.4333655834198,22.66364288330078,0.6938577890396118,2.2753188610076904,-0.06678618490695953,,,,,,,,,
1739402251.0682337,0.5256648670192449,0.09609198069918791,-0.9533417018895074,-2.0691044443778943,0.13773602621957126,2.1375880746074496,-1.2753732538561207,-0.00019603137547127256,0.0008764423821157148,0.0006491821019922439,0.00017157353151606448,0.000501645034571448,-0.0006079676760225702,0.00022672466420033336,0.2411382496356964,-21.87192153930664,-2.4571692943573,22.66364288330078,0.6938577890396118,2.2679946422576904,-0.06037749722599983,,,,,,,,,
1739402251.0792034,0.5256624097985917,0.09608500649060751,-0.953347348103373,-2.069100946463492,0.13773262700882424,2.1375888715139753,-1.2753712465438545,-0.0007056891506109351,-0.0008868412771364824,0.00041789015149612914,-0.00026612152043366244,-0.001630145386337229,0.0007103034544809761,0.001413332217074506,0.2689092457294464,-21.82431411743164,-2.38179087638855,22.61603546142578,0.6865335702896118,2.2615859508514404,-0.07411040365695953,,,,,,,,,
1739402251.0902004,0.5256624010639709,0.09607986783886076,-0.9533533525521761,-2.0690970841918053,0.13773181375842408,2.137587248118242,-1.2753721211723246,-0.001062401200884697,-0.0009696411222129869,-0.0002931705344056066,0.0002780666943790245,-0.0001479416106338092,-0.00011519326256946181,0.001392542606950487,0.2689092457294464,-21.77273941040039,-2.3302161693573,22.56842803955078,0.6938577890396118,2.2753188610076904,-0.06678618490695953,,,,,,,,,
1739402251.1011994,0.5256599827180561,0.09607419340816296,-0.9533561521845306,-2.069097058571606,0.13773481046069358,2.137587248333585,-1.2753788742451624,-0.0009541815076803174,0.0001457336579896375,-0.0013787155975676223,0.00046836721503393464,-0.0007773925628507995,-0.0007555731165978174,-0.0013665325323851969,0.2689092457294464,-21.69339370727539,-2.3064124584198,22.56842803955078,0.6801248788833618,2.2753188610076904,-0.013685601763427258,,,,,,,,,
1739402251.1131444,0.5256630767113197,0.09607819542611824,-0.9533552157162148,-2.0690949787817026,0.13773102100315585,2.1375896293356345,-1.2753725964914524,0.00011859634782217731,0.00035655929143097375,-0.0010735829378008257,2.843129316298198e-05,-0.0018231129169323465,0.000836253794383629,0.0009955852489685268,0.2689092457294464,-21.72116470336914,-2.35798716545105,22.54065704345703,0.7002664804458618,2.2551772594451904,-0.06678618490695953,,,,,,,,,
1739402251.1232443,0.5256613606771384,0.096074541198464,-0.9533543785197847,-2.069091421930933,0.13773809930545242,2.1375895327343515,-1.2753772513346584,-0.0004584950720962742,0.0016274939230694109,0.00022293739423924082,0.0010133557982679798,0.0019652347455143514,0.0018061149306105155,-0.0018975883600673778,0.2927129566669464,-21.66958999633789,-2.3302161693573,22.49304962158203,0.6673074960708618,2.2679946422576904,-0.027418512850999832,,,,,,,,,
1739402251.133263,0.5256646772359904,0.09607509114055918,-0.9533523165942512,-2.069097058571702,0.13773644018980113,2.137591055292451,-1.2753803895662243,0.0006598194842253264,3.0511093038233442e-05,-0.00010447280070328754,-0.0016447387315402411,0.0007149755305593936,0.0011948539141008706,-0.0006445147416127273,0.2173345386981964,-21.72116470336914,-2.35798716545105,22.56842803955078,0.6673074960708618,2.2551772594451904,-0.0008682189509272575,,,,,,,,,
1739402251.1441782,0.5256619449110227,0.09607680458209532,-0.9533463354622173,-2.069097058571558,0.13773814476407414,2.1375899376204517,-1.2753733522130235,-0.0011813353352581283,0.0007140116616185367,0.0013573465815008743,0.00024014381536727235,1.6486058054890503e-05,0.0022964389277369698,0.001579876466747941,0.2411382496356964,-21.74496841430664,-2.4333655834198,22.56842803955078,0.6673074960708618,2.2615859508514404,-0.06037749722599983,,,,,,,,,
1739402251.1542666,0.5256646698002235,0.09608189413583408,-0.9533477252371994,-2.0690949787817026,0.13773608324475003,2.1375881532793852,-1.275370972934109,0.0005335428382399593,0.0020331377241829783,-0.00030189012454691523,-0.00027260361961450657,-0.0010161584484581862,-0.0011689354643044621,0.001424624159760019,0.2173345386981964,-21.79654312133789,-2.4095618724823,22.54065704345703,0.6938577890396118,2.2679946422576904,-0.08051909506320953,,,,,,,,,
1739402251.165188,0.5256660070956846,0.09608356833919837,-0.9533484243241351,-2.0690988412485773,0.13773655277418378,2.137591500452793,-1.2753729497041624,0.00044778242162212337,0.00031108968420912893,-0.0005412296393086551,-7.131799449304404e-05,-0.0001572429798821312,0.00047030149442453724,0.0015186882493933268,0.2173345386981964,-21.82431411743164,-2.4095618724823,22.59223175048828,0.6938577890396118,2.2753188610076904,-0.06678618490695953,,,,,,,,,
1739402251.176145,0.5256682541832184,0.09608734142783841,-0.9533463210792331,-2.0691041891288955,0.1377341106272169,2.1375884672521908,-1.2753795294387016,0.0013454477555334885,-2.7678558314897408e-05,-0.0005773664824905502,-0.0005625399715254932,0.0007558254346199762,-0.0009105147350518153,-0.001182287885593,0.1935308277606964,-21.84811782836914,-2.4095618724823,22.66364288330078,0.6865335702896118,2.2679946422576904,-0.020094294100999832,,,,,,,,,
1739402251.187144,0.52566447350875,0.0960892472872956,-0.9533456262452887,-2.069110120875281,0.13773468393047283,2.1375900490572364,-1.275379632414579,0.0016346175900608631,-0.0011690425105789555,0.0002909078129094397,-0.0020599637431291677,-0.0005922659401394234,0.0012941912130017632,-0.0012920734512450551,0.2173345386981964,-21.87192153930664,-2.4333655834198,22.71521759033203,0.7066751718521118,2.2615859508514404,-0.0072769103571772575,,,,,,,,,
1739402251.1971958,0.5256619535410002,0.09609028000259369,-0.9533437455810533,-2.069100701446497,0.13773744126165502,2.1375884672348326,-1.2753807490236808,-0.0012130082357155408,0.0018594702715440056,0.0001367983744862996,0.0006697653648396121,0.0010178326990961772,-0.00029123588127716164,-0.0013085050605867383,0.2411382496356964,-21.84811782836914,-2.4333655834198,22.61603546142578,0.6865335702896118,2.2679946422576904,-0.03382720425724983,,,,,,,,,
1739402251.2082136,0.5256636671271478,0.09609223083021527,-0.95334631692565,-2.069107259275095,0.13773742512062226,2.137588153263327,-1.2753797502060824,-0.0016927937164367885,0.0007842166225546768,-9.126887997494776e-05,-0.000570962258852676,-0.00029005996135659737,-0.0005946556947497117,0.00035761824757489145,0.2173345386981964,-21.87192153930664,-2.4095618724823,22.66364288330078,0.6865335702896118,2.2679946422576904,-0.0072769103571772575,,,,,,,,,
1739402251.2191708,0.5256646686232733,0.09609233543670774,-0.9533476863547817,-2.069103033307438,0.13773635696365522,2.1375928410149334,-1.2753738294626886,0.0005172200293076008,-8.656569900547065e-05,-0.00047327860522069294,-0.00012493756595845966,0.00012540440786718671,0.0003618727489318134,1.864101185584206e-05,0.2173345386981964,-21.87192153930664,-2.4095618724823,22.61603546142578,0.6865335702896118,2.2679946422576904,-0.06037749722599983,,,,,,,,,
1739402251.229245,0.52566646384357,0.09608890880431782,-0.9533498049127451,-2.0691034087344873,0.13773656104704537,2.1375886263912376,-1.275370971004124,0.0014966363185699562,-0.0008913210245408336,0.0008773781891185994,0.000781053669308085,0.0009305155832505093,-0.0005892509032633192,0.002245019967867303,0.2173345386981964,-21.82431411743164,-2.38179087638855,22.61603546142578,0.6938577890396118,2.2679946422576904,-0.08051909506320953,,,,,,,,,
1739402251.2401605,0.5256626440067719,0.09608320040188664,-0.9533505041496558,-2.069101837249387,0.1377374362257326,2.1375907441951,-1.2753744650238674,-0.0001720735292786639,-0.001414617414953094,-0.0004921193817791503,0.0011820309634516983,0.00050993599780159,-0.00071049198783658,-1.873576755802948e-06,0.2411382496356964,-21.74496841430664,-2.38179087638855,22.59223175048828,0.6865335702896118,2.2817275524139404,-0.05396880581974983,,,,,,,,,
1739402251.2502186,0.5256599440516883,0.09608691379325003,-0.9533480533770087,-2.0690977502215024,0.13773741932435052,2.1375901985368806,-1.2753741132707006,-0.0019980985969362637,0.0009051739254153968,0.001076852163523026,-0.00014604324218184372,2.0488789681039754e-05,0.0007969758385033069,0.00045964346789372656,0.2689092457294464,-21.79654312133789,-2.38179087638855,22.56842803955078,0.6865335702896118,2.2817275524139404,-0.05396880581974983,,,,,,,,,
1739402251.2611825,0.5256646715477991,0.09608113908883636,-0.9533491212209312,-2.069101427155983,0.13773818283474842,2.1375903431738528,-1.2753757353684876,0.0015553706148391348,-0.0005521618067104024,0.0006987318796756361,-0.0016072163625267528,-0.0002788315862742448,0.00071248205102337,-0.0004771107557836363,0.2173345386981964,-21.72116470336914,-2.4095618724823,22.61603546142578,0.6801248788833618,2.2615859508514404,-0.04023589566349983,,,,,,,,,
1739402251.2721276,0.5256636663838417,0.0960800270877546,-0.953350507046468,-2.069091516416233,0.13773655878992572,2.1375884848406015,-1.2753834660112842,-0.0012192530554086009,0.00046234252084311926,-9.62158227063879e-05,0.0008180100776713352,0.00033431746737145934,-0.00037822974062252804,-0.002183183001209448,0.2173345386981964,-21.74496841430664,-2.38179087638855,22.49304962158203,0.6938577890396118,2.2679946422576904,-0.013685601763427258,,,,,,,,,
1739402251.2822769,0.5256617295626546,0.09607465483931756,-0.9533505070425505,-2.069093221721213,0.1377405352848397,2.137594005174176,-1.2753796319838973,0.001127211433009152,-0.00183016522059241,0.0008986584310388624,-0.0006861110383688408,0.001605771797645161,0.00011111305678584949,-0.0007099211277557494,0.2411382496356964,-21.66958999633789,-2.38179087638855,22.51685333251953,0.6608988046646118,2.2551772594451904,-0.0072769103571772575,,,,,,,,,
1739402251.29319,0.5256636548211768,0.09608042289487365,-0.9533467216683471,-2.069097058676681,0.13773818283523004,2.137591140605445,-1.2753748694712475,0.0007499056413989522,-0.0007490821556212859,0.0005487944069325118,-1.8633118945979364e-05,-4.5194202665435406e-05,-0.0005729228795756604,0.0011915894210780015,0.2173345386981964,-21.72116470336914,-2.4333655834198,22.56842803955078,0.6801248788833618,2.2817275524139404,-0.04756011441349983,,,,,,,,,
1739402251.3041594,0.5256626528003715,0.09608371005569982,-0.953346321222348,-2.069100625220333,0.13773655927747072,2.1375928431405344,-1.2753804296568594,-0.0014275434898779534,0.000761413636274961,0.0006387081515461792,-0.0016207381998157605,-0.002146159675121488,-4.027210403267489e-06,-0.0003862925040906443,0.2411382496356964,-21.79654312133789,-2.4095618724823,22.61603546142578,0.6938577890396118,2.2679946422576904,-0.027418512850999832,,,,,,,,,
1739402251.3141627,0.5256660726557612,0.09607899900569589,-0.9533466445400101,-2.0691006324288868,0.13773969815493814,2.1375936400464726,-1.2753764930823939,-3.6661283674044765e-05,-0.0010923830630284817,0.0002417373079354084,0.00030415646556566163,0.0016954535044247019,0.0010040249964610457,-0.0003948353212848586,0.2173345386981964,-21.72116470336914,-2.4333655834198,22.61603546142578,0.6673074960708618,2.2615859508514404,-0.03382720425724983,,,,,,,,,
1739402251.3242235,0.5256653786187909,0.096086736252381,-0.9533484156969699,-2.069099558357735,0.13773969815493814,2.1375928780264077,-1.275374622007306,0.0002279786103740281,0.0015988335978695581,-0.0011609473979113675,-4.747952223301856e-05,-0.00031595970734155814,1.8830434076620444e-06,-0.0004955217592548362,0.1935308277606964,-21.82431411743164,-2.4095618724823,22.59223175048828,0.6673074960708618,2.2679946422576904,-0.05396880581974983,,,,,,,,,
1739402251.3351805,0.5256670765994722,0.09608847665407941,-0.9533482960472061,-2.0691052637050267,0.1377374251747031,2.1375920164898017,-1.275379788892442,0.000573759756469207,0.00025514049696541484,0.0001559833119245082,-0.0023575804670858042,-0.0005987362880449244,-0.0002939990593783994,-0.0011616821170177222,0.1697271168231964,-21.84811782836914,-2.38179087638855,22.63983917236328,0.6865335702896118,2.2753188610076904,-0.0072769103571772575,,,,,,,,,
1739402251.3461633,0.5256619419806358,0.09608649903975598,-0.9533466442422025,-2.0691049895478506,0.1377389404948598,2.1375925286898316,-1.275378874246943,-0.0010426864778659867,-0.0015997980315840096,0.0011629911349653323,-0.0004146260783082399,-6.640001644437119e-05,0.0004810849603872328,-0.00040091527369826214,0.2411382496356964,-21.82431411743164,-2.4333655834198,22.66364288330078,0.6737161874771118,2.2679946422576904,-0.013685601763427258,,,,,,,,,
1739402251.3561897,0.5256634164037969,0.09609225426596764,-0.9533484262897123,-2.069099147694747,0.1377383013082112,2.137591818382288,-1.2753788786067075,-0.0005608472573189866,0.00018093934467680947,-0.00033798560484304637,0.0024789409016540854,-1.3114193245124923e-05,-0.00018168334361986583,-0.0011038770955706496,0.2173345386981964,-21.87192153930664,-2.4095618724823,22.59223175048828,0.6801248788833618,2.2679946422576904,-0.013685601763427258,,,,,,,,,
1739402251.3662412,0.5256636544973514,0.09609241569518262,-0.9533515877092926,-2.0691030306708313,0.13773655489157227,2.1375925291563296,-1.2753788742461307,-0.0008790497025751483,-6.105921167242067e-05,-0.0003685874463384871,0.00020549585589072264,-0.0017283920551474452,0.0001316030488413529,-0.0008685326258712964,0.2173345386981964,-21.87192153930664,-2.35798716545105,22.61603546142578,0.6938577890396118,2.2679946422576904,-0.013685601763427258,,,,,,,,,
1739402251.3771858,0.5256599440397994,0.09609233579945653,-0.9533481672449319,-2.069106956774828,0.1377381844599066,2.1375928823850643,-1.2753730295787218,-0.0008019848284686565,0.00025175828125072923,0.00034212780660663127,-0.00039177551847445865,0.0004913225123237227,0.001306198853430143,0.0011499763915793198,0.2689092457294464,-21.87192153930664,-2.4095618724823,22.66364288330078,0.6801248788833618,2.2679946422576904,-0.027418512850999832,,,,,,,,,
1739402251.387244,0.5256639145051839,0.09608381730654991,-0.9533543435046419,-2.069103467318627,0.13773969815496565,2.137593622120017,-1.2753764934415897,0.00028328004928046806,-0.0027441190980303726,-0.00023084152119371066,0.0005156277384763375,-0.0010351015735168292,0.0011828142276118876,-0.00022381606774867424,0.2173345386981964,-21.79654312133789,-2.3302161693573,22.61603546142578,0.6673074960708618,2.2615859508514404,-0.03382720425724983,,,,,,,,,
1739402251.3981385,0.5256637060159736,0.09608691276425631,-0.9533522897191292,-2.0691018373867984,0.13773467545138918,2.137592843140898,-1.2753733715937003,0.00041042356815804626,-0.0008684536367126944,-0.0006328569272112593,-0.00040910115538512034,-0.0006808605404188882,0.0001788753303554785,0.0005627324854090682,0.2173345386981964,-21.79654312133789,-2.35798716545105,22.59223175048828,0.6737161874771118,2.2679946422576904,-0.06037749722599983,,,,,,,,,
1739402251.4081948,0.5256636806090519,0.09608590556284977,-0.9533526925461923,-2.06909987439517,0.13774213925338644,2.1375920164896045,-1.275380389566312,0.0005756862163007895,0.00020927957021440883,-0.001194105402153399,-0.0005880837011600649,0.00022019433756794492,-0.0005708463113292091,-0.0006390057660924551,0.2173345386981964,-21.82431411743164,-2.38179087638855,22.59223175048828,0.6737161874771118,2.2753188610076904,-0.0008682189509272575,,,,,,,,,
1739402251.419155,0.5256619421234631,0.09608520125559854,-0.9533484011576546,-2.0690970564195785,0.13773924911370616,2.1375936399933018,-1.275375801569745,-0.0006460671427729541,-0.0005083954015291426,0.000590574630276031,0.0003590981606853516,-0.0007541056878359008,0.0004743998974300114,0.002055441402594972,0.2411382496356964,-21.77273941040039,-2.4095618724823,22.54065704345703,0.6801248788833618,2.2615859508514404,-0.06678618490695953,,,,,,,,,
1739402251.4291782,0.5256619766478282,0.0960810673900991,-0.9533445356555208,-2.069103405894446,0.13774062397536357,2.137592014551758,-1.2753765723656134,-0.0004575121225993507,-0.0014527122595427038,0.001120611874316192,-0.0012436406188097867,-0.0007121449680083417,-0.00023049951592238915,0.0004500038269338602,0.2411382496356964,-21.74496841430664,-2.4333655834198,22.61603546142578,0.6865335702896118,2.2753188610076904,-0.06037749722599983,,,,,,,,,
1739402251.439221,0.5256660776997559,0.09608150829236348,-0.9533491470514007,-2.069093205914809,0.1377386567826724,2.137591258829715,-1.2753804427394773,0.0005614624274844647,-0.00034739492933005486,0.0005286096807473793,0.0014973733403027007,-0.0012106397746374932,-0.0008802858051768103,-0.00046561607276538657,0.1935308277606964,-21.72116470336914,-2.4095618724823,22.51685333251953,0.6801248788833618,2.2817275524139404,-0.027418512850999832,,,,,,,,,
1739402251.4501781,0.52566194202033,0.0960792402450853,-0.953348193253338,-2.069097058571613,0.13774001114630768,2.1375925804090077,-1.2753739726487645,-0.0010040078625748188,-0.0006223126531126729,0.000643407376691779,-0.00029502674319115737,-0.00022976728003580642,-0.0006796632949984037,-0.0005953644692758121,0.2411382496356964,-21.72116470336914,-2.4095618724823,22.56842803955078,0.6737161874771118,2.2615859508514404,-0.04756011441349983,,,,,,,,,
1739402251.460231,0.5256653674501053,0.09608508599517449,-0.9533513383646567,-2.0690990708368386,0.13773853973583716,2.1375923873452263,-1.275372597929815,0.0005289258606495442,0.0007544881665704495,-0.0013086956732035885,-0.0003646183511188155,0.000523810658849458,-0.00015839002539794992,0.0007555250981165255,0.1935308277606964,-21.77273941040039,-2.4095618724823,22.59223175048828,0.6801248788833618,2.2753188610076904,-0.06678618490695953,,,,,,,,,
1739402251.4711573,0.5256640480114368,0.09608031941924142,-0.9533505347716299,-2.0690977474776093,0.13773813039862515,2.137593640049231,-1.2753796319061435,-0.00019901996291469507,-0.00032583707416274684,1.39061786444438e-06,-0.0007133702975571429,-0.0003024479578526041,0.0001702666885010094,-0.0018467235069237241,0.2411382496356964,-21.74496841430664,-2.4095618724823,22.56842803955078,0.6801248788833618,2.2615859508514404,-0.0072769103571772575,,,,,,,,,
1739402251.4812078,0.5256637329661793,0.09608477454749742,-0.953346566721262,-2.0690970585832242,0.13773934856911865,2.1375943977072156,-1.2753815063773193,-0.0003728753257696266,0.0012009307052663295,0.0004411881190776526,0.0012635581759497278,0.0016359402107451783,0.0002603898531884784,-0.0029647452180944873,0.2173345386981964,-21.79654312133789,-2.4333655834198,22.56842803955078,0.6737161874771118,2.2551772594451904,-0.0008682189509272575,,,,,,,,,
1739402251.4921274,0.5256619429440724,0.09609199263720059,-0.953350507042111,-2.069100737302515,0.13774398123987652,2.1375936400471374,-1.2753784698048827,-0.0005778044893739282,0.0012381237715333943,-0.00011653430649619058,0.0006382379065631809,0.0010254728165025439,0.00018124566318911508,-0.0004485879293662238,0.2411382496356964,-21.87192153930664,-2.38179087638855,22.61603546142578,0.6673074960708618,2.2615859508514404,-0.020094294100999832,,,,,,,,,
1739402251.502237,0.525663642727643,0.09609517792452137,-0.9533484271456975,-2.069101902742251,0.1377416907782531,2.1375943977072156,-1.275377250694618,0.0005280411978090411,0.0014508401864026903,-0.0002221803852514997,0.0015923387558470841,0.0005325731245966912,-6.15299267974106e-05,-0.0007991002350329717,0.2173345386981964,-21.87192153930664,-2.4095618724823,22.59223175048828,0.6865335702896118,2.2551772594451904,-0.027418512850999832,,,,,,,,,
1739402251.513231,0.525664048011368,0.09609062913350207,-0.9533456783887139,-2.069105403969709,0.13773742519878257,2.1375920164898266,-1.2753779058793968,-0.0006070536311065263,-0.0005022423455882905,0.0017128964004978634,0.00042451810897768146,-0.0002719122283249165,0.0004352123621922433,-0.00016764620991927454,0.2411382496356964,-21.84811782836914,-2.4333655834198,22.63983917236328,0.6865335702896118,2.2753188610076904,-0.03382720425724983,,,,,,,,,
1739402251.5241706,0.5256636545132722,0.09609062418248628,-0.9533456075078103,-2.069101250665002,0.13773894044068827,2.1375936400471374,-1.2753772506427765,-8.155688483265128e-05,0.0007680978395225384,0.0004829702386641696,0.0017049722719003728,0.0003437440458367432,0.0007487014624958923,-5.2520430854278055e-05,0.2173345386981964,-21.84811782836914,-2.4095618724823,22.59223175048828,0.6737161874771118,2.2615859508514404,-0.027418512850999832,,,,,,,,,
1739402251.5351813,0.5256636545013839,0.09609233807472439,-0.9533474117991545,-2.069101937843997,0.1377396937670324,2.1375928823870587,-1.2753772550492861,3.0443712353433084e-05,0.00025936636200405447,0.00043825512615770296,-6.006894012693272e-05,-0.0006415776787083459,6.465089663715295e-06,0.0002447557974094813,0.2173345386981964,-21.87192153930664,-2.4095618724823,22.59223175048828,0.6673074960708618,2.2679946422576904,-0.027418512850999832,,,,,,,,,
1739402251.546159,0.5256637673242489,0.09609133745451177,-0.9533460090727786,-2.0691036893540433,0.13773818283477318,2.1375909056170377,-1.275375524679961,-0.0006821259318761266,0.00043684976801950954,0.00010477833291659237,-5.648301386199225e-06,-0.0009824651539047141,-0.0010943354393297047,0.0012360213421014682,0.2173345386981964,-21.84811782836914,-2.4095618724823,22.61603546142578,0.6801248788833618,2.2817275524139404,-0.05396880581974983,,,,,,,,,
1739402251.5561917,0.5256620847396655,0.0960890449962061,-0.9533504680545271,-2.069099644806916,0.13773941438857873,2.137592882381077,-1.275371782945956,-0.0013427348316893365,0.0002870281810166825,-0.00018879039752108323,0.0005091411788544073,-0.0004817349824590022,0.00018549197207663303,0.0016622426035038432,0.2689092457294464,-21.79654312133789,-2.38179087638855,22.59223175048828,0.6737161874771118,2.2679946422576904,-0.07411040365695953,,,,,,,,,
1739402251.5671506,0.5256619420284024,0.09608320424565384,-0.9533481543019833,-2.0690973773961896,0.13774246592009137,2.1375928822255528,-1.2753783503639815,0.0001538089420813828,-0.0005595261791081932,0.0002848568789272877,0.0008485828682003481,0.000813647542763147,-0.0001995214697775212,-0.0012864483439854087,0.2411382496356964,-21.74496841430664,-2.4095618724823,22.56842803955078,0.6801248788833618,2.2679946422576904,-0.05396880581974983,,,,,,,,,
1739402251.5782123,0.5256674990532771,0.09608320730114085,-0.9533484268231643,-2.069098001258199,0.13773818291313125,2.137593640047136,-1.2753804555382533,0.001587857248888579,-4.2080164334194856e-05,-0.00020386421985771222,0.0015372228304949924,-0.0014011991704545566,0.0004342897499824667,-0.0018217395554886153,0.1935308277606964,-21.74496841430664,-2.4095618724823,22.54065704345703,0.6801248788833618,2.2615859508514404,-0.0008682189509272575,,,,,,,,,
1739402251.5882802,0.5256670795789521,0.09607846016564851,-0.9533504162017092,-2.069098083109183,0.13774142110852897,2.137596978415987,-1.2753781170715024,0.0010388725257756202,-0.0016569286048029692,-0.0005145542856375465,0.0002208902809740213,-0.001440977158104002,-0.00011378196615397594,-0.0007810457307911484,0.1697271168231964,-21.69339370727539,-2.38179087638855,22.56842803955078,0.6801248788833618,2.2615859508514404,-0.020094294100999832,,,,,,,,,
1739402251.5992582,0.5256626439909132,0.0960828838678428,-0.9533522884350875,-2.0690980769167817,0.13773816968934718,2.137597735586168,-1.275376206318762,-0.0007479202109192004,-0.0003287883729097452,-0.0004224454602624691,-0.0007946715741983734,-0.0010888169935251643,0.0018193941237261266,0.0006269315759532671,0.2411382496356964,-21.74496841430664,-2.35798716545105,22.54065704345703,0.6801248788833618,2.2551772594451904,-0.04023589566349983,,,,,,,,,
1739402251.6101696,0.5256654710275978,0.09608035457583536,-0.9533550980106319,-2.0690953758284367,0.13774320624248781,2.137592882405901,-1.2753745721750198,0.0010911958740079395,0.00023626724185983036,-0.0008774520096639824,0.0009443584051866131,0.0018118823165899805,-0.0004795617036582407,-0.00025432339653897146,0.1935308277606964,-21.74496841430664,-2.3302161693573,22.51685333251953,0.6737161874771118,2.2679946422576904,-0.06037749722599983,,,,,,,,,
1739402251.6201801,0.5256636554661219,0.09607925257728563,-0.953352298725749,-2.0691036184778984,0.13774016040463644,2.1375943977072156,-1.2753772637912157,-0.00020331033165066874,-0.000181958303492029,0.0002831202287955529,-0.0013487949644108285,0.0007847877565576138,0.00036405910664580657,0.0013064783542565666,0.2173345386981964,-21.69339370727539,-2.35798716545105,22.61603546142578,0.6737161874771118,2.2551772594451904,-0.027418512850999832,,,,,,,,,
1739402251.6311505,0.5256619804997393,0.09608496283513646,-0.953354291508336,-2.069100625342215,0.13774261339475477,2.1375928823870587,-1.2753757373066203,-0.000857379213236164,-0.00018578141354895267,-0.00018523835352005796,0.0009256296443837658,0.0028827189607424633,5.148574164427186e-05,0.0020442297096638956,0.2411382496356964,-21.77273941040039,-2.3302161693573,22.61603546142578,0.6737161874771118,2.2679946422576904,-0.04023589566349983,,,,,,,,,
1739402251.6411674,0.5256653699116983,0.09608469754908869,-0.9533525328850919,-2.0690978616580926,0.13773894559502545,2.1375936400471374,-1.275376533550028,0.0011876176657690707,-0.0005365863251047805,0.00010509675168837436,0.0025824882814202603,0.00013049137305718627,0.0005086757781691178,0.0016626406310220432,0.1935308277606964,-21.79654312133789,-2.35798716545105,22.56842803955078,0.6737161874771118,2.2615859508514404,-0.06037749722599983,,,,,,,,,
1739402251.6521642,0.5256636545013998,0.09608777610319533,-0.9533484272540677,-2.0691052641254264,0.13773778059502112,2.1375936400471374,-1.2753713276721848,0.00021621667208674572,0.0010767869567368312,0.0004669230047852703,-0.000348991072809323,-0.000612993304841011,-0.00045009025381614876,0.0014198513035465015,0.2173345386981964,-21.84811782836914,-2.4095618724823,22.63983917236328,0.6865335702896118,2.2615859508514404,-0.08051909506320953,,,,,,,,,
1739402251.6631696,0.5256653670221149,0.0960905974364498,-0.953348445567428,-2.069107212050405,0.13774138161939076,2.1375936400471374,-1.2753803842385318,0.0005527581364508713,-0.0006279744478162603,0.0005439810441851494,-0.0004805650328111983,-0.00032314254020768295,1.990037100643759e-05,-0.001241365077181009,0.1935308277606964,-21.84811782836914,-2.4095618724823,22.66364288330078,0.6801248788833618,2.2615859508514404,-0.0008682189509272575,,,,,,,,,
1739402251.6732218,0.5256636459920582,0.09608891173369855,-0.9533484182652194,-2.069103714862557,0.13774138167155608,2.1375936400471374,-1.275382810820433,-0.0002510330870823747,-0.0012168823624937263,0.00018248502443530588,-0.0005595829094981516,-0.0005086579720419088,0.0002301420737024272,-0.0015447725633506552,0.2173345386981964,-21.82431411743164,-2.4095618724823,22.61603546142578,0.6801248788833618,2.2615859508514404,-0.0072769103571772575,,,,,,,,,
1739402251.6841958,0.5256653670220668,0.09609062429097029,-0.953348424363713,-2.069105503209672,0.1377406283632684,2.1375943977072156,-1.2753764131595533,-0.00013671649122449657,-0.001877915714885599,-0.0005609093016546748,-0.0002167171899521707,0.0004873325243533903,0.00046029338467242425,1.4335014976012053e-05,0.1935308277606964,-21.84811782836914,-2.4095618724823,22.63983917236328,0.6865335702896118,2.2551772594451904,-0.04756011441349983,,,,,,,,,
1739402251.6942418,0.5256636543923673,0.09608893814940082,-0.9533481152480857,-2.0691016586474036,0.13774017210290335,2.1375920166594073,-1.275367036385818,-0.0001313287812930378,-0.0008953098896969595,-0.0001572182196432855,-0.0002489925356358548,-5.139145089465725e-05,-0.0003425203875490959,0.003726211325428583,0.2173345386981964,-21.82431411743164,-2.4095618724823,22.61603546142578,0.6673074960708618,2.2753188610076904,-0.08692778646945953,,,,,,,,,
1739402251.7051394,0.5256619410351712,0.09609299192006465,-0.9533465401444048,-2.0691073427385787,0.13773971197138796,2.1375920164898274,-1.2753741117932236,-0.0014794513139491268,0.0011849952389408256,0.0004560482274019117,-0.0011950534784720744,0.0005564271467829933,-0.0006676629893772761,0.0019689687149111743,0.2411382496356964,-21.84811782836914,-2.4333655834198,22.63983917236328,0.6673074960708618,2.2753188610076904,-0.05396880581974983,,,,,,,,,
1739402251.7151656,0.5256636583532758,0.09608701906134938,-0.9533463125533509,-2.06910194072121,0.13774028899678906,2.137593641573365,-1.275374116171819,0.0004140957537686733,0.0005910745219851812,0.000420879441670883,-0.0007709494376000565,0.0012479703991272347,0.00028358782092547183,0.0011860508127110334,0.2173345386981964,-21.79654312133789,-2.4095618724823,22.59223175048828,0.6938577890396118,2.2615859508514404,-0.05396880581974983,,,,,,,,,
1739402251.725212,0.5256690774838947,0.09608925373034853,-0.953348398255946,-2.069098076963489,0.137738696409133,2.1375897034727482,-1.27537649738943,0.0014061580034657672,0.0014311628919548244,-1.2833623229668303e-05,0.0003006055862691371,-0.0015986815961763793,-0.001181844657561978,0.0013993715048557858,0.1419561207294464,-21.82431411743164,-2.4095618724823,22.54065704345703,0.6801248788833618,2.2679946422576904,-0.03382720425724983,,,,,,,,,
1739402251.7361329,0.5256644345127843,0.0960854380361065,-0.9533470497230722,-2.06910190383094,0.13773899315068383,2.137595155361312,-1.2753781168012175,0.0008044833893496935,0.0002109351239726313,0.0013450053324689003,-0.000692273668211385,0.0001830344571813613,0.0008441940197424841,-0.0006253170723724413,0.2173345386981964,-21.77273941040039,-2.4095618724823,22.59223175048828,0.6737161874771118,2.2487685680389404,-0.020094294100999832,,,,,,,,,
1739402251.7461534,0.5256640509135752,0.09608077887062566,-0.9533543693790991,-2.069098077907671,0.13773830130910292,2.1375936415733645,-1.2753788742460606,-3.4671165675612613e-05,-0.0007876111597859953,-0.001658608063057576,0.0002633875963213157,-0.0007539072843151294,0.0012752152762977515,-0.00039168894706162493,0.2411382496356964,-21.72116470336914,-2.3302161693573,22.54065704345703,0.6801248788833618,2.2615859508514404,-0.013685601763427258,,,,,,,,,
1739402251.7562566,0.5256619421233648,0.0960777012324134,-0.953352177051254,-2.069101249090893,0.13774076636799207,2.1375943982159837,-1.2753759295938931,-0.00017515407021286174,-0.002656735622065602,0.0003139903144559691,-0.0011454087979001126,-0.00020555867107235673,0.0002062091940806347,0.00175848998390991,0.2411382496356964,-21.66958999633789,-2.35798716545105,22.59223175048828,0.6673074960708618,2.2551772594451904,-0.04756011441349983,,,,,,,,,
1739402251.767232,0.5256636805017644,0.09608320333126878,-0.953352370663513,-2.0691001202168757,0.13773957968753847,2.1375928823870614,-1.2753741512245151,-1.803017970679235e-05,0.0008404954133098511,0.0005146759256201448,-0.001112162455625393,-0.0010969848643871873,-0.00032992343675175854,0.0009579932347241886,0.2173345386981964,-21.74496841430664,-2.35798716545105,22.56842803955078,0.6673074960708618,2.2679946422576904,-0.05396880581974983,,,,,,,,,
1739402251.7781987,0.5256653630976759,0.09608103718771421,-0.9533495711773733,-2.069100043691146,0.13774191698664784,2.137595123540518,-1.2753766109278557,0.00041448974642821555,-0.0002592783792032047,0.0004602754350426122,0.0005979679206707539,0.0008551974508824007,0.0005249910781779593,-7.03170060453667e-05,0.1935308277606964,-21.74496841430664,-2.38179087638855,22.56842803955078,0.6608988046646118,2.2615859508514404,-0.03382720425724983,,,,,,,,,
1739402251.789194,0.5256636545013614,0.09608202530772934,-0.9533543682571844,-2.0690995426626406,0.13773924932058412,2.1375969779721458,-1.2753741510576908,0.0005945355082995032,-0.00144255907887667,-0.0011057393534598657,0.0005079546824625809,0.000841213607037482,0.00013583075064832226,6.875342216448269e-05,0.2173345386981964,-21.77273941040039,-2.3302161693573,22.59223175048828,0.6801248788833618,2.2615859508514404,-0.05396880581974983,,,,,,,,,
1739402251.800232,0.5256638885048038,0.09608606296214763,-0.9533522902908885,-2.069105275497537,0.13773910285335791,2.1375939950259366,-1.2753744650241,0.0005801350012602895,0.0006600557672435278,-0.0013468012126791494,-0.0008003344467840292,-0.0005030166536397113,0.0004893502213689168,0.000924603704545803,0.2173345386981964,-21.82431411743164,-2.35798716545105,22.63983917236328,0.6737161874771118,2.2679946422576904,-0.05396880581974983,,,,,,,,,
1739402251.8111584,0.5256673135475871,0.0960903303142192,-0.9533466444330159,-2.06910142639843,0.13774062395822256,2.137591258836028,-1.2753741137512296,0.0011663310585806248,0.00032904091488791267,-0.0005106493301797928,0.001516321906316522,0.0005749181531244019,3.840257129714836e-05,0.002408138319771545,0.1697271168231964,-21.82431411743164,-2.4333655834198,22.61603546142578,0.6865335702896118,2.2817275524139404,-0.05396880581974983,,,,,,,,,
1739402251.8211899,0.5256599440437623,0.09609065946315126,-0.9533477252424318,-2.0691055030658423,0.13774325840987472,2.1375920164898266,-1.2753796724274953,-0.0014398169204575934,0.0004008383917413928,-0.0007726101467855307,0.00019521906775571911,0.0007101846807349941,-0.0001798434457317659,-0.0002897425619260667,0.2689092457294464,-21.84811782836914,-2.4095618724823,22.63983917236328,0.6737161874771118,2.2753188610076904,-0.03382720425724983,,,,,,,,,
1739402251.8321934,0.5256653931294923,0.09609039863228805,-0.9533466330159885,-2.069100815144152,0.1377382228920161,2.1375928823870587,-1.275380484673433,0.0002602082792567277,-0.000675346471298477,-0.0013978605276881934,0.00019338964870527952,-0.0009245314218765257,-0.000250584068103932,-0.002438542460436251,0.1935308277606964,-21.84811782836914,-2.4333655834198,22.61603546142578,0.6801248788833618,2.2679946422576904,-0.04023589566349983,,,,,,,,,
1739402251.8422177,0.5256681866193241,0.09609371396894578,-0.9533464101440702,-2.0691064784819884,0.13773835835165202,2.1375929235952076,-1.2753768352859054,0.001002889839401565,0.00034063453356403814,0.00018403754279317498,-0.0007336145699456694,0.0005868566965024724,-0.000282062280386765,-0.0005438874806849945,0.1935308277606964,-21.84811782836914,-2.4333655834198,22.61603546142578,0.6801248788833618,2.2679946422576904,-0.06678618490695953,,,,,,,,,
1739402251.853154,0.5256636548382926,0.09609234588683034,-0.9533474873501167,-2.0691016315785182,0.1377421399285135,2.137595129645662,-1.275377303040373,-0.0008381974963314915,0.00011187933284749371,0.0004943663280618993,0.0005131272118085049,0.0016767288616758764,0.0009085581413970491,-5.0514512069445126e-05,0.2173345386981964,-21.87192153930664,-2.4095618724823,22.61603546142578,0.6737161874771118,2.2615859508514404,-0.027418512850999832,,,,,,,,,
1739402251.8631878,0.5256632127455833,0.09608891184256622,-0.9533484012363976,-2.069102779363869,0.13773894054904248,2.137592869839075,-1.2753795688449565,-1.3302272953428796e-05,-0.0006953942330980912,0.0003919445894659783,0.0004138583174192931,-0.0009784623286619777,0.0001806818410661251,-0.002140664913546905,0.1935308277606964,-21.82431411743164,-2.4095618724823,22.61603546142578,0.6737161874771118,2.2679946422576904,-0.020094294100999832,,,,,,,,,
1739402251.873199,0.5256653669856319,0.09608891173415456,-0.9533453501126282,-2.0691037145329325,0.13773905896829045,2.137593006180875,-1.2753742300578494,2.5354735924434512e-05,-0.00029944942678735586,0.001037164128331263,-0.0015408275147564458,0.0001742642596594666,0.0008165670936804096,-0.00022956059214021183,0.1935308277606964,-21.82431411743164,-2.4095618724823,22.61603546142578,0.6737161874771118,2.2679946422576904,-0.05396880581974983,,,,,,,,,
1739402251.8841152,0.5256626439909128,0.09608891465715141,-0.9533505070621917,-2.0691009427981313,0.13773941438924753,2.1375947526678716,-1.2753720456548907,0.0006238995011901066,-6.411500424647351e-05,-0.0011823039818224597,-0.00040779949061730235,0.00022891931011924453,0.00041981822203660565,0.0011085908071240328,0.2411382496356964,-21.82431411743164,-2.38179087638855,22.61603546142578,0.6737161874771118,2.2615859508514404,-0.08051909506320953,,,,,,,,,
1739402251.8941908,0.5256643651903262,0.0960832062547636,-0.9533504797582014,-2.069100157965997,0.13773894489079003,2.137597735586165,-1.2753741139289079,0.00020390063590917945,-0.0010472555033373232,7.494069160309121e-05,-0.0003268883555323489,-0.0008978010602556017,0.001869161229378456,0.0007908970248056732,0.2173345386981964,-21.74496841430664,-2.38179087638855,22.56842803955078,0.6737161874771118,2.2551772594451904,-0.05396880581974983,,,,,,,,,
1739402251.905193,0.5256599469327424,0.0960814908110007,-0.953348163156286,-2.0690956803013894,0.13773743833844232,2.137594398404381,-1.2753804433310107,-0.0006391408459122466,-0.0012042726571654257,0.001333965871665461,0.0015576063890272822,-0.0009965017548665214,0.0007766967150618815,-0.002015246830497676,0.2689092457294464,-21.72116470336914,-2.38179087638855,22.54065704345703,0.6865335702896118,2.2551772594451904,-0.027418512850999832,,,,,,,,,
1739402251.9161851,0.5256619429436458,0.09608512314197155,-0.9533505070293191,-2.069099840369141,0.1377385397177799,2.137593640047141,-1.2753776044038854,-0.000725714830024009,-0.00012840052076033332,0.00023774952319702698,-0.00023407679116125806,-0.0009255076753778576,0.0002539614164795571,-0.00018555709481235815,0.2411382496356964,-21.77273941040039,-2.38179087638855,22.59223175048828,0.6801248788833618,2.2615859508514404,-0.027418512850999832,,,,,,,,,
1739402251.9272704,0.5256599450027819,0.09608149070203159,-0.953350505972576,-2.06910013245643,0.13774280378810083,2.1375930060115067,-1.2753752620933159,-0.00021259622400524004,-0.00018084357481324703,-0.00011892616192081697,0.0010528114484409606,0.0004452521090204625,0.0007669678566159742,8.559059618614006e-05,0.2689092457294464,-21.72116470336914,-2.38179087638855,22.56842803955078,0.6801248788833618,2.2679946422576904,-0.04756011441349983,,,,,,,,,
1739402251.9381917,0.5256670530518981,0.09608690988688275,-0.9533504290414043,-2.069100996827109,0.13773818334841184,2.137593646378854,-1.2753757759464088,0.0014811893257638312,7.500402424938683e-05,-6.157843454203654e-05,-0.0006663082907872048,-0.0004270870848728199,0.00033675430841006434,0.001218051308960564,0.1697271168231964,-21.79654312133789,-2.38179087638855,22.59223175048828,0.6801248788833618,2.2615859508514404,-0.06678618490695953,,,,,,,,,
1739402251.9491434,0.5256626427182342,0.09608858944797354,-0.9533505354670928,-2.0690998657821775,0.1377392534835568,2.137598508998457,-1.2753792305078218,-0.0006594272820853368,3.856026624792842e-05,-0.0012696600995974628,0.00014946119335258095,6.449021958469243e-05,0.0004436645407246147,-0.0008866969888193608,0.2411382496356964,-21.82431411743164,-2.38179087638855,22.59223175048828,0.6801248788833618,2.2487685680389404,-0.020094294100999832,,,,,,,,,
1739402251.9591868,0.5256619506830469,0.09608520125619462,-0.9533505031920865,-2.0691018640552685,0.1377389405492544,2.1375951237109003,-1.2753741452994174,-0.0005505327590565427,0.000101522849024759,-0.0005061815842838211,8.475210153741444e-05,-0.000900667168534332,0.0011929657972401602,0.002172500530857427,0.2411382496356964,-21.77273941040039,-2.38179087638855,22.59223175048828,0.6737161874771118,2.2615859508514404,-0.05396880581974983,,,,,,,,,
1739402251.9700456,0.5256636631682261,0.09609062295274504,-0.9533484009047493,-2.0690980888838784,0.13773867428011993,2.1375936400555124,-1.27537892662789,-0.0002244634620560661,0.00101008530891595,-0.0008876756284888756,0.001014197669832247,-0.000295793733405181,0.001426030304296158,-0.0007679393332817111,0.2173345386981964,-21.84811782836914,-2.38179087638855,22.56842803955078,0.6801248788833618,2.2615859508514404,-0.013685601763427258,,,,,,,,,
1739402251.9802306,0.5256654714516736,0.09608962202282893,-0.9533484233888976,-2.069104533650346,0.13773910285011182,2.137591258829748,-1.2753797889436926,0.001244698782361161,0.0007369712877640976,-0.0003442620615661527,0.00011002856033315322,-0.0009201020112176807,-0.0016633451106140697,-9.227250388589602e-05,0.1935308277606964,-21.82431411743164,-2.4095618724823,22.66364288330078,0.6737161874771118,2.2817275524139404,-0.0072769103571772575,,,,,,,,,
1739402251.990237,0.5256670785634681,0.0960906242669127,-0.9533484272526295,-2.0691034908977826,0.13774154462267166,2.1375928823870587,-1.2753792411894007,0.001316485877215833,-0.0008201095627800839,-0.00042568407844906166,0.000618210793761169,0.0011860214299152256,-0.00047567244909310614,-0.001039624813651562,0.1697271168231964,-21.84811782836914,-2.4095618724823,22.61603546142578,0.6801248788833618,2.2679946422576904,-0.013685601763427258,,,,,,,,,
1739402252.0012236,0.5256636545013781,0.09609112444416705,-0.9533474907753584,-2.0691034937775505,0.1377400594295625,2.1375920164898266,-1.2753804477102948,-0.00015356737877191668,-0.00012086495946123495,-0.0002428476162254274,0.0010498491419922325,0.00025553955230517614,-0.0006954385094224125,-0.002267178337380724,0.2173345386981964,-21.82431411743164,-2.4095618724823,22.61603546142578,0.6737161874771118,2.2753188610076904,-0.0008682189509272575,,,,,,,,,
1739402252.0122046,0.5256653785778392,0.09608916023761925,-0.9533438351383798,-2.069103685573522,0.13774244788456846,2.137593376884852,-1.2753719055050945,0.0014071013606421507,0.001115525695614399,0.00048363346939029494,-0.00045342611147965113,-0.0004186803327807468,0.0015857413572369634,-0.0006681910189621756,0.1935308277606964,-21.82431411743164,-2.4333655834198,22.61603546142578,0.6801248788833618,2.2679946422576904,-0.07411040365695953,,,,,,,,,
1739402252.0232034,0.5256636583890227,0.0960879437006634,-0.9533473869454222,-2.069103723366911,0.1377381887635692,2.137596220815227,-1.2753835690199409,-7.037426461531919e-05,0.000306867344976107,0.0005545801496013719,-0.0007769883157072188,-0.00022654084106419738,0.0011875187193744574,-0.003653202399265117,0.2173345386981964,-21.79654312133789,-2.38179087638855,22.61603546142578,0.6801248788833618,2.2679946422576904,-0.0008682189509272575,,,,,,,,,
1739402252.0332158,0.5256636545014495,0.09608786995609304,-0.9533483190254352,-2.0691037233671246,0.13774369408886306,2.1375936401036735,-1.275373367286887,1.1408359604994785e-06,0.00026848019432293684,0.0007558929649785137,-0.00044518179214763205,0.0005912887141454645,0.00015437563388857235,0.001745449804587775,0.2173345386981964,-21.79654312133789,-2.4095618724823,22.61603546142578,0.6608988046646118,2.2615859508514404,-0.06037749722599983,,,,,,,,,
1739402252.0432258,0.5256619419806524,0.09608606923540945,-0.9533504810403377,-2.06909915935139,0.1377407951404339,2.137595123540519,-1.2753789144445955,-0.0006662375367590034,0.001200067399220351,0.0006836849628390401,0.0013104312393019896,-0.0009520242314148021,0.00044839294964297075,-0.0006644435786613336,0.2411382496356964,-21.77273941040039,-2.38179087638855,22.56842803955078,0.6865335702896118,2.2615859508514404,-0.04023589566349983,,,,,,,,,
1739402252.0541923,0.5256640480114344,0.09608251476942299,-0.9533522884354535,-2.069099874390116,0.1377439651676122,2.137592552204144,-1.2753741510749712,0.0005314154704564311,-0.0013249075222966896,-0.0006653247714528196,0.0008364828545478348,0.00012244138496232134,0.0002502625445267773,0.0010794275881672894,0.2411382496356964,-21.74496841430664,-2.35798716545105,22.59223175048828,0.6673074960708618,2.2753188610076904,-0.05396880581974983,,,,,,,,,
1739402252.0651522,0.5256643565235329,0.09608519833886929,-0.9533504969491172,-2.06910002999748,0.13774326700826706,2.1375975136162118,-1.2753768008210316,0.0003392935222614173,6.283868914885903e-05,0.0004154009743222249,-0.0004242005708892184,0.0007118896921924886,0.0015466595166351044,-0.0017409774432876539,0.2173345386981964,-21.77273941040039,-2.38179087638855,22.56842803955078,0.6673074960708618,2.2615859508514404,-0.04023589566349983,,,,,,,,,
1739402252.075155,0.5256619419925411,0.09608521004151487,-0.9533505070423796,-2.069096294179322,0.1377409794380341,2.1375928824526578,-1.2753788742641003,-0.00120038608539946,0.0012725054686071296,-9.322276226602806e-05,0.0013973455065609754,-0.001140893947591557,-0.00022841977583985956,-2.913288628259036e-05,0.2411382496356964,-21.77273941040039,-2.38179087638855,22.51685333251953,0.6865335702896118,2.2679946422576904,-0.013685601763427258,,,,,,,,,
1739402252.0861115,0.525667473052897,0.09608272815029129,-0.9533481921436344,-2.069103646697725,0.137739249115713,2.1375959135361144,-1.2753791762239979,0.0011481874072015162,0.00042339965633996066,0.0006503460894310014,-0.0011712295097325394,-0.0006803501035408218,0.0006095646331415693,0.000352857522571025,0.1935308277606964,-21.74496841430664,-2.4095618724823,22.61603546142578,0.6801248788833618,2.2423598766326904,-0.020094294100999832,,,,,,,,,
1739402252.0962048,0.5256619068020446,0.09608448639034085,-0.9533522464058471,-2.069094229250561,0.13773987515182284,2.137595526240647,-1.2753796890970568,-6.938546046704496e-05,1.561942891798346e-05,-0.0005109967020191463,0.002796130871379095,-2.921521452748635e-05,0.00018605714620631208,-0.00041254475391790243,0.2411382496356964,-21.77273941040039,-2.35798716545105,22.51685333251953,0.6673074960708618,2.2487685680389404,-0.0072769103571772575,,,,,,,,,
1739402252.107225,0.5256653679848933,0.09608715044364709,-0.9533466445754315,-2.0691018641140277,0.13774005357622648,2.137594397709309,-1.2753812559482858,0.00032626748868985983,0.0007709692034829972,-0.00010640084757955877,-0.001181878764832066,-4.315138991734855e-05,-0.0004390907731152388,-0.0006953369724191299,0.1935308277606964,-21.79654312133789,-2.4333655834198,22.59223175048828,0.6673074960708618,2.2551772594451904,0.0064559997990727425,,,,,,,,,
1739402252.1181557,0.525663654501389,0.09608892050448471,-0.953350506935553,-2.0691018602760436,0.13773975731240187,2.13759436605002,-1.2753740224780818,-0.0003769882457373968,0.0003405031764914622,-0.0006313224827656002,0.00010314229410860373,0.000997184091093944,0.00033308812457552524,0.0017617796433951312,0.2173345386981964,-21.82431411743164,-2.38179087638855,22.59223175048828,0.6673074960708618,2.2679946422576904,-0.06678618490695953,,,,,,,,,
1739402252.1281772,0.5256599352094816,0.09609108157366793,-0.9533491783468144,-2.0691040069830957,0.13774520807943727,2.1375928824121844,-1.2753750070981529,-0.0019146348093220557,0.0005826079600906315,-0.0005918452954368082,-2.448827157079561e-05,0.0020410051944890024,-4.505345262527798e-05,0.0006151711901400999,0.2689092457294464,-21.82431411743164,-2.35798716545105,22.59223175048828,0.6608988046646118,2.2679946422576904,-0.04756011441349983,,,,,,,,,
1739402252.1391115,0.5256636545013338,0.0960944939609029,-0.9533522884180364,-2.0691019407017697,0.13773742536404476,2.137592411436779,-1.2753835815633308,-0.0006686417369490891,0.0016854506552389753,-0.0005316364917096375,0.0011061047730624408,-0.0012692177218595092,-0.0005868789668412775,-0.0012193875220886748,0.2173345386981964,-21.87192153930664,-2.35798716545105,22.59223175048828,0.6865335702896118,2.2679946422576904,-0.0008682189509272575,,,,,,,,,
1739402252.1491742,0.5256619331503346,0.09609062559052656,-0.9533481152481126,-2.069101932186837,0.1377436960389458,2.137594036207268,-1.2753808605705501,-0.000984739875369873,0.0003824920360081483,0.00039008008855802545,0.001290197361157517,0.000782882463110663,0.00022360135015871482,-0.0010002258341774459,0.2411382496356964,-21.84811782836914,-2.4095618724823,22.59223175048828,0.6608988046646118,2.2679946422576904,-0.0008682189509272575,,,,,,,,,
1739402252.159212,0.5256616327558573,0.09609279019694161,-0.9533483909487244,-2.069105501949833,0.13774049403054928,2.1375936446453605,-1.2753804707949243,-0.000941097772240565,0.0008856720416033387,-0.0012861691246745448,0.00014317958593705634,0.0011316901306605463,-7.130037848816892e-05,-0.0014216070951663217,0.2411382496356964,-21.84811782836914,-2.38179087638855,22.63983917236328,0.6737161874771118,2.2615859508514404,-0.027418512850999832,,,,,,,,,
1739402252.1701162,0.5256651286017902,0.09608702199256468,-0.9533445371419815,-2.0691037233671015,0.13773834086229586,2.137593818615811,-1.2753803910379413,-5.749730847509199e-05,-0.0011898608542431043,0.0008647915660655727,-0.00016233668862626903,-0.0002834405580738609,0.0003478102012953406,-0.00013751653327775926,0.1935308277606964,-21.79654312133789,-2.4333655834198,22.61603546142578,0.6801248788833618,2.2615859508514404,-0.0008682189509272575,,,,,,,,,
1739402252.180199,0.525663654497346,0.09608859365156494,-0.9533495613634096,-2.069101546530276,0.1377391160137282,2.1375943977102394,-1.2753788786067324,-0.0006387387556847806,0.00021700476931625103,0.00015434842748287696,0.0006914858615403653,-0.00022262751461920829,0.0006838588458837207,0.000337311427220439,0.2173345386981964,-21.84811782836914,-2.38179087638855,22.61603546142578,0.6737161874771118,2.2551772594451904,-0.013685601763427258,,,,,,,,,
1739402252.190201,0.5256640480114344,0.0960897578366442,-0.9533505070265353,-2.069103621291032,0.1377444824367831,2.1375943983855388,-1.2753779473699416,0.00014558414171467266,-0.0002592382186423003,-0.0007212452875817847,0.0008463501713746849,0.0021743535818222657,2.2249978124674907e-05,-0.0025340859565604608,0.2411382496356964,-21.79654312133789,-2.38179087638855,22.61603546142578,0.6673074960708618,2.2551772594451904,-0.06037749722599983,,,,,,,,,
1739402252.2012024,0.5256619415802531,0.0960871593733544,-0.9533506092998101,-2.0691001636802033,0.137740922461401,2.1375936400471485,-1.2753816487907528,-0.0005109810294282625,-0.0005953125022525828,-0.00021683808583690617,-0.00020066149512519717,0.0015745666254785122,-0.00010642128911456878,-0.0007651639589270609,0.2411382496356964,-21.79654312133789,-2.38179087638855,22.56842803955078,0.6673074960708618,2.2615859508514404,-0.020094294100999832,,,,,,,,,
1739402252.2121966,0.5256653670221141,0.09607957174333073,-0.9533483376484684,-2.0690952976542984,0.13774334156568308,2.1375943977072156,-1.2753765338063914,0.0008108884775657106,-0.0012488536989034018,-0.00016606546811358052,0.002258299104376461,0.0014563282925360748,-0.0006263702447843075,-0.0009006852011600897,0.1935308277606964,-21.69339370727539,-2.4095618724823,22.54065704345703,0.6737161874771118,2.2551772594451904,-0.03382720425724983,,,,,,,,,
1739402252.2231932,0.525661950611107,0.0960810895740935,-0.9533543656570113,-2.069103714533223,0.13774216467845346,2.1375936400471374,-1.2753741119729043,-0.0018787810390420321,-0.0006487561379947878,-0.0012276602196505853,-0.0021932670407487946,0.0024185927220632237,-0.0001990654133245057,0.002057694075979386,0.2411382496356964,-21.74496841430664,-2.3302161693573,22.61603546142578,0.6865335702896118,2.2615859508514404,-0.05396880581974983,,,,,,,,,
1739402252.234191,0.5256636545014323,0.09608723368733603,-0.9533481152481129,-2.069101940690056,0.13773946707019102,2.1375936400471374,-1.2753757312231704,-0.000668442019869427,0.001572448523035691,0.001269794566690234,-0.0013196574429312185,0.00012568226169227205,-0.0007365483340174573,2.37269987774716e-05,0.2173345386981964,-21.79654312133789,-2.4095618724823,22.59223175048828,0.6737161874771118,2.2615859508514404,-0.04023589566349983,,,,,,,,,
1739402252.2451193,0.5256617122288666,0.09608691379510546,-0.9533504030392691,-2.0690997609838413,0.13774134942720637,2.1375943977072156,-1.2753789317792823,-0.000851922616810698,0.0003836585060918484,-0.0013081033671940602,-0.00023294686936223144,0.0007860330159741417,0.00016929122422450747,-0.0016495437167758102,0.2411382496356964,-21.79654312133789,-2.38179087638855,22.59223175048828,0.6865335702896118,2.2551772594451904,-0.04023589566349983,,,,,,,,,
1739402252.2551594,0.525665367018224,0.0960903394248314,-0.9533477252406729,-2.0691012518884078,0.13773854482212794,2.1375936400471374,-1.2753736692656656,0.0005709237654049746,0.0015824083302300057,0.0007066357203035294,-0.0007065420758874326,-0.0005708064809830372,0.0007352713978491307,0.0008729015982785659,0.1935308277606964,-21.82431411743164,-2.4095618724823,22.59223175048828,0.6801248788833618,2.2615859508514404,-0.06678618490695953,,,,,,,,,
1739402252.2652023,0.5256654710236349,0.09608520032014245,-0.9533466445637873,-2.0691016561163,0.13773869622577395,2.1375928823870587,-1.2753767950247763,0.0009223557541310092,-0.00039453628899255966,0.0010128520256113217,-0.000146528970306519,0.0007218348629814747,-0.0004152217520256414,2.9085431528357844e-05,0.1935308277606964,-21.77273941040039,-2.4333655834198,22.61603546142578,0.6801248788833618,2.2679946422576904,-0.04023589566349983,,,,,,,,,
1739402252.2752094,0.5256653674518659,0.09608692256227962,-0.9533542655079049,-2.0691037233321152,0.13774265267101926,2.1375888375754384,-1.2753835815804992,0.0007771635803821035,-0.00023962319453852017,-0.0015068932247473115,-0.0010829701883899574,0.0008593961477865751,-0.002012595113963624,-0.001321819335639302,0.1935308277606964,-21.79654312133789,-2.3302161693573,22.61603546142578,0.6737161874771118,2.2753188610076904,-0.0008682189509272575,,,,,,,,,
1739402252.2862484,0.5256653670221173,0.09608726552752579,-0.9533464105716686,-2.069100156613371,0.13774168462045794,2.1375953543319883,-1.2753741564425403,0.00040924241982033966,0.0008504224816050191,0.0005824460991840142,0.00042050337999142626,-0.0002859930690086977,-6.252460125556248e-07,0.002286378198776999,0.1935308277606964,-21.79654312133789,-2.4333655834198,22.56842803955078,0.6801248788833618,2.2753188610076904,-0.08051909506320953,,,,,,,,,
1739402252.2971888,0.5256637323935074,0.09608694107660638,-0.9533466441463652,-2.0691019279876834,0.13773857782015325,2.1375920165651956,-1.2753776432190087,-0.0003793941550719618,-0.0003457543427524579,0.0004631350107753616,-0.00013843603652863317,0.0012053632943051194,-0.0004896136016391843,-0.00020876455502551883,0.2173345386981964,-21.79654312133789,-2.4333655834198,22.59223175048828,0.6801248788833618,2.2753188610076904,-0.027418512850999832,,,,,,,,,
1739402252.3081663,0.5256619419819715,0.0960889906555796,-0.9533505070425432,-2.0691019406898903,0.1377443582790453,2.1375928823870596,-1.2753823551450334,-0.0009609735159677809,0.0006277478329694325,-0.0009326120930013718,1.1539700405520826e-05,0.0023828334840123484,0.0009509387548007676,0.00024278735581090364,0.2411382496356964,-21.82431411743164,-2.38179087638855,22.59223175048828,0.6673074960708618,2.2679946422576904,-0.020094294100999832,,,,,,,,,
1739402252.3182027,0.5256645905150645,0.09609207734218798,-0.9533505031549765,-2.06910201690459,0.13773743105154937,2.137592016998569,-1.2753742489533353,3.2385300169481945e-05,0.0006566162466737251,-0.0013067691235782927,0.0006089891168596373,-0.002790620166164132,-0.0007256574343971474,0.0015030711643781826,0.2173345386981964,-21.82431411743164,-2.38179087638855,22.59223175048828,0.6865335702896118,2.2753188610076904,-0.05396880581974983,,,,,,,,,
1739402252.329152,0.5256619448748673,0.09608691514636654,-0.9533505041535975,-2.0691048172797895,0.13774021349001342,2.1375928823870614,-1.2753725984302937,-0.00044705119557760664,-0.001704734895468892,-0.00032258450285274463,-0.00032120295791743226,0.00010310877784517827,-0.0006029258341703108,0.001177483416021658,0.2411382496356964,-21.79654312133789,-2.38179087638855,22.63983917236328,0.6673074960708618,2.2679946422576904,-0.06678618490695953,,,,,,,,,
1739402252.3392212,0.5256629559955224,0.09608936164234318,-0.9533481169620637,-2.069099877218512,0.13773977565295295,2.137596977907245,-1.2753765897539708,0.0007818979836757688,-0.0004900014356764168,0.0010088640131267301,0.000606212556597868,-9.350654954858373e-05,0.0008452146281226899,0.0007219407096893272,0.2411382496356964,-21.79654312133789,-2.4095618724823,22.59223175048828,0.6801248788833618,2.2615859508514404,-0.06037749722599983,,,,,,,,,
1739402252.3502364,0.5256636545071077,0.09608544974127595,-0.953348190358592,-2.0690980781765895,0.13773911233637032,2.1375930472950255,-1.2753831134628617,0.00046054409309417984,-0.00115495308586015,0.000469593161373844,0.001419653650436097,0.0004292127034757604,0.0001673945953617398,0.00044076601780636813,0.2173345386981964,-21.77273941040039,-2.4095618724823,22.54065704345703,0.6737161874771118,2.2679946422576904,-0.013685601763427258,,,,,,,,,
1739402252.361229,0.5256643565116443,0.09608543933597612,-0.9533484272513576,-2.0691034369153676,0.13774051063771076,2.1375936402741758,-1.2753729504279503,0.0002173427970330996,-0.0015751532192117322,-0.0007865927060388191,-0.0006675753461903033,0.0007032595978192613,-0.00014215595741187107,0.002609223913469465,0.2173345386981964,-21.77273941040039,-2.4095618724823,22.63983917236328,0.6608988046646118,2.2615859508514404,-0.06678618490695953,,,,,,,,,
1739402252.3721755,0.5256653670260777,0.09608690304972757,-0.9533502849239224,-2.0691001327715424,0.13773778059530178,2.1375964854542846,-1.275378822769514,-0.0003592958247723842,-0.00033859573679645574,0.001183474541757045,4.175814781230474e-05,0.0005369035915598702,0.00040769332353163826,-5.5451945868364815e-05,0.1935308277606964,-21.79654312133789,-2.38179087638855,22.56842803955078,0.6865335702896118,2.2753188610076904,-0.05396880581974983,,,,,,,,,
1739402252.3831878,0.5256654490178263,0.09608691415410305,-0.9533504806842584,-2.069101940375027,0.13774212611575468,2.137592057892784,-1.2753734851587117,0.0014916121654606996,0.0003453281011946329,-0.0004888674985995674,-0.0017507870914015185,0.0004042872004583424,-0.001545512640113628,0.0018285083041510452,0.1935308277606964,-21.79654312133789,-2.38179087638855,22.59223175048828,0.6737161874771118,2.2753188610076904,-0.06037749722599983,,,,,,,,,
1739402252.39413,0.5256636545018465,0.09608591159734046,-0.9533481165804069,-2.0691016473097577,0.13773969817292106,2.137594754702377,-1.2753804708415226,-0.0007433215444848363,-0.00016857915867991835,6.024393834866778e-05,-0.0003235413867208574,-7.265497363585587e-05,-0.0008132620611541291,-0.0015956481475424167,0.2173345386981964,-21.77273941040039,-2.4095618724823,22.61603546142578,0.6673074960708618,2.2615859508514404,-0.027418512850999832,,,,,,,,,
1739402252.4041986,0.5256619432646218,0.09608351902760418,-0.9533497934713041,-2.0690980661737686,0.13773894260755498,2.137592016678284,-1.275382537408716,-0.0007852356512978082,-0.0006976255051944757,-0.0006709259421785325,-0.000293267084276918,2.645880094641673e-05,-0.0019727999139102902,-0.00035432393828809075,0.2411382496356964,-21.74496841430664,-2.38179087638855,22.56842803955078,0.6737161874771118,2.2753188610076904,-0.013685601763427258,,,,,,,,,
1739402252.4142241,0.5256619154897209,0.09608664650658565,-0.9533505069234687,-2.0691033917042105,0.13773971570659313,2.1375943977072183,-1.2753813349696548,-0.0004512655968543463,0.00012174221325963758,-0.0008000319910484702,-0.0010625141966284363,-0.0012170940921336381,-0.0005307046591790101,-0.0007883415617944592,0.2411382496356964,-21.77273941040039,-2.38179087638855,22.61603546142578,0.6673074960708618,2.2551772594451904,-0.020094294100999832,,,,,,,,,
1739402252.4251544,0.5256626439907636,0.09608691477579094,-0.953349805032289,-2.0691030222829756,0.13773672233427922,2.1375943984420656,-1.275381856253841,-0.0004561827034509898,0.0002144540010617297,-0.0005578685450589536,-0.00032453482187794864,-0.0018063901052623225,-0.0004973805926491973,-0.0008397864423471989,0.2411382496356964,-21.79654312133789,-2.38179087638855,22.61603546142578,0.6938577890396118,2.2551772594451904,-0.027418512850999832,,,,,,,,,
1739402252.435173,0.5256636602366264,0.09608680832007656,-0.9533505060676848,-2.069099925578529,0.13774000822112376,2.137597703740559,-1.2753733679570607,-8.371100051817796e-05,-0.0003786386075582053,0.00025767423123985257,8.009121226494023e-05,-0.0008074638903131632,0.0014974029087398005,0.00165892903769702,0.2173345386981964,-21.79654312133789,-2.38179087638855,22.56842803955078,0.6737161874771118,2.2679946422576904,-0.06037749722599983,,,,,,,,,
1739402252.4451876,0.5256619419807494,0.09609104216437099,-0.9533501661486625,-2.069103726197611,0.1377428969556231,2.1375936447074704,-1.2753776445845226,-0.0011147932476353304,0.0007344131784697411,0.0003014051407413109,-2.468302348931353e-05,-0.0017975791351177992,-0.0005052409596117005,-9.251148643010587e-05,0.2411382496356964,-21.82431411743164,-2.38179087638855,22.61603546142578,0.6673074960708618,2.2615859508514404,-0.05396880581974983,,,,,,,,,
1739402252.455209,0.5256619419806524,0.09608925376107938,-0.9533504983699841,-2.069105272676699,0.13774336501971027,2.1375969779073234,-1.275376808148389,-0.0010941120028623453,0.000258605762335617,-0.000502219148335677,-0.0005560198840828521,0.0004397602970202425,6.56755255480984e-05,0.0010501247154761553,0.2411382496356964,-21.82431411743164,-2.38179087638855,22.63983917236328,0.6737161874771118,2.2615859508514404,-0.04023589566349983,,,,,,,,,
1739402252.4661107,0.525667079542846,0.09608904466128113,-0.9533526920824877,-2.069104816963106,0.1377368652575502,2.137594754212243,-1.2753755246680636,0.0009947421265452004,-0.0011426349323317368,-0.000984797528039697,1.0702617426201115e-05,0.0006934081098402978,-0.0004872867730930545,0.0018712321977660522,0.1697271168231964,-21.79654312133789,-2.38179087638855,22.63983917236328,0.6737161874771118,2.2615859508514404,-0.05396880581974983,,,,,,,,,
1739402252.4762402,0.5256619448695835,0.09608872825201832,-0.9533505062276124,-2.0691052764442124,0.13774204690343853,2.137593640574748,-1.2753742833540245,-0.001291787916544704,-0.00012086181273991302,-0.001149956945193418,-0.00033040532697786707,0.0005805404580791708,0.00033644890024870646,-9.909981209424586e-05,0.2411382496356964,-21.84811782836914,-2.38179087638855,22.63983917236328,0.6865335702896118,2.2615859508514404,-0.05396880581974983,,,,,,,,,
1739402252.487219,0.5256653673431234,0.09608986023737276,-0.953348348930558,-2.069097401902867,0.13773742525496457,2.1375943977072183,-1.2753760890666743,-0.00039992169903491775,0.0005934345750038394,0.0001836587372703606,0.0012947217762309486,-0.002304614921236767,0.0008385532684892663,0.0014519885650189396,0.1935308277606964,-21.79654312133789,-2.4095618724823,22.56842803955078,0.6865335702896118,2.2551772594451904,-0.04023589566349983,,,,,,,,,
1739402252.4981813,0.525663654501389,0.09609062441304139,-0.9533504810408441,-2.0691001324566045,0.13774320700096668,2.1375973328672018,-1.2753803900567202,-0.0002507016971357372,-0.00018711660281760722,-0.000553304744341403,0.0007620163841643066,0.0005963660079228709,0.0007520343649092551,-0.0005899570764915053,0.2173345386981964,-21.84811782836914,-2.38179087638855,22.56842803955078,0.6737161874771118,2.2679946422576904,-0.0008682189509272575,,,,,,,,,
1739402252.5091808,0.5256633366099448,0.09609107184221952,-0.9533504983757082,-2.069107287461371,0.1377439632064369,2.137594752845128,-1.2753762106973558,-0.0006694744221334373,0.001213476065021046,-0.0017753232150099214,-0.0016067617716454706,0.0007777727651297708,0.0004985867861779906,0.001461495424486125,0.2173345386981964,-21.82431411743164,-2.38179087638855,22.66364288330078,0.6673074960708618,2.2615859508514404,-0.04023589566349983,,,,,,,,,
1739402252.5201192,0.5256653670559861,0.09608772932213022,-0.9533522781637962,-2.0690997719366044,0.13773976396722257,2.1375928831281903,-1.2753758923545893,0.0012028562492146018,0.0008763063632806447,-0.000904806206745087,0.000563880830394959,-1.3801663796778177e-05,0.00032839412077522286,0.0005292080400800988,0.1935308277606964,-21.79654312133789,-2.35798716545105,22.59223175048828,0.6801248788833618,2.2679946422576904,-0.04023589566349983,,,,,,,,,
1739402252.5301797,0.5256653756889088,0.09608743640377927,-0.9533459396762884,-2.069098078186503,0.13774249976249334,2.1375962202471785,-1.2753816614087636,0.0007585874848917327,0.001327402081738048,0.0012053805170656393,0.0008089460200552583,-5.201875157921764e-05,0.0003488536116281916,-0.0017767506451044155,0.1935308277606964,-21.77273941040039,-2.4333655834198,22.54065704345703,0.6737161874771118,2.2679946422576904,-0.027418512850999832,,,,,,,,,
1739402252.5402565,0.5256597962135873,0.09608330859752066,-0.9533484272407574,-2.0691023885289357,0.1377434080922879,2.1375936446823474,-1.2753759356442957,-0.001252247717836238,-0.0003553788711457324,-0.00032562159013701093,-0.000662563977044437,-0.0007275898450771045,-0.00032400807302803797,0.0008807520931000692,0.2411382496356964,-21.74496841430664,-2.4095618724823,22.59223175048828,0.6737161874771118,2.2615859508514404,-0.04756011441349983,,,,,,,,,
1739402252.5511994,0.5256636544892707,0.09607949287072538,-0.9533541350423492,-2.0691017109644005,0.13774076492857046,2.1375955103272775,-1.2753726008581219,-0.000758880674022228,-0.0017623805550436627,-0.0012879706432468944,-9.815639755271266e-05,-0.00024216865532883532,0.0001550696189813438,0.0022500266313996496,0.2173345386981964,-21.69339370727539,-2.3302161693573,22.59223175048828,0.6673074960708618,2.2551772594451904,-0.06678618490695953,,,,,,,,,
1739402252.562145,0.5256653785778392,0.09608312422678561,-0.9533503279820059,-2.0690971723146054,0.13773831935339736,2.137594439430388,-1.275376145431179,0.0012645469420798586,-0.0013835874449358277,0.0004816537317766604,0.0008332692907054769,-8.621444289184932e-05,-0.0003002569476663941,-0.0004215139463525512,0.1935308277606964,-21.74496841430664,-2.38179087638855,22.56842803955078,0.6801248788833618,2.2551772594451904,-0.04023589566349983,,,,,,,,,
1739402252.5722346,0.5256671565630353,0.0960868346870302,-0.9533466445726435,-2.0691037119788693,0.13774173036168885,2.137592511497069,-1.2753725981134527,0.0012986834514645445,0.00024154984321230974,0.0011654115114667807,-0.0011071145909188579,-0.0009724752709807196,0.000423729458845472,0.0007383939896018503,0.1697271168231964,-21.79654312133789,-2.4333655834198,22.61603546142578,0.6865335702896118,2.2753188610076904,-0.06678618490695953,,,,,,,,,
1739402252.5831878,0.5256599478921423,0.09608520123595138,-0.9533521856110521,-2.0691001575931076,0.13774127831251587,2.137592882389853,-1.2753749145851492,-0.0006614558043739703,-0.00021790432880201073,-0.001420446500115874,0.0006719533639576352,0.0019532370247074453,-0.001853092484417757,0.0003052599236335273,0.2689092457294464,-21.77273941040039,-2.35798716545105,22.56842803955078,0.6673074960708618,2.2679946422576904,-0.04756011441349983,,,,,,,,,
1739402252.594144,0.525661976647891,0.09608891173415209,-0.95335050693379,-2.0691072887211557,0.1377390106977328,2.137596080183236,-1.275374869472011,-8.749049559672725e-06,0.0003432911161637272,1.7212364975655964e-05,-0.0015177629745354382,-0.00030919850092566445,0.0010677200739892638,4.1873111268228786e-06,0.2411382496356964,-21.82431411743164,-2.38179087638855,22.66364288330078,0.6865335702896118,2.2817275524139404,-0.04756011441349983,,,,,,,,,
1739402252.604173,0.5256636557855486,0.09608691660778679,-0.9533466432917059,-2.0691001579780934,0.13774401786656829,2.1375977355945395,-1.275380418459139,-0.0002449767954838554,-0.00017441275831247687,0.0014327481221247176,-0.00021901084713548855,0.0011544859128859448,0.0001954223156836357,-0.0006359598994598682,0.2173345386981964,-21.79654312133789,-2.4333655834198,22.56842803955078,0.6673074960708618,2.2551772594451904,-0.027418512850999832,,,,,,,,,
1739402252.614238,0.5256636631681987,0.09609267290007245,-0.9533505339170577,-2.069101954582206,0.13773819623416556,2.137594766629331,-1.2753780838538817,0.0005844860016388345,0.0017302132469906198,-0.00022603428638417555,-0.0001460874179019666,-0.00046633832179667845,-0.0003042877406662848,-0.0002311300791472135,0.2173345386981964,-21.87192153930664,-2.38179087638855,22.61603546142578,0.6801248788833618,2.2615859508514404,-0.020094294100999832,,,,,,,,,
1739402252.6261783,0.5256634160828534,0.09608961323529708,-0.953348062971314,-2.0691019406801208,0.1377402312041901,2.1375973487869495,-1.2753764944819233,0.00011062157341022242,0.0005815245863658913,-0.00032525030719007613,0.00038606274358433826,0.00027869440340300936,0.0003530203695097787,-0.0005735982017174694,0.2173345386981964,-21.82431411743164,-2.38179087638855,22.59223175048828,0.6673074960708618,2.2615859508514404,-0.03382720425724983,,,,,,,,,
1739402252.637157,0.525663680501315,0.09609199067554963,-0.953344756561014,-2.069105520216258,0.13773871384449476,2.137593253776125,-1.2753824728759586,0.0005552518697289389,-0.0007514606931100945,0.0013894216163886624,-0.0009677324268491095,-0.0005711079742842268,0.0006352924313010144,-0.0001376389433085961,0.2173345386981964,-21.82431411743164,-2.4571692943573,22.63983917236328,0.6801248788833618,2.2679946422576904,-0.020094294100999832,,,,,,,,,
1739402252.6481974,0.5256636545015304,0.09608891175153343,-0.9533501836881929,-2.069101699274261,0.13774151975812582,2.1375936537852835,-1.275381301392884,0.000286871581628005,-0.00020204135514048966,-0.001953371168394226,8.262400916905695e-05,-0.00047404474913282426,-0.0005197418021469723,0.0009406562779794466,0.2173345386981964,-21.82431411743164,-2.35798716545105,22.61603546142578,0.6801248788833618,2.2615859508514404,-0.020094294100999832,,,,,,,,,
1739402252.659156,0.525665369911046,0.09608925372500046,-0.9533462952096442,-2.069098088872885,0.13773818301613347,2.1375988502224064,-1.2753813410628092,0.0006677515719342617,0.0007725420519413192,0.0007774301130468279,0.0007020707629985359,-0.0017851728185782185,0.0006273519636216164,0.0005716600516746702,0.1935308277606964,-21.82431411743164,-2.4095618724823,22.56842803955078,0.6801248788833618,2.2551772594451904,-0.020094294100999832,,,,,,,,,
1739402252.6692045,0.5256640480114834,0.09608522758534838,-0.9533504954507197,-2.0691046944544573,0.13773851093737294,2.1375948922804127,-1.2753741163879317,-0.00012843035800817558,-0.0008735199169751832,-0.0008841382018845894,-0.0010781745451215595,-0.0003718969362126476,0.00013730606606943943,0.0016290098114936009,0.2411382496356964,-21.77273941040039,-2.38179087638855,22.59223175048828,0.6865335702896118,2.2551772594451904,-0.05396880581974983,,,,,,,,,
1739402252.6801212,0.5256653670696693,0.09608715055634272,-0.9533497963297652,-2.0691019407056506,0.1377424991459576,2.1375936453069357,-1.2753761075312033,0.0008522993604121367,-0.000718383913104298,0.00024122980523965762,-0.0006025175372677642,0.0004724024032923181,-0.00040358503669869436,0.00015959177936440805,0.1935308277606964,-21.79654312133789,-2.38179087638855,22.59223175048828,0.6737161874771118,2.2615859508514404,-0.04023589566349983,0,0,0,0.000,0,0
1739402252.690201,0.5256651256600973,0.09608148202555716,-0.9533515876972729,-2.069103712029433,0.13774305496238012,2.1375938055581476,-1.2753754211645973,-8.64279660624705e-05,-0.0020124489786474222,-0.0012841961634488521,-0.0008125985720661491,-0.00104028258743883,0.0008097280072281029,0.001673210454217002,0.1935308277606964,-21.72116470336914,-2.35798716545105,22.61603546142578,0.6673074960708618,2.2615859508514404,-0.07411040365695953,0,0,0,0.000,0,0
1739402252.7011657,0.5256657951979765,0.09608320333166581,-0.953348427248732,-2.069101141382761,0.1377409414135822,2.1375940114301595,-1.2753741641598109,0.0009270443271567636,-0.0009170110701595338,0.000499469150860343,-7.062027229310351e-05,0.0004928217651308182,0.0011235299418846396,0.000649540326904603,0.2173345386981964,-21.74496841430664,-2.4095618724823,22.59223175048828,0.6673074960708618,2.2615859508514404,-0.05396880581974983,0,0,0,0.000,0,0
1739402252.7111855,0.5256653671653652,0.09608691379329964,-0.9533502727181379,-2.0690973885001025,0.13773742958366259,2.1375973487868793,-1.2753772965406442,-6.857325199147987e-05,0.0005723394541170134,9.833140148192502e-05,0.0009338538540712813,-0.0005039840330105061,0.0006108219723036668,0.00020407961400319163,0.1935308277606964,-21.79654312133789,-2.38179087638855,22.54065704345703,0.6865335702896118,2.2615859508514404,-0.05396880581974983,0,0,0,0.000,0,0
1739402252.7221541,0.5256625063201588,0.0960832033317154,-0.9533484272513721,-2.069098078219337,0.13773818332235133,2.1375938239502545,-1.2753789939935067,-0.0005279861853771328,-0.00024715384475152254,-0.00016679289689033741,0.0014178060577982946,-0.0021692342403793344,0.0014208458455490355,-0.0002588575467587875,0.1935308277606964,-21.74496841430664,-2.4095618724823,22.54065704345703,0.6801248788833618,2.2615859508514404,-0.013685601763427258,0,0,0,0.000,0,0
1739402252.732205,0.5256619420392036,0.09609064958526811,-0.9533522893985773,-2.069103468269056,0.13774369747122178,2.1375936827846287,-1.2753808626180938,-0.00020769750927275479,0.0012391461219172623,-0.001670735781982511,2.8313173876895166e-05,0.0015189435518321334,0.0007763760967387751,-0.0016592717162624755,0.2411382496356964,-21.84811782836914,-2.35798716545105,22.61603546142578,0.6737161874771118,2.2615859508514404,-0.0008682189509272575,0,0,0,0.000,0,0
1739402252.7431777,0.5256636502854153,0.09608614832428954,-0.9533493943790787,-2.069099865891044,0.13773972935430603,2.1375954153992853,-1.2753772959128697,-6.58532149395272e-05,0.0006657680088398253,0.0003302552807948497,-0.00022463452162986152,0.001067614102707345,-0.00041518749442233263,-0.0009916846803953501,0.2173345386981964,-21.77273941040039,-2.4095618724823,22.59223175048828,0.6801248788833618,2.2753188610076904,-0.027418512850999832,0,0,0,0.000,0,0
1739402252.7531812,0.5256636545013121,0.09608899067115596,-0.9533484012686932,-2.069102042694196,0.13773976250670172,2.137596844005787,-1.2753758590825217,-9.693086862379226e-05,-0.00023819720248678775,-0.001034541765356601,-0.0003711109290661999,0.00115341105276369,0.0014044014627033153,0.0009249287234131328,0.2173345386981964,-21.82431411743164,-2.4095618724823,22.59223175048828,0.6801248788833618,2.2753188610076904,-0.04023589566349983,0,0,0,0.000,0,0
1739402252.764128,0.5256653670577807,0.09608691512894219,-0.9533481152123221,-2.0691055019505527,0.13774080602856123,2.137594399769437,-1.2753757886499968,0.0009862682406902893,-0.0004526085445354194,0.001768314777930958,-0.0007355026724523454,0.00021518748005207964,-0.0003281304564166231,0.0012528547584696995,0.1935308277606964,-21.79654312133789,-2.4095618724823,22.63983917236328,0.6673074960708618,2.2551772594451904,-0.06678618490695953,0,0,0,0.000,0,0
1739402252.7751193,0.5256622626520066,0.09608975494805656,-0.9533480860059951,-2.0691019151802292,0.13774131789773633,2.1375952517436847,-1.2753794027298098,-5.395149409739185e-05,-0.00016856124877071563,0.0001859687150114569,0.0007264858656861914,0.0018210991125706395,0.0014784170161052084,-0.0015898627796564766,0.2411382496356964,-21.79654312133789,-2.38179087638855,22.59223175048828,0.6938577890396118,2.2615859508514404,-0.04023589566349983,0,0,0,0.000,0,0
1739402252.7851782,0.5256660690341857,0.09609051879768257,-0.9533476980248639,-2.069105276455738,0.13774320702782789,2.137592897658434,-1.2753744708587818,0.0007847697075926246,-0.00015918628231274194,-0.0005879636960220778,-0.0008842464954754139,-0.0007445176545097828,-0.0007421086389212312,0.0009908014225238377,0.1935308277606964,-21.84811782836914,-2.38179087638855,22.63983917236328,0.6737161874771118,2.2679946422576904,-0.05396880581974983,0,0,0,0.000,0,0
1739402252.7952623,0.5256653670340035,0.09609073240404979,-0.9533476869702224,-2.0691016561240763,0.13773977571647983,2.137593640725719,-1.2753777797870063,0.00016591164550497974,0.0004057977738054084,-0.0002653962599458895,0.0006184002236663149,0.0010118087868501117,-0.0012569952319328697,-0.0005822840902534776,0.1935308277606964,-21.84811782836914,-2.38179087638855,22.61603546142578,0.6801248788833618,2.2615859508514404,-0.027418512850999832,0,0,0,0.000,0,0
1739402252.8062146,0.5256619434072851,0.09609086134316655,-0.9533455410519295,-2.069101940678436,0.13774260489190893,2.137596343871618,-1.275377465154573,0.0003773483648905,0.0003732352443685154,0.0003446280411258968,0.000868199659358607,0.0017206714721426139,-0.00017184629767430908,0.0019072056581829885,0.2411382496356964,-21.84811782836914,-2.4095618724823,22.59223175048828,0.6737161874771118,2.2679946422576904,-0.05396880581974983,0,0,0,0.000,0,0
1739402252.8171775,0.525663575028532,0.0960906245809999,-0.9533504028820745,-2.0691037233671246,0.137743738499849,2.137593640631947,-1.2753776060736834,0.0003036219122063264,-0.00013877879090761012,-0.0003203120761175964,-0.0013914853678936314,0.0024092172374752326,-0.000681072114751218,0.0010750650170108355,0.2173345386981964,-21.84811782836914,-2.38179087638855,22.61603546142578,0.6737161874771118,2.2615859508514404,-0.027418512850999832,0,0,0,0.000,0,0
1739402252.8281105,0.5256599352090331,0.09608693619387348,-0.9533505030473911,-2.0691019406901057,0.1377436273459932,2.1375936400471405,-1.2753781616479323,-0.0010440922845658628,-9.398641666499433e-05,-0.0013013416239587923,-0.0005367963985317193,-3.691923935507705e-05,-0.0006842823900194143,0.0012533702768172251,0.2689092457294464,-21.79654312133789,-2.38179087638855,22.59223175048828,0.6737161874771118,2.2615859508514404,-0.020094294100999832,0,0,0,0.000,0,0
1739402252.8381565,0.5256619154895495,0.09608696634633392,-0.953349545028422,-2.06910102233706,0.13774151333390078,2.1375928823870587,-1.2753756561283154,-0.000726423969871028,-0.0004389398604752696,0.00020523774853103575,-0.00035632415428151507,-0.0010990776487611123,-0.00023777156858279978,0.00052917571568465,0.2411382496356964,-21.79654312133789,-2.38179087638855,22.59223175048828,0.6801248788833618,2.2679946422576904,-0.05396880581974983,0,0,0,0.000,0,0
1739402252.8482077,0.5256654565776334,0.09608235447209873,-0.9533484262408425,-2.069100146628737,0.13774210431306722,2.137594011429225,-1.2753738440759828,0.0005278156427719399,-0.001360898295360654,-0.0009068922867590953,0.00018536169925974607,-0.00045355326310454963,0.00045832779180037534,-0.000575631513956152,0.1935308277606964,-21.77273941040039,-2.4095618724823,22.56842803955078,0.6865335702896118,2.2615859508514404,-0.06037749722599983,0,0,0,0.000,0,0
1739402252.8591537,0.5256636833545245,0.09608322974160613,-0.9533505069949941,-2.06910194067842,0.13774368599562534,2.137594397707914,-1.275376303117282,0.0002581365597173194,-0.0015014723290370528,-0.0003802759352063351,-0.00040196545125275923,0.00027456003092915613,2.242717083765388e-05,0.0007991267997381517,0.2173345386981964,-21.74496841430664,-2.38179087638855,22.59223175048828,0.6737161874771118,2.2551772594451904,-0.06678618490695953,0,0,0,0.000,0,0
1739402252.8691766,0.5256657605326542,0.09608317696385273,-0.9533515761535837,-2.0690974029539495,0.13774325144792382,2.137594402285899,-1.2753772962959826,0.001027178829150155,-0.0013924513976526452,-0.0016048249776312062,0.0008972464182963733,0.0009549561197204291,-0.0011135279467486695,-0.0008533140584112448,0.2173345386981964,-21.74496841430664,-2.35798716545105,22.56842803955078,0.6737161874771118,2.2551772594451904,-0.027418512850999832,0,0,0,0.000,0,0
1739402252.879195,0.5256639665416097,0.09608517793506989,-0.9533522547997654,-2.0690991588147614,0.13773820257210195,2.1375936832903344,-1.2753753806211658,0.0005730534137494193,-7.894997576099818e-05,-0.0016822610104010064,0.0008864038053856302,-0.0010598810024407142,-0.0002603216431850744,0.0018629685335241589,0.2173345386981964,-21.77273941040039,-2.3302161693573,22.59223175048828,0.6801248788833618,2.2615859508514404,-0.07411040365695953,0,0,0,0.000,0,0
1739402252.890204,0.5256636535219986,0.09607864303337987,-0.9533484258497905,-2.0690998658417876,0.1377424617463095,2.137593130636334,-1.27538282392308,0.00010232563463561689,-0.0026466419919113026,0.0003559839322502021,-0.0003067079500258973,-0.0010552724999551054,-0.0007634753104641641,-0.0015179139378568038,0.2173345386981964,-21.72116470336914,-2.4095618724823,22.59223175048828,0.6801248788833618,2.2753188610076904,-0.0072769103571772575,0,0,0,0.000,0,0
1739402252.901109,0.5256629392456408,0.0960896250741048,-0.9533497268884785,-2.0690998743840407,0.13774123827078252,2.1375936965238536,-1.2753751729208673,-0.0001775352461649377,0.0010235183928811618,3.166456776211937e-05,-0.00020742448474021381,-1.3368249676809919e-05,0.0005631698086333342,0.001078722843432392,0.2173345386981964,-21.82431411743164,-2.38179087638855,22.59223175048828,0.6938577890396118,2.2615859508514404,-0.05396880581974983,0,0,0,0.000,0,0
1739402252.9111533,0.5256653670100019,0.09608758600650491,-0.953348427239483,-2.06910527631591,0.1377413574493568,2.1375936446267767,-1.2753795875966876,0.0008262614756293753,0.00030203603183990327,-4.4794961673790803e-05,-0.0011738930035986265,-0.00044889691276211806,0.0005021953401698001,-0.0005561256561523684,0.1935308277606964,-21.79654312133789,-2.4095618724823,22.63983917236328,0.6938577890396118,2.2615859508514404,-0.020094294100999832,0,0,0,0.000,0,0
1739402252.9212122,0.5256636545013834,0.09608887561118605,-0.9533504287204179,-2.0691018613223715,0.13774449584129755,2.137593763671663,-1.275375529532087,-0.0006329745919688008,-0.0013173341570926823,-0.0009088078298860615,0.0008828251300465376,0.001395701010377082,0.0010162939487368065,0.0021078535779269327,0.2173345386981964,-21.82431411743164,-2.38179087638855,22.59223175048828,0.6673074960708618,2.2615859508514404,-0.05396880581974983,0,0,0,0.000,0,0
1739402252.932159,0.5256636554643607,0.09609066030458943,-0.9533484272513685,-2.069103724310588,0.13774385567955075,2.1375939955179306,-1.2753764048122047,0.0008733658176390712,0.0007028021366946983,-0.0010769364328102945,-0.0002099128471268722,0.0012821337324189796,0.0003755704804623509,0.0008881314408123264,0.2173345386981964,-21.84811782836914,-2.4095618724823,22.61603546142578,0.6737161874771118,2.2679946422576904,-0.020094294100999832,0,0,0,0.000,0,0
1739402252.943199,0.5256670795428477,0.0960890446594182,-0.9533463173700046,-2.0690991886404286,0.13774222313214105,2.1375920165484477,-1.2753835895957242,0.0014397491215900405,-0.001585438731141373,0.0006485198089685891,0.001117601462499139,0.0005733955309972919,-0.0018545090365469975,-0.0014834511387162225,0.1697271168231964,-21.79654312133789,-2.4095618724823,22.56842803955078,0.6865335702896118,2.2753188610076904,-0.013685601763427258,0,0,0,0.000,0,0
1739402252.9532197,0.5256599175488462,0.09608912361640161,-0.9533474132021429,-2.069101940673689,0.13774128438252153,2.1375963445499386,-1.2753763279465153,-0.0010165243226876507,0.00023221198868530937,0.0016810203057942479,0.0007906472470302566,0.0012932445475229658,-2.4014181172333298e-05,0.002122096748297845,0.2689092457294464,-21.79654312133789,-2.4095618724823,22.59223175048828,0.6673074960708618,2.2679946422576904,-0.04756011441349983,0,0,0,0.000,0,0
1739402252.9641466,0.5256643565114948,0.09609131413517515,-0.9533484008633808,-2.0691019320818578,0.13774174943675704,2.1375962248453932,-1.2753781205120858,0.0013113388788411307,0.0011635700673902835,-0.00044490805359387244,0.0005525928318256903,0.00018232272367077912,0.000498087801286519,0.0011285104782589722,0.2173345386981964,-21.84811782836914,-2.38179087638855,22.59223175048828,0.6865335702896118,2.2679946422576904,-0.06037749722599983,0,0,0,0.000,0,0
1739402252.9751887,0.5256636805136522,0.09608793988578498,-0.9533505070068822,-2.069105506043998,0.13774140135493027,2.1375993447767274,-1.2753796333206389,0.0017016075481591565,-0.00023678247918287111,0.0005056921500665435,-0.0011864944597751855,-0.0015039943910523281,0.0026435639449772664,-0.00034461822902038755,0.2173345386981964,-21.79654312133789,-2.38179087638855,22.63983917236328,0.6801248788833618,2.2551772594451904,-0.04756011441349983,0,0,0,0.000,0,0
1739402252.9861884,0.5256619419807013,0.09608723241411729,-0.9533484272526949,-2.069100192026162,0.13774373866579182,2.1375947526764816,-1.2753780532397667,-0.0004491816105546044,0.0003032189296531488,7.059902103919699e-05,0.00040474092455630863,0.00019006210376707174,-0.0005560887272615346,0.0018526585244285421,0.2411382496356964,-21.79654312133789,-2.4095618724823,22.56842803955078,0.6737161874771118,2.2615859508514404,-0.04756011441349983,0,0,0,0.000,0,0
1739402252.9971836,0.5256619419806524,0.09609062425668252,-0.953348427252695,-2.0691001466755865,0.1377468907943822,2.1375921401205553,-1.2753784090620204,-0.0007572202818640985,-0.00036139261824439674,0.00019775526263732295,0.0003634805562533033,0.0019470325356790448,-0.0014414925573228024,0.0007502355794493493,0.2411382496356964,-21.84811782836914,-2.4095618724823,22.56842803955078,0.6801248788833618,2.2753188610076904,-0.05396880581974983,0,0,0,0.000,0,0
1739402253.007216,0.5256619419806524,0.09608320333171544,-0.9533438365346332,-2.069101710786716,0.13774648699565573,2.137594440952429,-1.2753851574453003,0.00024379949491181108,-0.0007057577995984584,0.0017162095409805872,4.188191668295121e-06,0.0010702789072454817,-0.0009727951787573175,-0.0015163536849331749,0.2411382496356964,-21.74496841430664,-2.4333655834198,22.59223175048828,0.6865335702896118,2.2551772594451904,-0.0008682189509272575,0,0,0,0.000,0,0
1739402253.0181723,0.5256619420876498,0.09608528409086489,-0.953348427129846,-2.069100128722751,0.13774386301680208,2.1375970333604304,-1.2753782112640129,1.9996864172614445e-05,-0.00032984261577767354,0.0011551134547474074,0.00024122148011826322,0.0010923048929698392,0.0008645627172830474,0.00039232297169680496,0.2411382496356964,-21.77273941040039,-2.4095618724823,22.56842803955078,0.6737161874771118,2.2615859508514404,-0.04756011441349983,0,0,0,0.000,0,0
1739402253.0291793,0.5256619331503353,0.09608320333218291,-0.9533530082700201,-2.069100158012921,0.13774421061300518,2.1375980906029626,-1.275378409224418,0.00013370626188055406,-0.0009300915361930414,-0.001062981473119368,9.645941290879507e-05,0.0014512171916562502,0.0007539508148207323,0.002340772599299866,0.2411382496356964,-21.74496841430664,-2.35798716545105,22.56842803955078,0.6737161874771118,2.2615859508514404,-0.05396880581974983,0,0,0,0.000,0,0
1739402253.0401425,0.5256636427275768,0.09608867485240018,-0.9533507584461971,-2.0691019308221144,0.1377434943962122,2.1375921950835974,-1.2753773597998679,-0.00016829635263482863,0.0021432600505284518,-0.0006465423351943711,-0.00012057128685243782,0.001646217501860791,-0.00017094837641376092,-0.0005894586972313505,0.2173345386981964,-21.82431411743164,-2.38179087638855,22.59223175048828,0.6801248788833618,2.2753188610076904,-0.06678618490695953,0,0,0,0.000,0,0
1739402253.0511103,0.5256619419805859,0.09608691393630805,-0.9533463181917377,-2.0691011753958453,0.1377419103628115,2.1375936949923444,-1.2753836426176104,-0.0003670040483979163,0.00015858258630357635,0.0004483175877496626,-0.00010459298741861269,6.045021296632101e-05,0.0007996683272229145,-0.0009449976786898846,0.2411382496356964,-21.79654312133789,-2.4095618724823,22.59223175048828,0.6801248788833618,2.2615859508514404,-0.013685601763427258,0,0,0,0.000,0,0
1739402253.0611627,0.5256657602051168,0.09608762408198564,-0.9533505072329411,-2.0691000805258977,0.1377437342627279,2.137594422351797,-1.2753777126215031,0.00022931736235296682,-0.00029940172504552777,-0.00021661312532492141,0.0005326108777403123,0.0014471786072794478,0.0017717475161155257,0.0009473683114395112,0.2173345386981964,-21.79654312133789,-2.38179087638855,22.56842803955078,0.6737161874771118,2.2679946422576904,-0.06037749722599983,0,0,0,0.000,0,0
1739402253.0712104,0.5256598772461694,0.0960906281642443,-0.9533481670083515,-2.069102258319202,0.1377433101318356,2.1375951281452807,-1.2753746372626409,-0.0007559336100548937,0.0012283528846673522,0.000359989191353502,-0.00032770324993887444,-0.00016792563356436786,0.0012002537243094337,0.0023168274560400157,0.2411382496356964,-21.84811782836914,-2.38179087638855,22.56842803955078,0.6673074960708618,2.2615859508514404,-0.05396880581974983,0,0,0,0.000,0,0
1739402253.0821793,0.5256636804537694,0.09608906939213951,-0.9533453854924618,-2.0691009682498587,0.1377418674340772,2.137592923603608,-1.275382765688544,0.00021555652728098514,-0.0005639773486758274,0.0008626916686716946,0.00011515818849149636,-0.001279742244844831,0.0004136177922410293,-0.0015964582961668936,0.2173345386981964,-21.82431411743164,-2.4095618724823,22.61603546142578,0.6865335702896118,2.2679946422576904,-0.020094294100999832,0,0,0,0.000,0,0
1739402253.0932186,0.5256636506839419,0.09608786972302304,-0.9533463208480838,-2.069102804963533,0.13774222334659836,2.1375970328516765,-1.2753796319741197,-0.0007728532056793934,0.0008077537385011965,0.00041322256535984405,-0.0007747384751660618,0.0006641988788626652,0.0001689815349750892,6.52870884891891e-05,0.2173345386981964,-21.79654312133789,-2.4095618724823,22.61603546142578,0.6865335702896118,2.2615859508514404,-0.04756011441349983,0,0,0,0.000,0,0
1739402253.1041884,0.5256653670220933,0.09608520124179419,-0.953345942446527,-2.0691054974307113,0.1377429809545142,2.137592886984894,-1.2753741467027568,0.0010668875670638144,-0.0012693862425933958,0.0005012175469120415,-0.0009821699666550064,0.0003759676005734728,-0.0017670779646929784,0.0008259472154761864,0.1935308277606964,-21.77273941040039,-2.4333655834198,22.63983917236328,0.6801248788833618,2.2679946422576904,-0.06678618490695953,0,0,0,0.000,0,0
1739402253.1161706,0.5256654710593007,0.09609062472400698,-0.9533484185462723,-2.0691036184934255,0.1377422218859723,2.1375953681425366,-1.2753746278840923,0.0007397157048710087,0.001482868354827052,2.7855348389213552e-05,-0.0007384206891058412,0.0006476095564832567,-0.0001885477333445832,0.0012257574774425684,0.1935308277606964,-21.84811782836914,-2.4095618724823,22.61603546142578,0.6865335702896118,2.2753188610076904,-0.05396880581974983,0,0,0,0.000,0,0
1739402253.1271095,0.5256636545015794,0.09608551782225004,-0.9533543575851375,-2.0691019405849294,0.13774437785541005,2.1375937821622064,-1.2753738431909665,0.0008956424955404628,-0.001586753172692102,-0.0008640136608630307,-0.0003065335230967686,-0.00046802672247978094,0.00016287341759159922,0.0026637058900864756,0.2173345386981964,-21.77273941040039,-2.3302161693573,22.59223175048828,0.6673074960708618,2.2615859508514404,-0.06037749722599983,0,0,0,0.000,0,0
1739402253.1371703,0.525667079542846,0.09608521296992405,-0.9533485083081074,-2.0691034937788615,0.13774185037469272,2.137597458020285,-1.2753763617750915,0.0007676540594517905,-0.00019159614829702515,-0.00045272779229218384,0.00016525676161834336,-0.0007627150761480857,0.001639147520900811,0.0022337675653724028,0.1697271168231964,-21.77273941040039,-2.4095618724823,22.61603546142578,0.6865335702896118,2.2679946422576904,-0.07411040365695953,0,0,0,0.000,0,0
1739402253.147202,0.5256599440397994,0.09609080626034124,-0.9533476125782389,-2.0690998743840887,0.13774029117155845,2.1375982713633648,-1.2753811690285506,-0.0007866116615148626,0.0012707230112154726,0.002068573705835953,-0.00014474887242245296,-0.0014824362181418203,0.0019959556075052906,-5.88282412025869e-05,0.2689092457294464,-21.82431411743164,-2.4095618724823,22.59223175048828,0.6938577890396118,2.2615859508514404,-0.0072769103571772575,0,0,0,0.000,0,0
1739402253.1582093,0.5256619420163182,0.09608690990247705,-0.9533483229286496,-2.069101623044144,0.13774131790405383,2.1375930060390638,-1.2753835967424922,0.00023638862760147735,-0.00030488371589593204,0.000792800678540358,0.000655073482363872,-0.0005715409466401318,-0.0018180143452961796,-0.0020708317398496203,0.2411382496356964,-21.79654312133789,-2.4095618724823,22.61603546142578,0.6938577890396118,2.2679946422576904,0.012864691205322742,0,0,0,0.000,0,0
1739402253.1691725,0.5256636808227566,0.09608691368472219,-0.9533495325080213,-2.0690960118933095,0.1377422226978778,2.1375977449507904,-1.2753779646942476,0.0008610636181933791,0.00046360449679878804,0.0009524523570130558,0.0017725913263187038,0.0007210436086257656,0.0006093595923649592,-0.0006893853731427239,0.2173345386981964,-21.79654312133789,-2.38179087638855,22.54065704345703,0.6865335702896118,2.2679946422576904,-0.03382720425724983,0,0,0,0.000,0,0
1739402253.1792095,0.5256657605323142,0.09608693999177575,-0.9533484272115279,-2.069101251808678,0.13774025169936058,2.137597019312424,-1.2753746372509724,0.0009498960759746392,0.0007728710190263863,0.0012821753451898177,-3.158389493967151e-05,-0.0016061513012156762,-0.0003345653944069965,0.002049272055701098,0.2173345386981964,-21.79654312133789,-2.4095618724823,22.59223175048828,0.6938577890396118,2.2615859508514404,-0.05396880581974983,0,0,0,0.000,0,0
1739402253.190133,0.5256656006013586,0.09608507697827211,-0.9533484258617279,-2.0691055056203402,0.13774008640019259,2.1375939950826974,-1.2753794484386314,0.00062318487936357,-0.00030804484713573644,0.000522217100602552,-0.0027411788329793196,-0.002069322961588816,0.0012817107548546377,-0.00039486918883178815,0.1935308277606964,-21.77273941040039,-2.4095618724823,22.63983917236328,0.7002664804458618,2.2679946422576904,-0.04023589566349983,0,0,0,0.000,0,0
1739402253.200136,0.5256670795468016,0.09608448932609537,-0.9533484272526714,-2.0691000559738515,0.1377396242528156,2.1375931428647554,-1.275382726502602,0.0013221462060913768,-0.000759996755306924,4.3044943815720405e-05,0.0011618038496954588,-0.0011015080132090592,-0.0007000796994273144,-0.0008636779066457216,0.1697271168231964,-21.77273941040039,-2.4095618724823,22.56842803955078,0.6801248788833618,2.2753188610076904,-0.020094294100999832,0,0,0,0.000,0,0
1739402253.2101867,0.5256639576756263,0.09608690496769239,-0.9533484542342213,-2.0691055032045362,0.1377421817367435,2.1375947664604484,-1.275374943600234,0.0002797272544857757,0.0009948591223722884,6.172086766167154e-05,-0.0016173159700888767,0.0013426125198286627,0.0004468474447521622,0.0007146206107476732,0.2173345386981964,-21.79654312133789,-2.4095618724823,22.63983917236328,0.6865335702896118,2.2615859508514404,-0.06037749722599983,0,0,0,0.000,0,0
1739402253.2211764,0.5256629392462168,0.09608533452252715,-0.9533502354830765,-2.069100158013081,0.13774297954597264,2.137594759000311,-1.275386782942675,0.00036012690930398595,-0.0004592769847698771,-0.00031002368485935226,0.0005399667380440348,-0.00014095555239869727,-0.0003503125773996337,-0.004213141567819287,0.2173345386981964,-21.74496841430664,-2.38179087638855,22.56842803955078,0.6801248788833618,2.2615859508514404,0.012864691205322742,0,0,0,0.000,0,0
1739402253.2321305,0.525663654497346,0.09608692564167069,-0.9533501949294598,-2.0691019406901057,0.13774135745136687,2.1375974749822806,-1.275380908187438,2.9501686820592574e-05,0.0013350944980107192,0.0005495868686651823,0.00038430292656580563,-0.00027058154044935453,0.0022590978554363366,-0.0023472882869854505,0.2173345386981964,-21.79654312133789,-2.38179087638855,22.59223175048828,0.6938577890396118,2.2679946422576904,-0.03382720425724983,0,0,0,0.000,0,0
1739402253.242157,0.5256636545013835,0.09609062425508455,-0.9533456192063665,-2.0691037120294324,0.13774373866876422,2.1375920582844943,-1.2753780047791208,0.0001306529040343807,0.0001573375968436006,0.0003544012363470752,-0.00041288351615136217,0.001991571635570246,-0.00047492189282094955,0.0016391973709838248,0.2173345386981964,-21.84811782836914,-2.4095618724823,22.61603546142578,0.6737161874771118,2.2753188610076904,-0.06037749722599983,0,0,0,0.000,0,0
1739402253.252268,0.5256596791302671,0.09608320333171541,-0.9533522103869057,-2.0691019283024352,0.13774135745137514,2.137593294469261,-1.275377662768137,-0.0016593879719165895,-0.002303269328551162,-0.0008861456530821963,-0.0006337061221741707,0.00030233574644509224,0.00119822232313856,-0.0003487898834447798,0.2689092457294464,-21.74496841430664,-2.35798716545105,22.59223175048828,0.6938577890396118,2.2679946422576904,-0.027418512850999832,0,0,0,0.000,0,0
1739402253.2631447,0.5256609797955152,0.09609115194175423,-0.9533474045706328,-2.0691054972258685,0.13774373801870424,2.137592923767115,-1.275382701181356,-0.0009921416054482289,0.0015028974089659522,0.000709571530618968,-0.0007770299813925035,0.0013259506079628548,-0.0006300679831206952,-0.0011629056610266862,0.2411382496356964,-21.82431411743164,-2.4095618724823,22.63983917236328,0.6737161874771118,2.2679946422576904,-0.06037749722599983,0,0,0,0.000,0,0
