IITGN-Robotics/Franka_IITGN_ROBOTICS/franka_ros/franka_iitgn/data/b_43.csv
time,fr3_joint1_pos,fr3_joint2_pos,fr3_joint3_pos,fr3_joint4_pos,fr3_joint5_pos,fr3_joint6_pos,fr3_joint7_pos,fr3_joint1_vel,fr3_joint2_vel,fr3_joint3_vel,fr3_joint4_vel,fr3_joint5_vel,fr3_joint6_vel,fr3_joint7_vel,fr3_joint1_eff,fr3_joint2_eff,fr3_joint3_eff,fr3_joint4_eff,fr3_joint5_eff,fr3_joint6_eff,fr3_joint7_eff,flexpin1,flexpin2,flexpin3,Force,ContactMic,ContactMic_gt
1739402278.0888603,0.5256829454978609,0.09604747031716589,-0.9533428630922226,-2.069105506045007,0.13773192524421368,2.1375864904342388,-1.2753741641410785,0.0005070365319944109,-0.00015920250806490948,0.0007368323298207089,0.00022923171234416986,0.0007242191532578604,7.323278152122234e-05,0.0010521722490689834,0.1419561207294464,-21.87192153930664,-2.48494029045105,22.63983917236328,0.6938577890396118,2.2817275524139404,-0.05396880581974983,,,,,,,,,
1739402278.099831,0.5256796373725383,0.09605799992985214,-0.9533484276969877,-2.069108593722233,0.13773705445122758,2.137590427014687,-1.275378474859185,6.354367028942487e-05,0.0006485110118391791,-0.0018936126252085224,-0.0007079329552324149,0.002274768315405114,0.00041735370915671607,-0.0015924412934300817,0.2173345386981964,-21.89969253540039,-2.4095618724823,22.63983917236328,0.6865335702896118,2.2753188610076904,-0.020094294100999832,,,,,,,,,
1739402278.1107562,0.5256778120240816,0.09606015015554677,-0.9533466445756835,-2.0691083218681396,0.13773338473585628,2.137587601384789,-1.275377766705041,-0.0004828712952350331,0.0001092870817000782,0.0007911752082926705,3.9880302466203536e-05,-0.000887469679037567,0.00032419767398839393,-0.0015983152339994265,0.2411382496356964,-21.87192153930664,-2.4333655834198,22.66364288330078,0.6801248788833618,2.2753188610076904,-0.027418512850999832,,,,,,,,,
1739402278.1217833,0.5256813412116825,0.09605623845344595,-0.953348427252695,-2.06910682313615,0.13773445092174508,2.1375912934163757,-1.2753744159455405,0.0012392000493133709,-0.00018863869256282217,-0.0004666409762811547,1.984878882126117e-05,-0.0006753164180796784,0.0006969421966968862,0.0011661157003309461,0.1935308277606964,-21.82431411743164,-2.4095618724823,22.61603546142578,0.6801248788833618,2.2679946422576904,-0.06037749722599983,,,,,,,,,
1739402278.1328156,0.5256811070634952,0.0960569487393823,-0.953348427252695,-2.0691068228086547,0.13773176127210035,2.1375889109931947,-1.2753752653274246,0.00024047667780008157,3.535460782396209e-05,-0.00017648198965932493,0.0006036430297699507,6.032925623682833e-05,0.0002712907033134582,0.0012010942124193716,0.1935308277606964,-21.82431411743164,-2.4095618724823,22.61603546142578,0.6938577890396118,2.2615859508514404,-0.04756011441349983,,,,,,,,,
1739402278.143746,0.5256779199487168,0.09605689606809367,-0.953348427252695,-2.0691086879019704,0.13773489998103466,2.1375902845266164,-1.275371854202061,-0.00016483810964485835,0.0008592726406389126,0.0005941823112285624,-0.00045854634691309336,0.0005498838185712768,0.0006369901969382153,0.0011102271840815912,0.2411382496356964,-21.82431411743164,-2.4095618724823,22.63983917236328,0.6673074960708618,2.2615859508514404,-0.07411040365695953,,,,,,,,,
1739402278.1537821,0.5256789265359448,0.09605355322950986,-0.9533526956551748,-2.069105049289466,0.13773418181209862,2.137588115961519,-1.275374902398141,0.000560441418625811,0.0012313008062261232,9.45742690188655e-05,7.782712504841863e-05,-0.0013036251912992359,0.00028361090543938016,-0.0009855159824910605,0.2173345386981964,-21.77273941040039,-2.38179087638855,22.59223175048828,0.6737161874771118,2.2679946422576904,-0.06037749722599983,,,,,,,,,
1739402278.1647887,0.5256776040090033,0.09604539901865329,-0.9533526135349513,-2.0691032574547696,0.13773595750764162,2.1375903897248754,-1.2753717349810907,0.0003533101334464442,-7.458847924259114e-05,0.0006324310607146598,0.0010559098022255241,-0.0002532157673567494,-0.00023768777787785196,0.0016200992316646335,0.2411382496356964,-21.69339370727539,-2.35798716545105,22.56842803955078,0.6673074960708618,2.2753188610076904,-0.07411040365695953,,,,,,,,,
1739402278.1747973,0.5256757984371843,0.09604739650910707,-0.9533526955459676,-2.069105040131634,0.13773406331427465,2.13758962999939,-1.2753792318194421,0.0007059507375331471,0.00041545905645536547,0.0007672091056759186,-0.001416594508642567,0.0007187211584643991,-4.5494249723884565e-06,-1.7345250355252145e-05,0.2411382496356964,-21.72116470336914,-2.38179087638855,22.59223175048828,0.6865335702896118,2.2551772594451904,-0.013685601763427258,,,,,,,,,
1739402278.1848266,0.5256792862254835,0.09605088662201822,-0.9533537021509227,-2.069100948076498,0.13773391123377773,2.1375900882971224,-1.2753793996297735,-0.0002721681216854982,-0.0003948039282092338,0.0003936655852473266,0.0005711189185369333,0.00041370483100438936,-0.00031035571501903156,-0.0016879831019667737,0.2173345386981964,-21.74496841430664,-2.4095618724823,22.54065704345703,0.6801248788833618,2.2615859508514404,-0.013685601763427258,,,,,,,,,
1739402278.1948557,0.5256757980051586,0.09605123936063144,-0.9533515908343425,-2.069103257450726,0.1377343046823507,2.137590455258399,-1.275378121601439,-0.0008832233700649488,0.000876674390171863,1.532017892610036e-05,0.0004921642931445119,6.42103443278247e-07,0.0004080881423480653,-0.0005636452759649969,0.2411382496356964,-21.74496841430664,-2.38179087638855,22.56842803955078,0.6737161874771118,2.2615859508514404,-0.020094294100999832,,,,,,,,,
1739402278.2057955,0.5256757753155404,0.09605424051384974,-0.953346684036262,-2.0691032546201913,0.1377320694892584,2.137592358606475,-1.275380783300279,0.0014636842037521044,0.0015381224382213683,0.0008289835253547631,-0.00016980450497538861,-0.0006285048018837627,0.0006717890300947851,-0.00029106728777408353,0.2411382496356964,-21.79654312133789,-2.4333655834198,22.56842803955078,0.7002664804458618,2.2679946422576904,-0.027418512850999832,,,,,,,,,
1739402278.2158546,0.5256765516912965,0.09605765314225288,-0.9533485111958899,-2.069105040131586,0.13773369474235483,2.1375913454910616,-1.275382767198953,0.0001335809611121398,0.0009164659151475525,0.0001121051852739854,0.0002168593390516416,-0.0007169468007592458,-0.0007584024839794848,-0.0007188623718919463,0.2173345386981964,-21.82431411743164,-2.4095618724823,22.59223175048828,0.6865335702896118,2.2679946422576904,-0.020094294100999832,,,,,,,,,
1739402278.2268488,0.5256782989694169,0.09605978295458663,-0.9533455415440912,-2.069106822493717,0.13773177866121294,2.137590039954902,-1.2753782534611853,0.001021878171639365,0.0009768674812962418,0.0010813837110719632,0.00012400177327254874,-0.0006378808881154175,-0.0006678308508399832,0.0011681772520015523,0.1935308277606964,-21.82431411743164,-2.4095618724823,22.61603546142578,0.6938577890396118,2.2551772594451904,-0.020094294100999832,,,,,,,,,
1739402278.237749,0.5256813145870266,0.09605866152788207,-0.9533466448599115,-2.0691068228086476,0.13773461621497166,2.137587002276312,-1.2753796514506288,0.001163967225307441,0.0009387054211436802,-0.00014425806894301796,0.0010125530735900677,-0.00043603624189719054,-0.00013158016988146768,0.0007467426416367192,0.1935308277606964,-21.84811782836914,-2.4333655834198,22.61603546142578,0.6737161874771118,2.2817275524139404,-0.0072769103571772575,,,,,,,,,
1739402278.2488213,0.5256820356137697,0.0960613226251082,-0.9533476159106294,-2.069106905262636,0.13773426079706025,2.1375918850002535,-1.2753821372137575,0.002221511233366106,0.0013629777866229237,-6.350537634683271e-05,0.00036533424739165033,-0.0019391121985574285,0.0014665339722114475,-0.0005473548868832323,0.1697271168231964,-21.87192153930664,-2.4333655834198,22.61603546142578,0.6737161874771118,2.2753188610076904,0.012864691205322742,,,,,,,,,
1739402278.2608216,0.5256757026624249,0.09606107798291771,-0.9533484272545226,-2.0691090511138963,0.13773584398530375,2.1375907340440263,-1.2753815074017925,1.737493205573507e-05,-0.0003106581461204122,0.0005658398784846811,0.00012502895949709897,-0.00033941668658229876,0.00012912735342032622,0.0003760850826075434,0.2411382496356964,-21.87192153930664,-2.4095618724823,22.61603546142578,0.6865335702896118,2.2817275524139404,-0.027418512850999832,,,,,,,,,
1739402278.2708297,0.5256776786569507,0.09606102741035102,-0.953352458542772,-2.0691071109202737,0.13773711049776155,2.1375921734119765,-1.2753815676657996,0.0003324326538460549,-8.066060607568117e-05,-0.0012471135607225424,0.001982128281825197,-1.929146100358385e-05,0.00016054089719633012,-0.0022216939441458395,0.2411382496356964,-21.84811782836914,-2.38179087638855,22.61603546142578,0.6801248788833618,2.2615859508514404,-0.0008682189509272575,,,,,,,,,
1739402278.2808714,0.5256772092228518,0.09606102741044441,-0.9533505081859502,-2.0691092956416623,0.13773495481168363,2.1375917030484546,-1.2753790325249055,0.0007753693039487179,0.00024618676837314036,-5.9336346454598214e-05,0.0006566071223255817,-0.00010278850981270456,-0.000911197445243571,-0.00011447742914521723,0.2173345386981964,-21.84811782836914,-2.38179087638855,22.61603546142578,0.6673074960708618,2.2679946422576904,-0.04023589566349983,,,,,,,,,
1739402278.2918196,0.5256747574114445,0.0960570667362407,-0.9533534223798337,-2.0691098723764116,0.1377365019912453,2.137592527714141,-1.275376263241172,-0.0020908127281775786,-2.2609833705858025e-05,-0.00031696554307459555,-0.001051961964913447,0.0005409613475637197,0.0005527408360589974,0.000833979703729692,0.2411382496356964,-21.82431411743164,-2.38179087638855,22.61603546142578,0.6938577890396118,2.2679946422576904,-0.04023589566349983,,,,,,,,,
1739402278.3027961,0.5256765603765124,0.09605442042355947,-0.9533565554736644,-2.0691100648727883,0.13773595766399488,2.137589585733098,-1.2753818024738677,-0.00020914231307771016,0.00027439384785422503,1.4429327390032124e-06,-0.0007057923387953291,-0.0012513131835691412,-0.0002657224014114216,-0.0021229893818475037,0.2173345386981964,-21.74496841430664,-2.3302161693573,22.61603546142578,0.6865335702896118,2.2679946422576904,-0.0008682189509272575,,,,,,,,,
1739402278.3138537,0.5256789101388927,0.09605239001992684,-0.9533505101638728,-2.069103257510601,0.13773635885137964,2.1375936400285274,-1.2753762507247468,3.3261824549330864e-05,-0.0015024151234172875,0.0009785171664991978,0.0010926686789288556,0.0005413432319242582,0.002024255698161136,0.0018827040384003886,0.1935308277606964,-21.72116470336914,-2.38179087638855,22.56842803955078,0.6865335702896118,2.2615859508514404,-0.06678618490695953,,,,,,,,,
1739402278.3239067,0.5256765054634838,0.09605530500549966,-0.9533506128674246,-2.0691093882279343,0.13773588500205822,2.1375928256985985,-1.2753770061772156,0.0008391009189334644,0.0006851796160325667,0.0012051296007041044,-0.0016592286391620375,0.00033285963408006663,-6.327083702447215e-05,0.002014129203385636,0.2173345386981964,-21.79654312133789,-2.4095618724823,22.61603546142578,0.6865335702896118,2.2679946422576904,-0.06037749722599983,,,,,,,,,
1739402278.3347912,0.5256771719384637,0.09604954049502762,-0.9533526930026704,-2.0691034059717683,0.1377385668100254,2.1375928823867385,-1.2753781346951096,0.0006099735518027894,-0.0009177758374792398,0.00033102811092964777,-5.082635691487484e-05,0.0009183351528756055,0.0003504786388753473,0.00047331314031489474,0.2173345386981964,-21.72116470336914,-2.38179087638855,22.54065704345703,0.6737161874771118,2.2679946422576904,-0.020094294100999832,,,,,,,,,
1739402278.3448668,0.525675870289399,0.09605195901923538,-0.9533533421101591,-2.069103599442842,0.13773417371825733,2.1375928431412015,-1.2753725675379957,-0.00039857377223276617,-0.0009482449851322635,-0.0021161243814562998,0.0003381211352538598,-0.0002495811303335723,-0.0008805978723891615,0.002769167721888519,0.2689092457294464,-21.74496841430664,-2.35798716545105,22.56842803955078,0.6865335702896118,2.2679946422576904,-0.09425200521945953,,,,,,,,,
1739402278.3558662,0.5256765864897418,0.09605300152026545,-0.9533513146007087,-2.069103221425984,0.13773742614367487,2.1375925277207246,-1.2753827652788967,0.0007162824453753015,2.8512053984357743e-05,-0.00011884968440255327,0.0005474275813832195,-0.00021078807155361842,-0.0010774632190721967,-0.0015962323726846804,0.2173345386981964,-21.77273941040039,-2.38179087638855,22.59223175048828,0.6865335702896118,2.2679946422576904,-0.020094294100999832,,,,,,,,,
1739402278.3667595,0.525678286985899,0.09605124044762493,-0.9533499214477587,-2.069103505788791,0.13773770845352298,2.1375928819005394,-1.2753784875620031,0.0007214709298015493,-0.0006471314976003182,-0.0006747908107655269,0.0006435935905710754,0.00023657502292390647,0.0004209265240677083,0.0011936545770647694,0.1935308277606964,-21.74496841430664,-2.4333655834198,22.56842803955078,0.6801248788833618,2.2679946422576904,-0.05396880581974983,,,,,,,,,
1739402278.3779428,0.5256784420263193,0.09605721249614231,-0.9533502730946244,-2.0691064718075327,0.13773740615241525,2.137597293621337,-1.275378821872586,-0.0002836376995863023,0.0008026153342762967,-6.828805988871509e-05,-0.0008308290352471965,8.724126845203067e-05,0.001394028105059409,-0.00046546770124690354,0.1935308277606964,-21.82431411743164,-2.38179087638855,22.56842803955078,0.6865335702896118,2.2679946422576904,-0.05396880581974983,,,,,,,,,
1739402278.3888197,0.5256771716296463,0.09605710295969953,-0.9533480461313802,-2.0691035871761048,0.13773473535648892,2.137592878034708,-1.2753717851022446,0.00010151468996776926,-0.0011432731249824283,-0.0003302290487383017,0.001111112223206329,-0.00025506226517641665,0.000418137119896258,0.0009634561674876329,0.2173345386981964,-21.79654312133789,-2.4095618724823,22.56842803955078,0.7002664804458618,2.2679946422576904,-0.07411040365695953,,,,,,,,,
1739402278.3988647,0.525674765657963,0.09606152629050016,-0.9533505431224998,-2.069112616460802,0.13773897996794582,2.1375901991915445,-1.27537460036648,-0.0006187818349203525,0.000838223309934362,-0.0004031517226957018,-0.000531050950569639,0.0011700546952348916,-0.00238668878708494,0.0019370350490464706,0.2411382496356964,-21.84811782836914,-2.38179087638855,22.66364288330078,0.6737161874771118,2.2817275524139404,-0.05396880581974983,,,,,,,,,
1739402278.4098244,0.5256768630101102,0.09605942600487295,-0.9533488300795213,-2.0691103881752695,0.1377342219502465,2.1375888375694565,-1.275383126583142,-0.0007559805991203345,-0.0005289273948416841,0.0012055722654583509,8.564106135830897e-05,0.0002179240707144333,-0.0005223860004198364,-0.0017899329812509535,0.2411382496356964,-21.82431411743164,-2.4333655834198,22.66364288330078,0.6865335702896118,2.2753188610076904,-0.013685601763427258,,,,,,,,,
1739402278.4207811,0.5256748349923077,0.09606398496964437,-0.9533477615632453,-2.069107815874181,0.1377364993542529,2.137592882369113,-1.2753752252546617,5.540571527190043e-05,0.0010352180899554449,0.00045123457351544386,0.0008334857527056855,-0.00028535947390809766,0.00022064026567664353,4.878847404149092e-05,0.2411382496356964,-21.84811782836914,-2.4095618724823,22.61603546142578,0.6673074960708618,2.2679946422576904,-0.05396880581974983,,,,,,,,,
1739402278.4307873,0.5256747569806002,0.09606184734109896,-0.9533484272414214,-2.069107388504229,0.13773742495801614,2.137591258829747,-1.2753745217311943,-0.0005249587484563846,0.0006251965617321868,0.0010062638259190169,0.0007366912941656271,-0.0008347400086624701,8.848079071891747e-05,0.0005947724354490851,0.2411382496356964,-21.84811782836914,-2.4095618724823,22.59223175048828,0.6865335702896118,2.2817275524139404,-0.05396880581974983,,,,,,,,,
1739402278.4417868,0.5256764695000103,0.09605935368866932,-0.9533508308208677,-2.06911190331911,0.137737827414491,2.137590501169669,-1.2753788387588827,0.0004396980701576125,-0.000178134926389925,-0.000428689363086827,0.0008018033057220271,-0.0003840212260772997,-0.0004862695648326896,0.00014543800161769446,0.2173345386981964,-21.77273941040039,-2.38179087638855,22.63983917236328,0.6801248788833618,2.2881362438201904,-0.05396880581974983,,,,,,,,,
1739402278.451851,0.5256764695000103,0.0960581397997189,-0.9533515593385313,-2.0691081307408106,0.13773818281672423,2.1375943933465646,-1.275377910964718,-0.0005001531696319289,-0.00050186643157742,-0.0007353040660149117,0.00023677744119452023,0.0006381684593793182,0.0005815142236931842,0.0006005011389521379,0.2173345386981964,-21.79654312133789,-2.38179087638855,22.59223175048828,0.6801248788833618,2.2551772594451904,-0.03382720425724983,,,,,,,,,
1739402278.4628046,0.5256795116514708,0.0960581357627877,-0.9533505340260571,-2.0691083738836507,0.13773260836029913,2.1375928823870503,-1.2753749930795213,0.002264236091288936,0.0002398667589268666,0.00017620351794294818,-0.0004815833689165545,-0.000703112303140202,0.00045107031994358815,0.0015435164976304644,0.2173345386981964,-21.79654312133789,-2.38179087638855,22.59223175048828,0.7002664804458618,2.2679946422576904,-0.04756011441349983,,,,,,,,,
1739402278.472845,0.5256781819632443,0.09605239118475369,-0.9533514873718015,-2.069110133196591,0.13773503659006123,2.137594397707215,-1.2753804292986803,0.0004197371372222762,-0.0014653575528057285,-0.00031576047271132825,0.00026738188034017415,-0.00037831618261665115,-0.00020064657247479366,0.00024817896159961097,0.1935308277606964,-21.74496841430664,-2.38179087638855,22.61603546142578,0.7066751718521118,2.2551772594451904,-0.0008682189509272575,,,,,,,,,
1739402278.4838474,0.5256781833047105,0.09605369300319756,-0.9533505160419267,-2.0691040312142484,0.1377349796642321,2.137594397707215,-1.2753827862135851,0.0008468264965567279,-0.0004825667314625891,-0.0005692826353349136,0.000220219338552185,-0.0002736904147774592,0.00026423964158536214,0.0010056558643541126,0.1935308277606964,-21.74496841430664,-2.38179087638855,22.56842803955078,0.6801248788833618,2.2551772594451904,0.0064559997990727425,,,,,,,,,
1739402278.4948103,0.5256772784007294,0.09605618260063839,-0.9533466445757267,-2.069104396012411,0.13774045579693447,2.137594397707215,-1.2753836149862767,0.0007875282525195536,-2.7754937507636036e-05,0.001051648402606201,0.0016373685899557745,0.002042810076270047,-0.0002540538998150938,-7.873458249416316e-05,0.2173345386981964,-21.77273941040039,-2.4333655834198,22.54065704345703,0.6608988046646118,2.2551772594451904,-0.027418512850999832,,,,,,,,,
1739402278.5057456,0.525676469513709,0.09605942895474727,-0.953348427252695,-2.0691039997080236,0.13773742371206787,2.1375947526671726,-1.2753788793605099,7.294945144829498e-06,0.002657427758583467,-0.00024093088565373995,0.000763086378398433,0.00031035910207945666,0.0006014299694242892,0.0001311849302169606,0.2173345386981964,-21.82431411743164,-2.4095618724823,22.56842803955078,0.6865335702896118,2.2615859508514404,-0.013685601763427258,,,,,,,,,
1739402278.5167828,0.5256782203944681,0.09605631047889561,-0.953346644575676,-2.069106033201352,0.13773818283477318,2.137594397713496,-1.275380903100033,0.0005681077522053133,0.0006268615737464547,0.0017449630825885076,-0.00011039906583681178,0.0005359353639598444,0.0003239876591096334,-0.00023572511457466757,0.1935308277606964,-21.77273941040039,-2.4333655834198,22.59223175048828,0.6801248788833618,2.2551772594451904,-0.03382720425724983,,,,,,,,,
1739402278.5278497,0.5256767298250195,0.09605642680562405,-0.9533507498762885,-2.0691015358251454,0.13773890084120155,2.137594398215958,-1.275376088416588,0.000782184046936957,-9.29261923366599e-07,-0.00031145543390325987,0.0003109859516774665,0.0007705834414449247,0.0005533967010411079,0.0010135924301313704,0.2173345386981964,-21.77273941040039,-2.38179087638855,22.54065704345703,0.6737161874771118,2.2551772594451904,-0.07411040365695953,,,,,,,,,
1739402278.5387692,0.525676495858518,0.09605642713030131,-0.9533531870520153,-2.069109140114312,0.13773751881347907,2.1375928823870614,-1.2753742034094342,-0.00038433403216710753,0.0005774831433867037,-0.0007624098689739341,0.00036692482615783385,-0.0008744083109247434,0.00027454400254789965,0.0008148543214047067,0.2173345386981964,-21.77273941040039,-2.35798716545105,22.61603546142578,0.6737161874771118,2.2679946422576904,-0.05396880581974983,,,,,,,,,
1739402278.5488968,0.5256764955005391,0.09605645058242789,-0.9533526925882694,-2.06911116356953,0.13773814333561277,2.1375928823870587,-1.2753741837688382,0.0004673415134824092,-0.0005901071137656923,-0.00039254509154865175,-0.00038091189125781305,-0.0005115164675516221,0.0002505395758687718,6.288209925170814e-05,0.2173345386981964,-21.77273941040039,-2.38179087638855,22.63983917236328,0.6801248788833618,2.2679946422576904,-0.06678618490695953,,,,,,,,,
1739402278.5598161,0.5256784160243085,0.09606185054679722,-0.9533466455873292,-2.069109309029269,0.13773817850082531,2.137592015036276,-1.2753728040231194,0.001327220628172993,0.0004517516149806466,0.0018733483425416538,-2.4751921972437625e-06,0.0007034176672987048,-0.0004949724889495881,0.00024234989378376216,0.1935308277606964,-21.84811782836914,-2.4333655834198,22.61603546142578,0.6801248788833618,2.2753188610076904,-0.07411040365695953,,,,,,,,,
1739402278.570812,0.5256754589908607,0.09606013661982812,-0.9533505070425562,-2.069108341206729,0.13773913186814318,2.1375924114367706,-1.2753779989500436,-0.0005681211509813172,0.00019949955995859464,0.0004954497666490089,0.0020425006556930407,0.0006797940323306059,-0.0003609802101236935,-0.0007048349101927698,0.2411382496356964,-21.82431411743164,-2.38179087638855,22.59223175048828,0.6801248788833618,2.2679946422576904,-0.06037749722599983,,,,,,,,,
1739402278.5808153,0.5256784160360504,0.09606227342497538,-0.9533467258533606,-2.069111496712163,0.1377357417283288,2.137592882379083,-1.2753744652640442,0.0009416394835574541,-0.0003828527369938949,0.0012505424457862763,-0.0006428506256184213,-0.0005081534469451416,-0.00020365949368287116,0.0006336286027313716,0.1935308277606964,-21.82431411743164,-2.4333655834198,22.66364288330078,0.6737161874771118,2.2679946422576904,-0.05396880581974983,,,,,,,,,
1739402278.5928197,0.5256727590397471,0.09606356268157713,-0.9533534210478649,-2.069111859522564,0.13773849869169863,2.13759480978871,-1.2753832311841617,0.00020039560560148586,0.00021710751975831939,-0.0008291643864260907,-0.0004963706237132305,-0.0004422160921864343,0.0011721727539868844,-0.0007061038155423748,0.2689092457294464,-21.87192153930664,-2.38179087638855,22.63983917236328,0.6801248788833618,2.2551772594451904,-0.013685601763427258,,,,,,,,,
1739402278.6048543,0.5256748650692081,0.09605859241826875,-0.9533505101451276,-2.0691093882340565,0.13773877520252448,2.1375929235959834,-1.2753851577216806,-0.0010316502030008267,-0.0009486239453905998,-0.0004506304323090074,-0.0005879260518976356,0.0006231797924333693,3.72345044044261e-05,-0.004518998548132942,0.2689092457294464,-21.77273941040039,-2.38179087638855,22.61603546142578,0.6801248788833618,2.2679946422576904,-0.0008682189509272575,,,,,,,,,
1739402278.6158004,0.5256781820247044,0.0960581396551087,-0.9533466475736292,-2.0691065546138616,0.13773701710067088,2.1375936400472146,-1.275378077425243,0.0003304229769405464,-0.0010222349613590424,0.0010005190184741823,0.0006139262603008564,-0.000554447520840117,-3.651942119017155e-05,0.00020797586429301753,0.1935308277606964,-21.79654312133789,-2.4333655834198,22.56842803955078,0.6865335702896118,2.2615859508514404,-0.03382720425724983,,,,,,,,,
1739402278.6258194,0.5256775447661444,0.09605646228804977,-0.9533534210474569,-2.069104122825064,0.13773818331541565,2.1375936400471374,-1.2753801083370477,-0.0004120585692948866,-0.001337813446016378,-0.0017776135805043767,0.0007262155842701267,0.00041066944287736034,-0.00010417117476825999,-0.0014916464374983053,0.1935308277606964,-21.77273941040039,-2.38179087638855,22.56842803955078,0.6801248788833618,2.2615859508514404,-0.013685601763427258,,,,,,,,,
1739402278.6368,0.5256764430054597,0.09605927490797421,-0.9533505067750194,-2.0691063479011294,0.13773818234723917,2.1375943977072156,-1.2753836420593359,0.00024880328637262876,0.0006185666407865172,0.00019449165793704326,0.0006942845422307243,-0.0004428031859119107,-0.0002475322456734141,5.305069927161437e-06,0.2173345386981964,-21.77273941040039,-2.38179087638855,22.56842803955078,0.6801248788833618,2.2551772594451904,-0.013685601763427258,,,,,,,,,
1739402278.6478162,0.5256764734587663,0.09605442916952359,-0.953350183688786,-2.0691056062800532,0.13773676115362182,2.1375943977072156,-1.2753822233065735,0.00020914215480556788,-0.00011409657820833862,-0.00013158864804012826,0.0012159876095857744,-0.0021442045605129852,0.0007178183405950386,-0.00043375028632304427,0.2173345386981964,-21.74496841430664,-2.35798716545105,22.56842803955078,0.6801248788833618,2.2551772594451904,-0.013685601763427258,,,,,,,,,
1739402278.6597517,0.525678492717129,0.09605514113381812,-0.953352371973985,-2.069108338266552,0.13773336048684234,2.1375936400471374,-1.275375721701701,0.0009418005156442825,6.443468145529859e-05,0.0005585814650254168,-0.00041617172075996783,-0.0006899884013558445,0.0001517873544903987,0.0016097287928440308,0.1935308277606964,-21.74496841430664,-2.38179087638855,22.59223175048828,0.6938577890396118,2.2615859508514404,-0.08051909506320953,,,,,,,,,
1739402278.6698146,0.525672760003157,0.09605271667273783,-0.9533507503309564,-2.0691042586661634,0.13773742510247416,2.1375955103272513,-1.2753764414318924,-0.0019649466591789484,-0.00047645064527842635,0.0005432983471992696,0.001435255576062534,-0.00036662933908610754,0.0004562821898404395,-0.0011163679670993497,0.2689092457294464,-21.72116470336914,-2.38179087638855,22.54065704345703,0.6865335702896118,2.2551772594451904,-0.04756011441349983,,,,,,,,,
1739402278.6818094,0.5256762320444136,0.09605271666871891,-0.9533522890910712,-2.0691056063176845,0.13773818722268583,2.137594397713496,-1.2753780810141577,0.00019121422471739637,-0.0009332233167851264,0.0001918208349729291,0.00037620865425667596,6.746072462076105e-05,0.00022784786080481823,0.00021448818357228073,0.2173345386981964,-21.72116470336914,-2.35798716545105,22.56842803955078,0.6801248788833618,2.2551772594451904,-0.03382720425724983,,,,,,,,,
1739402278.6918812,0.5256747569779386,0.09605641449350069,-0.9533573104958037,-2.0691098025083967,0.13773969864250787,2.1375929008713723,-1.2753795985251841,-0.0006437585921272692,-0.0001678816590118311,-0.000560949518777721,-5.5109517950021974e-05,0.0014127537660028069,0.00015921986524117934,-0.002544904884744024,0.2411382496356964,-21.77273941040039,-2.3302161693573,22.61603546142578,0.6673074960708618,2.2679946422576904,-0.04756011441349983,,,,,,,,,
1739402278.7027934,0.5256747569429403,0.09605445989815123,-0.9533522900692768,-2.069111939236132,0.13773969864248586,2.1375936400472413,-1.2753781070926926,-0.00099503985096701,-0.0002808658223668425,-0.0002788141275958364,-0.000915936567354581,-1.7040166570432265e-06,0.00013829278350812368,-0.0010493834399066845,0.2411382496356964,-21.74496841430664,-2.35798716545105,22.63983917236328,0.6673074960708618,2.2615859508514404,-0.04756011441349983,,,,,,,,,
1739402278.7127984,0.5256764696070071,0.0960581396515544,-0.9533526925461981,-2.0691069464330316,0.13774120762456332,2.1375943977072156,-1.2753782799228421,0.0006627960472522195,-0.00030152900471052833,-0.0006300352595133446,-0.00010180048661980249,0.0005110946446003723,0.00015042350940806766,0.00036249673910354325,0.2173345386981964,-21.79654312133789,-2.38179087638855,22.61603546142578,0.6544901132583618,2.2551772594451904,-0.020094294100999832,,,,,,,,,
1739402278.7228138,0.5256727969155283,0.09606183558620084,-0.9533505071535856,-2.0691119431824787,0.13774045532717427,2.1375936405558797,-1.2753745057315837,0.0005034858522729426,0.0008402385775922686,0.00018750145418100804,-0.0009466215209006986,0.0004550082097817029,-4.1749051083779266e-05,0.002630765537659887,0.2689092457294464,-21.84811782836914,-2.38179087638855,22.63983917236328,0.6608988046646118,2.2615859508514404,-0.05396880581974983,,,,,,,,,
1739402278.7328267,0.5256764732067772,0.09606185011253658,-0.9533505070425511,-2.0691101515113925,0.13773818283477868,2.137592016489829,-1.2753819396990218,0.00032283416401634183,-0.00036364187900747553,-0.0003714976045405744,-0.00020974076436610116,-0.00039605976891167525,-0.0009774147939663569,0.00027648949073544153,0.2173345386981964,-21.84811782836914,-2.38179087638855,22.61603546142578,0.6801248788833618,2.2753188610076904,-0.0008682189509272575,,,,,,,,,
1739402278.742885,0.5256747573003342,0.09606182419248664,-0.9533428087693353,-2.0691137259095895,0.1377383013082112,2.137591258829748,-1.2753829350445682,0.00020160318669305155,-0.001268671611755786,0.0022734877508795268,-0.0014591039500607883,0.0008241888670644198,-0.001324006578566944,0.000577783197703187,0.2411382496356964,-21.84811782836914,-2.48494029045105,22.66364288330078,0.6801248788833618,2.2817275524139404,-0.0072769103571772575,,,,,,,,,
1739402278.7537873,0.5256798915980352,0.09606388198273486,-0.9533484514564758,-2.0691101514737085,0.13773818483980182,2.1375928823870587,-1.275374889280302,0.0002704623306318723,0.0005743007275664928,-0.00014066082951186764,0.0005645331869886265,-0.0005142368109315519,-0.00026821030323342124,0.002371386032890886,0.1697271168231964,-21.87192153930664,-2.4095618724823,22.61603546142578,0.6801248788833618,2.2679946422576904,-0.06037749722599983,,,,,,,,,
1739402278.764778,0.5256781820207249,0.09605885159720522,-0.9533491557540456,-2.0691119433457272,0.13773969815494946,2.1375928823870587,-1.2753770109322156,-0.0006266817948877344,-0.0010025559691915244,0.0002724345866367189,-0.0004558098957334963,0.00026139499257865466,-0.00017200357476949266,0.0007327807884470518,0.1935308277606964,-21.79654312133789,-2.4095618724823,22.63983917236328,0.6673074960708618,2.2679946422576904,-0.06678618490695953,,,,,,,,,
1739402278.774855,0.5256798945414726,0.09605515091191583,-0.953348323263512,-2.0691101606687603,0.13773757875137127,2.1375928961231083,-1.275377206420064,0.0008826631664947875,-0.0016478951221926988,-0.00031539207245885885,-0.0012667591001644454,-0.00015868482842528494,-0.00011954411199591251,-0.0012589930621886584,0.1697271168231964,-21.74496841430664,-2.4095618724823,22.61603546142578,0.6865335702896118,2.2679946422576904,-0.06678618490695953,,,,,,,,,
1739402278.7858176,0.5256764695000102,0.09605856296748173,-0.9533466445750889,-2.0691043700746503,0.13773778059585925,2.1375947526672503,-1.2753737164510226,-0.00021270757195600688,-0.0010128331158304432,0.0012018587605770676,0.00024782866135797973,-0.00048521145967548776,0.00022629859658958505,-0.0004964741255345012,0.2173345386981964,-21.77273941040039,-2.4333655834198,22.56842803955078,0.6865335702896118,2.2615859508514404,-0.06678618490695953,,,,,,,,,
1739402278.796757,0.5256764697119863,0.09605435050067758,-0.9533522910519907,-2.0691083776023333,0.13773858507657694,2.137591259344771,-1.2753794033446686,-3.703591890867188e-05,9.754658474853909e-06,-0.0005153826843049302,-0.0005355550120398027,0.0011290939840418513,-0.0005728135831937913,-0.0007080192002072857,0.2173345386981964,-21.74496841430664,-2.35798716545105,22.59223175048828,0.6737161874771118,2.2817275524139404,-0.013685601763427258,,,,,,,,,
1739402278.8077943,0.5256781820207427,0.09605550876268178,-0.9533484275858077,-2.0691043426025484,0.13773831601708983,2.1375928823870614,-1.275377358540386,-5.8306917818995976e-05,0.0005710669166999562,-0.0002518421316804963,0.00020992873708032493,-0.0004616875043520129,-0.0007662053215850468,7.788426935675507e-05,0.1935308277606964,-21.77273941040039,-2.4095618724823,22.56842803955078,0.6673074960708618,2.2679946422576904,-0.06678618490695953,,,,,,,,,
1739402278.8178043,0.5256785755307923,0.09605271665316625,-0.9533505070425561,-2.0691101606306104,0.13774045579160984,2.1375936400471374,-1.2753795199436466,0.0008529487907405689,-0.001366535661089944,6.809328366862215e-05,-0.001471970101765505,-6.749222626561383e-05,-8.818277721071044e-05,0.0004347593642465219,0.2173345386981964,-21.72116470336914,-2.38179087638855,22.61603546142578,0.6608988046646118,2.2615859508514404,-0.04756011441349983,,,,,,,,,
1739402278.8288758,0.5256747569911676,0.09605201107404358,-0.9533505190713517,-2.0691044880527665,0.13773742322452304,2.1375943977072156,-1.2753831716666937,-0.00016079942343681327,-0.0012145598136913875,0.0008274319126153229,0.0003775608963198057,-0.00046797082408773827,0.0004932187611362061,-0.001276733959615891,0.2411382496356964,-21.72116470336914,-2.38179087638855,22.54065704345703,0.6865335702896118,2.2551772594451904,-0.013685601763427258,,,,,,,,,
1739402278.8398426,0.5256785755307924,0.09605642669429261,-0.9533505190344079,-2.069107271869529,0.1377380263328324,2.137593653783187,-1.275382229118119,0.0007223854087625915,0.000306677996918983,0.00012827577587889722,0.0003982977646840915,-0.0012420642522740647,0.0008927181963780419,0.0007731606419769981,0.2173345386981964,-21.77273941040039,-2.38179087638855,22.56842803955078,0.6801248788833618,2.2615859508514404,-0.013685601763427258,,,,,,,,,
1739402278.8508468,0.5256743237446869,0.09605810856322598,-0.9533484272527627,-2.0691101606725795,0.13774289693665762,2.1375931291099395,-1.2753780028390562,-0.00021127557582500508,0.00020837844748702454,0.0011095171628152023,-0.0010017884576771685,0.0002760364632306979,6.97573403323511e-05,0.00120759466988757,0.2173345386981964,-21.79654312133789,-2.4095618724823,22.61603546142578,0.6673074960708618,2.2753188610076904,-0.06037749722599983,,,,,,,,,
1739402278.8617678,0.525674757037825,0.09605359259813166,-0.9533515960830781,-2.069110159651275,0.137737425246932,2.137592016496107,-1.2753788394826682,-0.00013017247979502645,-0.0012626265098733467,-0.0010408803187007551,-0.0004257768723832408,0.00014907390848958944,-0.0005494669456075848,-0.001637485196805869,0.2411382496356964,-21.77273941040039,-2.4095618724823,22.61603546142578,0.6865335702896118,2.2753188610076904,-0.05396880581974983,,,,,,,,,
1739402278.8728037,0.5256747569792793,0.09606356655993556,-0.9533505430358072,-2.0691079354286828,0.1377373074055054,2.1375936400471374,-1.2753836293739516,0.00020600316345725794,0.0016710976355881401,-0.0011851951705359322,0.0005569865988952772,-0.00036269731634026295,-0.0012557952726528405,-0.0019745035042238604,0.2411382496356964,-21.87192153930664,-2.38179087638855,22.61603546142578,0.6865335702896118,2.2615859508514404,-0.013685601763427258,,,,,,,,,
1739402278.8838482,0.5256761602753648,0.0960604553137675,-0.9533484272528981,-2.069109418909508,0.137738940494195,2.137595159945977,-1.275375701268288,-0.00045834221931124466,0.0005864083358155052,0.0005464406975854232,0.00030431877180409794,-0.00020891910324591492,0.00024444170439095623,-0.0006320753719493604,0.2173345386981964,-21.82431411743164,-2.4095618724823,22.61603546142578,0.6737161874771118,2.2487685680389404,-0.05396880581974983,,,,,,,,,
1739402278.894797,0.5256745214478855,0.09605943775011859,-0.9533486671975018,-2.0691101571599018,0.13773818722268624,2.1375920210685355,-1.2753750839974454,-0.0013788340038455727,-0.0012679177801694032,3.6307742239440256e-05,-0.00026152930830760886,-0.0006568566292987692,-0.0006505434855348083,0.0006562713009776178,0.2411382496356964,-21.82431411743164,-2.4095618724823,22.61603546142578,0.6801248788833618,2.2753188610076904,-0.07411040365695953,,,,,,,,,
1739402278.9048529,0.5256764694960215,0.09606279935992423,-0.9533484272567584,-2.069108377991682,0.1377406385837297,2.137596977907322,-1.2753689587142272,-0.0003484261833141156,1.2862889545748436e-05,0.0003054454232441154,0.0009022613289851512,-0.00016420183661764554,0.0010425285222160961,0.0023675256854129353,0.2173345386981964,-21.84811782836914,-2.4095618724823,22.59223175048828,0.6865335702896118,2.2615859508514404,-0.10066069662570953,,,,,,,,,
1739402278.915785,0.5256788841736654,0.09606497181480651,-0.953352185477503,-2.0691101606687603,0.13774062549880872,2.1375943977260574,-1.275377651547547,0.0014077162827475385,0.0012574721738375014,-0.0010060593761732697,0.0002045184158285619,0.0009915555936153525,0.0004958155326716646,0.0007706526587344746,0.1935308277606964,-21.84811782836914,-2.3302161693573,22.61603546142578,0.6608988046646118,2.2551772594451904,-0.06037749722599983,,,,,,,,,
1739402278.9268222,0.5256765475051141,0.09606109393214335,-0.9533505069945558,-2.069111943345779,0.13773893903318274,2.1375943977072156,-1.2753773984904857,-0.0005225079952697505,0.0007707884697547631,-0.0006745263206741299,-0.001263946956061996,0.00026710400129315606,-0.00044986822235867924,0.0011699031376470408,0.2173345386981964,-21.79654312133789,-2.38179087638855,22.63983917236328,0.6737161874771118,2.2551772594451904,-0.06037749722599983,,,,,,,,,
1739402278.9368424,0.5256736084783821,0.09606013861852249,-0.9533505070425496,-2.069111930796795,0.13773742663731328,2.1375936400471374,-1.2753761454996455,-0.0004552898524393352,0.0006530828218819127,-0.00047445583078812345,-0.0007716481183306837,0.00014060551663135236,-0.0003596504452001864,0.0004755338948367569,0.2173345386981964,-21.82431411743164,-2.38179087638855,22.63983917236328,0.6865335702896118,2.2615859508514404,-0.04023589566349983,,,,,,,,,
1739402278.9478343,0.5256747868154167,0.0960612247433021,-0.9533484819563478,-2.0691083776525088,0.13773894060321137,2.137595881200596,-1.27538360334718,-0.0002732790366451745,0.000973439013334627,0.0005860507531413562,-7.239083320937178e-05,4.3253546378374904e-05,0.0006320117196912552,-0.0005271323896274605,0.2411382496356964,-21.79654312133789,-2.38179087638855,22.59223175048828,0.6737161874771118,2.2551772594451904,-0.013685601763427258,,,,,,,,,
1739402278.9587348,0.5256764695001787,0.09605271668613433,-0.9533484302392107,-2.0691045141682176,0.1377397025970152,2.137592882395433,-1.2753804644939832,-0.0007521907829284632,-0.000765900199213956,0.0001298774792776803,0.0015811470766618348,0.0008704182218309776,0.00017198414154904774,7.597966431786103e-05,0.2173345386981964,-21.72116470336914,-2.4095618724823,22.54065704345703,0.6673074960708618,2.2679946422576904,-0.04023589566349983,,,,,,,,,
1739402278.968773,0.5256744302575225,0.09605813965103463,-0.9533543666205446,-2.0691076362450276,0.1377404577652716,2.137593683290257,-1.2753836027415595,-0.0006258697940928003,0.0010518969112905884,-0.0004118823788209909,-0.0011923473536165018,0.0009536757939535869,0.00027950286467093587,-0.002376289334309824,0.2411382496356964,-21.79654312133789,-2.3302161693573,22.59223175048828,0.6608988046646118,2.2615859508514404,0.012864691205322742,,,,,,,,,
1739402278.9788094,0.5256743238342627,0.09605814844047098,-0.9533506127562877,-2.069104369949035,0.13773969376706635,2.1375936400478692,-1.2753836380416501,-0.00016734493152492104,0.0009247959056525616,0.0010719992578433189,0.0009153376253051462,0.0003659211943278373,1.9903994408333335e-05,-0.0022053251548689017,0.2173345386981964,-21.79654312133789,-2.4095618724823,22.56842803955078,0.6673074960708618,2.2615859508514404,-0.013685601763427258,,,,,,,,,
1739402278.9888535,0.5256764694636732,0.0960527079203122,-0.9533530482372691,-2.069108350481955,0.13774214122756834,2.1375928823870587,-1.2753804512506697,0.00010052344905090484,-0.0026008532960907584,-0.0005584501451583471,4.29479234022468e-05,0.0006743478519853569,-2.05449799199731e-05,-0.0003267065735300316,0.2173345386981964,-21.72116470336914,-2.35798716545105,22.59223175048828,0.6737161874771118,2.2679946422576904,-0.04023589566349983,,,,,,,,,
1739402278.9998124,0.5256782860579272,0.09606012884328248,-0.9533519905402134,-2.069109418921914,0.13773818285284967,2.1375943977072156,-1.2753805037397652,0.0010263563937684037,0.0009495847313644282,0.0003380973189711668,-0.0005324000247915021,-0.0005968336034120017,-0.00017468682514492696,-0.001851925349870824,0.1935308277606964,-21.82431411743164,-2.38179087638855,22.61603546142578,0.6801248788833618,2.2551772594451904,-0.04023589566349983,,,,,,,,,
1739402279.0098212,0.5256764695017722,0.09605456152142479,-0.9533522897446928,-2.06910837797918,0.13773985611951142,2.1375920171681497,-1.2753812970764098,0.0003650608310801113,-0.0011527368976446326,-0.0005279054471822884,-0.001105675513290683,-9.602744657866247e-05,-0.0005759113218484246,-0.0014412889153670248,0.2173345386981964,-21.74496841430664,-2.35798716545105,22.59223175048828,0.6673074960708618,2.2753188610076904,-0.06037749722599983,,,,,,,,,
1739402279.0207696,0.5256768633310535,0.09605650656151464,-0.9533477257235864,-2.069107190629542,0.13773706997199225,2.1375951553672974,-1.275378122540593,9.675212964828513e-05,-0.00014648777355196667,0.0007180859813076013,0.00038888172332013024,-0.0011880266521218776,0.00027599788587424174,-0.0006580734786095097,0.2411382496356964,-21.77273941040039,-2.4095618724823,22.61603546142578,0.6865335702896118,2.2487685680389404,-0.06037749722599983,,,,,,,,,
1739402279.0307808,0.5256747583702622,0.09605801169692593,-0.9533466445400346,-2.0691101601787047,0.13774168002241094,2.1375928823870587,-1.2753794794058533,-0.0006049976056738261,-0.0009065549678479671,0.000337039204105902,0.00048696584177349874,0.00022137155840348468,-0.0005489710559930087,-0.00019672891457689617,0.2411382496356964,-21.82431411743164,-2.4333655834198,22.61603546142578,0.6608988046646118,2.2679946422576904,-0.04756011441349983,,,,,,,,,
1739402279.0409162,0.5256760363962006,0.09606364172627883,-0.9533466445756758,-2.0691100772349733,0.13773970276644026,2.137593640273245,-1.2753760280146282,-0.0010251531284693105,0.0018881021904248963,0.0006820845365799622,-0.00023118573522255348,0.00020845194557659826,3.5061842494767223e-05,0.001684704711399102,0.1935308277606964,-21.87192153930664,-2.4333655834198,22.61603546142578,0.6673074960708618,2.2615859508514404,-0.07411040365695953,,,,,,,,,
1739402279.0517411,0.5256764694515594,0.09606185022157662,-0.9533484392444845,-2.069108295889907,0.13773969815496417,2.1375951553672947,-1.275380149071143,0.00034487621519473506,0.000318094087808423,-5.853125136905978e-06,0.00020503533709896788,-0.0003292363104841628,0.0005354079185493931,-7.12907053600233e-05,0.2173345386981964,-21.84811782836914,-2.4095618724823,22.59223175048828,0.6673074960708618,2.2487685680389404,-0.04023589566349983,,,,,,,,,
1739402279.0628183,0.52567646950001,0.09606188042351593,-0.953350515715468,-2.0691110749514015,0.13773818283478145,2.1375928823870587,-1.2753843997911987,0.0002455466560531222,-0.0005675246183991913,-0.0008412115319803609,-0.0003577364296680097,-0.0013453864531963412,0.00039989783491946784,-0.00033824581229920266,0.2173345386981964,-21.84811782836914,-2.38179087638855,22.61603546142578,0.6801248788833618,2.2679946422576904,-0.0072769103571772575,,,,,,,,,
1739402279.072826,0.5256747570862765,0.09606028861455128,-0.9533484273638769,-2.069110954680611,0.1377389404948598,2.1375928884919695,-1.2753851710197397,0.0004779186459731063,-0.0007107786746365358,-0.0005252271907386609,-0.0002422493855959963,-0.00011125065799309341,0.0004265131006072437,-0.0022158477297268262,0.2411382496356964,-21.79654312133789,-2.4095618724823,22.63983917236328,0.6737161874771118,2.2679946422576904,-0.0008682189509272575,,,,,,,,,
1739402279.0847309,0.525676472388942,0.09605886039697009,-0.9533484243280986,-2.06910763623947,0.1377372526445087,2.137593642082142,-1.2753788801828245,0.0009206085055540772,-0.0015763849813611006,0.0012531884401563616,0.0011139468402721342,-0.0014462229039933988,0.00011472398047078231,0.0003570169177651999,0.2173345386981964,-21.79654312133789,-2.4095618724823,22.59223175048828,0.6608988046646118,2.2615859508514404,-0.05396880581974983,,,,,,,,,
1739402279.0948768,0.52567647816682,0.09605654139704814,-0.9533484071166629,-2.069108377987554,0.13773941581794968,2.1375936400471485,-1.2753799910017038,-0.0006250984596235994,-4.93908541862177e-05,2.2849352419281255e-05,-0.00013152659089047156,0.0008709316527543548,0.0005585444123007416,-0.000571099120540729,0.2173345386981964,-21.77273941040039,-2.38179087638855,22.59223175048828,0.6801248788833618,2.2615859508514404,-0.04756011441349983,,,,,,,,,
1739402279.1049016,0.5256747569794259,0.09605514211235743,-0.9533526925106298,-2.0691119341884123,0.1377381703420077,2.1375955103272513,-1.275385461375378,-0.0008629292463492152,-0.0010569034558114492,-0.0005020992286984736,-0.0012134074610219456,-0.001138534213653837,0.00078421775409528,-0.002100761758116107,0.2411382496356964,-21.74496841430664,-2.38179087638855,22.63983917236328,0.6801248788833618,2.2551772594451904,-0.0072769103571772575,,,,,,,,,
1739402279.1157799,0.5256764695000103,0.09605885062736523,-0.9533531351530684,-2.0691119433457272,0.13773818429734586,2.1375948235310407,-1.2753773646536837,-0.0004832755037934816,0.0006925784068485514,-0.001173265612406403,-0.0013369737148128831,-2.0783626103306916e-05,0.0008052808237594278,0.0002383509931388778,0.2173345386981964,-21.79654312133789,-2.35798716545105,22.63983917236328,0.6801248788833618,2.2551772594451904,-0.06678618490695953,,,,,,,,,
1739402279.1258867,0.5256781820207416,0.09605514212246276,-0.9533512355580819,-2.0691042682759697,0.1377400023678474,2.137597735574534,-1.2753784092324676,0.0006037868589245438,0.00016785581416472315,-0.0009619878502193546,0.0020397491097008964,0.0013907185978607821,0.0002613431397860965,-0.00042302297557852075,0.1935308277606964,-21.74496841430664,-2.38179087638855,22.54065704345703,0.6737161874771118,2.2551772594451904,-0.05396880581974983,,,,,,,,,
1739402279.1368096,0.525676391097125,0.09605642811093174,-0.9533543695135377,-2.0691065668237414,0.13773969816093243,2.1375928824624277,-1.2753816658448498,-0.00022642056776031144,0.0002389523281919155,-0.000248949471983509,0.00021163236457319,-0.0004055738332746742,-0.00036882258617282966,8.412614445468613e-06,0.2173345386981964,-21.77273941040039,-2.3302161693573,22.56842803955078,0.6673074960708618,2.2679946422576904,-0.027418512850999832,,,,,,,,,
1739402279.1478236,0.5256747569788365,0.09605485282736356,-0.953352329729213,-2.069104515524706,0.1377389405490315,2.1375943982159584,-1.2753836363169273,-0.001135236671938161,-0.0006354705551882317,-0.0005930290517495566,0.0013180688986331845,-0.00035511191993891825,0.0005989096979774032,0.0001086984492604983,0.2411382496356964,-21.72116470336914,-2.35798716545105,22.54065704345703,0.6737161874771118,2.2551772594451904,-0.013685601763427258,,,,,,,,,
1739402279.158739,0.525674041866205,0.09605813977160457,-0.9533505340243028,-2.069106595314722,0.1377407688037109,2.1375951161779665,-1.2753797058815215,-0.0007868858298184058,0.0005881078837541057,-0.0003864625540411701,-0.00017530430633676483,0.0004046422687245836,-0.00011885895091646678,0.0006986737186604825,0.2411382496356964,-21.79654312133789,-2.38179087638855,22.56842803955078,0.6673074960708618,2.2487685680389404,-0.020094294100999832,,,,,,,,,
1739402279.1688206,0.5256747569671686,0.09605674355002436,-0.9533523258064303,-2.069106595314722,0.13773865674663194,2.1375920322601827,-1.2753733199975763,-0.0009170160107225041,-0.0009205623986615627,-0.0012995381344948302,0.0007011886235575014,-0.0006414177970814152,-0.00041804078102901387,0.0010503192962649486,0.2411382496356964,-21.77273941040039,-2.35798716545105,22.56842803955078,0.6801248788833618,2.2753188610076904,-0.07411040365695953,,,,,,,,,
1739402279.1797838,0.5256764611966044,0.09605632214942282,-0.9533523976458791,-2.069107534859921,0.13774022405613,2.137597349459002,-1.2753773648450892,-0.0004602164146869446,-0.0019594592137774686,-0.0008514126011922444,0.0012631881156932037,7.550759241355538e-05,0.0012056460300030871,0.0008955110300179119,0.2173345386981964,-21.77273941040039,-2.35798716545105,22.59223175048828,0.6673074960708618,2.2615859508514404,-0.06678618490695953,,,,,,,,,
1739402279.1898627,0.5256768630099206,0.09605967506133657,-0.9533484272545226,-2.0691126320962847,0.13773894050376598,2.1375938049425542,-1.2753746810215718,-0.0010114286676922665,-0.0004128840101500776,0.000536207106123111,-0.0007607581236688315,-0.0004362579264532064,6.891641163025067e-05,0.0021729401700022787,0.2411382496356964,-21.82431411743164,-2.4095618724823,22.63983917236328,0.6737161874771118,2.2615859508514404,-0.08051909506320953,,,,,,,,,
1739402279.20076,0.5256798919309142,0.096062985366749,-0.9533505070425505,-2.069108207276153,0.13774254784015463,2.1375936415742958,-1.2753788801767654,0.0013802307295564522,0.0012957726443646154,-0.0003375439317865916,0.0009573339744052131,0.0009281631544015615,0.0005177873483104074,0.0002993890593689352,0.1697271168231964,-21.82431411743164,-2.38179087638855,22.59223175048828,0.6737161874771118,2.2615859508514404,-0.05396880581974983,,,,,,,,,
1739402279.2108085,0.525676469499966,0.09606027564087767,-0.953348274193854,-2.069110424582142,0.13773832351688686,2.1375969779072705,-1.2753763052249052,0.00033306470119283263,-0.0011499191582025714,0.0010007789917996018,-0.0009785678959944224,0.00011856522776927588,0.0001458107797732206,0.001611151412875318,0.2173345386981964,-21.79654312133789,-2.4095618724823,22.61603546142578,0.6608988046646118,2.2615859508514404,-0.06678618490695953,,,,,,,,,
1739402279.2217598,0.525674756979279,0.09606106788380374,-0.9533505071527215,-2.0691119433472687,0.1377384972350839,2.1375944160973175,-1.2753828843054464,-0.0014333935009175165,-0.00041228327310086955,-0.00032478359123926917,-0.0011395103724561994,5.551542650910501e-05,0.00030783794622824505,-0.0005077069223636981,0.2411382496356964,-21.79654312133789,-2.38179087638855,22.63983917236328,0.6801248788833618,2.2551772594451904,-0.020094294100999832,,,,,,,,,
1739402279.232741,0.5256765475011503,0.0960628911890888,-0.9533484272526955,-2.069110069410031,0.1377382288282992,2.137591258999432,-1.2753805035785521,-0.0009446409979545627,0.0019949711891297257,0.0014807760683112196,-4.4297867132500244e-05,0.0004674013989423172,-0.0007750221171324831,-0.00021327472764428907,0.2173345386981964,-21.84811782836914,-2.4095618724823,22.61603546142578,0.6801248788833618,2.2817275524139404,-0.04023589566349983,,,,,,,,,
1739402279.242779,0.5256764695013313,0.09606108298042874,-0.9533495710288695,-2.0691136985491534,0.13773746466662526,2.1375936537831897,-1.2753735249432416,0.0003395228734174632,-0.00047434816032493836,0.0009297723610520008,-0.0017711499849133404,-0.0016920540298463254,-0.00015603578007908434,0.002873830676066603,0.2173345386981964,-21.82431411743164,-2.38179087638855,22.66364288330078,0.6865335702896118,2.2615859508514404,-0.06037749722599983,,,,,,,,,
1739402279.2528007,0.5256786015311724,0.09606122486781811,-0.9533483492357034,-2.069106512897958,0.13773884734407374,2.13759376994631,-1.275379637280452,0.0005535219277060015,0.0005188103797939829,0.000668809593109615,-0.0002688649858328096,0.00024958369535549535,0.00010149883248729616,2.6800865423413814e-05,0.2173345386981964,-21.79654312133789,-2.4095618724823,22.56842803955078,0.6865335702896118,2.2615859508514404,-0.04756011441349983,,,,,,,,,
1739402279.2628362,0.5256747570153851,0.09605278707734156,-0.9533505070412293,-2.0691083779903456,0.13773818334641097,2.137593499985407,-1.2753850402002163,0.00013058425186004226,-0.0023741312340480347,-0.0012206040002917622,-0.00044085421737332975,-0.0002168945951145949,0.0006982112470321596,-0.001247787036614704,0.2411382496356964,-21.72116470336914,-2.38179087638855,22.59223175048828,0.6801248788833618,2.2753188610076904,-0.0008682189509272575,,,,,,,,,
1739402279.2738087,0.5256781526933466,0.09605445555815748,-0.9533498080302372,-2.0691083779917414,0.1377417270224749,2.1375936400555116,-1.275378862685648,0.0003813086846656526,-0.00155747926765655,0.001562940392236197,0.0005750304216118365,0.0010012364086791426,-0.0005417936513619011,0.0004570838963673267,0.1935308277606964,-21.74496841430664,-2.38179087638855,22.59223175048828,0.6544901132583618,2.2615859508514404,-0.05396880581974983,,,,,,,,,
1739402279.283815,0.5256750690903401,0.09605443211970885,-0.9533512445257687,-2.0691101606687603,0.1377384803932482,2.1375936400471374,-1.2753796378425328,0.00040396844206180697,-0.0009377863429800791,-0.0002366476624488677,-0.00019174836118972187,-0.0003039230652475154,-0.00017721954266269283,-0.000331148894903368,0.2411382496356964,-21.74496841430664,-2.38179087638855,22.61603546142578,0.6865335702896118,2.2615859508514404,-0.04756011441349983,,,,,,,,,
1739402279.294801,0.5256757454157172,0.09605713950873408,-0.9533486710899118,-2.0691083716687975,0.1377396074471649,2.1375932532604036,-1.2753788801827508,-0.0011503566360192429,-0.0008443930122361127,8.113475249591775e-05,-0.0010695378527640824,0.00018338487032473001,-0.00019501380640551738,-0.0005750677535548891,0.2173345386981964,-21.77273941040039,-2.4095618724823,22.59223175048828,0.6801248788833618,2.2679946422576904,-0.05396880581974983,,,,,,,,,
1739402279.3067334,0.5256747569751915,0.09605442951900617,-0.9533504289001236,-2.069108378155903,0.1377404148389163,2.1375928844241225,-1.275377011650325,-0.0005113133252500452,-0.0013492865959518225,-0.0005361470463701917,-4.273582091796401e-05,0.0013841144432617635,-0.0006830533932697029,0.0005609108819960003,0.2411382496356964,-21.74496841430664,-2.38179087638855,22.59223175048828,0.6737161874771118,2.2679946422576904,-0.06678618490695953,,,,,,,,,
1739402279.316848,0.5256764695000102,0.09605650623523479,-0.9533505080414252,-2.069110160668761,0.1377383013165339,2.1375920180160652,-1.2753820016156214,0.00025853552826709815,0.00013104780039003465,-0.00042679372165243547,-0.0006373690443884986,8.035035641755086e-05,-0.000619358519268642,-0.000677902146058411,0.2173345386981964,-21.77273941040039,-2.38179087638855,22.61603546142578,0.6801248788833618,2.2753188610076904,-0.027418512850999832,,,,,,,,,
1739402279.3268583,0.525678286129259,0.09605642745717748,-0.9533484262897348,-2.069106595314722,0.13773655927947723,2.13759368278154,-1.2753843435889625,0.0002758046500151408,-0.0009146000132350376,-0.0005054537148872835,0.00011352578425872812,-0.0007642496502783504,-0.0004788454070151605,-0.00057957373661282,0.1935308277606964,-21.77273941040039,-2.4095618724823,22.56842803955078,0.6938577890396118,2.2615859508514404,-0.0072769103571772575,,,,,,,,,
1739402279.337771,0.5256781859089031,0.09605813090248064,-0.9533505070425451,-2.0691096356894083,0.13773905896828953,2.137594365880681,-1.2753818612855177,0.0006074833057724949,-0.0009961229149558748,-0.0003881835731541969,-5.5399903420391586e-05,-0.0010734564339604166,0.0002689696980467509,-0.0011440544714011545,0.1935308277606964,-21.79654312133789,-2.38179087638855,22.63983917236328,0.6737161874771118,2.2679946422576904,-0.0008682189509272575,,,,,,,,,
1739402279.3487873,0.5256785756378117,0.0960544291894007,-0.9533561521864442,-2.069106262584044,0.1377396981556069,2.1375920164982007,-1.275375741287114,-0.0003971024409308752,-0.0022392620158440406,-0.0018118320999630138,0.001607266401607263,0.0008203243103210232,-0.0007955804744467148,0.0005493760179240533,0.2173345386981964,-21.74496841430664,-2.3064124584198,22.56842803955078,0.6673074960708618,2.2753188610076904,-0.08051909506320953,,,,,,,,,
1739402279.3588686,0.5256767815402382,0.09606288867679288,-0.9533463212219129,-2.069113716859797,0.13773969815493814,2.1375933768848525,-1.2753828849574502,-0.0001559725750394303,0.0008669740403412264,0.0007909200195746857,-0.0011290505856475191,0.000784220274554019,-0.0005015081107888255,-0.0018823952418245927,0.2173345386981964,-21.84811782836914,-2.4095618724823,22.66364288330078,0.6673074960708618,2.2679946422576904,-0.020094294100999832,,,,,,,,,
1739402279.3698246,0.5256781810770224,0.09606438052703715,-0.9533507206705538,-2.069113828061974,0.13773818288895312,2.1375936461548393,-1.275377324179651,0.0002759070071801702,0.001303610045177161,0.0004453981514420804,-0.0019098140487152438,-0.00020678757856640054,2.7837679756276073e-05,0.001201681679915096,0.1935308277606964,-21.87192153930664,-2.4095618724823,22.66364288330078,0.6801248788833618,2.2615859508514404,-0.04023589566349983,,,,,,,,,
1739402279.3807344,0.5256781820207362,0.0960618543491866,-0.9533534210603526,-2.0691109259635407,0.13774225775089277,2.1375928839133205,-1.2753835243776035,0.0008380925282621074,-0.0004770712638534212,-0.0014621654325042018,-0.001068849448503386,0.000541681488504335,-0.0003599955763086564,-0.0010991867390342074,0.1935308277606964,-21.84811782836914,-2.38179087638855,22.61603546142578,0.6737161874771118,2.2679946422576904,-0.013685601763427258,,,,,,,,,
1739402279.3907945,0.5256764704629874,0.09606230890834486,-0.9533484374806265,-2.0691101596642354,0.13773969837363115,2.1375913137739726,-1.2753796378408269,0.0007678472345027387,0.00022860305523941278,0.0002501491399920366,0.00019737656086671627,-0.0005321061471227017,-8.580786248052626e-05,-0.0012635601540697235,0.2173345386981964,-21.82431411743164,-2.38179087638855,22.61603546142578,0.6673074960708618,2.2817275524139404,-0.04756011441349983,,,,,,,,,
1739402279.40177,0.5256764685188693,0.09605817778702079,-0.9533504954394775,-2.069112019875194,0.13773905848074577,2.1375936400474473,-1.2753796378428293,-0.000550782055509559,0.0005175588691155967,-0.0004157045165405303,-0.0004415493107482077,-0.000678607069468344,-0.00037382971124493816,-0.0006588890550514186,0.2173345386981964,-21.79654312133789,-2.38179087638855,22.63983917236328,0.6737161874771118,2.2615859508514404,-0.04756011441349983,,,,,,,,,
1739402279.4128041,0.5256736084770445,0.09605912203111222,-0.9533513402943771,-2.0691129157291925,0.13773818283677955,2.137591258829748,-1.2753805037400616,0.00010175348396171781,-0.0005994484873278333,-0.0007683468573076266,0.00020538612317036578,-0.00035652852030519704,0.0003519160915870321,-0.0010886174238318295,0.2173345386981964,-21.84811782836914,-2.4095618724823,22.61603546142578,0.6801248788833618,2.2817275524139404,-0.04023589566349983,,,,,,,,,
1739402279.4228039,0.5256785802568494,0.09605740675729836,-0.9533474131473206,-2.0691083780072934,0.13773513759631387,2.1375928823870587,-1.2753820583060749,0.0002809529744259437,-0.0004804219292230842,0.0013603977358128392,0.00019253062112347346,-0.0020034251530671662,-0.00010120610529362598,-0.001131179243262071,0.2173345386981964,-21.77273941040039,-2.4095618724823,22.59223175048828,0.6938577890396118,2.2679946422576904,-0.027418512850999832,,,,,,,,,
1739402279.4337807,0.5256764695357562,0.09605954294792766,-0.9533504810249965,-2.069102728777907,0.13773970398140156,2.137593640216718,-1.2753774673325762,-0.000368945108634067,0.000612800202523307,0.0013900086914277797,0.001681643265052416,-0.0006768887732919624,-0.0006756128764358839,0.0013385410388836905,0.2173345386981964,-21.77273941040039,-2.38179087638855,22.51685333251953,0.6673074960708618,2.2615859508514404,-0.05396880581974983,,,,,,,,,
1739402279.4437988,0.5256781820207417,0.09605727712919365,-0.953344229538134,-2.0691023186290014,0.13774218088133378,2.137594438915366,-1.2753818253113456,-1.418231983963482e-05,-0.0007792889462628033,0.0012839758216712147,0.0006848639961587191,0.0003408613907843096,-8.463515161648765e-05,-0.0016505868236276718,0.1935308277606964,-21.74496841430664,-2.4333655834198,22.54065704345703,0.6737161874771118,2.2551772594451904,-0.020094294100999832,,,,,,,,,
1739402279.4548125,0.525674851169335,0.09605466699053294,-0.9533463212082799,-2.069108377527124,0.13773931050561877,2.1375936400473696,-1.275375741299742,-0.0009975968007449223,0.00031226566677490313,0.0012857869205022382,5.872797650664628e-05,-0.0003829975535144409,-0.0009744731958825711,0.0008595865281539565,0.2411382496356964,-21.74496841430664,-2.4095618724823,22.59223175048828,0.6737161874771118,2.2615859508514404,-0.08051909506320953,,,,,,,,,
1739402279.4657276,0.5256747569798107,0.09606130790066687,-0.9533491557420202,-2.069107636245048,0.13773894049694851,2.13759961042612,-1.2753852233475567,-0.0006685128711355357,0.0010573361042630178,0.00042501609359663295,0.00019018572159896412,-0.00037253954757247935,0.0016408037865269908,-0.002081300064293043,0.2411382496356964,-21.79654312133789,-2.4095618724823,22.59223175048828,0.6737161874771118,2.2487685680389404,-0.0008682189509272575,,,,,,,,,
1739402279.4757729,0.5256738033049627,0.09605845623291966,-0.9533522897319067,-2.069108048313984,0.13773754657340276,2.137594051722549,-1.2753851574543866,-0.0010221102431918437,-0.00014344280510184004,-0.0013346042827608806,0.00014760221606534375,-0.0007618819411348687,-0.00021140642104528726,-0.0016884837246491534,0.2411382496356964,-21.79654312133789,-2.35798716545105,22.59223175048828,0.6865335702896118,2.2679946422576904,-0.0008682189509272575,,,,,,,,,
1739402279.4857872,0.5256747579261055,0.09606017275499532,-0.9533484272526952,-2.0691083779861583,0.13774382572796273,2.13759735032662,-1.27538363825698,-0.0007264152532902131,0.0010370806891007948,0.0008453129040534449,0.0003796229250792573,0.0005255247884889543,0.001367481734707961,-0.00033312851070026596,0.2411382496356964,-21.82431411743164,-2.4095618724823,22.59223175048828,0.6608988046646118,2.2615859508514404,-0.013685601763427258,,,,,,,,,
1739402279.4958053,0.5256764665565871,0.0960625458981233,-0.9533526925461923,-2.069108341362275,0.1377374829245953,2.137593995239509,-1.2753763047403146,-0.0005758792567300112,0.000610930686413641,-0.000957059717959931,0.00038768906338569414,-0.0010674659218659222,-0.00011164473468847839,0.0014699084855030976,0.2173345386981964,-21.82431411743164,-2.38179087638855,22.59223175048828,0.6865335702896118,2.2679946422576904,-0.06678618490695953,,,,,,,,,
1739402279.5058062,0.5256768630100113,0.09605822216060747,-0.9533483824860391,-2.069106824902363,0.137739295916127,2.13759058986347,-1.2753773648450812,-0.00042903227785021417,-0.00021162845338985387,0.00047250064529894833,0.00019140323991712483,-0.0014803079111515732,-0.0009547718939729092,0.0015351723353738771,0.2411382496356964,-21.79654312133789,-2.4095618724823,22.56842803955078,0.6737161874771118,2.2615859508514404,-0.06678618490695953,,,,,,,,,
1739402279.5158317,0.5256765476438136,0.0960601756808435,-0.9533529845521678,-2.0691083779956294,0.13773818430343548,2.13759493102266,-1.2753747735429053,0.0001371346314775929,-0.00038450032944751015,5.966270717671073e-05,0.0004070324159805573,-0.00021327710997115843,0.0011331587214210746,0.0024188760142452408,0.2173345386981964,-21.82431411743164,-2.35798716545105,22.59223175048828,0.6801248788833618,2.2615859508514404,-0.06037749722599983,,,,,,,,,
1739402279.526829,0.5256764695013336,0.09606280067455991,-0.953348427264462,-2.069112984276108,0.1377421963202501,2.137594770128651,-1.275379990837318,0.00038602710902251643,0.00037397787314420917,0.0004990184265294286,-0.0009034355547987836,-0.00035982205830033763,0.0006121728745949607,-0.000999958243615058,0.2173345386981964,-21.84811782836914,-2.4095618724823,22.66364288330078,0.6737161874771118,2.2551772594451904,-0.04756011441349983,,,,,,,,,
1739402279.5368445,0.5256747304883258,0.09606185011798453,-0.9533505190343401,-2.0691084545169747,0.13773898005855392,2.13759659059652,-1.275379698893932,-0.0007625985098127227,-0.0002941070284679877,0.0002715024918543072,0.0007166851759404004,-0.00030578906539030173,0.0009878322441961365,0.0003594278370819158,0.2411382496356964,-21.84811782836914,-2.38179087638855,22.59223175048828,0.6737161874771118,2.2753188610076904,-0.04756011441349983,,,,,,,,,
1739402279.5477724,0.5256747304881763,0.09605908905487398,-0.9533505340241446,-2.069111943346211,0.13774139478132214,2.137593640129485,-1.275382851364634,-0.0005165342351552471,-0.0003508554771513281,-0.0014303086149137258,-0.0004304083398976048,0.0008944671017295893,-2.5748043365489556e-05,-0.00023830967459518432,0.2411382496356964,-21.79654312133789,-2.38179087638855,22.63983917236328,0.6801248788833618,2.2615859508514404,-0.020094294100999832,,,,,,,,,
1739402279.5578055,0.5256764698205539,0.09606024731315634,-0.9533504899294721,-2.06910837765258,0.13773894639979412,2.1375951237101005,-1.2753828849568818,-0.000794365431548522,-0.00041746045454631425,0.0006980810077962722,0.000498226291872709,-0.001702902745337996,0.0006854925851175466,-0.0018070245581302507,0.2173345386981964,-21.82431411743164,-2.38179087638855,22.59223175048828,0.6737161874771118,2.2615859508514404,-0.020094294100999832,,,,,,,,,
1739402279.5687308,0.5256747669300436,0.0960611672949034,-0.9533456192115556,-2.0691101331966584,0.13773925120837732,2.1375928823954338,-1.2753807509886628,-0.00045555079677961683,0.0010246498245250057,0.0014059592302456585,-6.653593493566757e-06,0.0002824913862219748,-0.0003814363424229231,-0.0007163155706615654,0.2411382496356964,-21.82431411743164,-2.4095618724823,22.61603546142578,0.6801248788833618,2.2679946422576904,-0.03382720425724983,,,,,,,,,
1739402279.5788283,0.5256754589897082,0.09605520420523878,-0.9533508397671555,-2.0691045155244012,0.1377371165920068,2.137594489504888,-1.2753828849488067,-0.00024113424121862008,-0.00110395479766485,-0.0010638824162361705,0.001659368746035078,7.494395843009942e-05,4.248063118289909e-05,-0.0015643780118726517,0.2411382496356964,-21.72116470336914,-2.38179087638855,22.54065704345703,0.6801248788833618,2.2679946422576904,-0.020094294100999832,,,,,,,,,
1739402279.5888474,0.5256764695118988,0.09605678016054586,-0.9533508308265025,-2.0691104442860935,0.13774127778261108,2.137593655845374,-1.2753801974013597,3.341894981522811e-05,-0.00031910755765240207,-0.0001293862561858643,-0.001158922415837152,9.229157212740967e-05,0.0006121187257908532,0.00011918927008354452,0.2173345386981964,-21.77273941040039,-2.38179087638855,22.59223175048828,0.6673074960708618,2.2615859508514404,-0.03382720425724983,,,,,,,,,
1739402279.5998058,0.5256781820207416,0.09605886042300252,-0.9533506157561118,-2.0691083780034054,0.1377428033074583,2.137593640047226,-1.2753796371369654,0.0005394284081176489,0.0002951420589841931,-0.00031101483774820287,0.0005709566226793339,0.001206934781553415,0.0006700924234807077,0.0007140714380186511,0.1935308277606964,-21.79654312133789,-2.4095618724823,22.59223175048828,0.6801248788833618,2.2615859508514404,-0.04756011441349983,,,,,,,,,
1739402279.6107485,0.5256720441036812,0.09605545464142101,-0.9533504723877313,-2.0691101606687603,0.13773783376347765,2.1375953591547248,-1.2753804995947475,-0.0014422998610987851,-0.0005353538178792208,-0.0001900502785719621,-0.000650168815893397,0.0006266723963954887,-0.0007475947813488548,0.0016300423894949122,0.2689092457294464,-21.74496841430664,-2.38179087638855,22.61603546142578,0.6865335702896118,2.2753188610076904,-0.04023589566349983,,,,,,,,,
1739402279.6207829,0.5256747569671716,0.09605660019766724,-0.9533466445750891,-2.0691045155248666,0.13773913062913884,2.1375944040383157,-1.2753770111657379,-0.00015522185949274925,-0.0004520424002308969,0.0010691154178767948,0.0009318836243014253,-0.0008247318746570107,0.0012694584145771211,0.0015227551505363657,0.2411382496356964,-21.74496841430664,-2.4333655834198,22.54065704345703,0.6801248788833618,2.2551772594451904,-0.06678618490695953,,,,,,,,,
1739402279.6308074,0.5256747569792789,0.0960564653631397,-0.9533507498762884,-2.069111943660715,0.13774057479204216,2.1375936400472444,-1.2753761457471027,-0.0008699183989989351,0.0006250206612296017,-0.0004043297639957752,-0.0011985350925676737,0.0008392171058078725,-0.00039868997281705356,0.001564037292540651,0.2411382496356964,-21.77273941040039,-2.38179087638855,22.63983917236328,0.6608988046646118,2.2615859508514404,-0.07411040365695953,,,,,,,,,
1739402279.6417391,0.5256810160621643,0.09606106653365255,-0.9533522897209404,-2.0691119311359585,0.13774338251782914,2.1375929007017915,-1.2753773254536784,0.0015525347487662755,0.0010576680673608564,-0.0004268547588795276,-0.00122393357020936,0.0021566483237830374,-0.00020155693073098168,0.0006366816694241399,0.1935308277606964,-21.79654312133789,-2.35798716545105,22.63983917236328,0.6737161874771118,2.2679946422576904,-0.06678618490695953,,,,,,,,,
1739402279.6518195,0.5256767295518053,0.09605645387371477,-0.9533534210474062,-2.0691101603293918,0.13774435818506725,2.1375957098189438,-1.2753820188980454,0.0006606289852333193,0.0002126842375147989,-0.001614057561099885,-0.0006733896387227341,0.00200841391164958,0.0003606860729907878,-0.0001025915364947221,0.2173345386981964,-21.77273941040039,-2.38179087638855,22.61603546142578,0.6673074960708618,2.2817275524139404,-0.027418512850999832,0,0,0,0.000,0,0
1739402279.6628091,0.5256747569807471,0.09605821879228561,-0.9533474650145372,-2.0691119392758366,0.13774133197483057,2.1375943664143082,-1.2753850608563655,-0.0012802508050402616,-0.0011658519834653652,0.0006711503757912667,2.2987185686964857e-06,0.0015721585420369621,-1.7800058503504042e-05,0.0005062872924311746,0.2411382496356964,-21.79654312133789,-2.38179087638855,22.63983917236328,0.6544901132583618,2.2679946422576904,-0.027418512850999832,0,0,0,0.000,0,0
1739402279.6737986,0.5256747569792791,0.0960565062365732,-0.9533526924946752,-2.0691109543501227,0.13773894634740633,2.1375936302464416,-1.275381432912268,-0.0005345169135478574,-0.0020429413094927443,0.00042063795090127045,0.0008116963340962192,-0.00033910633880017557,0.0006300286153712746,-0.0005722837192086973,0.2411382496356964,-21.77273941040039,-2.38179087638855,22.63983917236328,0.6737161874771118,2.2753188610076904,-0.020094294100999832,0,0,0,0.000,0,0
1739402279.6857653,0.5256782860222616,0.09605737640166637,-0.9533507593183833,-2.069110160666899,0.13773894258950847,2.137594177282345,-1.2753781225019951,0.0012257608929529993,-0.0016369719878239265,-0.0014038195182670943,-4.373967644674722e-05,0.0009087899589409946,0.00022284208001922514,-0.00023345595209730527,0.1935308277606964,-21.77273941040039,-2.38179087638855,22.61603546142578,0.6737161874771118,2.2615859508514404,-0.06037749722599983,0,0,0,0.000,0,0
1739402279.6958277,0.5256805975152974,0.0960572572491226,-0.9533484272541191,-2.06911004060551,0.1377403168191635,2.1375967208529034,-1.2753773648630344,0.001391714620517613,-0.00037985313871576336,0.0006218270823950017,0.0002828138619169609,-0.0007113660895745558,0.0009658248578157231,0.0007438661422941334,0.1697271168231964,-21.77273941040039,-2.4095618724823,22.61603546142578,0.6801248788833618,2.2679946422576904,-0.06678618490695953,0,0,0,0.000,0,0
1739402279.7067785,0.5256781022248013,0.09606126413767992,-0.953348427252695,-2.0691107590353583,0.1377377806612104,2.1375937642585234,-1.275384742292579,0.00025787401969857866,0.00019335343253059904,0.0005061400074498519,0.0004459932562857604,-0.0004897704726036644,-0.000907662644005584,-0.0020064976389681643,0.1935308277606964,-21.79654312133789,-2.4095618724823,22.66364288330078,0.6865335702896118,2.2615859508514404,-0.04023589566349983,0,0,0,0.000,0,0
1739402279.716867,0.5256764694959563,0.0960628024603287,-0.9533502730391303,-2.069112172783302,0.1377397025609035,2.137592882393369,-1.275383181212525,-5.2954660333468855e-05,0.0014967946669392212,-9.97231613917024e-05,-0.0005817621743995536,-0.00048387572570430355,-0.0003762121110285667,-0.0009805206421442043,0.2173345386981964,-21.84811782836914,-2.38179087638855,22.63983917236328,0.6673074960708618,2.2679946422576904,-0.020094294100999832,0,0,0,0.000,0,0
1739402279.7277715,0.5256764645216007,0.09606324905425133,-0.9533466445752357,-2.0691061526013628,0.13773807189122134,2.1375936405558797,-1.275380503740619,0.00015974520598347361,0.0014301309911012327,0.0010158394881364017,0.0010974842652109503,-0.0009543640979119191,-0.0004889903781353608,0.00044830478879745374,0.2173345386981964,-21.82431411743164,-2.4333655834198,22.59223175048828,0.6801248788833618,2.2615859508514404,-0.04023589566349983,0,0,0,0.000,0,0
1739402279.7377822,0.525676469499926,0.09605642718299602,-0.9533526925461923,-2.0691083779540542,0.13773965001825744,2.137593006520258,-1.2753788801827508,1.6753816545975157e-05,-0.0014824802455469367,-0.0012814434362484438,-0.0001527033869417306,4.4903613784283165e-05,-0.0004733514235875168,0.00028909402685000615,0.2173345386981964,-21.77273941040039,-2.38179087638855,22.59223175048828,0.6801248788833618,2.2679946422576904,-0.05396880581974983,0,0,0,0.000,0,0
1739402279.7487442,0.5256764619536619,0.09605728119887397,-0.9533484012646521,-2.069108377991741,0.1377421395024317,2.137594757246557,-1.2753796378428293,0.0005435880222722144,-0.0008924092938951315,0.0007998927955741785,-0.00041121195205705475,0.0009584698904254371,0.0007708683358408825,-0.0005539937688221659,0.2173345386981964,-21.74496841430664,-2.4095618724823,22.59223175048828,0.6737161874771118,2.2615859508514404,-0.04756011441349983,0,0,0,0.000,0,0
1739402279.758757,0.5256764665564432,0.0960610167749281,-0.9533526956547346,-2.069104488052767,0.13773899759179772,2.1375973349210917,-1.275375230318083,-0.0004743283043995033,0.0008826974555657136,-0.0008623114647673801,0.0018707510544936088,0.00024357342244010278,6.683791442458229e-05,0.0018099294248129455,0.2173345386981964,-21.79654312133789,-2.38179087638855,22.54065704345703,0.6737161874771118,2.2679946422576904,-0.05396880581974983,0,0,0,0.000,0,0
1739402279.7688463,0.5256764696069579,0.09605674490088542,-0.9533516147278998,-2.069110160668295,0.13774041453717525,2.1375993429301374,-1.2753820189984075,-0.0007343308692214663,-0.0003414665328565171,-0.00034058222794627196,-9.231337243300014e-05,-0.0008285868447951937,0.002291561415737273,-0.001966207974050039,0.2173345386981964,-21.77273941040039,-2.35798716545105,22.61603546142578,0.6608988046646118,2.2551772594451904,-0.027418512850999832,0,0,0,0.000,0,0
1739402279.778878,0.5256781820207433,0.09605887796909389,-0.9533505070311195,-2.0691101606687603,0.13774369408806364,2.1375936540365155,-1.2753836380954817,0.0002995083012048282,0.0004261666385838467,0.0009959549124949176,-0.001843549187001897,0.002759813796709325,-0.0011871713655865874,-0.002412583547670255,0.1935308277606964,-21.79654312133789,-2.38179087638855,22.61603546142578,0.6608988046646118,2.2615859508514404,-0.013685601763427258,0,0,0,0.000,0,0
1739402279.7898076,0.525675795319501,0.09606038143176311,-0.9533565560123827,-2.0691101606687603,0.13773853973598574,2.137593645304223,-1.275379635743231,-0.00019683254020843335,0.00025885294331993395,-0.0022833575927454722,-0.0006835185008954318,-0.0006866405097131008,-0.00018438812635610826,-0.0010103850179739408,0.1935308277606964,-21.79654312133789,-2.3302161693573,22.61603546142578,0.6801248788833618,2.2615859508514404,-0.04756011441349983,0,0,0,0.000,0,0
1739402279.799843,0.5256755660579034,0.09605825785809174,-0.9533505075237194,-2.069110151511394,0.13774111984213916,2.1375934180930907,-1.2753785269700055,-0.0005247188731372261,-0.0008407492244936833,1.2369862232692284e-06,-0.00014681651807793605,0.0004818436800002222,7.775003397032356e-05,0.0004837971427609438,0.2689092457294464,-21.79654312133789,-2.38179087638855,22.61603546142578,0.6673074960708618,2.2679946422576904,-0.05396880581974983,0,0,0,0.000,0,0
1739402279.8107593,0.525674991961522,0.0960609877547089,-0.953348427585803,-2.0691101606687083,0.13773830180378163,2.137596978136376,-1.275377011648331,-0.0002095087383065671,0.00016466740813387285,0.0004751434889329371,-0.00011846090712631582,-0.00024228507872586926,0.00031602688050139344,0.0019183470772262822,0.2411382496356964,-21.79654312133789,-2.4095618724823,22.61603546142578,0.6801248788833618,2.2615859508514404,-0.06678618490695953,0,0,0,0.000,0,0
1739402279.820801,0.5256743237367778,0.09606283468626714,-0.9533488300793234,-2.0691136789574505,0.13774045581703123,2.137597737319662,-1.2753777697884978,0.0003587785874243619,0.0017435066581544144,0.00012446951579593308,-0.0004444657513661457,-0.0005845894388126928,0.0008123272862971436,0.001130678353682039,0.2173345386981964,-21.84811782836914,-2.4333655834198,22.63983917236328,0.6608988046646118,2.2551772594451904,-0.06037749722599983,0,0,0,0.000,0,0
1739402279.8317757,0.5256764695585561,0.09606306447984773,-0.9533522897689185,-2.0691101607135507,0.13773905896828953,2.137593641648744,-1.2753812613981486,-0.00021893092932749654,0.0005301863475547418,-0.00022002919565730942,0.00093543051469431,0.0008544302331629826,-9.499172898286965e-05,0.000618371804316602,0.2173345386981964,-21.82431411743164,-2.35798716545105,22.61603546142578,0.6737161874771118,2.2615859508514404,-0.03382720425724983,0,0,0,0.000,0,0
1739402279.841863,0.5256781820207425,0.09606310402206601,-0.9533505070425513,-2.0691121729340414,0.13774005422729368,2.1375929007018186,-1.2753840470650077,-0.00013555180246910931,0.0009538273321146074,0.00013292360840022946,-0.0005255967509047941,-0.001003022867867289,-0.00034840628507291904,-0.000522034937972916,0.1935308277606964,-21.82431411743164,-2.38179087638855,22.63983917236328,0.6673074960708618,2.2679946422576904,-0.0072769103571772575,0,0,0,0.000,0,0
1739402279.8538353,0.5256781819844027,0.09605817037655238,-0.9533495623620762,-2.069110160670056,0.13773743839459923,2.1375993426852555,-1.275383643100162,0.0003185583855247203,-0.0007023762403209754,-0.00022941988954532642,-0.0007612667135026767,-0.0017382861715726458,0.0023249611261691545,-0.0004607102456351801,0.1935308277606964,-21.79654312133789,-2.38179087638855,22.61603546142578,0.6865335702896118,2.2551772594451904,-0.013685601763427258,0,0,0,0.000,0,0
1739402279.8638575,0.5256764695000101,0.09606063002776072,-0.9533473703306727,-2.0691101605180213,0.13774000691831706,2.137592882414973,-1.275371502753209,-4.22131206734773e-05,0.00018431395394536923,0.0006093739652444884,-0.00017209608878597087,-0.0006037649179800237,-0.0011660921738767122,0.0028032308143148324,0.2173345386981964,-21.79654312133789,-2.4333655834198,22.61603546142578,0.6737161874771118,2.2679946422576904,-0.08051909506320953,0,0,0,0.000,0,0
1739402279.874841,0.5256727152135873,0.09605885160946073,-0.9533484272567919,-2.0691119402933227,0.1377381872828779,2.137594412121589,-1.2753792860597428,-0.001008064938231742,-0.0005783079176767223,0.00017570326840318982,-0.0010222177012761738,-0.0003138575489805993,0.0006262386858391997,-0.0026063257502592506,0.2411382496356964,-21.79654312133789,-2.4095618724823,22.63983917236328,0.6801248788833618,2.2551772594451904,-0.04756011441349983,0,0,0,0.000,0,0
1739402279.88575,0.5256781820092157,0.09605722223471848,-0.9533469233847826,-2.0691083755449147,0.13774074291830588,2.1375928828958823,-1.2753860238330423,0.0013431897649502948,-0.0004597488212584762,0.0008254103107171102,0.0007273361005936136,-0.0012242602599097676,-0.0011928221258032314,-0.0012841097930118197,0.1935308277606964,-21.77273941040039,-2.4333655834198,22.59223175048828,0.6865335702896118,2.2679946422576904,0.0064559997990727425,0,0,0,0.000,0,0
1739402279.895835,0.5256791783045887,0.0960572093218674,-0.9533515614731041,-2.0691083779916997,0.1377421438840688,2.1375928869657503,-1.2753820190602183,0.0014813921580230976,-0.00048589972813462316,-0.000566125042505321,0.0004585220874141646,0.00024725956781243666,-0.0011123815423504174,-0.0006164073459467615,0.1697271168231964,-21.77273941040039,-2.3302161693573,22.59223175048828,0.6737161874771118,2.2679946422576904,-0.027418512850999832,0,0,0,0.000,0,0
1739402279.9067454,0.5256747025216097,0.09605955139965504,-0.9533505073241385,-2.069106595314722,0.13773822256069457,2.137592883913312,-1.2753784877241843,-0.0009719359623676964,-7.933105361302068e-05,0.0007993252940645255,-0.0004197575475344391,0.00012088228163086555,-0.002280241131161856,-0.000469984439223245,0.2411382496356964,-21.77273941040039,-2.38179087638855,22.56842803955078,0.6801248788833618,2.2679946422576904,-0.05396880581974983,0,0,0,0.000,0,0
1739402279.9168274,0.5256752935247704,0.09605271672162867,-0.9533522897195743,-2.06910837765258,0.1377378990690948,2.137592059732972,-1.275375741137572,-0.0011533586995191298,-0.0001702713245300342,-0.0006162404238742234,-0.0003306803179798425,-0.0004197887986351174,-0.0003608153923481565,0.0008698153656468417,0.1935308277606964,-21.72116470336914,-2.35798716545105,22.59223175048828,0.6865335702896118,2.2753188610076904,-0.08051909506320953,0,0,0,0.000,0,0
1739402279.9278085,0.5256747570699708,0.09605954253346216,-0.9533543736547351,-2.0691101606687585,0.13773830131088632,2.137593804936506,-1.2753796778801894,-0.001180136403752882,0.0002002935824861519,-0.00134686136738294,-0.00037550834864032606,-0.0015190471566344575,0.0003314528162203558,-0.0006583979938226008,0.2411382496356964,-21.77273941040039,-2.3302161693573,22.61603546142578,0.6801248788833618,2.2615859508514404,-0.07411040365695953,0,0,0,0.000,0,0
1739402279.9387505,0.525678182020742,0.0960629942125537,-0.9533484010117919,-2.0691090739031472,0.1377423193902895,2.137593644683278,-1.275383642635584,0.001066519669288602,0.0012236941509858926,0.000798670971511277,0.0006997068336460796,0.0007122010638523957,-0.001756026541968655,-0.0016132661778327899,0.1935308277606964,-21.82431411743164,-2.38179087638855,22.59223175048828,0.6544901132583618,2.2615859508514404,-0.013685601763427258,0,0,0,0.000,0,0
1739402279.9498367,0.5256764695000103,0.09605642728719183,-0.9533487509953464,-2.069104515536652,0.13773818285351022,2.1375960094038065,-1.275381979814362,0.00012779734979427817,-0.0006342546716588623,0.00019666370987193955,0.0004857262108626761,-0.0009358316834122821,0.0004785575745623982,-0.0009905560085253357,0.2173345386981964,-21.77273941040039,-2.4095618724823,22.54065704345703,0.6801248788833618,2.2551772594451904,-0.027418512850999832,0,0,0,0.000,0,0
1739402279.9607644,0.5256760359264808,0.09605920611473759,-0.953348427253304,-2.069104478744662,0.13773894051291705,2.137594876294654,-1.2753835902897561,-0.0003729838571238113,0.0006810018283541822,0.00014569039618290302,0.0012540791268034178,-0.001346908251743113,0.0004382989302656425,-0.0013981699594704505,0.1935308277606964,-21.79654312133789,-2.4095618724823,22.54065704345703,0.6737161874771118,2.2615859508514404,-0.013685601763427258,0,0,0,0.000,0,0
1739402279.9717402,0.5256721299112965,0.09605840377420012,-0.9533420538576141,-2.0691101606685525,0.1377398180910029,2.1375929236021864,-1.275386881789778,-0.0013460922322185037,-0.0016727818001605087,0.001953807389203261,-5.827855453916005e-05,-0.0009144678851672877,-0.0007131511908187969,-0.0019071805599226326,0.2411382496356964,-21.79654312133789,-2.4571692943573,22.61603546142578,0.6673074960708618,2.2679946422576904,0.012864691205322742,0,0,0,0.000,0,0
1739402279.982777,0.5256765590123852,0.09606496201170969,-0.9533484156494161,-2.0691071926645126,0.13774244804279817,2.1375944394248054,-1.275374523894362,0.00014395811714318444,0.0014410625927135578,-0.0006238618672208205,0.0006812667210321821,-4.8812479811952776e-05,-0.0006966019224115244,0.001278753126071776,0.2173345386981964,-21.84811782836914,-2.4095618724823,22.61603546142578,0.6801248788833618,2.2551772594451904,-0.05396880581974983,0,0,0,0.000,0,0
1739402279.9928088,0.525678155637291,0.09605911544075064,-0.9533504810064392,-2.069111237913086,0.13774214580213967,2.137592140171037,-1.2753764587423442,0.00029992131185022623,-8.443686471389217e-05,-0.000507050526831532,-0.0003874634249576186,0.0010435661051537595,-0.00176558163379857,0.0012615962179709365,0.1935308277606964,-21.79654312133789,-2.38179087638855,22.61603546142578,0.6737161874771118,2.2753188610076904,-0.04756011441349983,0,0,0,0.000,0,0
1739402280.003775,0.5256799205417038,0.09606333999065789,-0.9533526925460453,-2.069111613686664,0.13774076638407975,2.137592937558064,-1.27538051050535,0.0018159010219780686,6.827632391761207e-05,-0.0011049884145516958,0.0004960277713072686,0.000858477484007851,-0.0005611076618372353,-0.00030564634002221765,0.1697271168231964,-21.82431411743164,-2.38179087638855,22.63983917236328,0.6673074960708618,2.2679946422576904,-0.04023589566349983,0,0,0,0.000,0,0
1739402280.014828,0.5256710460817765,0.0960574852446365,-0.9533505070548878,-2.0691090667546645,0.13773889368139006,2.1375944160787865,-1.2753851521236328,-0.0020874866582659296,-0.00024021658836930122,0.00013948846659276893,0.0012173820793947225,-0.001042802012489603,-0.0007309371784263939,-0.0012578999138356352,0.2927129566669464,-21.77273941040039,-2.38179087638855,22.59223175048828,0.6801248788833618,2.2551772594451904,-0.0008682189509272575,0,0,0,0.000,0,0
1739402280.025762,0.5256765451186199,0.09606102403904744,-0.9533505070425505,-2.06910659531861,0.1377392537042533,2.137593500209419,-1.275381941359536,-0.0010092988750520354,-0.00031289767967150356,0.0006183372165121558,0.0003439957323729012,-0.0012993286574641137,-0.0016396072434863,0.0008801901298868566,0.2411382496356964,-21.79654312133789,-2.38179087638855,22.56842803955078,0.6801248788833618,2.2753188610076904,-0.05396880581974983,0,0,0,0.000,0,0
1739402280.0357687,0.5256727591757059,0.09606085294896138,-0.953352535551255,-2.0691043703895864,0.13773981713404812,2.137593130661217,-1.2753795857283672,-2.064553381458901e-05,0.0005019585852447926,-0.0013052702133451043,0.0009265946994584644,0.00021348209415334408,0.0006937087689923645,0.0002956813537695757,0.2689092457294464,-21.82431411743164,-2.35798716545105,22.56842803955078,0.6673074960708618,2.2753188610076904,-0.04756011441349983,0,0,0,0.000,0,0
1739402280.047719,0.5256729135689874,0.09605738255271218,-0.9533466718916954,-2.0691101719562077,0.13773779814728318,2.137592512520137,-1.2753788806669732,0.00017448539677820637,-0.0010284948399382331,0.0005220845089586659,-0.00014213081484381267,-0.00032174875366538825,-0.0001094959954301897,-0.00036084102796410497,0.2689092457294464,-21.74496841430664,-2.4333655834198,22.61603546142578,0.6865335702896118,2.2753188610076904,-0.05396880581974983,0,0,0,0.000,0,0
1739402280.0577703,0.5256747530555658,0.09605954739698351,-0.9533484186230675,-2.0691091716732366,0.13774215244328258,2.1375970333629866,-1.2753850402002285,0.0002133855368154883,-2.601959179284472e-07,0.0022814993814582437,0.0002747242467679125,0.00023099344925854327,0.0004730890985056332,-0.0011634457509260665,0.2411382496356964,-21.77273941040039,-2.4095618724823,22.61603546142578,0.6737161874771118,2.2615859508514404,-0.0008682189509272575,0,0,0,0.000,0,0
1739402280.067799,0.5256705341192803,0.09605644020453274,-0.9533448618985106,-2.0691082955586935,0.13773970405987251,2.137596838579104,-1.275381960286766,-0.001584301956917554,-2.1935539119569584e-05,0.0021282208025864406,4.9181076277856185e-05,-0.0008129908116895707,0.0011924067231739123,-0.0016566696389794986,0.2689092457294464,-21.77273941040039,-2.4571692943573,22.59223175048828,0.6673074960708618,2.2753188610076904,-0.0008682189509272575,0,0,0,0.000,0,0
1739402280.0778193,0.5256777399062638,0.09605668319186861,-0.9533485047895064,-2.069109186454992,0.13774215244127713,2.1375928885736317,-1.275382989558916,0.001017710977560583,0.00047323164764496225,0.00096970542735074,-0.0006591263007113173,-0.0003958020833361725,-0.0006512995098406116,-0.0009396934464617276,0.1697271168231964,-21.74496841430664,-2.4095618724823,22.59223175048828,0.6737161874771118,2.2679946422576904,-0.020094294100999832,0,0,0,0.000,0,0
1739402280.0887654,0.5256747694614916,0.09606125549024051,-0.9533504983770702,-2.0691083780054327,0.13774045635695603,2.137597782880488,-1.2753843610336322,-0.00011086572502456385,-0.0009887039889259475,1.1082229959870414e-05,-0.00037435132182317866,0.0006730862550734255,-0.0003241423772798338,-0.0026835374994744884,0.2411382496356964,-21.79654312133789,-2.38179087638855,22.59223175048828,0.6608988046646118,2.2551772594451904,-0.0072769103571772575,0,0,0,0.000,0,0
1739402280.0988355,0.525678182020812,0.09606131688720274,-0.9533505070425016,-2.06910612527957,0.13773822232592775,2.137595354369043,-1.2753828848495588,0.0010517153413176544,-0.0007410153551405607,-0.0004975167496523347,0.00040636653041873456,-0.0006291115615729999,0.0003564341330017322,-0.0021993780754296175,0.1935308277606964,-21.79654312133789,-2.38179087638855,22.59223175048828,0.6801248788833618,2.2753188610076904,-0.020094294100999832,0,0,0,0.000,0,0
1739402280.1107466,0.525678415987823,0.09605848538681125,-0.953348427252695,-2.0691083779790245,0.13774396032753344,2.137598849732429,-1.2753820190602176,0.00076295310373216,-0.00013525150930509088,-0.00010127083944993988,0.00016195635647512618,0.00044492168626610376,0.0018721996007086735,0.00014723706601041357,0.1935308277606964,-21.79654312133789,-2.4095618724823,22.59223175048828,0.6673074960708618,2.2551772594451904,-0.027418512850999832,0,0,0,0.000,0,0
1739402280.1208048,0.5256768972061514,0.09606025200119754,-0.9533522868306386,-2.0691065922622665,0.13774045632662155,2.1375959363960355,-1.275382372272928,0.0004077645909484109,-0.00010892472628233645,-0.0006054290291588077,0.0016164474249192816,-0.00020802993324846287,0.0008143263318550019,-0.0010541230641309884,0.2411382496356964,-21.82431411743164,-2.35798716545105,22.56842803955078,0.6608988046646118,2.2551772594451904,-0.027418512850999832,0,0,0,0.000,0,0
1739402280.1317725,0.5256809106366721,0.09605821919065623,-0.9533522897195533,-2.0691066443720256,0.1377428427896874,2.1375936812639726,-1.2753878981302365,0.0009896344179856098,-0.0006790216938059196,0.0002642084232545872,0.0010397731586248406,0.00015266034741498658,0.0008988919611746648,-0.0033711129816063946,0.1935308277606964,-21.79654312133789,-2.35798716545105,22.56842803955078,0.6801248788833618,2.2615859508514404,-0.013685601763427258,0,0,0,0.000,0,0
1739402280.1417973,0.5256775766222557,0.09606299708995587,-0.9533456192116522,-2.0691101606695907,0.13774081293937235,2.137593047220354,-1.2753781618405966,0.0011225715362531054,0.0004533133664264799,0.0006117008186860559,0.00015665262255324343,-0.0008178431736462372,-0.001098127959508469,0.00014989008999451213,0.2411382496356964,-21.82431411743164,-2.4095618724823,22.61603546142578,0.6608988046646118,2.2679946422576904,-0.06037749722599983,0,0,0,0.000,0,0
1739402280.1527922,0.5256765599585865,0.09606331485889265,-0.9533504694388916,-2.069106595314722,0.13774129822070819,2.1375932715779284,-1.275376498966468,1.3233430937359446e-06,0.0011287872774473737,0.0006559373479751069,0.00024343870263514325,0.0012638134371721387,-0.0011147656743896149,0.00031004999346027104,0.2173345386981964,-21.82431411743164,-2.38179087638855,22.56842803955078,0.6938577890396118,2.2679946422576904,-0.07411040365695953,0,0,0,0.000,0,0
1739402280.1637583,0.5256805965397906,0.09606062125618606,-0.9533491297534581,-2.0691086839838078,0.13774245243758898,2.137593653840446,-1.275381222154283,0.0019292066195453642,-0.000412246683844965,-0.0001557905131321378,0.0015872423194788895,4.753367102680757e-05,-0.0007821392745082546,0.00011093128999657199,0.1697271168231964,-21.79654312133789,-2.4095618724823,22.59223175048828,0.6801248788833618,2.2615859508514404,-0.03382720425724983,0,0,0,0.000,0,0
1739402280.1738253,0.5256740417354301,0.09605931444801105,-0.9533522897314666,-2.0691101635083653,0.1377413816896905,2.137593149459799,-1.2753819799752026,-0.0006867405297891823,-0.0013772962270891791,-0.0007857551280832479,6.461514920184866e-05,-0.0005405476223736517,0.000867073401487616,-0.00035679484888095914,0.2411382496356964,-21.77273941040039,-2.35798716545105,22.61603546142578,0.6801248788833618,2.2753188610076904,-0.027418512850999832,0,0,0,0.000,0,0
1739402280.1847496,0.5256747570109073,0.09606134339890474,-0.9533484243280981,-2.0691101610886906,0.1377381960165535,2.1375943992398385,-1.275377821997951,1.907387653089459e-05,0.0010186558082962652,0.0011460184072356555,-0.00010715027560496367,-0.0005035486995837209,0.00015572630920835826,0.0014873707700702404,0.2411382496356964,-21.79654312133789,-2.4095618724823,22.61603546142578,0.6801248788833618,2.2551772594451904,-0.05396880581974983,0,0,0,0.000,0,0
1739402280.194782,0.5256747829796607,0.09605547073769229,-0.953352289719421,-2.0691101606687816,0.13774213927813245,2.1375928869658196,-1.2753788670470372,0.00032205299764697987,-0.001643564445463387,-0.00011099117674162303,-0.0007043670246730143,0.0004614828918171517,-0.0006472788138909725,-0.0005737539776278557,0.2411382496356964,-21.74496841430664,-2.35798716545105,22.61603546142578,0.6737161874771118,2.2679946422576904,-0.05396880581974983,0,0,0,0.000,0,0
1739402280.2057846,0.5256782600219305,0.09605520798766523,-0.9533505881351766,-2.0691083779917414,0.13774006136678407,2.137592888491978,-1.275381261400115,0.0009444723831201189,-0.0006624058492513389,-0.0005339180687696861,0.0005239081186699653,0.00013588543860909618,-0.0017081047949092714,-0.000812541245999541,0.1935308277606964,-21.72116470336914,-2.38179087638855,22.59223175048828,0.6737161874771118,2.2679946422576904,-0.03382720425724983,0,0,0,0.000,0,0
1739402280.216813,0.5256764695013313,0.09605654154368178,-0.9533485091979633,-2.0691045155248666,0.13773986978975256,2.137596977907348,-1.2753828849574507,-0.0004117260082760825,-0.0009438631973251258,0.00112176999480761,0.001645342512710461,0.0010823841894379614,-9.03957089501654e-05,-0.0013250594332636719,0.2173345386981964,-21.77273941040039,-2.4095618724823,22.54065704345703,0.6673074960708618,2.2615859508514404,-0.020094294100999832,0,0,0,0.000,0,0
1739402280.2277853,0.5256781702469845,0.09605670350990125,-0.9533484273641927,-2.0691083779917414,0.137743324012729,2.1375940308368127,-1.27538515777629,0.0003670917095818942,-4.792284486776468e-05,0.0004772072633238627,-0.00018691880861152924,0.0031053031309447583,0.0005379690919840643,-0.0016812761529612754,0.1935308277606964,-21.77273941040039,-2.4095618724823,22.59223175048828,0.6737161874771118,2.2615859508514404,-0.0008682189509272575,0,0,0,0.000,0,0
1739402280.2387393,0.5256798933402527,0.0960623010959606,-0.9533505070795624,-2.069108373582639,0.13773970256914853,2.1375933815207975,-1.2753844228719247,0.001503361015872387,0.002892456881390452,-0.000409989359791733,0.0003776101373965765,-0.0007615535331164024,-0.0007547248729179968,-0.0005035069645558866,0.1697271168231964,-21.82431411743164,-2.38179087638855,22.59223175048828,0.6673074960708618,2.2679946422576904,-0.03382720425724983,0,0,0,0.000,0,0
1739402280.2487638,0.5256788840309818,0.09606398728450093,-0.9533530182207841,-2.0691098308904357,0.1377397113187273,2.137594910528195,-1.2753815481634783,0.00015784395272101063,0.0019557473789011516,-0.002320372854638651,-0.0002514133013167305,-0.00041086037926460625,-0.0009751148806266912,-1.3387854353879864e-05,0.1935308277606964,-21.84811782836914,-2.35798716545105,22.61603546142578,0.6673074960708618,2.2551772594451904,-0.027418512850999832,0,0,0,0.000,0,0
1739402280.259784,0.5256798945533612,0.09605760232078327,-0.953344541448181,-2.0691041886885086,0.13774062590770889,2.1375975295624734,-1.275385157929821,0.0016802373895891858,-0.0007884804349403001,0.0023305912618160054,0.00189402759222595,-0.00047990143176348084,0.00019215835082454587,-0.0008861783981851799,0.1697271168231964,-21.74496841430664,-2.4333655834198,22.54065704345703,0.6865335702896118,2.2615859508514404,-0.0008682189509272575,0,0,0,0.000,0,0
1739402280.2697861,0.525677171510271,0.09606333114128426,-0.9533505080299941,-2.069108377989896,0.1377434103404715,2.137597736267603,-1.275381457629423,0.0013294602511255088,0.0010879249040038799,-0.0002762585338894377,4.4223952435282884e-05,0.0017473058560940847,0.00037871424870121055,0.0007741993866966916,0.2173345386981964,-21.82431411743164,-2.38179087638855,22.59223175048828,0.6673074960708618,2.2551772594451904,-0.03382720425724983,0,0,0,0.000,0,0
1739402280.280715,0.5256743237367613,0.09606238915251675,-0.9533505070425561,-2.0691076362450507,0.13773830181671154,2.137598216205545,-1.2753788801838584,0.00021860684037399187,0.0015180030108506606,-8.876543356808579e-05,0.0011845407810854615,-0.0004954469638014503,0.0016999106675912865,0.0005824078020632537,0.2173345386981964,-21.82431411743164,-2.38179087638855,22.59223175048828,0.6801248788833618,2.2615859508514404,-0.05396880581974983,0,0,0,0.000,0,0
1739402280.2908015,0.5256747915010974,0.09605741299598795,-0.953348427252695,-2.069110444273532,0.13773930030506878,2.1375965928938174,-1.2753781225226726,-0.0009171047073264324,-0.0003431005074100859,0.0007389537973550966,-1.3555785568775974e-05,0.00044663855678116194,0.0008217919003737972,0.0015374766718737744,0.2411382496356964,-21.77273941040039,-2.4095618724823,22.59223175048828,0.6737161874771118,2.2679946422576904,-0.06037749722599983,0,0,0,0.000,0,0
1739402280.3008213,0.5256747569798637,0.09605927622661022,-0.9533484275858002,-2.0691084087531713,0.13774137772311798,2.137596984244574,-1.275377768825446,-0.00045975257994022417,-0.00045150992314902364,0.0008879013191620754,0.00018119520771643584,-0.0005514867290966542,0.00017696845100318657,0.0010144043953293842,0.2411382496356964,-21.77273941040039,-2.4095618724823,22.59223175048828,0.6801248788833618,2.2615859508514404,-0.06037749722599983,0,0,0,0.000,0,0
1739402280.3108492,0.5256764695000103,0.09606330585225673,-0.9533522634786488,-2.069110160669281,0.1377417377418393,2.137597038165085,-1.2753774811410643,0.00024570927358092743,0.0009071038385693433,-0.00030939140561661734,-0.00037023646746867247,0.001380331935193904,-0.0002807353748802354,0.000328235775573208,0.2173345386981964,-21.82431411743164,-2.3302161693573,22.61603546142578,0.6801248788833618,2.2615859508514404,-0.06678618490695953,0,0,0,0.000,0,0
1739402280.3228216,0.5256747569792791,0.09606497432309886,-0.9533487509834578,-2.0691101331966606,0.13773911754792614,2.1375920760884184,-1.275382191184086,-0.0003748137600050497,0.002781151851539652,0.00010704813373060249,-0.00032510395513692635,0.0011098230422654427,-5.233627828891719e-05,-0.00030715859646384346,0.2411382496356964,-21.84811782836914,-2.4095618724823,22.61603546142578,0.6737161874771118,2.2753188610076904,0.012864691205322742,0,0,0,0.000,0,0
1739402280.3337216,0.5256727551138404,0.09606231283232566,-0.9533466534643481,-2.069110160668605,0.13774587343099734,2.1375969846908154,-1.2753836425917264,-0.0013822982606678904,0.0013338738317873297,0.0004114849231149707,-0.00033353424839541884,0.0012564727119075535,-0.00011705940453625384,-0.0011385268069357515,0.2689092457294464,-21.82431411743164,-2.4333655834198,22.61603546142578,0.6544901132583618,2.2615859508514404,-0.013685601763427258,0,0,0,0.000,0,0
1739402280.3437443,0.5256788840309801,0.09606014198079975,-0.9533505160364428,-2.0691101798556235,0.1377415354284191,2.1375933953880466,-1.2753836426176388,0.0003114816774914957,0.00042733047137218566,-0.0010808872734986168,0.00021793684570975793,-4.0541715894796626e-05,0.0008248754506941684,-0.00043601332260522667,0.1935308277606964,-21.82431411743164,-2.38179087638855,22.61603546142578,0.6608988046646118,2.2679946422576904,-0.013685601763427258,0,0,0,0.000,0,0
1739402280.353806,0.5256764707958682,0.0960564534986874,-0.9533466445758283,-2.0691043609176085,0.1377397378268797,2.1375970330297123,-1.2753828830193836,-0.00043317681458720364,-0.0014785273588439592,7.698178017162202e-05,0.001596865044872045,-0.0003318035946024132,7.591901383409296e-05,-0.0003170806465164107,0.2173345386981964,-21.77273941040039,-2.4333655834198,22.56842803955078,0.6673074960708618,2.2615859508514404,-0.020094294100999832,0,0,0,0.000,0,0
1739402280.3647544,0.5256764695000176,0.0960609966883092,-0.9533487780125387,-2.069109419329371,0.13773986933762114,2.137598108861167,-1.275384399631684,-0.0005805774996756677,0.0015559333223584707,-0.00032989446629793186,-0.00027584988459928314,0.00040815268631923295,0.0006763141465332501,-0.000605879339455248,0.2173345386981964,-21.79654312133789,-2.4095618724823,22.61603546142578,0.6673074960708618,2.2615859508514404,-0.0072769103571772575,0,0,0,0.000,0,0
1739402280.3748686,0.525673723832103,0.09606334132392925,-0.9533508295547188,-2.0691065965368014,0.13774000871460435,2.1375941368069404,-1.275380518760048,-0.0011431595239605986,0.0021108516697077064,-0.0003801843569184577,0.00010462720906475817,0.0004717538653328935,0.00025885640969676584,0.0005017969198617988,0.2411382496356964,-21.82431411743164,-2.38179087638855,22.56842803955078,0.6737161874771118,2.2615859508514404,-0.04023589566349983,0,0,0,0.000,0,0
1739402280.3857465,0.5256788124090868,0.09605927621594289,-0.9533481932498816,-2.0691112015990907,0.13774156889739408,2.1375966955581442,-1.2753784746422603,0.0016978509019496763,0.0002813118802291385,2.285846918160579e-05,-0.0006660832216162384,0.0006483187871627338,0.0004109693973299233,0.0011021723879661293,0.2173345386981964,-21.77273941040039,-2.4095618724823,22.63983917236328,0.6544901132583618,2.2487685680389404,-0.05396880581974983,0,0,0,0.000,0,0
