IITGN-Robotics/Franka_IITGN_ROBOTICS/franka_ros/franka_iitgn/data/b_44.csv
time,fr3_joint1_pos,fr3_joint2_pos,fr3_joint3_pos,fr3_joint4_pos,fr3_joint5_pos,fr3_joint6_pos,fr3_joint7_pos,fr3_joint1_vel,fr3_joint2_vel,fr3_joint3_vel,fr3_joint4_vel,fr3_joint5_vel,fr3_joint6_vel,fr3_joint7_vel,fr3_joint1_eff,fr3_joint2_eff,fr3_joint3_eff,fr3_joint4_eff,fr3_joint5_eff,fr3_joint6_eff,fr3_joint7_eff,flexpin1,flexpin2,flexpin3,Force,ContactMic,ContactMic_gt
1739402306.8193996,0.5256842936035571,0.09599854218040241,-0.9533487644847639,-2.0689911301831003,0.1377049359709655,2.1375729430034984,-1.2753683577774295,-0.0006304148919299063,0.0013825603264922862,-0.0010624924021481303,0.0014593503103591768,0.0004002654410926257,0.0012315453596595512,0.0010159427939212295,0.2411382496356964,-21.87192153930664,-2.4095618724823,22.56842803955078,0.6865335702896118,2.2753188610076904,-0.06678618490695953,,,,,,,,,
1739402306.8294368,0.525685304232913,0.0960072115210651,-0.9533426811071323,-2.0689967880801436,0.13770819718031435,2.1375738089007306,-1.2753802325588592,-0.00013303928588575295,-0.000343723290459736,0.0009235836386395145,-0.00041732854025264786,0.0010127910117200504,-0.0001377745738326567,-0.0011228509563044541,0.2173345386981964,-21.89969253540039,-2.48494029045105,22.63983917236328,0.6801248788833618,2.2679946422576904,-0.0008682189509272575,,,,,,,,,
1739402306.8395314,0.5256861031003156,0.09602187088907994,-0.9533442958729699,-2.06900063614346,0.13770387220808744,2.1375729436495203,-1.2753788742433978,-0.0006868967173908039,0.0010640359089915629,-0.00018855101068826323,-0.0010066500125697248,-2.9200525224125176e-05,-4.862179842846483e-05,-0.0013386812477929311,0.2173345386981964,-21.97507095336914,-2.4333655834198,22.66364288330078,0.6865335702896118,2.2753188610076904,-0.013685601763427258,,,,,,,,,
1739402306.8504395,0.5256877187655459,0.09602571952441126,-0.9533399352683549,-2.0690000494528804,0.13770315982711048,2.137572943003509,-1.2753733541510903,0.00036278965405395257,-6.93562136719623e-05,6.447281383033895e-05,3.8938653103232125e-05,-0.0016736140121745777,-0.0004441508125467218,0.0002766393401024542,0.1935308277606964,-21.92349624633789,-2.4571692943573,22.66364288330078,0.6938577890396118,2.2753188610076904,-0.06037749722599983,,,,,,,,,
1739402306.8613691,0.5256851490938875,0.09602797178615545,-0.9533388948081148,-2.068999849296483,0.13770335874568354,2.1375729430034984,-1.2753764935848546,-4.3549163824761414e-05,0.0006217195782916079,0.0014303169309766225,-0.0005931651691731896,7.078884879702259e-05,-0.00015090379101630606,0.00010505996412200875,0.1935308277606964,-21.95126724243164,-2.4571692943573,22.63983917236328,0.6938577890396118,2.2753188610076904,-0.03382720425724983,,,,,,,,,
1739402306.8714578,0.5256860061996568,0.09602349757450929,-0.9533452691219444,-2.0690020111650065,0.13770386825328337,2.1375729430034984,-1.2753773684262155,0.00022782868114319378,-0.0021343189416982086,0.0002572085472700395,0.00017381303519025738,-0.0006361313264505179,-0.00017330235771319795,0.0002969189662300702,0.2173345386981964,-21.84811782836914,-2.4095618724823,22.66364288330078,0.6865335702896118,2.2753188610076904,-0.027418512850999832,,,,,,,,,
1739402306.8833327,0.5256859975763808,0.09602358834576474,-0.9533473736757703,-2.0689974018307464,0.137703867813869,2.1375738089007306,-1.2753701752373672,0.0007199110653322091,0.0008471989818504537,-0.0005092830454037433,-0.0005234830145423194,-0.002189488810411387,-0.00047621848723745507,0.002169774430838256,0.2173345386981964,-21.84811782836914,-2.38179087638855,22.59223175048828,0.6865335702896118,2.2679946422576904,-0.06037749722599983,,,,,,,,,
1739402306.8934007,0.5256856130600256,0.09601437987963524,-0.9533512453714068,-2.0689945477582103,0.1377070797060128,2.1375729430034984,-1.2753741250007913,0.00042223892990187297,-0.0013859631694040407,-0.001271635649531385,-0.0004239751786337668,-0.0008473415902838881,-0.0015232307392984744,-0.0005734034105940436,0.1935308277606964,-21.72116470336914,-2.35798716545105,22.56842803955078,0.6865335702896118,2.2753188610076904,-0.05396880581974983,,,,,,,,,
1739402306.9043777,0.525687718716353,0.09601236923505356,-0.9533543693965324,-2.068994539939243,0.1377057377446867,2.1375745709214597,-1.2753715368533975,0.0009523115755955868,-0.0003939285610629488,-0.0016910011874250708,-0.0002634845741554326,-0.00045608398889298045,-0.0007422896035517211,0.002102514297479125,0.1935308277606964,-21.69339370727539,-2.3302161693573,22.56842803955078,0.6801248788833618,2.2615859508514404,-0.06678618490695953,,,,,,,,,
1739402306.914404,0.5256853042329129,0.09601221880777899,-0.9533561261860622,-2.0689906852730595,0.13770590282163547,2.1375738526688175,-1.2753761890944948,0.0009153052870017072,-0.0002361720243833109,-0.001601074666677038,0.0023075192706999144,-0.00033045665651269666,-0.0007234801157244553,0.0004749202658285046,0.2173345386981964,-21.72116470336914,-2.3064124584198,22.51685333251953,0.6737161874771118,2.2679946422576904,-0.027418512850999832,,,,,,,,,
1739402306.9244506,0.5256822697693215,0.09601164140791028,-0.9533561521860039,-2.068992458792844,0.13770865253491393,2.137578559588192,-1.27537696832151,0.00020203052419219937,-0.0005293331476073469,-0.0002295008037696668,0.0008295488116278893,0.0005609674386401026,-0.00038265713462984775,-0.0009317056963151833,0.2689092457294464,-21.69339370727539,-2.3064124584198,22.54065704345703,0.6865335702896118,2.2679946422576904,-0.03382720425724983,,,,,,,,,
1739402306.9354217,0.5256842937105056,0.09601224073504663,-0.9533523709972542,-2.0689962872464878,0.13771045844726124,2.1375800354015144,-1.2753803895671079,0.001556888280579135,0.0008509501930788532,0.0008221151414901874,-0.0012824792939597183,0.00018587267638801289,-0.0002938254368489588,-0.0013719532752798414,0.2411382496356964,-21.72116470336914,-2.35798716545105,22.59223175048828,0.6673074960708618,2.2551772594451904,-0.0008682189509272575,,,,,,,,,
1739402306.9473624,0.5256822953536003,0.09601573477071593,-0.9533505083754303,-2.0689922033794925,0.13770667386765117,2.1375775761945843,-1.275378874246057,-2.4951420941867516e-05,0.0011488579223847724,-6.742997696553281e-05,-0.0005724919392888909,0.0012503064280665818,-1.1321701170114546e-05,-0.0012063575822203487,0.2689092457294464,-21.74496841430664,-2.38179087638855,22.54065704345703,0.6673074960708618,2.2753188610076904,-0.013685601763427258,,,,,,,,,
1739402306.9573631,0.5256841810541273,0.09601702979456847,-0.9533484312499657,-2.0689924546970806,0.13770866590952266,2.137577698292365,-1.2753725964914526,-6.728415162433215e-05,0.00023134127572941958,0.0009603180698411218,0.00019921113464754423,0.0006076072418930189,-0.00022772228181841157,0.0015380286647474711,0.2411382496356964,-21.77273941040039,-2.4095618724823,22.54065704345703,0.6865335702896118,2.2753188610076904,-0.06678618490695953,,,,,,,,,
1739402306.9673753,0.5256842144316095,0.09601663005423318,-0.9533522897197727,-2.0689962957495487,0.1377051590377505,2.13757695322982,-1.275374852028644,-7.403272467945604e-05,0.0005881575380819624,-0.0007032765189685492,0.0005552617799709278,-5.002544836653708e-05,-0.0004481977442217902,0.0010254474316327732,0.2411382496356964,-21.79654312133789,-2.35798716545105,22.59223175048828,0.6801248788833618,2.2817275524139404,-0.04756011441349983,,,,,,,,,
1739402306.9774454,0.5256860023908186,0.09602134833660761,-0.9533466446126877,-2.0689981039364387,0.13770866542198046,2.1375793344478713,-1.275373354150992,0.0009656745963806548,0.00026094649038168536,0.00048666200822351205,-0.00039190142629185127,0.0009867468486743419,0.0001642323179178368,0.0014434828280283267,0.2173345386981964,-21.84811782836914,-2.4333655834198,22.61603546142578,0.6865335702896118,2.2615859508514404,-0.06037749722599983,,,,,,,,,
1739402306.9884148,0.5256859194681783,0.09602508887554291,-0.953345307100095,-2.069001669290621,0.13771099280590612,2.1375755403796375,-1.2753725964914524,-0.0002552469350752149,-0.0005194892183203995,0.0004161381649149397,-0.00026471463977141064,0.0005683009226011947,-0.0009208914438458394,0.0005387067104827676,0.2173345386981964,-21.89969253540039,-2.4095618724823,22.66364288330078,0.6938577890396118,2.2817275524139404,-0.06678618490695953,,,,,,,,,
1739402306.998425,0.5256856220881968,0.09603297023259104,-0.9533480863055444,-2.069001669290621,0.13771018127177892,2.137578577210499,-1.2753757353684794,-2.958851815427349e-05,0.0019030124974179865,-0.0012707871186317624,-0.0009678576300852714,0.0014233735292247876,0.001290753366343398,0.000240246342507301,0.2173345386981964,-21.97507095336914,-2.4095618724823,22.66364288330078,0.6737161874771118,2.2679946422576904,-0.04023589566349983,,,,,,,,,
1739402307.009404,0.5256839557109971,0.09602596742406909,-0.9533442149788351,-2.0690003383340203,0.13770778703516745,2.1375777092755066,-1.2753772550492868,-0.0010678637278193756,-0.0010812567024085756,-0.00016435689562134342,0.001102951725222518,-0.0011672592111851695,-0.00046189291113615837,-0.0015932377236846907,0.2411382496356964,-21.87192153930664,-2.4333655834198,22.61603546142578,0.6938577890396118,2.2753188610076904,-0.027418512850999832,,,,,,,,,
1739402307.0203376,0.525682426108332,0.09603212479509177,-0.9533438326690098,-2.0690021119039708,0.13770943675731834,2.137577711375068,-1.2753715368533478,-0.0005042563447124713,0.0013589531575201675,0.0005977982776033325,0.001301988358179449,0.00014231085487406237,0.0009945941149109845,0.00132086891358409,0.2411382496356964,-21.92349624633789,-2.4333655834198,22.63983917236328,0.6801248788833618,2.2753188610076904,-0.06678618490695953,,,,,,,,,
1739402307.0304587,0.5256836633094982,0.09602841712597349,-0.9533452720603895,-2.0690003303574396,0.13770866447103836,2.1375792804511744,-1.275374635687558,-0.00038528201845019344,0.00035319589749881674,0.0013734206047968745,0.00033580678900293267,-0.0010404702390318502,5.9751251263734785e-06,-0.0007422447673143287,0.2173345386981964,-21.87192153930664,-2.4095618724823,22.61603546142578,0.6865335702896118,2.2615859508514404,-0.013685601763427258,,,,,,,,,
1739402307.041416,0.5256839701132666,0.0960210332041397,-0.9533491432991172,-2.068998198952118,0.13770942375618406,2.1375777113747727,-1.2753788916108977,-0.0010456064735591916,-0.0008253444512045817,0.00010080768702892286,0.0006270953406119388,-0.00047485564456085444,-0.0002042509591258749,-0.0012017344379444141,0.2411382496356964,-21.77273941040039,-2.35798716545105,22.61603546142578,0.6801248788833618,2.2753188610076904,-0.013685601763427258,,,,,,,,,
1739402307.052404,0.5256801807611956,0.09602083419057938,-0.9533522892738182,-2.068998103937119,0.13770875951842804,2.137579334932391,-1.2753733541511885,-0.0005351775715947191,0.0012771420605140233,-0.0002006638343742179,-0.00011140048970877765,-0.0011882240336233973,0.00019620682137094886,0.0006303087927424488,0.2689092457294464,-21.79654312133789,-2.35798716545105,22.61603546142578,0.6737161874771118,2.2615859508514404,-0.06037749722599983,,,,,,,,,
1739402307.0624359,0.5256860061357201,0.09601461312123426,-0.9533523706641263,-2.0689945385825443,0.13770942157126576,2.137579334932391,-1.2753789309345165,0.002281431474544143,-6.441156943224442e-05,0.00018745023914138001,0.000266727980753582,-0.000777579661156818,9.218381557357034e-05,-0.0015030965048918755,0.2173345386981964,-21.72116470336914,-2.35798716545105,22.56842803955078,0.6801248788833618,2.2615859508514404,-0.013685601763427258,,,,,,,,,
1739402307.0733576,0.5256849620550726,0.09601438476243823,-0.9533505069951485,-2.0689924589057425,0.1377094235936735,2.137580092538634,-1.2753803895663203,0.00026393267159993407,-0.0008280813111763074,0.0013615379027299465,0.000440705237008903,-0.0011854245018245249,0.000912038483617119,-0.00041627229850726825,0.2173345386981964,-21.72116470336914,-2.38179087638855,22.54065704345703,0.6801248788833618,2.2551772594451904,-0.0008682189509272575,,,,,,,,,
1739402307.0843315,0.5256801858930055,0.09601437641405353,-0.9533501807998561,-2.0689906676124017,0.13770942424373728,2.1375843311449865,-1.2753697563125859,-0.0014672649084345726,-0.0003021141356459279,0.0006986417423292183,0.001346027681435599,-0.00038995811604369026,0.0011367214458665937,0.003609666543611585,0.2689092457294464,-21.72116470336914,-2.35798716545105,22.51685333251953,0.6801248788833618,2.2551772594451904,-0.08051909506320953,,,,,,,,,
1739402307.0943882,0.5256814769074136,0.09601237804013606,-0.9533501936468766,-2.068992458792257,0.13770942359371033,2.1375817694839934,-1.2753772506268253,-0.0016652546414556223,-0.0006993554394239716,0.0011516023591095666,-7.674158613798262e-05,-8.017915995224144e-05,-0.00013645742762596357,0.0001366706054597381,0.2411382496356964,-21.69339370727539,-2.38179087638855,22.54065704345703,0.6801248788833618,2.2679946422576904,-0.027418512850999832,,,,,,,,,
1739402307.1044652,0.5256855077527254,0.09601808600951452,-0.9533474912742566,-2.0689963212595637,0.1377109520775484,2.137582675854899,-1.2753731087871611,0.0006230425821674977,0.00046765239252598496,0.0017974673644743856,-0.0005544388336708409,0.0002745225224674362,0.0008750882910782854,0.0011117321211687112,0.1935308277606964,-21.77273941040039,-2.4095618724823,22.59223175048828,0.6673074960708618,2.2615859508514404,-0.06678618490695953,,,,,,,,,
1739402307.1153734,0.5256839000572479,0.09601683386636381,-0.9533529733007973,-2.0689981039365826,0.13771018174137495,2.137581152464799,-1.275373056536582,0.0001635362369557347,-3.229604591385184e-05,-0.000604395071219603,-0.0015232654695257507,0.0006980544630269544,0.00019122047466230594,0.0014789417643799293,0.2173345386981964,-21.74496841430664,-2.35798716545105,22.61603546142578,0.6737161874771118,2.2551772594451904,-0.05396880581974983,,,,,,,,,
1739402307.1254559,0.5256821095478551,0.09602179691675843,-0.9533477252540107,-2.0689960752891814,0.13770942408123055,2.137582513864728,-1.2753784697807071,-0.0012035500814431268,-0.0002985031638412774,0.0004888254675773096,0.0004618944638874439,-0.0001702924143746101,0.0011944681079213372,-0.00040641174043551354,0.2411382496356964,-21.82431411743164,-2.4095618724823,22.61603546142578,0.6801248788833618,2.2615859508514404,-0.020094294100999832,,,,,,,,,
1739402307.1364057,0.5256859155683399,0.09602666626346053,-0.9533456192076893,-2.068999886567157,0.13771293081455732,2.137578594948201,-1.2753772506906298,-0.0008012142283119801,0.0008078291267870488,8.193480458141151e-05,-0.0006349844324752084,-0.0003379995857945816,-0.0001520124478133606,-0.00040000858049506996,0.2173345386981964,-21.84811782836914,-2.4095618724823,22.63983917236328,0.6865335702896118,2.2679946422576904,-0.027418512850999832,,,,,,,,,
1739402307.1473913,0.5256842676145538,0.0960262041270673,-0.9533453813404723,-2.069000875646873,0.13770704288790858,2.1375793742321827,-1.2753749872088171,-0.00017944870396812437,0.0008096224234030752,0.0022407212585046025,-0.0014989250463354439,-0.00018316156741950596,-0.00016475887370176435,0.0008675750945880791,0.2411382496356964,-21.87192153930664,-2.4095618724823,22.63983917236328,0.7002664804458618,2.2615859508514404,-0.04756011441349983,,,,,,,,,
1739402307.1583476,0.5256821875488504,0.09602738789317752,-0.9533522883827401,-2.068998105336497,0.13771099881897242,2.1375817561869224,-1.27537831032743,-0.0008280920691757396,-2.5589071884547728e-05,-0.002119169014276732,0.0013657205944077905,0.0003563904278908335,9.567912911538005e-05,-0.0010657468169128362,0.2411382496356964,-21.87192153930664,-2.35798716545105,22.61603546142578,0.6938577890396118,2.2679946422576904,-0.027418512850999832,,,,,,,,,
1739402307.168393,0.5256842935797775,0.09602825011778374,-0.9533460092173299,-2.0690035734172407,0.13770865964968593,2.137580131892161,-1.2753788744255075,-0.0002769651593827186,-9.792819100155186e-05,0.0001663246659371354,-0.0016503079425122785,-0.0013371994723201286,-0.0008994891040295342,-0.0009714312360568126,0.2411382496356964,-21.89969253540039,-2.4095618724823,22.66364288330078,0.6865335702896118,2.2551772594451904,-0.013685601763427258,,,,,,,,,
1739402307.1794403,0.5256856639583353,0.09602770794376297,-0.9533500757860436,-2.0689988034065476,0.13770829886636646,2.137580092592691,-1.2753757353684805,-0.0012980948063195468,0.0008035082686235265,-7.621046310611135e-06,0.0008617251809845691,-0.0018996293673047642,4.770930480340791e-06,-0.0006500838222715089,0.2173345386981964,-21.87192153930664,-2.35798716545105,22.59223175048828,0.6865335702896118,2.2551772594451904,-0.04023589566349983,,,,,,,,,
1739402307.1904333,0.5256842590533376,0.09602499384648612,-0.9533492475199457,-2.0689985505835877,0.13771205247967444,2.1375793349323913,-1.2753772506886363,0.000796484676055934,1.3449044650622297e-05,-0.00011876722172648373,0.00018964119457515573,-0.00021554692711184742,-0.0006596028270226238,-0.0006734933705916374,0.2411382496356964,-21.82431411743164,-2.35798716545105,22.59223175048828,0.6608988046646118,2.2615859508514404,-0.027418512850999832,,,,,,,,,
1739402307.2004595,0.5256815899188342,0.09602299623443125,-0.9533476124156034,-2.069000662045113,0.13770977901999382,2.1375793349323913,-1.2753741118111688,-0.0015737705030905154,-0.0008743618859548938,0.0010878403163692627,-3.3608276433986535e-05,-8.225275823304297e-06,-0.00018500441932555925,0.0013842654894746392,0.2689092457294464,-21.79654312133789,-2.4095618724823,22.61603546142578,0.6801248788833618,2.2615859508514404,-0.05396880581974983,,,,,,,,,
1739402307.2113357,0.5256813957995589,0.09601928480077987,-0.9533507498716887,-2.0689981864050067,0.1377102202593603,2.1375800940460197,-1.275373373208749,0.000655315263566734,-0.0006824041168536481,-0.0008690911807889228,0.00023148517612433438,0.001047796665207635,-6.333868178196733e-05,0.0015420681171214522,0.2411382496356964,-21.74496841430664,-2.38179087638855,22.61603546142578,0.6737161874771118,2.2551772594451904,-0.06037749722599983,,,,,,,,,
1739402307.2214212,0.525683120151915,0.09601749335907835,-0.9533522117225419,-2.0689960916726986,0.13771141280821353,2.1375808691487252,-1.275372731671948,2.826998462720625e-05,0.00013154593995739984,-0.0003317965670607128,-0.00021011528965846944,0.0010344274626967321,-0.0003656967302736488,0.000545104833293898,0.2173345386981964,-21.72116470336914,-2.35798716545105,22.59223175048828,0.6673074960708618,2.2487685680389404,-0.06678618490695953,,,,,,,,,
1739402307.2323773,0.5256814076313842,0.09601249609544715,-0.9533505067202372,-2.0689954380984386,0.13770870705791757,2.137579352375314,-1.2753783503659755,1.900820928228545e-06,-0.002203912485546568,7.753787249761417e-05,0.00020732822809031172,-0.0010178108500771014,-0.0008789483048363616,-0.002097396116460196,0.2411382496356964,-21.69339370727539,-2.38179087638855,22.54065704345703,0.6865335702896118,2.2615859508514404,-0.05396880581974983,,,,,,,,,
1739402307.242432,0.5256859242311708,0.09601546519652863,-0.9533505070068828,-2.068992463256294,0.13770780003659874,2.1375800095039197,-1.2753772511970798,0.0009046383808885617,0.000244375000918885,-0.0006347995401824239,-0.00026816643133145896,-0.0006486851086939899,0.0006739323190588273,-0.0007666259297170268,0.2173345386981964,-21.69339370727539,-2.38179087638855,22.54065704345703,0.6938577890396118,2.2679946422576904,-0.027418512850999832,,,,,,,,,
1739402307.2544878,0.5256838988209626,0.09601440533664038,-0.9533543694024275,-2.0689924587927138,0.13771235377798685,2.1375811696812868,-1.2753694526237789,0.0005607088258900302,-0.0014008636899501177,-0.002353201907174093,0.0009239249868249484,0.0007089691074482589,0.0012119548078412283,0.0013574635385369897,0.2173345386981964,-21.72116470336914,-2.3302161693573,22.54065704345703,0.6865335702896118,2.2551772594451904,-0.06678618490695953,,,,,,,,,
1739402307.2664328,0.5256858926079184,0.09601707096612244,-0.9533505070425503,-2.069002077853159,0.13771105739420306,2.13757869937256,-1.2753732364076047,0.001522575902430942,-0.000735912934029397,-4.928593491745804e-05,-0.0018506333585841931,-0.0007325047627082641,-0.0018941563399793608,0.001565657002892863,0.2173345386981964,-21.74496841430664,-2.38179087638855,22.63983917236328,0.6673074960708618,2.2679946422576904,-0.06037749722599983,,,,,,,,,
1739402307.2773337,0.5256850313892057,0.09602296493358502,-0.9533512497043686,-2.068998113223688,0.13771172725910494,2.1375830208175297,-1.275378913491692,-0.0008652528511502542,0.0004689191149292282,-0.002082267286136012,-0.000778641105255413,0.00043434110523898184,0.0014370164179224902,-0.001847603357419139,0.2173345386981964,-21.79654312133789,-2.35798716545105,22.61603546142578,0.6737161874771118,2.2423598766326904,-0.013685601763427258,,,,,,,,,
1739402307.2873797,0.5256820262422465,0.09602287693452735,-0.9533456180245407,-2.06899988650878,0.13770715996370658,2.1375793351178243,-1.2753788742467214,-0.00015818328916074792,-0.0008668674812539216,0.001568069156909383,-0.0005885745526887915,0.00020446756434309743,-0.001341114332703305,-0.001989947758575005,0.2411382496356964,-21.79654312133789,-2.4333655834198,22.63983917236328,0.6737161874771118,2.2615859508514404,-0.013685601763427258,,,,,,,,,
1739402307.2983298,0.5256859714562035,0.0960228593052351,-0.9533501949251978,-2.068999580495919,0.13771018324105194,2.1375832846426457,-1.2753765461474307,0.0012199731576465079,-0.0009462176285260993,0.0003497970780829829,0.0003004965985459251,0.0008485565654283191,0.0009519723643512557,0.00016031349113904603,0.2173345386981964,-21.82431411743164,-2.38179087638855,22.63983917236328,0.6737161874771118,2.2551772594451904,-0.06037749722599983,,,,,,,,,
1739402307.308488,0.5256828560237017,0.09602840933128101,-0.9533484272474092,-2.068999886608417,0.13771093891386765,2.1375792814249093,-1.2753758148672594,-0.0006278121158125256,0.00124786841098209,-0.0004807074603250168,-0.000512152281326091,0.001141510951896743,-1.1119691889340064e-06,0.0003379720551168738,0.2173345386981964,-21.87192153930664,-2.4095618724823,22.63983917236328,0.6673074960708618,2.2753188610076904,-0.06678618490695953,,,,,,,,,
1739402307.3194077,0.5256842576109537,0.0960245760455643,-0.9533481140752003,-2.069004254720443,0.1377099369785395,2.137578810285655,-1.2753733542055938,4.863421306306942e-05,-0.0019031599093325914,-2.625649884243096e-05,0.00013548437557553628,0.00023767898629634433,-0.00025524465626582755,0.0006608532004683474,0.2411382496356964,-21.84811782836914,-2.4095618724823,22.66364288330078,0.6801248788833618,2.2753188610076904,-0.06037749722599983,,,,,,,,,
1739402307.330404,0.5256833476151324,0.09602865346931874,-0.9533501680728652,-2.069000006729131,0.13770974974898392,2.137581757646454,-1.275378520429065,-0.00037439092032495253,-8.580439089898379e-05,-0.0004051993600753185,-0.0005094711176853179,-0.0006039923783129362,-0.0001496253672281788,0.0007668111125043986,0.2411382496356964,-21.87192153930664,-2.38179087638855,22.63983917236328,0.6865335702896118,2.2679946422576904,-0.05396880581974983,,,,,,,,,
1739402307.3404346,0.5256821872226647,0.09602662680430589,-0.9533483663426816,-2.0690006591816896,0.13770867032762193,2.137580094063973,-1.2753772550741735,-0.0003856363256112247,-0.00037479468829299564,-6.372650463768283e-06,-0.00046678381964047563,-0.0009623269935427796,-0.0010441744314326226,-0.002253667886943715,0.2411382496356964,-21.84811782836914,-2.38179087638855,22.61603546142578,0.6865335702896118,2.2551772594451904,-0.027418512850999832,,,,,,,,,
1739402307.351376,0.5256853037692502,0.09602670572260637,-0.9533522892553269,-2.0690004524486874,0.1377121718696127,2.1375777113751053,-1.2753809935223899,0.0002615734035215776,0.000322350086761153,-0.0010851687723707286,-0.0008432125777635665,0.00017421247875118012,-0.0011548995189772442,-0.0015670668827368532,0.2173345386981964,-21.84811782836914,-2.35798716545105,22.61603546142578,0.6865335702896118,2.2753188610076904,-0.013685601763427258,,,,,,,,,
1739402307.362337,0.5256842069461904,0.09602296863059272,-0.953344861898656,-2.0689973470146517,0.1377133859115526,2.1375793480681784,-1.2753756816673671,0.00029323560448995395,-0.0005052089842209444,0.0008279011887933212,-0.00010084085667465173,0.00047798927873891764,-0.00044419547512173507,1.4821647056949944e-05,0.2411382496356964,-21.79654312133789,-2.4571692943573,22.59223175048828,0.6737161874771118,2.2615859508514404,-0.05396880581974983,,,,,,,,,
1739402307.3724077,0.5256822177760414,0.09602499320185866,-0.9533501940750131,-2.068997753887802,0.13770942375649078,2.1375809074261913,-1.2753773089104028,-0.0006510008707521708,-5.716756060557737e-05,4.5461379676367945e-05,-0.00021921012556200416,-0.00048245155184513676,0.0021833108307125803,0.0003176167418216555,0.2689092457294464,-21.82431411743164,-2.38179087638855,22.56842803955078,0.6801248788833618,2.2487685680389404,-0.027418512850999832,,,,,,,,,
1739402307.3833961,0.525681484254621,0.09601969819104095,-0.9533530181726402,-2.068994552167625,0.13770942361173483,2.1375832736783176,-1.2753804049063557,-0.0007450462844482023,-0.0014192511749551544,-0.0015690055946834128,0.0005068170640672514,-0.0015514399697183095,7.3802653743288e-05,-0.00331590793818972,0.2411382496356964,-21.72116470336914,-2.35798716545105,22.56842803955078,0.6801248788833618,2.2551772594451904,-0.013685601763427258,,,,,,,,,
1739402307.3944058,0.5256828804266386,0.09601757231604569,-0.9533501950503266,-2.0689927884581145,0.13771103831011308,2.1375817564020783,-1.2753764930544795,3.4482213515551715e-05,-0.0005000528598017519,0.00038793059026726224,0.000928756795943053,0.0001056477796407537,-0.001104817161647564,-4.718758568995256e-05,0.2173345386981964,-21.72116470336914,-2.38179087638855,22.54065704345703,0.6938577890396118,2.2679946422576904,-0.03382720425724983,,,,,,,,,
1739402307.4044414,0.5256800856959768,0.09602104500440022,-0.9533505070407893,-2.0689963212614244,0.13771125192080824,2.137582881612938,-1.2753772506886363,-0.0004356356264930304,-0.00013257366307777843,-0.0004887294870486978,2.1526839903428067e-05,-2.9802685197488155e-05,0.00018284340930178045,-0.001098923832557346,0.2689092457294464,-21.77273941040039,-2.38179087638855,22.59223175048828,0.6737161874771118,2.2615859508514404,-0.027418512850999832,,,,,,,,,
1739402307.4153705,0.5256822947811851,0.09601715393069757,-0.9533506149686563,-2.068994639967674,0.13771186408427377,2.137580908438157,-1.2753755783850529,-0.0004842209775589374,4.591261619449669e-05,-0.0008862226551705345,-8.387981061964219e-05,-0.0013525084096374497,-0.00021374619422189758,0.0007358673175743121,0.2689092457294464,-21.74496841430664,-2.38179087638855,22.56842803955078,0.6865335702896118,2.2753188610076904,-0.04023589566349983,,,,,,,,,
1739402307.4254048,0.5256853397469605,0.09601893319857807,-0.9533505069004965,-2.068992455958838,0.13771124753267694,2.1375801454228425,-1.2753771484337733,0.0009129306752030644,0.0003227090444676694,-7.901515439870017e-05,0.0016561204235673733,-0.0005104870593163374,-0.00041055180670879215,0.0005243901363858655,0.1935308277606964,-21.74496841430664,-2.38179087638855,22.54065704345703,0.6737161874771118,2.2551772594451904,-0.04023589566349983,,,,,,,,,
1739402307.4373298,0.5256792158109349,0.09602212573950432,-0.9533502470387494,-2.068996431261,0.13771023895259726,2.1375787342560373,-1.2753725574150783,-0.0008457556896346069,-0.0006360703527784099,-0.0006475821535885033,-1.3705815720928133e-05,0.000826749441811258,-0.002556328125220013,0.0006302627558621026,0.2689092457294464,-21.82431411743164,-2.38179087638855,22.59223175048828,0.6737161874771118,2.2679946422576904,-0.06678618490695953,,,,,,,,,
1739402307.448398,0.5256860019458899,0.09602283558094894,-0.9533505879856621,-2.0690003332472156,0.13771266788080394,2.13758089045186,-1.2753757485040462,0.0014466778769692563,0.0012701163238948556,-0.00011790706089606726,0.00022166013607407672,0.0011589878510333853,0.00013922600937172984,0.0012443461840124714,0.2173345386981964,-21.82431411743164,-2.38179087638855,22.61603546142578,0.6801248788833618,2.2753188610076904,-0.04023589566349983,,,,,,,,,
1739402307.4584005,0.5256849649083138,0.09602057370075992,-0.9533463212223697,-2.068998103949167,0.13771172148082803,2.137581233523224,-1.275374151902439,-0.0002462098123618445,-0.0015156690059932145,0.0005363081882464233,0.0009868468118228108,0.0013447594898140245,0.0010184665856074783,0.0013999785126645034,0.2173345386981964,-21.77273941040039,-2.4095618724823,22.61603546142578,0.6737161874771118,2.2817275524139404,-0.08051909506320953,,,,,,,,,
1739402307.4694088,0.5256835525718032,0.09602670571994032,-0.9533522897076809,-2.069002230899438,0.13771100473237555,2.1375813604728435,-1.2753791776954935,0.00044982772358300355,0.0003162393738894587,-0.001379839024072728,0.0003181892602405187,-0.0014675552413670049,-0.00048658460670770456,0.0006406067980699868,0.2173345386981964,-21.84811782836914,-2.35798716545105,22.63983917236328,0.6938577890396118,2.2487685680389404,-0.020094294100999832,,,,,,,,,
1739402307.4803698,0.5256839812403762,0.09603065239652678,-0.9533505060795734,-2.0690023621682587,0.13771090401500885,2.1375837443980843,-1.2753765330714686,-0.00020504720141955907,0.001060296925048285,-0.0009219482971045173,-0.00021637993016525108,0.0020879733741778653,0.001192391233896148,-0.0006194294700549222,0.2411382496356964,-21.89969253540039,-2.38179087638855,22.63983917236328,0.6801248788833618,2.2551772594451904,-0.06037749722599983,,,,,,,,,
1739402307.4903889,0.525681448120004,0.09602647188123378,-0.9533484272526787,-2.068996633389421,0.13771084968781006,2.1375818101914086,-1.2753758547749405,-0.0005373357360045762,-0.0007353990181089233,0.00027955720156762386,0.001979686539250631,0.00024129686840489333,0.001206477124552416,-0.00040101017471881443,0.2411382496356964,-21.84811782836914,-2.4095618724823,22.61603546142578,0.6801248788833618,2.2679946422576904,-0.04023589566349983,,,,,,,,,
1739402307.5004082,0.5256821785593039,0.09602522940233092,-0.953348427252695,-2.068999101699889,0.13771496414244636,2.137583735477752,-1.2753757353745458,0.00020592347616789548,-0.00061106226751236,0.00018280709638493042,-6.73234259259497e-05,0.001036108795190811,0.0026265142815927035,0.0009061748431051234,0.2411382496356964,-21.82431411743164,-2.4095618724823,22.61603546142578,0.6737161874771118,2.2615859508514404,-0.04023589566349983,,,,,,,,,
1739402307.5113425,0.5256856815613806,0.09602954036439018,-0.9533466445281216,-2.0690001464636056,0.13771456477965585,2.1375836141925957,-1.2753797670863083,2.8826108665664952e-05,-7.843646874551073e-05,-7.487063758277444e-05,0.0009541204120783056,0.0006641793046225175,0.0014357879720512626,-0.0008184162839490442,0.2173345386981964,-21.84811782836914,-2.4333655834198,22.63983917236328,0.6737161874771118,2.2615859508514404,-0.0072769103571772575,,,,,,,,,
1739402307.5223405,0.5256812131214,0.09602302152402689,-0.9533484271456972,-2.068997319451669,0.13771160360971763,2.137582263289049,-1.275378893142973,-0.0006566101109710276,-6.540978643697619e-05,2.9791403046166144e-05,-0.0006563075478119771,0.00018085712576597156,-0.00048670041550855265,-0.0007096686435614625,0.2411382496356964,-21.79654312133789,-2.4095618724823,22.59223175048828,0.6737161874771118,2.2487685680389404,-0.013685601763427258,,,,,,,,,
1739402307.5324132,0.5256884565927066,0.09602299136547178,-0.9533445692026893,-2.0689967683616763,0.13771413788303966,2.1375787082772697,-1.2753788744078824,0.0021744467401788896,-8.872203062956633e-06,0.0018380065688380612,0.0011415124746403827,-6.150393420142761e-05,-0.0002688223700124447,-0.0006281385051362345,0.1697271168231964,-21.79654312133789,-2.4333655834198,22.56842803955078,0.6673074960708618,2.2679946422576904,-0.013685601763427258,,,,,,,,,
1739402307.5424283,0.5256813806673838,0.09602299558618123,-0.9533466444702361,-2.0689925535320945,0.13771034084348804,2.1375777525656594,-1.2753733546356154,-0.0008274161552552778,0.0005016017477715336,0.00048004748884764107,1.616585273101162e-05,2.8157681880739042e-05,-0.0018431660512792858,0.001136339150749421,0.2411382496356964,-21.79654312133789,-2.4333655834198,22.54065704345703,0.6737161874771118,2.2753188610076904,-0.06037749722599983,,,,,,,,,
1739402307.5533426,0.525681946215444,0.09602228071548004,-0.9533484272408062,-2.06899528168606,0.1377145009567358,2.137582004193551,-1.2753722191486092,-0.0009304140927375924,0.0011431857988197882,-0.00025997798560888844,-0.0005910978608989353,0.0003927147268936342,-0.0004426183149377264,0.001656036773251049,0.2689092457294464,-21.79654312133789,-2.4095618724823,22.56842803955078,0.6737161874771118,2.2753188610076904,-0.07411040365695953,,,,,,,,,
1739402307.563434,0.5256850403594454,0.09601833771289355,-0.9533513450390947,-2.0689985506073296,0.13770947695554359,2.137581893523038,-1.2753782474302118,-3.182303612531148e-05,-0.0004148720804302624,0.0003166429901202952,-0.0005245176780057012,0.00034764747902942173,-2.80159907184779e-05,-0.0012308938694542125,0.2173345386981964,-21.74496841430664,-2.35798716545105,22.59223175048828,0.6801248788833618,2.2679946422576904,-0.020094294100999832,,,,,,,,,
1739402307.574388,0.5256813729993809,0.09601914213046561,-0.9533481903955777,-2.068997624656951,0.13771465552347603,2.1375811668441216,-1.2753733542051717,-0.0008990914925692951,0.00033531552121815786,0.0009016373874195219,-0.0010927805507002421,0.002403629124439547,0.0005223556252872423,0.0009782839051006359,0.2411382496356964,-21.77273941040039,-2.4095618724823,22.56842803955078,0.6673074960708618,2.2551772594451904,-0.06037749722599983,,,,,,,,,
1739402307.585322,0.5256834777434121,0.09601928464434495,-0.9533474883487458,-2.0689981083631057,0.13770989897101157,2.1375791244473246,-1.2753783117803161,-0.000289488688954651,0.00027920428346747694,0.001770520091413636,-0.0011381780524384489,0.0001738728244601312,-0.0004540614706186071,-0.0002344036117214966,0.2411382496356964,-21.74496841430664,-2.4095618724823,22.61603546142578,0.6801248788833618,2.2753188610076904,-0.027418512850999832,,,,,,,,,
1739402307.5953758,0.5256849543374379,0.09602128176729188,-0.9533521767143633,-2.068996357889105,0.13770942993981258,2.1375848549315224,-1.2753814506758627,0.0005963424684413852,0.0010870397281491045,-0.00044893298735798094,8.478448598798021e-05,-0.0024510226029025887,0.0007408813484560345,-0.0013229918191548997,0.2173345386981964,-21.77273941040039,-2.35798716545105,22.59223175048828,0.6801248788833618,2.2551772594451904,-0.0008682189509272575,,,,,,,,,
1739402307.6064034,0.5256859253352891,0.0960283802456745,-0.953347646918388,-2.0690002172969026,0.1377078526913317,2.1375801604306863,-1.2753772511911228,0.001196327037575671,0.003032683938151589,0.0007899636494843864,-0.0004316718786297043,-0.001184710927264701,0.0008798470665039785,1.789815168323002e-05,0.2173345386981964,-21.87192153930664,-2.4095618724823,22.63983917236328,0.6938577890396118,2.2679946422576904,-0.027418512850999832,,,,,,,,,
1739402307.6174333,0.5256858894015037,0.09602499320299719,-0.9533477423855775,-2.0690028668295377,0.13771055585111125,2.137584804203776,-1.2753785090444378,0.00020056653821147975,8.703363159989514e-05,0.0012124015547055622,-0.0006548539357155099,-0.0010279268797860946,0.0022125220969256027,-0.0004328800518056238,0.2173345386981964,-21.82431411743164,-2.38179087638855,22.63983917236328,0.6737161874771118,2.2551772594451904,-0.020094294100999832,,,,,,,,,
1739402307.6283529,0.525685573738278,0.09602228497367506,-0.9533498050270877,-2.069001070966637,0.13771418013736264,2.137579393747234,-1.275378118524674,0.00046039350114153714,-0.0010153968827367303,0.0006565824449535119,0.0008314411668275273,0.0024136862408469864,-0.0006757241227403206,-0.00033116703335018725,0.1935308277606964,-21.79654312133789,-2.38179087638855,22.61603546142578,0.6801248788833618,2.2615859508514404,-0.020094294100999832,,,,,,,,,
1739402307.6383772,0.5256839701258321,0.09603054413164226,-0.9533476903228257,-2.0690006375679055,0.13771338466733088,2.137583783642057,-1.2753775928651463,-0.0002638765076128708,0.0002646066170711937,0.0008180804084168799,0.0013625124606149385,-2.4986578212951105e-05,0.0004157529921183302,-0.0014491888992165132,0.2411382496356964,-21.87192153930664,-2.38179087638855,22.63983917236328,0.6737161874771118,2.2551772594451904,-0.06037749722599983,,,,,,,,,
1739402307.6493456,0.5256830903112109,0.09602670573594357,-0.9533459425865265,-2.069002414094006,0.1377149647381366,2.1375787488659124,-1.2753796325760853,-0.00022580826372535474,-0.001384447561067894,0.0012382770026562468,-8.511980770167771e-05,0.0018935089651866538,-0.0019997348830298445,-0.000805597074940346,0.2173345386981964,-21.84811782836914,-2.4333655834198,22.66364288330078,0.6737161874771118,2.2679946422576904,-0.0072769103571772575,,,,,,,,,
1739402307.65943,0.5256841776878273,0.09602499374223679,-0.9533505056396954,-2.0690009890148717,0.13771008834582454,2.137577717838209,-1.2753807434249569,0.0004593103785315268,-0.0003502708610786646,-0.00042084520254967407,-0.0009287797332339071,-0.0022129029239865454,-0.0018936650015193013,-0.001974012062707891,0.2411382496356964,-21.82431411743164,-2.38179087638855,22.63983917236328,0.6865335702896118,2.2753188610076904,-0.0008682189509272575,,,,,,,,,
1739402307.6714272,0.5256811703235983,0.09602841824467712,-0.9533476961125686,-2.069005974326771,0.13771267671848908,2.1375791828524826,-1.275375775407838,-0.0012320930977413164,4.1531237009495505e-05,-0.00014215890979843465,-0.0022833380222492543,-1.164954699972348e-05,-0.0004392209608580491,0.00041056112724222895,0.2411382496356964,-21.87192153930664,-2.38179087638855,22.69141387939453,0.6801248788833618,2.2753188610076904,-0.06678618490695953,,,,,,,,,
1739402307.6833267,0.5256884043766903,0.09602299526235863,-0.9533503991362786,-2.068998131425431,0.1377127940162912,2.1375825201482654,-1.2753803003642805,0.0019990541425894603,-0.0011014110057245168,-0.0008302259370655842,-0.00034599980884721245,-0.00046930071168604687,-0.0002509019770232141,-0.0014001332096048988,0.1697271168231964,-21.79654312133789,-2.38179087638855,22.61603546142578,0.6801248788833618,2.2615859508514404,-0.013685601763427258,,,,,,,,,
1739402307.6934445,0.5256842561248759,0.09602339112768345,-0.9533515790419065,-2.0689996192683235,0.13771417782630233,2.1375822709229735,-1.2753764930366083,0.0007273058607804752,0.0002475535886655804,-0.0011819203477544044,-0.0013527529408991594,0.0009102695823199718,0.0004093825314299745,-0.0006465004832924945,0.2411382496356964,-21.79654312133789,-2.35798716545105,22.59223175048828,0.6801248788833618,2.2679946422576904,-0.03382720425724983,,,,,,,,,
1739402307.705392,0.5256834833948864,0.09602501593563717,-0.9533505070385386,-2.0689946591166275,0.13770884299343555,2.137581221574733,-1.275379033329056,0.00017685857635089692,0.0010036660353697551,-0.0006120218442882765,0.0008082493582847814,-0.0012787376671875585,-0.0003813014990703329,-0.0006966390541067085,0.2411382496356964,-21.79654312133789,-2.38179087638855,22.56842803955078,0.6865335702896118,2.2487685680389404,-0.013685601763427258,,,,,,,,,
1739402307.7154152,0.525679954964222,0.09601833451282671,-0.9533522868306384,-2.068988646790626,0.13771101857098766,2.137580608426933,-1.2753733546365051,-0.000504973078472393,-0.0005912349391222417,-0.0007661914268480473,0.0020592062534306806,0.0002797081296272231,-0.00047764022017584055,0.0022244638466410315,0.2689092457294464,-21.74496841430664,-2.35798716545105,22.51685333251953,0.6801248788833618,2.2817275524139404,-0.06037749722599983,,,,,,,,,
1739402307.726364,0.5256859792309375,0.09602128273626304,-0.953352055716133,-2.068992459198456,0.13770918144015976,2.1375832884646315,-1.2753771889027048,0.00035512861512903264,0.0007342688953975841,-4.705757398575494e-05,0.00028780465271150964,0.0006896688677797331,0.0011538436997772458,-0.001507388572568533,0.2173345386981964,-21.77273941040039,-2.35798716545105,22.54065704345703,0.6865335702896118,2.2679946422576904,-0.06678618490695953,,,,,,,,,
1739402307.736438,0.5256842818452688,0.09602136147862723,-0.953348427248732,-2.0689963223901096,0.1377138656247052,2.137579452911251,-1.2753742470691145,0.0008123442606257278,0.0007761535623224919,0.0012058234484398,0.00016655258676474577,-0.00018364283127295786,-9.972429953283626e-05,0.0003298948034700873,0.2411382496356964,-21.77273941040039,-2.4095618724823,22.59223175048828,0.6801248788833618,2.2615859508514404,-0.05396880581974983,,,,,,,,,
1739402307.7464552,0.5256831593618566,0.09602270582549931,-0.953351329701826,-2.0690013182853146,0.13771534022009474,2.1375831711391102,-1.2753738039464293,-0.0008538189832486376,0.0005238861323198192,-0.0007473444948213165,-0.0009414561507989474,0.001794205718693446,-0.00011308327803548774,0.00010582357045372929,0.2173345386981964,-21.79654312133789,-2.4095618724823,22.61603546142578,0.6673074960708618,2.2679946422576904,-0.06037749722599983,,,,,,,,,
1739402307.7573638,0.525685582401109,0.09602202190215837,-0.9533484272690793,-2.0689945386006894,0.137713450887377,2.137581815000665,-1.2753726417155549,0.002158258791707719,-0.00033164841786328047,0.0006369567164092812,0.0022056028239128135,0.0017604196113645229,5.4621040406846195e-05,-0.0015700436376811311,0.1935308277606964,-21.79654312133789,-2.4095618724823,22.56842803955078,0.6865335702896118,2.2679946422576904,-0.06678618490695953,,,,,,,,,
1739402307.7673852,0.5256774590061759,0.09602041441056529,-0.9533484269317029,-2.0690013222421824,0.13771085900712718,2.137584044651525,-1.2753757754066064,-0.002073629637289905,-0.0006248579922560053,0.0005830977180316754,0.00012045608622214034,-9.993519712005437e-05,0.00039518409335615574,9.144291036946575e-05,0.2927129566669464,-21.77273941040039,-2.4095618724823,22.61603546142578,0.6801248788833618,2.2615859508514404,-0.06678618490695953,,,,,,,,,
1739402307.7783742,0.5256842638172454,0.09603246314885402,-0.9533495670699585,-2.0690009032488446,0.13771350438463692,2.1375807871088464,-1.2753726023594887,0.0007688981595920292,0.0017755539973077958,-0.0002895602705430603,-0.0008548136368017979,-0.0004846497326518097,-0.0013197905923434548,0.0011804933677275627,0.2411382496356964,-21.89969253540039,-2.38179087638855,22.63983917236328,0.6737161874771118,2.2615859508514404,-0.06678618490695953,,,,,,,,,
1739402307.7903242,0.5256849633270974,0.09602669695879851,-0.9533483203248092,-2.0690006298319057,0.13771404993228714,2.1375835880410885,-1.27537411326473,0.00011702873708454138,0.0008281648871813952,-0.0003015238942179828,-2.2666982193651677e-05,0.0008387337990176213,0.0007563309862652303,0.0009071516841013918,0.2173345386981964,-21.84811782836914,-2.4095618724823,22.63983917236328,0.6801248788833618,2.2615859508514404,-0.05396880581974983,,,,,,,,,
1739402307.8003457,0.5256841776956557,0.09603054122062289,-0.9533483968382643,-2.068998103940778,0.1377102344222741,2.1375798599033797,-1.2753732407741794,0.00033466019242633905,2.3659751360609918e-05,-0.0009135531892123422,0.0016337483246501383,-0.0027628561009005927,-0.0011562519499197764,0.002151889164953722,0.2411382496356964,-21.87192153930664,-2.38179087638855,22.61603546142578,0.6737161874771118,2.2615859508514404,-0.06037749722599983,,,,,,,,,
1739402307.8103962,0.5256805819749246,0.09602853503604096,-0.9533462430780388,-2.0690028902298296,0.1377088434008715,2.137577071945979,-1.2753717305923,-0.00047837166413584127,0.00030409669305421423,0.0002211143981094756,-0.0004598812942133548,-0.0011612596560839396,-0.0015082383665439357,0.002602793633452961,0.2927129566669464,-21.87192153930664,-2.4095618724823,22.63983917236328,0.6865335702896118,2.2817275524139404,-0.07411040365695953,,,,,,,,,
1739402307.820518,0.5256852618884676,0.09602711910418656,-0.9533460081103888,-2.0689981441215863,0.13771105885290408,2.1375847429862254,-1.2753763502785476,0.00040871667970221893,0.00021770559216535668,0.0019417954981096755,0.0006229642009058628,-7.81684988296848e-06,0.0016396969148604226,0.0012486169727573878,0.1935308277606964,-21.82431411743164,-2.4095618724823,22.61603546142578,0.6673074960708618,2.2551772594451904,-0.05396880581974983,,,,,,,,,
1739402307.8314407,0.5256874339901221,0.0960266268509811,-0.9533520547038504,-2.068994538695825,0.1377167269855972,2.137579089002086,-1.275377722189904,-9.445255750287923e-05,0.0009956931378937838,0.0001574266626932355,0.002753161716915547,0.002121835170188049,-0.001693280340800167,0.00017042511278903309,0.1935308277606964,-21.84811782836914,-2.35798716545105,22.56842803955078,0.6938577890396118,2.2679946422576904,-0.027418512850999832,,,,,,,,,
1739402307.8424277,0.5256866921931097,0.09601915191113376,-0.9533483191217277,-2.068996408198019,0.13770954276755992,2.1375839462426827,-1.2753789142855292,0.000992198639830798,-0.0012336933712258954,-0.00022988694376582615,5.1242856818538925e-05,-0.0005638926851869869,0.002309624554365634,-0.0016851120924376603,0.1935308277606964,-21.77273941040039,-2.38179087638855,22.59223175048828,0.6801248788833618,2.2615859508514404,-0.04023589566349983,,,,,,,,,
1739402307.8533654,0.5256849793471987,0.09602128272959883,-0.9533459832046216,-2.068996792764907,0.13770948258729243,2.137578810500438,-1.2753725602289554,0.0005108070469825616,-0.000468443827954832,0.0026273153316560332,0.00040667281531728055,-0.0004684806944305023,-0.0010769352476459248,-0.000885636688193008,0.2173345386981964,-21.77273941040039,-2.4095618724823,22.56842803955078,0.6801248788833618,2.2753188610076904,-0.08051909506320953,,,,,,,,,
1739402307.864365,0.5256813773941855,0.09602298357036378,-0.9533522897057729,-2.0689950426524817,0.13771279794697716,2.1375831879937324,-1.2753733541600507,-0.0011524125867325126,0.00021690139656745696,-0.00043896614439020004,-2.595317103011672e-05,-0.0002663760549351382,-0.00022045806670234578,0.0027559589939853005,0.2411382496356964,-21.79654312133789,-2.35798716545105,22.54065704345703,0.6801248788833618,2.2679946422576904,-0.06037749722599983,,,,,,,,,
1739402307.8744829,0.5256812386819006,0.09601945849294896,-0.9533505070425503,-2.0689952803729925,0.13771497501564275,2.1375804098301283,-1.2753727945930005,0.0013877898281395911,-0.0012370922303639642,-0.0008421944520714381,0.0002667384349820979,0.001621591147993646,-0.001487459801618426,0.002295536582077276,0.2411382496356964,-21.72116470336914,-2.38179087638855,22.56842803955078,0.6737161874771118,2.2615859508514404,-0.07411040365695953,,,,,,,,,
1739402307.8853967,0.5256845972744241,0.09602057231924598,-0.9533523256949382,-2.0689933195893317,0.13771008932113835,2.137584507730492,-1.2753789919896332,0.00030281469514349213,0.00025410691041988004,-0.000883199081217251,0.0007042009222344363,5.819221312745914e-06,0.0008205174963588305,-0.000330465830591161,0.1935308277606964,-21.77273941040039,-2.35798716545105,22.54065704345703,0.6865335702896118,2.2551772594451904,-0.013685601763427258,,,,,,,,,
1739402307.8963616,0.525682847625203,0.09602120478871397,-0.9533524545523706,-2.0689964160035976,0.1377105763357382,2.1375843885582273,-1.2753788747312382,8.224687791451513e-06,4.028330876445146e-05,-0.00030675248552412636,0.00035634763714242315,-0.0008830292363510409,0.0002986099428368802,6.823147557545877e-05,0.2173345386981964,-21.77273941040039,-2.35798716545105,22.59223175048828,0.6737161874771118,2.2551772594451904,-0.013685601763427258,,,,,,,,,
1739402307.9064379,0.5256856667937757,0.0960192058784894,-0.9533505080446578,-2.0689945399407956,0.13770959976662023,2.1375828572430113,-1.2753803897277274,0.0007262487325427096,-0.0003820805268464428,0.00014255408180322178,0.00022597347332918515,-0.0018308950040952204,0.00033539541131744446,0.000531101858350265,0.2173345386981964,-21.74496841430664,-2.38179087638855,22.56842803955078,0.6801248788833618,2.2679946422576904,-0.0008682189509272575,,,,,,,,,
1739402307.9173985,0.5256866917648113,0.09602667941650908,-0.9533522900526805,-2.068997420482719,0.1377095815592448,2.137583306395281,-1.2753765120862173,0.0006082746460003846,0.0010497538761382644,-0.0016815497957202582,-0.002168137736692324,-0.000584115930469401,-0.0008803941060158689,0.001720043808174774,0.1935308277606964,-21.84811782836914,-2.35798716545105,22.59223175048828,0.6801248788833618,2.2679946422576904,-0.03382720425724983,,,,,,,,,
1739402307.9283304,0.5256831633864976,0.09602811130922174,-0.9533498050322917,-2.068995614560477,0.1377123583292984,2.137585618623908,-1.275380902652984,7.962110185637527e-06,0.0012986863817687215,0.0002528577467215772,0.0010456833019717733,0.00025239904208283125,0.0016212279924602603,-0.0006160289685825612,0.2173345386981964,-21.87192153930664,-2.38179087638855,22.56842803955078,0.6865335702896118,2.2487685680389404,-0.027418512850999832,,,,,,,,,
1739402307.9384005,0.5256845627190158,0.0960284182394761,-0.95335046936756,-2.069000330551523,0.13771096836121477,2.137582570777497,-1.2753758277954956,-0.0003764769654116399,0.0008362196225028815,-0.0017555243891538576,0.00033123829208614333,-0.00010447742837238925,-0.00038770624928414815,0.0011618649653789277,0.1935308277606964,-21.87192153930664,-2.38179087638855,22.61603546142578,0.6801248788833618,2.2615859508514404,-0.06678618490695953,,,,,,,,,
1739402307.9494002,0.5256828473040496,0.0960249930949524,-0.9533459078976039,-2.069000997745117,0.1377142020481709,2.137581815029532,-1.2753730737951723,-0.0010476750447615737,-0.0011362361788741717,0.0008942656302460472,-0.000801420820509818,0.0008087405520465516,0.00024878773338393674,0.0011663940935791558,0.2173345386981964,-21.82431411743164,-2.4333655834198,22.63983917236328,0.6801248788833618,2.2679946422576904,-0.06678618490695953,,,,,,,,,
1739402307.960399,0.5256811349972627,0.09602499352723207,-0.9533496922199269,-2.0689984712633818,0.13771346194059972,2.1375796952918296,-1.275376094611629,-0.0012695899173252264,-0.0017504803962213608,0.0006008123453096776,0.0003908539287551348,-0.0001295495505558984,-0.00021634347780044745,-0.0005739799760700209,0.2411382496356964,-21.82431411743164,-2.38179087638855,22.61603546142578,0.6865335702896118,2.2679946422576904,-0.04023589566349983,,,,,,,,,
1739402307.9713633,0.5256828481599801,0.09602298357036566,-0.9533481152435349,-2.0689975070410807,0.13771571807347205,2.137582477572648,-1.2753758550461443,-0.0014676324685116717,-0.0008163701144662818,-0.00012594254962450556,0.0013548086925805629,0.0014593697770197067,0.00027326397824772565,-0.00014013103867566807,0.2173345386981964,-21.79654312133789,-2.4095618724823,22.56842803955078,0.6673074960708618,2.2753188610076904,-0.04023589566349983,,,,,,,,,
1739402307.982368,0.5256850611168828,0.09602841835261493,-0.9533463083804578,-2.06899920702032,0.13770879050123358,2.1375826845850856,-1.2753771613019464,0.00041848163248931554,0.0007167680585296347,1.2801014344624299e-05,-0.0005549702426094747,-0.0007678586434423464,-0.0008091822297642425,0.001270423643567378,0.2173345386981964,-21.87192153930664,-2.4095618724823,22.61603546142578,0.6865335702896118,2.2615859508514404,-0.04023589566349983,,,,,,,,,
1739402307.9923685,0.5256791627732901,0.09603042007377588,-0.9533491311190017,-2.0690004434928357,0.13771022510454928,2.1375800489679104,-1.275376551194716,-0.0004836699797321426,0.0015334143812070432,-0.0005033042052953805,-0.0002461188046539968,-0.00014765595808086877,-0.0007579834442412315,-0.0001215173018594707,0.2689092457294464,-21.89969253540039,-2.35798716545105,22.61603546142578,0.6865335702896118,2.2679946422576904,-0.03382720425724983,,,,,,,,,
1739402308.0033216,0.5256829255195746,0.0960259380472762,-0.9533444604902626,-2.0689968832471632,0.13771573703288562,2.1375856185683,-1.2753812955012416,-0.0003744544727741134,0.0004568399671826233,0.0006682934305215977,-0.0005494021035600526,0.0014508154858390058,0.001105032774428456,-0.0012787331568912855,0.2173345386981964,-21.82431411743164,-2.4333655834198,22.56842803955078,0.6673074960708618,2.2487685680389404,-0.020094294100999832,,,,,,,,,
1739402308.0133302,0.5256862573036769,0.09602128404304341,-0.9533522883162735,-2.0689992043411896,0.13771417772601838,2.137584103303973,-1.2753796719608907,0.00048406759402137194,4.6645633005431815e-05,-0.001089222862278992,-0.0021028829244329823,0.0007532010610798562,0.0013011890854445047,4.011950150187738e-05,0.1697271168231964,-21.77273941040039,-2.35798716545105,22.61603546142578,0.6801248788833618,2.2615859508514404,-0.03382720425724983,,,,,,,,,
1739402308.0233905,0.5256828471967484,0.09602096997397529,-0.9533530183317949,-2.0689981131125843,0.1377142217668359,2.1375848217181947,-1.2753772638244238,-0.0008570059882027752,-0.0014492883616907095,-0.0013588856415389064,0.0002791272817117224,0.0016497042685708785,0.0006053966254585078,0.0024162773708472605,0.2173345386981964,-21.77273941040039,-2.35798716545105,22.61603546142578,0.6801248788833618,2.2551772594451904,-0.027418512850999832,,,,,,,,,
1739402308.0333977,0.5256811347832675,0.09602086439101117,-0.9533522897319087,-2.068997421500352,0.1377129838756997,2.1375825707768326,-1.275380444080545,-0.000585945346536647,0.0002953079124223183,-0.0009052600721174877,-0.001240520970629911,-0.00028645835203469584,-9.032849621689243e-05,-0.002100448823465651,0.2411382496356964,-21.79654312133789,-2.35798716545105,22.59223175048828,0.6865335702896118,2.2615859508514404,-0.013685601763427258,,,,,,,,,
1739402308.0444024,0.5256845597177331,0.09601686194324438,-0.9533505070425505,-2.0689973194187283,0.13771066604517204,2.137584101841772,-1.2753733541599521,-0.00013987197907142036,-0.0008399450169257504,0.0004196662162305181,-0.0013225916303282897,-4.2279177393133595e-05,0.000336430033730015,0.002608260348204221,0.1935308277606964,-21.72116470336914,-2.38179087638855,22.59223175048828,0.6801248788833618,2.2615859508514404,-0.06037749722599983,,,,,,,,,
1739402308.0544071,0.5256811346762701,0.09602298648133292,-0.9533522897195696,-2.068999096001529,0.13771344503303276,2.137579864751431,-1.2753785210750872,0.0006690412279006415,0.00159079626028264,-0.00011808371842026539,-0.0010530890845431558,-0.00039214384535756386,-0.0018874658658749215,-0.0013306601282154426,0.2411382496356964,-21.79654312133789,-2.35798716545105,22.61603546142578,0.6865335702896118,2.2615859508514404,-0.05396880581974983,,,,,,,,,
1739402308.0664268,0.525683119719503,0.09602499320316213,-0.9533483852269234,-2.0690024815455526,0.13771178935786224,2.137583345404627,-1.2753742310271792,0.00017573236174925753,0.0008524512260307414,8.276151513228781e-05,0.0005583460971501769,-0.0001728153088801253,-0.0011585990329905517,0.00066911782304991,0.2173345386981964,-21.82431411743164,-2.4095618724823,22.63983917236328,0.7002664804458618,2.2679946422576904,-0.05396880581974983,,,,,,,,,
1739402308.077383,0.5256838130634832,0.0960239401063573,-0.9533505070424715,-2.0690043411811296,0.137712598156003,2.137583305752015,-1.275371770055642,0.0010252996934264308,0.00012738219171230434,-0.0008207150802198438,-0.0013609652340423068,0.0001175199165603425,0.0010435070317671234,0.001176212107456069,0.2173345386981964,-21.79654312133789,-2.38179087638855,22.63983917236328,0.6938577890396118,2.2679946422576904,-0.07411040365695953,,,,,,,,,
1739402308.0893836,0.5256828559049128,0.09602299818387748,-0.9533508308208678,-2.068993995443861,0.13770919906403248,2.137586524558057,-1.2753828151813968,-0.0003920430012919621,-0.0004910115850765147,-0.0004591495850917865,0.00047329022759781436,6.0441603073474297e-05,0.00042857712320916675,-0.0033354098273725937,0.2173345386981964,-21.79654312133789,-2.38179087638855,22.54065704345703,0.6865335702896118,2.2679946422576904,-0.0072769103571772575,,,,,,,,,
1739402308.1004374,0.525683089867264,0.09602228205069285,-0.953349678956803,-2.0690014372643657,0.1377125850224803,2.1375833456618394,-1.2753742781798887,0.0004882586656124772,-0.0011176451273959965,-0.0008417890706173896,-0.0016541601509577016,0.0008734213629868356,-3.0121084890584015e-05,-0.0003580871807769766,0.2173345386981964,-21.79654312133789,-2.38179087638855,22.61603546142578,0.6938577890396118,2.2679946422576904,-0.05396880581974983,,,,,,,,,
1739402308.110467,0.5256793708828704,0.09602912380630266,-0.9533448618939823,-2.069000219350069,0.13771113707042926,2.1375848604795347,-1.2753790447968916,-0.0005461132273093042,0.00043138041864516084,0.0004379942275834169,0.0012656432009985914,0.0006642943133017231,0.0005078170643771518,-0.0011631347717931076,0.2689092457294464,-21.87192153930664,-2.4571692943573,22.63983917236328,0.6801248788833618,2.2551772594451904,-0.013685601763427258,,,,,,,,,
1739402308.1213837,0.525682847198323,0.09602841824865699,-0.9533473751202306,-2.0690047598471826,0.1377122427183969,2.13758247974666,-1.2753843428634455,-0.0012221481329631977,0.0006874178500237313,0.0016424412484444218,-0.00016473287630433474,0.0003853151891515162,-0.000536658234137189,-0.0008241103101995542,0.2173345386981964,-21.87192153930664,-2.38179087638855,22.66364288330078,0.6938577890396118,2.2753188610076904,-0.0072769103571772575,,,,,,,,,
1739402308.132396,0.525687610571652,0.09602712302645791,-0.9533463086498658,-2.0690032244723127,0.1377117801555054,2.1375833456438946,-1.275377408974237,0.001819565870677504,-0.00036473086707392,0.00042936941737200716,-0.0010769944279595798,0.00019216063498824116,-0.0001532955779877076,0.00012631524925293838,0.1935308277606964,-21.82431411743164,-2.4095618724823,22.63983917236328,0.6737161874771118,2.2679946422576904,-0.05396880581974983,,,,,,,,,
1739402308.143341,0.5256856552552661,0.09602873320469654,-0.9533522897076101,-2.0690024796745625,0.13771422158700675,2.1375824797466625,-1.275382526067404,0.0003762162621971285,0.0014084923529283004,-0.001568078919902775,-0.0010280895933106847,5.825154202509044e-05,-0.0005084934480910342,-0.002313512361553558,0.2173345386981964,-21.87192153930664,-2.35798716545105,22.63983917236328,0.6801248788833618,2.2753188610076904,-0.013685601763427258,,,,,,,,,
1739402308.1533957,0.5256832407546068,0.09602300412425491,-0.9533484185859014,-2.068995457704567,0.13771346166977544,2.1375833456438946,-1.2753783123266764,-0.0006551586711644987,-0.0011919184552594002,0.0002111381603861329,0.0003685198185688779,8.322806522553232e-05,-0.0002819156241775114,-0.0005605500017957513,0.2411382496356964,-21.79654312133789,-2.4095618724823,22.54065704345703,0.6865335702896118,2.2679946422576904,-0.027418512850999832,,,,,,,,,
1739402308.1643243,0.5256845684201924,0.09602670280109425,-0.9533483910608589,-2.0689948697682277,0.13771645525663223,2.1375833456438946,-1.275380428830049,-2.8335208042664468e-05,0.0011574868291700958,0.0007266265760957472,-0.00039362320738392043,0.0010569844106799028,-0.00038465753737874025,-0.0007007013605895799,0.1935308277606964,-21.84811782836914,-2.38179087638855,22.56842803955078,0.6608988046646118,2.2679946422576904,-0.0008682189509272575,,,,,,,,,
1739402308.1744404,0.5256811341231625,0.09602117751365781,-0.9533447492183986,-2.068997433824942,0.13770939942744512,2.1375824797466625,-1.2753823165553473,-0.0023063243231680017,-0.0003131549105604685,0.0022031518027553912,0.0006060876093816558,-0.0009807064715607705,-0.0007094596318454978,-0.0012731047917003413,0.2411382496356964,-21.77273941040039,-2.4571692943573,22.59223175048828,0.6938577890396118,2.2753188610076904,0.0064559997990727425,,,,,,,,,
1739402308.1853685,0.5256850341178514,0.09602128356874953,-0.9533505068992512,-2.068999132959534,0.13771742053212746,2.1375833456438946,-1.2753741120324993,0.0002396156509562807,-0.0009732994906832,-0.00018228031061485778,-0.0001738553268694652,0.0007857562120120352,-6.769440585732451e-06,0.002646866840255761,0.2173345386981964,-21.77273941040039,-2.38179087638855,22.61603546142578,0.6801248788833618,2.2679946422576904,-0.05396880581974983,,,,,,,,,
1739402308.1963725,0.5256811347242811,0.09602127104963731,-0.9533520557161486,-2.0689995368576786,0.13771350350836042,2.1375848391607977,-1.2753738267164272,-0.0010686382724745484,3.258483574111669e-05,-0.0005442073344917394,-0.0012994425577138222,0.0005015480781760573,0.0001197560786165899,0.0023674164952213255,0.2411382496356964,-21.77273941040039,-2.35798716545105,22.59223175048828,0.6865335702896118,2.2551772594451904,-0.06037749722599983,,,,,,,,,
1739402308.2073429,0.5256877067266934,0.09602128176709653,-0.9533505067175952,-2.068994539654486,0.1377098377638037,2.137583345643525,-1.2753727142370255,0.002860451421978522,0.00023450271807503263,-0.000840916890438357,0.0011424385209598347,-0.001845395052779612,-0.0002490745958854535,0.0008752902635778278,0.1935308277606964,-21.77273941040039,-2.38179087638855,22.56842803955078,0.6801248788833618,2.2679946422576904,-0.06678618490695953,,,,,,,,,
1739402308.218406,0.5256811385459431,0.09602033565395743,-0.9533504812682765,-2.068994766901281,0.13771416860043126,2.137584103465479,-1.2753742297109087,0.0002910178690527101,-0.0009746507241834713,-0.00021150695953101175,-0.00026949386639512534,-0.00028684082933015854,-0.0003738846803476981,0.00042187715591960435,0.2411382496356964,-21.77273941040039,-2.38179087638855,22.54065704345703,0.6801248788833618,2.2615859508514404,-0.05396880581974983,,,,,,,,,
1739402308.2284203,0.5256845635697062,0.09602667940091558,-0.9533517525731692,-2.069000329215742,0.13771423476788078,2.137584860964054,-1.275377250690633,0.0003351232805973493,0.0008747157284255227,-0.0011345671992247328,-0.001001651160516488,0.0012576648448165634,-0.00039340699777263855,-0.001327357219463855,0.1935308277606964,-21.84811782836914,-2.38179087638855,22.61603546142578,0.6801248788833618,2.2551772594451904,-0.027418512850999832,,,,,,,,,
1739402308.2384288,0.5256828500859542,0.09602373294880164,-0.953348427259726,-2.0689952803417966,0.13771183860008615,2.1375848609640515,-1.2753796363206211,-0.00016857898405134148,-6.570661539729997e-05,0.0003426550522370354,0.0012856734214296904,-0.0006721261780491323,0.0007001667089129933,-0.001287491924285551,0.2173345386981964,-21.79654312133789,-2.4095618724823,22.56842803955078,0.7002664804458618,2.2551772594451904,-0.0072769103571772575,,,,,,,,,
1739402308.24943,0.5256815986959578,0.09602499320737597,-0.953350506578895,-2.068998960098015,0.13771457718785995,2.1375848609640515,-1.275374112457216,3.3552172298723364e-05,0.0001564666894174787,-0.0011849019649408992,0.00010985981941979815,0.0011996589406403253,0.00039094631982884644,0.0005153931810631114,0.2411382496356964,-21.82431411743164,-2.38179087638855,22.61603546142578,0.6801248788833618,2.2551772594451904,-0.05396880581974983,,,,,,,,,
1739402308.2594306,0.5256811346998447,0.09602582979435484,-0.9533463212218892,-2.0689966523249037,0.13771259822832824,2.1375848435214486,-1.2753725427684401,-0.000882568879857616,0.0008395638327983668,0.0007468317025416807,0.00046860990460778607,0.0003909238133982853,6.268942503980904e-05,0.0005237898318072524,0.2411382496356964,-21.79654312133789,-2.4095618724823,22.59223175048828,0.6938577890396118,2.2551772594451904,-0.08051909506320953,,,,,,,,,
1739402308.2713964,0.5256821359477241,0.09602502852678811,-0.953347690440972,-2.0690006622466517,0.13771077428932504,2.1375833456438618,-1.2753789193642748,0.00021537438425787075,-0.00016682157306230642,0.00045976907995265177,-0.00031394111990302786,-0.0012231832354613614,-0.00033454788588795027,-8.899915289725452e-06,0.2173345386981964,-21.82431411743164,-2.4095618724823,22.61603546142578,0.7002664804458618,2.2679946422576904,-0.04023589566349983,,,,,,,,,
1739402308.2814395,0.525683552084148,0.09602380718175785,-0.9533484243512859,-2.069000662389846,0.13771352552011346,2.1375848609640515,-1.2753741125111122,0.0001342498310327302,9.315970852256434e-05,0.0005359579486313001,-0.000971668928397457,0.00032201686609317336,0.0003511678004266647,0.0009088817157633111,0.2173345386981964,-21.82431411743164,-2.4095618724823,22.61603546142578,0.6865335702896118,2.2551772594451904,-0.05396880581974983,,,,,,,,,
1739402308.292324,0.5256856812424032,0.09602299521957709,-0.9533464101442495,-2.0690016820047856,0.13771346410785007,2.1375833456438946,-1.2753750443817973,0.00015676704682082877,-0.000946203277720864,-0.00025912913613741263,-0.0003626694045686395,0.0008602946916312077,-0.00014604263625800547,0.0005828899454874439,0.2173345386981964,-21.79654312133789,-2.4333655834198,22.66364288330078,0.6865335702896118,2.2679946422576904,-0.04756011441349983,,,,,,,,,
1739402308.302406,0.5256845636213047,0.09602348737762408,-0.9533505339870878,-2.0690042129983097,0.1377149794276601,2.137584109172009,-1.2753764984553553,0.0010909946314517365,-0.000731943055502315,-0.0010965967418882045,-0.0022043639091033317,-0.0004810214423213504,0.0008732790739763728,-0.002352550775105641,0.1935308277606964,-21.77273941040039,-2.38179087638855,22.63983917236328,0.6737161874771118,2.2615859508514404,-0.07411040365695953,,,,,,,,,
1739402308.3124502,0.5256855737326196,0.09602593819255292,-0.9533544504544608,-2.0690031141498353,0.137714261258725,2.137586524558382,-1.275375642480322,0.0007610894162864315,0.0011609776211391584,-0.002143739818847681,-0.001416827312638279,0.0008173464414686905,0.00036927489433936705,-0.0015658129504834142,0.1935308277606964,-21.82431411743164,-2.3302161693573,22.63983917236328,0.6801248788833618,2.2679946422576904,-0.05396880581974983,,,,,,,,,
1739402308.324393,0.5256852646226484,0.09602467748860043,-0.9533463183334386,-2.068998558878415,0.13771315550693702,2.137584103321918,-1.2753756488684418,0.0015691688348744809,0.000611749688158524,0.0010060431276614414,0.0012428532185337043,-0.0015119858944935027,-4.07205936289818e-06,-0.0008094235059569422,0.1935308277606964,-21.82431411743164,-2.4095618724823,22.59223175048828,0.6801248788833618,2.2615859508514404,-0.05396880581974983,,,,,,,,,
1739402308.3363838,0.5256803102581951,0.09602307399876445,-0.9533545108736192,-2.0689949711310893,0.13771247975289214,2.1375841033039733,-1.2753788794768128,-0.0008744365104578646,-2.3041966667842745e-05,-0.0006002130323423965,0.0007373943381868376,-0.0007548459015463674,3.482804617556144e-05,-0.002785465625848302,0.2927129566669464,-21.79654312133789,-2.35798716545105,22.54065704345703,0.6938577890396118,2.2615859508514404,-0.05396880581974983,,,,,,,,,
1739402308.3473144,0.5256832407243713,0.09601920595187816,-0.9533484149766179,-2.0690009900370323,0.1377141031314141,2.1375816873793476,-1.2753781694789457,-0.001421845375484778,-0.0011508156800317361,0.0007167352266806771,-0.001041108347706083,0.0004766328277537003,4.207093084986985e-05,-0.0006914015819119133,0.2411382496356964,-21.74496841430664,-2.4095618724823,22.63983917236328,0.6801248788833618,2.2551772594451904,-0.020094294100999832,,,,,,,,,
1739402308.3573174,0.5256813697496656,0.0960229689513644,-0.9533522117178058,-2.0689999694251218,0.1377142217615544,2.1375841031427383,-1.275376479345561,-0.001256015970299062,0.0005436961763214124,-0.0006153559674059928,6.499274697034673e-05,-0.0003976633049742321,0.0002083727682948808,-0.0016976906370909793,0.2411382496356964,-21.79654312133789,-2.35798716545105,22.63983917236328,0.6801248788833618,2.2615859508514404,-0.07411040365695953,,,,,,,,,
1739402308.3673809,0.525686280906584,0.09602127884414731,-0.9533522598668411,-2.068996804974706,0.137712818613134,2.1375841028194555,-1.2753805873131152,0.0005737261245531828,-0.000540552215188876,-0.0014949163980287972,0.0011720674566430475,-0.0002035000223796805,-0.0001838398995943139,-0.0018992389784219035,0.1697271168231964,-21.77273941040039,-2.35798716545105,22.56842803955078,0.6801248788833618,2.2615859508514404,-0.027418512850999832,,,,,,,,,
1739402308.3783848,0.5256835492073109,0.09602128270551903,-0.9533484272168605,-2.068997102771026,0.1377124988060714,2.1375841033039706,-1.2753770452185171,0.0007029597309803537,-0.0008882175211712749,0.0016492819487908565,0.00018291150161474617,0.0006149915151647759,-2.339625275553277e-05,-0.0007463375064554441,0.2173345386981964,-21.77273941040039,-2.4095618724823,22.56842803955078,0.6673074960708618,2.2615859508514404,-0.06037749722599983,,,,,,,,,
1739402308.3884094,0.5256866686493343,0.09602499611939626,-0.9533522550523956,-2.0689910377054925,0.13771422155022617,2.1375841033039733,-1.2753733693951237,0.0016284167451226295,0.0004423378266843375,-0.0004789006354995993,0.001491224666474426,-0.0004952125815804027,0.000364709546720128,0.001678131560123182,0.1935308277606964,-21.82431411743164,-2.35798716545105,22.51685333251953,0.6801248788833618,2.2615859508514404,-0.06037749722599983,,,,,,,,,
1739402308.3993704,0.5256849649262202,0.09602299526240801,-0.9533484184783171,-2.0689988775276014,0.1377134641074997,2.1375841033039733,-1.275375778975245,0.00027598388900370414,-0.001173882460363439,0.0006151169502755495,-0.0006665526942520167,0.0003758778866571494,0.0007303072862114061,0.0005392754243439739,0.2173345386981964,-21.79654312133789,-2.4095618724823,22.59223175048828,0.6865335702896118,2.2615859508514404,-0.04023589566349983,,,,,,,,,
1739402308.4093847,0.5256845857539765,0.09602841694556355,-0.9533483970792659,-2.06900022853191,0.13771573708773843,2.13758319736982,-1.275377277644343,0.0007352411080102414,0.0013497841103176584,-0.00027549032344980604,-0.0012936547606533266,0.0017340595696035636,6.39410689439458e-05,0.0022694533193118103,0.1935308277606964,-21.87192153930664,-2.4095618724823,22.63983917236328,0.6673074960708618,2.2423598766326904,-0.05396880581974983,,,,,,,,,
1739402308.420379,0.5256845598604448,0.09602670864012561,-0.9533497270192044,-2.069002976201689,0.13771497525644194,2.1375833456379127,-1.2753717351761686,0.0004922729577208495,-0.001376407048123221,9.103425464432194e-05,-0.0007437032124708021,-0.0002065646108631166,0.00044671998675863036,0.0022009944096458853,0.1935308277606964,-21.84811782836914,-2.38179087638855,22.63983917236328,0.6737161874771118,2.2679946422576904,-0.07411040365695953,,,,,,,,,
1739402308.43133,0.5256845598247307,0.09602841824469054,-0.9533476604780229,-2.069001167074292,0.1377125791959933,2.1375840858613704,-1.275376495128156,0.00034126055521151264,0.0004474882434306179,0.0007332977313151217,0.0002586809568803219,-0.002417446056788651,-8.80151346038506e-05,-0.0008276673108977848,0.1935308277606964,-21.87192153930664,-2.38179087638855,22.61603546142578,0.6938577890396118,2.2615859508514404,-0.03382720425724983,,,,,,,,,
1739402308.4413788,0.5256829251981432,0.09602484684205778,-0.9533484272044881,-2.0689984736747364,0.13771255725617082,2.1375824797463667,-1.2753824733605081,0.000440867934042933,-0.0006699367845495272,-0.00025666355684401596,0.0006767641170659473,-0.000897624975754664,-0.0008914259949794732,-0.001484347862978189,0.2173345386981964,-21.82431411743164,-2.4095618724823,22.61603546142578,0.6938577890396118,2.2753188610076904,-0.020094294100999832,,,,,,,,,
1739402308.4513822,0.5256830927574669,0.09602954025346024,-0.9533481921792993,-2.068996608648859,0.13771486095353677,2.1375841033039733,-1.2753784701131055,0.0001353283899711156,-0.00023889766569652358,-0.0011930541054548278,0.0005931867193557564,-0.0005730693471608049,0.0003899841670598676,-0.0005041805092191297,0.2173345386981964,-21.84811782836914,-2.4095618724823,22.59223175048828,0.6737161874771118,2.2615859508514404,-0.05396880581974983,,,,,,,,,
1739402308.4625835,0.5256791367368033,0.09602299524227323,-0.9533513275615184,-2.06899912990242,0.13771259820960222,2.137584097489772,-1.275379684258547,-0.0015844685338494851,-0.0008636474373452279,-0.0018143919454917477,-0.0016052166869898344,-0.0003486647883632955,0.0004435620217785425,-0.001405727752313456,0.2689092457294464,-21.79654312133789,-2.35798716545105,22.61603546142578,0.6938577890396118,2.2615859508514404,-0.0072769103571772575,,,,,,,,,
1739402308.4734476,0.5256828471970013,0.09602399264437565,-0.9533504941617594,-2.069002482563229,0.13771573708773843,2.137584107664591,-1.2753821054885492,-0.0004142376280513671,0.0005777396739737243,-0.00024916944349723746,-0.0012880281161796341,0.001143368543321878,-0.00033403097082436553,-0.0020991347881668576,0.2173345386981964,-21.79654312133789,-2.38179087638855,22.63983917236328,0.6673074960708618,2.2615859508514404,-0.013685601763427258,,,,,,,,,
1739402308.48438,0.5256811452508481,0.09602299570001631,-0.9533496894749726,-2.0690008771312285,0.13771345901536697,2.137582479746687,-1.2753759054520988,-0.0013901293045028486,0.00013402247544574226,0.00038119751656748757,-0.00169915529042858,-1.7377894486313598e-05,-0.0003164092690075061,0.0007365960606095262,0.2411382496356964,-21.79654312133789,-2.38179087638855,22.63983917236328,0.6865335702896118,2.2753188610076904,-0.04023589566349983,,,,,,,,,
1739402308.4953272,0.5256829570645984,0.09602104597873538,-0.9533480880396159,-2.068999576200221,0.13771346410747465,2.1375833456438946,-1.2753764946984087,0.0013187936183730663,-0.0013635041899836308,0.0008805146011898891,-0.0010521934802637048,-0.0011444524114374475,-0.0005376475380364273,0.0010576237461420532,0.2173345386981964,-21.77273941040039,-2.38179087638855,22.59223175048828,0.6865335702896118,2.2679946422576904,-0.03382720425724983,,,,,,,,,
1739402308.5053911,0.5256812473464442,0.09602435348061349,-0.9533504273738778,-2.0689971008213823,0.13771071292155454,2.1375833456438946,-1.2753753932338807,-0.0012340515423424326,0.0006436351503797957,-0.0004319584216519919,0.0009686464045874996,-0.0010598058738697628,-0.0003051779883854075,-0.0005762133121350911,0.2411382496356964,-21.77273941040039,-2.35798716545105,22.59223175048828,0.6737161874771118,2.2679946422576904,-0.04756011441349983,,,,,,,,,
1739402308.51643,0.5256788986384663,0.09602500492128911,-0.9533505069963717,-2.068994633915615,0.1377125976444698,2.1375848609640515,-1.2753785096934138,-0.0011717682904883054,0.0003718538153255294,-0.0010637502904082303,0.0010478380394621652,0.000899997869826224,-0.0006453607076960606,-8.825864779858433e-05,0.2689092457294464,-21.82431411743164,-2.38179087638855,22.56842803955078,0.6938577890396118,2.2551772594451904,-0.020094294100999832,,,,,,,,,
1739402308.527321,0.5256837957280397,0.09602299493764714,-0.9533495450284892,-2.0689946576288474,0.13771345825696046,2.1375841033039733,-1.2753727672050728,0.0004806508207578774,-0.00041220877603262196,-0.0003507428893348666,0.000739027159851055,0.0001758040330220957,-0.00033023156990317516,0.0014209028551900723,0.2173345386981964,-21.79654312133789,-2.38179087638855,22.56842803955078,0.6865335702896118,2.2615859508514404,-0.06678618490695953,,,,,,,,,
1739402308.5373523,0.5256811389722315,0.09602500195176174,-0.9533505347389047,-2.068996412835245,0.1377134772711187,2.1375833456438946,-1.2753765853961785,-0.0010938926969154016,0.0014863052443407445,-0.0001430076159835979,0.00015322763606074534,-0.0006943264423860875,0.00017652269336038766,0.0010641917945647332,0.2411382496356964,-21.82431411743164,-2.4095618724823,22.59223175048828,0.6865335702896118,2.2679946422576904,-0.06037749722599983,,,,,,,,,
1739402308.5483847,0.5256811347832918,0.09602299526240801,-0.9533484271575944,-2.068998113094466,0.1377125383052098,2.1375833498430397,-1.275375777415983,-0.0003683731586564637,-0.000347882687508788,0.0006109845423648212,0.00024111861410723546,-0.00018189176328139013,-6.999484852454977e-05,0.0008683079672535693,0.2411382496356964,-21.79654312133789,-2.4095618724823,22.61603546142578,0.6673074960708618,2.2679946422576904,-0.06678618490695953,,,,,,,,,
1739402308.5583885,0.5256769922521763,0.0960267318613503,-0.953350495379827,-2.068997122429767,0.137714966209774,2.1375838165942453,-1.2753736736260541,-0.0012587984090653807,0.0007644224274112581,-0.0015786626487836232,0.0007948026000319116,-0.0004923921669374012,0.0001838374631238651,0.001603530422131537,0.2689092457294464,-21.84811782836914,-2.38179087638855,22.56842803955078,0.6737161874771118,2.2679946422576904,-0.06678618490695953,,,,,,,,,
1739402308.5693226,0.5256845597056269,0.0960257014033214,-0.9533463115564108,-2.069000888851082,0.13771422176750714,2.137583345646553,-1.275377608268077,0.00048317677750309374,0.0009665138613403399,0.0011838593649819247,-0.00043285701011068874,-4.3598160407442244e-05,-0.0005572213120969857,-0.0010185921990024196,0.1935308277606964,-21.82431411743164,-2.4095618724823,22.63983917236328,0.6801248788833618,2.2679946422576904,-0.027418512850999832,,,,,,,,,
1739402308.5794823,0.5256818453533235,0.09602712788674453,-0.9533484184784131,-2.068999659001009,0.13771026532490044,2.1375833456438946,-1.2753818905049907,0.00010078596002618362,-0.0002773768415064924,-0.0005228763051207904,-0.00029721668312504296,-0.0002512715145144929,-0.0002162028672064538,-0.001954526409059103,0.2411382496356964,-21.82431411743164,-2.4095618724823,22.59223175048828,0.6865335702896118,2.2679946422576904,-0.020094294100999832,,,,,,,,,
1739402308.5903807,0.5256811346802819,0.09602600848005313,-0.9533474908109747,-2.0690011884051964,0.13771346408944618,2.1375841033039733,-1.2753740100096178,-0.0006181988091709834,0.0006663006504993929,-0.0005388729433806473,-0.00013681995553581979,-0.0004060349064019163,0.00010049397228837647,0.001595081496623502,0.2411382496356964,-21.84811782836914,-2.4095618724823,22.61603546142578,0.6865335702896118,2.2615859508514404,-0.06678618490695953,0,0,0,0.000,0,0
1739402308.6003933,0.5256832766581949,0.09602883129422628,-0.9533505391607247,-2.0689983891890042,0.13771649474781666,2.1375848609640515,-1.2753772565108163,-5.485914935476628e-05,0.0012710517887544043,-0.0013213787970196835,1.1171414923822059e-05,0.0010756714846180022,0.0005783527519813239,0.0003683050012866524,0.2411382496356964,-21.84811782836914,-2.38179087638855,22.61603546142578,0.6608988046646118,2.2551772594451904,-0.027418512850999832,0,0,0,0.000,0,0
1739402308.6114533,0.5256830931248957,0.09602954030394006,-0.9533543575258923,-2.068999384230704,0.1377134251039051,2.137584120746576,-1.2753752402880982,-6.971930442257261e-05,0.0014829041618967891,-0.0009745601190931219,0.00032675883071085147,0.0002208642120979475,1.5727137764469734e-05,0.0017031339828746,0.2173345386981964,-21.84811782836914,-2.3302161693573,22.59223175048828,0.6865335702896118,2.2615859508514404,-0.04756011441349983,0,0,0,0.000,0,0
1739402308.62238,0.5256829290514378,0.09602499321921298,-0.9533474348247393,-2.069002148877276,0.13771346410728322,2.137584860802644,-1.275374275310747,0.000567532584056508,5.054908109094184e-05,0.0005505759945447433,-0.00036743274367635563,-0.0009156761847937815,-0.00046363247911841195,0.00035336307623207413,0.2173345386981964,-21.82431411743164,-2.38179087638855,22.63983917236328,0.6865335702896118,2.2551772594451904,-0.05396880581974983,0,0,0,0.000,0,0
1739402308.633388,0.525681108186703,0.09602499676668123,-0.9533504809901422,-2.0689996494918734,0.13771437531171707,2.1375872822183584,-1.275374125541912,0.00014968714320072745,0.00034466713205856384,-7.55010423838434e-05,0.00019165925397828735,-0.00031744840115192387,0.0010639563130237532,0.0010726945237723125,0.2411382496356964,-21.82431411743164,-2.38179087638855,22.59223175048828,0.6938577890396118,2.2615859508514404,-0.05396880581974983,0,0,0,0.000,0,0
1739402308.6443102,0.5256886903806539,0.09602499320323181,-0.9533498048894795,-2.0689996559541073,0.1377142086138991,2.1375838057045176,-1.2753768518566515,0.0028045100872668913,0.0008991911218144379,5.419520170074028e-05,0.0002969986149339445,0.0003693325554123118,-2.29761274229044e-05,0.0006640261342099757,0.1697271168231964,-21.82431411743164,-2.38179087638855,22.59223175048828,0.6801248788833618,2.2551772594451904,-0.04023589566349983,0,0,0,0.000,0,0
1739402308.654378,0.5256811347255864,0.09601917957282126,-0.9533463202549721,-2.0689988502619383,0.1377164947477425,2.1375852141708043,-1.2753741248994235,-0.00039324364114193467,-0.0016664609050421942,0.00012135711538505909,-0.0007916240683630707,0.0006394815466632181,0.001429548812071359,0.0016556628363172629,0.2411382496356964,-21.74496841430664,-2.4095618724823,22.61603546142578,0.6608988046646118,2.2551772594451904,-0.05396880581974983,0,0,0,0.000,0,0
1739402308.6654074,0.525679171545254,0.09602128274103343,-0.9533522895650123,-2.0689948697593383,0.13771316134207184,2.1375848609660455,-1.2753821054883276,-0.0008897512895962712,-0.00019612722419121625,-0.0007056505011506344,0.0003862898602807834,-0.0007151237953332271,-0.00021013678757513722,-0.0008150338928596941,0.2689092457294464,-21.77273941040039,-2.35798716545105,22.56842803955078,0.6865335702896118,2.2551772594451904,-0.013685601763427258,0,0,0,0.000,0,0
1739402308.6763737,0.5256835838750248,0.09602128565781261,-0.9533522893985746,-2.0689996589556987,0.13771108288498693,2.1375841033039733,-1.2753804425947661,-0.000387925212302675,0.0006128386361782973,-0.00026401674807840776,-0.0006597562924101012,-0.0014264263605285256,1.6301464517261341e-06,-0.0004528251789555201,0.2173345386981964,-21.77273941040039,-2.35798716545105,22.59223175048828,0.7066751718521118,2.2615859508514404,-0.0008682189509272575,0,0,0,0.000,0,0
1739402308.687363,0.5256785076608996,0.09602133517165551,-0.9533482052410625,-2.0689994114185573,0.1377099567241111,2.1375841047575235,-1.2753841659348195,-0.0011450017056816432,-8.224946492192383e-06,0.001182807625855438,0.0003242850650287981,0.0001593881174733764,0.00024083028147812188,-0.002837743436836912,0.2411382496356964,-21.77273941040039,-2.4095618724823,22.59223175048828,0.6801248788833618,2.2615859508514404,0.026597600430250168,0,0,0,0.000,0,0
1739402308.6993837,0.5256811463340488,0.0960250019518659,-0.9533498370166361,-2.0689974294574696,0.13771772919712022,2.137584860964054,-1.275380417917414,-0.0011389129617306432,0.0002063287572186233,-0.0006113157921008274,-8.76259692489949e-05,0.002022222819119515,0.00020608070747500675,-0.00010013689083999424,0.2411382496356964,-21.82431411743164,-2.35798716545105,22.59223175048828,0.6865335702896118,2.2551772594451904,-0.013685601763427258,0,0,0,0.000,0,0
1739402308.7103865,0.5256849532278053,0.0960212827416439,-0.9533520526799398,-2.0689993294377182,0.13771340999803633,2.1375848609640515,-1.2753776711070193,0.0006811881588889043,-0.0010422835036415397,-0.0013940654491440625,0.0005809381437270228,0.00020324614156868356,0.0001666014267318582,0.00042678593231816326,0.2173345386981964,-21.77273941040039,-2.35798716545105,22.59223175048828,0.6865335702896118,2.2551772594451904,-0.03382720425724983,0,0,0,0.000,0,0
1739402308.7213125,0.5256828483026416,0.09602694193494254,-0.953351551148506,-2.0689988346119366,0.1377127122948796,2.1375833456438946,-1.2753796530084294,0.0005691744422318284,0.0008339671347132325,-0.0003812819021459479,0.0010472092005754901,-0.000899378376917614,-0.0003333951592412554,-0.0008612243840899483,0.2173345386981964,-21.84811782836914,-2.35798716545105,22.59223175048828,0.6938577890396118,2.2679946422576904,-0.020094294100999832,0,0,0,0.000,0,0
1739402308.732396,0.5256819447764661,0.09602499417660684,-0.9533520556049827,-2.0690002448202542,0.13771188004197993,2.1375841033039733,-1.2753832718902467,0.0004562704006457114,-0.0001551295114360701,-0.00040045184847425073,0.0007845616752859422,0.0007734810717281292,-0.0007026170611871438,0.00040112920815705405,0.2689092457294464,-21.82431411743164,-2.35798716545105,22.63983917236328,0.7002664804458618,2.2615859508514404,-0.013685601763427258,0,0,0,0.000,0,0
1739402308.7424078,0.5256828818800261,0.09602670572394836,-0.9533495706708899,-2.0689992163890594,0.13771358258115607,2.1375833456438946,-1.275375859898085,0.0002716916738849214,0.00047675591522050836,0.0010024234072760567,0.00029222633135552085,0.0005043452979204569,-0.00033022192054931777,0.0032856647283534203,0.2173345386981964,-21.84811782836914,-2.38179087638855,22.61603546142578,0.6865335702896118,2.2679946422576904,-0.06678618490695953,0,0,0,0.000,0,0
1739402308.7524414,0.5256810677226992,0.09602499741547918,-0.95334840112946,-2.069003215278655,0.1377140067297198,2.1375841033039733,-1.2753772070626168,-0.0009702507753280148,-0.0007984310314172659,-0.0002581105841586173,-0.0011923201838642465,0.00012751775774415129,-0.00016898158455933755,0.0010127858315220769,0.2411382496356964,-21.82431411743164,-2.4095618724823,22.63983917236328,0.6938577890396118,2.2615859508514404,-0.04023589566349983,0,0,0,0.000,0,0
1739402308.7633579,0.5256862764109862,0.09602670575996894,-0.953345281099567,-2.0690042622384763,0.13771453037632217,2.137584865324702,-1.2753812193528173,0.0006628716595113493,0.0003929504113645634,0.0018145561374645985,-0.0016131739342505472,0.0005353899380869371,0.0005844755150141013,-0.0015105140707169288,0.1697271168231964,-21.84811782836914,-2.4095618724823,22.66364288330078,0.6865335702896118,2.2551772594451904,-0.0072769103571772575,0,0,0,0.000,0,0
1739402308.7743125,0.5256835492072855,0.09602199141062892,-0.9533452715235154,-2.069001441792485,0.13771666289612544,2.137583345643919,-1.275379480787611,0.0007251335575314927,-0.0003996944968167244,0.0006510117060458103,0.00016362800946341613,0.0009686367868392426,-9.751597406231578e-05,0.0004643683280360847,0.2173345386981964,-21.77273941040039,-2.4095618724823,22.61603546142578,0.6865335702896118,2.2679946422576904,-0.04756011441349983,0,0,0,0.000,0,0
1739402308.785306,0.5256831852138303,0.09602299570638743,-0.9533483135679619,-2.06899565120258,0.13771184060436442,2.1375848609640515,-1.27537402750901,-0.00024100696645785416,-0.0009237602803911302,3.3358231845630735e-05,0.00033176684158669795,-0.0006900710359955673,0.0003072994115189397,0.0011442020982256195,0.2173345386981964,-21.79654312133789,-2.4095618724823,22.56842803955078,0.7002664804458618,2.2551772594451904,-0.06678618490695953,0,0,0,0.000,0,0
1739402308.7953346,0.5256830842339241,0.09602344363484912,-0.9533484240421297,-2.0689983699103984,0.13771148464235877,2.1375833456438946,-1.2753768873798568,0.0011392135828666675,-0.0001563012160337591,8.11950129509956e-05,0.0002814582970488113,-0.0014007191933324045,-0.0002134295925462007,0.0006358835210500519,0.2173345386981964,-21.77273941040039,-2.4095618724823,22.56842803955078,0.7002664804458618,2.2679946422576904,-0.06678618490695953,0,0,0,0.000,0,0
1739402308.8053784,0.5256793707428515,0.09602139694147184,-0.9533502701501448,-2.0689996214810766,0.13771649474178943,2.1375833456438946,-1.2753816600252212,-0.0006589265647225539,-0.00035597821400076206,4.789308278193708e-05,-0.00013793527617663457,2.7552045112329586e-05,-0.0009740168494967951,0.0003468084165272584,0.2689092457294464,-21.77273941040039,-2.38179087638855,22.59223175048828,0.6608988046646118,2.2679946422576904,-0.027418512850999832,0,0,0,0.000,0,0
1739402308.816385,0.5256816986961043,0.09601928480141905,-0.9533522781625079,-2.0689928174559995,0.13771386488465753,2.1375841033039733,-1.2753785093639056,-0.00021437768298394942,-0.00015771503691991998,-0.00019982832248094024,0.001839697100841353,-0.0002477619500093097,4.6885766249153845e-06,0.0006769792533803127,0.1935308277606964,-21.74496841430664,-2.35798716545105,22.54065704345703,0.6801248788833618,2.2615859508514404,-0.05396880581974983,0,0,0,0.000,0,0
1739402308.8264139,0.5256846375735177,0.09602199040029356,-0.9533502730385431,-2.0690005794962283,0.1377142217494502,2.1375841033039733,-1.2753785214974007,0.00015128101694511975,-7.75113282014247e-05,-0.00020078960529950097,0.00024330463355957716,0.0005277155345762404,-0.0001634122773033054,0.00034543167177994633,0.1935308277606964,-21.77273941040039,-2.38179087638855,22.61603546142578,0.6801248788833618,2.2615859508514404,-0.04756011441349983,0,0,0,0.000,0,0
1739402308.8373773,0.5256820706900974,0.09601756354838097,-0.9533462341968809,-2.068999179473314,0.1377158423974537,2.1375848609640515,-1.2753759061585328,-0.00034132062101334377,-0.0019426884568400063,0.0008359595245200132,-0.0004023808295295531,-0.0007595018141785666,5.023806501679013e-05,0.001971594628818811,0.2411382496356964,-21.72116470336914,-2.4095618724823,22.61603546142578,0.6673074960708618,2.2551772594451904,-0.04023589566349983,0,0,0,0.000,0,0
1739402308.8483787,0.5256828733202302,0.09602128306550013,-0.9533495706707376,-2.0689973144563596,0.13771486111852876,2.1375841033039733,-1.2753811377705084,0.0006381168959646981,0.0016357321394859605,0.0003368602307412594,0.00044753826778425585,-0.0009116868352889654,0.00032456411999079183,0.0001233380151802349,0.2173345386981964,-21.77273941040039,-2.38179087638855,22.59223175048828,0.6737161874771118,2.2615859508514404,-0.03382720425724983,0,0,0,0.000,0,0
1739402308.8593278,0.5256845626542672,0.0960266969549474,-0.9533473609829168,-2.0690005901195043,0.13771422173124467,2.13758526541142,-1.275379283912084,0.0005076113708849179,0.0010924658997338349,0.00033141367850300705,-0.0011854260610174147,7.451075066775768e-05,2.1367208696869953e-05,0.0003176329237338184,0.1935308277606964,-21.84811782836914,-2.38179087638855,22.61603546142578,0.6801248788833618,2.2487685680389404,-0.04756011441349983,0,0,0,0.000,0,0
1739402308.8703575,0.5256856639048871,0.09602299385484038,-0.9533522819988133,-2.0689963345289746,0.1377134641075028,2.137584456510701,-1.2753753343216845,0.0013176438671101717,-0.0010516362999769529,-0.0016439854482974835,0.0011597032966959493,0.0004174807278228927,0.0010132525988820493,0.0006256983351735933,0.2173345386981964,-21.79654312133789,-2.35798716545105,22.59223175048828,0.6865335702896118,2.2615859508514404,-0.05396880581974983,0,0,0,0.000,0,0
1739402308.8804111,0.5256814760458325,0.09602713076692558,-0.953348192286167,-2.0690006898188456,0.1377134641075034,2.137585618630111,-1.2753776576869444,-0.00032369769487684016,0.0006129408071396947,0.000516942145166751,3.3418385625362776e-05,-0.000693835947789581,0.0006118320912934989,0.001721250264439222,0.2411382496356964,-21.82431411743164,-2.4095618724823,22.61603546142578,0.6865335702896118,2.2487685680389404,-0.05396880581974983,0,0,0,0.000,0,0
1739402308.8914113,0.5256810134362767,0.09602441088473866,-0.9533445385435675,-2.068995403949438,0.13771422176758175,2.1375856186241298,-1.2753819790165064,-0.000322544219759152,-0.0010802244831468158,0.00020980194067985283,0.002624003446100802,0.0005173914713455571,0.00030739071614557627,-0.004001138637575211,0.2173345386981964,-21.79654312133789,-2.4333655834198,22.56842803955078,0.6801248788833618,2.2487685680389404,-0.0008682189509272575,0,0,0,0.000,0,0
1739402308.9023829,0.5256828474713032,0.09602500491194593,-0.9533504171171392,-2.069001441405886,0.13771422176758175,2.1375824797466625,-1.2753843435174774,-0.0006555397040617193,0.0005606450977406611,-0.0012153655057092546,0.00043444829531566194,-0.00034698427080560423,0.00028676645941721254,-0.002359651835275054,0.2173345386981964,-21.82431411743164,-2.38179087638855,22.61603546142578,0.6801248788833618,2.2753188610076904,-0.0072769103571772575,0,0,0,0.000,0,0
1739402308.9134202,0.5256828471970029,0.0960276506760145,-0.9533453591716784,-2.068997351350244,0.13771400672771347,2.137583306398038,-1.2753765467123799,0.0003422036924877291,0.0007385676856901705,0.0016418839056829059,0.0015727601585411337,0.0001217505117202519,-0.0006144552130951637,0.0018688381664739248,0.2173345386981964,-21.84811782836914,-2.4095618724823,22.59223175048828,0.6938577890396118,2.2679946422576904,-0.06037749722599983,0,0,0,0.000,0,0
1739402308.9244013,0.5256847937211527,0.09602523913660672,-0.9533484152156532,-2.068998917368638,0.1377123890734765,2.1375841033038996,-1.2753741677852757,1.290409260409892e-05,-3.3714442798296086e-05,-0.0011118856900295617,0.0004817496237521484,-0.0006902919714848184,-0.00041340935682082587,0.0017490465536876365,0.1935308277606964,-21.82431411743164,-2.4095618724823,22.59223175048828,0.6865335702896118,2.2615859508514404,-0.06678618490695953,0,0,0,0.000,0,0
1739402308.9344053,0.5256811346802329,0.09602299623858526,-0.9533460872182887,-2.0690014285568212,0.1377134597013928,2.1375848609640515,-1.275375044569909,-0.0011046177483939527,-0.0014398599184354446,0.0002727823922322151,-0.0007170452016068533,-0.0011051429840706244,0.0003248271464853595,0.00073700943932233,0.2411382496356964,-21.79654312133789,-2.4095618724823,22.61603546142578,0.6865335702896118,2.2551772594451904,-0.04756011441349983,0,0,0,0.000,0,0
1739402308.9453347,0.5256835578740554,0.0960248879752751,-0.9533481893577379,-2.069004759901607,0.13771239280859635,2.1375841033039733,-1.2753753803163712,0.0002879246790477053,1.7155032986417086e-06,0.00017624218547589496,-0.0021150899083554847,-0.0019696042600639493,0.00016398144611387447,0.0016715379195018617,0.2173345386981964,-21.82431411743164,-2.4095618724823,22.66364288330078,0.6865335702896118,2.2615859508514404,-0.04756011441349983,0,0,0,0.000,0,0
1739402308.9553716,0.5256791742955333,0.09601928187718167,-0.953351587707966,-2.0690011955638825,0.1377142222490792,2.1375859718368395,-1.2753779475880924,-0.0012508386778425345,-0.0018480583556895332,-0.0008314791910939065,0.00020113158150446257,0.00044143692708743375,0.000734010764020958,4.604240329589911e-05,0.2689092457294464,-21.74496841430664,-2.35798716545105,22.61603546142578,0.6801248788833618,2.2487685680389404,-0.06037749722599983,0,0,0,0.000,0,0
1739402308.9654002,0.5256811375658372,0.09602299526230912,-0.9533482873685892,-2.0690031878400723,0.1377157370877466,2.1375829924371663,-1.275376591931301,-0.0005344573812229455,0.0001319199153012186,0.0005700327943727662,-0.0015803815632044183,-0.0005008708932685732,-3.197804957989336e-05,0.0008708446187142736,0.2411382496356964,-21.79654312133789,-2.38179087638855,22.63983917236328,0.6673074960708618,2.2679946422576904,-0.06037749722599983,0,0,0,0.000,0,0
1739402308.9764752,0.5256819707768562,0.0960250197728989,-0.9533504797100052,-2.0690014142113293,0.13771924447113068,2.137584103140474,-1.2753727159161907,-0.001026182204298833,0.0010509780820697346,3.2113341534588814e-05,-0.00032090376796687964,0.0016069074892025347,0.00024354345850782533,0.002203303069253244,0.2689092457294464,-21.82431411743164,-2.38179087638855,22.61603546142578,0.6737161874771118,2.2615859508514404,-0.06678618490695953,0,0,0,0.000,0,0
1739402308.9874294,0.5256811350132606,0.09602128274177742,-0.9533522636833694,-2.068999567508165,0.13771343049097617,2.1375833456438937,-1.2753835970468212,-0.0016562700585659974,0.0002594146722048069,-0.0010428341961092912,-0.0008305451892068379,0.0003275945482854883,0.00011055341500408959,-0.0024909685982170706,0.2411382496356964,-21.77273941040039,-2.35798716545105,22.59223175048828,0.6865335702896118,2.2679946422576904,-0.013685601763427258,0,0,0,0.000,0,0
1739402308.9983494,0.5256865871319569,0.09602157267872101,-0.9533505056514366,-2.0690006999364283,0.13771422176739195,2.1375833456438946,-1.275378076977841,0.0012374135392888659,0.0003285590884613614,-0.0005692034364243388,-0.0009513097072854644,0.00033027777697949715,-0.000768450301369948,-0.0008720799079247045,0.1697271168231964,-21.77273941040039,-2.38179087638855,22.61603546142578,0.6801248788833618,2.2679946422576904,-0.06037749722599983,0,0,0,0.000,0,0
1739402309.0103786,0.5256830898689925,0.09602299861220795,-0.9533456066929428,-2.0690007519805524,0.13771184055019267,2.1375848609640515,-1.2753770614307358,0.0006888419758613511,-0.0004348845743601128,0.0007771744019646925,-0.0012187392123790344,-0.001624590945742825,-0.00016314179469965732,-0.0016385045920481152,0.2173345386981964,-21.79654312133789,-2.4095618724823,22.63983917236328,0.7002664804458618,2.2551772594451904,-0.06037749722599983,0,0,0,0.000,0,0
1739402309.0213397,0.5256828471974578,0.09602522930595846,-0.9533502611095517,-2.0690014416287372,0.13771493993651684,2.1375833456438946,-1.2753828842376513,-0.00016383115561864568,-4.546993777496735e-05,-0.00042483817428485605,-0.0015021787446525658,-0.00010084395064625265,-0.0003145703563308096,-0.0015853344756031175,0.2173345386981964,-21.82431411743164,-2.38179087638855,22.61603546142578,0.6737161874771118,2.2679946422576904,-0.020094294100999832,0,0,0,0.000,0,0
1739402309.0314171,0.5256828471970013,0.09602499320721011,-0.9533502600882741,-2.068996692019852,0.1377141822757697,2.1375841425498296,-1.2753828440965258,0.0004070832905502347,0.0009611818544117635,-0.00015263930792474033,0.0002830937361923723,0.0008711994290895561,0.00016726919642149642,-0.0009086439729691514,0.2173345386981964,-21.82431411743164,-2.38179087638855,22.59223175048828,0.6801248788833618,2.2615859508514404,-0.020094294100999832,0,0,0,0.000,0,0
1739402309.0423996,0.5256828471970013,0.0960249935272323,-0.9533492388642559,-2.0689978763882175,0.13771334612139569,2.1375833461286327,-1.2753835975573506,-0.0004068835128704424,0.0002943413172296152,-0.0007955433372933488,-3.0429548291072053e-05,0.00022702693903945656,-0.0003996625490687488,-0.002517596587354446,0.2173345386981964,-21.82431411743164,-2.35798716545105,22.56842803955078,0.6865335702896118,2.2679946422576904,-0.013685601763427258,0,0,0,0.000,0,0
1739402309.052448,0.5256811346762701,0.09602128274163292,-0.9533483973487403,-2.0690014421358507,0.13771434023901336,2.1375840974897806,-1.2753787430637478,-0.0005060394455981628,-0.0024893785054831167,-0.0008199561104667749,0.00034218513157126826,0.0009264529210751551,-0.0009668209322103522,-0.000541000160238557,0.2411382496356964,-21.77273941040039,-2.4095618724823,22.61603546142578,0.6801248788833618,2.2615859508514404,-0.05396880581974983,0,0,0,0.000,0,0
1739402309.0633528,0.5256818366865307,0.09602671580458301,-0.9533501574460511,-2.0689996301778724,0.13771350359931542,2.1375841033039404,-1.2753756968531027,-0.0007357491145316196,0.0006491647313609447,4.244212755513102e-05,1.239750940093323e-05,-0.00020155760048936873,4.936381931735933e-05,-0.0003109728199993393,0.2411382496356964,-21.84811782836914,-2.38179087638855,22.59223175048828,0.6865335702896118,2.2615859508514404,-0.05396880581974983,0,0,0,0.000,0,0
1739402309.0743444,0.5256853657334761,0.09602681113869374,-0.9533456178187119,-2.0689996591195077,0.1377149662641686,2.1375841033039733,-1.2753716470300034,0.0009465423592213086,0.0011824132696891315,0.0005626616860552332,0.0003118595955348541,-0.00036231329611789633,6.337699505350186e-05,0.0023915902641360154,0.1935308277606964,-21.84811782836914,-2.4095618724823,22.59223175048828,0.6737161874771118,2.2615859508514404,-0.08692778646945953,0,0,0,0.000,0,0
1739402309.0853078,0.52568113468082,0.09602570280886749,-0.9533501592493172,-2.0690007000499993,0.13771561910177935,2.1375824797466625,-1.2753722078513,-0.0005120834764133775,0.0001859226898651531,-0.0001954725845689702,-0.00027955616920757344,0.0002393199459484033,-0.0005875559325792257,0.001743009087856196,0.2411382496356964,-21.82431411743164,-2.38179087638855,22.61603546142578,0.6673074960708618,2.2753188610076904,-0.07411040365695953,0,0,0,0.000,0,0
1739402309.0954108,0.5256825607544166,0.09602499613141412,-0.9533495700600026,-2.0689946621944313,0.13771386634529442,2.137584456516683,-1.2753755784514493,-0.0003053575698418927,-0.0003720058951118582,9.260776528870117e-05,0.0006769401180969363,-0.000345340104617513,0.00046487786693087744,0.0011447039740062268,0.2411382496356964,-21.82431411743164,-2.38179087638855,22.56842803955078,0.6801248788833618,2.2615859508514404,-0.05396880581974983,0,0,0,0.000,0,0
1739402309.106362,0.5256830929068596,0.09602299526237516,-0.9533483492462655,-2.068996664491926,0.1377107143821831,2.1375841033059673,-1.2753794806254235,-6.901986143414805e-05,-0.00023017332298619198,2.0751653613226373e-05,0.0004902863992251544,-0.001946267969991645,0.00026045118018329665,-0.0005592452810010821,0.2173345386981964,-21.79654312133789,-2.4095618724823,22.59223175048828,0.6737161874771118,2.2615859508514404,-0.04756011441349983,0,0,0,0.000,0,0
1739402309.1174288,0.5256811471963586,0.0960243534846231,-0.9533505067211179,-2.068999654655979,0.1377087602711148,2.1375841027656213,-1.2753759460356013,-0.0013899056347159051,0.0008849274442212508,0.00030660512784239373,0.002378857321166486,-0.0008483656193187205,-0.00013164151823113606,0.0006693278599564096,0.2411382496356964,-21.77273941040039,-2.38179087638855,22.59223175048828,0.7002664804458618,2.2615859508514404,-0.06678618490695953,0,0,0,0.000,0,0
1739402309.128353,0.525685263047699,0.09602499322054613,-0.9533480761675124,-2.068997430827119,0.13771346414428678,2.1375848609640484,-1.2753786289543207,0.0024335026405164686,0.0003943016532364491,0.0002735040445920592,0.0008044366658777715,-0.0005050710782171796,-0.00021569366251238781,-0.0005006941637731004,0.1935308277606964,-21.82431411743164,-2.38179087638855,22.59223175048828,0.6865335702896118,2.2551772594451904,-0.020094294100999832,0,0,0,0.000,0,0
1739402309.1393795,0.5256829512381574,0.09602299529836102,-0.9533502730254079,-2.0689940129457134,0.1377107129757264,2.1375856186241298,-1.2753756867088348,-0.0006646190683811251,0.0010442642496053495,-0.0003932038393933801,0.0011451938988335316,-0.001033630284740497,-0.0002975602730927668,-5.801876171862043e-05,0.2173345386981964,-21.79654312133789,-2.38179087638855,22.51685333251953,0.6737161874771118,2.2487685680389404,-0.05396880581974983,0,0,0,0.000,0,0
