IITGN-Robotics/Franka_IITGN_ROBOTICS/franka_ros/franka_iitgn/data/b_45.csv
time,fr3_joint1_pos,fr3_joint2_pos,fr3_joint3_pos,fr3_joint4_pos,fr3_joint5_pos,fr3_joint6_pos,fr3_joint7_pos,fr3_joint1_vel,fr3_joint2_vel,fr3_joint3_vel,fr3_joint4_vel,fr3_joint5_vel,fr3_joint6_vel,fr3_joint7_vel,fr3_joint1_eff,fr3_joint2_eff,fr3_joint3_eff,fr3_joint4_eff,fr3_joint5_eff,fr3_joint6_eff,fr3_joint7_eff,flexpin1,flexpin2,flexpin3,Force,ContactMic,ContactMic_gt
1739402333.4210622,0.5256913899516993,0.0959556650246159,-0.9533576824320611,-2.0691132601050826,0.1377369227000503,2.1375582829802338,-1.2753734719135015,0.00048545718865699813,0.0010008378525965462,0.0007627198043914883,-0.0002862514865869647,0.0005166832716485652,0.0006294643180265532,0.00046302399767478503,0.2411382496356964,-21.72116470336914,-2.3302161693573,22.61603546142578,0.7002664804458618,2.2753188610076904,-0.06037749722599983,,,,,,,,,
1739402333.4320066,0.5256908988653598,0.09596546479849631,-0.9533517835093629,-2.069109695071186,0.1377381522515395,2.1375602614453952,-1.2753811757382238,0.0007843315224679979,0.0015589271416637978,0.0020392243719793107,-0.0001414847936761696,0.0004010631148825116,0.0001082060704889193,-0.0012591643478128765,0.2689092457294464,-21.79654312133789,-2.4095618724823,22.56842803955078,0.6938577890396118,2.2615859508514404,-0.0072769103571772575,,,,,,,,,
1739402333.4420557,0.5256962422657956,0.09596634649196356,-0.953346649073918,-2.0691096947562557,0.13774298095440551,2.137562682700372,-1.2753788742722019,0.0004102860909526821,-8.314997825300836e-06,0.0011192278763948753,0.0011972068783080846,0.0025610683240130214,5.785826260829783e-05,0.00042834999191356123,0.1935308277606964,-21.72116470336914,-2.4333655834198,22.56842803955078,0.6801248788833618,2.2679946422576904,-0.013685601763427258,,,,,,,,,
1739402333.4529724,0.5256978070436101,0.09597576090236881,-0.9533445486471642,-2.069108303731179,0.13774216858105465,2.137562682933658,-1.2753730674417323,0.001894271689072453,-0.0005879315384512782,0.001958645478903264,0.0014645457086542725,0.000174846203670638,0.0003658685052546083,0.0005329337784763434,0.1419561207294464,-21.79654312133789,-2.4571692943573,22.54065704345703,0.6865335702896118,2.2679946422576904,-0.06678618490695953,,,,,,,,,
1739402333.463064,0.5256958472463399,0.09598310154095227,-0.9533420235720311,-2.0691117695655357,0.13773949403835842,2.137564258887195,-1.2753812070614867,0.00041267324753325877,-0.0006389658758000647,-0.0006085486817632423,1.6345616908253072e-05,-0.0014211021740571077,0.0018477890554172613,-0.0022202134641238526,0.1697271168231964,-21.82431411743164,-2.4571692943573,22.56842803955078,0.7002664804458618,2.2679946422576904,-0.03382720425724983,,,,,,,,,
1739402333.474029,0.5256945297075932,0.09599525019844053,-0.9533434855313132,-2.0691218984165607,0.13773877147620395,2.13755863942298,-1.275375188972347,-0.0001587098167568486,0.0007802484613525762,-0.0007120548175880658,-0.00033114518059691473,0.00021451497350045523,-0.002042016081262431,0.00018011970361268706,0.2173345386981964,-21.89969253540039,-2.4333655834198,22.69141387939453,0.7066751718521118,2.2753188610076904,-0.05396880581974983,,,,,,,,,
1739402333.4850273,0.5256940964972353,0.096003120812938,-0.9533473484243672,-2.0691260121910866,0.1377429795279193,2.1375641013654385,-1.2753741299180357,-0.0003266188148107096,0.0013048711872862175,-0.00016806086928516787,-0.0016070393155347494,0.001587570796195921,-7.190463212869934e-06,0.0013579764080161108,0.1935308277606964,-21.92349624633789,-2.38179087638855,22.71521759033203,0.6801248788833618,2.2679946422576904,-0.05396880581974983,,,,,,,,,
1739402333.4960706,0.5256904491897709,0.09600655717647409,-0.9533512104632528,-2.069121467713727,0.13774294151753982,2.1375591677074954,-1.275373410839584,5.2670107258692646e-05,0.0009879618764501291,-6.0282312400775865e-05,-0.0012182709920628833,0.00018660073698772498,-0.0010341603792694675,0.001842806451112736,0.2411382496356964,-21.92349624633789,-2.3302161693573,22.63983917236328,0.6801248788833618,2.2753188610076904,-0.06037749722599983,,,,,,,,,
1739402333.5079968,0.5256906982361816,0.09600433128758307,-0.953347426104515,-2.0691214760189327,0.13774147592458194,2.137565029739883,-1.2753804347880968,-0.00023637357762101244,-0.00024191665520021538,0.00013910861991475295,-0.0001328886850066431,0.00039894141158191844,0.000944122857294775,-0.0017330685551014925,0.2411382496356964,-21.84811782836914,-2.38179087638855,22.63983917236328,0.6938577890396118,2.2615859508514404,-0.0008682189509272575,,,,,,,,,
1739402333.5189638,0.5256886747869277,0.09600062113273773,-0.9533473742734107,-2.0691161290054074,0.13774328961014395,2.137565746293799,-1.2753738706462,-0.0009268239485231727,-0.0004093648567376326,5.796223540166165e-06,0.001157532185176133,0.0007413138727509466,0.0017944266082242479,0.0009298620828319442,0.2689092457294464,-21.79654312133789,-2.4095618724823,22.56842803955078,0.6865335702896118,2.2551772594451904,-0.06037749722599983,,,,,,,,,
1739402333.5289674,0.5256899719246303,0.09600356951729257,-0.9533559167504472,-2.069119697411907,0.1377440472755726,2.137564272157334,-1.2753780658311538,-0.0003336088912953729,0.0008044627326973003,-0.0020230990474812043,-0.0004901871041544831,0.00027703542633710724,-6.379308467995312e-05,0.00023318942602585245,0.2411382496356964,-21.82431411743164,-2.3064124584198,22.61603546142578,0.6801248788833618,2.2679946422576904,-0.04756011441349983,,,,,,,,,
1739402333.5389926,0.5256906743273353,0.09599891291848982,-0.9533504797462398,-2.069125488006034,0.13774503018186898,2.137564272157566,-1.2753768344148575,0.0008957398269343872,-0.0008339320995863406,0.0005307803369005374,-0.000992268624777848,0.000821740223704744,7.242070342694393e-05,0.0006800022868171769,0.2411382496356964,-21.77273941040039,-2.38179087638855,22.66364288330078,0.6938577890396118,2.2679946422576904,-0.04023589566349983,,,,,,,,,
1739402333.5500648,0.5256902779093997,0.09599890962245188,-0.9533543695092711,-2.0691180246358654,0.1377413136104106,2.1375634063141695,-1.2753783103868048,0.00048406243788526044,0.001345520431040961,-0.0012451484438812262,0.0008653637112906279,-0.00041798248182726256,-0.0002379746012140505,0.0022776661274255838,0.2173345386981964,-21.77273941040039,-2.3302161693573,22.59223175048828,0.6865335702896118,2.2753188610076904,-0.027418512850999832,,,,,,,,,
1739402333.5600808,0.5256886734666925,0.0959969105629017,-0.9533504723753772,-2.0691161320585065,0.137743033658408,2.1375650341782957,-1.2753787858590186,0.0002706709865320969,-0.00035438327591258775,0.0011695751320799895,-0.0004275247047178378,-0.00011295273493515292,-1.789461069422627e-05,-0.0015884304614074973,0.2689092457294464,-21.74496841430664,-2.38179087638855,22.56842803955078,0.6801248788833618,2.2615859508514404,-0.027418512850999832,,,,,,,,,
1739402333.570309,0.5256958089816275,0.09599890572509373,-0.9533522107548654,-2.069112266199394,0.13774542261964706,2.137565029817719,-1.2753804977096004,0.001988209158207638,-9.295852188070643e-05,-0.0011454797039044293,0.0006826735914856675,-0.00021704843785094486,-0.0001255921079782093,-0.0016087883963823702,0.1697271168231964,-21.77273941040039,-2.35798716545105,22.51685333251953,0.6865335702896118,2.2615859508514404,-0.04023589566349983,,,,,,,,,
1739402333.5809681,0.5256921499367451,0.09599689901523054,-0.9533397387799231,-2.0691140916107713,0.1377433366637217,2.137565030463667,-1.2753777517058202,-0.0005249159908994878,-0.0002467524242609143,0.0009582964172499212,0.0005258523170569101,-0.0007756663368731238,-0.00010989909994278839,-7.787670858273366e-05,0.2173345386981964,-21.74496841430664,-2.48494029045105,22.54065704345703,0.6801248788833618,2.2615859508514404,-0.06037749722599983,,,,,,,,,
1739402333.591964,0.5256923825452356,0.09599511926534778,-0.9533455292822562,-2.0691161045864526,0.1377414765808879,2.137565029817656,-1.2753790493925816,-0.0003974069642523088,-0.00028980647471958285,4.694169154902708e-05,-0.0006172263640425144,5.0415987518448034e-05,-3.244364780372932e-05,0.0006676548121832036,0.2173345386981964,-21.72116470336914,-2.4095618724823,22.56842803955078,0.6938577890396118,2.2615859508514404,-0.013685601763427258,,,,,,,,,
1739402333.602026,0.5256938889484059,0.09600062116748953,-0.9533483218111306,-2.069121480088478,0.1377433559327917,2.1375657874777234,-1.275377364785248,0.0009212734110557994,0.0006399726815211645,-0.0007991651874043648,-0.0010206145812974696,0.0011142969823653276,-0.00039313325240733,0.0013382136547774072,0.1935308277606964,-21.79654312133789,-2.4095618724823,22.63983917236328,0.6801248788833618,2.2551772594451904,-0.06678618490695953,,,,,,,,,
1739402333.6120346,0.5256906454178826,0.09600269803064397,-0.9533462042731062,-2.0691206904774524,0.1377429814983473,2.1375657874777234,-1.2753811758187545,0.00046176400992690037,0.0006413984741808489,-5.789161279696647e-05,-0.0013071912477007738,-0.0010900976455631524,2.3277575048754424e-05,-0.0014681816288639276,0.2411382496356964,-21.82431411743164,-2.4095618724823,22.61603546142578,0.6801248788833618,2.2551772594451904,-0.0072769103571772575,,,,,,,,,
1739402333.6229894,0.5256923765814204,0.0959988852645508,-0.9533473479303298,-2.0691196960608833,0.13774222334861028,2.1375642852395185,-1.2753788670825963,0.000992227031223571,-0.0016611011831462847,0.000688973954834356,0.00030967900615057326,-0.0007766892931223488,-0.0004956735334212747,0.000509033374710733,0.2173345386981964,-21.77273941040039,-2.38179087638855,22.61603546142578,0.6865335702896118,2.2679946422576904,-0.05396880581974983,,,,,,,,,
1739402333.633004,0.5256937294416741,0.09600264541627142,-0.9533473479963762,-2.0691196974119013,0.13774298100868587,2.13756428523974,-1.275380503578334,0.0016889004196301168,-0.0008692695544494413,-0.0004267854498671973,-0.0011203286304616719,0.0008440490872260249,0.00027530213386250317,-0.0006723345616262194,0.1697271168231964,-21.82431411743164,-2.38179087638855,22.61603546142578,0.6801248788833618,2.2679946422576904,-0.04023589566349983,,,,,,,,,
1739402333.6439672,0.5256931001653099,0.09601017728856223,-0.9533503900408404,-2.0691214835936145,0.13774635162380783,2.1375676047760046,-1.2753804921116587,0.0015336040586643273,0.0011874438555181611,-0.0002889794936904635,-0.00019100863149260346,0.0021004558742932617,0.0011712289277788321,-0.000385898739714823,0.2173345386981964,-21.89969253540039,-2.38179087638855,22.63983917236328,0.6801248788833618,2.2487685680389404,-0.04023589566349983,,,,,,,,,
1739402333.654951,0.5256938509138812,0.09600912253796691,-0.9533533175085285,-2.0691196974119834,0.13774187383593972,2.137565945125117,-1.2753792839839002,0.0005664702995762624,0.0018572174826573967,-0.0013724352480606699,0.0008822288279137919,0.0004353282045404089,0.0009105664610761335,0.00100887745264064,0.1935308277606964,-21.87192153930664,-2.3302161693573,22.61603546142578,0.6865335702896118,2.2551772594451904,-0.04756011441349983,,,,,,,,,
1739402333.6650882,0.525686567446413,0.09600549582689863,-0.9533473480082717,-2.0691196943594687,0.13774303804947532,2.1375642736120066,-1.2753763052229077,-0.0008126978985026898,-7.228912416352659e-05,0.0012843914015493504,0.0003068169339191114,-0.0004696742947200499,-0.0006722527141962136,0.0012414041463559215,0.2689092457294464,-21.82431411743164,-2.38179087638855,22.61603546142578,0.6801248788833618,2.2679946422576904,-0.06678618490695953,,,,,,,,,
1739402333.6760318,0.5256906712767708,0.0960011569158478,-0.9533515092266805,-2.069123741958429,0.13774341393441064,2.137566847115877,-1.2753794440839872,0.00016804520838191862,-0.001637767412594336,-0.0002575598561657375,-0.0005577196803965031,-0.001015979476494741,0.0006371680762579194,-0.0014565047945940088,0.2411382496356964,-21.77273941040039,-2.35798716545105,22.63983917236328,0.6865335702896118,2.2551772594451904,-0.04023589566349983,,,,,,,,,
1739402333.686041,0.525685827881433,0.09600468676940044,-0.9533522777314495,-2.0691179147853584,0.13774696229251795,2.137569307622001,-1.2753828668628435,-0.0006870630371900788,-0.000148820661162435,-0.00020649249896065796,0.0008751748729248455,-0.0004934277746295132,0.0005982039955892801,-0.0022133718843836345,0.2689092457294464,-21.84811782836914,-2.35798716545105,22.59223175048828,0.6865335702896118,2.2615859508514404,-0.020094294100999832,,,,,,,,,
1739402333.6969976,0.5256869349414064,0.09600166513484336,-0.9533474350387342,-2.069111033836428,0.13774239499119137,2.1375682087561816,-1.2753812614000377,-0.0022670791897420658,-0.0005989734650987081,8.987658772116578e-05,0.002638096426917904,-0.00033223187193905394,-0.0004419823002387531,-0.001031203764355765,0.2927129566669464,-21.79654312133789,-2.38179087638855,22.51685333251953,0.6865335702896118,2.2615859508514404,-0.03382720425724983,,,,,,,,,
1739402333.7090626,0.5256923810510873,0.09600178925116161,-0.9533463210975738,-2.0691179146902448,0.1377480627061461,2.137566091465622,-1.2753838988356647,0.0005728559611831031,-0.0003029881739822001,-2.8567549377732575e-05,-0.0008115726158056089,0.0015529771804117577,0.0007943141993729773,-0.0028582480339013226,0.2173345386981964,-21.77273941040039,-2.4095618724823,22.59223175048828,0.6737161874771118,2.2615859508514404,-0.020094294100999832,,,,,,,,,
1739402333.720034,0.5256906337206609,0.09599794007732707,-0.9533480538605275,-2.069118244400101,0.13774275499745703,2.1375678088626535,-1.275377359517313,-0.0007534410874104386,-0.00043825457971867374,-0.0006890009674186146,-0.0011198177540342538,0.0008764049645600524,0.0009612612828774742,0.0012347991403441063,0.2411382496356964,-21.74496841430664,-2.38179087638855,22.59223175048828,0.6865335702896118,2.2679946422576904,-0.06678618490695953,,,,,,,,,
1739402333.7309654,0.5256906608446432,0.09599725302867793,-0.9533455291772838,-2.0691161310422617,0.13774500987922092,2.137565029891445,-1.2753828660612672,0.0003808324829430165,-0.0006699939472459683,-0.0005626086391012017,0.0004139292623048451,-0.0010491879906489236,-0.0010309752501034,-0.0005029783502943972,0.2411382496356964,-21.74496841430664,-2.4095618724823,22.56842803955078,0.6673074960708618,2.2615859508514404,-0.020094294100999832,,,,,,,,,
1739402333.7410586,0.5256904247901358,0.09600088456928375,-0.9533480888776831,-2.069116132057869,0.13774271675282262,2.137564743107847,-1.2753794045493183,0.00023946375501203985,-0.001060853716047934,0.00042804881490380464,0.0005782006849125635,-0.0022200436176945653,-0.0007391097526722054,0.00154327934372259,0.2411382496356964,-21.79654312133789,-2.4095618724823,22.56842803955078,0.6865335702896118,2.2679946422576904,-0.013685601763427258,,,,,,,,,
1739402333.7520604,0.5256914437521917,0.09599617187134155,-0.9533522854020957,-2.0691122475454997,0.13774534506935635,2.1375642723217303,-1.2753747806252271,-0.0009744750188663328,-0.0013065267299203378,-0.0020941556835864378,0.001681925034837412,-0.0004822472295919198,-0.00021686969155429472,0.0008561216620917103,0.2173345386981964,-21.72116470336914,-2.35798716545105,22.51685333251953,0.7002664804458618,2.2679946422576904,-0.06037749722599983,,,,,,,,,
1739402333.763036,0.5256906713784609,0.09600178629167976,-0.9533504940958348,-2.0691175607253105,0.13774274309834167,2.1375665471297043,-1.2753812613812747,-4.265205078768478e-05,0.0006400230062476138,-0.0009299939925820518,0.0006061242117380242,0.0003239397749478021,-0.0002088225485263502,-0.00031356287424885113,0.2411382496356964,-21.77273941040039,-2.38179087638855,22.59223175048828,0.6865335702896118,2.2487685680389404,-0.03382720425724983,,,,,,,,,
1739402333.7730505,0.5256906672465329,0.09600367576831194,-0.9533462823816198,-2.0691140522620355,0.13774219472223795,2.1375657876392626,-1.2753767761751846,0.00044715765572116845,-0.0001409041522723761,-0.00041906645064200055,0.0011454966683493314,-0.001105966027162056,-0.0009294190643814485,0.0006142427545039806,0.2411382496356964,-21.82431411743164,-2.4095618724823,22.54065704345703,0.7002664804458618,2.2551772594451904,-0.06678618490695953,,,,,,,,,
1739402333.7839963,0.525691577928361,0.09600751914841196,-0.9533514692153595,-2.0691212328400463,0.1377449636074399,2.137567455432606,-1.2753781225193495,0.0002771151299800884,0.000754594030493331,-0.00047659446130152974,-0.0007858184443772812,0.00038757128280985547,0.0007534576284596345,0.0006792386782907228,0.2173345386981964,-21.84811782836914,-2.35798716545105,22.63983917236328,0.6737161874771118,2.2679946422576904,-0.06037749722599983,,,,,,,,,
1739402333.7940638,0.5256906709777944,0.09600570725765468,-0.9533512191696488,-2.069123510010672,0.13774702146199888,2.137568967092043,-1.2753769059011166,-0.00017174468479553377,0.0002053066248777586,-7.930022131962748e-05,-6.926617412793387e-05,0.0009764702995361219,0.0015362982050087211,0.0014336273420984603,0.2411382496356964,-21.82431411743164,-2.3302161693573,22.66364288330078,0.6865335702896118,2.2551772594451904,-0.06037749722599983,,,,,,,,,
1739402333.8050106,0.5256903584518943,0.0960092053736227,-0.9533512451304745,-2.0691196984308053,0.13774777918258993,2.137565907171309,-1.2753828849505828,-0.0006261132024094895,0.0009914420080740125,0.00046125634279784594,0.000762946009049548,0.0019436180435545355,0.0003407395306666195,-0.00019083880089980148,0.2411382496356964,-21.87192153930664,-2.3302161693573,22.61603546142578,0.6801248788833618,2.2551772594451904,-0.020094294100999832,,,,,,,,,
1739402333.8150218,0.5256931248117651,0.09600649195176733,-0.953348076569144,-2.0691233848642003,0.13774609711988214,2.1375642721595933,-1.2753804260398525,0.0008648729838092684,-0.0002888592393441093,0.0003479816794698388,-0.0012876902756847595,-0.0013346971472469132,-0.0015091483614070105,1.4647887138817279e-05,0.1935308277606964,-21.82431411743164,-2.4095618724823,22.66364288330078,0.6938577890396118,2.2679946422576904,-0.06678618490695953,,,,,,,,,
1739402333.8260267,0.5256884391486835,0.09600947776882608,-0.9533481931402976,-2.0691244592862166,0.13774666593937746,2.1375650317557118,-1.2753796379139448,7.773605462501189e-05,0.0008249715575089917,-0.0008931738519252969,-0.0017275532065604503,-0.0011889175968949615,-6.9521964422697424e-06,-0.0004592043104076336,0.2689092457294464,-21.87192153930664,-2.4095618724823,22.63983917236328,0.6865335702896118,2.2615859508514404,-0.04756011441349983,,,,,,,,,
1739402333.8360503,0.5256923839361969,0.09600581541277423,-0.9533435640081667,-2.069121591158334,0.1377470215164901,2.137563406260367,-1.2753805037400627,0.0008947673951884962,-0.0002109031721174572,0.0013089411040809623,-0.0004320574353159452,-0.0015170665526626852,-0.0009827808886651388,3.473213050658083e-05,0.2173345386981964,-21.82431411743164,-2.4333655834198,22.63983917236328,0.6865335702896118,2.2753188610076904,-0.04023589566349983,,,,,,,,,
1739402333.8469582,0.5256913657524438,0.09600839826767912,-0.9533434855656117,-2.0691214800895703,0.13774539206048977,2.1375650361163627,-1.275380606209379,-0.0005290183569716258,0.0008446166706343798,0.0003232138170184784,-0.0008694901914214116,-0.0015389321482252472,-0.0009073787783062884,-0.0008781688866622329,0.2173345386981964,-21.84811782836914,-2.4333655834198,22.63983917236328,0.7002664804458618,2.2615859508514404,-0.027418512850999832,,,,,,,,,
1739402333.857031,0.5256906712951935,0.09600424079501467,-0.9533443321928415,-2.069119779828223,0.1377431060638728,2.137564272157673,-1.2753781224987457,-0.000187667089987064,-0.0005858637038774415,0.0010196237674025457,-0.00012204549315158272,-0.0021201050875843622,2.0153147496726985e-05,-0.0006214211896843567,0.2411382496356964,-21.77273941040039,-2.4095618724823,22.61603546142578,0.6801248788833618,2.2679946422576904,-0.06037749722599983,,,,,,,,,
1739402333.8679705,0.525688664811787,0.09600413400818981,-0.953343511524599,-2.0691140536251424,0.1377465430519933,2.1375676067139975,-1.2753773648630344,-0.0012900093301425133,0.00048129922856687715,0.00014683856069771606,0.0012801630083655554,-0.001617856757471983,0.0012803790663094578,-0.0004444446832838554,0.2689092457294464,-21.79654312133789,-2.4333655834198,22.54065704345703,0.6865335702896118,2.2487685680389404,-0.06678618490695953,,,,,,,,,
1739402333.877981,0.5256940964607497,0.09600578033813148,-0.9533434768631497,-2.0691196974119475,0.13774702151440898,2.1375658005776534,-1.275377781137259,0.0011449247498357177,0.0003336079539882082,4.48253113768005e-05,-0.0015090191392573375,8.661974617375517e-05,-4.210624631174111e-06,0.0009697958945116198,0.1935308277606964,-21.82431411743164,-2.4333655834198,22.61603546142578,0.6865335702896118,2.2551772594451904,-0.05396880581974983,,,,,,,,,
1739402333.889031,0.5256902764827506,0.09600009823712383,-0.9533416130741021,-2.0691140522680307,0.13774712827105445,2.137568221867894,-1.2753838886756619,0.00026806417792201126,-0.0001851575975836439,0.001010781541650005,0.0002495206005160143,-0.001397537262789112,8.623131131334563e-05,0.0010776633402495898,0.2173345386981964,-21.74496841430664,-2.4333655834198,22.54065704345703,0.6737161874771118,2.2615859508514404,-0.0072769103571772575,,,,,,,,,
1739402333.9000208,0.5256921152576751,0.0960001070062684,-0.9533473481284706,-2.069117915074067,0.1377470215145605,2.13756962811495,-1.2753763812253442,-0.00045420377644131936,-0.0003952310190612564,-0.0006944073495024697,-0.0012570870277134303,0.00047871502160080513,0.0001269048160444224,0.0018190306288065892,0.2173345386981964,-21.74496841430664,-2.38179087638855,22.59223175048828,0.6865335702896118,2.2615859508514404,-0.07411040365695953,,,,,,,,,
1739402333.9100277,0.525686180941899,0.09600378239191777,-0.9533535880535611,-2.0691206864075173,0.1377509774776481,2.137566142507478,-1.275377558117421,-0.0026346441491155235,0.0008841549040273073,-0.0020382768781901915,-0.0010872441014358853,0.0021553422636594512,-0.0007743099074602271,0.00019486549823636299,0.2927129566669464,-21.79654312133789,-2.3302161693573,22.61603546142578,0.6801248788833618,2.2615859508514404,-0.07411040365695953,,,,,,,,,
1739402333.9210486,0.5256923839357621,0.09599815761423497,-0.9533519651918965,-2.069119779833806,0.13774611766899736,2.1375650312774765,-1.2753782402662213,0.0011740024155535104,-0.0006391042593422455,-0.00042936905598213893,-0.0007081073065781094,-0.0006340463239270708,-0.001413994918242476,-0.0004085850931700607,0.2173345386981964,-21.72116470336914,-2.35798716545105,22.61603546142578,0.6938577890396118,2.2615859508514404,-0.06037749722599983,,,,,,,,,
1739402333.931958,0.525690671419434,0.09600384383487494,-0.953352268496577,-2.069117914735371,0.13774702168481268,2.1375672455501338,-1.2753764858845147,0.0002455548783539713,0.0007264748727151809,0.0001799521416132232,0.0011672826845784304,-0.0006459030173551879,0.0017617868362977654,0.0025424686757604346,0.2411382496356964,-21.79654312133789,-2.35798716545105,22.59223175048828,0.6865335702896118,2.2551772594451904,-0.07411040365695953,,,,,,,,,
1739402333.9420395,0.5256865584600133,0.09600589061679994,-0.9533474562239372,-2.0691214800889433,0.137747779182593,2.137568985797474,-1.2753773254554508,-0.0013379523524689823,-0.00012885787360061445,0.0004143138236798638,-0.001389779866942326,0.0002639933488036597,-3.2251501513428076e-05,0.0008625866941468225,0.2689092457294464,-21.82431411743164,-2.38179087638855,22.63983917236328,0.6801248788833618,2.2551772594451904,-0.06678618490695953,,,,,,,,,
1739402333.9520874,0.5256877111077097,0.0960089232988039,-0.9533452423954178,-2.0691232627659626,0.1377469030490822,2.1375651534235796,-1.2753773648623672,-0.002091427910049417,0.0015368375101522612,0.0017508529364138293,-0.0008623126399823484,-0.0013031644261584571,-0.00019392311024433447,0.000719603705416373,0.2689092457294464,-21.82431411743164,-2.38179087638855,22.66364288330078,0.6865335702896118,2.2615859508514404,-0.06678618490695953,,,,,,,,,
1739402333.9630344,0.5256919643886361,0.09600966367187577,-0.9533515734132634,-2.069121518075056,0.13774853489181993,2.1375674643161098,-1.275380028429131,0.0006770431977988361,0.0007857492319291335,-0.0006872832967516874,-0.00014865489261472922,-0.0008411313123694073,-0.0010273690076851995,0.00048600395354883965,0.1935308277606964,-21.84811782836914,-2.35798716545105,22.63983917236328,0.6737161874771118,2.2679946422576904,-0.04023589566349983,,,,,,,,,
1739402333.9730837,0.5256895758630157,0.09601337436885567,-0.9533473493217148,-2.0691200576023183,0.1377456086626776,2.137565792053939,-1.2753805035705066,0.0010986780470142736,0.0014468219392107912,-0.0009411160762889399,-9.692619164573251e-05,-0.0006222470437205871,-0.0006808033250728057,-0.0002067865163300012,0.2173345386981964,-21.89969253540039,-2.38179087638855,22.61603546142578,0.6673074960708618,2.2551772594451904,-0.04023589566349983,,,,,,,,,
1739402333.984037,0.5256919817157661,0.09601124721668028,-0.9533435041470812,-2.069123271929429,0.13774777895765525,2.1375666439628316,-1.275381261400137,0.0008748085202688258,0.0009666014323713681,0.0016100147669882822,0.00035987719331744515,-0.0005520905390130383,-0.0012160822034170556,-0.0003831771243309591,0.1935308277606964,-21.89969253540039,-2.4333655834198,22.66364288330078,0.6801248788833618,2.2753188610076904,-0.03382720425724983,,,,,,,,,
1739402333.9949749,0.5256921143026154,0.09600795156741097,-0.9533434868135072,-2.069120558204397,0.13774865092819313,2.137566590043927,-1.2753851014646769,-0.0001714656131095646,-0.0005036649408870132,0.0010828083404263878,-0.0007200895501142683,0.00020063987088774784,-0.0008191451012438751,-0.0004648636343020725,0.2173345386981964,-21.82431411743164,-2.4333655834198,22.61603546142578,0.6737161874771118,2.2753188610076904,-0.0008682189509272575,,,,,,,,,
1739402334.0050747,0.5256933905941613,0.09600901881479747,-0.9533459702168042,-2.069125738321964,0.1377420821737355,2.1375679236912073,-1.2753850416528196,0.000899838291221193,0.0007866821253304302,0.0007195177113193647,-0.001367495100884075,-0.0014496266773637218,0.00039490837963686813,-0.0011376009726408282,0.1935308277606964,-21.82431411743164,-2.4095618724823,22.66364288330078,0.7002664804458618,2.2679946422576904,-0.0008682189509272575,,,,,,,,,
1739402334.0159802,0.5256938109433048,0.09600383032652048,-0.9533473223209525,-2.0691180918289844,0.1377470604532208,2.1375659057742578,-1.2753787609909741,0.0011145679123798586,-0.00148067497107191,-0.0002930676641832002,-7.663808784991026e-05,-0.0009063287914919881,0.0004130717905797459,-7.893179480952193e-05,0.1935308277606964,-21.79654312133789,-2.38179087638855,22.59223175048828,0.6865335702896118,2.2551772594451904,-0.05396880581974983,,,,,,,,,
1739402334.0260332,0.5256893417838696,0.09600891254601852,-0.9533490411160972,-2.0691226644016854,0.137747003971552,2.137565787641232,-1.27538048629544,-0.00115009011524041,0.0013643094261307676,0.00016804247113811688,-0.001000966410378129,-0.0006280138134093297,-0.002364673479291177,-6.27616544442806e-05,0.2173345386981964,-21.82431411743164,-2.35798716545105,22.61603546142578,0.6865335702896118,2.2551772594451904,-0.04023589566349983,,,,,,,,,
1739402334.0360754,0.5256906334908181,0.09600221047286096,-0.9533491309928721,-2.0691140523182767,0.13774615546246732,2.1375704364159294,-1.275377363409189,0.00013824047459754,-0.0012592585745381452,-0.0008904685253643529,0.0007491011341458885,-0.000794265436123182,0.0012654460397021946,0.001441826852940331,0.2411382496356964,-21.77273941040039,-2.35798716545105,22.54065704345703,0.6938577890396118,2.2551772594451904,-0.06678618490695953,,,,,,,,,
1739402334.0471063,0.5256865549288835,0.09600011091332988,-0.9533494579860669,-2.0691179148479595,0.13774698203136776,2.1375697975425303,-1.2753820250359165,-0.0007276300903983486,-0.0011800867629292678,-8.348378894242666e-05,-0.0007073815481101149,-0.0002704163402467685,0.0007634710821107986,-0.0015633254416462326,0.2689092457294464,-21.74496841430664,-2.38179087638855,22.59223175048828,0.6865335702896118,2.2615859508514404,-0.027418512850999832,,,,,,,,,
1739402334.0580556,0.5256906714074748,0.09600224287561493,-0.9533437988656093,-2.0691214800889437,0.13774925506555244,2.1375669283636105,-1.275382871875532,0.0003043324887573998,-0.000352504831827375,0.0015121639627846556,0.00010139939199983554,-0.0009781896069493232,-0.0001199046989589982,-0.002086106247203718,0.2411382496356964,-21.74496841430664,-2.4333655834198,22.63983917236328,0.6673074960708618,2.2817275524139404,-0.020094294100999832,,,,,,,,,
1739402334.068992,0.5256903334144937,0.09600281690359615,-0.9533533251625962,-2.0691142999691428,0.13775005151254271,2.137564787384535,-1.2753788801826769,0.0002751298192688933,-0.00033736930528845827,-0.0009790393307730289,0.0011629295575014832,0.001240507760562684,-0.00018913246758866945,0.00014540324035923285,0.2411382496356964,-21.77273941040039,-2.3302161693573,22.54065704345703,0.6608988046646118,2.2679946422576904,-0.05396880581974983,,,,,,,,,
1739402334.079968,0.5256920257494774,0.09600234129164646,-0.9533481666814605,-2.069116873805975,0.13774760827098587,2.137569678489581,-1.275385159391346,0.0017998679741823094,0.0006574560520856679,-4.095338261975585e-05,-0.0005562156042829778,-0.0011176359134343577,8.619804860771615e-05,-0.002006202568585405,0.1935308277606964,-21.77273941040039,-2.38179087638855,22.56842803955078,0.6801248788833618,2.2615859508514404,-0.0008682189509272575,,,,,,,,,
1739402334.0899773,0.5256920717935399,0.09600974580133538,-0.9533481668617165,-2.0691161320704476,0.1377503607607202,2.137566565006936,-1.2753836426176635,1.602274638436694e-05,0.0026662918059876957,0.000434862405372002,0.0003360575324850846,0.000514213803599477,-0.0009209254186222762,-0.0013723725194069508,0.2173345386981964,-21.84811782836914,-2.38179087638855,22.56842803955078,0.6673074960708618,2.2615859508514404,-0.013685601763427258,,,,,,,,,
1739402334.0999963,0.5256878274219624,0.09600823904559307,-0.9533499139085883,-2.0691217307294574,0.13774777481274264,2.1375678212029467,-1.2753844002777175,-0.0009619202823594609,-0.00020414270039413346,0.0004414191050319692,-7.970100358684355e-05,-0.0005907131207416312,0.00040074691793003987,-0.0029359262042518855,0.2411382496356964,-21.84811782836914,-2.35798716545105,22.63983917236328,0.6801248788833618,2.2753188610076904,-0.0072769103571772575,,,,,,,,,
1739402334.1110384,0.5256914102152191,0.09600381747994496,-0.953352020901744,-2.069123382155134,0.1377473052887973,2.137566971388413,-1.2753835248800691,-0.0006803181309235972,-0.0011276246111678935,-0.0004031995574815881,-3.600893043136761e-05,-0.000966638829507893,-0.0005579245755603706,-0.0015928289205360084,0.2173345386981964,-21.79654312133789,-2.35798716545105,22.66364288330078,0.6801248788833618,2.2551772594451904,-0.013685601763427258,,,,,,,,,
1739402334.1210983,0.5256911987504952,0.09600018611124776,-0.9533452807772046,-2.069122676722236,0.1377485383026284,2.137569444902448,-1.2753829067600397,0.0004241221958830142,-0.001264590943625194,-0.0001787993014520008,-0.0010504416601187945,4.4940317781331265e-05,0.0001264272307209523,-0.0002980981824303392,0.1935308277606964,-21.74496841430664,-2.4095618724823,22.61603546142578,0.6737161874771118,2.2615859508514404,-0.020094294100999832,,,,,,,,,
1739402334.1320114,0.5256897228350282,0.09600927108709557,-0.9533482841527925,-2.0691224694405106,0.1377492945027552,2.137568916975383,-1.2753782642379696,-0.0009548689226682564,0.0012861810836998955,-0.001526300022742821,1.5790398581548419e-06,0.0004482389680625265,-0.0006885924056709839,0.0009511701411502606,0.2411382496356964,-21.87192153930664,-2.38179087638855,22.63983917236328,0.6673074960708618,2.2679946422576904,-0.04756011441349983,,,,,,,,,
1739402334.143015,0.5256920416499723,0.09600584474322083,-0.9533498327246076,-2.069120442216655,0.13774899757267317,2.1375705557947726,-1.2753851979668522,-6.09137162861783e-05,-0.0016673954526899744,-0.0018018671141743516,0.0003545848762978532,0.0008472119141636526,0.0010730957184289375,-0.0012386599428093285,0.2173345386981964,-21.82431411743164,-2.35798716545105,22.61603546142578,0.6737161874771118,2.2551772594451904,-0.027418512850999832,,,,,,,,,
1739402334.1550004,0.5256911747509653,0.09600690596035873,-0.9533450342070647,-2.069120882743357,0.13774382274250982,2.137567823907592,-1.2753773648809796,-0.000173798638604991,7.444270433200318e-05,-0.0005180180570884095,-0.0008757512769467639,-0.0006166598044730584,-0.0014149117140746265,0.0012108892376847934,0.1935308277606964,-21.79654312133789,-2.4095618724823,22.59223175048828,0.6865335702896118,2.2679946422576904,-0.06678618490695953,,,,,,,,,
1739402334.1650782,0.525693121911641,0.09600413451928187,-0.9533490883010859,-2.0691201399917314,0.13774930082277448,2.1375649966796937,-1.2753802017620106,0.0007174962626592911,-0.00021855327811769708,-0.0008710552147028465,-0.0011143389271840549,-0.00012006355191638435,-0.00032202572399740834,-0.00038803502860971785,0.1935308277606964,-21.79654312133789,-2.35798716545105,22.59223175048828,0.6673074960708618,2.2753188610076904,-0.03382720425724983,,,,,,,,,
1739402334.1760533,0.5256878623989102,0.09600603631772199,-0.9533453028729776,-2.0691181651869965,0.13774627263618136,2.1375696802363326,-1.2753805022685663,-0.0001133878370513574,-0.0004529300092323696,0.0006913231839735073,0.00013285495238869543,-0.0003821435005938418,-0.0014879257736309486,-0.0005176852101069489,0.2411382496356964,-21.79654312133789,-2.4095618724823,22.59223175048828,0.6938577890396118,2.2615859508514404,-0.04023589566349983,,,,,,,,,
1739402334.1860752,0.5256937728490889,0.09600382966989325,-0.9533475821069908,-2.0691226918721997,0.1377474954168914,2.137569796735011,-1.2753829829090646,0.0011395862232847164,0.0006559460829543072,-0.0007846871760903028,-0.000141549897639913,0.0012206284102586412,-0.00011258125456108034,-0.0006042431440495547,0.1935308277606964,-21.79654312133789,-2.38179087638855,22.61603546142578,0.6865335702896118,2.2615859508514404,-0.05396880581974983,,,,,,,,,
1739402334.1980171,0.5256884572124046,0.09600383048935865,-0.9533512454079593,-2.0691140522849345,0.13774853733288875,2.1375697981892188,-1.275378880044405,-0.001933153772089874,-0.00012744427525865376,-0.0004982604422922675,0.002045674889486435,-0.0003192213124515003,-0.00024226872077398172,0.000906297489246537,0.2411382496356964,-21.79654312133789,-2.35798716545105,22.54065704345703,0.6737161874771118,2.2615859508514404,-0.05396880581974983,,,,,,,,,
1739402334.208035,0.5256919631332658,0.09599839756015452,-0.9533455540890907,-2.0691161412152526,0.13774935440788524,2.1375697938285763,-1.2753805037400607,0.0009098950875817554,-0.0001916208821615416,0.0011406850181649763,-0.0003963581904218651,-0.0006923141688433977,0.0004952707361602373,-0.0007647096799686325,0.1935308277606964,-21.72116470336914,-2.38179087638855,22.56842803955078,0.6938577890396118,2.2615859508514404,-0.04023589566349983,,,,,,,,,
1739402334.2189436,0.5256885565787331,0.09600213261767172,-0.9533540445812924,-2.069118357298113,0.13774777923676193,2.137569796251086,-1.2753788758220999,-0.0004489450765215445,0.00015277876768710633,-0.0017764296921078259,-0.00039923733333092334,0.0007043918907318665,1.0017524591981985e-05,6.594642165453577e-05,0.2411382496356964,-21.77273941040039,-2.3302161693573,22.56842803955078,0.6801248788833618,2.2615859508514404,-0.05396880581974983,,,,,,,,,
1739402334.2289932,0.5256922698332809,0.09600210690280647,-0.9533514721502301,-2.0691199442588517,0.13774382133144603,2.1375714704927993,-1.2753779611785705,0.0005295142746792068,-0.00126465863423468,0.00011275786753571623,-0.0001013230543357328,-0.0022819494204934865,0.0015787630676015103,0.000805897653268228,0.2173345386981964,-21.77273941040039,-2.35798716545105,22.61603546142578,0.6865335702896118,2.2487685680389404,-0.06037749722599983,,,,,,,,,
1739402334.239982,0.5256894630875018,0.09600581671090501,-0.9533533195388463,-2.069120882740546,0.1377477835524299,2.1375705558501914,-1.275383641163178,7.353663592592273e-05,0.0010448456566900758,-0.0004591879974392998,-0.000496873668785119,0.0004851961713654818,0.0005140860867878499,-0.0012246765705433414,0.2173345386981964,-21.82431411743164,-2.3302161693573,22.59223175048828,0.6801248788833618,2.2551772594451904,-0.013685601763427258,,,,,,,,,
1739402334.2500267,0.5256921484963134,0.09600381779345889,-0.9533504251717209,-2.0691204423743876,0.13774889226303183,2.1375713135093837,-1.275380503740037,0.0015351619183396163,0.0012281992105649697,-0.0012605715505225534,-0.0009734646025844869,0.0005439100119012723,0.0005933657470839533,0.0003383429521879896,0.2173345386981964,-21.79654312133789,-2.38179087638855,22.61603546142578,0.6737161874771118,2.2487685680389404,-0.04023589566349983,,,,,,,,,
1739402334.260044,0.5256912874528895,0.0960106924522184,-0.9533491683886106,-2.069120723049594,0.13774808778939865,2.137567114993787,-1.275383642617639,0.0009249596428172459,0.0009944639024008538,-0.0013999154607986016,-0.0009857638270624508,0.000820717988036267,-0.001066042546018648,-0.0013366651311075453,0.1935308277606964,-21.84811782836914,-2.35798716545105,22.61603546142578,0.6865335702896118,2.2753188610076904,-0.013685601763427258,,,,,,,,,
1739402334.2719438,0.525687772807027,0.09600870132782097,-0.9533475821070079,-2.0691226655350152,0.1377485368486877,2.1375690405231667,-1.275384742292579,-0.0011357816228604466,-0.0008185840604284654,0.0007554017575575524,0.0002433358766488258,-5.567370604330005e-05,-0.0010712111563140217,-0.00037863134130668966,0.2411382496356964,-21.82431411743164,-2.38179087638855,22.61603546142578,0.6737161874771118,2.2679946422576904,-0.04023589566349983,,,,,,,,,
1739402334.2819638,0.5256913438729357,0.09600967694495166,-0.9533473742742913,-2.06911794222376,0.13774920086374717,2.1375713135093837,-1.2753788532517092,-1.5389210725623126e-05,-3.066809463798681e-05,6.66582713954766e-05,-0.00014491912855753487,0.0009030736622297747,0.00031406021994919976,-0.00024893704076972393,0.2173345386981964,-21.84811782836914,-2.4095618724823,22.59223175048828,0.6801248788833618,2.2487685680389404,-0.027418512850999832,,,,,,,,,
1739402334.2930114,0.5256923834945618,0.09601065255635127,-0.9533473745939627,-2.0691179423205246,0.13774702154658822,2.1375690405291485,-1.2753820248208059,0.001669106456128095,0.0010972919578391255,0.00012857545194383936,0.0003239457777966491,-0.0007246580305470816,-0.00013385449179186245,-0.002002827266304469,0.2173345386981964,-21.84811782836914,-2.4095618724823,22.59223175048828,0.6865335702896118,2.2679946422576904,-0.027418512850999832,,,,,,,,,
1739402334.3030205,0.5256923852126921,0.09600899278965531,-0.9533424061586044,-2.069124363006751,0.13774702157668373,2.1375697589433704,-1.2753820190602507,0.0012038588921518163,0.00040386412216052094,0.0006578142713609123,-0.0012192096455345327,-0.00015007626397833465,-0.0006961773889610297,-0.0005659558900682168,0.2173345386981964,-21.82431411743164,-2.4571692943573,22.66364288330078,0.6865335702896118,2.2615859508514404,-0.027418512850999832,,,,,,,,,
1739402334.313035,0.5256895412319708,0.09600530858786953,-0.9533473492922573,-2.0691215199025517,0.137747783570496,2.1375697981885624,-1.2753828457115939,0.0007347112241520918,-0.0016893436415682758,-0.000419882151815735,-0.00016576948769980254,-0.0005034150660498212,-0.0006051894273140671,-0.000780910519002511,0.2173345386981964,-21.77273941040039,-2.38179087638855,22.63983917236328,0.6801248788833618,2.2615859508514404,-0.020094294100999832,,,,,,,,,
1739402334.3240216,0.525689549850601,0.09600688321679403,-0.953349484200462,-2.0691182732295217,0.13774777918266456,2.137566619274839,-1.2753844046377036,-0.000917833504863203,0.0006830391172285901,0.0005250264842487626,-0.00043243547700218683,-0.0015633745278124957,-0.0004739345378588525,-0.0018179138843243776,0.2173345386981964,-21.82431411743164,-2.38179087638855,22.59223175048828,0.6801248788833618,2.2615859508514404,-0.0072769103571772575,,,,,,,,,
1739402334.3340333,0.5256914382807155,0.09600891464517645,-0.9533512453830308,-2.06912006370861,0.1377470215766836,2.137569798171282,-1.275377820544646,0.0002804559165149802,0.0016967496964235573,-0.0004565527864361152,-0.0002889666237713041,-0.001231864442903284,8.22013572176236e-06,0.0019663949757035013,0.2173345386981964,-21.82431411743164,-2.35798716545105,22.61603546142578,0.6865335702896118,2.2615859508514404,-0.05396880581974983,,,,,,,,,
1739402334.3450165,0.5256918859845897,0.09601113583215605,-0.9533541321713981,-2.0691179147411085,0.1377500521628262,2.1375697981892268,-1.2753784288438696,0.0009174951113131847,0.0007938656180290616,-0.0019483045862547458,-0.00022969965095481076,-9.417024791141381e-05,0.00017293559896163575,0.0005427475677382424,0.1935308277606964,-21.82431411743164,-2.3302161693573,22.59223175048828,0.6608988046646118,2.2615859508514404,-0.06678618490695953,,,,,,,,,
1739402334.355998,0.5256894965028563,0.09600702159356536,-0.9533491306788942,-2.069116160547471,0.1377477967342095,2.137569798189227,-1.2753836440731912,0.0008061851613709009,0.0013912893142858313,6.755120138132931e-05,0.00039893629804124784,0.00037364570830492863,-0.0004445870602629308,-0.0009445025677607087,0.2173345386981964,-21.79654312133789,-2.35798716545105,22.56842803955078,0.6801248788833618,2.2615859508514404,-0.013685601763427258,,,,,,,,,
1739402334.3660913,0.5256858524419481,0.09600530837129932,-0.9533501675931447,-2.0691193462940274,0.1377490107366848,2.1375674169718377,-1.2753844002777421,-0.00014556469326115035,-0.00027916004023793086,-0.00029284104903433753,-0.0011086218236121906,0.0005904072410692311,-0.0005755294218998287,-0.0005822389996419195,0.2689092457294464,-21.77273941040039,-2.38179087638855,22.56842803955078,0.6737161874771118,2.2817275524139404,-0.0072769103571772575,,,,,,,,,
1739402334.3770187,0.5256897352471651,0.09600151522389548,-0.9533463083803028,-2.069117203487917,0.13774778503580515,2.1375722194435363,-1.2753821367977882,-0.000648422602446241,-0.0010314336549371707,0.0007314751541391607,0.001519444143230405,-0.001257063523635291,0.0003583302116966893,-0.0012651338483246793,0.2411382496356964,-21.72116470336914,-2.4095618724823,22.56842803955078,0.6801248788833618,2.2679946422576904,-0.027418512850999832,,,,,,,,,
1739402334.3870282,0.5256922972563777,0.09600530478900555,-0.953348284348666,-2.0691161320760307,0.1377478245243724,2.1375697982430624,-1.275382884797939,0.0011136519856540469,-0.0003046559705611701,0.0004060600356163051,0.0017481752808582154,0.0014699090179781846,-0.00011802904529452729,-0.0008098981095556651,0.2173345386981964,-21.77273941040039,-2.38179087638855,22.56842803955078,0.6801248788833618,2.2615859508514404,-0.020094294100999832,,,,,,,,,
1739402334.3980784,0.5256897051240071,0.09600401486223055,-0.9533453462235191,-2.069114065495338,0.13774995852459335,2.1375697983507336,-1.275380503740059,-0.00015046476063761464,0.0006099938537466289,0.0013564998702342878,0.000943055968767874,0.0016462516358394024,-0.00012800151297979735,0.0005734498887520298,0.2411382496356964,-21.79654312133789,-2.4095618724823,22.54065704345703,0.6737161874771118,2.2615859508514404,-0.04023589566349983,,,,,,,,,
1739402334.409048,0.5256914354059646,0.09600891367951518,-0.9533417144440208,-2.069117914722369,0.13774702217524704,2.137569798189227,-1.2753788845434015,9.442896077625486e-05,-4.6624199163582917e-05,0.0014710541733083356,0.000559536012398059,-0.0010181006684589307,0.00023477376520014896,-0.0006714014018273743,0.2173345386981964,-21.82431411743164,-2.4571692943573,22.59223175048828,0.6865335702896118,2.2615859508514404,-0.05396880581974983,,,,,,,,,
1739402334.420036,0.5256869251796817,0.09600664892610782,-0.9533475791109319,-2.0691197353980373,0.1377478932681189,2.137570555633965,-1.275385162298471,-0.002441912150099455,0.0001815856051494221,0.00024207681587042073,0.0005416440083050747,0.00017433800450719633,-0.0005906940537695959,-0.002464817153890221,0.2927129566669464,-21.82431411743164,-2.38179087638855,22.61603546142578,0.6801248788833618,2.2551772594451904,-0.0008682189509272575,,,,,,,,,
1739402334.4300785,0.5256906701348588,0.09600530854817599,-0.9533474260014314,-2.069119700465023,0.13775035491500692,2.137568738551094,-1.275382019060292,-0.00035574208170817986,-0.0010067521818432974,-0.0009937862875761174,0.0008959800441956372,0.0005854204202607995,-0.000583462949538032,-0.001012635150288208,0.2411382496356964,-21.77273941040039,-2.38179087638855,22.61603546142578,0.6673074960708618,2.2615859508514404,-0.027418512850999832,,,,,,,,,
1739402334.4410055,0.5256957973188985,0.09601074334388297,-0.9533434738672213,-2.0691211696699887,0.13775128852214852,2.1375705558433236,-1.2753765164084052,0.0006584709264754564,0.0001689623191006048,0.001069564375570453,-0.0013290006548766424,0.0002026983187755931,1.5339484256499e-05,-0.0014121359517970974,0.1697271168231964,-21.84811782836914,-2.4333655834198,22.59223175048828,0.6865335702896118,2.2551772594451904,-0.07411040365695953,,,,,,,,,
1739402334.4520175,0.5256923568696134,0.09601356621133661,-0.9533452942067043,-2.0691179271129037,0.13774819904626062,2.1375705558493054,-1.275385158422608,0.0006883029325623991,0.0004843214747701461,0.00012595276268190898,-0.0003989847948483733,-9.51298368727133e-05,0.0005448102366258379,-0.0011729110537907433,0.2173345386981964,-21.84811782836914,-2.4095618724823,22.59223175048828,0.6737161874771118,2.2551772594451904,-0.0008682189509272575,,,,,,,,,
1739402334.4641066,0.5256883266522446,0.09600702122289251,-0.9533476628899177,-2.06912226291191,0.13774568812318136,2.137569798189227,-1.275377356141734,-0.00097829562954004,-0.000856866835057725,-0.002039755416533049,-0.0005841800259516225,-0.0026298697291097656,3.966042015430269e-05,0.001184751883745254,0.2689092457294464,-21.79654312133789,-2.38179087638855,22.63983917236328,0.6938577890396118,2.2615859508514404,-0.06678618490695953,,,,,,,,,
1739402334.475003,0.5256923491177875,0.09600702121755884,-0.9533512066119364,-2.069121214943254,0.1377477806443455,2.1375705558493054,-1.275378880398075,0.0007743817773592184,-0.000450730653540437,-0.0014031779123261242,-0.0002466167229530678,-0.00035750671797158795,0.00010416092441947023,-0.0005059765562509434,0.2173345386981964,-21.79654312133789,-2.3302161693573,22.59223175048828,0.6801248788833618,2.2551772594451904,-0.05396880581974983,,,,,,,,,
1739402334.4860451,0.5256894599136916,0.0960070213255657,-0.953350400633566,-2.0691209645334427,0.13775009327912674,2.1375705558493054,-1.275381626601653,-0.0006573155080296943,0.00013964887366796,-0.0008362816901282546,0.00022613481511510265,0.0015529841943473692,4.5405114563780544e-05,0.0003493792884878784,0.2173345386981964,-21.79654312133789,-2.38179087638855,22.59223175048828,0.6608988046646118,2.2551772594451904,-0.027418512850999832,,,,,,,,,
1739402334.4970198,0.5256885305623092,0.09601070531083376,-0.9533473740139896,-2.0691201679165085,0.13774469892782085,2.137569798189227,-1.2753836032080612,-7.306046401404822e-05,0.00014778103041302186,-5.387987650229273e-05,0.0005849716163029556,-0.0010759003927746805,0.00040912064673249987,-0.0014105459436834537,0.2411382496356964,-21.84811782836914,-2.38179087638855,22.59223175048828,0.6801248788833618,2.2615859508514404,-0.013685601763427258,,,,,,,,,
1739402334.5080218,0.5256937744934883,0.09600701372405565,-0.9533491653407167,-2.0691191036172083,0.13774777916520214,2.1375690385910815,-1.275380987772071,0.0008123264096962081,0.00046202520836155134,-0.00013809116164791564,-0.0004534185110245471,6.133185618202087e-05,5.2715982812415983e-05,-0.00018233313208615518,0.1935308277606964,-21.79654312133789,-2.35798716545105,22.56842803955078,0.6801248788833618,2.2679946422576904,-0.04023589566349983,,,,,,,,,
1739402334.5189598,0.5256882520946699,0.09600530728605042,-0.9533473507788981,-2.0691179147852288,0.13774701030897712,2.1375697981891943,-1.2753778074708662,-0.0002585361214220546,-0.0004530672137117469,0.0009546718010512123,7.431873365769463e-05,-0.0002784098289477044,4.972991949005926e-05,0.000912752424341409,0.2411382496356964,-21.77273941040039,-2.38179087638855,22.59223175048828,0.6865335702896118,2.2615859508514404,-0.05396880581974983,,,,,,,,,
1739402334.5290048,0.5256901734662162,0.09600901915840394,-0.9533473513133139,-2.069118715904954,0.13774703907406785,2.1375708578811916,-1.2753768528184788,0.000598950440895933,0.0007367022119629961,0.000674746826481561,0.0003775890110195089,-0.00022132582036167678,0.0004744742524353332,0.0015196211738549921,0.2173345386981964,-21.82431411743164,-2.38179087638855,22.56842803955078,0.6865335702896118,2.2615859508514404,-0.07411040365695953,,,,,,,,,
1739402334.5410657,0.5256899342658662,0.09600156210089275,-0.9533452693121808,-2.069116135464089,0.13775249328544897,2.1375678214251885,-1.2753837123900482,-0.0005372668711250901,-0.0010414209831274353,0.0005843142032596569,0.0011399354442740027,0.0007391387356196018,-0.0016029395701669534,-0.0015537389504003572,0.2411382496356964,-21.72116470336914,-2.4095618724823,22.56842803955078,0.6673074960708618,2.2753188610076904,-0.013685601763427258,,,,,,,,,
1739402334.5520232,0.5256905635646187,0.09600331907041589,-0.9533473393295862,-2.069119701934087,0.13774929501436822,2.1375705558486406,-1.2753773647016602,3.456712420080236e-05,-0.0011358260089162054,0.00031947257726431464,0.0008643443102376118,9.503694224731029e-05,0.0007041976394615967,0.0023902685704048285,0.2411382496356964,-21.74496841430664,-2.38179087638855,22.61603546142578,0.6673074960708618,2.2551772594451904,-0.06678618490695953,,,,,,,,,
1739402334.5620666,0.5256914179653722,0.09600330196667875,-0.9533473742371571,-2.0691214841589605,0.1377485368426773,2.1375697983507327,-1.2753860238350256,0.0010552870392409033,-0.0009037283167438238,0.0009057082585702385,-0.00013474386006431566,-0.00015676103441470627,0.0002815191293658253,-0.0011274275442337118,0.2173345386981964,-21.74496841430664,-2.4095618724823,22.63983917236328,0.6737161874771118,2.2615859508514404,0.0064559997990727425,,,,,,,,,
1739402334.5730402,0.5256895455777258,0.09600772985050822,-0.9533455901737334,-2.0691161352234184,0.13774857633381188,2.1375713135093846,-1.2753796378428293,0.0003022940449435047,-4.106287824255718e-05,0.0002982378509771293,0.0012041879799585462,0.0004450532515119827,0.0004246257961370951,0.0011400186469722644,0.2173345386981964,-21.79654312133789,-2.4095618724823,22.56842803955078,0.6737161874771118,2.2487685680389404,-0.04756011441349983,,,,,,,,,
1739402334.584013,0.5256895469617435,0.09600902208659785,-0.953349456921543,-2.0691169104340963,0.13774935457106627,2.1375690405291485,-1.2753802017620104,0.0006883546832268383,-0.0005001407747380063,-0.0005844202947917655,0.0011704354762899446,2.1481957801107584e-05,-0.0003893181087332991,0.001051772963172643,0.2173345386981964,-21.82431411743164,-2.38179087638855,22.56842803955078,0.6938577890396118,2.2679946422576904,-0.03382720425724983,,,,,,,,,
1739402334.5940893,0.5256884483887599,0.09600555365639939,-0.9533473609549736,-2.069121481563038,0.13775097798325137,2.1375705558493054,-1.2753805031418928,-0.0005903605023969913,-0.0015321304184572485,-0.00012107469235694544,3.3646436193917164e-05,-0.00016054698992824657,0.0007922543154902718,0.0001295147791656611,0.2411382496356964,-21.77273941040039,-2.38179087638855,22.63983917236328,0.6801248788833618,2.2551772594451904,-0.04023589566349983,,,,,,,,,
1739402334.6049726,0.5256910157421397,0.09600694211401185,-0.9533491645203293,-2.069119947713285,0.13774929500834926,2.137571313024867,-1.2753804637032475,-0.00038087197618972396,-0.0010826713842849221,-0.001112063173800932,0.0007324554003043137,0.00025529605649766637,0.00030782441258219573,-0.0004929539522844055,0.1935308277606964,-21.79654312133789,-2.35798716545105,22.61603546142578,0.6673074960708618,2.2487685680389404,-0.013685601763427258,,,,,,,,,
1739402334.6149917,0.5256940587456224,0.09601073459398865,-0.9533480500072112,-2.069117121057712,0.13774853684267718,2.1375697981892188,-1.2753820188448775,0.001291560290386691,-0.00011025253742948798,0.0001027361742503176,0.0013010980572735246,-0.000297799381030663,-0.0003008064506827251,-0.0009224619205321945,0.1935308277606964,-21.84811782836914,-2.38179087638855,22.56842803955078,0.6737161874771118,2.2615859508514404,-0.027418512850999832,,,,,,,,,
1739402334.6250513,0.5256913696037132,0.09601073167919244,-0.9533500780481687,-2.069122750223351,0.1377463282162019,2.137569798189227,-1.2753844002777137,-0.00027090643534902615,0.0010124412561808827,-0.0012619382540832653,0.0003941004345193652,-0.0003182804767846027,0.0007842581668717095,-0.001445398841553343,0.2173345386981964,-21.84811782836914,-2.38179087638855,22.61603546142578,0.6938577890396118,2.2615859508514404,-0.0072769103571772575,,,,,,,,,
1739402334.6350598,0.52569164403563,0.09600674874502288,-0.9533512371784021,-2.0691204731965436,0.13774809363684215,2.1375698025498777,-1.275382023420869,0.0010177626623991112,-0.0009333774471564171,-0.0008571503436072687,2.2685775201420515e-05,0.00016727737828090898,-5.242597739899278e-05,-0.0009009779933909166,0.2173345386981964,-21.79654312133789,-2.35798716545105,22.59223175048828,0.6865335702896118,2.2615859508514404,-0.027418512850999832,,,,,,,,,
1739402334.645974,0.5256894705024588,0.09600702218808245,-0.9533521727654166,-2.0691179430262836,0.13774929450879908,2.1375697981892516,-1.275387134707841,0.00014118504166047205,-0.0008139910759100365,-0.0008753035045865791,0.00026081373318733613,0.0006096096691924026,0.00014511504475919984,-0.0020058895316345305,0.2173345386981964,-21.79654312133789,-2.35798716545105,22.59223175048828,0.6673074960708618,2.2615859508514404,0.012864691205322742,,,,,,,,,
1739402334.6569977,0.5256896223643351,0.09600701210259298,-0.9533434855466755,-2.069120231548802,0.13774778503313004,2.1375705559031406,-1.2753773648650286,0.0003430804040512498,-0.0011775859919766255,0.0014610681985296132,0.00010912643913301459,-0.0005967415673508839,-0.0003393724548943645,0.0012072548496772778,0.2411382496356964,-21.79654312133789,-2.4333655834198,22.59223175048828,0.6801248788833618,2.2551772594451904,-0.06678618490695953,,,,,,,,,
1739402334.668075,0.525687590410134,0.09600796606140313,-0.9533452678855298,-2.0691197110176285,0.1377475838071352,2.1375681746319173,-1.2753788806672675,-0.0009035022005479205,-0.00025841147650018995,0.00037899872485295567,0.001170408886368172,0.0001234209184932611,-0.0006226946088725811,0.00033641482413847805,0.2411382496356964,-21.79654312133789,-2.4095618724823,22.61603546142578,0.6938577890396118,2.2753188610076904,-0.05396880581974983,,,,,,,,,
1739402334.6790395,0.5256862294013954,0.09600520277926271,-0.953349462729618,-2.0691161331256427,0.13774930774137764,2.137569798189227,-1.2753805037400625,-0.000833519708075179,-0.0012525186996712638,8.772944443501636e-05,0.0009343645071083767,-0.0003226346771469334,-0.000498145630474135,0.0003652000670527157,0.2689092457294464,-21.77273941040039,-2.38179087638855,22.56842803955078,0.6673074960708618,2.2615859508514404,-0.04023589566349983,,,,,,,,,
1739402334.6900716,0.5256896997618059,0.09600323262250862,-0.9533512749142055,-2.069120140464883,0.13774783183752265,2.137570149948387,-1.2753781225226726,-0.0008304087628699837,-0.0006481119272364696,-0.0006299013587311205,0.0006074230540421764,-8.395810921351444e-05,1.9335084286266162e-05,0.000680815462953923,0.2411382496356964,-21.74496841430664,-2.35798716545105,22.59223175048828,0.6801248788833618,2.2615859508514404,-0.06037749722599983,,,,,,,,,
1739402334.7010293,0.5256906334298548,0.09600806412345275,-0.95334734793715,-2.069121823483911,0.13774781867403074,2.137569040531134,-1.27537748276211,-0.00026507783362249055,0.0012952731607156318,0.000264719157876373,-0.0006202667218257896,-0.0005069778750575475,0.00016917257394861724,-0.0003233509646474403,0.2411382496356964,-21.77273941040039,-2.38179087638855,22.63983917236328,0.6801248788833618,2.2679946422576904,-0.06678618490695953,,,,,,,,,
1739402334.7120364,0.5256885302576086,0.09600996390945346,-0.9533473829397627,-2.06911621485297,0.13774702157690652,2.137569798189227,-1.2753820190608838,0.00024321062315591697,0.000714430135743427,0.000153036320980767,0.0003132539576516484,-0.000483025246685392,6.4667519861819306e-06,0.0002889949154369688,0.2411382496356964,-21.82431411743164,-2.4095618724823,22.56842803955078,0.6865335702896118,2.2615859508514404,-0.027418512850999832,,,,,,,,,
1739402334.722948,0.5256906597089595,0.09601073308856539,-0.9533473480083151,-2.069119790975409,0.13774854123057373,2.1375681877138684,-1.2753749436082844,-0.00027031548923721034,0.0007184007602070689,2.869745590559626e-05,0.00012750159734516001,-0.0005499134991670523,-0.0009036054666586003,0.002392401043857557,0.2411382496356964,-21.84811782836914,-2.38179087638855,22.56842803955078,0.6737161874771118,2.2753188610076904,-0.06037749722599983,,,,,,,,,
1739402334.732995,0.5256895757919268,0.09600902207462096,-0.9533491306733967,-2.069120152246763,0.13774777934517957,2.1375697981894484,-1.2753781224688374,0.0005910447245408285,-0.0005265594478748319,-2.6896614511450075e-05,6.117089711557749e-06,0.0005614088382427728,1.4112831732769114e-07,0.0017976575233726502,0.2173345386981964,-21.82431411743164,-2.35798716545105,22.59223175048828,0.6801248788833618,2.2615859508514404,-0.06037749722599983,,,,,,,,,
1739402334.743049,0.5256929620529548,0.09601073037705371,-0.9533491349532944,-2.069119024170797,0.13774781883625126,2.1375682138777727,-1.275380464494204,0.001847117497923285,0.0005164874427225258,-0.0008972436659682391,0.0003189211460172118,-0.0003924162245639951,-0.0002855596576678769,0.0004629857662037226,0.1697271168231964,-21.84811782836914,-2.35798716545105,22.59223175048828,0.6801248788833618,2.2753188610076904,-0.04023589566349983,,,,,,,,,
1739402334.7539952,0.5256883212757348,0.0960068833253001,-0.9533475911302707,-2.0691217273817872,0.1377477791828141,2.137567416972059,-1.27537963848863,-0.0019141402775485145,-0.001132428335686306,0.00032592108235251577,-0.0001630814151423152,-0.00011922260462949825,-0.0005019932785298527,2.0534838101828345e-05,0.2411382496356964,-21.82431411743164,-2.38179087638855,22.63983917236328,0.6801248788833618,2.2817275524139404,-0.04756011441349983,,,,,,,,,
1739402334.76404,0.5256894593391012,0.09600902203842657,-0.9533474878727118,-2.069123828901124,0.13774778503313,2.1375705558493054,-1.2753773248256846,9.463824492588282e-05,-0.0007359356540597617,-0.00036998610723708314,-0.0010626919310047776,-0.0006179926728782496,-4.422765878777697e-05,-0.00016913546850106,0.2173345386981964,-21.82431411743164,-2.4095618724823,22.63983917236328,0.6801248788833618,2.2551772594451904,-0.04023589566349983,,,,,,,,,
1739402334.774046,0.5256894631812807,0.09600699705657828,-0.9533458265642725,-2.06911902383352,0.13775022469311876,2.1375697938285763,-1.275379637788994,-0.0002842368310375286,-0.0008762998379602272,0.00031787679378662923,0.0006346053136059627,-0.00043974014210219176,0.0006077673478628815,-0.0009969546780957124,0.2173345386981964,-21.82431411743164,-2.4333655834198,22.59223175048828,0.6865335702896118,2.2615859508514404,-0.04756011441349983,,,,,,,,,
1739402334.7850077,0.5256932261967947,0.09600678389135463,-0.9533434855427181,-2.069123788919798,0.13774795032895967,2.1375681746318915,-1.275379639296379,0.0011953980185810192,-0.00109211168199576,0.0008637427140340134,-0.00023383834032348662,-0.0009669828203886959,-0.00025202080973444024,0.0003877129243738049,0.1697271168231964,-21.79654312133789,-2.4333655834198,22.63983917236328,0.6801248788833618,2.2753188610076904,-0.04756011441349983,,,,,,,,,
1739402334.7950306,0.5256913347864415,0.09600972811141233,-0.953343719211931,-2.0691210012587486,0.13774976986199922,2.1375713135093837,-1.2753796378428537,-0.0005448584271709522,0.00031228601120899017,0.000795993103374438,0.0002638208532213346,0.0010381542661264604,0.000594444538775569,0.000343632982917966,0.2173345386981964,-21.82431411743164,-2.4333655834198,22.59223175048828,0.6673074960708618,2.2487685680389404,-0.04756011441349983,,,,,,,,,
1739402334.805957,0.5256903478532268,0.0960070225176432,-0.9533480762488837,-2.0691164743271737,0.1377486569439317,2.1375713135093837,-1.2753796378428293,0.0012554568019130456,-0.0005427693305668734,-0.00037988490262901036,0.0011966791374243026,-0.00039419201306709664,0.0005927317476288484,0.00044461534395835744,0.2411382496356964,-21.79654312133789,-2.4095618724823,22.56842803955078,0.6737161874771118,2.2487685680389404,-0.04756011441349983,,,,,,,,,
1739402334.8159966,0.5256875166902188,0.09600702121762489,-0.9533453434613941,-2.069115078249635,0.13774889519432948,2.137569798189227,-1.2753788850279182,-0.000746407756075231,0.0006848186694913504,0.001024671626420096,0.0012330508281247331,0.0005574240081049482,-7.432958599585621e-05,0.001381664655324773,0.2411382496356964,-21.79654312133789,-2.4095618724823,22.54065704345703,0.6737161874771118,2.2615859508514404,-0.05396880581974983,,,,,,,,,
1739402334.8260498,0.5256903204143281,0.0960051608071748,-0.9533473481037996,-2.069119945797152,0.13775130411962466,2.137569798189227,-1.2753788801827781,0.00032777224714648025,1.975339254830968e-06,-0.00042672944285401457,0.0003089379114979276,0.0010198143814472865,-0.000898166422504701,0.0001769396971251422,0.2411382496356964,-21.77273941040039,-2.38179087638855,22.61603546142578,0.6865335702896118,2.2615859508514404,-0.05396880581974983,,,,,,,,,
1739402334.8369486,0.5256896312595883,0.0960070251049709,-0.9533473483173703,-2.0691212118781657,0.1377479035849068,2.137569792375026,-1.2753842978082897,-0.0003451364644782416,-0.0003231870506591734,0.00011465805830822312,-0.001091467096816518,-0.00029054337725977137,-0.0002340739369306959,-0.0014123482808698347,0.2411382496356964,-21.79654312133789,-2.38179087638855,22.59223175048828,0.6801248788833618,2.2615859508514404,-0.020094294100999832,,,,,,,,,
1739402334.8469756,0.5256905891207809,0.09600331075604043,-0.9533473483173751,-2.069117349314988,0.13775175464163247,2.137568174631818,-1.275382019084145,0.00021757202180185922,-0.0007692679819935658,0.0016502200351667259,0.0001456337890350435,0.0012955987009928979,-0.0011459453794466685,-0.0007836125674852785,0.2411382496356964,-21.74496841430664,-2.38179087638855,22.54065704345703,0.6737161874771118,2.2753188610076904,-0.027418512850999832,,,,,,,,,
1739402334.8570418,0.5256918861062083,0.09600702121755884,-0.9533474259975229,-2.0691212390278526,0.13774933255538502,2.137569798189227,-1.2753763957049806,0.00022111910873607189,0.0005294341362295946,-6.583207512689737e-05,-0.00097257685644021,0.0015642368584110734,-0.0002551085847647428,-8.58457961392856e-05,0.1935308277606964,-21.79654312133789,-2.38179087638855,22.59223175048828,0.6801248788833618,2.2615859508514404,-0.06037749722599983,,,,,,,,,
1739402334.867988,0.52568583065089,0.09601073171514538,-0.9533435201971165,-2.0691200590901415,0.1377464043838738,2.137569811271179,-1.2753846869777679,-0.000830844689291528,0.0019086181582258796,0.0008214770864782083,-0.0006968045362405054,-0.0009393891986979289,-0.00017714046521107916,-0.00026499101391413136,0.2689092457294464,-21.84811782836914,-2.4333655834198,22.61603546142578,0.6737161874771118,2.2615859508514404,-0.0008682189509272575,,,,,,,,,
1739402334.8789449,0.5256882182372149,0.09600678390276966,-0.9533498326838529,-2.0691171316825825,0.13774777917055248,2.137569798189301,-1.2753764990169787,0.0001553458089248269,-0.000303458203929753,-0.0005972789010722897,0.001468537058133885,0.00011671068928550168,-0.0003318146419223172,0.0012349281717635903,0.2411382496356964,-21.79654312133789,-2.35798716545105,22.56842803955078,0.6801248788833618,2.2615859508514404,-0.07411040365695953,,,,,,,,,
1739402334.8889933,0.5256885528284057,0.09601097663467935,-0.953349130685285,-2.0691226674680707,0.13774906485387997,2.137569798189227,-1.2753773648630355,-0.0004316493690611016,0.0015171978042133696,-0.0006258253513717735,-2.084018973739848e-05,0.001554877914791505,0.00016115066661348234,0.0016052937197863796,0.2411382496356964,-21.84811782836914,-2.35798716545105,22.61603546142578,0.6737161874771118,2.2615859508514404,-0.06678618490695953,,,,,,,,,
1739402334.89902,0.5256898528530732,0.09601083666595794,-0.9533452778362924,-2.0691211330908033,0.13775133339442436,2.1375696412058005,-1.2753763419823756,-0.00013779735130647024,0.0006882075040121604,0.001035097314711606,-6.484880824920693e-05,0.0001021283136701862,-0.00046330809952318554,0.00017682118983064032,0.2411382496356964,-21.84811782836914,-2.4095618724823,22.59223175048828,0.6801248788833618,2.2615859508514404,-0.07411040365695953,,,,,,,,,
1739402334.910966,0.5256901649154566,0.09600902013106628,-0.9533466488751021,-2.0691217307476246,0.1377536063857811,2.1375681744156894,-1.2753783721724687,-0.0001670931432914175,-0.0008017722380869279,8.179678652600297e-05,0.0012961912488152034,0.0008465491112944002,-0.0006336413505187314,0.00019297925450605796,0.2173345386981964,-21.82431411743164,-2.38179087638855,22.63983917236328,0.6608988046646118,2.2753188610076904,-0.06678618490695953,,,,,,,,,
1739402334.9220603,0.5256914392436269,0.0960090192664206,-0.9533474609039218,-2.069126441817122,0.1377485441805884,2.137570555849305,-1.2753836557014866,0.0003947626211709877,-0.0004475839778037072,-0.00032377912590744783,-0.0016782555014696384,-0.0007417526533217329,0.0003043212664385395,-0.0020012083610909284,0.2173345386981964,-21.82431411743164,-2.4095618724823,22.69141387939453,0.6737161874771118,2.2551772594451904,-0.013685601763427258,,,,,,,,,
1739402334.9330473,0.525691673150781,0.09600701991542068,-0.9533431650770486,-2.0691218386267756,0.1377492945027884,2.1375705558493054,-1.275379676927254,0.0012221639675550776,-0.0010237139166687343,0.0010012723398530874,-0.0013503202902994764,-0.0001495426547005408,7.77974161455624e-05,0.0008602737417321243,0.2173345386981964,-21.79654312133789,-2.4095618724823,22.63983917236328,0.6673074960708618,2.2551772594451904,-0.04756011441349983,,,,,,,,,
1739402334.9440043,0.5256913685223402,0.09600934296295181,-0.9533505346583011,-2.0691205016405005,0.13774702152251195,2.1375682138777727,-1.275376458929103,0.00022822857059194888,0.0007925138669263971,-0.0007431688833310876,-0.000751022140091697,-0.0012836568514160728,-4.423119202276492e-05,0.0017911350623511964,0.2173345386981964,-21.82431411743164,-2.35798716545105,22.59223175048828,0.6865335702896118,2.2753188610076904,-0.04756011441349983,,,,,,,,,
1739402334.9549515,0.5256886731556781,0.09601084542297521,-0.9533473742399458,-2.0691222892906875,0.13774948463010653,2.1375717888203876,-1.275385510660007,-0.0004957104320792345,0.00012699130717039238,-5.418837343957542e-05,-0.000596287368219634,-0.0004097802710833367,0.0008992748224825687,0.0002994604095514908,0.2689092457294464,-21.84811782836914,-2.4095618724823,22.61603546142578,0.6737161874771118,2.2487685680389404,-0.0008682189509272575,,,,,,,,,
1739402334.965038,0.5256930464949273,0.09600749545387989,-0.9533452673862081,-2.069120391450762,0.13774865533214922,2.137572219451586,-1.275384400283691,7.587182865739978e-05,-0.0015829057854702577,0.0006485068306840045,0.0009466392369329921,0.0006733803423495698,0.0005310690385691656,-0.0014516649959743127,0.1935308277606964,-21.79654312133789,-2.4095618724823,22.59223175048828,0.6737161874771118,2.2679946422576904,-0.0072769103571772575,,,,,,,,,
1739402334.97599,0.5256895494648256,0.09600159823792048,-0.9533519383934423,-2.0691180250141312,0.13774578760756856,2.137569798261007,-1.2753773648630347,-0.0006348695072423003,-0.002024614275356223,-0.0007634167498415706,0.0009014020109728988,-0.0018275003651980302,0.00010623464422819862,-0.0002460896397379186,0.2173345386981964,-21.72116470336914,-2.35798716545105,22.59223175048828,0.6608988046646118,2.2615859508514404,-0.06678618490695953,,,,,,,,,
1739402334.9860406,0.5256921469038077,0.0960092553694117,-0.9533491308160434,-2.069119947718879,0.13774901198236067,2.1375697981892308,-1.2753805051936118,0.0007054111123118663,0.0008756708420876852,-0.0007205324972310828,-0.0009214144966295795,0.0005033781161116786,-9.410492697347535e-05,-0.0007534343404212736,0.2173345386981964,-21.82431411743164,-2.35798716545105,22.61603546142578,0.6737161874771118,2.2615859508514404,-0.04023589566349983,,,,,,,,,
1739402334.9960594,0.525687850430362,0.09600710027991273,-0.9533491316363742,-2.069119698769984,0.13774776212119821,2.1375690405291485,-1.2753837608397338,-0.00020247301247984268,0.00042116969343964175,-4.6567846027210816e-05,0.0005329595678329141,-4.667260072356574e-05,-0.0003862250758784441,-0.002389263429007864,0.2411382496356964,-21.79654312133789,-2.35798716545105,22.61603546142578,0.6801248788833618,2.2679946422576904,-0.013685601763427258,,,,,,,,,
1739402335.0070057,0.5256926542529267,0.09600530869727396,-0.9533495358802131,-2.0691149873870747,0.13774855000628672,2.137573734763693,-1.275378880183418,0.001692528401106128,-0.0005205604227377541,0.0013991365602307381,0.0014603195996188436,-0.000746835917815694,0.00047538306967727644,0.0012753507641849954,0.1697271168231964,-21.77273941040039,-2.38179087638855,22.56842803955078,0.6737161874771118,2.2551772594451904,-0.05396880581974983,,,,,,,,,
1739402335.0170212,0.5256914218726788,0.09600530869682765,-0.95334914322915,-2.0691197068890674,0.13775173611303948,2.1375705559031406,-1.2753781167084715,0.0007988549838206727,2.6882415793884774e-05,-0.0009841216396086342,-0.00022157337482634496,0.00034012416608580697,0.0003426960389055698,0.0006952168628004565,0.2173345386981964,-21.77273941040039,-2.35798716545105,22.61603546142578,0.6737161874771118,2.2551772594451904,-0.06037749722599983,,,,,,,,,
1739402335.027968,0.5256875153815915,0.0960070213255657,-0.9533498326837281,-2.0691212205819682,0.1377470215405719,2.1375690405291485,-1.275378880182718,-0.000870438086350734,-0.0001613760335298598,-0.00041603888342117235,-0.0008199155041870919,-0.0007351330914981612,-0.0002051164100139367,0.0013880468557401066,0.2411382496356964,-21.79654312133789,-2.35798716545105,22.59223175048828,0.6865335702896118,2.2679946422576904,-0.05396880581974983,,,,,,,,,
1739402335.038032,0.5256954696392702,0.09600633421672038,-0.9533473510041945,-2.069120144553118,0.13775085126422712,2.1375698025498777,-1.275375216632399,0.0017162116617448426,-0.0010360703527728464,9.874743297054009e-05,0.0001194706213794628,0.00021837986438807185,-0.00037497771992631965,0.001677165244363883,0.1697271168231964,-21.79654312133789,-2.38179087638855,22.59223175048828,0.6544901132583618,2.2615859508514404,-0.09425200521945953,,,,,,,,,
1739402335.049038,0.5256882532713475,0.0960070195721945,-0.9533491059570367,-2.069119700615196,0.13775158793020892,2.1375690405292223,-1.2753781227027878,-0.0009196740659541521,-1.7073755813147248e-05,-0.0005629313142893072,9.696231195538516e-05,0.00154929595320267,0.00018671521590277824,0.0005850990215256719,0.2411382496356964,-21.79654312133789,-2.35798716545105,22.61603546142578,0.6608988046646118,2.2679946422576904,-0.06037749722599983,,,,,,,,,
1739402335.05998,0.5256922669398493,0.09601073154645867,-0.9533434874554103,-2.069120067110771,0.13774894492070533,2.137569798189227,-1.2753784715900727,0.001019863689094433,0.00046720632050766046,0.0008140816386127785,0.000311819002882487,0.00099650270675513,-0.00013100392225138087,0.0001519609063895019,0.2173345386981964,-21.84811782836914,-2.4333655834198,22.61603546142578,0.6737161874771118,2.2615859508514404,-0.06037749722599983,,,,,,,,,
1739402335.0709736,0.525694015568844,0.09601185466246735,-0.9533434855295354,-2.0691248167682454,0.1377477791895011,2.1375690405291485,-1.2753789984107489,0.0019398957249286922,-0.0005924379207223105,0.0008590777875601864,-0.00017748002381657538,-0.0011275279438599922,-0.00030676691323364483,-0.0005116005558379409,0.1935308277606964,-21.82431411743164,-2.4333655834198,22.63983917236328,0.6801248788833618,2.2679946422576904,-0.05396880581974983,,,,,,,,,
1739402335.082059,0.5256923748452299,0.09600702998345065,-0.9533491268214883,-2.0691184808093497,0.13775325094542828,2.1375690405291485,-1.275378128337096,0.0011441044322807548,-0.0010892042920809318,-0.0008660380272023449,0.0017541349920319207,0.0020441514102849958,-0.0007060931352688412,0.0006617770932161498,0.2173345386981964,-21.79654312133789,-2.35798716545105,22.56842803955078,0.6608988046646118,2.2679946422576904,-0.06037749722599983,,,,,,,,,
1739402335.092955,0.5256892279077023,0.09600872605459662,-0.9533494540271377,-2.069116173147398,0.13774854124863065,2.1375697983507327,-1.275380541047884,-0.0009073152477930592,-0.0007286069129257498,-0.0010053232981262286,0.0002522283440210241,-9.139843828028128e-05,0.00030842691590306595,0.00032607677594923034,0.2173345386981964,-21.82431411743164,-2.38179087638855,22.56842803955078,0.6737161874771118,2.2615859508514404,-0.04023589566349983,,,,,,,,,
1739402335.10396,0.5256935979328667,0.09601656803806974,-0.9533413790826195,-2.0691285669665604,0.13774889291304268,2.137569798189228,-1.2753781181083972,0.0010069112240171864,0.002712476844739109,0.00047194629169097953,-0.0022239726490660087,-5.477518919406446e-05,-0.0003083389162740778,0.0007124042076298924,0.1697271168231964,-21.89969253540039,-2.4333655834198,22.69141387939453,0.6737161874771118,2.2615859508514404,-0.06037749722599983,,,,,,,,,
1739402335.116016,0.5256914098942429,0.09600993449855545,-0.953347347663494,-2.0691172448414785,0.13774941492836665,2.1375697938285763,-1.2753832894049042,-0.0004041025057211497,0.000895758249088629,-0.00047152730702741284,0.0010612234783669882,0.00023088119638580681,0.0006837728790893402,-0.0017829135714703,0.2173345386981964,-21.79654312133789,-2.38179087638855,22.56842803955078,0.6673074960708618,2.2615859508514404,-0.013685601763427258,,,,,,,,,
1739402335.1269903,0.5256875123892611,0.09600702090950676,-0.9533452682065212,-2.069121242968682,0.1377509781821065,2.1375697981892188,-1.2753781224681726,-0.0013112532775020295,0.0008954844955682553,0.00044278048994645714,-0.0010250970638229497,0.00013862800969224426,-0.00045284545742617095,0.00024118617470314475,0.2411382496356964,-21.79654312133789,-2.4095618724823,22.59223175048828,0.6801248788833618,2.2615859508514404,-0.06037749722599983,,,,,,,,,
1739402335.137035,0.5256884484939396,0.09600530880482928,-0.95334527205843,-2.0691229942333003,0.13774702157668728,2.1375705558493054,-1.2753796376813227,0.00010403586639331423,-0.00122984803510708,0.001124793339420718,-0.0002412489022617921,-0.0008628292794057373,0.0011124817485313255,0.0010068032403933262,0.2411382496356964,-21.77273941040039,-2.4095618724823,22.61603546142578,0.6865335702896118,2.2551772594451904,-0.04756011441349983,,,,,,,,,
1739402335.1480036,0.5256859456108453,0.09600702136156859,-0.9533480513976267,-2.069123313804328,0.13775177511641512,2.137569042467215,-1.2753806974809576,-0.0021388461570399646,-0.0004261744379313151,-5.194923007761671e-07,-0.0009286327345946488,-0.0002570774793466809,-0.0002744586998979973,-0.0007453808338150615,0.2927129566669464,-21.79654312133789,-2.38179087638855,22.61603546142578,0.6737161874771118,2.2679946422576904,-0.04756011441349983,,,,,,,,,
1739402335.1580305,0.5256936987263601,0.09600625354083361,-0.9533491310301253,-2.0691164011467014,0.13775022046963623,2.1375713135094823,-1.275378880236586,0.00191712977746853,0.0004175393013066224,0.0004898991952110158,0.0012602157986527345,0.0001687442095318184,0.00025656770498879756,0.0011408221365153551,0.1697271168231964,-21.77273941040039,-2.35798716545105,22.54065704345703,0.6865335702896118,2.2487685680389404,-0.05396880581974983,,,,,,,,,
1739402335.168944,0.5256864504956168,0.09600530869860553,-0.9533473499223322,-2.0691166361572026,0.1377460913382586,2.1375737304030427,-1.27537649831978,-0.0001486262747805708,-0.0001434738909374274,0.0008355714150370867,0.0004166882905622055,-0.0013485090495632141,0.00015551073389619973,0.0014317107106171245,0.2689092457294464,-21.77273941040039,-2.38179087638855,22.54065704345703,0.6673074960708618,2.2551772594451904,-0.07411040365695953,,,,,,,,,
1739402335.1790354,0.5256920362678082,0.0960051763647048,-0.953345510876768,-2.069120689955941,0.13775173622108566,2.1375697982429887,-1.2753773785909983,-0.00011801353882659086,-0.0007148407104572925,0.0006613618103992803,0.00023874383008633493,0.0003252420840930075,-0.0003124799196033084,0.0013523633287972575,0.2173345386981964,-21.77273941040039,-2.4095618724823,22.61603546142578,0.6737161874771118,2.2615859508514404,-0.06678618490695953,0,0,0,0.000,0,0
1739402335.1910534,0.5256896213088444,0.09601114342293195,-0.9533462831856897,-2.0691243713028182,0.1377470220281175,2.1375690405291485,-1.2753817338040472,-0.0004138254245808632,0.0005274547504125282,-0.00015628452431265928,-0.0010647606115790466,-0.0012134944592141375,-0.0003503447414483008,-0.0008117336382000956,0.2411382496356964,-21.82431411743164,-2.4095618724823,22.66364288330078,0.6865335702896118,2.2679946422576904,-0.03382720425724983,0,0,0,0.000,0,0
1739402335.2012758,0.5256892377812569,0.09600702169758009,-0.9533481545754267,-2.069118257972828,0.13774933399389305,2.1375697589433704,-1.2753820583087416,-4.335243996384571e-06,-0.0007116844206987924,-0.0012216465668714194,0.000572649010355395,0.0018317011921566721,-0.00010368999343640678,0.00019350248363113193,0.2173345386981964,-21.79654312133789,-2.4095618724823,22.59223175048828,0.6673074960708618,2.2615859508514404,-0.027418512850999832,0,0,0,0.000,0,0
1739402335.2119892,0.5256875474684969,0.09601114502124107,-0.9533452720747236,-2.0691212251060085,0.13775097796541616,2.137569804164712,-1.2753774672782978,-1.5567111555074662e-05,0.0011134801000333865,0.0006892860187258569,-0.00145301522702726,0.00034351113221731827,0.00035172743358526353,0.0028631946734993382,0.2411382496356964,-21.82431411743164,-2.4095618724823,22.59223175048828,0.6801248788833618,2.2615859508514404,-0.05396880581974983,0,0,0,0.000,0,0
1739402335.2230363,0.5256930724420122,0.09600904541607909,-0.9533417128032682,-2.069119460722787,0.1377500770694841,2.1375690405291823,-1.2753796358429512,0.0004770368341338715,0.0006776108817264111,0.0015219571191620318,0.00019749846203104737,0.00045962030408082513,-0.00030160943002695224,0.0002540670885432443,0.1935308277606964,-21.82431411743164,-2.4571692943573,22.56842803955078,0.6737161874771118,2.2679946422576904,-0.04756011441349983,0,0,0,0.000,0,0
1739402335.233951,0.5256900400126084,0.09601096792629327,-0.9533473479964335,-2.0691206991260245,0.13774936904292648,2.1375698025498777,-1.275377369223674,-4.8305528037373625e-05,0.000667678793831194,-0.00031509121877979006,0.0007113973039246306,-4.399475875502821e-05,-0.0007074075755650582,0.0007321141936202943,0.2173345386981964,-21.84811782836914,-2.38179087638855,22.61603546142578,0.6938577890396118,2.2615859508514404,-0.06678618490695953,0,0,0,0.000,0,0
1739402335.2440147,0.5256930463758489,0.09600904541608113,-0.9533456062114621,-2.0691230076812435,0.13774886510851558,2.1375705558495266,-1.2753805037402832,0.0009932031716755117,0.00033971698650476286,0.00014006828084505205,-0.0003346151451161646,-0.0012385502786893192,-6.970516014227486e-05,-0.00018312688867133312,0.1935308277606964,-21.82431411743164,-2.4095618724823,22.61603546142578,0.6801248788833618,2.2551772594451904,-0.04023589566349983,0,0,0,0.000,0,0
1739402335.2540593,0.5256955624179123,0.09600726621326457,-0.9533452691714069,-2.069119356524768,0.13774778574349172,2.1375705559031406,-1.275377365509057,0.002011389683679642,-0.0007726108964654673,0.00021298069968312273,0.0019912684440278132,-0.0007254121201357783,0.0002492297118615553,0.0010493419771581672,0.1697271168231964,-21.79654312133789,-2.4095618724823,22.56842803955078,0.6801248788833618,2.2551772594451904,-0.06678618490695953,0,0,0,0.000,0,0
1739402335.2650332,0.5256862973491809,0.09600601733120964,-0.9533452691695042,-2.0691248179484103,0.13775145332158414,2.1375690405291485,-1.2753850402002294,-0.0007308232357563229,-0.0002409580081728032,0.0001832780554880639,-0.0009318843895226961,0.0007836739825512787,-0.0003069987258653043,0.0006088126013880349,0.2689092457294464,-21.77273941040039,-2.4095618724823,22.63983917236328,0.6801248788833618,2.2679946422576904,-0.0008682189509272575,0,0,0,0.000,0,0
1739402335.2759519,0.5256875499337851,0.09600903082715288,-0.9533473228519824,-2.06912222497713,0.13774929457765925,2.1375705558493054,-1.2753828457109293,-0.0011366318093136772,-0.00013725658344912545,0.00016191678602829113,-0.0002722251102557881,-0.0010265071855137067,0.0001897909151800702,-0.00041643137780218443,0.2411382496356964,-21.82431411743164,-2.38179087638855,22.56842803955078,0.6673074960708618,2.2551772594451904,-0.020094294100999832,0,0,0,0.000,0,0
1739402335.2860034,0.5256892510020058,0.09600726811689277,-0.9533491306729707,-2.069114423188033,0.13774941297617796,2.1375681746319164,-1.2753820190595535,0.00019135625977856682,-5.7804567611361034e-05,0.0006006342610478081,0.0018145274026267933,-0.0008429174114275643,-0.0010931635930215332,-0.00019604448845448013,0.2173345386981964,-21.79654312133789,-2.35798716545105,22.54065704345703,0.6673074960708618,2.2753188610076904,-0.027418512850999832,0,0,0,0.000,0,0
1739402335.2960103,0.5256875386950756,0.09600606618722203,-0.9533491306733964,-2.0691192221666355,0.13775239964835645,2.1375681746319164,-1.2753844002777175,7.915085599495981e-05,-2.7564370784016333e-05,0.00013897269213095423,0.00033077218637892955,5.203332335639625e-05,-0.00041311185015291245,-0.0007157316284200925,0.2411382496356964,-21.74496841430664,-2.35798716545105,22.56842803955078,0.6801248788833618,2.2753188610076904,-0.0072769103571772575,0,0,0,0.000,0,0
1739402335.3079267,0.5256893288956609,0.09601159743376644,-0.9533474089044772,-2.06911837088187,0.13774702794085097,2.137569798189227,-1.2753813791377098,-0.000460956321994896,0.00021530685686045408,0.00015613212311644284,0.0005766346293695415,0.0003484360900023119,-0.0002595096902697278,0.00014023346101651015,0.2173345386981964,-21.84811782836914,-2.4095618724823,22.56842803955078,0.6865335702896118,2.2615859508514404,-0.03382720425724983,0,0,0,0.000,0,0
1739402335.3179746,0.5256903204505566,0.09600328442855416,-0.9533491567215266,-2.0691222660093525,0.1377477967884174,2.1375690056439427,-1.2753851579384603,0.00013381508428005062,-0.001568806041002267,-0.00021943209400747732,0.0011367947635105877,5.961652216379045e-05,-0.000525496356745428,-0.0006449404952894286,0.2411382496356964,-21.74496841430664,-2.35798716545105,22.61603546142578,0.6801248788833618,2.2679946422576904,-0.0008682189509272575,0,0,0,0.000,0,0
1739402335.3280149,0.5256895629464876,0.09600702132511983,-0.9533494829169117,-2.0691212512253383,0.13774825307660737,2.137569040528558,-1.275383642617639,-0.0001369775987417223,-5.908686150438028e-05,0.0003638313248555846,0.0010662926019258854,0.0005989657119905506,8.937521304049572e-05,0.00012255878638926923,0.2173345386981964,-21.79654312133789,-2.38179087638855,22.59223175048828,0.6801248788833618,2.2679946422576904,-0.013685601763427258,0,0,0,0.000,0,0
1739402335.3390183,0.5256916703225898,0.096004885384455,-0.9533512114382808,-2.069117465108809,0.13775145915958,2.1375690376220478,-1.2753788801289156,0.0010927664459247166,0.00021281828995352932,-0.0017210717886276773,-5.864360093105214e-05,0.0005000717541657064,-0.0005779348168283422,0.0013498048350643792,0.2173345386981964,-21.79654312133789,-2.3302161693573,22.56842803955078,0.6865335702896118,2.2679946422576904,-0.05396880581974983,0,0,0,0.000,0,0
1739402335.3499997,0.5256911723949252,0.0960072617727783,-0.953349130673402,-2.069123034243229,0.13775249526058042,2.137574036741728,-1.2753773646476936,0.0006701482360417618,0.0002720901010325885,-0.0007663127934250248,-0.0009781100090309508,7.819521085050603e-05,0.0007611895630834011,0.0001896123250455595,0.1935308277606964,-21.79654312133789,-2.35798716545105,22.61603546142578,0.6673074960708618,2.2615859508514404,-0.06678618490695953,0,0,0,0.000,0,0
1739402335.360029,0.5256901612326449,0.09601289581664182,-0.9533483506619957,-2.069123035272014,0.13775325164969335,2.137569093090243,-1.2753760988790805,-0.00036427190931139744,0.0019235063350019925,-0.000753465839464151,-0.000688194071825188,0.0007571815211854085,-0.0001145611246864736,0.0010837018297352352,0.2173345386981964,-21.84811782836914,-2.35798716545105,22.61603546142578,0.6608988046646118,2.2679946422576904,-0.08051909506320953,0,0,0,0.000,0,0
1739402335.3700535,0.5256900427983467,0.09600534383570654,-0.9533452681933122,-2.0691194658480527,0.13774821232404766,2.1375705558501954,-1.2753795887960648,-0.0005047327262849466,-0.0005692205317897799,0.0003794857648119313,0.0008172804517641505,-0.00020188331587842295,-1.1936750175575565e-06,0.0004341323720815771,0.2173345386981964,-21.77273941040039,-2.4095618724823,22.56842803955078,0.6865335702896118,2.2551772594451904,-0.020094294100999832,0,0,0,0.000,0,0
1739402335.380968,0.5256855273837164,0.09600901915861026,-0.9533473479963772,-2.0691230352720087,0.1377490282947289,2.13756981563183,-1.2753843609594187,-0.002051997246409734,-0.000732985125075707,0.00048057590875213237,0.0007549700338428032,0.00036289912161964076,0.0005974634327694724,0.00018086287634762322,0.2689092457294464,-21.82431411743164,-2.38179087638855,22.61603546142578,0.6737161874771118,2.2615859508514404,-0.0072769103571772575,0,0,0,0.000,0,0
1739402335.3909698,0.5256863638712623,0.09601074334388382,-0.9533453462076619,-2.06912660062607,0.13775284138560526,2.1375755346195935,-1.2753867814944406,-0.0005709126593727607,-0.0010952471136148156,0.0007672201460004308,-0.0012096729518714976,-0.00011334780687983184,0.0011720956690469575,-0.0015569434545189983,0.2173345386981964,-21.84811782836914,-2.4095618724823,22.66364288330078,0.6737161874771118,2.2487685680389404,0.012864691205322742,0,0,0,0.000,0,0
1739402335.4010046,0.5256923564468681,0.09600901915860945,-0.9533474269618154,-2.069121252595013,0.137747061086553,2.137569040600633,-1.2753788801827508,0.0009900451757723697,0.00019483568539172122,0.0004000989074119657,0.00033364969891460804,-0.0015932664861392906,-0.00043340107450261836,0.0005726108098311311,0.2173345386981964,-21.82431411743164,-2.38179087638855,22.59223175048828,0.6865335702896118,2.2679946422576904,-0.05396880581974983,0,0,0,0.000,0,0
1739402335.412012,0.5256913698181916,0.09601074042769864,-0.9533512107846901,-2.0691207275779764,0.13774865585803833,2.1375698040034283,-1.2753851579377957,0.001154940059312021,0.0014943041823740695,-0.002124174278403298,0.0006721122031479597,0.0008983548556164968,1.3569501800285086e-07,-0.00118020072598214,0.2173345386981964,-21.84811782836914,-2.3302161693573,22.61603546142578,0.6737161874771118,2.2615859508514404,-0.0008682189509272575,0,0,0,0.000,0,0
1739402335.4229672,0.5256858612232473,0.09601359245685508,-0.9533476686677328,-2.0691186976390337,0.13774854123124528,2.13756979818926,-1.2753773671241126,-0.0005841182943970705,0.002354445596545714,0.00010069606418210082,0.0011676042726407596,-0.00023682216735442646,-0.0003542429726058789,0.0011946351928664714,0.2689092457294464,-21.84811782836914,-2.38179087638855,22.59223175048828,0.6737161874771118,2.2615859508514404,-0.06678618490695953,0,0,0,0.000,0,0
1739402335.4330108,0.5256913322146166,0.09600901920685943,-0.953348077296418,-2.069122677978414,0.1377477811328445,2.137566636717442,-1.2753820190602565,-0.00032226050023820345,7.98565658366255e-05,6.033970572227865e-05,0.0007342386790833143,-0.0007695582638744869,-0.0005260926089218786,0.00018288695513788322,0.2173345386981964,-21.82431411743164,-2.38179087638855,22.61603546142578,0.6801248788833618,2.2615859508514404,-0.027418512850999832,0,0,0,0.000,0,0
1739402335.4430141,0.5256899368907033,0.09600533623857739,-0.9533476612972578,-2.069119442439843,0.13775177722914275,2.1375705557957656,-1.275377366639596,0.0008920886788988745,-0.00039566044164436354,-0.0005204426365912694,0.0011822737233791888,0.00015907957655592376,0.0002582927794747997,0.0012439830199913633,0.2173345386981964,-21.77273941040039,-2.38179087638855,22.56842803955078,0.6737161874771118,2.2551772594451904,-0.06678618490695953,0,0,0,0.000,0,0
1739402335.4540107,0.5256918834901838,0.09600702121771432,-0.9533473493891128,-2.069122326841167,0.13775189425819662,2.1375690419826983,-1.2753820190602283,0.0022420337179434495,0.00018947226243833256,9.702708425759921e-05,-0.000621863355416626,0.0015840137304145058,-0.0003281903570719287,-0.0008381970358743907,0.1935308277606964,-21.79654312133789,-2.38179087638855,22.59223175048828,0.6737161874771118,2.2679946422576904,-0.027418512850999832,0,0,0,0.000,0,0
1739402335.4659338,0.5256899272305858,0.0960090193377504,-0.9533495320283074,-2.0691248137344354,0.13774813657201213,2.1375705558493134,-1.275383642617639,-0.0005870375981648183,0.0008315493567857987,-0.0005018269096570413,-0.0011582265395684937,-0.00016911045619519147,0.001135345873378238,-0.0006935728039940718,0.2173345386981964,-21.82431411743164,-2.38179087638855,22.63983917236328,0.6801248788833618,2.2551772594451904,-0.013685601763427258,0,0,0,0.000,0,0
1739402335.476063,0.5256892364536814,0.09600530966889038,-0.9533453578113811,-2.0691182845907417,0.137751444695088,2.1375709092235207,-1.2753786260552298,-4.41651351394833e-05,-0.0008163058698051087,0.00102971339456568,-0.00018164561731668516,0.0018543516035468479,0.0006889305020554319,0.0006009839015540817,0.2173345386981964,-21.77273941040039,-2.4095618724823,22.59223175048828,0.6865335702896118,2.2551772594451904,-0.020094294100999832,0,0,0,0.000,0,0
1739402335.4869707,0.5256930733335248,0.09600901915841739,-0.9533417291743619,-2.0691230352175927,0.13774775304264536,2.137569798191222,-1.2753773641013237,0.00035351415355223736,-0.00018008715610659775,0.002183493892830356,-0.0013370033408195087,0.00019129988338259315,-6.843804520267099e-05,-5.495843106636806e-06,0.1935308277606964,-21.82431411743164,-2.4571692943573,22.61603546142578,0.6801248788833618,2.2615859508514404,-0.04023589566349983,0,0,0,0.000,0,0
1739402335.497004,0.525691908452742,0.09600901915841191,-0.9533483186776774,-2.069123026114664,0.13774865596571564,2.137570595095162,-1.2753788801295807,0.0002431234167745288,9.424064271669399e-05,-0.0010718918345445421,-0.00162183774275047,0.0005082831539929668,0.0005453756057203982,0.0009847368195422452,0.1935308277606964,-21.82431411743164,-2.38179087638855,22.61603546142578,0.6737161874771118,2.2551772594451904,-0.05396880581974983,0,0,0,0.000,0,0
1739402335.5070097,0.5256884488313763,0.09600789570518324,-0.953343490467824,-2.0691172981021015,0.13775005265238766,2.1375697981898916,-1.2753788672623032,-0.0011533101762650263,-7.360348338485991e-05,0.002563025727798922,0.002783421163438042,0.000636145960708494,-0.0004485386301891341,0.0009892144489104015,0.2411382496356964,-21.79654312133789,-2.4333655834198,22.54065704345703,0.6608988046646118,2.2615859508514404,-0.05396880581974983,0,0,0,0.000,0,0
1739402335.5180032,0.5256884485097983,0.0960111450722184,-0.9533434595292064,-2.0691248176083303,0.13774930051580997,2.137569798189227,-1.2753788801825319,0.0005076756245738267,-0.00028471839949494396,0.0026766409924527355,-0.0018356903300708247,-0.0003930065261345206,-9.642848405123869e-05,0.00011086185758268333,0.2411382496356964,-21.82431411743164,-2.4333655834198,22.63983917236328,0.6673074960708618,2.2615859508514404,-0.05396880581974983,0,0,0,0.000,0,0
1739402335.5289447,0.5256905573084166,0.09601073168314336,-0.9533493514165572,-2.069121252595012,0.13775005216283662,2.1375713135093837,-1.2753862701204457,-0.0005952599859934837,9.006389594307573e-05,-0.0010982708924295289,0.0003153414690476012,2.1237815331938913e-05,0.0007154805585855289,-0.00232589192377085,0.2411382496356964,-21.84811782836914,-2.38179087638855,22.59223175048828,0.6608988046646118,2.2487685680389404,-0.027418512850999832,0,0,0,0.000,0,0
1739402335.5390522,0.5256877497451684,0.09601285855020186,-0.9533455022438702,-2.0691227788657685,0.13774758234440118,2.1375672199514906,-1.2753797948982477,-0.00012996925280553574,0.0006124748411687534,0.0001121761928753228,-0.000601422561769773,-0.0013994587014758055,-0.001397085766568349,-0.0010230213281046932,0.2411382496356964,-21.84811782836914,-2.4095618724823,22.61603546142578,0.6938577890396118,2.2551772594451904,-0.04756011441349983,0,0,0,0.000,0,0
1739402335.5500364,0.5256913684822188,0.09601125991670807,-0.9533513240958637,-2.0691194695773842,0.1377521670954493,2.1375690405103174,-1.2753789935605566,0.00014362663643778054,0.0011201566018043364,-0.0016042816087815126,0.00034134617692495404,7.752858117767385e-06,-0.00038031520467160756,-0.0007165638685012594,0.2173345386981964,-21.82431411743164,-2.3302161693573,22.56842803955078,0.6801248788833618,2.2679946422576904,-0.05396880581974983,0,0,0,0.000,0,0
1739402335.5610073,0.5256909639897819,0.09601185471112104,-0.9533494426785982,-2.06912303527203,0.13774813614445597,2.137568527844626,-1.2753836600608819,4.555774260222591e-05,0.0003453430838204924,-0.0007863798905074964,0.000717447890242063,-0.0020035583380504547,-0.0001741625289328074,-0.0012476326304157342,0.1935308277606964,-21.82431411743164,-2.35798716545105,22.61603546142578,0.6801248788833618,2.2753188610076904,-0.013685601763427258,0,0,0,0.000,0,0
1739402335.571036,0.5256938235643538,0.0960070222376409,-0.953349142555397,-2.0691162271927497,0.13775317502660783,2.1375697981952086,-1.2753836426179344,0.0016023586419090122,-0.0008912181125291002,0.0004538519652600245,0.0022197718075986075,0.0013327400560739753,-2.8520486766532658e-05,-0.0007746073643110358,0.1935308277606964,-21.79654312133789,-2.35798716545105,22.56842803955078,0.6737161874771118,2.2615859508514404,-0.013685601763427258,0,0,0,0.000,0,0
1739402335.581983,0.5256896964214756,0.0960090492923312,-0.9533492086746036,-2.069123031070732,0.13774924628578447,2.1375681746319164,-1.2753821499335756,-0.0013742008015582823,-9.886615665981134e-05,-0.0006164167651092783,-0.0012432872880304298,0.0002642481135190227,0.00023874631985350723,-0.0002304376032674341,0.2411382496356964,-21.82431411743164,-2.35798716545105,22.61603546142578,0.6801248788833618,2.2753188610076904,-0.027418512850999832,0,0,0,0.000,0,0
1739402335.5920193,0.525690173784354,0.09600751333333483,-0.95334913056772,-2.0691194699179225,0.13774842424462413,2.1375690405291485,-1.2753883759387512,0.0003555929096240738,-0.0005737174475125085,-0.0012982420338460982,0.0007446801252617105,-0.0006184783863823237,-0.0013851327783400633,-0.0017331596482569938,0.2173345386981964,-21.77273941040039,-2.35798716545105,22.56842803955078,0.6737161874771118,2.2679946422576904,-0.0008682189509272575,0,0,0,0.000,0,0
1739402335.6029265,0.5256906324242205,0.09600704758367756,-0.9533494814185057,-2.0691212525573284,0.13774933250025567,2.1375690405829837,-1.2753781225408383,0.001408928408459084,0.000475987710786029,-0.0002190012194031209,0.0001671521074881677,0.0008703490527012896,-0.0007216613077899524,0.0011673745345722587,0.2411382496356964,-21.79654312133789,-2.38179087638855,22.59223175048828,0.6801248788833618,2.2679946422576904,-0.06037749722599983,0,0,0,0.000,0,0
1739402335.6129663,0.5256916443731398,0.09600808270941125,-0.9533452666376897,-2.0691212251229127,0.13774960751774665,2.137569798189228,-1.2753765009038696,0.0005484428121948109,0.0022921379486772983,0.0007242554426937025,0.0005661707705452765,-0.0002085067644989747,-0.0004448887241221991,0.0004500713547684581,0.2173345386981964,-21.79654312133789,-2.4095618724823,22.59223175048828,0.6737161874771118,2.2615859508514404,-0.07411040365695953,0,0,0,0.000,0,0
1739402335.6230013,0.5256875223649978,0.0960090222005804,-0.9533452448544998,-2.0691212525945475,0.13774809218941636,2.1375681746319164,-1.275379677880223,-0.0017277064849774229,-0.00019082230537080741,7.117479228934326e-05,-0.0010339407611096394,-0.0004863086173771179,-0.0012410301994118828,-1.9971835068510464e-05,0.2411382496356964,-21.82431411743164,-2.38179087638855,22.59223175048828,0.6865335702896118,2.2753188610076904,-0.07411040365695953,0,0,0,0.000,0,0
1739402335.6340065,0.5256838125583159,0.09600725742857567,-0.9533473566512984,-2.069122042771773,0.13774779305658028,2.137570151401937,-1.2753805037041714,-0.001671310526014747,-0.0012730964560700993,-0.00022919834767302487,0.0002931655643267865,0.0015776564403549088,0.0001436032989692849,0.0003863847205948429,0.2927129566669464,-21.79654312133789,-2.38179087638855,22.61603546142578,0.6801248788833618,2.2615859508514404,-0.04023589566349983,0,0,0,0.000,0,0
1739402335.6450124,0.5256892277829834,0.09600538840722268,-0.9533434884184828,-2.0691190263318533,0.1377500526504486,2.137569798191221,-1.2753848493378879,8.867113780358977e-05,-0.001508115894235495,0.0014598126699521545,-0.0006842298954849651,-5.528791518197437e-05,0.0001375085080321547,-0.001368533632542899,0.2173345386981964,-21.77273941040039,-2.4333655834198,22.59223175048828,0.6608988046646118,2.2615859508514404,-0.027418512850999832,0,0,0,0.000,0,0
1739402335.6559734,0.5256894598604058,0.09600704843573717,-0.9533473479963936,-2.069123035108726,0.137747779182593,2.1375705558493054,-1.2753828850272628,-0.0011904416483006339,-0.0006761244040653557,0.00041295846000403606,-0.0013273661935745856,0.00020799740382766084,0.0008812104355855057,1.6422989754622756e-06,0.2173345386981964,-21.79654312133789,-2.38179087638855,22.61603546142578,0.6801248788833618,2.2551772594451904,-0.020094294100999832,0,0,0,0.000,0,0
1739402335.6660388,0.5256875384846177,0.09600532036202931,-0.9533452682065219,-2.0691217685459864,0.13774817620671764,2.1375690405291485,-1.2753812788427439,-8.404887549789351e-05,-0.0007070175491439289,0.0006660000230613861,-0.0006873746859784901,-0.0007982744461306653,0.00010389384482274857,6.667621320470595e-05,0.2411382496356964,-21.77273941040039,-2.4095618724823,22.63983917236328,0.6801248788833618,2.2679946422576904,-0.03382720425724983,0,0,0,0.000,0,0
1739402335.6769328,0.525686450909892,0.09600902787086278,-0.9533434681959161,-2.069123026097451,0.13774925357501766,2.137569811271179,-1.275377364863133,-0.0006839863885731495,0.0004450681738250163,0.001356069111343916,0.00021700912204397467,-0.0003047767951095402,-0.00013058319297564537,0.0010766036679470657,0.2689092457294464,-21.82431411743164,-2.4333655834198,22.61603546142578,0.6801248788833618,2.2615859508514404,-0.06678618490695953,0,0,0,0.000,0,0
1739402335.6870077,0.525689251231224,0.09600411803188996,-0.9533474263182162,-2.06912026359927,0.13775261763428837,2.1375697981894484,-1.2753788801827508,-7.435833469646037e-05,-0.0013429134397281149,0.0002519695496119599,0.0009615011178248992,8.585672766059984e-06,0.0009738144601860509,0.0006458565677643802,0.2173345386981964,-21.77273941040039,-2.38179087638855,22.59223175048828,0.6673074960708618,2.2615859508514404,-0.05396880581974983,0,0,0,0.000,0,0
1739402335.698019,0.5256878244849674,0.09600901925969742,-0.9533473493877863,-2.06912005912232,0.13774859390419025,2.1375722238580224,-1.275382060244142,-0.0008679064501004696,0.0010617797417124275,3.0116332821077075e-05,0.0005032875469910827,-0.0005783549866909931,0.00015295064741180294,-0.0010844622316045565,0.2411382496356964,-21.82431411743164,-2.38179087638855,22.61603546142578,0.6737161874771118,2.2679946422576904,-0.027418512850999832,0,0,0,0.000,0,0
1739402335.7089074,0.5256916443255871,0.09600902218260567,-0.9533491306734201,-2.069120922879416,0.13775221407037666,2.13757182375943,-1.275382032142868,0.00040441716613411717,0.0004707951007162854,-0.000205604868600454,0.0003866740557669287,0.0002487319189528154,0.001073610151969404,0.0010452280134911618,0.2173345386981964,-21.82431411743164,-2.35798716545105,22.59223175048828,0.6737161874771118,2.2487685680389404,-0.027418512850999832,0,0,0,0.000,0,0
1739402335.7189372,0.5256893289448359,0.09600902207461416,-0.9533473480320431,-2.06912303527017,0.1377511228323558,2.137568700401271,-1.2753851579378694,1.989775225162456e-05,0.00017433232244340466,0.0005065035257558342,-0.0006978326252975415,-0.0002016137161221233,-0.0011696261736575337,-0.0011299750526613164,0.2173345386981964,-21.82431411743164,-2.38179087638855,22.61603546142578,0.6608988046646118,2.2679946422576904,-0.0008682189509272575,0,0,0,0.000,0,0
1739402335.7290204,0.525689026615671,0.09600331075602397,-0.9533424178094363,-2.0691248179490507,0.13774779301449655,2.137569798183467,-1.2753828849574507,5.715815458036931e-05,-0.0008800064975579149,0.0016082619227354693,-0.0015056296203778243,0.00044726416972453223,0.00012213807348894224,-0.0004568646138873522,0.1935308277606964,-21.74496841430664,-2.4571692943573,22.63983917236328,0.6801248788833618,2.2615859508514404,-0.020094294100999832,0,0,0,0.000,0,0
