IITGN-Robotics/Franka_IITGN_ROBOTICS/franka_ros/franka_iitgn/data/b_46.csv
time,fr3_joint1_pos,fr3_joint2_pos,fr3_joint3_pos,fr3_joint4_pos,fr3_joint5_pos,fr3_joint6_pos,fr3_joint7_pos,fr3_joint1_vel,fr3_joint2_vel,fr3_joint3_vel,fr3_joint4_vel,fr3_joint5_vel,fr3_joint6_vel,fr3_joint7_vel,fr3_joint1_eff,fr3_joint2_eff,fr3_joint3_eff,fr3_joint4_eff,fr3_joint5_eff,fr3_joint6_eff,fr3_joint7_eff,flexpin1,flexpin2,flexpin3,Force,ContactMic,ContactMic_gt
1739402372.0634792,0.5257010268578551,0.09604049701999147,-0.9533335771775822,-2.0691199001366694,0.13776987470594576,2.1375864904315804,-1.2753856288701302,0.00044056594012629514,0.0002203278325815788,0.0010817553786376896,-0.00022552384275209496,-0.0003472526206903375,0.00038743062255372723,-0.0029247490498303195,0.1419561207294464,-21.95126724243164,-2.4333655834198,22.69141387939453,0.6865335702896118,2.2817275524139404,-0.0008682189509272575,,,,,,,,,
1739402372.0744827,0.5256973154445977,0.09604999251523368,-0.9533318725006674,-2.0691277948309525,0.1377716812367057,2.1375872437575936,-1.2753836424031844,-0.0007172310842642694,-0.0006551502938908783,0.00019770108494452678,-0.0019848608226857856,0.0019796326568339473,0.0006833403657472551,-0.0013630842083607094,0.1935308277606964,-21.95126724243164,-2.4571692943573,22.73902130126953,0.6801248788833618,2.2753188610076904,-0.013685601763427258,,,,,,,,,
1739402372.0854378,0.5256956372581622,0.096053666515111,-0.9533354116104034,-2.0691221838306704,0.13776801296743113,2.1375870543772733,-1.2753823780871254,7.114778138077316e-06,0.00045727047457050796,-0.00045408232851136435,-7.038412229220156e-06,-1.3689820415555411e-05,0.0001457095443787244,-0.0005189693624461516,0.2173345386981964,-21.92349624633789,-2.38179087638855,22.63983917236328,0.6801248788833618,2.2679946422576904,-0.027418512850999832,,,,,,,,,
1739402372.0954466,0.5256973154329024,0.09605646665361865,-0.9533338888118261,-2.0691196963984115,0.13777007696360874,2.1375872481122626,-1.2753795987605048,1.789364209972647e-05,0.0008880755780455056,-0.00025851782929860396,-9.932166164201904e-05,0.0014698830265139633,0.0006079409055947422,0.0010843867226266587,0.1935308277606964,-21.95126724243164,-2.4333655834198,22.61603546142578,0.6938577890396118,2.2753188610076904,-0.04756011441349983,,,,,,,,,
1739402372.1054747,0.5256973151117198,0.09605217756539376,-0.9533338765559887,-2.069117832431643,0.13776624202669935,2.1375872481182445,-1.2753795990808274,-0.0004961213369137965,0.0016648643646908663,1.0172208865077845e-05,0.0006347379693241719,-0.002059128595547761,0.0003166939282124992,0.0013502670807298898,0.1935308277606964,-21.84811782836914,-2.4333655834198,22.59223175048828,0.6865335702896118,2.2753188610076904,-0.04756011441349983,,,,,,,,,
1739402372.1155007,0.5256956016098367,0.09604364943716621,-0.9533355935363667,-2.0691161045843924,0.13776654032461705,2.1375881140154767,-1.2753796378421727,-6.777936288479902e-05,-0.0005737372600880208,-0.0004327514034005391,6.978764375758964e-06,-0.0008558307960077115,0.00036373068635793234,0.0007156920761819863,0.2173345386981964,-21.77273941040039,-2.4095618724823,22.56842803955078,0.6865335702896118,2.2679946422576904,-0.04756011441349983,,,,,,,,,
1739402372.1264143,0.525694799592974,0.09604166021272276,-0.9533416054482077,-2.0691130632346035,0.13777161590074377,2.1375888716755553,-1.275380503578556,-0.0005495089020698527,0.0007220384917858841,-0.000594892084243724,0.0016833316940137975,0.000947958811449028,-0.00015777490269646923,0.0007439819922068307,0.2411382496356964,-21.74496841430664,-2.3302161693573,22.54065704345703,0.6801248788833618,2.2615859508514404,-0.04023589566349983,,,,,,,,,
1739402372.136471,0.525691891817753,0.09603485905907098,-0.953343476265175,-2.0691118268981556,0.13776853561454144,2.1375881140154767,-1.2753844138441837,-0.0010397139542268935,-0.0007795609906870022,3.223429047370663e-05,0.0018278703483341034,-0.00013246212059983163,-3.204237323387318e-05,-0.0026044758284272346,0.2689092457294464,-21.69339370727539,-2.3064124584198,22.54065704345703,0.6801248788833618,2.2679946422576904,-0.0072769103571772575,,,,,,,,,
1739402372.147472,0.5256955721754389,0.09603570440290879,-0.9533483181582121,-2.0691130540773894,0.13777172069372007,2.1375896293356336,-1.2753836426178686,0.0011238919535317394,-0.0004846009159639033,-0.00044050656297305545,0.0016616004885230526,7.98007001527586e-05,0.0002696568895025173,-0.0004844527100947032,0.2173345386981964,-21.69339370727539,-2.2826087474823,22.54065704345703,0.6801248788833618,2.2551772594451904,-0.013685601763427258,,,,,,,,,
1739402372.1584125,0.525695602590926,0.0960354550216707,-0.9533428575107434,-2.0691096260819735,0.13776995721106286,2.1375881140154767,-1.2753845573149791,0.0003890239038312399,0.0006930021899093494,0.0001585414421449232,0.002474988145612039,-0.0011039879755511209,-0.0008029588087619319,-0.0021027679182232233,0.2173345386981964,-21.69339370727539,-2.35798716545105,22.49304962158203,0.6938577890396118,2.2679946422576904,-0.0072769103571772575,,,,,,,,,
1739402372.168518,0.5256935721788131,0.09603674266000803,-0.9533417110042225,-2.069109714642009,0.1377693590242984,2.1375901002859132,-1.275383929335416,-0.0002213286335459945,0.00020541361722165453,0.0006678941360252999,0.00022078444037013025,-0.0009533411340022941,0.001314883700289875,-0.0004147936532255445,0.2411382496356964,-21.72116470336914,-2.35798716545105,22.51685333251953,0.7002664804458618,2.2551772594451904,-0.0072769103571772575,,,,,,,,,
1739402372.179583,0.5256934556966716,0.09603677769990353,-0.9533366294738237,-2.0691156891383025,0.13776887858103534,2.13758811886153,-1.2753773648621485,-0.00011191996363329689,-0.0004307174868710253,0.0018538454059439167,0.0003817415832934207,-0.0020917590906466867,-0.0006049610719597245,0.0012813113315793857,0.2173345386981964,-21.72116470336914,-2.4095618724823,22.59223175048828,0.6938577890396118,2.2679946422576904,-0.06678618490695953,,,,,,,,,
1739402372.1914134,0.5256984102565191,0.09604216593121016,-0.9533378693915442,-2.069117832268358,0.1377690036051225,2.1375893600684654,-1.2753796551239265,0.0009589064080653289,-0.0003959302018602921,0.000879080064116062,0.00038413501500864805,-3.082431969120942e-05,0.001315046154118488,-0.0003136325869965645,0.2173345386981964,-21.79654312133789,-2.38179087638855,22.59223175048828,0.7002664804458618,2.2615859508514404,-0.04756011441349983,,,,,,,,,
1739402372.2024136,0.5256938900497625,0.09604735560601307,-0.9533356983866695,-2.0691186165030437,0.1377723789468872,2.1375881198324342,-1.2753821372824024,-0.0002060480045404994,-0.00152746709767864,0.0008491714695220778,0.0011594985554569592,0.0012498884141206566,6.269626278350933e-05,-0.0006300569726636434,0.2411382496356964,-21.82431411743164,-2.4095618724823,22.61603546142578,0.6737161874771118,2.2679946422576904,-0.027418512850999832,,,,,,,,,
1739402372.2134109,0.525695602590983,0.09604836207818734,-0.9533363913662344,-2.069123265812316,0.13777096942532568,2.1375881140693447,-1.2753847066170865,0.0010566573634772803,-0.0018471416404380841,-0.000417475970828209,-0.0012796687483266835,0.001384036137672858,-0.0010450439418634343,-0.0008973589782947018,0.2173345386981964,-21.84811782836914,-2.4095618724823,22.66364288330078,0.6865335702896118,2.2679946422576904,-0.013685601763427258,,,,,,,,,
1739402372.2234354,0.5256990271963804,0.09605278239143267,-0.953334017309551,-2.069119706569308,0.13777098697754214,2.1375888716755553,-1.2753808570126128,0.0009995312005879277,0.0002907727802670542,-0.00024574690789051627,0.0007409162455368277,0.0004000554179834964,5.5263289193040286e-05,-0.0009693082116373126,0.1697271168231964,-21.89969253540039,-2.4571692943573,22.61603546142578,0.6865335702896118,2.2615859508514404,-0.04023589566349983,,,,,,,,,
1739402372.2354097,0.5256973141305655,0.09605745454256855,-0.95332999173744,-2.069123705668228,0.13777423548983195,2.1375881140154767,-1.2753844002797117,-0.000666425081610463,0.0013909677737657497,0.0016347843620751236,-0.0003433270287048162,0.0002170322450777149,-0.0008166794387895509,-0.002414413282190219,0.1935308277606964,-21.92349624633789,-2.48494029045105,22.63983917236328,0.6865335702896118,2.2679946422576904,-0.0072769103571772575,,,,,,,,,
1739402372.2465105,0.5256938900702465,0.09605226833985483,-0.9533376351281494,-2.0691214804783526,0.1377717803010126,2.1375872481182445,-1.2753851579377957,-0.0009612317820625793,0.00012821709578959004,-0.0008962562944403766,0.00026408031444434765,0.0009586930629589883,0.0008178669381714505,0.0004044633511409851,0.2411382496356964,-21.84811782836914,-2.38179087638855,22.63983917236328,0.6801248788833618,2.2753188610076904,-0.0008682189509272575,,,,,,,,,
1739402372.2574944,0.5256918921172861,0.09605397360855675,-0.9533356718584937,-2.069117914747468,0.13777173829968542,2.1375889109214117,-1.2753828850112858,-0.002026703918031186,0.0003851871659936441,0.00024907260887936005,0.0012019209368023974,0.0004660212788971216,-0.0011571170052161691,-0.0008094397154713699,0.2689092457294464,-21.87192153930664,-2.4095618724823,22.59223175048828,0.6801248788833618,2.2615859508514404,-0.020094294100999832,,,,,,,,,
1739402372.2684758,0.525695602590983,0.09604855820425835,-0.9533395343255875,-2.069114053624678,0.1377724979098353,2.1375896685821547,-1.2753805037400625,0.00015822182241953222,-0.0002537488366345472,-0.0003742998168060088,0.001865189554691124,-0.0008370486001371618,0.0005515088949662272,0.000838074797855035,0.2173345386981964,-21.79654312133789,-2.35798716545105,22.54065704345703,0.6737161874771118,2.2551772594451904,-0.04023589566349983,,,,,,,,,
1739402372.2794847,0.525695600598408,0.09604484676846954,-0.9533396141254961,-2.0691184397142592,0.13777081146142423,2.137588166343359,-1.2753883894132785,0.0009248165718939113,-0.0010974116320592578,-0.000883505932832747,0.0005311195284886489,-0.0010705181407881217,-0.0008705212873175501,-0.0031467478862911135,0.2173345386981964,-21.74496841430664,-2.35798716545105,22.56842803955078,0.6865335702896118,2.2679946422576904,-0.0008682189509272575,,,,,,,,,
1739402372.2904046,0.5256955757729699,0.09604484676846403,-0.9533356718591633,-2.069114299567639,0.13777249790890228,2.1375892642959227,-1.275383642689716,-0.0007359351499744109,0.00045751500530989334,0.0006111829548111355,0.0005710254887246988,-0.0007078042788691615,0.0005940071225039,-0.001631172344390589,0.2173345386981964,-21.74496841430664,-2.4095618724823,22.54065704345703,0.6737161874771118,2.2615859508514404,-0.013685601763427258,,,,,,,,,
1739402372.3004363,0.525695352398193,0.09604029406732045,-0.9533394566514963,-2.0691108380365595,0.13776819337525448,2.1375896307958326,-1.2753836426176401,0.0007223956057360556,0.0002235407497937917,-0.0003725432396468869,0.000889643647479938,-0.0015570601794918499,0.0005159562907862339,-0.0008438132152618597,0.2173345386981964,-21.72116470336914,-2.35798716545105,22.54065704345703,0.6737161874771118,2.2551772594451904,-0.013685601763427258,,,,,,,,,
1739402372.311401,0.5256973151074774,0.09604276936608197,-0.9533462699149018,-2.0691122694235244,0.137773255497049,2.137589008309303,-1.275379991055539,0.00144157744356862,0.0010855471593627108,-0.0021300400020355984,-0.0004540881193399757,0.0002294376788266445,0.0005749149760923348,0.0026193224440677156,0.1935308277606964,-21.72116470336914,-2.3064124584198,22.51685333251953,0.6673074960708618,2.2615859508514404,-0.04756011441349983,,,,,,,,,
1739402372.321514,0.525694648880328,0.09604009827941826,-0.9533416141680008,-2.0691161320578852,0.1377724979098679,2.137588884919784,-1.2753802924972317,-0.00034128153616816203,-0.0009071390173734648,0.0006572931476940148,-0.000354516620995816,0.0003297414313522349,0.0003519381578111391,-0.00020310746371192753,0.2173345386981964,-21.69339370727539,-2.3302161693573,22.56842803955078,0.6737161874771118,2.2615859508514404,-0.05396880581974983,,,,,,,,,
1739402372.3324237,0.5256952816053664,0.09604649069583733,-0.9533385607171496,-2.0691161289677455,0.137770674043094,2.137588598263124,-1.2753820591589464,-0.0006549636539723406,0.0023002212900045693,0.001162729642568747,-0.0004958693778622648,-0.002970812144414365,0.00017264707374576053,-0.00099820169054031,0.2173345386981964,-21.77273941040039,-2.4095618724823,22.56842803955078,0.6801248788833618,2.2679946422576904,-0.05396880581974983,,,,,,,,,
1739402372.3424718,0.5256973137980833,0.09604607354122256,-0.9533357085371021,-2.069121454086492,0.1377741833044382,2.1375936354524288,-1.2753812616154816,0.0005026621948169271,0.001280831455481084,0.0006199604944282707,-0.0008277936967505304,5.3901099587686755e-05,0.000678296205957162,0.0001889686463459338,0.1935308277606964,-21.79654312133789,-2.4095618724823,22.63983917236328,0.6865335702896118,2.2615859508514404,-0.03382720425724983,,,,,,,,,
1739402372.3534636,0.5256973151117069,0.09604907237091206,-0.9533359112586455,-2.069116132057739,0.1377732555880148,2.137590442294884,-1.2753787834742407,0.001168269541189646,-0.00022674179108309956,-0.0004230013361071015,0.0012580973302735202,0.0014820804844596208,-0.0011347179449196615,0.0006211897760565921,0.1935308277606964,-21.84811782836914,-2.4095618724823,22.56842803955078,0.6673074960708618,2.2753188610076904,-0.06678618490695953,,,,,,,,,
1739402372.363505,0.525696599419912,0.09604807110918022,-0.9533338891857481,-2.069118024623304,0.13777249725980867,2.137588327352643,-1.2753810139602222,0.000576974615473408,-0.00015431444672858946,0.000632956747643176,0.00023393426802277605,0.0006723680372616116,-0.0006971597478473605,0.0005412152830901727,0.1935308277606964,-21.82431411743164,-2.4333655834198,22.59223175048828,0.6737161874771118,2.2753188610076904,-0.04023589566349983,,,,,,,,,
1739402372.374483,0.5256938547449409,0.09605002281461,-0.9533339245029648,-2.06912172733846,0.1377734266982304,2.1375910947357144,-1.2753796378457094,-0.0012831677406546253,0.0003878402355009215,0.0010064058743728516,-0.0009857668256153303,0.00016950265456846468,0.0012667462070706421,0.0018977585582096953,0.2411382496356964,-21.84811782836914,-2.4333655834198,22.63983917236328,0.6673074960708618,2.2551772594451904,-0.04756011441349983,,,,,,,,,
1739402372.3853984,0.5256956025907837,0.0960576919242997,-0.9533349436077252,-2.0691232637848436,0.1377718416601115,2.1375916625586133,-1.2753796392963794,6.399858026177424e-05,0.0008813280920756132,0.00010338498019272293,-0.00031395771378081973,-0.0001776877689176182,8.31136253502507e-05,-2.2679590145575966e-05,0.2173345386981964,-21.92349624633789,-2.38179087638855,22.66364288330078,0.6801248788833618,2.2753188610076904,-0.04756011441349983,,,,,,,,,
1739402372.3954616,0.5256953631912576,0.09605600575932578,-0.9533379900195931,-2.069125590822217,0.1377720956717966,2.137589343346616,-1.275384400277742,-0.000145809642827742,0.0004279255945462044,-0.00010510005093549086,-0.00028225748355599,0.0005597371754319134,0.0008634815083683799,-0.00011893375936693326,0.2173345386981964,-21.89969253540039,-2.38179087638855,22.69141387939453,0.6801248788833618,2.2615859508514404,-0.0072769103571772575,,,,,,,,,
1739402372.4064739,0.5256956324419199,0.09605398107859325,-0.9533377519769628,-2.0691224782432984,0.13777174025179634,2.1375927188653185,-1.2753774826544397,3.857909235495898e-05,-0.0011671751280224667,0.00046004125981132123,0.0002873296677463886,-0.0003464212153790842,0.0016192887219041625,0.001483038507347201,0.2173345386981964,-21.87192153930664,-2.38179087638855,22.63983917236328,0.6801248788833618,2.2679946422576904,-0.06678618490695953,,,,,,,,,
1739402372.417513,0.5256956025911517,0.09605055910432424,-0.9533377604788881,-2.0691179240109605,0.1377732818973755,2.137588323017728,-1.2753820635122897,-0.0003581792891024411,-0.0012050492510852012,-0.00019882292588630084,0.0016255943547182578,-0.0005023536420402199,-0.001031962717585809,0.0014620477944346415,0.2173345386981964,-21.82431411743164,-2.38179087638855,22.59223175048828,0.6673074960708618,2.2753188610076904,-0.05396880581974983,,,,,,,,,
1739402372.4275227,0.5256935707616016,0.09605087486040713,-0.953337751648718,-2.0691179147350627,0.1377724977477992,2.1375896488960127,-1.275378122738088,-0.0008852879665004002,-0.00028728103696253017,-0.0006070853577867608,0.0008171524167765224,0.000493668336246657,-0.0002676760269026328,0.0018276231123594301,0.2411382496356964,-21.82431411743164,-2.38179087638855,22.59223175048828,0.6737161874771118,2.2551772594451904,-0.06037749722599983,,,,,,,,,
1739402372.4385114,0.5256973121664726,0.09604555806937157,-0.9533416219827838,-2.0691179147349055,0.13777356563337,2.137588824412844,-1.2753825292563559,0.0010765143991693805,-0.0004986727817383331,-0.0016254737207334058,-0.00015803324273274807,0.0009168137590424713,-0.0002279305078319803,-0.001955156622904396,0.1935308277606964,-21.74496841430664,-2.3302161693573,22.59223175048828,0.6737161874771118,2.2753188610076904,-0.027418512850999832,,,,,,,,,
1739402372.4494488,0.5256917443030235,0.09604847928743165,-0.9533396137984917,-2.069116132057886,0.13777605211878782,2.137590107417503,-1.275383642620519,0.00013867320375098125,0.0005768011872513241,-0.00044853505506010677,0.00041937516845498373,-0.000982523941961576,0.0008034949470620308,-0.0005413100518072069,0.2411382496356964,-21.79654312133789,-2.35798716545105,22.56842803955078,0.6737161874771118,2.2615859508514404,-0.013685601763427258,,,,,,,,,
1739402372.4604447,0.5256972884632932,0.09604597605158241,-0.9533357788041209,-2.0691179425461668,0.13776937730831537,2.137589362174986,-1.2753788801827508,0.0016870571451436216,0.0008365985340965677,0.00025082772918436454,-0.00040880053330519695,-0.0010369943156399762,-0.0019800123631753324,0.0013913182612533036,0.1935308277606964,-21.72116470336914,-2.4095618724823,22.59223175048828,0.7002664804458618,2.2615859508514404,-0.05396880581974983,,,,,,,,,
1739402372.471435,0.5256990275232788,0.0960459686918235,-0.9533377516491721,-2.0691122787485354,0.1377731619852217,2.1375912129544776,-1.2753819558367574,0.0019969149691051267,0.0010548956013109448,0.00021236200561582064,0.001265053147323609,-0.0007950994708851463,-0.00017186812586466086,-0.00042492514860320227,0.1697271168231964,-21.77273941040039,-2.38179087638855,22.51685333251953,0.6801248788833618,2.2551772594451904,-0.04023589566349983,,,,,,,,,
1739402372.4814446,0.5256956025909814,0.09604578039816701,-0.9533356718587129,-2.069112269591167,0.13777570305463321,2.1375942406698547,-1.275377364887626,0.0009557425281190748,0.0008307656529850909,3.365421635289316e-05,0.001255880501076368,0.0003151892187663501,0.00022399066629385324,0.0017284079275101958,0.2173345386981964,-21.77273941040039,-2.4095618724823,22.51685333251953,0.6737161874771118,2.2551772594451904,-0.06678618490695953,,,,,,,,,
1739402372.4914858,0.5256973020297622,0.09604364949284612,-0.9533377516485685,-2.069116131040401,0.13777799466997445,2.13759439721472,-1.2753799925090905,-0.0005215659712750368,-0.0007172484680286686,-0.00040086793187809483,0.00030323754694054714,0.0015591925152561872,0.0015093054663626534,0.0012863790676377572,0.1935308277606964,-21.77273941040039,-2.38179087638855,22.56842803955078,0.6673074960708618,2.2551772594451904,-0.04756011441349983,,,,,,,,,
1739402372.5014918,0.5256973151116405,0.09604481264877547,-0.9533377555731541,-2.0691214526168378,0.13777175994085647,2.137590448050794,-1.2753820190622203,0.000989031004205943,-0.0017131144825662241,-0.0006322205353044797,-0.00128792142014425,0.000304209166476894,0.00012833604403908542,0.0008116312685906499,0.1935308277606964,-21.74496841430664,-2.38179087638855,22.63983917236328,0.6801248788833618,2.2615859508514404,-0.027418512850999832,,,,,,,,,
1739402372.5124736,0.5256917429948448,0.09604981951328338,-0.9533335657209556,-2.069121480088788,0.13777146970142784,2.1375917834850537,-1.2753793642688178,-0.0011523907036160826,0.0016206021061853692,0.0010533003211034004,-0.0004882333985250269,-0.0004752402165694048,0.0005699670685953856,0.00039198260784262495,0.2411382496356964,-21.82431411743164,-2.4095618724823,22.63983917236328,0.6865335702896118,2.2679946422576904,-0.05396880581974983,,,,,,,,,
1739402372.522476,0.5256927120972806,0.09605055602450562,-0.9533398521813587,-2.0691179147349055,0.13777102208910416,2.137589657909486,-1.2753785915430833,-0.00039417919748825484,0.00040997554545519314,-0.000812728262250496,0.0010485162790368474,-0.0008200651254075941,-0.00020462079956067952,0.0004546568788473004,0.2173345386981964,-21.82431411743164,-2.35798716545105,22.59223175048828,0.6865335702896118,2.2679946422576904,-0.06037749722599983,,,,,,,,,
1739402372.532518,0.5256962806073923,0.09605013769165896,-0.9533377529621466,-2.0691274548980325,0.13777011685566318,2.137589703256558,-1.2753805437853654,0.0003885197088883098,-0.0008282374504214104,0.0001599423412035757,-0.0013637811549614505,-0.0029326108557389988,0.0005596001075783996,0.0005227586032434403,0.1935308277606964,-21.84811782836914,-2.38179087638855,22.71521759033203,0.6938577890396118,2.2679946422576904,-0.06678618490695953,,,,,,,,,
1739402372.543563,0.5256954966213304,0.09605226822090468,-0.953335800945493,-2.0691237057830913,0.13777296447523152,2.1375897034008893,-1.2753805037580066,0.0002001034121370442,-0.00048324226468343873,-7.242387159389586e-07,-0.0006389610746644491,-0.0006825765224769238,0.0007372950185021935,-0.0012099298283870356,0.2173345386981964,-21.84811782836914,-2.4333655834198,22.63983917236328,0.6801248788833618,2.2679946422576904,-0.04023589566349983,,,,,,,,,
1739402372.55444,0.5256938537672363,0.09605597945233031,-0.9533377515166972,-2.06912395579367,0.13777185894681715,2.137592824227103,-1.2753820146995676,0.000445018292105656,0.000921080297074044,-1.8239817690445843e-05,-0.000276466732461634,-0.00025426097136897275,-8.949676423577335e-05,0.0006768411821800592,0.2411382496356964,-21.89969253540039,-2.38179087638855,22.63983917236328,0.6801248788833618,2.2679946422576904,-0.027418512850999832,,,,,,,,,
1739402372.564539,0.5256955669420486,0.09605421794960214,-0.9533394996584119,-2.0691214802439233,0.137772440869116,2.137592763194953,-1.2753823777266549,1.853289027976563e-05,-0.0009405708673028898,-0.0007146113379237796,0.00021581167284977725,-0.0011432617192357923,0.00024875466334493346,0.0004330767021366767,0.2173345386981964,-21.87192153930664,-2.35798716545105,22.63983917236328,0.6737161874771118,2.2679946422576904,-0.03382720425724983,,,,,,,,,
1739402372.5754733,0.5256938781872774,0.0960514266417787,-0.9533380695398115,-2.069121481106429,0.13777138531672375,2.1375890482812374,-1.2753788981161722,-0.0008453117460127759,1.2354566729372535e-05,-0.0006241300278044886,-0.0008188906545455331,-0.0008552416276790722,-0.0007556038667828122,0.00012529884412165976,0.2411382496356964,-21.79654312133789,-2.38179087638855,22.63983917236328,0.6801248788833618,2.2615859508514404,-0.05396880581974983,,,,,,,,,
1739402372.586416,0.5256938939220931,0.09605055616143217,-0.9533378179547681,-2.0691201766044487,0.13777174073533136,2.1375928692791857,-1.2753813792993165,0.0008209813093682252,0.00083761448268872,0.0003655420604374598,0.0002365859378163732,-0.0007990752087730954,-0.0007865166958020619,2.0848453874900406e-05,0.2411382496356964,-21.82431411743164,-2.4095618724823,22.59223175048828,0.6801248788833618,2.2679946422576904,-0.03382720425724983,,,,,,,,,
1739402372.5964394,0.5256955227911398,0.09604848328901293,-0.9533398974521247,-2.069120695603183,0.1377739195910334,2.1375928823868366,-1.2753861031196918,0.0005662918215708792,-0.0007178413792807859,-0.001458045693561926,-0.0017860972160898521,0.0008366255947751876,0.0003065052425173324,-0.0009262892708843868,0.2173345386981964,-21.79654312133789,-2.38179087638855,22.61603546142578,0.6737161874771118,2.2679946422576904,-0.020094294100999832,,,,,,,,,
1739402372.6074226,0.5256956024815164,0.09604484774237954,-0.9533395608286539,-2.069116123019208,0.13777249797206542,2.137594397707215,-1.2753883913844593,-0.00012362132644545712,-0.0006859181186342553,-0.0009290304542178988,-0.0006670358421830913,0.00022644813000201384,0.0008986718080415243,-0.003385482521080227,0.2173345386981964,-21.74496841430664,-2.35798716545105,22.56842803955078,0.6737161874771118,2.2551772594451904,-0.013685601763427258,,,,,,,,,
1739402372.618431,0.5256956016098361,0.09604313522207124,-0.9533356718588625,-2.0691122695909607,0.13777511460275715,2.137592423425581,-1.2753854780851142,0.0007899277461301805,0.000399956719381788,0.0009369826920920451,0.001195997775728385,0.0003214783152115889,-0.00031038226857915745,-0.002768028121548486,0.2173345386981964,-21.72116470336914,-2.4095618724823,22.51685333251953,0.6801248788833618,2.2615859508514404,-0.0072769103571772575,,,,,,,,,
1739402372.628465,0.525698780383532,0.0960403129955854,-0.9533357782585908,-2.069116370149416,0.1377713518809202,2.1375914695156157,-1.2753826298717705,-0.00025329369322851206,-0.0008769953482409297,0.0002550618836978937,0.0005185191604522579,-0.0015788142564992416,-0.0007513013868898443,-0.0013679803253147276,0.1697271168231964,-21.69339370727539,-2.4095618724823,22.56842803955078,0.6865335702896118,2.2679946422576904,-0.0072769103571772575,,,,,,,,,
1739402372.6384776,0.5256955937564782,0.09604674000870618,-0.9533417196530681,-2.0691179238963042,0.13777362481026426,2.137592882363131,-1.275384557231162,-0.0009353430615996461,0.0007769954082955269,-0.0021913379708256675,-0.00024050680900215366,0.0007618331054622113,-0.0001947704118120441,-0.0018624151543725185,0.2173345386981964,-21.77273941040039,-2.3302161693573,22.59223175048828,0.6673074960708618,2.2679946422576904,-0.0072769103571772575,,,,,,,,,
1739402372.649473,0.5256990276323956,0.09604532126799495,-0.9533375967976113,-2.0691165278095065,0.13777453679468818,2.1375925291743485,-1.2753796378437152,0.0017861308653707923,0.000591290068042882,0.0005441857089713098,-5.274153925208323e-05,0.0007006351128173133,0.00011777348001011455,0.000205890453046047,0.1697271168231964,-21.74496841430664,-2.38179087638855,22.54065704345703,0.6865335702896118,2.2679946422576904,-0.04756011441349983,,,,,,,,,
1739402372.6604643,0.5256917413596008,0.09604463298166042,-0.9533357101208008,-2.069114052423008,0.13777205346118987,2.13759591302139,-1.2753803860024917,-0.0003170505245140563,-0.0009405331715918942,8.367544271308631e-05,-0.0010747299846450772,-0.0007245847125015635,0.0009466002237109016,0.00012691331274477147,0.2411382496356964,-21.77273941040039,-2.4095618724823,22.54065704345703,0.6865335702896118,2.2423598766326904,-0.04023589566349983,,,,,,,,,
1739402372.6714654,0.5256946487914944,0.09604844375820824,-0.9533377516486404,-2.0691204870234152,0.1377718592669514,2.137592016489826,-1.2753814192282442,-0.00036497116785869213,-6.00391268071449e-05,-0.00015734729316191348,-0.0004206670786710842,5.5126155565744816e-05,-9.408003292204418e-05,-0.0003587450511417404,0.2173345386981964,-21.79654312133789,-2.38179087638855,22.63983917236328,0.6801248788833618,2.2753188610076904,-0.06037749722599983,,,,,,,,,
1739402372.681475,0.5256953637968972,0.09605055613942529,-0.9533356839595187,-2.069123290187609,0.13777098405839328,2.1375928823870582,-1.2753864162172024,0.0001140452232518764,0.00016211565430698284,4.8585650042172674e-05,0.0005951567627588657,-0.001326726931710165,2.088836674399038e-05,-0.0013299134938371596,0.2173345386981964,-21.82431411743164,-2.4095618724823,22.66364288330078,0.6865335702896118,2.2679946422576904,-0.027418512850999832,,,,,,,,,
1739402372.6914945,0.5256956108203634,0.0960505431541344,-0.9533377516486368,-2.0691179147727445,0.13777261654582135,2.137593640047137,-1.2753779118414634,-0.0001339233893199739,-0.0004835694354809224,0.0007810562135752304,0.0009097784118144562,-0.0001497190689482955,0.0001699393385423453,0.0006826484964874426,0.2173345386981964,-21.82431411743164,-2.38179087638855,22.59223175048828,0.6737161874771118,2.2615859508514404,-0.07411040365695953,,,,,,,,,
1739402372.7024646,0.5256951574617756,0.09605056621327304,-0.9533349222218725,-2.069123265818418,0.1377720641276583,2.137593626965185,-1.2753836426256147,0.0007225462515726719,-0.0009633477560205357,0.0010022092163632394,-0.0005729143641950789,-0.001001484172658956,-1.5789546945646862e-06,-0.0006466914211952977,0.1935308277606964,-21.82431411743164,-2.4333655834198,22.66364288330078,0.6865335702896118,2.2615859508514404,-0.013685601763427258,,,,,,,,,
1739402372.7124689,0.5256924148097374,0.09605398248598317,-0.9533377546095023,-2.06912400756516,0.13777357930294626,2.1375920164896045,-1.275386875797903,-0.0006377015461806358,0.00011154845573744577,-0.0006807651694736172,-5.604284648695135e-05,0.0007641005225445424,-0.0002517302234847492,-0.0029359244281941563,0.2173345386981964,-21.87192153930664,-2.38179087638855,22.66364288330078,0.6737161874771118,2.2753188610076904,-0.013685601763427258,,,,,,,,,
1739402372.722487,0.5256941360343247,0.09605504353436198,-0.9533349698485024,-2.069123271935942,0.13777438175426335,2.137596220416747,-1.2753894096270195,-0.0006833897109955303,0.0012397583730789016,0.001522912030908354,-0.00022872618206697232,-0.0006505249894001255,0.0007201273193912168,-0.001309437601828503,0.1935308277606964,-21.87192153930664,-2.4095618724823,22.66364288330078,0.6938577890396118,2.2679946422576904,-0.0008682189509272575,,,,,,,,,
1739402372.7334409,0.5256941240557261,0.0960508021161642,-0.953337049634345,-2.069116133113108,0.13777529008885375,2.137593653858557,-1.2753856175692966,-0.00021420182094688937,-0.0008471720383386867,0.000689064475239598,0.0010000230510749026,0.0004270008943776224,0.0005280885746065303,-0.0018732894662567207,0.2411382496356964,-21.82431411743164,-2.38179087638855,22.56842803955078,0.6801248788833618,2.2615859508514404,-0.0072769103571772575,,,,,,,,,
1739402372.744421,0.5256971963943189,0.09604887695697888,-0.9533377517899606,-2.0691179971512104,0.13777146284155425,2.1375920164899043,-1.275378477411145,-0.0004994078455354659,-0.0018256362306649152,-2.047779777009486e-05,0.0012637385734553174,-0.0003633567364043453,7.88636071581466e-05,0.00024114987889563725,0.1935308277606964,-21.79654312133789,-2.38179087638855,22.59223175048828,0.6865335702896118,2.2753188610076904,-0.06037749722599983,,,,,,,,,
1739402372.7545207,0.5256989481575753,0.09605150417654885,-0.9533384669043081,-2.0691176674874043,0.13776889738315434,2.1375928823870587,-1.2753761727091693,0.0006219039323623475,0.0005882680493781951,-0.0009261739174574748,0.0016274239558059832,-0.002393360861987153,0.00018827447422502524,0.000864102443724708,0.1697271168231964,-21.82431411743164,-2.38179087638855,22.59223175048828,0.6801248788833618,2.2679946422576904,-0.05396880581974983,,,,,,,,,
1739402372.7654786,0.525692491266233,0.09604993638122288,-0.9533377256522261,-2.069116132395652,0.13777331319254937,2.137592881103089,-1.2753789368020914,-0.0016164333002446076,1.9300106772403996e-05,-0.00016022666262455838,0.0004373197244645344,0.00040480556453665424,0.0001430869509120114,0.0005307422569964708,0.2173345386981964,-21.77273941040039,-2.38179087638855,22.56842803955078,0.6673074960708618,2.2679946422576904,-0.05396880581974983,,,,,,,,,
1739402372.7755034,0.5256925021156179,0.09604857005698192,-0.9533369876598049,-2.0691161323970535,0.13777291053641083,2.1375928823870365,-1.275378880345215,0.0004305213677731611,0.00034628711165141974,-7.607285048129493e-06,0.0006992402201511362,0.0004943654051935937,-0.00028323440783030305,0.00017734687549617132,0.2173345386981964,-21.79654312133789,-2.4333655834198,22.56842803955078,0.6737161874771118,2.2679946422576904,-0.05396880581974983,,,,,,,,,
1739402372.7864683,0.5256946449382401,0.09604203171888663,-0.9533395256762852,-2.0691162419839713,0.1377711070785254,2.137592016489826,-1.2753764989658032,-0.00027930205875378866,-0.00038391141036610657,0.0005282670175413612,-0.0002787797853895208,-0.0013015380659218633,-0.000909944786818192,0.0019296984844852328,0.2173345386981964,-21.69339370727539,-2.35798716545105,22.56842803955078,0.6865335702896118,2.2753188610076904,-0.07411040365695953,,,,,,,,,
1739402372.7964842,0.5256934263920144,0.09604313523721862,-0.9533338891815474,-2.0691130630481966,0.13777175341561262,2.137592016489826,-1.2753805037400616,-0.0006070689503664166,-0.00031769015329851497,0.0016099135952898618,0.0019429475480831132,-0.00024736714723153563,-0.0005233099716977547,0.00025843039589160165,0.2173345386981964,-21.72116470336914,-2.4333655834198,22.54065704345703,0.6801248788833618,2.2753188610076904,-0.04023589566349983,,,,,,,,,
1739402372.8084679,0.5256931389200478,0.09604184756990185,-0.9533377517939234,-2.069116128999846,0.1377772958400746,2.137593640047137,-1.2753820584675806,0.00011210607867517944,-0.000931634402213432,-0.0004938903882161571,0.0006728337745771429,0.001361882279733407,0.00013021021735628636,-9.694745606138728e-05,0.2173345386981964,-21.69339370727539,-2.38179087638855,22.56842803955078,0.6737161874771118,2.2615859508514404,-0.027418512850999832,,,,,,,,,
1739402372.8194203,0.5256965203784816,0.09604484759979336,-0.9533378314484773,-2.0691196974119186,0.13777139117948886,2.137592016489826,-1.275378241731812,0.0009363731123864692,3.23751574858606e-05,0.0009119282612663994,-0.0006805905750822607,-0.0006867701546081144,-0.0004916499076885233,0.00210353524465031,0.1935308277606964,-21.74496841430664,-2.38179087638855,22.61603546142578,0.6865335702896118,2.2753188610076904,-0.06037749722599983,,,,,,,,,
1739402372.8295057,0.52569189211594,0.09604855820438427,-0.9533356728412107,-2.069119697751086,0.13777042968809286,2.137593640047137,-1.2753799398228989,-0.001015349457719531,0.0004588749149381264,0.0007560215999155445,-0.0002359575403777969,-0.0014486345944506194,-0.0001803546864863493,0.0017606533807529889,0.2689092457294464,-21.79654312133789,-2.4095618724823,22.61603546142578,0.7002664804458618,2.2615859508514404,-0.05396880581974983,,,,,,,,,
1739402372.8404593,0.5256873184767022,0.09604972375478074,-0.9533396137984528,-2.0691194501630292,0.13777175845751305,2.1375928825566395,-1.2753765005868398,-0.0006736376146929249,0.0003790571189712206,-0.0003016583515727179,-0.00010142500873649169,-0.0020780643896426533,-0.0004721356817087393,0.0013446462657820245,0.2927129566669464,-21.77273941040039,-2.35798716545105,22.61603546142578,0.6801248788833618,2.2679946422576904,-0.07411040365695953,,,,,,,,,
1739402372.850481,0.525694426568212,0.09605510986944561,-0.9533377516499143,-2.069122911643396,0.1377737470155932,2.137592882556642,-1.275383876395374,-0.0006919921301253794,0.0011105094316187485,0.00010282660470264265,-0.001460875972041496,0.0014765694614118532,-7.460780781451434e-05,-0.0007599716329853947,0.1935308277606964,-21.84811782836914,-2.38179087638855,22.61603546142578,0.6673074960708618,2.2679946422576904,-0.04756011441349983,,,,,,,,,
1739402372.8604927,0.5256918008338646,0.09605226871408697,-0.9533356718587129,-2.069119973204839,0.13777641922726988,2.137592016489829,-1.275383198996084,-0.0014663328461800092,-0.0005032588413481124,0.000499859064182352,-0.00014201515385743623,0.0009997996259677657,-0.0004713716533183567,-0.0008520486856898531,0.2689092457294464,-21.84811782836914,-2.4095618724823,22.61603546142578,0.6801248788833618,2.2753188610076904,-0.020094294100999832,,,,,,,,,
1739402372.8714979,0.5256938900697365,0.09605269956935922,-0.9533377516485685,-2.0691201674486335,0.13777258198034026,2.1375928961231083,-1.2753820191158263,-8.364376279419153e-06,-0.0012305099414938801,0.00018001567022894193,0.0007680775060705655,-0.0006013015034619147,6.52973004263394e-05,0.0008919885706744263,0.2411382496356964,-21.82431411743164,-2.38179087638855,22.59223175048828,0.6865335702896118,2.2679946422576904,-0.027418512850999832,,,,,,,,,
1739402372.8824415,0.5256955671606959,0.09605258728492869,-0.953335666099693,-2.06912222184835,0.13777490168461204,2.137593926757013,-1.275383642779145,0.0010598317681471726,0.0010380032710516922,8.231661044641231e-05,-0.0002073374461762325,-0.00042753690388085185,-0.0005816770392169376,-0.0011381494397465438,0.2173345386981964,-21.84811782836914,-2.4095618724823,22.63983917236328,0.6938577890396118,2.2551772594451904,-0.013685601763427258,,,,,,,,,
1739402372.8934026,0.525693784106239,0.09605321864234634,-0.9533349436074933,-2.069121727342027,0.13777578076354166,2.137592886963083,-1.2753839958303497,-0.0006401279391150343,0.00022069520115818885,0.00039692815638229113,-0.0002538097191310742,0.0007202287295207777,-0.00016374429794658354,-0.0016298768715422673,0.2411382496356964,-21.84811782836914,-2.38179087638855,22.63983917236328,0.6865335702896118,2.2679946422576904,-0.013685601763427258,,,,,,,,,
1739402372.9035122,0.5256965998541826,0.09604880515973498,-0.9533395347140983,-2.0691196974161112,0.13777490836578396,2.1375936400472146,-1.2753832388221644,0.0004124828480149952,-0.0020205261860814588,-0.0004796370532288204,0.00015419536673752667,5.861286073098837e-05,3.981646449536761e-05,-0.0011227542884079044,0.1935308277606964,-21.79654312133789,-2.35798716545105,22.61603546142578,0.6938577890396118,2.2615859508514404,-0.020094294100999832,,,,,,,,,
1739402372.9145334,0.5256934563473298,0.09605059122261819,-0.9533379900671497,-2.0691186205304533,0.13777298422076556,2.1375936400471374,-1.275380543994761,-0.00019583137734682668,0.0008359639138205731,-0.00027860939118208594,-0.0006379694718214762,-0.00018874519877752367,0.0005436281056647211,0.001424625160599032,0.2173345386981964,-21.82431411743164,-2.38179087638855,22.59223175048828,0.6801248788833618,2.2615859508514404,-0.06678618490695953,,,,,,,,,
1739402372.9254665,0.5256959145470891,0.09604486040932814,-0.9533367498849966,-2.069117902416014,0.13777618227910998,2.1375928825566395,-1.2753832370291363,0.00045239989837644,-0.001253916282679709,-9.400425391130953e-05,0.0006548438288417368,-0.00014478789833469988,-5.268251633758737e-05,-0.00045742295441019706,0.2173345386981964,-21.74496841430664,-2.4333655834198,22.59223175048828,0.6801248788833618,2.2679946422576904,-0.05396880581974983,,,,,,,,,
1739402372.9364312,0.5256917138892622,0.09604484777896034,-0.9533377478128091,-2.0691161320578164,0.13777510308926771,2.1375928823870596,-1.2753883426909791,-0.0002541227297560215,-0.0005924230736412043,0.0003397785707430315,0.0007657351149833326,-0.0014528275353356667,-9.657644437964614e-05,-0.001384256665382162,0.2411382496356964,-21.74496841430664,-2.38179087638855,22.56842803955078,0.6801248788833618,2.2679946422576904,-0.0008682189509272575,,,,,,,,,
1739402372.946466,0.5256938900333982,0.09604486538905445,-0.9533377555730891,-2.0691179106649646,0.13777729605946523,2.137596080183236,-1.2753827789605308,0.001078965023305272,-0.0005296470528979953,-0.0002659325980958197,-0.00014119917914654629,0.0013498064077973563,0.0005892212189827597,0.0004588824606863119,0.2411382496356964,-21.74496841430664,-2.38179087638855,22.59223175048828,0.6737161874771118,2.2817275524139404,-0.03382720425724983,,,,,,,,,
1739402372.956485,0.5256945605044724,0.09604684568395433,-0.9533377516486349,-2.069116705962452,0.13777499176850766,2.1375953544315838,-1.2753757414929294,0.00025485911366852513,0.0017981651298682288,0.0017915073814934199,-0.0005841945907074939,-0.0013560396416270786,0.00048559427230481384,0.0017057133972871192,0.2173345386981964,-21.77273941040039,-2.38179087638855,22.59223175048828,0.6801248788833618,2.2753188610076904,-0.08051909506320953,,,,,,,,,
1739402372.967395,0.5256990010265934,0.09604413745411887,-0.9533380695400073,-2.0691161320510623,0.13777681779341808,2.13759364006598,-1.275379364268819,0.002215327793341606,-0.00033306901859255454,-0.0007384581404056394,-0.0004631573843956933,-0.00015532459333916814,-0.00012615530925810803,0.0002929090447262202,0.1697271168231964,-21.74496841430664,-2.38179087638855,22.56842803955078,0.6737161874771118,2.2615859508514404,-0.05396880581974983,,,,,,,,,
1739402372.9774168,0.5256913969767582,0.09604684848636617,-0.953337826461626,-2.069117914621851,0.13777339970013736,2.1375928823870587,-1.2753789368794084,-0.0014040552722753249,0.0004136455390648731,0.0004909751779198829,-0.0004268357428190056,-0.00019659892400258612,-0.0003653450578769474,0.0015670565463763993,0.2411382496356964,-21.77273941040039,-2.4095618724823,22.59223175048828,0.7066751718521118,2.2679946422576904,-0.05396880581974983,,,,,,,,,
1739402372.9875188,0.5256954837456046,0.09604858451151736,-0.953341623055226,-2.06911968791539,0.13777405781003438,2.137592876572857,-1.2753858136159537,-0.0010340151948939188,0.00015711812384896115,-0.0010766508456670986,-0.0010728372393123255,7.347575150092349e-05,-0.000198908411083344,-0.001847877101671079,0.2173345386981964,-21.79654312133789,-2.3302161693573,22.61603546142578,0.6737161874771118,2.2679946422576904,-0.0072769103571772575,,,,,,,,,
1739402372.998471,0.5256956021546945,0.0960485494715265,-0.9533377546283632,-2.0691204381411117,0.137776538417601,2.1375897034726594,-1.2753820372232831,0.0005619225407064652,0.00010647114979516419,-0.0005001560736030246,-0.0002444042426821226,0.0007873411057711876,-0.0009126113324557977,3.460720885492473e-05,0.2173345386981964,-21.79654312133789,-2.38179087638855,22.61603546142578,0.6801248788833618,2.2679946422576904,-0.027418512850999832,,,,,,,,,
1739402373.0094278,0.5256950859470547,0.096048558348683,-0.9533377519756341,-2.069119697416106,0.13777410167544754,2.137592882369113,-1.275382138251441,8.222580529329668e-05,-7.268795504498699e-06,0.0004849493193307997,0.000599357281656739,7.822300314339748e-05,-0.00041541579836411313,-0.00042281531786722115,0.1935308277606964,-21.79654312133789,-2.38179087638855,22.61603546142578,0.6737161874771118,2.2679946422576904,-0.027418512850999832,,,,,,,,,
1739402373.0194826,0.5256931024831477,0.09605443460800847,-0.9533402495813303,-2.069123506962404,0.13777729440452524,2.137592882387058,-1.2753799984494252,-0.001128275990451065,-0.0003254704186119111,-0.0012559207298876562,-0.0019634960560643766,0.00020370270347225836,-0.00038619568708031597,-6.002012180922605e-05,0.2173345386981964,-21.84811782836914,-2.35798716545105,22.66364288330078,0.6737161874771118,2.2679946422576904,-0.05396880581974983,,,,,,,,,
1739402373.030473,0.525693797792037,0.09605889957634517,-0.9533375324774171,-2.069126229754103,0.13777840900428984,2.137593640047137,-1.275383158148943,-0.00018051157820331737,0.0005598241948697256,-0.0008095368676561681,-0.001432740137660142,0.0006321438169323512,0.0003432556681097706,-0.0009909127808796798,0.2411382496356964,-21.89969253540039,-2.38179087638855,22.66364288330078,0.7002664804458618,2.2615859508514404,-0.05396880581974983,,,,,,,,,
1739402373.0414336,0.5256955142872848,0.09605440344583926,-0.9533399017751939,-2.0691196974663577,0.13777258200501463,2.137593640047137,-1.2753788806914168,-0.0003599705484700823,-0.0002184105896732937,-0.0014596662760759144,0.0003346408295137089,-0.0011522650345864684,0.0008839765793326349,0.0014705632434113866,0.2173345386981964,-21.84811782836914,-2.38179087638855,22.61603546142578,0.6865335702896118,2.2615859508514404,-0.05396880581974983,,,,,,,,,
1739402373.0514731,0.5256938772048368,0.09605079834013401,-0.953339543192318,-2.0691219226519966,0.13777725653845824,2.137593640047137,-1.2753781226841867,-0.001440576947910065,-0.001175394430443762,-0.0019248447853654816,-0.0009149654602378084,0.0017882935405894359,0.00047562600870825606,0.0011654754176474906,0.2411382496356964,-21.79654312133789,-2.35798716545105,22.61603546142578,0.6737161874771118,2.2615859508514404,-0.06037749722599983,,,,,,,,,
1739402373.0624661,0.5256956025907653,0.09605150323475474,-0.9533377256483386,-2.0691180063462555,0.13777793478220668,2.137592882895801,-1.2753803322794492,0.0008658580150912948,0.0006442142780023004,-0.00014776070981990883,0.0007657885216911042,0.0004103106727285619,0.0007331589580780379,0.00045786264369032767,0.2173345386981964,-21.82431411743164,-2.38179087638855,22.59223175048828,0.6673074960708618,2.2679946422576904,-0.05396880581974983,,,,,,,,,
1739402373.0724695,0.5256955761000299,0.09604716559497044,-0.9533395444639537,-2.069118656482113,0.13777578076294453,2.137592016489829,-1.2753773605644163,0.0006074059503218365,0.00012031727551659673,-0.0014199588187975118,0.0011189612782645008,-0.0004804368098290815,-0.0008396183687683014,0.001580033543316882,0.2173345386981964,-21.77273941040039,-2.35798716545105,22.59223175048828,0.6865335702896118,2.2753188610076904,-0.06678618490695953,,,,,,,,,
1739402373.0824866,0.5256951428531006,0.09604516635507823,-0.9533356718588846,-2.069114052280592,0.1377757412724728,2.1375936400471374,-1.2753831712245096,0.0007670932167267254,-0.0005446983884408906,0.000658813369030585,0.0013843084490190061,-0.0010816770002521558,0.00013140847088182725,-0.0011075839764479352,0.1935308277606964,-21.74496841430664,-2.4095618724823,22.54065704345703,0.6865335702896118,2.2615859508514404,-0.05396880581974983,,,,,,,,,
1739402373.0934515,0.5256933474681915,0.09604897655150478,-0.953339535306734,-2.069114494831083,0.13777578076339314,2.1375928823870587,-1.2753820234989273,-0.00070170130914648,0.0004259190416475106,-0.0013080250780938695,0.0007583005139297021,4.100667119872086e-05,-0.00018258056883812857,-0.0006518382748138448,0.2173345386981964,-21.77273941040039,-2.35798716545105,22.51685333251953,0.6865335702896118,2.2679946422576904,-0.027418512850999832,,,,,,,,,
1739402373.1043916,0.5256938897304729,0.09604485067782995,-0.9533416794568768,-2.0691162778598255,0.1377757805469294,2.1375936400471374,-1.2753773650784004,-0.0004997436307046382,-0.000535923866629933,-0.0009664303361100121,0.0007759787117314998,-0.00012045106815273002,-5.397178247779254e-05,0.0019153489599028992,0.2411382496356964,-21.74496841430664,-2.35798716545105,22.54065704345703,0.6865335702896118,2.2615859508514404,-0.06678618490695953,,,,,,,,,
1739402373.1144693,0.5256930600203782,0.09604508450574667,-0.9533377521209615,-2.06911791488565,0.13777547653710087,2.1375928823870587,-1.2753820401426752,-0.00019197984371346148,-0.0004277213474416174,-0.00019009193617564328,-0.0007989377207062683,-0.0007315571116805679,-0.0003819565823099464,-0.0008443917174121073,0.2411382496356964,-21.74496841430664,-2.38179087638855,22.59223175048828,0.6801248788833618,2.2679946422576904,-0.04023589566349983,,,,,,,,,
1739402373.1254954,0.5256909466169468,0.09604484872114494,-0.9533395346526443,-2.0691163793067853,0.137774854943265,2.137591822748929,-1.2753788850539374,-0.00018421014709911574,-0.0011675165399890643,-0.0006161558490383129,-0.0007735329685109444,-0.0009294104173474462,-0.000964618174790846,0.0009998886906756321,0.2411382496356964,-21.74496841430664,-2.35798716545105,22.56842803955078,0.6673074960708618,2.2679946422576904,-0.05396880581974983,,,,,,,,,
1739402373.1355164,0.5256924236236405,0.0960484913001998,-0.953342396329685,-2.0691161320592815,0.13777576313976786,2.1375943977012337,-1.275379233395488,-0.0013114771705526466,-0.0006244431241577505,-0.0006978771719946491,0.00039196926409790206,-0.0008176552766661481,0.0006260175631919939,-0.00024760336263214056,0.2173345386981964,-21.79654312133789,-2.35798716545105,22.56842803955078,0.6865335702896118,2.2551772594451904,-0.05396880581974983,,,,,,,,,
1739402373.1464703,0.5256945389013065,0.09604787555315235,-0.9533378347411776,-2.0691179970004656,0.13777653257305517,2.1375928823870582,-1.2753822291645114,-0.0014415790132853196,-0.0005622680801834165,-0.0005823339492594193,0.0003380681869151017,0.00027929912557161907,0.0003116468376781304,-0.0003503844539228109,0.2173345386981964,-21.77273941040039,-2.38179087638855,22.59223175048828,0.6801248788833618,2.2679946422576904,-0.05396880581974983,,,,,,,,,
1739402373.157466,0.5256948608382881,0.0960505473820573,-0.9533356749479762,-2.0691232383467826,0.13777896961207853,2.137593626965185,-1.2753778489141716,9.606705430330412e-05,-0.00018808720717701437,0.0008430373679295072,-0.001852239336019519,0.0005553811272295964,-0.00025038844074807464,0.0001001197719235474,0.2173345386981964,-21.82431411743164,-2.4095618724823,22.66364288330078,0.6865335702896118,2.2615859508514404,-0.06678618490695953,,,,,,,,,
1739402373.1684113,0.5256953641682168,0.09605226866592147,-0.9533363871144677,-2.069119697864002,0.1377777483665945,2.1375951553672197,-1.275382835656103,-1.5066288694453645e-05,0.0009166964220967976,0.0007799205182574577,0.0006111846703819782,-0.0003692404080231761,0.0006699012109691663,-0.00019499398708072577,0.2173345386981964,-21.84811782836914,-2.4095618724823,22.61603546142578,0.6938577890396118,2.2487685680389404,-0.04756011441349983,,,,,,,,,
1739402373.1794353,0.5256932174200081,0.09605398216103503,-0.9533348428681232,-2.0691237053290226,0.1377759368229665,2.1375928823870582,-1.275386821586182,-0.00021099669555258967,0.0003650858956386741,0.0005542983108812001,-0.0001223713656144568,-0.00038336080370153747,-0.0003234832817822198,-0.0018252241336582965,0.2173345386981964,-21.87192153930664,-2.4333655834198,22.63983917236328,0.6865335702896118,2.2679946422576904,-0.013685601763427258,,,,,,,,,
1739402373.1894956,0.5256934568103069,0.09605254162353384,-0.9533395343309712,-2.0691214801015048,0.13777622397324632,2.1375932532604036,-1.2753773648809799,0.0011747342160297848,0.00028390359068738817,-0.0018165366994654095,0.0008410083311219046,-0.00042554367148389487,0.00028290905287131553,0.0017644759975394438,0.2173345386981964,-21.84811782836914,-2.35798716545105,22.63983917236328,0.6737161874771118,2.2679946422576904,-0.06678618490695953,,,,,,,,,
1739402373.2004316,0.5256944540403135,0.0960553846923829,-0.953332106613691,-2.0691179432244904,0.137778053737799,2.137593640049231,-1.27538248026631,-2.7366313645363284e-05,0.0007418784011948941,0.0007526741113515,0.0007668246712692305,0.0009615749793504688,0.0001471525021878616,-0.0003008614042580855,0.1935308277606964,-21.84811782836914,-2.4571692943573,22.59223175048828,0.6673074960708618,2.2615859508514404,-0.06037749722599983,,,,,,,,,
1739402373.2104495,0.5256953523501946,0.09604864919489413,-0.9533377256481903,-2.069117997264741,0.13777540779170752,2.1375928823870587,-1.2753816034893508,-0.0006835579143859138,-0.0006337770410298861,-0.0002167812126847779,0.0005565693743105621,0.00028814231217644433,-0.00037312931595095446,0.00041968023655221826,0.2173345386981964,-21.79654312133789,-2.38179087638855,22.59223175048828,0.6865335702896118,2.2679946422576904,-0.06678618490695953,,,,,,,,,
1739402373.2204742,0.5256956014965827,0.09605171612711338,-0.9533349429711573,-2.069119791700281,0.1377758201257997,2.1375920164898266,-1.275379351204812,-0.0006623456051880276,0.00012386811781105785,0.0012302802705247218,-0.0006274534019660913,3.979566962651978e-05,-0.0004945757222357307,0.0005917180035753622,0.2173345386981964,-21.79654312133789,-2.38179087638855,22.61603546142578,0.6865335702896118,2.2753188610076904,-0.05396880581974983,,,,,,,,,
1739402373.2313943,0.5256934567147488,0.09605167511315804,-0.9533377516327134,-2.069119752582764,0.1377765319233169,2.1375928823870587,-1.2753835243322809,4.059671800660669e-05,-0.00022790355279754445,-5.986979899807416e-05,-5.227515682658282e-05,-0.0002899083502211247,-0.00015684131939840812,-0.0009441185518718675,0.2173345386981964,-21.79654312133789,-2.38179087638855,22.61603546142578,0.6801248788833618,2.2679946422576904,-0.05396880581974983,,,,,,,,,
1739402373.2414093,0.5256901795723271,0.09605058250501315,-0.9533377516485682,-2.06911791880578,0.13777578011344602,2.1375928823870587,-1.2753797235034137,-0.0001361245428382245,0.00132748778639021,0.0006719119904507749,-0.0001272973362679574,-0.00020414949685591978,-0.00011552003680520578,0.0013967673546313578,0.2927129566669464,-21.82431411743164,-2.38179087638855,22.59223175048828,0.6865335702896118,2.2679946422576904,-0.07411040365695953,,,,,,,,,
1739402373.2514374,0.5256933508599577,0.09604855820483309,-0.9533395343255875,-2.0691161415544834,0.13777346357895065,2.137595155367294,-1.2753843038386041,-0.00031827458993313084,-0.00030399083058010314,-0.0005643704239547384,0.00042791972349839403,-1.718380068796065e-05,0.00065544029595407,-0.0007060503111337432,0.2173345386981964,-21.79654312133789,-2.35798716545105,22.56842803955078,0.6801248788833618,2.2487685680389404,-0.020094294100999832,,,,,,,,,
1739402373.2614694,0.5256955986282642,0.09604317062283325,-0.95334046165198,-2.0691140247960917,0.13777642038422278,2.1375928823870587,-1.2753774230290733,-0.00031066423819223795,-0.0008249033940886243,-0.0016992091608219835,0.0019121962558135536,2.5352098251118772e-05,0.0009590267165766862,-0.0005234678899096504,0.2173345386981964,-21.72116470336914,-2.3302161693573,22.54065704345703,0.6801248788833618,2.2679946422576904,-0.06678618490695953,,,,,,,,,
1739402373.2724593,0.5256938772062651,0.09604471514298192,-0.9533406777612529,-2.0691197018205614,0.13777729559422877,2.1375936400471374,-1.2753806274543231,-0.00010061765389542078,0.00035718413841255727,-0.00047284483753807474,-0.0017769009550115884,0.0005906479467057224,0.0006488532155351095,-0.0025161202486282553,0.2411382496356964,-21.77273941040039,-2.3302161693573,22.61603546142578,0.6737161874771118,2.2615859508514404,-0.04023589566349983,,,,,,,,,
1739402373.283465,0.5256990266512749,0.0960434271854839,-0.9533395431541434,-2.0691217853040675,0.13778048495026846,2.137596220303693,-1.2753830793625478,0.0014707331695580975,-0.001377657788151726,-0.0009894698406987359,-0.0016854355557841209,0.001217792796197925,0.00037026606489845684,-0.0010588074622387875,0.1697271168231964,-21.74496841430664,-2.35798716545105,22.61603546142578,0.6737161874771118,2.2679946422576904,-0.027418512850999832,,,,,,,,,
1739402373.2944565,0.5256972765199498,0.09604684614475965,-0.9533395343256374,-2.069116049653373,0.13777597831991428,2.137592882405901,-1.275383240114213,0.00039733607515874905,-0.0002802838214516794,-0.0005208981662884785,0.0005983990089873221,-6.947130073181498e-05,0.0005403118295734566,-0.0006960184388699877,0.1935308277606964,-21.77273941040039,-2.35798716545105,22.56842803955078,0.6938577890396118,2.2679946422576904,-0.020094294100999832,,,,,,,,,
1739402373.3054454,0.5256916618860875,0.09604883036805102,-0.9533377516485685,-2.0691179147335097,0.1377771580978262,2.1375948922050094,-1.275386261979401,-0.0008546376862504606,0.0006786818606315392,0.00018901149034656836,-0.0002027240955143015,0.0005480864318111158,0.0016291682365952242,-0.0016728792596030551,0.2411382496356964,-21.79654312133789,-2.38179087638855,22.59223175048828,0.6673074960708618,2.2551772594451904,-0.027418512850999832,,,,,,,,,
1739402373.3154612,0.5256956025420663,0.0960522803595021,-0.9533355678571928,-2.0691197096217464,0.13777653890466932,2.13759288238985,-1.2753774041866779,-0.00016554331309490963,0.0005084311818828864,-0.0006549678920036461,0.000443392685077051,0.0006220911093482889,5.101257356652937e-05,0.0017959151512299593,0.2173345386981964,-21.84811782836914,-2.4095618724823,22.61603546142578,0.6801248788833618,2.2679946422576904,-0.06678618490695953,,,,,,,,,
1739402373.3254864,0.525695602481966,0.0960539815116778,-0.9533384288783807,-2.069123345182468,0.13777656072661415,2.1375936400471374,-1.2753823897161969,0.0009798756601414134,0.0010103808497078954,-0.0011465341352398222,-0.0008630038927422464,0.00028815255660948026,-0.0002744688057970709,0.0009286233472499426,0.2173345386981964,-21.87192153930664,-2.4095618724823,22.66364288330078,0.6801248788833618,2.2615859508514404,-0.027418512850999832,,,,,,,,,
1739402373.336456,0.5256956025909826,0.09605271721561219,-0.9533377555887176,-2.0691232447908563,0.13777641989621892,2.1375928823870587,-1.2753828566511887,-0.00036984696197002795,-0.00030452522805708704,-0.0005894568520105959,-0.0010902207924705191,-0.0010038761147756227,-0.0003119373738437371,-0.0009899415940109058,0.2173345386981964,-21.82431411743164,-2.38179087638855,22.66364288330078,0.6801248788833618,2.2679946422576904,-0.04756011441349983,,,,,,,,,
1739402373.3464935,0.5256972356388546,0.09605227757982415,-0.9533367337819061,-2.069121950123791,0.13777333963908417,2.1375928823870587,-1.2753814315200294,-0.00019277314042670423,-0.00010421647525847414,-0.00039818082324701606,0.00040324183713123275,-0.0005943118328476595,-0.0002720272348443772,0.0006080257830561914,0.1935308277606964,-21.84811782836914,-2.38179087638855,22.61603546142578,0.6801248788833618,2.2679946422576904,-0.03382720425724983,,,,,,,,,
1739402373.357413,0.5256931747777273,0.09605058548353626,-0.9533416141096972,-2.069121516731126,0.1377765385134758,2.137594402285899,-1.2753804519560437,8.278625835556942e-05,-0.0012100934842075434,-0.0018876556282353164,0.0003021814668232064,0.0002921598955067123,0.0003412656410701644,-8.770748303910851e-05,0.2411382496356964,-21.82431411743164,-2.3302161693573,22.63983917236328,0.6801248788833618,2.2551772594451904,-0.05396880581974983,,,,,,,,,
1739402373.367459,0.5256952804357964,0.09605510982120208,-0.9533338631813137,-2.0691179422076256,0.13777471450274992,2.1375920302259535,-1.2753813034017456,-0.0001842240404488553,0.002082006016904977,0.0010090840357080372,0.0004638189499571893,-0.0010898504718100939,-0.00014001464160628697,0.0005791221055935051,0.2173345386981964,-21.84811782836914,-2.4333655834198,22.59223175048828,0.6865335702896118,2.2753188610076904,-0.06037749722599983,,,,,,,,,
1739402373.3784328,0.5256956025528258,0.09605055616127815,-0.9533333347678031,-2.0691141621942686,0.1377749127476697,2.1375920180161314,-1.2753773692416415,0.0008588321756405029,-0.0003955963762595751,0.0010832327092619714,0.0024880679007890953,-6.225544308527723e-05,-0.0005248082104763873,0.001646686777171269,0.2173345386981964,-21.82431411743164,-2.4095618724823,22.54065704345703,0.6938577890396118,2.2753188610076904,-0.06678618490695953,,,,,,,,,
1739402373.3894582,0.525695601173771,0.09605068907043768,-0.953335671819134,-2.0691198073021844,0.13777705021415781,2.1375928823870844,-1.2753813072513356,0.0006436724115027963,-0.0002906805579840156,0.0011193439239148872,0.0001643474255191819,0.0008149457668969915,-0.00024244575065804767,0.0013254291926023862,0.2173345386981964,-21.79654312133789,-2.4095618724823,22.61603546142578,0.6801248788833618,2.2679946422576904,-0.06037749722599983,,,,,,,,,
1739402373.400461,0.5256934538803241,0.09605268994631798,-0.9533397760146545,-2.069116379307403,0.13777717761323208,2.1375928823870587,-1.2753821428453078,-0.0003703305201231224,0.0012546416836182784,-0.00011755822689219928,0.0011659869286792795,0.0005680522463431574,-0.0002636876929522682,-0.0010533672119724098,0.2173345386981964,-21.82431411743164,-2.35798716545105,22.56842803955078,0.6737161874771118,2.2679946422576904,-0.027418512850999832,,,,,,,,,
1739402373.4124837,0.5256938591661532,0.09604698739389317,-0.9533377515420258,-2.0691171210916233,0.13777729608354983,2.1375928823870587,-1.2753805168222467,-0.00036182157043506915,-0.0002654454535785521,0.0006676862795845951,-0.0008057735797305562,0.0005879567991817825,-0.0005681326904206068,0.0011185824070760885,0.2411382496356964,-21.74496841430664,-2.38179087638855,22.56842803955078,0.6737161874771118,2.2679946422576904,-0.04023589566349983,,,,,,,,,
1739402373.4235392,0.5256924913635268,0.09604483897783248,-0.9533377516606811,-2.069121481108289,0.13777653842369442,2.1375930478979797,-1.275385215435179,-0.0009025309484735008,0.000586967168818954,0.00013846762057461597,-0.0015107283373502812,2.2535828093939408e-05,0.0002366639144188161,-0.0002126439299347757,0.2173345386981964,-21.74496841430664,-2.38179087638855,22.63983917236328,0.6801248788833618,2.2679946422576904,-0.027418512850999832,,,,,,,,,
1739402373.434454,0.5256931034481435,0.09604855723000431,-0.9533406123505254,-2.0691196975626687,0.13777653842369442,2.1375973343943637,-1.2753872925003502,-3.0585918650672344e-05,0.001490882528973328,-0.000513759335424663,-0.0008916750067894277,-0.000322157704199999,0.0007707983473689117,-0.0006630375217621043,0.2173345386981964,-21.79654312133789,-2.38179087638855,22.61603546142578,0.6801248788833618,2.2679946422576904,-0.013685601763427258,,,,,,,,,
1739402373.44541,0.5256970765336725,0.09604684568364999,-0.9533356984021536,-2.069119696959709,0.13777845598364022,2.137592883994945,-1.2753837609141645,0.0013823910535383814,-0.0004630554548344044,0.0005994616918767769,-0.0008770259902499573,0.00015182255101272272,0.00034773985045658375,-0.0003560350697000506,0.1935308277606964,-21.77273941040039,-2.4095618724823,22.61603546142578,0.6608988046646118,2.2679946422576904,-0.013685601763427258,,,,,,,,,
1739402373.4563804,0.525695284695504,0.09605226866597093,-0.9533379913757922,-2.0691161317187166,0.13777613507409647,2.137593640047164,-1.2753882737922317,0.0008345812682930363,0.0007344953167127381,-0.0008095217882773763,-4.7842069775413156e-05,-0.00019169831033828713,-0.0006275256248846644,-0.001708458635051432,0.2173345386981964,-21.84811782836914,-2.38179087638855,22.56842803955078,0.6865335702896118,2.2615859508514404,-0.013685601763427258,,,,,,,,,
1739402373.466491,0.5256907510540236,0.09605268701129047,-0.9533355938589261,-2.0691220050682926,0.13777578076561614,2.1375936405558797,-1.2753868405081585,-0.0007939431521187797,0.0008967519872110898,-7.652573908707814e-05,-0.0006236690524672486,-0.0005125121695608384,6.904094894598482e-05,-0.00037933447704592387,0.2411382496356964,-21.82431411743164,-2.4095618724823,22.61603546142578,0.6865335702896118,2.2615859508514404,-0.013685601763427258,,,,,,,,,
1739402373.476522,0.5256938102171839,0.09604761118889499,-0.9533326298129291,-2.0691224599662443,0.1377758744026159,2.1375962202471745,-1.2753821500954026,0.0012691854801228464,-0.00012044897862182147,0.0023269797840533555,-0.0008619463289882515,-0.0004273163204774163,0.0005684213889535408,4.4635357335103844e-05,0.2411382496356964,-21.79654312133789,-2.4095618724823,22.63983917236328,0.6737161874771118,2.2679946422576904,-0.027418512850999832,,,,,,,,,
1739402373.4875104,0.5256962730974309,0.09605089813074147,-0.9533353598369801,-2.06912329476575,0.137778811395904,2.1375928824059005,-1.2753833561238108,-9.792238009384893e-05,-0.0001072013356846736,0.0011722311258534532,-0.0005578608285093066,0.002805348921605401,-0.0009672361964876838,-7.014565538950143e-05,0.1935308277606964,-21.82431411743164,-2.4095618724823,22.66364288330078,0.6608988046646118,2.2679946422576904,-0.020094294100999832,,,,,,,,,
1739402373.498415,0.525693173827486,0.0960513808658399,-0.9533384668668785,-2.0691214800891236,0.13777653398161788,2.1375943977072156,-1.2753795418363947,-0.00039637491302011937,3.4945648474743506e-05,-0.0002291948703309051,-0.00017642828016310264,-0.00047597785666500547,0.00028668309195264475,0.001232878586378865,0.2411382496356964,-21.82431411743164,-2.38179087638855,22.63983917236328,0.6801248788833618,2.2551772594451904,-0.06037749722599983,,,,,,,,,
1739402373.5084894,0.5256910260917339,0.09605092584729864,-0.9533377516606807,-2.0691196943594687,0.13777491421624846,2.1375938094584184,-1.2753796378668654,-0.001312668532758808,-0.0006639248898183284,0.00011541566855091982,0.0002721984298050148,-0.0010998539871241368,0.0012955436907330351,0.0009947036645228222,0.2411382496356964,-21.79654312133789,-2.38179087638855,22.61603546142578,0.6938577890396118,2.2615859508514404,-0.04756011441349983,,,,,,,,,
1739402373.5193844,0.5256965964239667,0.09605447990980806,-0.9533377487596374,-2.0691189556652163,0.13777653403578594,2.13759515536825,-1.2753862175759252,0.0003120989621053146,0.0011386671897682615,0.00016069528135750756,0.0006941844486265555,0.0003580268434065218,0.0006494418819112339,0.00048156100042520754,0.1935308277606964,-21.84811782836914,-2.38179087638855,22.61603546142578,0.6801248788833618,2.2487685680389404,-0.0008682189509272575,,,,,,,,,
1739402373.5294526,0.5256933760305452,0.09605234805742022,-0.9533370467493277,-2.0691186941159856,0.13777623128092337,2.1375944526514146,-1.2753861210627602,-0.0008899038285607311,0.0004401121924666236,0.0004932889662505944,0.0003239789310012032,-0.0005509820664575845,0.0012058815012786978,-0.0023364166857129517,0.2173345386981964,-21.84811782836914,-2.38179087638855,22.59223175048828,0.6737161874771118,2.2551772594451904,-0.020094294100999832,,,,,,,,,
1739402373.540449,0.5256954843684404,0.09604972527085787,-0.95333567196375,-2.0691227472716003,0.1377772960777619,2.1375936400474473,-1.2753839346094595,-0.0005645247162856153,-0.0004903282205557983,0.0008588732463053017,-0.0013939283766303467,-0.0003323377401403044,-0.0002405148201649022,4.3637424227003856e-05,0.2173345386981964,-21.77273941040039,-2.4095618724823,22.61603546142578,0.6737161874771118,2.2615859508514404,-0.04756011441349983,,,,,,,,,
1739402373.5504491,0.5256944274867935,0.09604687203940983,-0.9533377516485703,-2.069117915012663,0.1377765384236943,2.1375937636715854,-1.2753841535325636,0.0002921626715061688,-0.00015763262909265828,0.00025419089002509974,0.00034948312346536504,0.00017100641327369066,0.00011313934578801518,-0.0012585952440316403,0.1935308277606964,-21.77273941040039,-2.38179087638855,22.59223175048828,0.6801248788833618,2.2615859508514404,-0.013685601763427258,,,,,,,,,
1739402373.5605261,0.5256987505732051,0.09604793746113159,-0.9533395343255876,-2.069119709734805,0.13777731358088385,2.137593640049231,-1.275382076241847,0.0005904884813815504,-0.00010067560552532915,-0.0009766348414939293,-0.0007331777821082136,0.0005651407446680447,-0.0005174837776000375,0.0013988004477884855,0.1697271168231964,-21.74496841430664,-2.35798716545105,22.61603546142578,0.6737161874771118,2.2615859508514404,-0.027418512850999832,,,,,,,,,
1739402373.571493,0.5256946489151028,0.0960490554881126,-0.9533383781172138,-2.0691206908166837,0.1377771985157437,2.137595123540518,-1.2753829305023479,0.0006527367911306995,0.0003883370821107014,-0.0008736646538611411,-0.002271070223475124,0.00040357507470392304,0.0001772235208436309,0.00018048075052236562,0.2173345386981964,-21.77273941040039,-2.35798716545105,22.61603546142578,0.6865335702896118,2.2615859508514404,-0.020094294100999832,,,,,,,,,
1739402373.5824814,0.5256908589660723,0.09604487408721395,-0.9533356719481486,-2.069116159885971,0.13777733547628246,2.1375943977323386,-1.2753875791928766,-0.0018738940014913098,-0.0004056236973922538,0.0005698284494101036,4.5921237826603446e-05,0.00010291409248408675,-0.0002952990904631823,-0.002812959943759426,0.2689092457294464,-21.74496841430664,-2.4095618724823,22.56842803955078,0.6737161874771118,2.2551772594451904,-0.0072769103571772575,,,,,,,,,
1739402373.5934138,0.525692635590164,0.09604927141611853,-0.9533356722947781,-2.0691139068178668,0.13777171613785827,2.13759417575308,-1.2753880382133997,-0.001099453254752759,0.0003625103752117614,0.0004749245934655954,0.0011881408307568375,-0.0014025734212419236,0.0006712295209362606,-0.002248287278699992,0.2173345386981964,-21.79654312133789,-2.4095618724823,22.56842803955078,0.6938577890396118,2.2615859508514404,-0.013685601763427258,,,,,,,,,
1739402373.6044073,0.5256955662718169,0.09604684568768158,-0.9533377516485709,-2.0691179512010716,0.1377756622721294,2.1375920164928504,-1.2753816167910705,0.0005897906693798043,0.00046601434472726144,0.0005315543747947685,-0.00019440197168430143,-0.0006872226709075344,-0.001054284297626299,2.554391797470975e-05,0.2173345386981964,-21.77273941040039,-2.38179087638855,22.59223175048828,0.6865335702896118,2.2753188610076904,-0.03382720425724983,,,,,,,,,
1739402373.6144226,0.525692393259211,0.0960468456836557,-0.9533356718587129,-2.069117914736758,0.137776539875767,2.137594752667173,-1.2753794092930961,-4.6843077355115516e-05,0.00012857026531342485,0.00041055865075834125,-9.027069765719098e-05,0.0003588566870257237,-6.666476062307109e-05,0.0015097465400558216,0.2173345386981964,-21.77273941040039,-2.4095618724823,22.59223175048828,0.6801248788833618,2.2615859508514404,-0.05396880581974983,,,,,,,,,
1739402373.6245039,0.5256926617500087,0.09604867220133591,-0.9533356457631414,-2.0691156898339953,0.13777654425607297,2.137596343877895,-1.275384399676422,-1.6186659859149537e-05,0.0005680272667832684,-0.0001872206391641685,0.0007052778612354593,0.0004530289351540301,0.0013844782896333533,-8.191400676439069e-05,0.2173345386981964,-21.79654312133789,-2.38179087638855,22.59223175048828,0.6801248788833618,2.2679946422576904,-0.04756011441349983,,,,,,,,,
1739402373.6364548,0.5256937977895489,0.09605139925150528,-0.9533356717041618,-2.06911969736168,0.13777076776593083,2.1375920165658937,-1.2753808967638605,0.0004665037353272899,0.0008872924057179776,-9.422245151600387e-06,0.00046155078706590125,-0.0014149692161054632,-0.0006880172226395277,0.0017930108558536556,0.2411382496356964,-21.79654312133789,-2.4095618724823,22.61603546142578,0.6938577890396118,2.2753188610076904,-0.04023589566349983,,,,,,,,,
1739402373.6475122,0.5256956025908095,0.09604856116881771,-0.9533377516485682,-2.069119697524978,0.13777574126466932,2.1375920164898266,-1.2753871421542589,0.000965385583802718,-0.0016882305097749273,0.00011552152352566799,0.001156231757422749,0.0007100955785454136,-0.0006544757079168249,-0.0010839437462619003,0.2173345386981964,-21.79654312133789,-2.38179087638855,22.61603546142578,0.6865335702896118,2.2753188610076904,0.0064559997990727425,,,,,,,,,
1739402373.6594584,0.525693651179269,0.09605163655506908,-0.9533377604788862,-2.0691199446608217,0.13777653842347143,2.137596220247166,-1.275382586742191,0.00033271188392181505,-0.0002611484068786162,-0.0006388869693699867,-5.226208242677119e-05,-5.411466166527963e-05,-5.240543593957388e-05,0.0005251225190167218,0.2411382496356964,-21.79654312133789,-2.38179087638855,22.61603546142578,0.6801248788833618,2.2679946422576904,-0.05396880581974983,,,,,,,,,
1739402373.6704,0.5256910279566905,0.09605083091290981,-0.9533377399858631,-2.0691196974123893,0.1377780532563061,2.137592882393339,-1.275380974769096,-3.565266285415773e-05,-0.0011835578457291714,-0.00027246249739835065,0.00010910773923572588,-0.0004629484133823845,-2.9385105805536784e-05,0.0009998918944260418,0.2411382496356964,-21.82431411743164,-2.38179087638855,22.61603546142578,0.6673074960708618,2.2679946422576904,-0.04023589566349983,,,,,,,,,
1739402373.6814082,0.5256938506992223,0.09605277470280248,-0.9533377778184635,-2.0691215628444035,0.1377757675998989,2.1375928823870587,-1.2753852526528797,-0.0003905906161514555,-1.7674653296378787e-05,1.1558079883788115e-05,-0.0009064459319695236,-0.0010049023844814742,-0.0010601969595976425,0.00034051482774227445,0.2411382496356964,-21.82431411743164,-2.38179087638855,22.63983917236328,0.6865335702896118,2.2679946422576904,-0.04023589566349983,,,,,,,,,
1739402373.6934628,0.5256938900700298,0.09604913561648283,-0.9533377869699872,-2.069120450012257,0.13777734783633497,2.137596982485928,-1.2753788977059968,0.0003435295441469821,-0.0002935240921193913,4.840348392763831e-06,-0.000861058378112993,0.000989401497010091,0.00015066056287276895,0.0017310278561455134,0.2411382496356964,-21.82431411743164,-2.38179087638855,22.61603546142578,0.7002664804458618,2.2615859508514404,-0.05396880581974983,,,,,,,,,
1739402373.704439,0.5256950898595298,0.0960492146090383,-0.9533356720041344,-2.069117918806262,0.13777729587308984,2.137597735573612,-1.2753860658278837,-9.26069932440466e-05,-0.0010735331910668017,0.0002627184507324787,0.00020180815508016417,0.00015858593558662324,0.00040146147908100266,0.0008263964992425718,0.1935308277606964,-21.77273941040039,-2.4095618724823,22.59223175048828,0.6737161874771118,2.2551772594451904,-0.020094294100999832,,,,,,,,,
1739402373.7144535,0.5256946487699656,0.09604855932709676,-0.953333565506941,-2.0691179479728232,0.1377796087987566,2.137595515132042,-1.2753879331047058,0.00034998622225911627,-0.00030831627372604313,0.0014876883389905958,0.0016291401722992207,-9.39052741024035e-05,0.0014483936873565,-0.00017345479005891778,0.2173345386981964,-21.79654312133789,-2.4095618724823,22.59223175048828,0.6801248788833618,2.2551772594451904,-0.0072769103571772575,0,0,0,0.000,0,0
1739402373.726463,0.525695590484793,0.09604397876073646,-0.9533395227223069,-2.0691163793069705,0.1377771778436891,2.137593640053445,-1.2753824132076186,0.0004043557686320359,-0.0002653903542419874,-2.093496427894089e-05,0.0009145774603672217,4.2407154645954004e-05,0.0001221464251826212,0.0010231682371088157,0.2173345386981964,-21.69339370727539,-2.35798716545105,22.56842803955078,0.6737161874771118,2.2615859508514404,-0.027418512850999832,0,0,0,0.000,0,0
1739402373.7374463,0.5256972227385279,0.09604950527200502,-0.9533395338975322,-2.06911390681921,0.137773339640424,2.1375936400471374,-1.2753804172874432,0.0020307747762569497,0.0012227138543811906,-0.0015732416073922185,-0.0004498632078676413,-0.0014472790415613662,-2.2800474512556403e-05,-0.00020695519578417258,0.1935308277606964,-21.79654312133789,-2.35798716545105,22.56842803955078,0.6801248788833618,2.2615859508514404,-0.05396880581974983,0,0,0,0.000,0,0
1739402373.7483838,0.525694645936715,0.09604855820616877,-0.9533404870369262,-2.0691176674818212,0.13777729022721394,2.1375936400471374,-1.275389151128836,-0.0005775358346976649,9.964990020298566e-05,-0.000996396481646176,-0.00043465366743580835,-0.0010939357863851257,-0.0005443739409794158,-0.0030352563493443096,0.2173345386981964,-21.79654312133789,-2.35798716545105,22.59223175048828,0.6737161874771118,2.2615859508514404,-0.0072769103571772575,0,0,0,0.000,0,0
1739402373.7584555,0.5256906758183919,0.09604684568365553,-0.9533377507017257,-2.0691232627617753,0.13777653777353527,2.1375928823870587,-1.275385465810504,-0.0010250869082328085,-0.0008250555780290336,0.000562728836951047,-0.0015681553745717,-7.774800234016318e-05,-0.00020826667605951328,-0.0016841860331065538,0.2411382496356964,-21.77273941040039,-2.38179087638855,22.66364288330078,0.6801248788833618,2.2679946422576904,-0.0072769103571772575,0,0,0,0.000,0,0
1739402373.7694643,0.5256931032658682,0.09605079583113298,-0.9533396137984419,-2.0691232627659626,0.1377740958385312,2.1375928823870587,-1.2753872575119094,-0.0011943573654688323,0.000486034907025849,-0.0007876122822692434,-0.0011596152464876815,-0.0015867163281196317,-0.0007114817410343234,-0.0014436642828868048,0.2173345386981964,-21.82431411743164,-2.35798716545105,22.66364288330078,0.6737161874771118,2.2679946422576904,0.012864691205322742,0,0,0,0.000,0,0
1739402373.780485,0.525695523067676,0.09604712044688611,-0.9533357778229744,-2.069116145398247,0.13777805512970653,2.1375928839132863,-1.2753821762078374,0.0010987606660612017,-0.00010795029798739132,0.0010798031450497544,0.00045386066359795203,-0.00019516720256803854,-0.0007530606639189827,0.0002637058656541313,0.2173345386981964,-21.77273941040039,-2.4095618724823,22.56842803955078,0.6673074960708618,2.2679946422576904,-0.027418512850999832,0,0,0,0.000,0,0
1739402373.79052,0.5256935452504481,0.09605056719233242,-0.9533416154254328,-2.069117914735131,0.1377788114039529,2.137593640047163,-1.275383239626372,-0.00026641407292480896,0.00040329486038491897,-0.00035347110185032776,0.0003588537406777956,0.00032652453596044076,-0.0005514972336928584,-0.00015406229835737565,0.2411382496356964,-21.82431411743164,-2.3302161693573,22.59223175048828,0.6608988046646118,2.2615859508514404,-0.020094294100999832,0,0,0,0.000,0,0
1739402373.8024263,0.5256940969131845,0.09605058281315443,-0.953333885366132,-2.0691174721718526,0.13777793543243164,2.1375928823870587,-1.2753796666795527,-0.0006744335014307974,-0.0010937341403962613,0.0006069674633863026,0.0020024072758335685,0.00035719420027682645,-0.00035413144375337285,-6.39084099176892e-05,0.1935308277606964,-21.82431411743164,-2.4333655834198,22.61603546142578,0.6673074960708618,2.2679946422576904,-0.06037749722599983,0,0,0,0.000,0,0
1739402373.8138247,0.5256938886469849,0.09605522674070333,-0.9533379814003471,-2.0691237053248277,0.13777791865131508,2.1375955103272513,-1.275385355660796,0.0007861149646632905,0.0016149617522692502,-0.0009104414790034369,-0.00017204224381258288,0.0014381222446771048,0.0006991149293149672,-0.00045068519989069247,0.2411382496356964,-21.84811782836914,-2.38179087638855,22.63983917236328,0.6608988046646118,2.2551772594451904,-0.027418512850999832,0,0,0,0.000,0,0
1739402373.824404,0.5256936160033451,0.09605443462470445,-0.953333853231848,-2.069119697424486,0.13777653841865478,2.1375944531664377,-1.275379946138433,-0.00041000040260345436,0.0014374692603932838,0.0010258253045672418,-0.00022022641678921416,-0.001204551238605196,0.00023062614959077577,0.0013263575987693093,0.2411382496356964,-21.84811782836914,-2.4333655834198,22.61603546142578,0.6801248788833618,2.2551772594451904,-0.05396880581974983,0,0,0,0.000,0,0
1739402373.8354473,0.5256970374457316,0.0960524528632022,-0.9533356603027855,-2.069123372767415,0.1377772785321535,2.1375920582070314,-1.275382480433833,-0.0001051050547145677,0.0014161392225324147,0.00040337970836546843,-0.0019180161009062133,0.0007162011741766979,-0.0009333663999378842,0.0001646453812077617,0.1935308277606964,-21.84811782836914,-2.4095618724823,22.66364288330078,0.6737161874771118,2.2753188610076904,-0.06037749722599983,0,0,0,0.000,0,0
1739402373.845494,0.5256986979625474,0.09604863712847092,-0.9533378051208524,-2.0691217276788647,0.13777805374355384,2.137592882387765,-1.2753828904027866,0.0004078176400448311,-0.0009383706290303195,-0.0005116589883820336,4.19261301695268e-05,-0.00012619818806283798,0.0003287258768910197,-2.0413682773108934e-05,0.1697271168231964,-21.79654312133789,-2.38179087638855,22.63983917236328,0.6673074960708618,2.2679946422576904,-0.06037749722599983,0,0,0,0.000,0,0
1739402373.856452,0.525692896821169,0.09605076835271181,-0.9533395343258895,-2.069117914736303,0.1377757938864494,2.137593646152048,-1.2753836093084734,-0.00018623241995364048,-0.0002739547433014438,-2.4801062181370698e-05,0.0010704070167282917,0.0001442198950042187,-0.000599246955725311,-0.0019171606457034358,0.2411382496356964,-21.79654312133789,-2.35798716545105,22.59223175048828,0.6865335702896118,2.2615859508514404,-0.05396880581974983,0,0,0,0.000,0,0
1739402373.8684485,0.5256934200796819,0.09604929224604193,-0.9533402495813249,-2.0691179147349055,0.13777653842376847,2.13759439770725,-1.2753764990463334,0.00048441391724938164,0.001411109560875731,-0.0004500746085922558,-0.0010030095556406195,0.0010773558956065762,0.00022913599812035605,0.0033219967841890976,0.2173345386981964,-21.77273941040039,-2.35798716545105,22.59223175048828,0.6801248788833618,2.2551772594451904,-0.07411040365695953,0,0,0,0.000,0,0
1739402373.878467,0.5256914940620449,0.09605066236133669,-0.9533377516889449,-2.069121598117223,0.13777652525998,2.1375928823870587,-1.2753834914901538,-0.0014137915841443461,0.001719840154659152,0.0003093883161576959,-0.0012003204297323128,0.00014430420786679395,-0.0012235179559364675,-0.0005060304005803365,0.2411382496356964,-21.82431411743164,-2.38179087638855,22.63983917236328,0.6801248788833618,2.2679946422576904,-0.05396880581974983,0,0,0,0.000,0,0
1739402373.889385,0.5256941321138602,0.09604475021896637,-0.9533396137984476,-2.06911791488631,0.13777978537913255,2.137594752667173,-1.275385870058388,-0.0006472326543046619,-0.0002524868798114043,-0.0005624869081200612,0.001374025200212685,0.0011645414655968745,0.0006327896112097469,-0.002778687996754928,0.1935308277606964,-21.77273941040039,-2.35798716545105,22.59223175048828,0.6801248788833618,2.2615859508514404,-0.0072769103571772575,0,0,0,0.000,0,0
1739402373.899426,0.5256906321038433,0.0960468455399094,-0.9533425710615935,-2.0691186564815984,0.13777932900591744,2.1375955149247767,-1.2753810289811078,0.0005473312356804602,-0.0006467368993261813,-0.0013075072661659823,-4.133773046395896e-05,0.0010395839516823468,0.0009543297848972599,1.610538435977099e-06,0.2173345386981964,-21.77273941040039,-2.3302161693573,22.59223175048828,0.6865335702896118,2.2551772594451904,-0.04023589566349983,0,0,0,0.000,0,0
1739402373.9094458,0.5256929331523069,0.0960486371253491,-0.9533356728560652,-2.0691161686999138,0.13777881016339458,2.1375962680062495,-1.2753785954199142,8.945908748093478e-05,0.0004903423534277967,0.001786284813226532,-0.00033476742527091313,0.0010831613522890244,0.0010303775643366207,0.0021290271142723393,0.2411382496356964,-21.79654312133789,-2.4095618724823,22.56842803955078,0.6608988046646118,2.2487685680389404,-0.06037749722599983,0,0,0,0.000,0,0
1739402373.9194949,0.5256909927286798,0.09605092583466847,-0.9533377516485854,-2.069116169705458,0.13777724780317185,2.137593695010179,-1.27538142499684,-0.0008847257870666859,0.0006575425081355316,0.001015722829675991,0.00030783052827238746,0.00017029274282271125,0.00023513781196099652,0.00010562172636774056,0.2411382496356964,-21.79654312133789,-2.38179087638855,22.56842803955078,0.6737161874771118,2.2615859508514404,-0.06037749722599983,0,0,0,0.000,0,0
1739402373.9314861,0.5256938634175882,0.09604478099632098,-0.9533377634223255,-2.0691161320580984,0.13777653842342186,2.1375943977075256,-1.275376656183212,0.0008012030748141969,-0.001218349657012653,-0.00013824835629967054,0.0003220294058937168,0.0012901896900005044,0.00014987190165763656,0.003288068530208784,0.2411382496356964,-21.74496841430664,-2.38179087638855,22.56842803955078,0.6801248788833618,2.2551772594451904,-0.07411040365695953,0,0,0,0.000,0,0
1739402373.9415793,0.5256951296624303,0.09604771384997836,-0.9533357513316391,-2.0691189312025924,0.13777653842369442,2.1375936407819878,-1.2753766677938592,0.00026865709625409513,-5.44819666438838e-05,-0.0005690924158614661,-0.001974034609176719,0.00035661696889908214,0.0004878775899049313,0.002158202055211292,0.1935308277606964,-21.77273941040039,-2.4095618724823,22.59223175048828,0.6801248788833618,2.2615859508514404,-0.07411040365695953,0,0,0,0.000,0,0
1739402373.952477,0.5256965689920362,0.09605226996998228,-0.9533377516490171,-2.0691196944782604,0.13777489237956816,2.137594892205013,-1.2753831381707263,0.0007224043673573948,0.00021481594066745195,-0.0005064538705674232,-0.00018595831414093908,6.072692937761522e-05,0.00038682144778323484,0.0007966399624799555,0.1935308277606964,-21.84811782836914,-2.38179087638855,22.61603546142578,0.6673074960708618,2.2551772594451904,-0.05396880581974983,0,0,0,0.000,0,0
1739402373.9634116,0.5256965335177053,0.09605364283187202,-0.9533377506855913,-2.0691254880060175,0.1377784075238184,2.137596220249957,-1.2753851144793136,5.1136032831303234e-05,0.0002818038211712365,-0.0007143311412994036,-0.001315239245975146,-0.0007032516156030262,2.1327163569400308e-05,-0.0006217519760698714,0.1697271168231964,-21.82431411743164,-2.38179087638855,22.66364288330078,0.7002664804458618,2.2679946422576904,-0.04023589566349983,0,0,0,0.000,0,0
1739402373.9734476,0.525695915938857,0.0960515066051267,-0.9533356718586966,-2.0691179153378596,0.13777385150357024,2.1375920165463533,-1.2753785836622464,-3.1239350953380794e-05,-6.574777776978783e-05,-0.0005029724471814609,0.0006112904426400097,-0.0007188765347132253,-0.00120252435269989,0.0010382479797111357,0.1697271168231964,-21.82431411743164,-2.4095618724823,22.59223175048828,0.6801248788833618,2.2753188610076904,-0.06678618490695953,0,0,0,0.000,0,0
1739402373.9844398,0.5256914970014464,0.09605422132172832,-0.9533377516485684,-2.069120139974987,0.13777670022646873,2.1375920171681506,-1.2753804645731595,-0.0006134004688032849,0.0014579379076846578,-0.0001234747753371399,-0.0009170274686125512,0.00038261186036108623,-0.000863090627922271,0.0005671213865032368,0.2411382496356964,-21.87192153930664,-2.38179087638855,22.59223175048828,0.6801248788833618,2.2753188610076904,-0.05396880581974983,0,0,0,0.000,0,0
1739402373.9955225,0.5256940974467034,0.09605134568102137,-0.9533356718587128,-2.06912148315396,0.13777371086809803,2.137594397707219,-1.275387299005309,-6.619907632245971e-06,0.0001248683311599104,0.00033571949993675286,-0.0002865452342466748,-0.0010836593862368763,0.0004443662946652243,-0.0016175810977796545,0.1935308277606964,-21.82431411743164,-2.4095618724823,22.63983917236328,0.6865335702896118,2.2551772594451904,-0.013685601763427258,0,0,0,0.000,0,0
1739402374.006418,0.5256933730447708,0.09605143315459395,-0.9533408638450002,-2.0691214800889486,0.13777972730424123,2.1375928824435855,-1.2753853745788688,0.0001261828091760343,0.00011776746164957745,-0.0009750994718275024,4.190750527096953e-05,0.0014598043702445773,-0.0004878996434662476,0.001000668184267659,0.2173345386981964,-21.82431411743164,-2.38179087638855,22.63983917236328,0.6801248788833618,2.2679946422576904,-0.027418512850999832,0,0,0,0.000,0,0
1739402374.0164387,0.5256946135576382,0.09604792545876506,-0.9533356456704918,-2.069117923892272,0.13777653896372924,2.137596234491959,-1.275385334826661,-0.00013150422473679553,-0.00035521527977524906,0.0007333545708998648,0.0007566790605141021,-0.00033269923122203587,0.0005079864646392127,-0.001064980948951313,0.2173345386981964,-21.74496841430664,-2.38179087638855,22.59223175048828,0.6801248788833618,2.2679946422576904,-0.027418512850999832,0,0,0,0.000,0,0
1739402374.027388,0.5256944410012299,0.096049269845641,-0.9533395344227156,-2.0691161321709917,0.1377775663103339,2.137593129128785,-1.2753871822090475,0.0013697307676721205,0.0003768850229751534,-7.402661120782018e-05,0.0005612805322277567,0.00010237632675253675,-0.00086944127720323,-0.00024392265645658564,0.1935308277606964,-21.79654312133789,-2.35798716545105,22.56842803955078,0.6801248788833618,2.2753188610076904,-0.020094294100999832,0,0,0,0.000,0,0
1739402374.0374563,0.5256924133803926,0.09604856828454501,-0.9533433967924638,-2.0691172034697742,0.13777852179535297,2.1375939950259366,-1.2753863032300843,-0.0005975189915271561,-8.343596821695114e-05,-0.001634871870738012,0.00010880547033373519,0.00030861292278537274,-0.0001385875417891737,0.0006388029859887565,0.2173345386981964,-21.79654312133789,-2.3064124584198,22.56842803955078,0.6673074960708618,2.2679946422576904,-0.027418512850999832,0,0,0,0.000,0,0
1739402374.0474622,0.5256923928799979,0.09604558856075424,-0.9533377516485685,-2.0691200284519113,0.13777657780012084,2.1375939950259366,-1.2753844702072994,-0.0006763436633209219,0.00012552627206859903,0.00018689584447665767,-0.0013283948587398662,9.688605234622774e-06,0.00015028487083273108,-0.0015485431531902772,0.2173345386981964,-21.74496841430664,-2.38179087638855,22.61603546142578,0.6801248788833618,2.2679946422576904,-0.020094294100999832,0,0,0,0.000,0,0
1739402374.0583844,0.5256927283227087,0.09604684699531184,-0.953338078370325,-2.069112275814583,0.13777774514372865,2.1375936400659796,-1.275387338215233,-0.0002338779665011755,-0.001044841412170576,3.37036758299288e-05,0.002890712917151548,0.0009825300020787847,-0.0006856263936695062,-0.0004726872778689586,0.2173345386981964,-21.77273941040039,-2.38179087638855,22.51685333251953,0.6608988046646118,2.2615859508514404,-0.013685601763427258,0,0,0,0.000,0,0
1739402374.0684686,0.5256917817523712,0.09604460805691661,-0.9533356689716261,-2.069118161983837,0.13777805519592462,2.1375936446258206,-1.2753882539459034,-0.0006745869942994982,-0.0018474290706515899,0.0006015969133668084,-0.000760468666735043,0.0004288686292721815,-0.00013219972462651114,-0.0007896200216181295,0.2689092457294464,-21.74496841430664,-2.4095618724823,22.59223175048828,0.6673074960708618,2.2615859508514404,-0.013685601763427258,0,0,0,0.000,0,0
1739402374.079455,0.5256964895296442,0.09604855820032758,-0.953335671858664,-2.0691179157565776,0.13777655154655233,2.1375962209255666,-1.275388254003135,0.0007960120304849131,0.000298323784146365,9.134738926371217e-05,-0.0005721123043818084,-0.0005800643223394086,3.190695801472647e-05,-0.0017674513488299608,0.1935308277606964,-21.79654312133789,-2.4095618724823,22.59223175048828,0.6801248788833618,2.2679946422576904,-0.013685601763427258,0,0,0,0.000,0,0
1739402374.0894563,0.5256944176363323,0.09605069231821371,-0.9533375836225045,-2.069117914395749,0.13777881577828127,2.1375928824059045,-1.275380950797523,0.0008213571655359167,-6.565101856513474e-05,7.399347479741347e-05,0.000875709517411472,0.0008710059448112657,-0.00031472960863825126,0.0014448299683537556,0.1935308277606964,-21.79654312133789,-2.4095618724823,22.59223175048828,0.6608988046646118,2.2679946422576904,-0.06678618490695953,0,0,0,0.000,0,0
1739402374.1013749,0.5256935592621984,0.09604855825252022,-0.9533406127186483,-2.0691181619838,0.1377772565926542,2.1375928823870587,-1.2753821157853387,5.4626436904483026e-05,-0.0002953670446489273,-0.0007898676455751785,-0.0005615416166730111,0.0005795419038921533,0.00018712721550506107,-0.00014252845901301114,0.2411382496356964,-21.79654312133789,-2.38179087638855,22.59223175048828,0.6737161874771118,2.2679946422576904,-0.06678618490695953,0,0,0,0.000,0,0
1739402374.1114454,0.5256924109198243,0.09605229497295949,-0.9533377516647192,-2.0691196974133197,0.13778058987383074,2.1375928823870587,-1.2753899263092792,-0.000731131271348552,0.0018758936737427714,-1.2580289652962522e-05,-0.0008992795415181763,0.0019787800214429,-0.00012105400227450426,-0.0028687757525658244,0.2173345386981964,-21.84811782836914,-2.38179087638855,22.61603546142578,0.6737161874771118,2.2679946422576904,-0.0008682189509272575,0,0,0,0.000,0,0
1739402374.1224825,0.5256969574483322,0.09604927726221486,-0.9533356996942002,-2.0691232627659626,0.13777729610236628,2.1375920185247965,-1.27538599047203,0.0006839166514295338,-0.00034452115808044964,0.0005385275428002825,-0.0005595019858649433,-0.00014711060070534223,-0.00046874277127702984,0.0005505973266248338,0.1935308277606964,-21.79654312133789,-2.4095618724823,22.66364288330078,0.6737161874771118,2.2753188610076904,-0.03382720425724983,0,0,0,0.000,0,0
1739402374.1335003,0.5256968686722461,0.09604880666333511,-0.9533377516487256,-2.0691213702005444,0.13777501243524803,2.137594402342437,-1.2753834915706843,0.0016859989167159447,0.000484028410540079,0.00010659084650926468,-0.0002657615947750782,-0.00014415657513577537,8.270065559143569e-05,-0.00018190014570541304,0.1697271168231964,-21.79654312133789,-2.38179087638855,22.63983917236328,0.6673074960708618,2.2551772594451904,-0.05396880581974983,0,0,0,0.000,0,0
1739402374.1444771,0.525697197216602,0.09605072512215723,-0.9533356456177865,-2.0691180347975355,0.13777835901610297,2.1375928839133125,-1.275386432764654,0.000314697053293589,-0.0003378909952132539,0.00013278729780564152,-0.00021575158871728198,0.0004603873006559063,-0.0005499537108953293,-0.0022267686505365856,0.1935308277606964,-21.79654312133789,-2.38179087638855,22.59223175048828,0.6737161874771118,2.2679946422576904,-0.027418512850999832,0,0,0,0.000,0,0
1739402374.155449,0.5256909216656128,0.096050792956453,-0.953337751601014,-2.06911816198448,0.13777642141435753,2.137592882556648,-1.2753843873162558,0.00048794402469632114,0.000802176027511858,-0.00024686469711531064,0.0008163621152487493,-0.0004929301556245483,-0.0007992860416292974,0.0006629730381764606,0.2411382496356964,-21.82431411743164,-2.38179087638855,22.59223175048828,0.6801248788833618,2.2679946422576904,-0.04756011441349983,0,0,0,0.000,0,0
1739402374.1654978,0.5256952459484988,0.09605055625750938,-0.9533397611884414,-2.0691197798324104,0.13777665701324354,2.1375948937312397,-1.275383532269993,-0.0003841269373487862,0.00039205284202126136,-0.0014863185279203636,0.00042376394052946596,0.00028449625035994715,0.0006213883036925277,-0.0014618634316672407,0.2173345386981964,-21.82431411743164,-2.35798716545105,22.61603546142578,0.6801248788833618,2.2551772594451904,-0.05396880581974983,0,0,0,0.000,0,0
1739402374.1774,0.5256967628174551,0.09605055657827723,-0.9533395342198707,-2.069117915225271,0.13777657779286379,2.1375969841845364,-1.2753804297474094,0.0012985438950412704,0.00047632028374580964,-0.00028109577669012636,-0.00015697283733410506,0.0010365373691421382,0.0014514501878955923,-0.00014708380893484598,0.1697271168231964,-21.82431411743164,-2.35798716545105,22.59223175048828,0.6801248788833618,2.2615859508514404,-0.05396880581974983,0,0,0,0.000,0,0
1739402374.1874242,0.525693813932452,0.09604717013651339,-0.9533356983496656,-2.0691197248840267,0.1377765427981944,2.1375947529121584,-1.2753876356529186,3.7092577481635824e-05,-0.00011406852993049892,0.0006426708395647801,-0.0009316050776498819,-0.0003991558451408119,-5.655449407728259e-05,-0.0016055080005697995,0.1935308277606964,-21.77273941040039,-2.4095618724823,22.61603546142578,0.6801248788833618,2.2615859508514404,-0.020094294100999832,0,0,0,0.000,0,0
1739402374.198445,0.5256917428265357,0.09604653000529076,-0.9533377516490171,-2.0691196896116697,0.1377761904938462,2.1375936400659836,-1.2753833753688537,-0.0002817111213516925,-0.001441646924819705,4.340728086368658e-05,-0.0006836819916061828,-0.0011299235714072136,-0.0010752848721816916,-0.0018349704608136375,0.2411382496356964,-21.77273941040039,-2.38179087638855,22.61603546142578,0.6737161874771118,2.2615859508514404,-0.020094294100999832,0,0,0,0.000,0,0
1739402374.2094064,0.5256958473937089,0.09604755903908938,-0.9533377140924639,-2.069116379306768,0.13777622982082474,2.1375966388606744,-1.2753818279630702,0.0012733457542717349,0.00032811737506521283,0.00010321811678957766,0.0004968268753496783,-0.0005196340869858137,0.0008398649013269121,0.0006521605133243939,0.1697271168231964,-21.77273941040039,-2.38179087638855,22.56842803955078,0.6737161874771118,2.2487685680389404,-0.06678618490695953,0,0,0,0.000,0,0
1739402374.2194648,0.5256941769155531,0.09604897656178694,-0.9533395343249516,-2.0691179150782544,0.1377780556699173,2.1375944577639636,-1.275380469634775,-0.0008158938925386656,-0.0002717538397757648,-0.0012387737311548713,-0.0001292862062869846,0.0012364582633830642,0.0005442001184972312,-0.00104456049774916,0.1935308277606964,-21.77273941040039,-2.35798716545105,22.59223175048828,0.6673074960708618,2.2551772594451904,-0.05396880581974983,0,0,0,0.000,0,0
1739402374.2294834,0.5256929005854539,0.09604681075201693,-0.9533374254058744,-2.06911969741193,0.13778164940021195,2.137594823525777,-1.275385676343671,-0.0013777928742034094,-0.0006307270795643407,-0.0011946242717923265,-0.0002734426512168591,0.0020962086974289345,0.0006545943870151314,3.1949727249937655e-05,0.2411382496356964,-21.77273941040039,-2.35798716545105,22.61603546142578,0.6673074960708618,2.2551772594451904,-0.03382720425724983,0,0,0,0.000,0,0
1739402374.2404547,0.5256960743761475,0.0960468456834583,-0.9533377516009978,-2.069118025640789,0.13777487690763404,2.1375923873655753,-1.2753825091469144,0.0007182859110235757,-0.001280075303978942,0.00014186799976408066,-0.0005567919302613396,-0.00039805801304519477,-0.00019429531108928105,0.0012432024524886036,0.1697271168231964,-21.77273941040039,-2.38179087638855,22.59223175048828,0.6938577890396118,2.2753188610076904,-0.027418512850999832,0,0,0,0.000,0,0
1739402374.251407,0.5256945563088449,0.09605165896470903,-0.9533416179330311,-2.0691209337700887,0.13777485544706472,2.13759368125738,-1.2753836092843251,-0.001228992322366776,0.0010824779475239845,-0.0022515224136416766,2.515764858641758e-05,-0.0012296850101072673,6.254774883169656e-05,-0.00015883434835426878,0.2173345386981964,-21.79654312133789,-2.3302161693573,22.61603546142578,0.6673074960708618,2.2615859508514404,-0.05396880581974983,0,0,0,0.000,0,0
1739402374.2614467,0.5256940968247346,0.09605163649930479,-0.9533356633010005,-2.0691179147558434,0.13777653885556185,2.137597859192469,-1.2753852532148253,-0.0019567233518729115,0.00047914310616788575,0.0007550905724113838,0.0009419808506831342,0.00024985157650602395,0.0015214429850620454,0.00015038035275657296,0.1935308277606964,-21.79654312133789,-2.4095618724823,22.59223175048828,0.6801248788833618,2.2551772594451904,-0.04023589566349983,0,0,0,0.000,0,0
1739402374.2723844,0.5256972755206416,0.09604961089388711,-0.9533416800927512,-2.069116132057886,0.1377744157134257,2.1375920166789473,-1.2753821288738592,-0.0002280118271381936,0.0006523086030298887,-0.0005108746743620329,0.0011422183468263508,0.0004067281082394949,-0.0008580974753161818,0.0006602214365022289,0.1935308277606964,-21.77273941040039,-2.35798716545105,22.56842803955078,0.6801248788833618,2.2753188610076904,-0.06678618490695953,0,0,0,0.000,0,0
1739402374.2824638,0.5256948770870461,0.09604684583874377,-0.9533356718950516,-2.0691204391586147,0.13777896957616326,2.1375944895048913,-1.2753828908941807,-0.00012584431409156153,-0.0010312953495777892,0.0004049330436035976,-0.0005003527116475144,-1.6112650303478694e-06,0.0009887858004985867,0.0005898467495377318,0.2173345386981964,-21.77273941040039,-2.4095618724823,22.61603546142578,0.6865335702896118,2.2679946422576904,-0.06037749722599983,0,0,0,0.000,0,0
1739402374.2934484,0.5256930600162885,0.09605350252792803,-0.9533384669043059,-2.069116132514289,0.13777655302262126,2.1375951560546893,-1.275378270907841,-0.0003643163497329808,0.001458678153909801,2.120280084693059e-05,0.0019431986603431766,-0.0005056192822120608,0.0009774030059300355,0.001020817191630133,0.2411382496356964,-21.82431411743164,-2.38179087638855,22.56842803955078,0.6801248788833618,2.2487685680389404,-0.10066069662570953,0,0,0,0.000,0,0
1739402374.303479,0.5256924928878686,0.09605068912033465,-0.9533400155900176,-2.069121480088951,0.1377765369613067,2.137593640047149,-1.2753857256965107,-0.0010797421574094556,-0.0006637311765284783,-6.570630254196325e-05,-0.0008904515650574741,-0.001409947419576786,-0.0008444317849895051,-0.0006827593314042565,0.2173345386981964,-21.79654312133789,-2.35798716545105,22.63983917236328,0.6801248788833618,2.2615859508514404,-0.027418512850999832,0,0,0,0.000,0,0
1739402374.3144512,0.5256965643717967,0.09605055648204647,-0.9533416141181599,-2.069120139974977,0.13777968716949934,2.1375928823870587,-1.2753848771872387,0.000553732063496468,-0.0005866959240958247,-0.0003879999240550803,0.0011738687484727072,8.922870196725039e-05,-0.00040150534182879663,-0.00041986357291738815,0.1935308277606964,-21.82431411743164,-2.3302161693573,22.59223175048828,0.6544901132583618,2.2679946422576904,-0.013685601763427258,0,0,0,0.000,0,0
1739402374.3244572,0.5256941329141245,0.09605076896574084,-0.9533384698477451,-2.069119697562663,0.13777881140592957,2.1375928839132863,-1.2753776172513656,0.00028204848222737546,0.0006493817060067018,0.0005229245815619789,0.00010236039121987411,0.0005647076820608253,-0.000161314574609615,0.0019638438015926567,0.1935308277606964,-21.79654312133789,-2.38179087638855,22.61603546142578,0.6608988046646118,2.2679946422576904,-0.07411040365695953,0,0,0,0.000,0,0
1739402374.3354602,0.5256907773834528,0.09604968699521521,-0.9533397727482209,-2.069119614995626,0.1377784255574617,2.137592882387067,-1.2753828514124523,-0.0013936396119183707,-0.0004178051862353228,-0.0006070763624445689,-0.0002966224265276891,0.00038495388863415676,-0.0007767914305147754,0.0007755180349785886,0.2411382496356964,-21.77273941040039,-2.35798716545105,22.61603546142578,0.6673074960708618,2.2679946422576904,-0.06037749722599983,0,0,0,0.000,0,0
1739402374.347371,0.5256933504789996,0.09604905548671035,-0.9533356718600589,-2.0691161320574207,0.1377765384257933,2.1375930198040836,-1.2753828057970533,-0.0004969474187312727,-3.248082615385674e-05,0.0003290413805408027,0.0006016391738666584,-0.00045940998140066097,-0.0005681652514916238,0.0006529416817647492,0.2173345386981964,-21.77273941040039,-2.4095618724823,22.56842803955078,0.6801248788833618,2.2679946422576904,-0.03382720425724983,0,0,0,0.000,0,0
1739402374.3574839,0.5256907068551775,0.09604684710349963,-0.9533377516485685,-2.0691193677844133,0.13777578270773955,2.1375928890014877,-1.2753828889379881,-0.00015079721831766737,-0.0004674260943628545,-0.0001901992416695071,0.00019069915170713406,-0.0008958315894025687,0.0007095018943056143,-4.309616143474996e-05,0.2411382496356964,-21.77273941040039,-2.38179087638855,22.61603546142578,0.6865335702896118,2.2679946422576904,-0.06037749722599983,0,0,0,0.000,0,0
1739402374.3674998,0.5256940977696919,0.09604642863747054,-0.9533395096334027,-2.0691196882489753,0.1377780582801721,2.1375928823871706,-1.2753831627455063,-0.0006098127108986257,-0.00037205857687417417,-0.0008629354677059045,0.0002749933798742168,0.00010883386397473932,-0.0009211360370254072,0.00018359309811482463,0.1935308277606964,-21.79654312133789,-2.35798716545105,22.61603546142578,0.6673074960708618,2.2679946422576904,-0.05396880581974983,0,0,0,0.000,0,0
