IITGN-Robotics/Franka_IITGN_ROBOTICS/franka_ros/franka_iitgn/data/b_47.csv
time,fr3_joint1_pos,fr3_joint2_pos,fr3_joint3_pos,fr3_joint4_pos,fr3_joint5_pos,fr3_joint6_pos,fr3_joint7_pos,fr3_joint1_vel,fr3_joint2_vel,fr3_joint3_vel,fr3_joint4_vel,fr3_joint5_vel,fr3_joint6_vel,fr3_joint7_vel,fr3_joint1_eff,fr3_joint2_eff,fr3_joint3_eff,fr3_joint4_eff,fr3_joint5_eff,fr3_joint6_eff,fr3_joint7_eff,flexpin1,flexpin2,flexpin3,Force,ContactMic,ContactMic_gt
1739402403.6969569,0.5257016345852742,0.09592816502198746,-0.9533416183672271,-2.069098069562494,0.1377669440257652,2.1375803073432222,-1.27537916689225,-0.0001710468118217139,0.001591090031933252,-0.001167823112230662,-0.0007031699593915661,0.00019406061783667594,0.0017517329416746213,0.0004262577582653495,0.2173345386981964,-21.69339370727539,-2.3302161693573,22.54065704345703,0.6801248788833618,2.2487685680389404,-0.04756011441349983,,,,,,,,,
1739402403.7069957,0.5257002334822324,0.0959387126424964,-0.9533356718589289,-2.069098083215025,0.1377708048796661,2.137576743100603,-1.2753828849335238,-0.0010177211217876389,0.0009847418342714305,0.0003023462421348046,-0.001620261479590988,0.0018859351195883857,0.0010009229637113692,-0.001714209539451248,0.2411382496356964,-21.69339370727539,-2.4095618724823,22.56842803955078,0.6865335702896118,2.2551772594451904,-0.020094294100999832,,,,,,,,,
1739402403.7170472,0.5257026240126289,0.09595786365143051,-0.9533335395065585,-2.0690980781880937,0.13777005753401234,2.137580197191363,-1.2753836363189208,0.0009282931953030223,0.0006437770457742372,-0.0003468693398836288,0.0002917201545705201,0.0011862662669240623,0.0015409316136648261,-0.0010247545458241043,0.1935308277606964,-21.82431411743164,-2.4095618724823,22.54065704345703,0.6938577890396118,2.2551772594451904,-0.013685601763427258,,,,,,,,,
1739402403.7270625,0.525700477222479,0.09597617559586206,-0.953330730248314,-2.06910471824959,0.13776876607775512,2.1375793349329815,-1.2753788800212096,-0.000977444342216918,0.0013916029372876802,0.00037472796451990903,-0.0005841604951849932,-0.0006717907570673038,0.0005788670374149139,-0.0005401225422606633,0.1935308277606964,-21.87192153930664,-2.4333655834198,22.61603546142578,0.6737161874771118,2.2615859508514404,-0.05396880581974983,,,,,,,,,
1739402403.7390282,0.525700715992327,0.09599056956293003,-0.9533346178621761,-2.0691067203026376,0.13776952956764082,2.1375808502525477,-1.2753805387707486,0.000723971736318362,0.002812429491047636,-0.0017278856553462523,0.0006845075960557893,0.0011876643618359405,0.0004065807486065076,-0.0007957933645316626,0.1935308277606964,-21.92349624633789,-2.4095618724823,22.61603546142578,0.6673074960708618,2.2487685680389404,-0.06678618490695953,,,,,,,,,
1739402403.7500117,0.5256987587495904,0.09599670048115326,-0.953329979891388,-2.069109433718023,0.13776777891062553,2.1375785772723126,-1.2753828849753674,-0.0007580288811153083,0.0018916021927724933,7.472679319502865e-05,-0.000869735104500827,-4.193824817112752e-05,0.00010122925766428723,-0.0012655569142071984,0.2173345386981964,-21.92349624633789,-2.4333655834198,22.63983917236328,0.6865335702896118,2.2679946422576904,-0.020094294100999832,,,,,,,,,
1739402403.7619948,0.5256997153114673,0.09600535566066662,-0.9533325124477406,-2.069114702841443,0.1377670739327167,2.1375777114289156,-1.2753812555859387,-0.0008982003387699351,0.0019346568110368916,-0.0010286766837109519,-0.0007089855225654248,-0.0009359403322905513,-0.00036757676017360727,-6.769027434584723e-05,0.2173345386981964,-21.95126724243164,-2.4095618724823,22.69141387939453,0.6801248788833618,2.2753188610076904,-0.03382720425724983,,,,,,,,,
1739402403.7729545,0.5257027967539949,0.09600326658831292,-0.9533289474221623,-2.0691101606666846,0.1377706124801209,2.1375769543610237,-1.2753820234208582,0.0008000668712663524,-5.180661128734111e-05,-1.605451660734137e-05,0.0006445110852514505,0.0005133188224840824,-0.0008910297487001334,-0.001103133866114,0.1419561207294464,-21.84811782836914,-2.4571692943573,22.61603546142578,0.6865335702896118,2.2817275524139404,-0.027418512850999832,,,,,,,,,
1739402403.7829635,0.5256973477346599,0.09599956753607457,-0.953330006049464,-2.0691083779917414,0.1377709825709081,2.137580092592502,-1.2753781225228942,-0.0012534824275451156,-0.0009585743763398777,-8.157216913228974e-05,0.0007137096711001144,-0.00018865880641861748,3.1862799816767626e-05,0.0015616908736703666,0.2173345386981964,-21.79654312133789,-2.4333655834198,22.59223175048828,0.6865335702896118,2.2551772594451904,-0.06037749722599983,,,,,,,,,
1739402403.793093,0.525700474149906,0.09600061235779579,-0.953333873417985,-2.0691094193419843,0.1377717402497899,2.1375817692686527,-1.2753812614001399,0.00026404229099816554,-6.950785917274107e-05,-0.0006124518454635301,0.0005926370224910029,0.00040832046742918216,1.5655443761709804e-05,-0.001567296686269939,0.1935308277606964,-21.79654312133789,-2.38179087638855,22.61603546142578,0.6801248788833618,2.2679946422576904,-0.03382720425724983,,,,,,,,,
1739402403.805037,0.5257003964837962,0.09599959422190049,-0.9533345895095413,-2.06910720260383,0.13777530028803991,2.1375812440047137,-1.2753770628845431,0.0005937918496533767,-0.00026486681975239226,0.00034493787607437604,0.0004084262155995772,0.0008521913620591574,0.00044431656764808906,0.0013862988107842837,0.1935308277606964,-21.79654312133789,-2.38179087638855,22.56842803955078,0.6865335702896118,2.2753188610076904,-0.06037749722599983,,,,,,,,,
1739402403.8169918,0.5256968459849716,0.09599305851344503,-0.9533394690840853,-2.0691065954208434,0.13777174027597172,2.1375769537395937,-1.2753860638698447,-0.0006175333441223173,-0.00010665875332263093,-2.8187601973655215e-05,-0.0004499865811486562,0.0003330538056744382,-0.0005948356009504918,-0.0012785814724742054,0.2173345386981964,-21.72116470336914,-2.3302161693573,22.56842803955078,0.6801248788833618,2.2817275524139404,-0.020094294100999832,,,,,,,,,
1739402403.8270345,0.5256987616047145,0.0959900829936996,-0.9533384641812257,-2.069106595314724,0.13777098258971207,2.1375815454802294,-1.2753861167379994,0.001324591902391882,-0.002220257468652366,0.00011764392236692867,-0.00042295429771184125,-9.799507830666169e-05,-0.00036100874099303463,-0.001394976503587975,0.2173345386981964,-21.69339370727539,-2.3302161693573,22.56842803955078,0.6865335702896118,2.2817275524139404,-0.020094294100999832,,,,,,,,,
1739402403.838955,0.5256939983695028,0.09599372321339697,-0.9533364802558175,-2.069106482373868,0.13777249790986834,2.137580555923238,-1.2753828849635318,-0.00143420079722738,-6.79181105483342e-05,9.66210467643775e-05,0.0008700318335358942,0.00028830630189579276,0.0013212287040311563,-0.00024039456050303613,0.2411382496356964,-21.74496841430664,-2.35798716545105,22.56842803955078,0.6737161874771118,2.2615859508514404,-0.020094294100999832,,,,,,,,,
1739402403.8500037,0.525696655125497,0.09599213611179246,-0.9533371119574412,-2.0691083779911037,0.1377741813723146,2.137582871911549,-1.2753788801827508,-8.658863312990047e-05,-0.00028962259685638437,-0.00018881181462961655,-0.0008514242997277228,0.0024418364764586466,-0.0009798709719828459,0.0005944380136142312,0.2173345386981964,-21.69339370727539,-2.35798716545105,22.59223175048828,0.6865335702896118,2.2615859508514404,-0.05396880581974983,,,,,,,,,
1739402403.8610008,0.5256942397438558,0.09599863247284046,-0.9533325908178386,-2.069104503315044,0.1377740532809421,2.137581203539059,-1.2753808569527714,-0.0007056712830084565,0.0017153645444434173,0.0008459523699799285,0.0010931461762215063,0.0015028101194663052,-0.0005916177849065217,-0.00032635282296448684,0.2411382496356964,-21.77273941040039,-2.4095618724823,22.54065704345703,0.6608988046646118,2.2487685680389404,-0.04023589566349983,,,,,,,,,
1739402403.8720024,0.5256963319219171,0.09600400586589586,-0.95333640129183,-2.0691083505196186,0.13777094504882367,2.137580396527197,-1.2753788801834154,-0.0013337259418523654,0.0017372020914251727,-0.000707792689174916,0.0003335454173699784,0.0010562953256593394,-0.0013882158902799278,-0.0006330189638540018,0.2173345386981964,-21.84811782836914,-2.35798716545105,22.59223175048828,0.6865335702896118,2.2615859508514404,-0.05396880581974983,,,,,,,,,
1739402403.882018,0.5257014759604172,0.09599956466166877,-0.9533345938868054,-2.069113726022333,0.13777053506833173,2.1375801471245564,-1.2753805457154896,0.0008397893414163662,-0.0014842706944430072,0.0001974136368945891,-0.0008876222275439796,0.0011106186610667294,0.00047911508159164903,0.0009243014159056996,0.1697271168231964,-21.79654312133789,-2.38179087638855,22.66364288330078,0.6673074960708618,2.2679946422576904,-0.06678618490695953,,,,,,,,,
1739402403.892032,0.5257018658882315,0.09601017294015325,-0.9533349285790458,-2.0691137260227985,0.13777145204945385,2.137580111999725,-1.275386217629793,0.0010108369512047048,0.001837270053638049,-0.0009336435271480987,-0.00016468334938186775,-1.4680211573519977e-05,0.00017290474713909943,-0.0022603548906357453,0.1697271168231964,-21.89969253540039,-2.35798716545105,22.66364288330078,0.6865335702896118,2.2551772594451904,-0.0008682189509272575,,,,,,,,,
1739402403.902978,0.5257018486362016,0.09600875336703975,-0.9533285843238035,-2.0691103930914445,0.13777098259236176,2.1375840836811544,-1.2753844519489117,0.001214892750823736,0.0009564416286220864,0.00030178745510144967,0.0007122092515265744,-0.0005986374606869941,-0.0003160098893494253,-0.0003374805544903598,0.1697271168231964,-21.89969253540039,-2.4333655834198,22.61603546142578,0.6865335702896118,2.2615859508514404,-0.03382720425724983,,,,,,,,,
1739402403.9139626,0.5257000710123414,0.09600899195324417,-0.9533324379685263,-2.0691142392323285,0.13777098258971168,2.1375805711765428,-1.2753864302205329,0.0005686049303597851,0.0003304192037039076,-0.000805125532689792,-0.0006135540484452954,-0.0008015942932746627,0.0009414874943161988,0.00044551404780574096,0.1697271168231964,-21.87192153930664,-2.38179087638855,22.63983917236328,0.6865335702896118,2.2615859508514404,-0.020094294100999832,,,,,,,,,
1739402403.9240131,0.5257004712570134,0.09601049302499993,-0.9533300148676207,-2.0691144148005427,0.13777316193094685,2.137581062030717,-1.275378880202764,0.0012325543785671469,0.0006172693794622574,0.0008988872810808129,-0.0005721258050877054,0.001029764250309116,7.939792764165721e-05,0.001514800809053802,0.1935308277606964,-21.89969253540039,-2.4333655834198,22.66364288330078,0.6801248788833618,2.2753188610076904,-0.05396880581974983,,,,,,,,,
1739402403.9350607,0.5256985273127274,0.09600955686572915,-0.953333537845477,-2.0691137260266865,0.1377726339429427,2.1375805826731575,-1.2753773823056376,0.00045962207806539304,3.091076853982405e-05,0.000815276062789001,-0.0001540779993857202,0.00012107611831473943,-0.0015928724458291119,0.0015422345093320496,0.2173345386981964,-21.87192153930664,-2.4333655834198,22.66364288330078,0.6737161874771118,2.2551772594451904,-0.06678618490695953,,,,,,,,,
1739402403.9459603,0.5256983594589894,0.0960059533389633,-0.9533347088114179,-2.0691102457364425,0.13776956128852433,2.1375778356294752,-1.2753830085093198,0.0005850556012570626,-0.0005209517977942628,4.4569294157141624e-05,0.00047663093884749326,-0.0007580690734158677,-0.0009431880736661554,-0.0009097391790136606,0.1935308277606964,-21.79654312133789,-2.38179087638855,22.61603546142578,0.6865335702896118,2.2753188610076904,-0.020094294100999832,,,,,,,,,
1739402403.9559996,0.5257004624947252,0.09600958464889896,-0.9533348394514136,-2.0691094391901,0.13777011857044957,2.1375840841718743,-1.2753773648693116,0.0010065409663141433,0.0012068172448113437,-0.00011816053638993363,-0.0008501432223492052,-0.0007153273506164848,-0.00029629043864597365,-0.0002016245086701896,0.1935308277606964,-21.87192153930664,-2.38179087638855,22.56842803955078,0.6938577890396118,2.2615859508514404,-0.06678618490695953,,,,,,,,,
1739402403.9660432,0.5256941148408331,0.0960014799053264,-0.9533345926037889,-2.069104524079182,0.13776956090856537,2.1375801269451897,-1.2753860688950858,-0.001969229924304477,-0.00025239454732009546,0.0005533336502938199,0.0020242992064443363,-0.0006317541693552628,-0.0003723946522243683,-0.0032087044096337693,0.2689092457294464,-21.72116470336914,-2.38179087638855,22.54065704345703,0.6865335702896118,2.2679946422576904,0.0064559997990727425,,,,,,,,,
1739402403.9770474,0.5256949257927264,0.0959964757019153,-0.9533345134505281,-2.0691075004873447,0.13777251104950644,2.1375809243350763,-1.2753875791928686,-4.854793012000708e-05,-0.0003467248001874679,0.0007367899616693746,0.0003159632012353674,-0.0006112145912905524,-0.00013152393136834454,-0.0009967092668798244,0.2411382496356964,-21.69339370727539,-2.38179087638855,22.54065704345703,0.6737161874771118,2.2615859508514404,-0.0072769103571772575,,,,,,,,,
1739402403.9879677,0.5256950424691175,0.09599839546233972,-0.9533345896588072,-2.0691066973595658,0.13777189886444766,2.137584856597419,-1.2753773794583538,-0.00027644530974870135,-0.0007689253246620778,0.001374288415475217,0.00013951786216488815,-0.00019850231690608393,0.0009694940615363634,0.0024341695678372897,0.2689092457294464,-21.72116470336914,-2.38179087638855,22.56842803955078,0.6801248788833618,2.2551772594451904,-0.06678618490695953,,,,,,,,,
1739402403.998955,0.5257021836469751,0.09599993900514138,-0.9533366989541532,-2.069110445371449,0.13777110106403676,2.137584856603376,-1.27538307869843,0.001479447560197308,0.0001886257491600223,0.00024583975201093164,-0.0011058692534308624,-0.0008067459391530627,0.0006858973240032708,-0.0011379124495452648,0.1697271168231964,-21.77273941040039,-2.38179087638855,22.59223175048828,0.6865335702896118,2.2551772594451904,-0.027418512850999832,,,,,,,,,
1739402404.0090427,0.5256965390861013,0.09599839434064708,-0.9533371904216497,-2.0691122274180382,0.13777186018786103,2.1375840989432486,-1.2753799398388252,-0.0005566315261205399,9.923528206749857e-05,-0.0014491854287722909,-0.0010862764360003916,0.00022335810723508024,-0.0009121848998339127,0.001220755045226485,0.2173345386981964,-21.72116470336914,-2.35798716545105,22.61603546142578,0.6801248788833618,2.2615859508514404,-0.05396880581974983,,,,,,,,,
1739402404.0200186,0.5256987343045947,0.09600381735964213,-0.9533325243728659,-2.0691110506812382,0.13777251708731453,2.13758299097761,-1.275379991061521,0.0006288344726657554,0.0009495186046980797,-0.0005434661626366442,-0.0005895156922377128,0.001077250579550004,-8.29611406895093e-06,0.0005182180686567991,0.2173345386981964,-21.79654312133789,-2.4095618724823,22.59223175048828,0.6737161874771118,2.2679946422576904,-0.04756011441349983,,,,,,,,,
1739402404.0300822,0.5256984900771687,0.09600380577590552,-0.9533325138827101,-2.069108378141982,0.13777174073765974,2.137582479740656,-1.2753831192257665,-0.0005317260654742903,-0.0002282421504471835,0.0007151117138456018,0.00017934662845590807,-0.0016588302830815706,0.0005180466385022579,-0.0005648254031860858,0.2173345386981964,-21.79654312133789,-2.4095618724823,22.59223175048828,0.6801248788833618,2.2753188610076904,-0.05396880581974983,,,,,,,,,
1739402404.0410495,0.5257041062958063,0.09600474042000541,-0.9533345837720838,-2.069108386495011,0.13777328641743408,2.1375824797466625,-1.2753820650967749,0.0024823925350649177,0.0003095796061543442,-0.0013370658993510447,0.00042729305044280226,9.27863759292436e-05,0.00042968534919249904,0.0010968346229137276,0.1419561207294464,-21.79654312133789,-2.38179087638855,22.59223175048828,0.6801248788833618,2.2753188610076904,-0.05396880581974983,,,,,,,,,
1739402404.0519657,0.5256949418012314,0.09601137628853215,-0.9533338760384131,-2.0691137600359224,0.1377728196831002,2.1375833456438946,-1.2753857081887214,-0.0005862885458043119,0.0010475341584397662,-0.0007337766143368921,-5.4821205851345554e-06,0.0018666991404755005,0.0007832038185959067,-0.0012560932306751541,0.2411382496356964,-21.87192153930664,-2.38179087638855,22.66364288330078,0.6801248788833618,2.2679946422576904,-0.027418512850999832,,,,,,,,,
1739402404.0620677,0.5257004741221999,0.0960099919377295,-0.953332194908966,-2.06911225229846,0.13777252471275847,2.1375833456438946,-1.2753848756511235,0.001396278509243945,0.0006167049861553748,-0.00031644099082726293,-0.0008119769605834803,0.0004556915816068522,0.0005692575470543664,-0.0029667650467049425,0.1935308277606964,-21.84811782836914,-2.4095618724823,22.63983917236328,0.6865335702896118,2.2679946422576904,-0.0072769103571772575,,,,,,,,,
1739402404.0730228,0.5256987616371561,0.09601071894294377,-0.9533325152272726,-2.0691101606705042,0.1377743832072901,2.1375824797466625,-1.275385160093887,0.0004362071585533665,-0.001113249201774634,3.7203861517846187e-06,0.0018379712892372443,-0.0007215847861388471,0.00033931892615869354,-0.0018702084546303012,0.2173345386981964,-21.84811782836914,-2.4095618724823,22.61603546142578,0.6938577890396118,2.2753188610076904,-0.0008682189509272575,,,,,,,,,
1739402404.0830352,0.525697045264517,0.09601072777251111,-0.9533317975568435,-2.0691140138392767,0.13777696780966564,2.137583043665844,-1.2753816160664362,-0.0004464789687238217,-0.00026955303375670605,0.0002950491559713628,-0.000737103021156456,0.001090005364215054,9.143370721968557e-05,-0.00011017357581464892,0.2411382496356964,-21.84811782836914,-2.4095618724823,22.63983917236328,0.6673074960708618,2.2615859508514404,-0.03382720425724983,,,,,,,,,
1739402404.0940378,0.5256983671641067,0.09600870273867067,-0.9533350561900393,-2.069113400250879,0.1377718592317204,2.1375833456379127,-1.27538237227493,0.0014571537457688912,-0.0013046751726809728,-0.00017263991160288328,-0.0008099937026257746,-0.0012585133501993356,0.0006080293361413198,-0.0017761702280774704,0.1935308277606964,-21.82431411743164,-2.38179087638855,22.63983917236328,0.6801248788833618,2.2679946422576904,-0.027418512850999832,,,,,,,,,
1739402404.105092,0.5256970115127607,0.0960090191566257,-0.9533322747175701,-2.069111134423824,0.1377717592647158,2.1375841033039733,-1.2753845180172814,0.0002349736938073624,-0.0002992451109212077,0.00018290453127100094,-0.00042314364454599943,-0.00044058896874993076,0.00013810338173141825,-0.0005064704252663491,0.2411382496356964,-21.82431411743164,-2.4095618724823,22.59223175048828,0.6801248788833618,2.2615859508514404,-0.0072769103571772575,,,,,,,,,
1739402404.116,0.5256966294987845,0.0960070124281222,-0.9533342205715246,-2.0691087763662757,0.137772528649117,2.1375824797466625,-1.2753844134141694,-0.00012764434377775794,-0.00010031583910927777,2.229734872199237e-05,-0.0003763591329962001,0.0008472429015942973,-0.0002881814366058203,-0.00035124496212024894,0.2173345386981964,-21.79654312133789,-2.35798716545105,22.56842803955078,0.6865335702896118,2.2753188610076904,-0.0072769103571772575,,,,,,,,,
1739402404.1269877,0.5257000546354206,0.09600331075592497,-0.9533370773481705,-2.0691132587403818,0.13777498292016854,2.1375801667295065,-1.2753778794198958,0.000772254680624777,-0.00023023492492873886,-0.00020392017812273435,-0.001607248794645061,0.00048536519372922583,-0.0013190829291689714,0.0002981629864672135,0.1697271168231964,-21.74496841430664,-2.35798716545105,22.61603546142578,0.6801248788833618,2.2679946422576904,-0.06678618490695953,,,,,,,,,
1739402404.1370819,0.5256960221188064,0.09600529860525224,-0.9533363752913042,-2.06910692825442,0.13777223191255805,2.1375848609102164,-1.2753794042610578,-0.0013638776795713793,0.0007775317795179226,-0.0007516141082543003,4.773584007102867e-06,-0.0003918872796592162,0.0003588160210638945,0.0003862237904200044,0.2411382496356964,-21.77273941040039,-2.35798716545105,22.56842803955078,0.6801248788833618,2.2551772594451904,-0.08051909506320953,,,,,,,,,
1739402404.147088,0.5256987587308329,0.09600128181535332,-0.9533345927093931,-2.06910521416328,0.1377767673495701,2.1375840989433215,-1.2753801088551413,-0.00015755694018979315,-0.00023165256487497275,0.00010517359937410473,0.0013712404471378345,-0.0002476977755220452,0.00028440524806773546,0.0005466633430158914,0.2173345386981964,-21.72116470336914,-2.38179087638855,22.54065704345703,0.6737161874771118,2.2615859508514404,-0.04756011441349983,,,,,,,,,
1739402404.1580658,0.525697721586273,0.09599945068110388,-0.9533366995598164,-2.069108665847156,0.1377757157849982,2.137583332561918,-1.2753836469809485,0.0003836742126114227,0.000137398450687671,-0.0004506931518291128,0.00013176206446665096,-0.00035355924617624224,-0.00040528974720314525,-0.0015018091666352837,0.2173345386981964,-21.72116470336914,-2.38179087638855,22.56842803955078,0.6737161874771118,2.2679946422576904,-0.013685601763427258,,,,,,,,,
1739402404.168985,0.525700395045236,0.09599922069859348,-0.9533332170634715,-2.0691046292284097,0.13777418626592935,2.137583345643821,-1.2753828895334667,0.0009963841929700307,-0.000989855084556736,-0.0001384488059105077,0.0005073208758044744,-0.0004826280439569643,2.9539817669781868e-05,-0.0004917913459892548,0.1935308277606964,-21.72116470336914,-2.4095618724823,22.54065704345703,0.6865335702896118,2.2679946422576904,-0.020094294100999832,,,,,,,,,
1739402404.179031,0.5256983334585923,0.09600519330877184,-0.953334589343834,-2.0691101949986974,0.13777255078149553,2.1375833456438946,-1.275384245965075,0.00022571028713119128,-0.00032964462675514966,0.00022736877835431772,-0.00014798709590807616,0.0005795089894168068,-0.00048080870746868275,-7.78820014548043e-05,0.1935308277606964,-21.77273941040039,-2.38179087638855,22.61603546142578,0.6737161874771118,2.2679946422576904,-0.020094294100999832,,,,,,,,,
1739402404.1900628,0.5256959271199936,0.09600675753380815,-0.9533345922753282,-2.0691086331949817,0.13777436881312768,2.1375833456438946,-1.275383043563616,0.00047818357561381787,0.000640476875941715,0.00036651551380215407,0.0002460933461587443,-4.192609628637527e-05,-0.0007570604704522382,-0.00048456365808741933,0.2173345386981964,-21.79654312133789,-2.38179087638855,22.59223175048828,0.6608988046646118,2.2679946422576904,-0.020094294100999832,,,,,,,,,
1739402404.2001078,0.5256985242798042,0.09600901914501538,-0.9533324468351669,-2.069110163516149,0.13777255545824127,2.1375841033039733,-1.275382141166497,0.00024432100280473716,0.0004018092875924877,-0.0001054423120780641,0.0005347273400121227,-0.00014340774039136531,0.0002907978918659,-0.0006009448443660542,0.2173345386981964,-21.82431411743164,-2.38179087638855,22.61603546142578,0.6737161874771118,2.2615859508514404,-0.027418512850999832,,,,,,,,,
1739402404.2110252,0.5256941113095364,0.0960106926149802,-0.9533325128320552,-2.0691141239618633,0.13777328105454484,2.1375841037884897,-1.275384492804072,-0.0017359498931263258,0.0012072764259110824,3.7896522638596264e-05,-0.0005260680221903186,-0.0006991095614239246,0.0004244672032708709,-0.0020743319352297934,0.2689092457294464,-21.84811782836914,-2.4095618724823,22.63983917236328,0.6801248788833618,2.2615859508514404,-0.03382720425724983,,,,,,,,,
1739402404.2210333,0.5256929101407076,0.09601073124443528,-0.9533345798474924,-2.0691093005808607,0.1377718719130278,2.1375833456439026,-1.2753842349924647,-0.0021150459490178724,0.0006542855314907378,-0.0003939571976989765,0.0011212031726111045,-0.0019536370908093655,0.00014842701603333392,-0.0006373556788108134,0.2689092457294464,-21.84811782836914,-2.38179087638855,22.59223175048828,0.6801248788833618,2.2679946422576904,-0.04756011441349983,,,,,,,,,
1739402404.2320178,0.5256967341751816,0.09601444509291236,-0.9533303699341871,-2.0691147098877867,0.13777379570762913,2.1375824797466625,-1.2753841555687473,0.00018838083092759077,0.0016728825861319072,-0.00028147149113241874,0.0004370666835613508,0.00039909769321792117,-8.743847713358179e-05,-0.00012445455153363948,0.2411382496356964,-21.89969253540039,-2.4095618724823,22.63983917236328,0.6938577890396118,2.2753188610076904,-0.04023589566349983,,,,,,,,,
1739402404.2430525,0.5256995342548548,0.09601245294844649,-0.9533325214672367,-2.06911682220811,0.1377741864310475,2.1375841033039733,-1.2753773692981352,0.00012480489707478425,0.001393569771921667,0.0004040116774874692,-0.00023650414227183332,-7.05928730061729e-05,0.000155688720935995,0.0007799325960835214,0.1935308277606964,-21.87192153930664,-2.4095618724823,22.66364288330078,0.6865335702896118,2.2615859508514404,-0.06678618490695953,,,,,,,,,
1739402404.2540061,0.5257018737057755,0.09601076359892034,-0.9533346272696177,-2.0691147587150485,0.1377717973106382,2.137584107664624,-1.2753832386547022,0.0012125132657265808,-0.0002979425631220589,-0.0005020317339456751,-0.00030325269796966617,-0.0002327300890579414,0.0007466253066687226,0.0004391600122236798,0.1697271168231964,-21.84811782836914,-2.38179087638855,22.66364288330078,0.6801248788833618,2.2615859508514404,-0.020094294100999832,,,,,,,,,
1739402404.2649581,0.5256980596215953,0.0960110466276832,-0.9533363781689328,-2.069115042647328,0.13777577857063,2.137584103304047,-1.2753830550288192,0.0004190985986566773,0.0014250955682850236,-0.0009902282799717024,-0.0008337537556006075,0.0009939165869324413,0.0003754076390143689,-0.0007714151508492436,0.2173345386981964,-21.84811782836914,-2.35798716545105,22.63983917236328,0.6865335702896118,2.2615859508514404,-0.020094294100999832,,,,,,,,,
1739402404.2750537,0.525698423628253,0.09600733616733628,-0.9533335923646192,-2.0691129426549137,0.13777341377827976,2.1375883418564903,-1.2753871348702819,-0.0005618203874148957,0.0005035916222208653,0.00020730944891252524,-0.0002925730351512924,-0.00044514983075216627,0.0012434379887259076,0.0007132376071131968,0.2173345386981964,-21.79654312133789,-2.35798716545105,22.61603546142578,0.6673074960708618,2.2615859508514404,0.012864691205322742,,,,,,,,,
1739402404.2860205,0.5256939685509725,0.09599949250165984,-0.953336375263705,-2.069108776296434,0.1377749792286609,2.1375833456678213,-1.275378122740008,-0.0009309764870726388,-0.0016296267252650805,-0.00043550742476812087,0.0010904804553913522,0.0006121848019405772,-0.00011839368791605968,0.002955741116945916,0.2411382496356964,-21.72116470336914,-2.35798716545105,22.56842803955078,0.6801248788833618,2.2679946422576904,-0.06037749722599983,,,,,,,,,
1739402404.2960286,0.5256965775530645,0.09599959635231327,-0.9533345927093926,-2.0691066707730523,0.13777570991103807,2.137583339829694,-1.2753876969296791,-0.000729730269148502,-0.0018437398488344455,-0.0004693152693245201,0.0019128804392295202,-0.00017275581011854435,-0.0006625903823311037,-0.0025097044673396823,0.2173345386981964,-21.69339370727539,-2.38179087638855,22.54065704345703,0.6737161874771118,2.2679946422576904,-0.0072769103571772575,,,,,,,,,
1739402404.3060758,0.5256940070349744,0.09600607152428829,-0.9533364012797965,-2.0691087422691603,0.13777186511569994,2.137585618624031,-1.2753899662795245,-0.0018046060686474998,0.0009812846424120808,-0.0013064430775543653,0.000403515380151962,-0.0007150477227929144,0.000420278210455181,-0.003500123245856781,0.2411382496356964,-21.79654312133789,-2.35798716545105,22.56842803955078,0.6801248788833618,2.2487685680389404,0.012864691205322742,,,,,,,,,
1739402404.3170857,0.5256970461033239,0.0960008862855142,-0.9533325039823689,-2.0691068920431865,0.13777602046203144,2.1375833456438946,-1.275378476846951,0.00021590734209503263,0.00019776705867691902,0.000821076803118503,-0.0002126484036273406,8.255448761094474e-05,-0.00029417910518772793,0.0010662471656661657,0.2411382496356964,-21.72116470336914,-2.4095618724823,22.54065704345703,0.6801248788833618,2.2679946422576904,-0.06678618490695953,,,,,,,,,
1739402404.3280308,0.525696935984439,0.09600530576299646,-0.9533362732031258,-2.0691086658216347,0.13777622916992122,2.1375841033039733,-1.275383719364362,-0.0006236486191624023,0.0011029143457626496,-0.00019544719308525234,0.000788438097652064,0.0006835687548822438,-6.22778694059536e-05,6.321091751949136e-05,0.2411382496356964,-21.77273941040039,-2.35798716545105,22.56842803955078,0.6737161874771118,2.2615859508514404,-0.04756011441349983,,,,,,,,,
1739402404.338962,0.5256983324963164,0.0960090177115745,-0.9533345916206728,-2.0691132260914045,0.13777570158898414,2.1375841033039733,-1.27538197308706,0.00040419745170096186,0.0014488791626833162,-0.000311416091367203,-0.0015419113674291934,-0.0003259516449016027,6.989865022963546e-05,-0.0010405163470898163,0.1935308277606964,-21.82431411743164,-2.38179087638855,22.61603546142578,0.6737161874771118,2.2615859508514404,-0.04023589566349983,,,,,,,,,
1739402404.3491108,0.525700360062338,0.09600354403713754,-0.9533326808385871,-2.06911444895755,0.137776459444769,2.1375841033039733,-1.275384703734202,0.0013279211846607853,-0.0011319024203488447,0.0005315827186057156,-0.0014660561945095416,-0.0005515263840157248,9.703457443525085e-05,-0.0015659607767570442,0.1935308277606964,-21.74496841430664,-2.38179087638855,22.66364288330078,0.6673074960708618,2.2615859508514404,-0.013685601763427258,,,,,,,,,
1739402404.3600464,0.5256982525679287,0.09601143933948865,-0.9533359822549016,-2.069112865490298,0.13777693576103417,2.1375836988566044,-1.2753861879260964,-0.0002715530702673242,0.0010757203534806894,-0.00045925759825219873,-0.00027195999277952363,0.00035147184140551943,0.00027216349560499635,-0.0006123499111042661,0.1935308277606964,-21.84811782836914,-2.38179087638855,22.63983917236328,0.6737161874771118,2.2679946422576904,-0.020094294100999832,,,,,,,,,
1739402404.370981,0.5256956287001247,0.09600995510579395,-0.9533307209563191,-2.0691114685993033,0.13777506392448688,2.1375824796934917,-1.2753797556045594,-0.0010491785383114618,0.00029625574473071697,0.0012188943776754763,0.0006015397247992969,-0.00021051067241896493,-0.0005192151222620351,0.0011512789583411468,0.2173345386981964,-21.82431411743164,-2.4333655834198,22.59223175048828,0.6801248788833618,2.2753188610076904,-0.04756011441349983,,,,,,,,,
1739402404.3809886,0.5257001347098081,0.09601420584555075,-0.9533325128120735,-2.069110417183591,0.1377717994115925,2.1375841033039706,-1.275383118741251,-3.6356791033781706e-05,0.0001771905586864958,1.5404967654544902e-05,0.0007970219421062122,-0.00278017434708005,-0.0002772799479882934,0.00033132854351254425,0.1935308277606964,-21.89969253540039,-2.4095618724823,22.61603546142578,0.6801248788833618,2.2615859508514404,-0.05396880581974983,,,,,,,,,
1739402404.3909907,0.5256999983292165,0.09601380242080483,-0.9533345927093929,-2.0691132342694973,0.1377724571427468,2.1375848609640515,-1.2753882002379084,0.0013634804046234056,0.002135363393508864,-0.0009140965589638934,0.000550011996605355,0.0004141668375197286,0.000790021526322082,-0.0026726784070501674,0.1697271168231964,-21.84811782836914,-2.38179087638855,22.61603546142578,0.6865335702896118,2.2551772594451904,0.012864691205322742,,,,,,,,,
1739402404.4019709,0.5256963174820831,0.09601444215806178,-0.9533325115043453,-2.0691132260620737,0.13777653840493248,2.1375817222480893,-1.2753828999854786,-0.0011891412101003858,0.001328252357117276,1.1277796738036732e-06,0.00031114716735727453,0.0016535566752687247,-0.00121851801982488,0.0011736512017097196,0.2173345386981964,-21.89969253540039,-2.4095618724823,22.61603546142578,0.6801248788833618,2.2817275524139404,-0.020094294100999832,,,,,,,,,
1739402404.4129508,0.5256964211611669,0.09600879059217816,-0.9533383753463762,-2.0691115709690355,0.1377760088911338,2.137583350004546,-1.2753800506889956,0.000340646798736582,-0.0008737342256244232,-0.0003664709348729756,0.00034251838970355923,-0.0009541333594399837,-6.61948568971201e-05,0.0005751192092069278,0.2173345386981964,-21.82431411743164,-2.35798716545105,22.59223175048828,0.6801248788833618,2.2679946422576904,-0.07411040365695953,,,,,,,,,
1739402404.4229836,0.525698422229338,0.09600734781868675,-0.9533332119809753,-2.0691110919564966,0.1377733352262836,2.1375824797468836,-1.2753823386613183,0.0006912164688767707,-0.0002755906193053592,-0.00032458725932626683,-0.0005566189049702984,-9.256636923757414e-05,-0.0007146538216900315,0.0008759142777287621,0.2173345386981964,-21.79654312133789,-2.4095618724823,22.59223175048828,0.6801248788833618,2.2753188610076904,-0.03382720425724983,,,,,,,,,
1739402404.4330664,0.5256997605899864,0.09600901916025557,-0.9533345837760245,-2.0691150399157157,0.13777562066826604,2.1375824798004976,-1.2753847022618494,0.0006496378509933105,0.0006429314217713432,-0.0006235829939368652,-0.00012800666699675937,-0.0010170673584495782,-0.0002864276943532493,0.0002610391300758761,0.1935308277606964,-21.82431411743164,-2.38179087638855,22.63983917236328,0.6865335702896118,2.2753188610076904,-0.013685601763427258,,,,,,,,,
1739402404.4439955,0.5256965737492979,0.09600601732982665,-0.9533324774912191,-2.069109694756234,0.1377729842198985,2.1375833456438946,-1.2753820389104438,0.0006079645108539797,-0.000519736050634236,0.0013862120898669894,-0.0003086792929108478,-0.0007786516156311756,-0.0006257665085815329,-0.0008068496783836572,0.2173345386981964,-21.77273941040039,-2.4095618724823,22.56842803955078,0.6801248788833618,2.2679946422576904,-0.04023589566349983,,,,,,,,,
1739402404.45402,0.5257001328318675,0.096002493374369,-0.9533352946108616,-2.0691076111871642,0.1377747503831537,2.1375856186241298,-1.2753828981173976,0.0012292796317714863,-0.0007571080924564505,-0.0006285394477437971,-0.0001989474164873929,-0.001803718883314837,6.036999708077591e-05,-0.001336618618873491,0.1935308277606964,-21.74496841430664,-2.38179087638855,22.54065704345703,0.6938577890396118,2.2487685680389404,-0.020094294100999832,,,,,,,,,
1739402404.465025,0.5256959407557774,0.09600530771868553,-0.9533345811509517,-2.069103065577605,0.13777491493807875,2.1375833456438946,-1.2753847947461558,-0.0010627596239710124,0.0008856594414299343,0.0005092552068034521,0.001778243136569223,0.00035352665649711346,-0.0007420616159281048,-0.0006996408707004673,0.2173345386981964,-21.77273941040039,-2.38179087638855,22.51685333251953,0.6938577890396118,2.2679946422576904,-0.0072769103571772575,,,,,,,,,
1739402404.475962,0.5256987313052885,0.09600117002167488,-0.9533325128124753,-2.0691123124175945,0.13777561683999218,2.1375856186241298,-1.2753773650806022,-0.0006986616759311784,-0.0017103308886796803,0.0009002226762840616,-0.0003932491616018271,-0.0004635694773160934,0.00047089667051301815,0.002261013018769421,0.2173345386981964,-21.74496841430664,-2.4095618724823,22.61603546142578,0.6865335702896118,2.2487685680389404,-0.06678618490695953,,,,,,,,,
1739402404.486038,0.5256965646580292,0.0960021456507472,-0.9533346187343056,-2.0691096908559916,0.13777578076084002,2.137583448113212,-1.2753773648630382,-4.923923880314644e-05,-0.00016463807372834563,0.0013780673248504787,2.345590780397785e-05,0.0004441131168146752,-0.0010017888169669312,0.004321228012939456,0.2173345386981964,-21.74496841430664,-2.4095618724823,22.56842803955078,0.6865335702896118,2.2551772594451904,-0.06678618490695953,,,,,,,,,
1739402404.4969523,0.5256980171630717,0.09600401645258431,-0.9533387757525117,-2.069111476173504,0.13777810371487914,2.137587286786377,-1.2753883368521837,0.0008958040144320834,0.00028378829441613534,-0.0013621675916113537,-0.0009651759279939087,0.0006327287570267482,0.0012292329605849055,-0.0019317677069027994,0.1935308277606964,-21.74496841430664,-2.3302161693573,22.59223175048828,0.6938577890396118,2.2615859508514404,-0.0008682189509272575,,,,,,,,,
1739402404.5070224,0.5256973165145705,0.09601001084877776,-0.9533345926078263,-2.069109102186791,0.13777653847769783,2.137583345697807,-1.2753893986437208,0.0005711049520762805,0.0014706444046025655,-0.00045174955785979285,0.0009165431441648069,0.00022031798194642292,-0.000310867131627109,-0.003422757818570857,0.1935308277606964,-21.84811782836914,-2.38179087638855,22.59223175048828,0.6801248788833618,2.2679946422576904,-0.0008682189509272575,,,,,,,,,
1739402404.517056,0.5256959434848784,0.09601041231740437,-0.9533345926023955,-2.069111451883238,0.13777729413359374,2.137584103303974,-1.2753812764919756,0.0006342352853473634,-0.00015065498382272789,-0.0004993288208741907,-0.0004273014958008285,-0.00010892613397423507,-0.000592823659790687,-0.001273728646576136,0.2173345386981964,-21.84811782836914,-2.38179087638855,22.59223175048828,0.6737161874771118,2.2615859508514404,-0.03382720425724983,,,,,,,,,
1739402404.5280192,0.525697326705029,0.09601074139795755,-0.9533345926023955,-2.0691123417570987,0.13777636290749118,2.1375841033039733,-1.2753830793444552,-0.0014558475906160588,0.0005884746056619853,-7.653010580666523e-05,-0.0004913560555626975,-0.0005512687520634431,0.00023742557002636182,-0.000496244263442834,0.1935308277606964,-21.84811782836914,-2.38179087638855,22.61603546142578,0.6801248788833618,2.2615859508514404,-0.027418512850999832,,,,,,,,,
1739402404.5380507,0.525694238026544,0.0960127591483676,-0.9533307213052031,-2.0691132600636313,0.13777578075469893,2.1375833437058276,-1.2753805830771472,-0.0006119303364618925,0.0008431275056393271,0.000420573984236641,-0.0002917180051776778,-0.00031483723779581054,-0.0005940501677143778,0.001510178521869292,0.2411382496356964,-21.87192153930664,-2.4333655834198,22.61603546142578,0.6865335702896118,2.2679946422576904,-0.06678618490695953,,,,,,,,,
1739402404.5489964,0.5256995033290804,0.09601244434447606,-0.9533325124854745,-2.0691182029938946,0.13777896961211153,2.137583345643891,-1.2753855174552788,0.00022672458639555514,-0.0007072574703097147,0.00018902080956834658,-0.002637259745910923,0.0006824741766417132,-3.121296914051399e-05,-0.0017893106078068995,0.1935308277606964,-21.87192153930664,-2.4095618724823,22.66364288330078,0.6865335702896118,2.2679946422576904,-0.0008682189509272575,,,,,,,,,
1739402404.5590327,0.5256956377232039,0.09600910081159943,-0.9533325128125344,-2.0691132599236597,0.13777302686841106,2.137582484107313,-1.2753815633842793,0.00013133135805219815,-0.00035753646218321676,0.00041315791978153613,0.000756616204347977,-0.000775836531249806,-0.00021377777630491934,0.0014581880159960214,0.2173345386981964,-21.82431411743164,-2.4095618724823,22.61603546142578,0.6737161874771118,2.2753188610076904,-0.04023589566349983,,,,,,,,,
1739402404.5699508,0.5256993399585932,0.09601285757952287,-0.95333251281254,-2.0691114745988437,0.13777881262720748,2.1375848609641253,-1.2753837652183215,0.0011209668755574594,0.0006851684561815982,0.0004692049796872673,-0.00027270754865987205,-0.0002955606386405721,7.338248780479524e-06,0.0009973543177749207,0.1697271168231964,-21.84811782836914,-2.4095618724823,22.59223175048828,0.6608988046646118,2.2551772594451904,-0.013685601763427258,,,,,,,,,
1739402404.5800986,0.5256977869491869,0.09601144239573237,-0.9533345926023955,-2.0691113640563024,0.13777916666439838,2.1375841033039733,-1.2753792377581876,0.0007028533731763286,0.00030791526848179883,0.000840489784949325,-0.00024204200418891003,-0.00025206912922961437,-0.0003141048008170523,0.0019605423223805103,0.2173345386981964,-21.84811782836914,-2.38179087638855,22.59223175048828,0.6938577890396118,2.2615859508514404,-0.05396880581974983,,,,,,,,,
1739402404.591058,0.525697428117019,0.09601070545617964,-0.9533315326472703,-2.0691096566487945,0.1377774083647345,2.13758565866105,-1.275380542986591,-0.0006188233693325772,0.0015050919729754112,0.0012974295117377048,0.0008821909402368771,0.0009299529129438904,0.0004886726630086745,0.0010372085622593768,0.1935308277606964,-21.84811782836914,-2.4095618724823,22.56842803955078,0.6737161874771118,2.2753188610076904,-0.04023589566349983,,,,,,,,,
1739402404.602008,0.5256966196023707,0.09600331075582656,-0.9533345896534231,-2.0691132346002665,0.13777653837015658,2.1375848609819963,-1.275385217657566,0.00011618574455277825,-0.0012554899975405266,1.115551595795637e-05,-0.00020105696196137288,-0.00013625778662179738,0.00015279954180825433,-0.0019165372712511854,0.2173345386981964,-21.74496841430664,-2.38179087638855,22.61603546142578,0.6801248788833618,2.2551772594451904,-0.04023589566349983,,,,,,,,,
1739402404.6130278,0.5256974205456082,0.09600160698379895,-0.953334826605799,-2.0691103835208904,0.13777578076361577,2.1375851629421025,-1.275380674531908,0.0006539230150837839,-0.0010761418397841843,0.0002983978533010189,0.0007619680979062968,-0.0005755399804008624,-8.75528608038138e-05,0.000686630722122031,0.1935308277606964,-21.72116470336914,-2.38179087638855,22.56842803955078,0.6865335702896118,2.2615859508514404,-0.04023589566349983,,,,,,,,,
1739402404.623986,0.5256996584990986,0.09600331075602397,-0.9533324468365045,-2.0691112475339604,0.13777578076361607,2.137583345649876,-1.275385214697373,0.0009253219924504227,0.0003448837578680912,0.0010311088253908511,-0.0003493038881163241,-0.0003453036210686631,-0.0007609352248877251,1.0413769125287557e-05,0.1935308277606964,-21.74496841430664,-2.38179087638855,22.59223175048828,0.6865335702896118,2.2679946422576904,-0.04023589566349983,,,,,,,,,
1739402404.6350207,0.5256984891008413,0.09600522959189785,-0.9533363751340596,-2.0691069261977173,0.13777654474209564,2.1375841033039733,-1.2753804633402546,0.000387259137300577,0.00031958769062214815,-0.0005544107512211751,0.0008004916070822625,0.0004165485031379228,0.00013646360602682605,2.9726392433512545e-05,0.2173345386981964,-21.77273941040039,-2.35798716545105,22.54065704345703,0.6801248788833618,2.2615859508514404,-0.05396880581974983,,,,,,,,,
1739402404.6459615,0.5256956064602114,0.09600530030309906,-0.9533357449588608,-2.069109402634352,0.13777884528815396,2.1375841164397604,-1.2753790110052519,-0.00021624598659776242,0.00025240129537990806,0.00021827191946321701,0.0004319833895772677,0.0006751265472813688,0.0006742382338870703,0.0013881864419268643,0.2173345386981964,-21.77273941040039,-2.38179087638855,22.59223175048828,0.6865335702896118,2.2615859508514404,-0.05396880581974983,,,,,,,,,
1739402404.6560364,0.525695628912421,0.0960053086966855,-0.9533336389475944,-2.0691084923308205,0.1377794705742021,2.1375841033041953,-1.2753852037910227,0.00016851088534706413,0.0002544339404291502,0.001650965105539769,0.0002403251655982673,0.002170436159682423,9.651369034315374e-05,-0.0009944015727554963,0.2173345386981964,-21.77273941040039,-2.38179087638855,22.59223175048828,0.6673074960708618,2.2615859508514404,-0.027418512850999832,,,,,,,,,
1739402404.666074,0.5256990362996846,0.0960070248882779,-0.9533345925862453,-2.0691147332946787,0.1377765389337194,2.137582480231179,-1.2753805502915796,0.0007081514265441556,-0.0005640848648909509,0.00015693788642573696,5.192872240211211e-05,-0.00038573158286734103,-0.0006817861994917957,-0.0008302935299225379,0.1697271168231964,-21.79654312133789,-2.38179087638855,22.66364288330078,0.6801248788833618,2.2753188610076904,-0.06678618490695953,,,,,,,,,
1739402404.6770046,0.5256993409566899,0.09601074042771934,-0.9533345955269923,-2.069113946028839,0.1377797272721928,2.1375859225402505,-1.2753789377345317,0.0009311242267646886,0.0010591351660802308,-8.536794536603137e-05,0.00018665317589039134,0.0014276251928395643,0.00010014416862243693,-0.0002103342528894704,0.1697271168231964,-21.84811782836914,-2.38179087638855,22.61603546142578,0.6801248788833618,2.2551772594451904,-0.08051909506320953,,,,,,,,,
1739402404.6880124,0.5256962301418888,0.09600925536946096,-0.9533346966039321,-2.0691150427911795,0.1377772961017739,2.137584860970044,-1.2753834450110535,5.23745061789321e-06,0.0007245993908305189,-0.00024448824541658333,-0.0007286794513551658,0.000760781138614947,0.00026990084627503486,-0.0013141381130330016,0.2411382496356964,-21.82431411743164,-2.38179087638855,22.63983917236328,0.6737161874771118,2.2551772594451904,-0.027418512850999832,,,,,,,,,
1739402404.698977,0.525700201167107,0.09601467835306043,-0.9533364908372463,-2.06911663839241,0.13778048493226833,2.137584865324702,-1.2753882343909158,0.00145422056513959,0.00149244529012937,-0.0011945103416532185,-0.0012020868011044727,0.0006065033868058869,0.00014667025966328364,-0.003043673843379123,0.1935308277606964,-21.89969253540039,-2.35798716545105,22.66364288330078,0.6737161874771118,2.2551772594451904,-0.013685601763427258,,,,,,,,,
1739402404.708983,0.5256984900730085,0.09601155404736442,-0.953334591623206,-2.0691132601071205,0.13778083946478145,2.137584103304047,-1.2753863418514804,0.0009464744930813034,0.0016258083374884216,0.0003395127837707065,-0.0003340374953299417,0.001758204580331161,0.0002542463637875865,-0.0030470887932726905,0.2173345386981964,-21.84811782836914,-2.38179087638855,22.61603546142578,0.6737161874771118,2.2615859508514404,-0.0008682189509272575,,,,,,,,,
1739402404.719032,0.5256958743064051,0.09601527874579713,-0.9533366986331608,-2.069114682640554,0.13777805542396143,2.1375833456438946,-1.2753796398009458,-0.0005713009387015424,0.0011060341085890268,-0.0008764500691551193,0.0002821950349656781,0.00021138392940051184,-0.00042765138121959113,0.0012259191435612122,0.2173345386981964,-21.87192153930664,-2.38179087638855,22.66364288330078,0.6673074960708618,2.2679946422576904,-0.04756011441349983,,,,,,,,,
1739402404.7301223,0.5256956401486215,0.09601364500014233,-0.9533307036921221,-2.0691168254172374,0.1377830632019329,2.1375833456438946,-1.2753836607062754,-0.00032934261361454995,0.00020043363938820923,0.0012027447576326974,0.00019094471919016905,0.0008135697810697123,-0.0004723043997645034,0.0015781686538150603,0.2173345386981964,-21.84811782836914,-2.4333655834198,22.66364288330078,0.6608988046646118,2.2679946422576904,-0.013685601763427258,,,,,,,,,
1739402404.7410316,0.5256939247376373,0.09600607197484708,-0.9533345925659075,-2.069108776298226,0.13777479056641573,2.1375841033039733,-1.2753836891686101,-0.0018185208492995043,-0.0009833096705643058,-0.00021435915876773787,0.0002670521802052407,-0.0008281502097938871,3.279389242932594e-05,0.000509950110467597,0.2411382496356964,-21.79654312133789,-2.38179087638855,22.56842803955078,0.6938577890396118,2.2615859508514404,-0.04023589566349983,,,,,,,,,
1739402404.7520173,0.5256956055157758,0.09600733896787352,-0.9533325388129198,-2.069111171310403,0.13777578270703783,2.1375833456438946,-1.275382104659695,8.479582113450215e-05,0.0009915690058372607,0.0009178581238073583,-1.4939831868819164e-05,-0.000419905571360598,-0.0009836033245535162,-0.0006114017280984983,0.2173345386981964,-21.79654312133789,-2.4095618724823,22.59223175048828,0.6865335702896118,2.2679946422576904,-0.05396880581974983,,,,,,,,,
1739402404.7630143,0.5256980219103445,0.09600733617093953,-0.9533307301359613,-2.0691114774280854,0.13777491907817938,2.137587282218361,-1.2753778883572355,0.0003471269954428392,0.0006455724500256959,0.0004125266685494648,0.0004755491190603382,-0.0015506667015302315,0.0001998576073931569,0.001080180477478195,0.2173345386981964,-21.79654312133789,-2.4333655834198,22.59223175048828,0.6938577890396118,2.2615859508514404,-0.06678618490695953,,,,,,,,,
1739402404.7739732,0.5256956035585126,0.0960056233318859,-0.9533297735177653,-2.0691132597953525,0.13777491464970495,2.137583463387446,-1.275382938874368,-0.0003178670990135503,0.0012448144100537576,0.0017308630788711945,-0.0023001665107058363,-0.0015944379810774604,0.0003214834299276113,0.0011207104065743107,0.2173345386981964,-21.77273941040039,-2.4333655834198,22.61603546142578,0.6938577890396118,2.2679946422576904,-0.04756011441349983,,,,,,,,,
1739402404.7840521,0.5256956372581729,0.0960017261987157,-0.9533345131133354,-2.069105798276295,0.1377781708727432,2.1375848609660455,-1.2753774174082522,0.0001257453791359999,-0.00025267850668879237,0.0002988626100220975,0.0008286278782575424,-0.0006074516099102069,1.0320129323749554e-05,0.0022785478667577772,0.2173345386981964,-21.69339370727539,-2.38179087638855,22.51685333251953,0.6673074960708618,2.2551772594451904,-0.06678618490695953,,,,,,,,,
1739402404.7949476,0.5256958485783133,0.09600710000256181,-0.953332486321138,-2.069111477118142,0.13777618300406638,2.1375852534226176,-1.2753809138030332,-0.000888278210672489,0.0010860274747389518,0.0011532446482317414,-0.0005286093479737207,-0.0011630411129289113,9.659179616612032e-05,0.0019686238109831973,0.2173345386981964,-21.79654312133789,-2.4095618724823,22.59223175048828,0.6801248788833618,2.2551772594451904,-0.04023589566349983,,,,,,,,,
1739402404.8060534,0.5257002396771445,0.09600525583889871,-0.9533364532801061,-2.0691132968528034,0.13777727901216533,2.137583345650541,-1.275388251993919,0.0014429023367032977,0.000572396506968876,-0.0001539657631683696,-0.00043009568135117494,-0.00018166033010406972,-0.0006884428790279158,-0.0023171696260688773,0.1935308277606964,-21.77273941040039,-2.35798716545105,22.61603546142578,0.6737161874771118,2.2679946422576904,-0.013685601763427258,,,,,,,,,
1739402404.8170571,0.5256983551203056,0.09600530999281048,-0.9533363753152272,-2.069107614931471,0.13777712747944182,2.137584900209908,-1.275382075990637,0.0007386904363919504,0.0004451156142667165,0.00032572043314990976,0.0004630788325981672,-0.000333634788064577,0.0008292669338006334,0.0006116210413663315,0.1935308277606964,-21.77273941040039,-2.35798716545105,22.54065704345703,0.6801248788833618,2.2551772594451904,-0.027418512850999832,,,,,,,,,
1739402404.8279831,0.5256973165442179,0.096006309273198,-0.9533325137755172,-2.0691132572758653,0.13777172920993927,2.137583334015714,-1.2753838548197223,-0.0006159243007306944,-0.00014932406462275094,0.0016386419409050693,-7.627599291468602e-05,-0.0005902986596124432,-0.0007529645770889215,-0.0014219906012944447,0.1935308277606964,-21.79654312133789,-2.4095618724823,22.61603546142578,0.6938577890396118,2.2679946422576904,-0.04023589566349983,,,,,,,,,
1739402404.8390262,0.5256963394110886,0.09600702218560163,-0.95333637527942,-2.0691132601102726,0.13777577614104147,2.1375857109887937,-1.2753844405487855,-0.00017564415615718888,-0.0007410498739457351,-0.0005638735932868643,0.0003951258389651802,-0.000662328987788767,0.00010142939934630586,-0.00035551120447981587,0.2173345386981964,-21.79654312133789,-2.35798716545105,22.61603546142578,0.6865335702896118,2.2753188610076904,-0.03382720425724983,,,,,,,,,
1739402404.8490388,0.5256996638501444,0.09600841219675944,-0.95333251281254,-2.0691132601102886,0.13777729754163048,2.137584103952654,-1.2753775650641668,-0.00021905587076166214,-0.000555343706923709,0.000983460928353202,-0.000275923033566393,0.0010915672295791193,-0.0006945760564273393,6.173611877393248e-05,0.1935308277606964,-21.82431411743164,-2.4095618724823,22.61603546142578,0.6737161874771118,2.2615859508514404,-0.07411040365695953,,,,,,,,,
1739402404.8599439,0.525693927630776,0.09601245672702306,-0.9533394288796019,-2.0691160406792317,0.13777700889551658,2.1375849787016223,-1.2753800324029743,-2.2376924837530076e-05,0.0008226810125218939,-0.0014644585425162516,-0.0009659418755688184,0.000999369320087038,0.0005473677064740818,-0.0013577221794006697,0.2411382496356964,-21.87192153930664,-2.35798716545105,22.61603546142578,0.6801248788833618,2.2551772594451904,-0.04756011441349983,,,,,,,,,
1739402404.8700066,0.5256958378790089,0.09600736273545775,-0.9533307301872339,-2.069116836849108,0.13777805520991115,2.137584861450562,-1.275379037657376,-0.00037440456746519067,0.00032264275634193027,0.00017843585887295627,-0.0013511346132906756,0.0003710480792572375,0.0004258970465153191,0.0009773478402019947,0.2173345386981964,-21.79654312133789,-2.4333655834198,22.66364288330078,0.6673074960708618,2.2551772594451904,-0.05396880581974983,,,,,,,,,
1739402404.8809676,0.5256956116870944,0.09601209875989782,-0.9533345964543039,-2.0691150427873715,0.13777665604165754,2.1375849003714165,-1.2753884734867957,-0.0008412628741671009,0.0003562597638942388,-0.0008737964323856117,-0.0006686265933984898,-0.00011753011632407404,0.00011177625989113114,-0.002468073057133936,0.2173345386981964,-21.82431411743164,-2.38179087638855,22.63983917236328,0.6801248788833618,2.2551772594451904,-0.0008682189509272575,,,,,,,,,
1739402404.89105,0.5256977346222993,0.09600702137771902,-0.9533325214793985,-2.069113256331058,0.13777578076560792,2.137584142550497,-1.2753797692030173,0.0003207443862968621,-0.0013656778604131865,-0.00022975339604750303,6.209509609289473e-05,-0.00010403514996707374,-0.0005294104422448662,1.575396036483869e-05,0.2173345386981964,-21.79654312133789,-2.4095618724823,22.61603546142578,0.6865335702896118,2.2615859508514404,-0.04756011441349983,,,,,,,,,
1739402404.9020543,0.5256956412531683,0.09600901915841462,-0.9533353951142918,-2.069109673970418,0.1377774141892726,2.1375896729368304,-1.2753803330731754,-0.00014736540405893648,0.0003132613849365703,-0.0009763734341782025,0.0014063682904169993,0.00038472376718941937,0.001402177603631814,0.001480925623740269,0.2173345386981964,-21.82431411743164,-2.35798716545105,22.56842803955078,0.6737161874771118,2.2423598766326904,-0.08051909506320953,,,,,,,,,
1739402404.9120781,0.5256963318858116,0.09600702251364114,-0.9533345925968624,-2.0691114774331525,0.13777654036848458,2.137583384908361,-1.2753838765827727,0.00012324954756885736,2.0259085905793828e-05,3.682819909918062e-05,0.0003886007885545874,-0.0012333529561700395,-0.000280971827198546,-0.0009060755299472029,0.2173345386981964,-21.79654312133789,-2.38179087638855,22.59223175048828,0.6801248788833618,2.2679946422576904,-0.04756011441349983,,,,,,,,,
1739402404.923009,0.5257014726352618,0.09600796703362653,-0.9533345926023955,-2.0691046303189973,0.13777760137320388,2.137584457162927,-1.2753799910794668,0.0020588676574092952,0.000772003857822356,0.0003534865357592331,0.0019466799041453445,-0.00016905013707720252,-9.591521695602047e-05,0.0019673035600928706,0.1697271168231964,-21.79654312133789,-2.38179087638855,22.54065704345703,0.6801248788833618,2.2615859508514404,-0.04756011441349983,,,,,,,,,
1739402404.9339402,0.5256962649280931,0.09600530624038431,-0.9533391833204572,-2.0691096182099815,0.13777729608977313,2.137583397973701,-1.275384221708372,0.0005007560918269288,0.0006297867303499741,-0.00030461304434265625,0.001031133719440508,-0.0003473429712353089,-0.0002830224525137938,0.00025209956473720165,0.2411382496356964,-21.77273941040039,-2.35798716545105,22.56842803955078,0.6737161874771118,2.2679946422576904,-0.0072769103571772575,,,,,,,,,
1739402404.9440389,0.5256967772226278,0.09600530869678604,-0.9533363757549588,-2.0691096947549537,0.13777765040027234,2.1375836988574903,-1.2753824930386908,0.0008121812714165244,0.00037221881403570544,-0.0002727698535737133,-0.0008450829988168613,0.0004252862510404237,-0.0009327707344372132,-0.0004224728674398651,0.2411382496356964,-21.77273941040039,-2.35798716545105,22.56842803955078,0.6737161874771118,2.2679946422576904,-0.03382720425724983,,,,,,,,,
1739402404.9540887,0.525697230414271,0.09600334575019676,-0.9533362298292066,-2.069109375866098,0.13777578076961644,2.137583345649876,-1.275379239715036,-0.00018531543796202838,-0.0003313285544071904,-0.0005182665992307333,0.001374736574502524,-0.0008197322940499431,0.001547069521405656,0.0013707433588591134,0.2173345386981964,-21.74496841430664,-2.3302161693573,22.59223175048828,0.6865335702896118,2.2679946422576904,-0.05396880581974983,,,,,,,,,
1739402404.9640923,0.5256963047358086,0.09600701828833925,-0.9533304487516753,-2.0691150426467386,0.13777684371311466,2.1375859718368395,-1.2753792348550994,-0.00027495713895832075,-8.274367638387082e-05,0.0012777556818724378,-0.0008227170126647402,0.0005574126640265924,0.001113595907073502,0.0006236580728167162,0.2173345386981964,-21.79654312133789,-2.4095618724823,22.63983917236328,0.6865335702896118,2.2487685680389404,-0.05396880581974983,,,,,,,,,
1739402404.975007,0.525695836598367,0.09600529697756226,-0.9533346041101295,-2.0691105053660874,0.13777653842969478,2.1375842212050427,-1.275385252975234,-0.0006322927876484145,-0.001271682610314281,-0.00034344298507819144,0.0007543746061259237,-1.697520664158193e-05,-0.000449195758321736,-0.002667258263010695,0.2173345386981964,-21.77273941040039,-2.38179087638855,22.61603546142578,0.6801248788833618,2.2615859508514404,-0.04023589566349983,,,,,,,,,
1739402404.9860191,0.5256934568607581,0.09600901915834574,-0.9533363752794796,-2.069113260094738,0.13777729602960112,2.1375849787022867,-1.2753842877768757,-0.0016739444841025121,-8.758862403548571e-05,-0.0007623446913181619,0.00012823567600603805,0.0008888998863723022,-0.0001291272114733331,-0.002167235517428652,0.2173345386981964,-21.82431411743164,-2.35798716545105,22.61603546142578,0.6737161874771118,2.2551772594451904,-0.04756011441349983,,,,,,,,,
1739402404.9960337,0.5256956026616425,0.09600910178365869,-0.9533345926023955,-2.0691147591699743,0.13777729608377182,2.1375856186261237,-1.2753851980533533,-0.00021005307737287534,0.001195507844144265,0.0007252097838181558,-0.0010734899400969685,0.0011956155885368474,-0.00023108089992717796,-0.001004881518154552,0.2173345386981964,-21.82431411743164,-2.38179087638855,22.66364288330078,0.6737161874771118,2.2487685680389404,-0.027418512850999832,,,,,,,,,
1739402405.0060368,0.5256938900702531,0.09600709995595799,-0.9533326164870112,-2.0691189052191894,0.13777579404845966,2.137584221041543,-1.2753806752968035,-0.0014304379038492616,-0.00109576962737481,0.0005460276764817425,-0.0018971869424530762,-0.0008469069714362444,0.0003619840298756667,0.0021484458767313513,0.2411382496356964,-21.79654312133789,-2.4095618724823,22.69141387939453,0.6865335702896118,2.2615859508514404,-0.06678618490695953,,,,,,,,,
1739402405.017072,0.5256939161776294,0.09601275914831832,-0.9533307561364862,-2.0691132571708866,0.13777655154660273,2.1375824928292793,-1.2753792345072983,-0.0006255626365814313,0.0014617068489357274,0.0013872791298264247,-0.00011733354599603919,0.0004530565883056537,0.00045287133635414607,0.0007806394949753379,0.2411382496356964,-21.87192153930664,-2.4333655834198,22.61603546142578,0.6801248788833618,2.2753188610076904,-0.06037749722599983,,,,,,,,,
1739402405.0279517,0.5256956112935897,0.09601444214250524,-0.9533324384330024,-2.0691132601102717,0.13777613508018965,2.1375851629421763,-1.275387593733885,-6.11606240299727e-05,0.001594112830915954,0.0006735769922568966,0.00043182164278305756,0.0002565885240737326,0.0005892108333436718,-0.002263159622004224,0.2173345386981964,-21.89969253540039,-2.38179087638855,22.61603546142578,0.6865335702896118,2.2615859508514404,-0.0072769103571772575,,,,,,,,,
1739402405.0380204,0.5256947076379046,0.0960090288790292,-0.953330367008847,-2.069111194760744,0.13777699251130276,2.1375841047754682,-1.275379644357134,0.0003334904719939322,-0.00024276676716984832,-0.0005349962549948561,0.0003481242750079123,0.0019957812141049563,-0.00016704193503743665,0.0002600284736318737,0.2411382496356964,-21.82431411743164,-2.4095618724823,22.61603546142578,0.6673074960708618,2.2615859508514404,-0.04756011441349983,,,,,,,,,
1739402405.0490127,0.525699456777262,0.09600488538450926,-0.9533338770074962,-2.0691138723339932,0.13777785069039555,2.1375833456439026,-1.2753847071009725,0.0002463604371406259,-0.0015040766221845476,-0.0002981502476219777,-0.0004913402520162822,-0.0008185589951975295,0.00014672816644335047,-0.0009369005485992483,0.1935308277606964,-21.79654312133789,-2.38179087638855,22.61603546142578,0.6865335702896118,2.2679946422576904,-0.013685601763427258,,,,,,,,,
1739402405.0600266,0.5256987342400663,0.09600894000525474,-0.953336375275375,-2.0691150427907634,0.13777729696016755,2.1375841033039733,-1.2753773827961634,0.001320202654595187,5.4218537616479304e-05,-0.0006486687261164038,-0.0009676893283180491,2.918887825236838e-05,0.0013889418317902483,0.0011319272335393333,0.2173345386981964,-21.82431411743164,-2.35798716545105,22.63983917236328,0.7066751718521118,2.2615859508514404,-0.06678618490695953,,,,,,,,,
1739402405.070056,0.5256972366548665,0.09600538743248706,-0.9533325128125398,-2.0691133366397088,0.13777882896704358,2.1375841033039733,-1.275384132625881,-7.51942618634779e-05,-0.0006976362137801543,0.0007088920490306129,-0.001216689595336426,0.0009938505295811189,-0.00037999227777249696,0.0007328183552238938,0.1935308277606964,-21.77273941040039,-2.4095618724823,22.61603546142578,0.6608988046646118,2.2615859508514404,-0.013685601763427258,,,,,,,,,
1739402405.0810115,0.5256990364414592,0.09600996400285502,-0.9533420204233083,-2.0691132601107203,0.13777643312720056,2.1375847643089343,-1.2753836289341705,9.004980819556866e-05,0.0017462894974691133,-0.002595360891787039,-0.0011744879340163722,-0.0010128911123443987,-0.00033537739266059304,0.0004740996580964448,0.1697271168231964,-21.82431411743164,-2.2826087474823,22.61603546142578,0.6801248788833618,2.2679946422576904,-0.05396880581974983,,,,,,,,,
1739402405.0910232,0.5256956026981298,0.09600607197440232,-0.9533384852691021,-2.069109411138917,0.137778889777191,2.137584861472593,-1.2753796596517255,-0.0015653007179840435,0.00020099283124467042,-0.00025149037315306795,-0.00039187004267262086,0.0026753894067216917,-0.0005538545838172971,0.0003286169922485488,0.2173345386981964,-21.79654312133789,-2.35798716545105,22.59223175048828,0.6737161874771118,2.2551772594451904,-0.06037749722599983,,,,,,,,,
1739402405.1019382,0.5256990376902063,0.09600614528261206,-0.9533363839581188,-2.0691114774216053,0.1377765403768143,2.137584860964054,-1.2753784440520166,0.0013736891199819946,-8.773843695595413e-05,0.0006856140304759232,-0.0009471286455124702,0.00011008595460067364,-7.648372865504306e-06,0.0011357839938872442,0.1697271168231964,-21.74496841430664,-2.35798716545105,22.59223175048828,0.6801248788833618,2.2551772594451904,-0.06678618490695953,,,,,,,,,
1739402405.1120195,0.5256938942433228,0.09600159524492258,-0.9533345926025425,-2.0691090058864874,0.13777657340432262,2.1375841033039733,-1.2753786346751521,-6.986929622815685e-05,-0.0018095682168370107,0.0004769361859613467,0.0017642308022479737,-0.000900704129662545,-0.00088568984986053,0.0007352921733983277,0.2411382496356964,-21.72116470336914,-2.38179087638855,22.56842803955078,0.6801248788833618,2.2615859508514404,-0.06037749722599983,,,,,,,,,
1739402405.1220486,0.5256959405959941,0.09600670479778901,-0.9533346187097729,-2.069111170044178,0.1377780537444435,2.1375849003714134,-1.2753820983516688,-7.271256671665142e-05,0.00020689090805957398,-0.0007175866445327943,0.00042002548210858025,-0.0007136377634877882,0.0003735279488249224,0.00033990379890646286,0.2173345386981964,-21.79654312133789,-2.38179087638855,22.59223175048828,0.6673074960708618,2.2551772594451904,-0.05396880581974983,,,,,,,,,
1739402405.1330376,0.5257011462195029,0.09600459631662704,-0.9533345926382086,-2.06911325727413,0.13777896961211156,2.1375844067357965,-1.2753818261868661,0.0020598161411821835,-0.000710394362560552,0.0003087361413721153,-0.00039349526936319776,9.014908840727576e-05,0.0010125696347612037,0.00013189480284122874,0.1697271168231964,-21.77273941040039,-2.38179087638855,22.61603546142578,0.6865335702896118,2.2679946422576904,-0.06037749722599983,,,,,,,,,
1739402405.1440742,0.5256958367490262,0.09601073167512168,-0.9533363784893383,-2.0691093771258253,0.1377765413533384,2.1375848609700414,-1.2753841142886835,-0.0006795900361877586,0.0006875018591954215,-0.0002806500087867179,0.0004498386320282445,-0.0010660277429308666,-0.0003365343738625049,-0.0005831766179487728,0.2173345386981964,-21.84811782836914,-2.35798716545105,22.59223175048828,0.6801248788833618,2.2551772594451904,-0.013685601763427258,,,,,,,,,
1739402405.1540856,0.5256990632665615,0.09601185369040781,-0.9533307301355752,-2.0691168243789715,0.13777613508016517,2.1375841047575235,-1.2753832951073523,0.0012373210900495251,0.0009147328530719286,0.0001122561729724046,-0.0010773917268868264,0.0003573428509123767,-0.0007922794672788251,-0.0005167500843746444,0.1697271168231964,-21.82431411743164,-2.4333655834198,22.66364288330078,0.6865335702896118,2.2615859508514404,-0.05396880581974983,,,,,,,,,
1739402405.1650128,0.5256990536330267,0.09601073173114638,-0.9533384550692702,-2.069113030522021,0.13777729608577288,2.1375833456439026,-1.2753805227149724,0.001357843335707214,0.00022929166174995766,-0.0010107539948194634,0.0009437258630931168,-5.539673379178678e-05,-0.0011138063395456936,0.0003017710249921899,0.1697271168231964,-21.84811782836914,-2.3302161693573,22.61603546142578,0.6737161874771118,2.2679946422576904,-0.04023589566349983,,,,,,,,,
1739402405.1769814,0.52569560259113,0.09600701734714513,-0.9533325127035236,-2.0691132601089923,0.13777583330895277,2.1375824928286145,-1.2753852108040635,-0.0008246111927902328,-0.001368006509118102,0.0011008721476708228,-0.0002716632321538566,0.00018643637635432607,9.546338768125337e-05,-0.0012520506428210297,0.2173345386981964,-21.79654312133789,-2.4095618724823,22.61603546142578,0.6865335702896118,2.2753188610076904,-0.0008682189509272575,,,,,,,,,
1739402405.1869824,0.5256976544006241,0.09600961942701533,-0.9533310156127885,-2.0691132527617846,0.13777625318591202,2.1375833456439683,-1.2753781356587583,0.0006147070326476251,0.0002182916004049841,0.00011376790814164925,0.00034034020015084486,0.000567334165950204,-0.0013796840584935108,0.0009724181271929381,0.1935308277606964,-21.84811782836914,-2.4333655834198,22.61603546142578,0.6865335702896118,2.2679946422576904,-0.06037749722599983,,,,,,,,,
1739402405.1980119,0.5256956025928985,0.09600983276779872,-0.9533339920582121,-2.069113260075254,0.1377780543945591,2.1375850316754526,-1.2753816742458552,-9.48143153718059e-05,0.0008490329384813016,-0.00027027857452320125,-0.00042669610181523095,0.0004844498057890279,0.0010587972735544102,-0.0007519897783996254,0.2173345386981964,-21.82431411743164,-2.35798716545105,22.61603546142578,0.6673074960708618,2.2551772594451904,-0.06037749722599983,,,,,,,,,
1739402405.2080204,0.5256980209738833,0.09601049826637915,-0.9533325127721798,-2.0691132601102877,0.13777880701603565,2.137585017950369,-1.2753805046500286,0.00044305860070710854,0.0005612119004021687,0.00016157770470592197,-4.1256901678856294e-06,0.0005449619437335649,9.715144225301076e-05,0.0007372064806631011,0.1935308277606964,-21.84811782836914,-2.4095618724823,22.61603546142578,0.6608988046646118,2.2551772594451904,-0.08051909506320953,,,,,,,,,
1739402405.2180834,0.5256980470666492,0.09600912413712555,-0.9533325118313928,-2.0691117610506025,0.13777578513781952,2.1375835171654822,-1.2753834851105978,0.0003045619374418001,9.538779760843958e-05,0.0003523002048857171,0.0005367236344457028,-0.0005120088291480423,0.00034475121528743623,-0.0005356017755401046,0.2173345386981964,-21.82431411743164,-2.4095618724823,22.56842803955078,0.6865335702896118,2.2679946422576904,-0.05396880581974983,,,,,,,,,
1739402405.2280898,0.5256954682153215,0.09600824821326796,-0.9533346966038989,-2.069111477468262,0.13777840806042468,2.1375874406582427,-1.2753840424053675,-0.00035680681581913624,0.0009217420037449126,-0.0005426191720915486,0.0004131568698059853,0.0009968186038761375,0.00126167308487486,-0.001708133425244693,0.2173345386981964,-21.77273941040039,-2.38179087638855,22.59223175048828,0.6673074960708618,2.2615859508514404,-0.04023589566349983,,,,,,,,,
1739402405.2389615,0.5256925941389011,0.09600327528928698,-0.9533373653227543,-2.0691096947562504,0.1377772973271788,2.1375841047763626,-1.275380754189394,-0.0014428255056253344,-0.0011937445749761267,-0.0010038401941634479,0.0004600039281264754,-0.0004147204165757121,-0.0006319702652302003,0.0019327796393806594,0.2689092457294464,-21.74496841430664,-2.38179087638855,22.56842803955078,0.6737161874771118,2.2615859508514404,-0.04756011441349983,,,,,,,,,
1739402405.2490284,0.5256963058971018,0.09600554490722668,-0.9533345927563492,-2.0691096947562504,0.13777896814949767,2.137589100970144,-1.2753801113587147,3.05384691700134e-05,0.00012929855135812088,0.0005797197372151594,0.00022150369447794532,-0.0008283457578422273,0.0011865842769813117,0.0007177444337712171,0.2173345386981964,-21.77273941040039,-2.38179087638855,22.56842803955078,0.6865335702896118,2.2551772594451904,-0.05396880581974983,,,,,,,,,
1739402405.2591515,0.5256975847571955,0.09600331075997484,-0.9533345929233904,-2.0691114745988464,0.1377772962997617,2.1375852155032216,-1.275381776768841,0.0012275965005962436,-0.0012702904447055114,0.0012791054502831972,0.0006349073044994858,-0.00013829907814784457,0.0009274696513351656,0.0013156280563444754,0.1935308277606964,-21.74496841430664,-2.38179087638855,22.59223175048828,0.6737161874771118,2.2615859508514404,-0.06037749722599983,,,,,,,,,
1739402405.2700052,0.5256956025925054,0.0960071125913612,-0.9533345922753484,-2.0691114660955616,0.13778158773629876,2.1375879374154,-1.2753811494320195,-0.00017560241626993813,0.0014768657239480182,-8.35534435820221e-05,-0.0008067822264936948,0.0019080258866064387,0.001979214697558024,0.0005502130978223748,0.2173345386981964,-21.79654312133789,-2.38179087638855,22.59223175048828,0.6737161874771118,2.2679946422576904,-0.07411040365695953,,,,,,,,,
1739402405.2800324,0.525699027739443,0.09600909800496608,-0.9533325128125344,-2.069109465167797,0.13777653849637392,2.137584221119305,-1.2753782800693718,0.0008617286255165305,0.0012267976176427904,0.0001694346463288903,0.0013346360439824402,-0.0012625589383914886,-0.00041324728090633546,0.0019296310990841125,0.1697271168231964,-21.82431411743164,-2.4095618724823,22.56842803955078,0.6801248788833618,2.2615859508514404,-0.06037749722599983,,,,,,,,,
1739402405.2910037,0.5256956411100653,0.09600236160526901,-0.9533373111840792,-2.0691114774319734,0.13777729656980403,2.137585776560791,-1.275376669193576,-2.2591194317671384e-05,-0.0010603552945363658,-0.001195672911013807,0.0007741177325930639,7.296182606932322e-05,-0.0006657276405771594,0.001110425150386498,0.2173345386981964,-21.74496841430664,-2.35798716545105,22.59223175048828,0.6737161874771118,2.2753188610076904,-0.07411040365695953,,,,,,,,,
1739402405.301033,0.5256987486376187,0.0960070212014849,-0.9533325127193732,-2.0691132431037507,0.13777805374385932,2.1375849010568033,-1.2753782213509486,0.0009854196104101193,-0.0007712153826789789,0.0006523239939732325,-5.711562162989838e-05,0.0002532544358667971,-0.0008147231736618961,0.0017954543006289461,0.2173345386981964,-21.79654312133789,-2.4095618724823,22.61603546142578,0.6673074960708618,2.2817275524139404,-0.08692778646945953,,,,,,,,,
1739402405.311931,0.5256990305391361,0.09601175395800278,-0.953334595491326,-2.0691096948611327,0.13777806686668442,2.1375841053138207,-1.2753844612702165,0.0007155369698031634,0.0012007776483227445,0.0005909770185328393,0.0010346822933751244,0.0009186760184414507,-0.0003561424967386497,-0.0013951339101980955,0.1697271168231964,-21.84811782836914,-2.38179087638855,22.56842803955078,0.6673074960708618,2.2615859508514404,-0.020094294100999832,,,,,,,,,
1739402405.322015,0.5256973526678681,0.09600902219991632,-0.9533346188433708,-2.069113277116828,0.1377777555042902,2.137586524719822,-1.2753804519817784,0.0004972048147818917,0.00012273424905316383,1.0765090441681633e-05,0.0008869250199231165,-0.0002220512819342325,2.682735870983927e-05,0.0005682002808941769,0.1935308277606964,-21.82431411743164,-2.4095618724823,22.61603546142578,0.6737161874771118,2.2679946422576904,-0.05396880581974983,,,,,,,,,
1739402405.3329947,0.5256938901778855,0.09601074042775014,-0.9533325128482057,-2.0691132516073076,0.13777733546005302,2.13758652461212,-1.275382361263314,-0.0015250163504587442,-0.0005671847088258683,0.00035962437992739186,0.0008987333649936981,0.0007064266417642084,-0.00046934907071825914,0.0009496307511129695,0.2411382496356964,-21.84811782836914,-2.4095618724823,22.61603546142578,0.6737161874771118,2.2679946422576904,-0.06037749722599983,,,,,,,,,
1739402405.3440073,0.5256973160746916,0.09601100581256733,-0.9533322734128145,-2.069111443420178,0.13777881140400353,2.1375890997378915,-1.2753794083139827,0.0005847210353155356,0.0009427291246375386,0.0002699706786551593,0.001269351128965662,0.0005969283645774851,0.0016209750681620034,0.0014225769871838991,0.1935308277606964,-21.84811782836914,-2.4095618724823,22.59223175048828,0.6608988046646118,2.2551772594451904,-0.05396880581974983,,,,,,,,,
1739402405.3540394,0.5256975491151509,0.09600905415727655,-0.9533337952472973,-2.0691132569603536,0.1377740973011698,2.1375844567499724,-1.275385202344201,-6.395671551952714e-06,-0.0006154100927698591,-0.00038748054453307255,-0.00017408795768531412,-0.0010470936931706479,0.00013850845258085232,0.0006722545579008533,0.1935308277606964,-21.82431411743164,-2.38179087638855,22.61603546142578,0.6737161874771118,2.2615859508514404,-0.027418512850999832,,,,,,,,,
1739402405.364053,0.5256956029159384,0.09601315380552772,-0.9533325127990366,-2.069113257275812,0.13777547389026357,2.1375849137823626,-1.2753863922173694,-0.0001885150549767714,0.0018053500290010306,0.0008116817486379478,0.0001819615226998485,-0.0007076402291089896,-0.0003996404543215132,-0.001088253168065702,0.2173345386981964,-21.87192153930664,-2.4095618724823,22.61603546142578,0.6801248788833618,2.2551772594451904,-0.0008682189509272575,,,,,,,,,
1739402405.374934,0.5256956285913651,0.09600711270337378,-0.9533363867261226,-2.0691132601102726,0.13777667834006563,2.1375841033042713,-1.2753891286836352,-0.0003003577911937172,0.00013628222539217752,-0.000254550552376773,-6.760642329426054e-07,-0.0004666292287896605,0.00043729768318876534,-0.0024235784787651087,0.2173345386981964,-21.79654312133789,-2.35798716545105,22.61603546142578,0.6801248788833618,2.2615859508514404,-0.0072769103571772575,,,,,,,,,
1739402405.3850024,0.5256971017128093,0.09600533494404359,-0.953332747779131,-2.0691150427873075,0.13778158725263617,2.1375883437945578,-1.2753844055677122,0.000923572029774405,-0.0002122141625219249,0.0009570789800085839,-0.0011350398112559001,0.0030251539533610637,0.0015544091733315577,0.00029332687588340503,0.1935308277606964,-21.77273941040039,-2.4095618724823,22.63983917236328,0.6737161874771118,2.2615859508514404,-0.04756011441349983,,,,,,,,,
1739402405.3959928,0.525694826118394,0.09600533537466988,-0.953336375280741,-2.069112341757243,0.13777741442951008,2.13758498453976,-1.2753827135237494,-0.00045713528959776906,-0.0001275656108650062,-0.0008256872682883236,0.00022634136800290066,-4.5657879499057025e-07,0.0018009450882842757,-0.0003950230645214781,0.2411382496356964,-21.77273941040039,-2.35798716545105,22.61603546142578,0.6737161874771118,2.2551772594451904,-0.03382720425724983,,,,,,,,,
1739402405.406051,0.5256973237943597,0.09600702154203121,-0.9533363752794146,-2.0691132054008703,0.13778124259435076,2.137583345645987,-1.2753850961759028,-0.0005781985989401403,-0.0001912290327986867,-0.0012566014434178454,-0.0006744813679706842,0.002425233964977738,-0.0006425985262945764,0.0010511921850308893,0.1935308277606964,-21.79654312133789,-2.35798716545105,22.61603546142578,0.6673074960708618,2.2679946422576904,-0.04023589566349983,,,,,,,,,
1739402405.4170377,0.5256954855220123,0.09600530869682948,-0.9533346041581199,-2.0691114774329606,0.1377789696301127,2.1375848610178867,-1.2753804895041383,-0.00013429877288831924,0.0003555486871209093,-0.0007391200608860284,-0.00025719273886858345,0.001801466287080233,0.0003656466329878067,0.001447478704464484,0.1935308277606964,-21.77273941040039,-2.38179087638855,22.59223175048828,0.6865335702896118,2.2551772594451904,-0.05396880581974983,,,,,,,,,
1739402405.4280107,0.5256977056679979,0.0960097277914109,-0.9533363752794798,-2.069109411138917,0.1377780544098935,2.1375841185393334,-1.2753853571205251,0.0004146600799760673,0.0014810073134058383,-0.00036019850310811067,0.0009394236698766072,-5.4377746168500046e-05,-0.0007120674924521138,-0.0005987145194826821,0.2173345386981964,-21.82431411743164,-2.35798716545105,22.59223175048828,0.6673074960708618,2.2615859508514404,-0.027418512850999832,,,,,,,,,
1739402405.4380207,0.5256973247771005,0.09600531162501359,-0.9533363810027686,-2.0691096947212575,0.1377780668666957,2.137585673138497,-1.27538045508022,0.0006687492709062548,-0.0004419888391507985,-0.001676701119487694,0.000307326170947606,0.00047904742076552824,0.0013454905907167062,0.00022869642547601805,0.1935308277606964,-21.77273941040039,-2.35798716545105,22.56842803955078,0.6673074960708618,2.2615859508514404,-0.05396880581974983,,,,,,,,,
1739402405.4489412,0.525699457236357,0.09600914758460206,-0.953334229512235,-2.069113259970317,0.1377765883947965,2.137587286587874,-1.2753804151407009,0.001706035248965872,0.0007557804350689533,-0.0004442317643178155,-0.0003453430587891876,-0.0009572668151873063,0.0005846786328202575,-0.0006645326848704971,0.1935308277606964,-21.79654312133789,-2.35798716545105,22.61603546142578,0.7066751718521118,2.2615859508514404,-0.05396880581974983,,,,,,,,,
1739402405.459024,0.5256956807353977,0.0960048887686772,-0.9533324783088909,-2.0691122877281685,0.13777729629978647,2.137582479962077,-1.275382548663019,0.00013422213172231348,-0.0002957525993127991,0.0004377233820260436,-0.0011099728677471197,0.0003579161120234403,-0.00012122995704158003,-0.0006865079686574628,0.2173345386981964,-21.79654312133789,-2.4095618724823,22.63983917236328,0.6737161874771118,2.2753188610076904,-0.027418512850999832,,,,,,,,,
1739402405.4690661,0.5256939276276799,0.09600938318293072,-0.9533384550686858,-2.069116825312691,0.1377788114039331,2.1375850310294338,-1.2753828378486394,-0.0011796708984224227,-0.001327165137169714,-0.0019910212177472455,-0.0005128691271036368,0.0002885771457882078,0.0006482938720508238,0.0010693392324039224,0.2411382496356964,-21.79654312133789,-2.3302161693573,22.66364288330078,0.6608988046646118,2.2551772594451904,-0.06037749722599983,0,0,0,0.000,0,0
1739402405.4800441,0.5256973269886432,0.09601527910522648,-0.9533325243682643,-2.0691150569594217,0.13777585953998295,2.137583347098405,-1.275382536227695,0.0007265836604749246,0.0009732711598705833,-6.309539474039786e-05,-0.0006558790438400247,-0.0012751912570038364,-0.0007490076826456583,0.0022472125575946538,0.1935308277606964,-21.87192153930664,-2.4095618724823,22.63983917236328,0.6865335702896118,2.2679946422576904,-0.06037749722599983,0,0,0,0.000,0,0
1739402405.4910069,0.5256973144517615,0.09600538758984377,-0.9533296516807701,-2.0691132346007217,0.13777881140526352,2.137582479746687,-1.2753832778930139,0.0004744919583876472,-0.0005183076280531982,0.0009827803307443398,0.0006340197261710944,0.00017410698347911113,-0.0015332514747917394,0.000840429894753299,0.1935308277606964,-21.77273941040039,-2.4095618724823,22.61603546142578,0.6608988046646118,2.2753188610076904,-0.05396880581974983,0,0,0,0.000,0,0
1739402405.5021014,0.5256939684280465,0.09600709995500407,-0.9533363702848539,-2.0691132635744394,0.13777881140392945,2.137584109118174,-1.2753876462372689,-0.0011195375158614092,-0.00040835454532112234,-0.0008327093736356127,0.0008579081553175111,0.00016697378494175922,-9.021627212851023e-05,-0.0013238819472739583,0.2411382496356964,-21.79654312133789,-2.35798716545105,22.61603546142578,0.6608988046646118,2.2615859508514404,0.0064559997990727425,0,0,0,0.000,0,0
1739402405.5130053,0.5256966072150175,0.09600632104638275,-0.9533321949210729,-2.0691153251449164,0.1377776013731929,2.1375844052820567,-1.2753824179881488,-0.0007359902846640242,-0.0010668441063422431,0.00044929466306842735,-9.898499374168718e-05,0.0010308099816120206,-0.00026775319915428754,0.0020197678928530983,0.1935308277606964,-21.79654312133789,-2.4095618724823,22.61603546142578,0.6801248788833618,2.2679946422576904,-0.06037749722599983,0,0,0,0.000,0,0
1739402405.5239825,0.5256991409353551,0.0960111465081836,-0.9533328361657047,-2.0691097287732116,0.1377793718539008,2.137583705157316,-1.275383346575392,0.001968479360182261,0.00022177154722060886,0.0014047259519752923,0.0011379332008915695,-0.0004332287584509364,-0.0009940409684449675,-0.00100762215000895,0.1697271168231964,-21.82431411743164,-2.4333655834198,22.56842803955078,0.6801248788833618,2.2679946422576904,-0.04756011441349983,0,0,0,0.000,0,0
1739402405.5349708,0.5256956805927628,0.09600839017597117,-0.9533345926499499,-2.069113260215459,0.1377823056118433,2.1375883811043765,-1.275384743982406,1.696182246680201e-05,0.0008158349590859209,-0.0002841798417338991,-2.418361826992424e-05,0.001664929954141157,0.0005036978966744995,0.0008325943221683611,0.2173345386981964,-21.77273941040039,-2.38179087638855,22.61603546142578,0.6673074960708618,2.2615859508514404,-0.04023589566349983,0,0,0,0.000,0,0
1739402405.545976,0.5256956026270893,0.09600704748062051,-0.95333552875874,-2.0691096948612295,0.13777578678199864,2.1375842210656915,-1.2753789390485544,-0.0005139345912733807,0.00021917525381216776,-0.0019274704665525658,0.0009438232990424547,-0.0010801509970593097,0.00031526934926632183,0.0016600138183093908,0.2173345386981964,-21.79654312133789,-2.38179087638855,22.56842803955078,0.6865335702896118,2.2615859508514404,-0.05396880581974983,0,0,0,0.000,0,0
1739402405.5570667,0.5257012502904472,0.09601286146683174,-0.9533345926182494,-2.069109694756252,0.13777409730127171,2.1375848611275514,-1.2753797119001107,0.001012311671433106,0.0018618645774905822,-0.0004977570608307197,-0.00020990477648209798,-0.0005103952423575675,-0.0005028471700055152,-0.0005675788538800788,0.1697271168231964,-21.84811782836914,-2.38179087638855,22.56842803955078,0.6737161874771118,2.2551772594451904,-0.06037749722599983,0,0,0,0.000,0,0
1739402405.5680306,0.5256973192971618,0.09600777580151353,-0.9533346188433219,-2.069111193710958,0.1377774948675207,2.137584103303974,-1.2753871300329986,-0.0003026599660319313,0.0013378442142638295,-0.00014049764413935167,0.00030360981297878383,0.0007246865059309701,-0.00043036079441384923,0.000763738957794318,0.1935308277606964,-21.77273941040039,-2.4095618724823,22.61603546142578,0.6673074960708618,2.2615859508514404,-0.020094294100999832,0,0,0,0.000,0,0
1739402405.5789387,0.5256973901694231,0.09600330978401281,-0.9533363399621064,-2.0691076121280836,0.13777659091397604,2.1375844619884288,-1.2753882917971162,-0.00012066807896415418,-0.001391272730869929,-0.0005325432811850834,0.0016048637868539574,-0.0009737977576012779,-3.936952208543064e-05,-0.0013847179239791895,0.1935308277606964,-21.74496841430664,-2.35798716545105,22.54065704345703,0.6801248788833618,2.2679946422576904,-0.013685601763427258,0,0,0,0.000,0,0
1739402405.589931,0.5256939159620394,0.09600507138203278,-0.953334354183617,-2.069113284570293,0.13777665652949056,2.137583481314886,-1.2753866680785015,-0.0004580046554741712,-0.0001622809143570683,-0.0002716743417888834,-0.001508785149557411,-0.0006660198433386817,0.00103053235895409,-0.0012452570472707403,0.2411382496356964,-21.77273941040039,-2.38179087638855,22.61603546142578,0.6801248788833618,2.2679946422576904,-0.027418512850999832,0,0,0,0.000,0,0
1739402405.6000042,0.5256965998572926,0.09601114796153722,-0.9533350824228906,-2.0691130330427567,0.1377765384296948,2.1375835437523354,-1.2753828894346404,-0.0001452258592885552,0.0015416508885020305,0.0002065147057672446,-0.0014874555747088746,-0.001241950972208125,-0.0006890325834232652,3.201861110293982e-05,0.1935308277606964,-21.82431411743164,-2.4095618724823,22.61603546142578,0.6801248788833618,2.2753188610076904,-0.06037749722599983,0,0,0,0.000,0,0
1739402405.6110928,0.5256938900689061,0.0960033143346933,-0.9533376346635821,-2.0691114774328425,0.13778048444472327,2.1375888525391455,-1.275386992324178,-0.0017940980888727562,-0.0012802374364937425,-0.0005203576224128738,0.00020697669249919454,0.0004495241919317745,0.001827659023105969,-0.0012912005869097462,0.2411382496356964,-21.74496841430664,-2.38179087638855,22.59223175048828,0.6737161874771118,2.2615859508514404,-0.013685601763427258,0,0,0,0.000,0,0
1739402405.6220098,0.5256952081135969,0.09600902794298993,-0.9533356600408498,-2.069111477328291,0.13777733741439455,2.137584860990861,-1.2753801684992252,-0.0003411846675688651,-0.0002803889915005078,-0.0006126271459285023,0.000275184540218338,0.00012903415556279118,5.953394542934187e-05,0.0013793276407894877,0.2173345386981964,-21.82431411743164,-2.35798716545105,22.59223175048828,0.6737161874771118,2.2551772594451904,-0.07411040365695953,0,0,0,0.000,0,0
1739402405.6320467,0.5256997331403762,0.0960070241338928,-0.9533346214795939,-2.069113260110287,0.13777810818000774,2.1375853319143316,-1.2753816186592206,0.0006104105835274951,-0.0005414893123741393,-0.00037960488373055214,-0.00011950278042150488,0.00014545245980862546,0.0005783190351904158,0.0005264442753953122,0.1935308277606964,-21.79654312133789,-2.38179087638855,22.61603546142578,0.6673074960708618,2.2551772594451904,-0.06678618490695953,0,0,0,0.000,0,0
1739402405.642969,0.5256956026402988,0.09601073167915955,-0.9533325128127029,-2.0691132601102886,0.13777653907204285,2.137584617863419,-1.275384965770037,-0.00035714479088915353,2.8091804627658717e-05,0.001215507030208571,0.0004951563050936527,5.781391668939636e-06,0.0001868689906517103,-0.0008626090244335805,0.2173345386981964,-21.84811782836914,-2.4095618724823,22.61603546142578,0.6801248788833618,2.2615859508514404,-0.03382720425724983,0,0,0,0.000,0,0
1739402405.6530433,0.5256977086217661,0.09601107287280927,-0.9533342295122027,-2.0691150427873075,0.13777879888826716,2.1375837038719916,-1.2753854608278485,-0.0011006093469974557,0.001163880308624215,-0.00011197514443795058,-0.0012125676484276019,0.000539332661429815,-0.00023966057248566604,-0.0005001772971043678,0.2173345386981964,-21.84811782836914,-2.35798716545105,22.63983917236328,0.6608988046646118,2.2679946422576904,-0.04756011441349983,0,0,0,0.000,0,0
1739402405.6639864,0.5256963047557958,0.09600976375962085,-0.9533317975446897,-2.0691150437321153,0.13777734627074387,2.137585618841493,-1.2753862917189156,0.00027969202174819375,0.0004114431989023172,0.0009451994653669701,-0.0002947642625376781,-0.0005808761021209312,0.0007017429608366275,-0.0007734075630006504,0.2173345386981964,-21.82431411743164,-2.4095618724823,22.63983917236328,0.7002664804458618,2.2487685680389404,-0.013685601763427258,0,0,0,0.000,0,0
1739402405.6750088,0.5256973411160581,0.09600442132002991,-0.9533363742942305,-2.069115017277506,0.1377765384957002,2.1375824797466634,-1.275386748120145,0.0006892569950740792,-0.0013621174723311765,-0.000215778279820416,0.00017811822048252688,-5.111664605827836e-05,-0.0003611300133289072,-1.054246269197815e-05,0.1935308277606964,-21.79654312133789,-2.35798716545105,22.63983917236328,0.6801248788833618,2.2753188610076904,-0.027418512850999832,0,0,0,0.000,0,0
1739402405.6859636,0.525698355162728,0.09600915585043486,-0.9533373151449981,-2.0691097243600796,0.1377798453776901,2.1375847720612025,-1.275378797282745,0.0011050766660987829,-0.0015020884948035462,-0.0019307989361792223,0.0007728159230032189,0.0008146094471533278,0.00041290865148538145,0.0015647857458036996,0.1935308277606964,-21.79654312133789,-2.35798716545105,22.56842803955078,0.6801248788833618,2.2679946422576904,-0.06678618490695953,0,0,0,0.000,0,0
1739402405.6969337,0.5256973151293277,0.09601123257911451,-0.9533325127194404,-2.069114174789583,0.1377757813056505,2.137585529422427,-1.275378954263734,-0.0011678734391299998,0.00016701909934154722,-0.00026903891253915414,-0.0007001174995382279,-0.0017216184489507072,0.001097292961741454,0.0012934866329936449,0.1935308277606964,-21.82431411743164,-2.4095618724823,22.61603546142578,0.6865335702896118,2.2615859508514404,-0.06678618490695953,0,0,0,0.000,0,0
1739402405.7069855,0.5256956343147173,0.09601286633919043,-0.9533307301355204,-2.069113515388555,0.1377773004580536,2.1375848611336075,-1.2753852719321925,-0.000545333299825958,0.001859505467207309,0.0005683849722551504,0.00014270229597379992,-0.0006490510822201849,-0.0004955051233850719,-0.001207729495158311,0.2173345386981964,-21.84811782836914,-2.4333655834198,22.59223175048828,0.6737161874771118,2.2551772594451904,-0.04023589566349983,0,0,0,0.000,0,0
1739402405.7170153,0.5256956113653112,0.0960090279431181,-0.9533363752794146,-2.0691132686480707,0.13777654036789194,2.137583397971706,-1.2753857147117156,-0.000632181509982285,0.0007062904929322376,-0.0008721480123156044,-0.0006768358810613975,-0.0012088362333990386,-0.0012113641638017004,0.0001080614621606921,0.2173345386981964,-21.82431411743164,-2.35798716545105,22.61603546142578,0.6801248788833618,2.2679946422576904,-0.027418512850999832,0,0,0,0.000,0,0
1739402405.728053,0.5256925941397091,0.09600925536946116,-0.9533362693156017,-2.0691132601103366,0.13777729608378372,2.1375883930914448,-1.275382133174726,-0.001903796488612607,0.0009437748045111178,-0.0006518335066350001,-0.0010829365534806923,-0.001422237470639004,0.0006059929716693523,0.00020121588492782007,0.2689092457294464,-21.82431411743164,-2.35798716545105,22.61603546142578,0.6737161874771118,2.2551772594451904,-0.06678618490695953,0,0,0,0.000,0,0
1739402405.7389357,0.5256959961049968,0.09600705718517616,-0.9533356598777241,-2.069110275462891,0.13777578076361607,2.1375877024384375,-1.2753849184144166,-0.00023807669015874996,0.00026147054601800466,-0.00037252486980816327,0.0006699862224052713,-0.0004356561192295596,0.00091938993777927,-0.00045584014347435577,0.2411382496356964,-21.79654312133789,-2.35798716545105,22.61603546142578,0.6865335702896118,2.2679946422576904,-0.04023589566349983,0,0,0,0.000,0,0
1739402405.7489998,0.5256956836237178,0.09600709995516785,-0.9533329767130984,-2.0691107885129614,0.1377761815423252,2.1375883944195877,-1.2753817076983645,-0.0006638607686874388,0.0002994751031758304,3.665055838061567e-05,-0.00040087428957541764,-0.0022717551062563708,0.0014589844720715658,0.0018053894698936406,0.2173345386981964,-21.79654312133789,-2.4095618724823,22.59223175048828,0.6737161874771118,2.2615859508514404,-0.06037749722599983,0,0,0,0.000,0,0
1739402405.7590003,0.5256958375587527,0.09600338949430791,-0.9533325128203961,-2.0691132600986215,0.13777760135431805,2.1375844597820755,-1.2753828337012407,0.00015535162962720863,-0.0012227853464352252,0.0010119477540639927,-0.0002554785738671079,-0.0003171196121589941,0.00035405802759469484,0.0005922905600500352,0.2173345386981964,-21.74496841430664,-2.4095618724823,22.61603546142578,0.6801248788833618,2.2679946422576904,-0.06037749722599983,0,0,0,0.000,0,0
1739402405.7690017,0.5256956025949624,0.09600909789674524,-0.9533385330704104,-2.0691140254044926,0.13777653844169524,2.1375841081680087,-1.2753818298016064,-8.27190582404501e-05,0.0006527158235377559,-0.0014406292952471715,-0.0007588710829168279,-0.001574224052196005,-0.0011081452100278534,0.0012380256206395248,0.2173345386981964,-21.82431411743164,-2.3302161693573,22.61603546142578,0.6801248788833618,2.2615859508514404,-0.06037749722599983,0,0,0,0.000,0,0
1739402405.7799985,0.5256956025909832,0.09600901915885639,-0.9533346182761671,-2.0691150427916276,0.137776892740194,2.1375833475819888,-1.2753812673313945,-0.0004999089117793995,0.0008034223969130983,0.0001914876597238329,-0.000531587920643186,-0.0008936864210648746,-0.0008324101941145364,0.00035141211086595027,0.2173345386981964,-21.82431411743164,-2.38179087638855,22.63983917236328,0.6801248788833618,2.2679946422576904,-0.07411040365695953,0,0,0,0.000,0,0
1739402405.790968,0.5256973151117145,0.09600530869682765,-0.9533394169969736,-2.0691133366047163,0.1377774141912727,2.137584978701632,-1.275385912034152,0.0007846522436993415,-0.0011053705872918814,-0.0006432233648800223,-0.0009214484169531381,0.0001396376587854184,0.0001863790221515024,-0.00042701726144313084,0.1935308277606964,-21.77273941040039,-2.35798716545105,22.61603546142578,0.6737161874771118,2.2551772594451904,-0.03382720425724983,0,0,0,0.000,0,0
1739402405.801933,0.5256934868190749,0.09600904540407854,-0.9533346012863594,-2.0691111713160195,0.13777730045871725,2.137586524558947,-1.2753828845948723,3.247179356983252e-05,-0.0003791099798318599,0.00032720790945197433,0.0009723626860680094,-5.128078514280003e-05,-8.682420501433341e-05,0.0005784311252340362,0.2411382496356964,-21.82431411743164,-2.38179087638855,22.59223175048828,0.6737161874771118,2.2679946422576904,-0.06037749722599983,0,0,0,0.000,0,0
1739402405.8130348,0.5256959492558878,0.09601114505785335,-0.9533342747111038,-2.069115348899805,0.13777729608384684,2.137587440336823,-1.2753881090110635,0.000882786001973979,-0.0006995468788288904,0.0010364165310571944,-0.0012188521122412476,-9.959050011657086e-05,0.00018642727574781246,-0.0016960190763912633,0.2173345386981964,-21.82431411743164,-2.38179087638855,22.63983917236328,0.6737161874771118,2.2423598766326904,-0.0072769103571772575,0,0,0,0.000,0,0
1739402405.8240314,0.5256994244836226,0.09600709995855898,-0.9533363752788164,-2.0691150427878835,0.13777817330744352,2.137584155633784,-1.2753808217395655,0.000977551148776075,-0.0011230959997657285,-0.0012371825811806454,4.081885447523203e-05,-3.146691721380693e-05,6.798020823665506e-05,0.0008018365266988733,0.1935308277606964,-21.79654312133789,-2.35798716545105,22.63983917236328,0.6673074960708618,2.2615859508514404,-0.04756011441349983,0,0,0,0.000,0,0
1739402405.834057,0.5256945935072018,0.09600929036496723,-0.95333251281254,-2.0691114774332697,0.1377794420361357,2.1375841556326685,-1.2753832907587632,-0.0006595439290248015,0.0011049231233461188,0.0008720932650879669,0.00037071889564553855,0.0006767384438141851,0.0003221771020416892,0.0011248534293599407,0.2411382496356964,-21.82431411743164,-2.4095618724823,22.59223175048828,0.6865335702896118,2.2615859508514404,-0.05396880581974983,0,0,0,0.000,0,0
1739402405.845018,0.5256975491191055,0.09600702121908981,-0.9533322747149532,-2.0691132717629164,0.13777590040187992,2.1375841604772448,-1.2753812847779675,0.00028022801952844027,6.572182879706002e-05,0.0006219625905545595,-0.0005351038072568087,0.0011482836209469336,0.000471779775611336,0.0016942142362817837,0.1935308277606964,-21.79654312133789,-2.4095618724823,22.61603546142578,0.6865335702896118,2.2615859508514404,-0.07411040365695953,0,0,0,0.000,0,0
1739402405.8550785,0.5256973151156773,0.09600530869682768,-0.9533345916172169,-2.069111477433467,0.13777491632650235,2.137584457002168,-1.2753836485546282,-0.0004942967233231608,-0.0005164084005411993,-5.522865654269396e-06,5.420984723232798e-05,0.0002272679593803073,0.0005327737125144696,-0.0002596719355981664,0.1935308277606964,-21.77273941040039,-2.38179087638855,22.59223175048828,0.6938577890396118,2.2615859508514404,-0.05396880581974983,0,0,0,0.000,0,0
1739402405.8659358,0.5256973411120945,0.09600929327981893,-0.9533345921663137,-2.0691114774332697,0.1377768932262495,2.137585658360493,-1.275382537197028,0.0013963116815908156,1.6888257438679293e-05,-0.0003051211670349892,-0.0007310736054173157,-0.000533307214268286,-0.0008523561871847001,0.00018747411661881479,0.1935308277606964,-21.82431411743164,-2.38179087638855,22.59223175048828,0.6801248788833618,2.2487685680389404,-0.06037749722599983,0,0,0,0.000,0,0
1739402405.8759844,0.5256939160707788,0.09600541400506216,-0.9533345927093905,-2.0691132601102886,0.13777805423188483,2.1375880461773815,-1.275382890892258,-0.0004506220208374081,-0.000500923630477171,0.00015348526172381599,-0.001179669014218659,-0.0006938101436413272,-0.00017904535612044408,0.0010138320959670352,0.2411382496356964,-21.77273941040039,-2.38179087638855,22.61603546142578,0.6673074960708618,2.2551772594451904,-0.06037749722599983,0,0,0,0.000,0,0
1739402405.8870718,0.525694228075339,0.09600914726115943,-0.9533317302712516,-2.0691107886684854,0.13777881134976053,2.1375851648981503,-1.2753881242793124,-0.0006105100815089683,0.00019116058217830584,0.0011647749245121044,-0.00027783769205552,0.0011134089614260804,0.00034844912798562906,-0.002158071445125407,0.2411382496356964,-21.79654312133789,-2.38179087638855,22.59223175048828,0.6608988046646118,2.2615859508514404,-0.020094294100999832,0,0,0,0.000,0,0
1739402405.897969,0.5256960221071382,0.09600702136157042,-0.9533345896104823,-2.0691096692347792,0.13777805374385016,2.1375833587438247,-1.275388866679224,-0.00026829372206738187,0.00027972746072987993,0.0003279400004039552,0.0019273253615017562,-0.0009021881236910831,-0.0010422899664618349,-0.000944981240886612,0.2411382496356964,-21.79654312133789,-2.38179087638855,22.56842803955078,0.6673074960708618,2.2679946422576904,-0.0008682189509272575,0,0,0,0.000,0,0
1739402405.908004,0.5256997707151967,0.09600702456577227,-0.9533324468708324,-2.069111477013211,0.13777760639551184,2.1375833456439683,-1.2753821325287773,0.0010336696115216943,0.0008064487311782091,0.0009665726764470137,0.00014622169194512105,0.000659825385357623,-0.0014001564068467694,0.0014858960037423437,0.1935308277606964,-21.79654312133789,-2.38179087638855,22.59223175048828,0.6801248788833618,2.2679946422576904,-0.06678618490695953,0,0,0,0.000,0,0
1739402405.9190433,0.5256957104859973,0.096005544907884,-0.9533345929940471,-2.069109456244798,0.13777491488446988,2.137584865324702,-1.2753852721116317,-0.0004899047349133715,-0.0006501707556356415,0.00010655056178816104,0.0018329297398587373,-0.0017860949367377657,-0.0005690592070579966,0.00023150160381208684,0.2173345386981964,-21.77273941040039,-2.38179087638855,22.56842803955078,0.6938577890396118,2.2551772594451904,-0.04023589566349983,0,0,0,0.000,0,0
1739402405.9299676,0.5256938900708611,0.09600914776441627,-0.9533345477967113,-2.069113260108942,0.13777770483572907,2.1375875841964365,-1.275382834205795,-0.0006752788973266613,-0.0001646727286202479,-0.00030453191809483386,-0.00038527565219419223,0.0009685980112191022,0.000409100082214781,0.0007804389139171152,0.2411382496356964,-21.79654312133789,-2.38179087638855,22.61603546142578,0.6737161874771118,2.2679946422576904,-0.06037749722599983,0,0,0,0.000,0,0
1739402405.9399893,0.5256956806991208,0.09600702126556555,-0.9533348266055628,-2.0691114774332697,0.13777765088861052,2.1375833631642593,-1.2753821724801533,0.0002302151798756373,-6.739480899076316e-05,-0.0005625397912986188,0.0006869443179509952,0.0006223676645704083,0.00046041836663661135,0.00023298775361852065,0.2173345386981964,-21.79654312133789,-2.38179087638855,22.59223175048828,0.6737161874771118,2.2679946422576904,-0.06678618490695953,0,0,0,0.000,0,0
1739402405.9509504,0.5257010342405329,0.09600583897700886,-0.9533346968457829,-2.06911326000531,0.13777896397958841,2.1375848610179853,-1.275383506048316,0.0019685371981690283,-0.00030777413339122425,-0.000968736093759264,0.0009426302636358975,0.0006836750202896158,0.0005412994997666882,-2.4396746603687336e-05,0.1419561207294464,-21.79654312133789,-2.4095618724823,22.61603546142578,0.6865335702896118,2.2551772594451904,-0.04023589566349983,0,0,0,0.000,0,0
1739402405.960992,0.5256990276325924,0.09601114924965502,-0.9533364571694496,-2.0691096947562486,0.13778136091376475,2.1375847584947345,-1.2753789538058034,0.0010645887409353799,0.0007070841152098939,-0.0005317886031644739,0.00178690528338234,6.852362888630276e-05,0.0005970666582451821,0.0005937373239835969,0.1697271168231964,-21.82431411743164,-2.35798716545105,22.56842803955078,0.6673074960708618,2.2679946422576904,-0.06678618490695953,0,0,0,0.000,0,0
1739402405.9720004,0.525697318107643,0.09601244421189871,-0.9533345926028578,-2.069111162812319,0.13777973166513674,2.137582965724937,-1.2753820807273542,0.0005474627527394579,0.0007783844715202042,-0.0002723782794411658,0.0016418038533404298,-0.0009029239103204948,0.00020195513582479447,0.00048289389593736014,0.1935308277606964,-21.87192153930664,-2.38179087638855,22.59223175048828,0.6801248788833618,2.2753188610076904,-0.06678618490695953,0,0,0,0.000,0,0
1739402405.9820817,0.5256956039820008,0.0960097290874934,-0.95333251281254,-2.0691188649838,0.13777684830348044,2.137584900218138,-1.2753852721107544,-0.00023726715534110287,0.0007546969040949696,0.0003048111853871106,-0.0026252102355146523,-0.0006791927685186278,0.00016303654245628066,-0.0005713055192388776,0.2173345386981964,-21.82431411743164,-2.4095618724823,22.66364288330078,0.6865335702896118,2.2551772594451904,-0.04023589566349983,0,0,0,0.000,0,0
1739402405.993057,0.5256938900339211,0.09600914852465255,-0.9533345896589562,-2.0691114774447827,0.13777932544673335,2.1375856192703737,-1.2753812673373843,-0.001134532108500758,-3.2689965019527855e-05,-0.0008991714774744498,0.00023275276071519594,-0.0005358790361517241,-0.00015230252832720327,0.0017687774769092396,0.2411382496356964,-21.79654312133789,-2.38179087638855,22.59223175048828,0.6865335702896118,2.2487685680389404,-0.07411040365695953,0,0,0,0.000,0,0
1739402406.004023,0.5256970776561122,0.09600686686404554,-0.9533341940455601,-2.0691164203168753,0.1377793762461883,2.1375826032984366,-1.27538829158276,4.6324975890847664e-05,0.00018204867364678655,-1.3471183651889629e-05,-0.0009152129158928878,-0.0003492756493259278,-0.0007109831318647293,-0.00047595819392720943,0.1935308277606964,-21.79654312133789,-2.35798716545105,22.63983917236328,0.6801248788833618,2.2753188610076904,-0.013685601763427258,0,0,0,0.000,0,0
