IITGN-Robotics/Franka_IITGN_ROBOTICS/franka_ros/franka_iitgn/data/b_48.csv
time,fr3_joint1_pos,fr3_joint2_pos,fr3_joint3_pos,fr3_joint4_pos,fr3_joint5_pos,fr3_joint6_pos,fr3_joint7_pos,fr3_joint1_vel,fr3_joint2_vel,fr3_joint3_vel,fr3_joint4_vel,fr3_joint5_vel,fr3_joint6_vel,fr3_joint7_vel,fr3_joint1_eff,fr3_joint2_eff,fr3_joint3_eff,fr3_joint4_eff,fr3_joint5_eff,fr3_joint6_eff,fr3_joint7_eff,flexpin1,flexpin2,flexpin3,Force,ContactMic,ContactMic_gt
1739402429.367681,0.5257098641110399,0.0958460228187385,-0.9533398974402804,-2.069098841244389,0.13774443647807602,2.137562534426519,-1.2753709676456522,0.00013467463455492818,-0.00031535528687929426,-0.0009313087275887521,0.0006069521793974328,-0.001014308439735897,2.6081819087529366e-05,0.001366146844039663,0.2411382496356964,-21.82431411743164,-2.38179087638855,22.59223175048828,0.6407572031021118,2.2423598766326904,-0.04023589566349983,,,,,,,,,
1739402429.3786576,0.5257078623222906,0.09584844561610781,-0.9533335669665454,-2.0691001772926025,0.13774884190762043,2.1375634003235304,-1.2753765381814672,-0.00018134072959830733,6.905561146434453e-05,0.0009147756842919697,-0.0007197995745006411,0.0001784427619901335,2.2453638742746002e-05,-0.0007625941962634137,0.2689092457294464,-21.84811782836914,-2.4095618724823,22.63983917236328,0.6215311288833618,2.2350356578826904,0.0064559997990727425,,,,,,,,,
1739402429.3896267,0.5257115766357613,0.09584604911769087,-0.9533357503210476,-2.0690940793247043,0.1377467693030584,2.1375634003235304,-1.275377246205781,0.0008417188999024212,-9.525405905023083e-05,0.000408964383748183,0.002165755946825187,-0.0002462617029659749,0.00023696066941903898,-0.002103854633000217,0.2173345386981964,-21.82431411743164,-2.4095618724823,22.56842803955078,0.6480814218521118,2.2350356578826904,0.012864691205322742,,,,,,,,,
1739402429.4006228,0.5257116030197387,0.09584879125332406,-0.9533412905564872,-2.0691024065521613,0.1377444950287225,2.1375664862690162,-1.275375721489623,0.0014558572139589678,0.0012869600237065452,-0.0007956136721929356,0.000548353657128095,-0.0006036523127351319,0.0009858808633268917,-0.0006812090156130594,0.2173345386981964,-21.69339370727539,-2.3302161693573,22.63983917236328,0.6673074960708618,2.2487685680389404,-0.0008682189509272575,,,,,,,,,
1739402429.4126651,0.5257066785839194,0.0958852023855371,-0.9533370873884367,-2.0690962955403793,0.13775173554401163,2.137570783636373,-1.2753753800295962,-0.0005824026710168505,0.0013190017999054823,0.0006142435066421152,0.0009735833985355599,0.0013841199281949051,0.002009909100620791,-0.002455655226331621,0.2411382496356964,-21.69339370727539,-2.35798716545105,22.51685333251953,0.6737161874771118,2.2487685680389404,-0.0072769103571772575,,,,,,,,,
1739402429.4236279,0.5257034897066685,0.09591170833512061,-0.953338519830618,-2.069102533259543,0.1377533342912745,2.137569850498094,-1.275371165583934,0.00027615574485180007,0.0008072910614228398,0.0005602529271815752,0.00021123148634915977,0.0008705007436204297,-5.942853971474313e-05,0.0011813768139208752,0.2411382496356964,-21.72116470336914,-2.35798716545105,22.56842803955078,0.6737161874771118,2.2615859508514404,-0.04756011441349983,,,,,,,,,
1739402429.4346595,0.5257012140833158,0.09593009710427025,-0.9533412907444996,-2.0691072653594413,0.13775269983626004,2.1375738028451567,-1.2753718184932825,-0.00012282894031001655,0.0023903636009618735,-6.407950975473949e-05,0.0013008058152679572,-0.0006137170625776008,6.131503948924333e-05,0.0007041537171966027,0.2689092457294464,-21.72116470336914,-2.3064124584198,22.59223175048828,0.6801248788833618,2.2679946422576904,-0.06037749722599983,,,,,,,,,
1739402429.4456952,0.5256965701135213,0.09594252832110692,-0.9533433177807905,-2.069113860978658,0.1377580598852989,2.137574162113406,-1.275369097501279,-1.8548152439797723e-05,0.0007782601333287444,6.0660603940528656e-05,-0.0007643548223928563,0.00042296096996760147,0.00024163027988144848,0.00022986458577582062,0.2927129566669464,-21.74496841430664,-2.3064124584198,22.66364288330078,0.6737161874771118,2.2679946422576904,-0.06037749722599983,,,,,,,,,
1739402429.4556994,0.5257002638427296,0.095957315383718,-0.9533394820481692,-2.0691113967579553,0.13775656360032995,2.1375800925675454,-1.2753707621613506,0.0007584790906559611,0.00038619480071281774,-0.0007566065412844961,0.0009213186652592656,-0.0001698634522477289,0.002115255165498334,-9.80386512140182e-05,0.2411382496356964,-21.77273941040039,-2.3302161693573,22.59223175048828,0.6865335702896118,2.2551772594451904,-0.05396880581974983,,,,,,,,,
1739402429.4666145,0.5257036810349263,0.09596814555019074,-0.9533289604466562,-2.0691114688945524,0.1377549837995314,2.137578577218477,-1.2753685857875172,0.0007974778188601505,0.001154114599376162,0.001387385979281619,0.00031748476373383126,-0.0013086006882663313,0.00035412867021987016,0.0013053055339325573,0.1935308277606964,-21.82431411743164,-2.4571692943573,22.59223175048828,0.7002664804458618,2.2679946422576904,-0.06037749722599983,,,,,,,,,
1739402429.4776092,0.525703692808506,0.09597727171390039,-0.9533229392246353,-2.069111477433125,0.13775664441055704,2.13757933493239,-1.27536970420567,0.00030265088209183535,0.0014448506131841182,0.0005826925752855264,-0.0003836233247268655,-0.0016176935231080637,3.085387816174322e-05,0.0008557764039493199,0.1935308277606964,-21.87192153930664,-2.50874400138855,22.59223175048828,0.6865335702896118,2.2615859508514404,-0.06037749722599983,,,,,,,,,
1739402429.4896536,0.5257012640389775,0.09598851138541137,-0.9533257292942194,-2.0691161366995425,0.13775665564215245,2.1375786950098825,-1.2753783492742643,-0.0005698105847436366,0.0015004896654051843,1.3759832694129864e-05,-0.0008137080585647145,0.00047264810316770343,-9.734072399134557e-05,-0.0011394371237048568,0.2173345386981964,-21.89969253540039,-2.4571692943573,22.66364288330078,0.6865335702896118,2.2679946422576904,-0.013685601763427258,,,,,,,,,
1739402429.499664,0.5257036928046622,0.09599497529214315,-0.9533313739515803,-2.0691168506553095,0.13775382858575463,2.137578577272977,-1.2753741059522643,0.0005029230152260514,0.0009596966916819996,-0.0007985615247942505,-0.00040429585504665933,-0.0013785371571480548,-0.00033085994833965504,0.0018925832140708125,0.1935308277606964,-21.89969253540039,-2.38179087638855,22.66364288330078,0.6737161874771118,2.2679946422576904,-0.013685601763427258,,,,,,,,,
1739402429.5106652,0.525702218597537,0.09599722441306964,-0.9533314534244373,-2.069121915411813,0.1377566028965131,2.1375793349323913,-1.27537174209958,0.0003836999183909498,-0.000538812196955441,-0.0002913097299214333,-0.00010757661543427252,0.00016112095708685918,0.001206915234638543,0.0011589765478581529,0.2173345386981964,-21.92349624633789,-2.38179087638855,22.69141387939453,0.6865335702896118,2.2615859508514404,-0.03382720425724983,,,,,,,,,
1739402429.5206892,0.5257019537983662,0.09599965115747837,-0.9533313778766119,-2.0691181041210895,0.13775721742099603,2.1375810080808733,-1.2753693565216373,7.950359346586966e-05,0.0008315392776258048,0.0011572232299937814,-0.00020998846161221951,-0.0010100407975174224,0.001222248034773917,0.0009146542118052822,0.2173345386981964,-21.87192153930664,-2.38179087638855,22.63983917236328,0.6938577890396118,2.2753188610076904,-0.05396880581974983,,,,,,,,,
1739402429.532626,0.5257002295023833,0.09599793903225592,-0.953331374060616,-2.069116349788589,0.13775889562206534,2.137580092611079,-1.2753725225693893,-0.0004052151723783717,0.0006650916834754589,0.0001239374708648108,-0.0006987816237269805,-0.0005731875483952239,-3.351053840988557e-05,-7.873051019828141e-05,0.2411382496356964,-21.84811782836914,-2.38179087638855,22.61603546142578,0.6673074960708618,2.2551772594451904,-0.05396880581974983,,,,,,,,,
1739402429.542683,0.5256998345205462,0.09599422665809451,-0.9533329236723423,-2.0691153131706197,0.13776073563237576,2.1375800925924695,-1.2753756801411729,-0.00037806628774342537,-5.3381578057392015e-06,0.0006698388463130433,-0.00027878466334804036,0.0014800779743142833,1.1248039631890378e-05,-0.0017051301440170008,0.2173345386981964,-21.79654312133789,-2.38179087638855,22.59223175048828,0.6801248788833618,2.2551772594451904,-0.013685601763427258,,,,,,,,,
1739402429.5545936,0.5257000293365509,0.09599251604993192,-0.9533334343017806,-2.06911145615877,0.13776096918536135,2.1375831733981903,-1.275370969159192,-0.0006852525236846459,0.00038971389164036487,0.000639734126000047,0.0012046861777456725,-0.00013679276603027838,0.0007307603616885706,0.0006392312978190026,0.2411382496356964,-21.77273941040039,-2.35798716545105,22.54065704345703,0.6801248788833618,2.2679946422576904,-0.04023589566349983,,,,,,,,,
1739402429.564703,0.5257002677632051,0.09599446533356844,-0.9533343187037234,-2.0691171013110687,0.13776068249680162,2.137581761271209,-1.275368587717612,0.0011406375225959762,0.001781010918460241,0.0006870557832748809,-0.0008632035337379188,-0.0006916065874120983,0.0005724603692681642,0.0019899999959015324,0.2411382496356964,-21.79654312133789,-2.38179087638855,22.61603546142578,0.6801248788833618,2.2679946422576904,-0.06037749722599983,,,,,,,,,
1739402429.5757,0.5256982341780702,0.09599043529123874,-0.953335421277534,-2.0691136547439175,0.1377619944977067,2.1375793349563272,-1.2753710135483207,-0.0004280042238990087,5.0247036239471285e-05,-0.00016461668374261073,0.0009188358202859417,-0.00034631104882568126,0.000743712475794925,0.0008996537224602903,0.2689092457294464,-21.74496841430664,-2.35798716545105,22.59223175048828,0.6801248788833618,2.2615859508514404,-0.06678618490695953,,,,,,,,,
1739402429.5866585,0.5256998066850739,0.09598877794570573,-0.9533405497454641,-2.0691114548896645,0.13776513678767055,2.1375837469792938,-1.2753740672431562,0.0005724912455724372,4.407920182887814e-06,-0.001781769373890488,0.00027699184863927276,0.001792989235949079,0.0008577045549336133,-1.1318387700831253e-05,0.2173345386981964,-21.72116470336914,-2.3064124584198,22.54065704345703,0.6544901132583618,2.2551772594451904,-0.027418512850999832,,,,,,,,,
1739402429.5966911,0.5256995495312563,0.09599049050252272,-0.9533325098743844,-2.069110714420463,0.13776240307746676,2.137577768125427,-1.2753741583906302,0.0005193056694719725,0.0006708289524153016,-0.0003064806459107831,0.00037658380904252676,0.001479969582178238,-0.00015854780663218768,0.00039923359378387854,0.2411382496356964,-21.74496841430664,-2.4095618724823,22.54065704345703,0.6737161874771118,2.2753188610076904,-0.013685601763427258,,,,,,,,,
1739402429.6076202,0.5257019769044154,0.09599028134603929,-0.953334344917417,-2.0691168025670854,0.13776167907116757,2.1375804097523656,-1.2753796275188634,0.0003705386152400169,5.976978433972521e-05,0.00019322183520552102,-0.0007394978258978736,0.0008535736583171218,-0.0011559447893465654,-0.0017540297417090844,0.2173345386981964,-21.74496841430664,-2.38179087638855,22.59223175048828,0.6737161874771118,2.2615859508514404,-0.0072769103571772575,,,,,,,,,
1739402429.6185954,0.5257016623965163,0.09599401657882926,-0.9533325085595072,-2.0691145759425544,0.1377585322351036,2.1375782406887778,-1.2753694130010482,0.0006146415096888163,0.0013805210478427875,-0.0003318779396914257,-0.0004927333176307938,3.997051388828193e-06,-0.0008626186315267449,-0.00035357203615991287,0.2173345386981964,-21.82431411743164,-2.4095618724823,22.59223175048828,0.6737161874771118,2.2753188610076904,-0.06678618490695953,,,,,,,,,
1739402429.6286519,0.5257044487062974,0.0959986491752571,-0.9533300099079606,-2.0691162830223804,0.1377661050749539,2.13758030900245,-1.2753752637182647,0.0012608091800441837,0.0019602096180225455,0.0007426325831828045,0.0006460509616282989,0.001377052811405715,-0.0013971470404429897,0.0002881893472764342,0.1697271168231964,-21.84811782836914,-2.4095618724823,22.61603546142578,0.6737161874771118,2.2817275524139404,-0.04023589566349983,,,,,,,,,
1739402429.6394815,0.5257016620532861,0.09600178243106641,-0.9533292984254778,-2.0691198483751383,0.1377628625617378,2.1375822859818343,-1.2753720732053764,-0.0001884839661799444,0.00034431837242283425,0.0005476341227818558,-0.0008389747193883378,0.0008154718504682197,-0.0003257574741847383,0.001508584151349203,0.2173345386981964,-21.87192153930664,-2.4095618724823,22.66364288330078,0.6737161874771118,2.2679946422576904,-0.06678618490695953,,,,,,,,,
1739402429.649668,0.5256974054343021,0.09599817551849033,-0.9533345656208931,-2.069118388532493,0.13776215880283807,2.137581722080602,-1.2753716126921906,-0.0003868439752756147,-0.00022153118927534704,-0.001015166290344402,-0.0002368442070654082,0.0008546610990067945,0.0014625274354641772,0.00038873521517466083,0.2411382496356964,-21.84811782836914,-2.38179087638855,22.63983917236328,0.6801248788833618,2.2817275524139404,-0.07411040365695953,,,,,,,,,
1739402429.6606874,0.52570026760573,0.09600068142419886,-0.9533275158633708,-2.0691154412001618,0.13776215831559735,2.1375800431777354,-1.275381312818095,-0.0004261724405956475,0.0009907141664560375,0.0003271178940585426,0.0009651007468620958,0.0006070175754527697,-0.0003631930671488826,-0.0015595659400193993,0.2411382496356964,-21.87192153930664,-2.4333655834198,22.61603546142578,0.6801248788833618,2.2679946422576904,0.019273381680250168,,,,,,,,,
1739402429.671667,0.5257002412762888,0.09600000524164544,-0.9533316931512363,-2.0691206666473616,0.13775895801618507,2.137582279688405,-1.2753764135761547,0.0012304485109768675,0.0012447693828055966,-0.0002697037127340778,-0.002573234587271521,-0.0006739761169886312,7.215781928619579e-05,-0.0010248294112196001,0.2411382496356964,-21.87192153930664,-2.38179087638855,22.66364288330078,0.6801248788833618,2.2679946422576904,-0.0072769103571772575,,,,,,,,,
1739402429.6826165,0.5256998335031275,0.09599988835396686,-0.9533345797947859,-2.069118143250508,0.13776217120367548,2.137583345637877,-1.2753733526793727,0.0010855945075606242,0.00036245404738405795,3.872710329344369e-05,-0.0005324859305183896,0.001036984481154976,0.00033139164357796994,0.0006978595581283334,0.2173345386981964,-21.87192153930664,-2.38179087638855,22.63983917236328,0.6801248788833618,2.2679946422576904,-0.06037749722599983,,,,,,,,,
1739402429.6936007,0.5256953690730616,0.09599671131658363,-0.9533342732573341,-2.0691163597025612,0.13776180338292313,2.1375801667295065,-1.2753714830719558,-0.0017493486936253494,-0.0008364186878701845,0.0002597534284857999,-0.0002320077910447513,-0.0004498475085030716,-0.0004919324872805806,0.002162313487224516,0.2689092457294464,-21.79654312133789,-2.38179087638855,22.61603546142578,0.6801248788833618,2.2679946422576904,-0.06678618490695953,,,,,,,,,
1739402429.703718,0.5256981208607439,0.09599571006349128,-0.953334473878271,-2.0691163605693044,0.13776053475226754,2.137583345428554,-1.275374059464504,0.00036199177061077233,-0.0006529757056253496,-0.00010266045114727619,-0.0005090845555637822,-0.00044229171662985814,-4.747270106978025e-05,0.000992129244083098,0.2411382496356964,-21.77273941040039,-2.38179087638855,22.61603546142578,0.6938577890396118,2.2679946422576904,-0.05396880581974983,,,,,,,,,
1739402429.714704,0.5257000171994,0.09599572404100068,-0.9533361354429538,-2.069112794197784,0.13776641060113354,2.1375817220865825,-1.2753683564850895,3.8698033454478216e-05,0.0004143552480315762,0.0005732281980620508,0.0005408445032116216,0.0011006913172436452,-0.0006693769756264392,-1.3717356602229195e-05,0.2411382496356964,-21.77273941040039,-2.35798716545105,22.56842803955078,0.6801248788833618,2.2817275524139404,-0.06678618490695953,,,,,,,,,
1739402429.7256043,0.5256997549011331,0.09599473018543592,-0.9533346188056292,-2.0691107144079233,0.13776447117587884,2.1375833456438946,-1.2753732228231165,3.239889499897711e-05,0.00022417982943072305,0.0004482028327328614,0.000494721237469811,0.000887441830108602,-0.00012810793237292236,0.00024186882421289936,0.2173345386981964,-21.77273941040039,-2.4095618724823,22.54065704345703,0.6608988046646118,2.2679946422576904,-0.06037749722599983,,,,,,,,,
1739402429.7356608,0.5256972277021927,0.09599525847804502,-0.9533324335873214,-2.0691127176683577,0.13776161288823077,2.1375848609640515,-1.2753733404208918,-0.0017157137451993725,0.0015130821040123554,0.0009989406841778665,7.950424829672372e-05,0.00020194584361976075,0.0006707420434718203,-0.0005485253200158584,0.2689092457294464,-21.79654312133789,-2.4095618724823,22.56842803955078,0.6737161874771118,2.2551772594451904,-0.06037749722599983,,,,,,,,,
1739402429.745684,0.5257009467961008,0.09599346744933082,-0.9533303582136686,-2.0691127941964824,0.13776447133353859,2.1375841033039733,-1.275373301031985,-0.0004956998471232269,0.0011557867764491877,0.00028298623815550513,-0.00037515319575298167,-0.0008385489207129155,0.0001943576643290194,-0.0008530066701448562,0.2173345386981964,-21.77273941040039,-2.4095618724823,22.56842803955078,0.6865335702896118,2.2615859508514404,-0.03382720425724983,,,,,,,,,
1739402429.756662,0.5256995482176984,0.0959908602496536,-0.9533325039337206,-2.0691122234315946,0.13776054838599625,2.1375841033039733,-1.2753735996051112,0.00047012500023974036,0.0002860514787284577,-0.0005984802830157969,3.4467131864631675e-05,-0.0009959221188511605,-7.747736613478154e-05,-0.001016833313631131,0.2411382496356964,-21.74496841430664,-2.4095618724823,22.59223175048828,0.6938577890396118,2.2615859508514404,-0.05396880581974983,,,,,,,,,
1739402429.7675831,0.5256981506675467,0.09599488663990445,-0.9533324379684769,-2.0691127941495,0.13776154988170475,2.137584103949995,-1.2753717160558262,-0.0005737552345201028,-0.0006850761634266878,-0.0005414784474759443,0.0006655234094170317,-7.820384498695768e-05,0.00010656771153080946,0.001098012783276092,0.2689092457294464,-21.77273941040039,-2.38179087638855,22.56842803955078,0.6865335702896118,2.2615859508514404,-0.07411040365695953,,,,,,,,,
1739402429.7776701,0.5257035829182889,0.09599525201687004,-0.953331682726183,-2.069113889127498,0.13776053524835052,2.137584103303984,-1.2753701577938532,0.0012233556025673708,-0.00021365797943541094,0.0009060631857092933,0.0011652088874260723,-0.0011095951410689284,2.8152632263527972e-05,-0.00032306357811079953,0.1935308277606964,-21.77273941040039,-2.4095618724823,22.59223175048828,0.6938577890396118,2.2615859508514404,-0.06037749722599983,,,,,,,,,
1739402429.7886744,0.5256978471330592,0.09599663533272536,-0.9533354176758266,-2.069113041442793,0.13776139968042908,2.1375841037884897,-1.2753721504110127,-0.000360974187628929,0.0005074050177829744,-0.0012170279633506112,0.00028236541123361777,-0.0009351918241818971,-0.0008579429224686076,0.0006031790220690048,0.2411382496356964,-21.79654312133789,-2.35798716545105,22.56842803955078,0.6865335702896118,2.2615859508514404,-0.04023589566349983,,,,,,,,,
1739402429.7997007,0.525703374758247,0.09600000669287417,-0.9533295708941137,-2.0691145665559865,0.1377622593570147,2.137584104757526,-1.2753724781952935,0.0010074166075067904,0.001783614109739306,0.0014310822834449196,0.0004205874918878518,-0.00030882468452250267,0.00011833939594774065,0.0003248614737893547,0.1935308277606964,-21.87192153930664,-2.4095618724823,22.59223175048828,0.6801248788833618,2.2615859508514404,-0.06678618490695953,,,,,,,,,
1739402429.8106673,0.5256971639269298,0.09600112654629972,-0.9533314443274856,-2.0691163595517583,0.13776291646378833,2.1375833063980463,-1.2753741119181712,-0.001185282363790804,0.00015217366812362285,0.0007393134746124229,0.0004809343430046336,-0.001129622329994493,-0.0008196846688654925,-0.0009420334625309631,0.2411382496356964,-21.84811782836914,-2.4095618724823,22.61603546142578,0.6737161874771118,2.2679946422576904,-0.05396880581974983,,,,,,,,,
1739402429.821666,0.5256971325158147,0.09600113533118546,-0.9533353907353993,-2.0691181422288354,0.1377635765551712,2.137585658660386,-1.2753748302253922,-0.00025704616562200714,0.000786685934303537,-0.0003592261815479155,0.0006177642787696547,0.002920267236860362,-0.00036962584929235243,-0.0005451373511593113,0.2411382496356964,-21.84811782836914,-2.35798716545105,22.63983917236328,0.6801248788833618,2.2753188610076904,-0.04756011441349983,,,,,,,,,
1739402429.8326304,0.5257000190952351,0.0960026110771421,-0.9533304794689283,-2.0691171023159924,0.13776488727212444,2.1375851629480844,-1.275371523771297,0.00047249489994640804,0.0010747400788009545,0.0019689783834514786,8.2504432648258e-05,0.0008649387079643295,0.0001426645284149202,0.0019576686007833975,0.2411382496356964,-21.87192153930664,-2.4333655834198,22.61603546142578,0.6673074960708618,2.2615859508514404,-0.06678618490695953,,,,,,,,,
1739402429.8435857,0.5256972326078694,0.09600013407228293,-0.9533343510936071,-2.0691154020594653,0.13776443179022563,2.1375833412892256,-1.2753737542317525,-0.0005363100177511385,0.00019303377922420025,5.9947873440906096e-05,0.00027534102973020866,0.00014938965618811864,-0.0009149590178218565,0.00032917544277681003,0.2689092457294464,-21.82431411743164,-2.38179087638855,22.59223175048828,0.6608988046646118,2.2679946422576904,-0.05396880581974983,,,,,,,,,
1739402429.8536766,0.5257009438527446,0.09599742780479396,-0.9533322734087244,-2.069118585823348,0.13776384909441,2.1375841033038996,-1.275374111805113,0.00042251078731381296,-0.001014777774446668,-0.0004140652975314923,0.0002052037092338154,0.0007670448291356935,-9.05891475961335e-05,0.0006512128690739561,0.2173345386981964,-21.79654312133789,-2.4095618724823,22.61603546142578,0.6673074960708618,2.2615859508514404,-0.05396880581974983,,,,,,,,,
1739402429.8637278,0.5257026995439315,0.09599934096668922,-0.9533361365297324,-2.0691153197897294,0.13776227885572878,2.1375859238696813,-1.275373538392012,0.0012715288615881555,0.00034342478658117655,-0.0006777166942344985,0.00047446690404649077,0.0007449481553705541,0.0007517811024974101,0.0011241210212192764,0.1935308277606964,-21.82431411743164,-2.35798716545105,22.59223175048828,0.6801248788833618,2.2487685680389404,-0.06678618490695953,,,,,,,,,
1739402429.8746698,0.5256988689580656,0.09599742454451034,-0.9533362830503037,-2.0691145768789916,0.13775551254296037,2.1375848609657746,-1.2753781151376353,-0.0002108988462816938,-0.0005950853384917205,-0.0005939396495784053,0.00011508873088452938,-0.0024147025674557034,-0.00020457609718862714,-0.0009228762139524501,0.2173345386981964,-21.79654312133789,-2.35798716545105,22.59223175048828,0.7002664804458618,2.2551772594451904,-0.020094294100999832,,,,,,,,,
1739402429.8846726,0.5256999102502081,0.0959928595022842,-0.9533317047598823,-2.0691145772139596,0.13776217622802456,2.1375848609640515,-1.2753772506886116,0.0004832055568053773,-0.0011862636728499681,0.00020202681175898347,3.895356195120775e-05,0.00025140397068144893,-0.00028327249571101845,-0.0007836044509421127,0.2411382496356964,-21.77273941040039,-2.38179087638855,22.59223175048828,0.6801248788833618,2.2551772594451904,-0.027418512850999832,,,,,,,,,
1739402429.8947365,0.5256988445258647,0.0959956742050961,-0.9533285456298324,-2.069114576874815,0.13776339326038306,2.1375848609640515,-1.275376492544041,-0.00012100233608198641,-0.00018989386876675873,0.0007257331755975146,-0.00013016794396693366,3.388368803008526e-05,-0.00016374855771710342,-0.0006256041301252169,0.2173345386981964,-21.77273941040039,-2.4333655834198,22.59223175048828,0.6737161874771118,2.2551772594451904,-0.03382720425724983,,,,,,,,,
1739402429.9056458,0.5256951571395411,0.09599477406636502,-0.9533324113886729,-2.0691127941977787,0.13776291651812128,2.1375833515119305,-1.2753733090910317,-0.0004411220929592405,-0.00040825737348436505,-0.000788522455009505,0.0011238407861043308,-0.0009774515512188152,-0.000570395489693124,0.00024038973549962445,0.2689092457294464,-21.77273941040039,-2.38179087638855,22.56842803955078,0.6737161874771118,2.2679946422576904,-0.06037749722599983,,,,,,,,,
1739402429.9166198,0.5256997947861269,0.09599370172594815,-0.9533324861756314,-2.069117791110457,0.13776367412329996,2.137584860964151,-1.2753732688918433,-0.0002876615634474287,-0.0009389555037799513,0.0007339938511556995,-0.00040922100267242893,-0.0009758382511083285,-0.00026146028067344307,0.0005410797417336826,0.2173345386981964,-21.74496841430664,-2.4095618724823,22.59223175048828,0.6673074960708618,2.2551772594451904,-0.03382720425724983,,,,,,,,,
1739402429.9276206,0.5256987630563118,0.09599356880458772,-0.9533323320410028,-2.0691159152075547,0.13776519446577465,2.1375856186241298,-1.2753795806654098,-0.0010212434148735954,-0.0011346967193475409,-0.0010638441358261051,-0.0005076228607677556,0.0011335318718394176,-0.00038941398555352114,-0.0021562029801717062,0.2173345386981964,-21.77273941040039,-2.38179087638855,22.61603546142578,0.6544901132583618,2.2487685680389404,-0.013685601763427258,,,,,,,,,
1739402429.9376314,0.5257008287878329,0.09599942277430194,-0.9533361354053411,-2.0691127856869844,0.13776383159738387,2.1375841033039733,-1.2753757172918174,0.0011323260451810322,0.0002991379538721565,-0.0013213396540339944,0.0008236105486526979,-0.000610811113130521,-0.00033142331069370667,0.00028977077486671047,0.1935308277606964,-21.82431411743164,-2.35798716545105,22.56842803955078,0.6673074960708618,2.2615859508514404,-0.04023589566349983,,,,,,,,,
1739402429.9476652,0.5256990088920589,0.09599742194675068,-0.9533315577169498,-2.0691168021147255,0.13776141426856414,2.1375865245582824,-1.2753757353681732,-7.462192233637088e-05,-4.168575765759228e-05,-0.00043490351179038117,5.4184432581448074e-05,-0.0012084369643879955,0.0013029592212766912,0.00024690025308833494,0.2173345386981964,-21.79654312133789,-2.4095618724823,22.59223175048828,0.6865335702896118,2.2679946422576904,-0.04023589566349983,,,,,,,,,
1739402429.9587507,0.5256978441734667,0.09599918604769203,-0.9533314537642639,-2.069119656216336,0.13776367412337312,2.1375841031065774,-1.275377552666687,0.0009690242318571603,-0.000457509904053827,0.0014597638129069715,-0.0010855086725337845,3.2978722235050826e-05,-0.00013270099580353092,5.772332994004629e-05,0.2411382496356964,-21.82431411743164,-2.38179087638855,22.61603546142578,0.6673074960708618,2.2615859508514404,-0.03382720425724983,,,,,,,,,
1739402429.969655,0.5257005009803777,0.09600284785072889,-0.9533334877114545,-2.0691193265948735,0.13776804402679282,2.137584103303972,-1.2753800189168825,0.0005798115314946104,0.0008764806993936378,9.585869396317576e-05,-0.0013465146969217521,0.00288286146468386,-0.00027548729092292533,-0.0002591324552299163,0.1935308277606964,-21.87192153930664,-2.35798716545105,22.61603546142578,0.6673074960708618,2.2615859508514404,-0.0008682189509272575,,,,,,,,,
1739402429.9806573,0.5257018614058848,0.0959957123851052,-0.9533323585157056,-2.0691231581647784,0.1377629033241745,2.1375848668320874,-1.2753748694691547,0.001263085341593291,-0.00117859781892094,0.0011999808417620967,-0.0016870669851013055,-0.00019996669596618552,-5.709280182104539e-05,0.0009711966694234732,0.2173345386981964,-21.77273941040039,-2.38179087638855,22.66364288330078,0.6737161874771118,2.2551772594451904,-0.04756011441349983,,,,,,,,,
1739402429.9916148,0.5257011894311231,0.0960011340322239,-0.9533303304032503,-2.0691160535654407,0.13776394429577954,2.137584107664657,-1.275378821918248,0.002031462253347404,-0.000304182514074677,0.0002678732094413734,0.0007492641556998761,-0.0002633478711989853,0.00033205819311218074,-0.00029762219089996347,0.1935308277606964,-21.84811782836914,-2.4095618724823,22.61603546142578,0.6737161874771118,2.2615859508514404,-0.013685601763427258,,,,,,,,,
1739402430.0026171,0.5256973712716115,0.095997424869728,-0.9533293044268001,-2.0691166905684772,0.13776292960346043,2.137586524558356,-1.2753795881372363,-0.0006960301816425618,-0.0011607910479462236,0.0008858624642667961,0.0009899444777492564,-0.00014794671759183254,0.0008575371678670282,-0.0013036729132290487,0.2411382496356964,-21.79654312133789,-2.4095618724823,22.61603546142578,0.6737161874771118,2.2679946422576904,-0.0072769103571772575,,,,,,,,,
1739402430.0126815,0.5256987645860512,0.09599532031068754,-0.9533335463189329,-2.069112794203384,0.1377633932597203,2.1375841033578085,-1.275374071773507,-0.00018799839669405845,-0.0008961888749510746,0.000245611582116217,0.0009069149720693863,0.0005258978259399132,8.907844446093251e-05,-0.0003682624096520342,0.2173345386981964,-21.79654312133789,-2.38179087638855,22.56842803955078,0.6737161874771118,2.2615859508514404,-0.027418512850999832,,,,,,,,,
1739402430.022692,0.5256987616372063,0.0959957123133779,-0.9533296475202373,-2.0691185847918883,0.13776139692524408,2.137585657869987,-1.2753760220244428,-0.0003750671447633535,-0.001167735836518228,2.4222118162640655e-05,-0.0011172839477628298,-0.00041485099697474774,0.00012416173558215939,0.00018562548747318394,0.2173345386981964,-21.77273941040039,-2.4095618724823,22.61603546142578,0.6865335702896118,2.2487685680389404,-0.03382720425724983,,,,,,,,,
1739402430.032697,0.5256994362456554,0.09599742779274849,-0.9533300094557928,-2.069116606813275,0.1377626720517104,2.1375841039502173,-1.2753745156098562,8.38733411606086e-05,-0.00034825845337351413,0.0007465193476130733,-0.0002711164745063646,0.0009393009092736607,0.0005788238208717697,0.0014521950807193887,0.2411382496356964,-21.79654312133789,-2.4095618724823,22.61603546142578,0.6801248788833618,2.2615859508514404,-0.04756011441349983,,,,,,,,,
1739402430.0437071,0.5257026204015908,0.09599942281065256,-0.953333872877594,-2.0691169035041868,0.13776326997381833,2.137582484107324,-1.275377290719564,0.001078735389700951,0.0006871125126759025,-0.00020187146711494303,-0.0007165260080875744,0.00017613193270328177,-0.0002871108131559943,0.00032270208947176595,0.1935308277606964,-21.82431411743164,-2.35798716545105,22.59223175048828,0.6737161874771118,2.2753188610076904,-0.05396880581974983,,,,,,,,,
1739402430.0547018,0.5256970491204637,0.09599716277420008,-0.9533331831693493,-2.0691145769922294,0.13776565439981575,2.1375841033039813,-1.2753698731928529,-0.0005614645349663631,-6.8799080013968355e-06,0.00016220580066924218,-0.0005311661559879561,-0.0006219629483697423,-0.0005969210479206595,0.0005976085627219169,0.2411382496356964,-21.79654312133789,-2.35798716545105,22.59223175048828,0.6865335702896118,2.2615859508514404,-0.05396880581974983,,,,,,,,,
1739402430.0656757,0.5256970883986205,0.09599370563769011,-0.953334110739128,-2.069114604346898,0.13776227698665536,2.1375855161548123,-1.275375730014868,-0.00022320590884372624,-0.00051730760189209,-0.000577701062099202,-0.0009845569924676247,-0.0011367007358406083,0.0007470754494664762,0.0002782757919811887,0.2411382496356964,-21.74496841430664,-2.35798716545105,22.59223175048828,0.6801248788833618,2.2615859508514404,-0.04023589566349983,,,,,,,,,
1739402430.076592,0.5257004830247658,0.09599571234896928,-0.9533314752555909,-2.0691166893302215,0.13776185020302018,2.137584860972027,-1.2753748694712168,0.0008644217533906159,-0.0002647399243644878,0.0006807705179328407,-0.0015198513048309131,-0.000287148979326406,-0.00044354300758132177,0.0011474975712085678,0.1935308277606964,-21.77273941040039,-2.4095618724823,22.61603546142578,0.6737161874771118,2.2551772594451904,-0.04756011441349983,,,,,,,,,
1739402430.0866878,0.5257007907655071,0.09599739845450249,-0.9533353053761848,-2.069112794203363,0.13776473705474032,2.137584861125557,-1.2753741118111686,0.0005942648257923352,7.267549888852101e-05,-0.000898080548470451,0.000759450883033922,0.0011065169086151856,0.0010969231426167492,0.0011264933979465773,0.1935308277606964,-21.79654312133789,-2.35798716545105,22.56842803955078,0.6673074960708618,2.2551772594451904,-0.05396880581974983,,,,,,,,,
1739402430.0986633,0.5257005801234877,0.09599742432830481,-0.9533300226205575,-2.069118152441372,0.13776328390855377,2.1375859206021817,-1.2753781165858684,0.001025683184405843,0.00039032222502224993,0.0003195542900522282,-0.0010174485095296123,0.0016646671460203457,0.00044011853536879387,-0.0005394137475584991,0.1935308277606964,-21.79654312133789,-2.4095618724823,22.63983917236328,0.6737161874771118,2.2551772594451904,-0.020094294100999832,,,,,,,,,
1739402430.1087172,0.5256990039809192,0.09599710611854324,-0.9533314534285495,-2.0691163595518742,0.1377628642964681,2.1375841558531046,-1.2753781165858684,-3.590029664549551e-05,-0.001648931410039673,-0.001456656122696347,-3.044593482768866e-05,-0.00015191225955119082,0.0006901357701158577,-0.00043357579087383025,0.2173345386981964,-21.79654312133789,-2.38179087638855,22.61603546142578,0.6737161874771118,2.2615859508514404,-0.020094294100999832,,,,,,,,,
1739402430.1196508,0.5256973670092319,0.09599942280880369,-0.9533316241443623,-2.069119338748401,0.13776251457743996,2.13758835929939,-1.2753722432787427,-0.00041514507258370495,-0.0001320898094114677,0.00017536958513239193,-0.00135177564229465,-0.0002911891662599166,0.0020012497742096054,0.0013559054117770726,0.2411382496356964,-21.82431411743164,-2.38179087638855,22.61603546142578,0.6801248788833618,2.2615859508514404,-0.06678618490695953,,,,,,,,,
1739402430.130689,0.5257004780842677,0.0959978432150695,-0.9533332361028688,-2.069116446019881,0.137767536350597,2.137586524743813,-1.2753772506866423,0.001674350755027225,-0.001602538237032055,-0.0008272905037799067,-8.646709335354962e-05,0.0006900620731111866,0.0006835895499073212,-0.000282875290465318,0.1935308277606964,-21.77273941040039,-2.35798716545105,22.61603546142578,0.6737161874771118,2.2679946422576904,-0.027418512850999832,,,,,,,,,
1739402430.141621,0.5256987630907287,0.09600155368868257,-0.9533320892441023,-2.0691203674693956,0.13776520952087626,2.1375848629200647,-1.275374571563728,0.0006023201675703869,-0.0005908774541680292,0.0010861615816417354,-0.00012400087566070386,0.001006238087821202,0.00041400991984505246,-0.0002925131834271121,0.2173345386981964,-21.82431411743164,-2.38179087638855,22.63983917236328,0.6673074960708618,2.2551772594451904,-0.05396880581974983,,,,,,,,,
1739402430.152591,0.5256950511755968,0.09599942576968835,-0.953327904706986,-2.0691163609461483,0.13776368727213445,2.137583345805433,-1.2753803947256044,-0.0007652816531837185,-0.0005705826047409094,0.0004927387853725111,0.0004071151578920425,-0.00018572195617502107,-0.00039074745224392546,-0.0010102266869524942,0.2689092457294464,-21.82431411743164,-2.4095618724823,22.61603546142578,0.6673074960708618,2.2679946422576904,-0.027418512850999832,,,,,,,,,
1739402430.1626554,0.525698871525555,0.09600137209424546,-0.9533316212289697,-2.0691173577047786,0.1377639794127934,2.137584562265451,-1.2753788743176402,0.0005474094311970648,0.0007419045757317807,-0.000693913996552715,-0.00028631686763257625,-0.0006086466006604428,0.0006942567409012701,-8.930769684795158e-05,0.2173345386981964,-21.84811782836914,-2.38179087638855,22.61603546142578,0.6737161874771118,2.2679946422576904,-0.013685601763427258,,,,,,,,,
1739402430.1735873,0.5256987969590476,0.09599602915289321,-0.9533335561679578,-2.0691185852874234,0.13776594781157903,2.1375848609709194,-1.2753788742460572,8.549643737395102e-05,-0.0014448790565770005,-0.00022144124441353852,-0.000800508335910508,0.0014964812976743357,0.00017052403467348752,-0.0008654634161887315,0.2173345386981964,-21.77273941040039,-2.38179087638855,22.61603546142578,0.6480814218521118,2.2551772594451904,-0.013685601763427258,,,,,,,,,
1739402430.1837215,0.5256987616377545,0.09599750379607992,-0.9533355419415064,-2.069115880381053,0.13776473658526453,2.1375859206021808,-1.2753764930285578,9.526733365534082e-05,-0.0005031131794103398,-0.0016053028325599314,-0.0006488520351487444,0.00014517693903941871,-0.000379186622376114,-0.0004132794161592832,0.2173345386981964,-21.79654312133789,-2.35798716545105,22.56842803955078,0.6673074960708618,2.2551772594451904,-0.03382720425724983,,,,,,,,,
1739402430.1937494,0.5256951815042221,0.09599571527335411,-0.9533274339600235,-2.069112794363097,0.1377628519572097,2.1375880413499346,-1.275376794522092,-0.0013185969903650864,-0.00044012786931287213,0.00074712730171502,0.00047798574765015386,-0.0002973249672357841,0.0010158103956674149,-0.0003834672270738265,0.2411382496356964,-21.77273941040039,-2.4333655834198,22.56842803955078,0.6737161874771118,2.2551772594451904,-0.04023589566349983,,,,,,,,,
1739402430.205633,0.5257007129663231,0.09599371473295988,-0.9533352249713064,-2.0691145778922837,0.13776454988851305,2.137588341928279,-1.275377268137218,-0.0001460238708958466,-0.0006328101620318935,-0.0007604167951281135,0.00013106698098135474,0.001316375606200474,0.0006294734097105907,0.0002719408298992811,0.1935308277606964,-21.74496841430664,-2.3302161693573,22.59223175048828,0.6608988046646118,2.2615859508514404,-0.027418512850999832,,,,,,,,,
1739402430.216617,0.5256970769160229,0.09599785209232543,-0.9533353378624131,-2.069116802114871,0.1377644317835996,2.1375841576316597,-1.2753757353685122,-0.0005191780083030153,0.0005204518341494513,-0.00029470591654501597,-0.0006319643416966344,-0.00017452451767001605,0.00032973824953081815,0.0003679318761335039,0.2411382496356964,-21.77273941040039,-2.35798716545105,22.59223175048828,0.6608988046646118,2.2615859508514404,-0.04023589566349983,,,,,,,,,
1739402430.2266562,0.5256970756087908,0.09599200199614477,-0.9533324163669384,-2.0691127943108323,0.13776509090175204,2.1375849787043815,-1.275378874246057,-0.0006062220682551951,-0.0013582319558391957,0.00040561777642954765,0.001004186766827963,0.00023280587207169902,0.0001132563091980253,-0.0012316154742207704,0.2411382496356964,-21.72116470336914,-2.38179087638855,22.56842803955078,0.6673074960708618,2.2551772594451904,-0.013685601763427258,,,,,,,,,
1739402430.2366726,0.5256977939157207,0.09599740733175842,-0.9533359635628473,-2.069116802227924,0.13776219817964003,2.137586680254826,-1.275374830386896,-0.0003597156722096606,0.00028186366360005016,-0.0008116851735875072,0.000270929308000277,-0.0008237776232890359,-6.980089566209453e-05,0.0004940098096026655,0.2411382496356964,-21.79654312133789,-2.3302161693573,22.59223175048828,0.6801248788833618,2.2487685680389404,-0.04756011441349983,,,,,,,,,
1739402430.24669,0.5256994769055069,0.09599642263740536,-0.9533338733138598,-2.0691145769124843,0.13776296036867552,2.1375833587438255,-1.275374869470585,0.00015996204644713643,0.00016834920387700532,0.0019011128112618495,0.00037429393302966697,-0.0008600698166984658,-0.0006882480825120614,0.0006893939753996076,0.2173345386981964,-21.77273941040039,-2.35798716545105,22.59223175048828,0.6737161874771118,2.2679946422576904,-0.04756011441349983,,,,,,,,,
1739402430.257659,0.525695053160072,0.09599928254676156,-0.9533324996074478,-2.0691181422665204,0.1377649450322171,2.1375859718907484,-1.2753764799466054,-0.0006860319434606524,0.0013626468623272893,0.00010757297348448574,-0.0008506349096336274,0.0007923661483362233,0.0006806811228647384,-0.00046300571208609663,0.2689092457294464,-21.82431411743164,-2.4095618724823,22.63983917236328,0.6608988046646118,2.2487685680389404,-0.03382720425724983,,,,,,,,,
1739402430.268775,0.5256987626183364,0.0959996595711222,-0.9533352486825588,-2.0691145768747985,0.13776777811456453,2.1375841047635062,-1.275377814607706,-0.0004849435564154925,0.0006055569011923308,-0.001350961163430922,0.0011592135069051766,0.00011115015620377742,-0.0002609057923893324,-0.0015285166254865325,0.2173345386981964,-21.82431411743164,-2.3302161693573,22.59223175048828,0.6608988046646118,2.2615859508514404,-0.013685601763427258,,,,,,,,,
1739402430.279645,0.525699000055741,0.09600142760081243,-0.9533302478361076,-2.069116646821797,0.1377694902874192,2.1375880398784477,-1.2753733541451087,-0.00017151548383038267,0.0013397247958199573,-0.0003301858373885466,0.0007089488534190002,0.0010286316984387152,0.0005490263839411477,0.0018403028160895007,0.2173345386981964,-21.87192153930664,-2.4095618724823,22.61603546142578,0.6480814218521118,2.2551772594451904,-0.06037749722599983,,,,,,,,,
1739402430.290702,0.5256970579471915,0.09599943578700712,-0.9533275207528804,-2.0691186763660943,0.13776606528770557,2.1375819333014987,-1.2753811683087455,0.00047357199912197384,-0.0009463081952116173,0.001372083568148311,-0.000648988030364147,0.0007965624222667899,-0.0018679555310093967,-0.003924726983761665,0.2411382496356964,-21.82431411743164,-2.4333655834198,22.61603546142578,0.6480814218521118,2.2679946422576904,-0.0072769103571772575,,,,,,,,,
1739402430.3016546,0.5256950525928334,0.0960011354396667,-0.9533331580458605,-2.069119952391033,0.13776808642523986,2.137584860956079,-1.275382053169118,-0.0015677828540456298,-0.0005851667796202426,-0.0007925715233552176,0.00017624749072900976,0.0021701555212707796,-0.0008510222073418744,-0.001279276185760827,0.2689092457294464,-21.84811782836914,-2.35798716545105,22.66364288330078,0.6608988046646118,2.2551772594451904,-0.013685601763427258,,,,,,,,,
1739402430.3126342,0.5256970491164331,0.09599918897070785,-0.9533275114847111,-2.0691181452814464,0.13776611035466566,2.1375841033039733,-1.2753792787652058,-0.0005042698518564127,-0.0007125559224761822,0.00045821894171491274,0.0006295092859646236,0.0008304199286593755,-1.4317673734688323e-05,-0.0008069369085595066,0.2411382496356964,-21.82431411743164,-2.4333655834198,22.63983917236328,0.6737161874771118,2.2615859508514404,-0.0072769103571772575,,,,,,,,,
1739402430.3235788,0.5256950511755721,0.09600195376700953,-0.9533292941617221,-2.069114586032216,0.13776367563548045,2.1375841163859253,-1.2753809534794145,-0.0019670889304984943,0.0012462058536429651,-0.0005433276167320584,0.0013876366973482818,-5.6536460876283143e-05,-0.000850208349394657,-0.0012323942617090255,0.2689092457294464,-21.84811782836914,-2.4095618724823,22.59223175048828,0.6673074960708618,2.2615859508514404,0.012864691205322742,,,,,,,,,
1739402430.3337145,0.5256970873811353,0.09599813530739927,-0.9533314534244373,-2.0691146592911482,0.1377633281313706,2.137588157616083,-1.2753725960009539,-0.0004691224113698354,4.966468108584337e-05,0.00034208595333775493,0.0007278777512612563,-0.000265698968793409,-0.00041250885777951584,0.001973482962333217,0.2411382496356964,-21.79654312133789,-2.38179087638855,22.59223175048828,0.6737161874771118,2.2551772594451904,-0.06678618490695953,,,,,,,,,
1739402430.3455896,0.5257005654047202,0.0959994611383742,-0.9533331556660682,-2.0691175438620255,0.13776445074090493,2.137587937643072,-1.2753717305942174,0.0008240680475738015,-0.00017695337411222342,0.0011273456949065438,0.00021231652319998756,-0.0009972748471263069,0.0003502148540910813,0.0007715562275891867,0.1935308277606964,-21.82431411743164,-2.35798716545105,22.59223175048828,0.6608988046646118,2.2679946422576904,-0.07411040365695953,,,,,,,,,
1739402430.3556166,0.5256970757169097,0.09599571234923515,-0.9533331834465933,-2.0691080133946076,0.13776047598884425,2.137584861151479,-1.2753764931900633,-0.0006538615273689652,-0.0006346655318560995,-0.00017293522615676469,0.0020854106675417777,-0.0013060745461672568,0.001290571497329379,0.0004188721148761982,0.2411382496356964,-21.77273941040039,-2.35798716545105,22.51685333251953,0.6673074960708618,2.2551772594451904,-0.03382720425724983,,,,,,,,,
1739402430.3656993,0.5256987653502164,0.09599742486974999,-0.953329374071101,-2.0691128036787547,0.13776151919440316,2.1375826032984366,-1.2753749872088198,0.0010269137732271305,-0.00045633156138437793,0.002199809751367422,-0.00014862423470523472,-0.0012295490678537226,-6.847288456664224e-05,-0.0009858312771088289,0.2173345386981964,-21.79654312133789,-2.4095618724823,22.56842803955078,0.6865335702896118,2.2753188610076904,-0.04756011441349983,,,,,,,,,
1739402430.377575,0.525695051175593,0.09599571527201749,-0.9533341898125627,-2.0691145799273065,0.1377664127619399,2.1375838603628847,-1.2753717305948846,-0.0016332683959138555,-6.687639966856186e-05,-0.0007127472925241622,-1.7234437327883195e-05,0.0009833745962697289,-0.000513765485249447,0.00016252004294134632,0.2689092457294464,-21.77273941040039,-2.35798716545105,22.59223175048828,0.6801248788833618,2.2679946422576904,-0.07411040365695953,,,,,,,,,
1739402430.387576,0.52570050359228,0.09599742476154027,-0.9533345836260504,-2.0691121054330464,0.13776658234204472,2.1375846178694773,-1.2753741510570253,0.0012434689794175887,0.0010976378570401008,-0.0005391430960834504,0.0016344523382118,0.0001645913552699833,0.0009525450802870259,-0.0007948792215232691,0.1935308277606964,-21.79654312133789,-2.38179087638855,22.56842803955078,0.6737161874771118,2.2615859508514404,-0.05396880581974983,,,,,,,,,
1739402430.3976245,0.5256987645807617,0.09599595050216897,-0.9533363093020075,-2.0691164785936937,0.13776089023106627,2.1375842602903043,-1.2753715368535448,5.925747529071689e-05,0.0003400625040839152,-0.002226557264723676,-0.00047152937830275494,-0.001656731751167008,-0.0006277378107554671,0.0014793341228429202,0.2173345386981964,-21.74496841430664,-2.3302161693573,22.61603546142578,0.6938577890396118,2.2615859508514404,-0.06678618490695953,,,,,,,,,
1739402430.409649,0.525698761637173,0.09599734596140796,-0.9533360189657976,-2.0691148212899435,0.13776415195567965,2.137584156117185,-1.2753807482267425,-0.00019821220924020073,0.0002927394920472341,-0.0005480826137325156,-0.0006771343528632706,-0.001313188349786416,-0.0002873565979946024,-0.003364126283082579,0.2173345386981964,-21.79654312133789,-2.35798716545105,22.59223175048828,0.6737161874771118,2.2615859508514404,-0.0072769103571772575,,,,,,,,,
1739402430.419656,0.5256950512845884,0.0959994227018984,-0.9533362571037682,-2.069114604348277,0.137768103005512,2.1375849002102063,-1.2753787565147887,-0.0002674438828804293,-3.675930087773925e-05,-0.0016550068241123084,0.00012500506734105325,0.0005261827049341774,-0.0009876047671869687,-0.0005922350890476191,0.2689092457294464,-21.82431411743164,-2.35798716545105,22.59223175048828,0.6673074960708618,2.2551772594451904,-0.013685601763427258,,,,,,,,,
1739402430.4296615,0.5256990000557372,0.09599571234901695,-0.953327749955789,-2.069116360569767,0.1377665308877734,2.137584160154603,-1.275378874244063,-0.00017926735583865733,-0.0012273572183060149,0.0015874181102374207,0.0005484996679342075,8.64027209255891e-05,-0.0008036101410989951,-0.0003798331448769533,0.2173345386981964,-21.77273941040039,-2.4333655834198,22.61603546142578,0.6801248788833618,2.2615859508514404,-0.013685601763427258,,,,,,,,,
1739402430.4406364,0.5256970491177709,0.09600113533133423,-0.953330623682481,-2.0691168887141687,0.13776689532493225,2.1375866481103745,-1.2753782590921066,-0.0001889804131632991,-0.0005169041042764,-6.54424010872407e-05,0.0007439120922219519,0.0004660359188293481,-0.0004313259577807566,-0.00043039664920601446,0.2411382496356964,-21.84811782836914,-2.4333655834198,22.59223175048828,0.6801248788833618,2.2679946422576904,-0.03382720425724983,,,,,,,,,
1739402430.450652,0.5256970407766806,0.09600500892243602,-0.9533305305679279,-2.069114576913949,0.13776211606042346,2.1375847585506613,-1.275380389596122,-0.00195720322303058,0.0021525649759131953,-0.0002297254515406101,0.0017173097045999185,-0.0008005205310118767,0.001255396410328649,-0.000880758854874748,0.2411382496356964,-21.87192153930664,-2.4095618724823,22.59223175048828,0.6938577890396118,2.2679946422576904,-0.0008682189509272575,,,,,,,,,
1739402430.4616454,0.5256984509407442,0.09600156260219479,-0.9533292954768968,-2.0691199279583103,0.13776798058168718,2.137584576200296,-1.2753781165858686,-0.0007896240678632631,-0.0009846273123801045,0.000695323608224781,-0.0005693476357865345,-0.0010210924020938946,0.0003169673420212662,-0.001198581300581578,0.2173345386981964,-21.82431411743164,-2.4095618724823,22.66364288330078,0.6673074960708618,2.2615859508514404,-0.020094294100999832,,,,,,,,,
1739402430.4725883,0.5256992428877195,0.09600408562343243,-0.9533275115210492,-2.069120623875188,0.1377692144053878,2.137585162944772,-1.2753742703019806,0.00031717505234020546,0.0012714645674299816,0.0004608848172992412,-0.0007782599684813682,0.0010074976335394039,0.0003336533218602259,0.0004135976467128067,0.2173345386981964,-21.84811782836914,-2.4333655834198,22.63983917236328,0.6608988046646118,2.2615859508514404,-0.05396880581974983,,,,,,,,,
1739402430.4827154,0.5256987645887455,0.0960042259652542,-0.9533317193151167,-2.069116239893981,0.13776582945125554,2.137587456662336,-1.2753781209492032,-0.00014259458793780267,0.001375998755019809,-0.0013525779297399085,-0.0004325722043500927,8.390937147019321e-05,0.0018424926737850961,-0.002097893821986683,0.2173345386981964,-21.84811782836914,-2.38179087638855,22.61603546142578,0.6865335702896118,2.2615859508514404,-0.020094294100999832,,,,,,,,,
1739402430.4936223,0.5257016579813932,0.0960016706140484,-0.9533353160386165,-2.0691145772132837,0.13776658922001722,2.137584865343632,-1.2753764930285822,0.002318209593242636,-0.0001673066649198227,-0.000801634983401921,0.0004827957813755478,0.0008088785679617261,-0.0008182199954240914,0.00032270973437757195,0.2173345386981964,-21.82431411743164,-2.3302161693573,22.59223175048828,0.6801248788833618,2.2551772594451904,-0.03382720425724983,,,,,,,,,
1739402430.5037265,0.5256988412680821,0.09599742534085358,-0.9533343510782011,-2.06911153891008,0.13776618392380072,2.1375844623309583,-1.2753803372384047,-0.00020278630388783308,-0.00038554167928979606,0.0006411454160433747,0.001050052140017766,0.0008754823678562531,-0.0006439993181630237,-0.00014961829750398934,0.2173345386981964,-21.79654312133789,-2.38179087638855,22.54065704345703,0.6865335702896118,2.2615859508514404,-0.0008682189509272575,,,,,,,,,
1739402430.5146663,0.5256962792601155,0.09600226309926632,-0.953333474900229,-2.0691131242067904,0.13776578911070214,2.13758350327537,-1.275373878033056,-0.00043228283908725647,0.0005599683079995211,0.0011830675351101594,0.0005212135506461393,-0.0008340456733260088,0.000584440246495137,0.00174472639701626,0.2927129566669464,-21.82431411743164,-2.35798716545105,22.56842803955078,0.6865335702896118,2.2679946422576904,-0.020094294100999832,,,,,,,,,
1739402430.5246668,0.5256972875848036,0.09599232931138924,-0.9533352496148108,-2.0691163595574054,0.13776339106566438,2.1375886952333754,-1.2753730008666004,6.826193100886198e-05,-0.0011111856520522963,-0.0008140096422661563,-0.0001933973646540882,-0.0005752288884335944,0.0025076444062852614,0.001133797617671711,0.2411382496356964,-21.72116470336914,-2.3302161693573,22.61603546142578,0.6737161874771118,2.2615859508514404,-0.06037749722599983,,,,,,,,,
1739402430.535602,0.525697057948089,0.09599751256155924,-0.9533324820518573,-2.0691146592910967,0.13776682389205974,2.1375824802571004,-1.2753756953296747,-0.00031673906584529614,-0.0001885313338897859,-0.001087632825364216,0.0007941460538703613,-0.0015018364512644038,-0.000933385369108977,-0.0009475083930535887,0.2411382496356964,-21.79654312133789,-2.4095618724823,22.59223175048828,0.6801248788833618,2.2753188610076904,-0.013685601763427258,,,,,,,,,
1739402430.5456212,0.5256949344189993,0.09599371440965081,-0.953332420257207,-2.0691163595532123,0.13776702651917863,2.1375862744609213,-1.2753780483317998,-0.0002905749151872619,-0.0009404565959790213,-0.0002741946896284023,-0.0006119527036355414,-0.0009938721991725717,0.0006413208870578451,0.00020688498288904008,0.2411382496356964,-21.74496841430664,-2.4095618724823,22.61603546142578,0.6673074960708618,2.2551772594451904,-0.04756011441349983,,,,,,,,,
1739402430.5565772,0.5256950599700773,0.09599742497800923,-0.9533336296601288,-2.0691145769878516,0.1377670342734419,2.137588700907339,-1.2753788742998913,-0.0010903038624296328,-0.0004787388162833451,-0.0010568003334392399,-0.00017242651774733737,0.00039642388861165813,0.001874232197676168,-0.0001803368154835073,0.2689092457294464,-21.79654312133789,-2.38179087638855,22.59223175048828,0.6673074960708618,2.2615859508514404,-0.013685601763427258,,,,,,,,,
1739402430.5666792,0.5257009113291028,0.09599836315233383,-0.9533345351025202,-2.0691127941977805,0.1377630935973697,2.1375847979799567,-1.2753757353684805,0.001096881388084385,0.00036302266595850547,-0.0005345335360825891,0.00017294272295563724,-0.002304181484791449,-0.0003568985467571086,-0.00029924116341131996,0.2173345386981964,-21.79654312133789,-2.4095618724823,22.56842803955078,0.6737161874771118,2.2679946422576904,-0.04023589566349983,,,,,,,,,
1739402430.5776567,0.5256895201073726,0.09600013115238637,-0.9533257991676657,-2.069114689815652,0.13776694266327486,2.1375872865996897,-1.2753806886371641,-0.0026447766916616023,-6.607549136199782e-06,0.0021966769154998234,-0.00047358389759413245,0.001646261753583944,-5.259691688861708e-05,-0.0010711533203651453,0.3165166676044464,-21.82431411743164,-2.48494029045105,22.59223175048828,0.6801248788833618,2.2615859508514404,-0.0072769103571772575,,,,,,,,,
1739402430.5886366,0.5256970490807593,0.09600138087522068,-0.9533320892437278,-2.06911648165195,0.13776333349049982,2.137583350058455,-1.2753781166037643,-0.0007930280147553011,-0.0007211826889741618,0.0004875916497437238,-0.00047863203192689916,-0.0007074870067895573,-0.0007401742138380607,0.0007673920615967402,0.2411382496356964,-21.84811782836914,-2.38179087638855,22.61603546142578,0.6865335702896118,2.2679946422576904,-0.020094294100999832,,,,,,,,,
1739402430.5987418,0.5256987972854759,0.09600013634844906,-0.9533303284394374,-2.0691206697056903,0.13776764869117203,2.1375888176519626,-1.27537341083955,0.00048528612501329364,1.7829811129869944e-05,-9.657096874801741e-05,-0.0007502668514999425,4.7461444442893185e-05,0.0005532151069546815,-0.00032779932628880824,0.2173345386981964,-21.82431411743164,-2.4095618724823,22.66364288330078,0.6737161874771118,2.2615859508514404,-0.06037749722599983,,,,,,,,,
1739402430.610646,0.5256950776667265,0.09599681885582807,-0.9533331697163875,-2.069114501367067,0.13776694191358713,2.137584121473046,-1.2753765119250309,-0.0010483341434773972,-0.0012629864457846863,0.0005817350128164534,0.0011935289107112856,-0.0004681618712896392,-0.0009784822300822873,-0.0005944088098450604,0.2689092457294464,-21.82431411743164,-2.35798716545105,22.59223175048828,0.6801248788833618,2.2615859508514404,-0.03382720425724983,,,,,,,,,
1739402430.6215806,0.5256971970519498,0.09600116176796873,-0.953331374315039,-2.069120367468481,0.13776606631030647,2.137584010819691,-1.2753748694175187,-0.00014853350348574898,-0.0001523632541795746,-0.0004946582582052075,-0.0003088716866593829,-0.0007039403742998346,-0.0006174551559764204,0.0014294977792400972,0.2689092457294464,-21.84811782836914,-2.38179087638855,22.63983917236328,0.6865335702896118,2.2753188610076904,-0.04756011441349983,,,,,,,,,
1739402430.631648,0.5256975177897756,0.09599887225510599,-0.9533342379543068,-2.0691145799398147,0.13776451088680172,2.1375869975091075,-1.2753741117573332,0.00033052619653401566,0.00023108887121076234,0.00010674311961254165,0.00042189948205259423,-0.0005965709257556574,-0.00023998871566710805,0.0022992171121758256,0.2689092457294464,-21.77273941040039,-2.38179087638855,22.59223175048828,0.6737161874771118,2.2679946422576904,-0.05396880581974983,,,,,,,,,
1739402430.6416705,0.5256950513263606,0.09600431863868868,-0.9533285446803813,-2.0691177922866655,0.13776449754862138,2.1375838187555916,-1.2753709309587127,-0.001146259576292058,0.0016333621470473675,0.0015131160603783864,-0.0009539892282365348,-0.0017858717497965114,-0.0004699740173133982,0.0013512421438163303,0.2689092457294464,-21.84811782836914,-2.4333655834198,22.63983917236328,0.6737161874771118,2.2679946422576904,-0.05396880581974983,,,,,,,,,
1739402430.6526802,0.5256977643721633,0.0959980829189326,-0.9533339782900444,-2.0691188320764944,0.13776810241342516,2.1375855306929856,-1.2753741117932127,0.00010378069413741965,3.563648462478103e-05,-0.0012601439478855583,-0.0009274517403320391,6.743941045836919e-05,0.0008022398244904294,0.0009141573144675985,0.2411382496356964,-21.77273941040039,-2.35798716545105,22.61603546142578,0.6673074960708618,2.2615859508514404,-0.05396880581974983,,,,,,,,,
1739402430.6636412,0.5256971969548969,0.09599824334953119,-0.953334216280641,-2.0691164786394545,0.1377666230095793,2.1375827817488857,-1.275371693190727,-0.0005728642828151918,0.00045408564952725383,-0.0012371369487169518,-0.00048604722552462944,-0.000754448485727177,-0.001616723621737965,0.0016489372684083134,0.2689092457294464,-21.79654312133789,-2.35798716545105,22.61603546142578,0.6737161874771118,2.2817275524139404,-0.06678618490695953,,,,,,,,,
1739402430.6736631,0.5256950511876851,0.0959955108110746,-0.9533320892132966,-2.0691168021155417,0.1377669420698074,2.137587637105944,-1.2753722476342944,-0.0014602935643234184,7.451409888737863e-05,-2.0834454165617424e-05,-0.000568906496970946,-0.001239068394814957,0.001609146975746443,0.002059891920923909,0.2689092457294464,-21.77273941040039,-2.38179087638855,22.59223175048828,0.6801248788833618,2.2615859508514404,-0.06678618490695953,,,,,,,,,
1739402430.6855714,0.5256970756073783,0.09599742497687151,-0.9533363751199279,-2.0691127830233866,0.1377734781554677,2.137584103377757,-1.2753717698381075,0.00017312646113378552,-0.0009438135562331088,-0.0016574488688514987,0.001875301544926845,0.0011924366290118635,4.745462015734751e-05,0.0016803895387975253,0.2411382496356964,-21.79654312133789,-2.35798716545105,22.56842803955078,0.6608988046646118,2.2615859508514404,-0.07411040365695953,,,,,,,,,
1739402430.6956174,0.5256970491165746,0.09599963465676616,-0.9533353382076519,-2.0691181422287723,0.13776693610557023,2.137588045746476,-1.2753788742462784,-0.000774657063419814,0.00033004823942542577,-5.984638735630763e-05,-0.0005702022121894853,-0.0005066401564410303,-0.0021549812023466605,-0.0015445234765977056,0.2411382496356964,-21.79654312133789,-2.35798716545105,22.63983917236328,0.6801248788833618,2.2551772594451904,-0.013685601763427258,,,,,,,,,
1739402430.7065792,0.5256950600058898,0.09599571409364048,-0.9533342658384458,-2.0691127941977783,0.1377669419138416,2.1375872822363395,-1.2753748607499455,-0.0014242120985518908,-0.0014075012231928037,-0.0006223386703759458,0.0002734108240914096,2.4600635231872774e-05,0.0005034050060224444,0.0018471462947704245,0.2689092457294464,-21.77273941040039,-2.38179087638855,22.56842803955078,0.6801248788833618,2.2615859508514404,-0.04756011441349983,,,,,,,,,
1739402430.7166233,0.5256970491165746,0.09599584527424601,-0.9533342747054229,-2.0691163609084633,0.1377680479904087,2.137588094359656,-1.2753753535033314,-1.593365012985518e-05,-0.0007112627467514114,-0.001023051310586065,-8.749200578666753e-05,0.0009470287945850939,0.00010865470169289044,0.0005708505075626085,0.2411382496356964,-21.74496841430664,-2.38179087638855,22.61603546142578,0.6801248788833618,2.2551772594451904,-0.04756011441349983,,,,,,,,,
1739402430.727622,0.5256987616371563,0.09599966835452248,-0.9533300196813634,-2.069114576874805,0.13776618442205013,2.137586449712723,-1.2753726008548356,0.0005425655501443026,0.0015880522922938419,0.001601142832224553,0.00047481391127428903,-0.000234244463417364,0.001094356291255254,0.0014293074523887605,0.2173345386981964,-21.82431411743164,-2.4095618724823,22.59223175048828,0.6865335702896118,2.2551772594451904,-0.06678618490695953,,,,,,,,,
1739402430.7376413,0.5256987616371563,0.09599956450895511,-0.9533317941350768,-2.069113891614685,0.13776875287399837,2.137583857966509,-1.2753764799466794,-0.00020762889610742151,0.0009430021486657029,5.159161600624626e-05,0.001208905746967945,0.0004115281706294614,-0.0008355700086402256,0.001326355145779909,0.2173345386981964,-21.79654312133789,-2.4095618724823,22.59223175048828,0.6737161874771118,2.2679946422576904,-0.03382720425724983,,,,,,,,,
1739402430.7496068,0.5256971972698329,0.09600353804834218,-0.9533332755067805,-2.069114579923385,0.13776781821533865,2.1375855176112544,-1.2753759291093025,-0.0010304995265639654,0.0006018952422389452,-0.0008503155071716438,0.0013006458676102447,0.0009838642801122883,3.342916468993413e-05,0.000592052609649,0.2689092457294464,-21.84811782836914,-2.35798716545105,22.59223175048828,0.6737161874771118,2.2615859508514404,-0.04756011441349983,,,,,,,,,
1739402430.759626,0.5256987620126586,0.09599768798928261,-0.9533324996767506,-2.0691211092156148,0.1377673849112765,2.13758840016799,-1.2753741132707006,0.0005078986160620943,-0.0003058753241969846,-0.0011072428330295837,3.0792996994623794e-05,-0.00014861745218197692,0.0006809042948265725,0.0012651394098202253,0.2173345386981964,-21.79654312133789,-2.4095618724823,22.63983917236328,0.6737161874771118,2.2615859508514404,-0.05396880581974983,,,,,,,,,
1739402430.771735,0.5256970491164272,0.09599956483105974,-0.9533315459471808,-2.069116359907727,0.13776845172440969,2.1375841561405546,-1.275374117625378,9.545956516519014e-05,-0.0011882429214747216,0.0007116894077772818,0.0013966733479374176,-0.00023209572830236604,-0.002421974978258725,0.00022783849767594365,0.2411382496356964,-21.79654312133789,-2.4095618724823,22.61603546142578,0.6673074960708618,2.2615859508514404,-0.05396880581974983,,,,,,,,,
1739402430.7826786,0.5256950511755721,0.09599943548095746,-0.9533362594538665,-2.06911543811947,0.1377669464637797,2.137587247391569,-1.2753709860161049,-0.0004583215653009937,-0.00039302083059118513,-0.000581086365750851,0.0004423017395518493,0.0005724333583841604,0.001490599072128786,0.0008004794487793909,0.2689092457294464,-21.82431411743164,-2.35798716545105,22.59223175048828,0.6801248788833618,2.2753188610076904,-0.08051909506320953,,,,,,,,,
1739402430.7935815,0.525699194883637,0.09599721296610082,-0.9533313754226433,-2.0691164786024436,0.13776800812076428,2.1375879912173943,-1.2753770154289108,-0.0005471449666066072,1.717965437981209e-05,0.0008302950289875025,-0.00041865188787963074,0.001130299071109826,0.0006610858306902224,-0.000954770322759617,0.2411382496356964,-21.77273941040039,-2.38179087638855,22.61603546142578,0.6801248788833618,2.2679946422576904,-0.027418512850999832,,,,,,,,,
1739402430.8036911,0.5256987971037823,0.09600053799703546,-0.953334271604018,-2.0691163595538327,0.1377676992679866,2.137584983786968,-1.275375224133523,2.525138853797025e-06,0.00020604518822973879,-0.00023057371904409966,-0.000676945299359511,-0.0002625099413057976,0.00010978938862816687,0.00019341267296883735,0.2173345386981964,-21.79654312133789,-2.38179087638855,22.61603546142578,0.6737161874771118,2.2551772594451904,-0.04756011441349983,,,,,,,,,
1739402430.8146372,0.5256970491170257,0.0959982142403787,-0.9533324102002811,-2.069116359551817,0.13776871496812532,2.137587758984922,-1.275376493034564,-0.0009237056839939449,0.00011748775603096407,0.0010334723358625232,0.0005257689748736292,0.0005496592475528332,0.0011868244374699907,5.193191930919958e-05,0.2411382496356964,-21.79654312133789,-2.38179087638855,22.61603546142578,0.6737161874771118,2.2615859508514404,-0.03382720425724983,,,,,,,,,
1739402430.82557,0.5256952897031675,0.09599753107649203,-0.9533294015485961,-2.069114823178887,0.1377684749533925,2.137588361311632,-1.2753760493353326,-0.0011221233726747056,0.0001860601852924527,0.0012549356957731225,0.0011460420979306652,0.0005866512446349648,-0.0008304913191642197,0.0005160876236244141,0.2689092457294464,-21.79654312133789,-2.4095618724823,22.59223175048828,0.6673074960708618,2.2615859508514404,-0.04023589566349983,,,,,,,,,
1739402430.8356626,0.5256950511769186,0.09599957814605693,-0.9533297720829905,-2.069116359553207,0.13776636108896395,2.1375880951164423,-1.2753748689885027,-0.0010880293630674406,0.0010308700360430832,0.0016773744794490047,0.00016909894491252243,-0.0002089555865526253,0.0004092185678953221,0.0009095978763493496,0.2689092457294464,-21.79654312133789,-2.4333655834198,22.61603546142578,0.6737161874771118,2.2679946422576904,-0.04756011441349983,,,,,,,,,
1739402430.8466358,0.5256950511755721,0.09599539667731473,-0.9533324862071622,-2.0691153491460432,0.13776694206832887,2.1375903345062905,-1.2753725853475646,-0.0015984065384336214,-0.0017643410446692089,0.00036251168845147263,-0.00018870666064738195,-0.0002752185068427691,0.0015122912754654612,0.002168962848105919,0.2689092457294464,-21.77273941040039,-2.4095618724823,22.59223175048828,0.6801248788833618,2.2487685680389404,-0.06678618490695953,,,,,,,,,
1739402430.8575914,0.5256970491164251,0.09600027771469709,-0.9533303581785213,-2.069115092090042,0.13776451088746838,2.1375885690511853,-1.275378874245994,-0.00013084545415818928,0.000864548205581755,-0.0003705821333597124,0.0007725780525659992,-0.00017938921571998144,-0.0002988279993575741,-0.0004989610875966236,0.2411382496356964,-21.79654312133789,-2.4095618724823,22.59223175048828,0.6737161874771118,2.2551772594451904,-0.013685601763427258,,,,,,,,,
1739402430.8676841,0.5256970579467428,0.0959977669089108,-0.9533361368243466,-2.0691185858180985,0.13776851724717434,2.1375835070507683,-1.2753816617949185,-0.00028867786111492176,0.0009637990639682589,-0.0015453360730099956,-0.0011862612128750308,-0.00015579279770779172,-0.0010238089472100003,-0.0012821198065781992,0.2411382496356964,-21.79654312133789,-2.35798716545105,22.61603546142578,0.6938577890396118,2.2679946422576904,-0.020094294100999832,,,,,,,,,
1739402430.8786628,0.5256980596270452,0.09599808918578943,-0.9533321962027441,-2.0691146868008983,0.13776805521042387,2.1375894658139645,-1.2753772507486745,-0.0002710984984107771,-0.00010802189391489146,0.0003640334879906986,0.0003642652380308561,0.00047208662990847264,-0.00031239539050907227,-0.0008942958276237189,0.2173345386981964,-21.77273941040039,-2.38179087638855,22.59223175048828,0.6737161874771118,2.2551772594451904,-0.027418512850999832,,,,,,,,,
1739402430.889637,0.5256950511742512,0.09599745226380281,-0.953329385845951,-2.0691166068009204,0.1377731082866495,2.13758999252699,-1.2753717116980672,-0.0006343164034305583,2.1328758602885082e-05,0.0008813590684215574,0.0012005125099628672,0.0009082128462866676,0.0010266083153566957,0.0014892368492364417,0.2689092457294464,-21.79654312133789,-2.4095618724823,22.61603546142578,0.6608988046646118,2.2487685680389404,-0.07411040365695953,,,,,,,,,
1739402430.9006865,0.5256970491164251,0.09599745085211528,-0.9533353293233444,-2.0691203905090743,0.13776983956866629,2.137584266826149,-1.2753726357372024,-0.00012419570914213164,-0.0004737502818793893,0.00021965616097900458,-0.0015827474823714275,0.001722957582652416,-0.0007550732175851159,0.0008298623960090849,0.2411382496356964,-21.79654312133789,-2.35798716545105,22.63983917236328,0.6673074960708618,2.2615859508514404,-0.06678618490695953,,,,,,,,,
1739402430.9116204,0.5256995063272861,0.09600045174237777,-0.9533335594493149,-2.06911531863418,0.13776771074734356,2.1375864458192595,-1.2753772506888577,0.0011776588915584432,-1.4764089447885442e-05,0.0010945436572705096,-2.7652478752079185e-05,1.2122864097839278e-05,0.001286054234008338,-0.0009992833611991037,0.2173345386981964,-21.82431411743164,-2.38179087638855,22.59223175048828,0.6737161874771118,2.2551772594451904,-0.027418512850999832,,,,,,,,,
1739402430.921626,0.5256967371244762,0.0959994228280281,-0.953331787400793,-2.069118145406907,0.13776966742696528,2.1375880989415443,-1.2753824840738042,-0.0009581170155453114,-0.0011151864532729055,9.738961052513503e-05,-9.799729284229203e-05,0.0004648979223263822,-0.0002266065359739957,-0.0026093720166205075,0.2411382496356964,-21.82431411743164,-2.4095618724823,22.63983917236328,0.6480814218521118,2.2679946422576904,0.012864691205322742,,,,,,,,,
1739402430.9325902,0.5257004745921914,0.09599742631320624,-0.9533294035191137,-2.0691148241237127,0.13776769972996353,2.1375865435351034,-1.275378116588527,0.0007121940771068531,-0.0002603555858646051,0.0015527265139984008,0.0006193667393376201,0.0005896045246899934,6.680651545892637e-05,0.00030662185123306464,0.1935308277606964,-21.79654312133789,-2.4095618724823,22.59223175048828,0.6737161874771118,2.2679946422576904,-0.020094294100999832,,,,,,,,,
1739402430.943674,0.5256970491164324,0.09600050571040195,-0.9533288384985934,-2.069116469896618,0.1377701408584884,2.1375868821857997,-1.2753772506886363,-0.0003888461729598133,-0.00018900943640314354,0.0007897100700447449,0.0001856253999580918,0.0011337411232797987,8.16219851712499e-05,-0.0006174947041082363,0.2411382496356964,-21.79654312133789,-2.4571692943573,22.61603546142578,0.6801248788833618,2.2679946422576904,-0.027418512850999832,,,,,,,,,
1739402430.954609,0.5256990000557354,0.09599606603765838,-0.9533311400630251,-2.069114824463064,0.13776616692471522,2.137590790884465,-1.2753742455377912,0.0004487787384101225,7.12693021891075e-05,0.0010049781381625946,0.00021345799638186424,-0.00024914667500357094,0.0008294499032163382,0.0004728765845269506,0.2173345386981964,-21.77273941040039,-2.38179087638855,22.59223175048828,0.6865335702896118,2.2423598766326904,-0.05396880581974983,,,,,,,,,
1739402430.9647021,0.5257022132826258,0.0959976737636659,-0.9533345803341043,-2.0691176266212135,0.13776769973566771,2.137587760312259,-1.2753725971397394,0.0006829703350331995,-0.0006173272342629109,-0.0014265389658869251,-0.0007058476796911459,0.0007956511349929954,-0.0012122062289496947,0.000739066104431179,0.1697271168231964,-21.79654312133789,-2.38179087638855,22.59223175048828,0.6737161874771118,2.2679946422576904,-0.06678618490695953,,,,,,,,,
1739402430.9756196,0.5257004751394845,0.09599889679792631,-0.9533360186869927,-2.0691193544014883,0.1377666036909024,2.137585973526658,-1.2753781165858795,0.00038354228786571044,-0.0002923715386151171,-0.0012440351422280346,-0.0004657351602989103,0.0006361998942847212,-0.000908340498870614,-0.0005631221030450757,0.1935308277606964,-21.77273941040039,-2.35798716545105,22.61603546142578,0.6801248788833618,2.2487685680389404,-0.020094294100999832,,,,,,,,,
1739402430.9866538,0.5256987357457944,0.09599606446208038,-0.9533304032677383,-2.0691149341307824,0.13777089851793012,2.1375891432852496,-1.2753812554275559,-4.945010738480917e-05,-0.0007045342440885289,0.0009594957066623808,-0.0011514165461079316,0.0007093705971964414,0.0002255963988005463,-0.0017322266279090966,0.2173345386981964,-21.77273941040039,-2.4333655834198,22.59223175048828,0.6737161874771118,2.2551772594451904,0.0064559997990727425,,,,,,,,,
1739402430.9966562,0.5256987616367178,0.09599855350971616,-0.9533338685108048,-2.0691153199841854,0.13776722931831614,2.137586678496286,-1.275380480154271,-0.00029865910315056106,-3.84189058640059e-05,-0.0010452096495781205,0.0002522614492409122,-0.0009846988315591748,-0.0022556295721172202,-0.001875842705494639,0.2173345386981964,-21.77273941040039,-2.38179087638855,22.59223175048828,0.6737161874771118,2.2487685680389404,-0.027418512850999832,,,,,,,,,
1739402431.0075648,0.525697046227494,0.0959977419008352,-0.9533345925901329,-2.0691114927966643,0.13776769535371958,2.1375873260043234,-1.2753812555181374,-0.001170362555131027,-7.418324033787276e-05,-0.0010032878294185502,-0.00042955604570666306,-6.4532923283847256e-06,0.00012315369840667898,-0.0018000563693898646,0.2411382496356964,-21.79654312133789,-2.38179087638855,22.54065704345703,0.6737161874771118,2.2615859508514404,0.0064559997990727425,,,,,,,,,
1739402431.0186443,0.52569876163714,0.0959937144460418,-0.9533294104275722,-2.0691163595562108,0.137762128862022,2.1375860790573498,-1.2753746213074477,0.0008805036109259029,-0.0008987877615119092,0.00029547375139117994,-0.001045884327555161,-0.00048819238855703673,-1.0908496337559172e-05,-0.0004178939279349225,0.2173345386981964,-21.74496841430664,-2.4095618724823,22.61603546142578,0.6938577890396118,2.2551772594451904,-0.05396880581974983,,,,,,,,,
1739402431.0286472,0.5256968151130049,0.0959957094260203,-0.953332366872407,-2.0691186662633796,0.13776694205787987,2.137588517134313,-1.2753744118540289,-0.0011115139859261998,-0.001008130136199788,1.0632929725883143e-06,-0.0012524453053525412,-0.00016531150268996964,-0.0006109945691983759,0.0010756650816950875,0.2411382496356964,-21.77273941040039,-2.38179087638855,22.61603546142578,0.6801248788833618,2.2551772594451904,-0.06037749722599983,,,,,,,,,
1739402431.0396447,0.5256998985823289,0.09599943461084055,-0.9533325008808636,-2.0691145769255037,0.1377676997359638,2.1375903869894333,-1.2753791075452185,-7.813962029990357e-05,0.00028025620089107515,0.00025631021124858974,0.0005188883146878856,0.0003489469718194958,8.755160908704865e-05,-0.0013214573257449471,0.2411382496356964,-21.82431411743164,-2.4095618724823,22.59223175048828,0.6737161874771118,2.2487685680389404,-0.04756011441349983,,,,,,,,,
1739402431.0496461,0.5256987616854123,0.09599943450279769,-0.9533293736888878,-2.0691145890846205,0.13776654855340112,2.137585372694491,-1.275377603973118,0.0013118981324466443,-0.0008823743037774988,0.0009607525485179428,-0.00020996326355737243,-0.0005896362098788113,6.618506025362344e-05,-0.0014368861999205706,0.2173345386981964,-21.82431411743164,-2.4095618724823,22.59223175048828,0.6801248788833618,2.2551772594451904,-0.027418512850999832,,,,,,,,,
1739402431.060611,0.5256970756073786,0.09599627627567335,-0.9533331832290152,-2.0691181697010044,0.13776233644671562,2.1375863136019877,-1.2753756422400664,-0.0010390978677186375,-0.0013658604856895359,3.6216482760230494e-05,-0.0007956202589406669,-0.0017445885482289562,-0.0005689918276349981,0.0005119359896796991,0.2411382496356964,-21.79654312133789,-2.35798716545105,22.63983917236328,0.6801248788833618,2.2551772594451904,-0.05396880581974983,,,,,,,,,
1739402431.0707035,0.5256980116215079,0.09599943578225684,-0.9533275118122023,-2.0691164694406803,0.13776840482671227,2.1375887146359767,-1.2753733483628074,0.00014234480680461778,-9.96051503676227e-05,0.0021096187077321036,0.0009459487729866051,-0.00017663046269586043,0.0009327387238886189,0.0008109651194670793,0.2411382496356964,-21.82431411743164,-2.4333655834198,22.61603546142578,0.6673074960708618,2.2615859508514404,-0.06037749722599983,,,,,,,,,
1739402431.0815744,0.5256987616425897,0.09600013324370547,-0.9533304078289251,-2.069116799590548,0.1377658791260903,2.1375861864873262,-1.2753727501949559,-0.0004738620753940404,-0.00011248937887965124,0.002050296792643189,-0.0001162472677528695,0.00019829102340660358,-0.0007502877356497568,-0.00010568637449483306,0.2173345386981964,-21.82431411743164,-2.4333655834198,22.61603546142578,0.6801248788833618,2.2753188610076904,-0.04756011441349983,,,,,,,,,
1739402431.0926409,0.5257009074043683,0.09600145990448015,-0.9533300390099179,-2.069116698494885,0.13776295618081064,2.137588830473653,-1.2753772506527459,0.00015148476894686683,-3.851724200199891e-05,0.0015170391271193792,-0.0008075274901870033,-0.0005329119235002293,0.00010572925275723324,-0.0014364971674222992,0.2173345386981964,-21.84811782836914,-2.4095618724823,22.61603546142578,0.6865335702896118,2.2615859508514404,-0.027418512850999832,,,,,,,,,
1739402431.1026719,0.5256949426697661,0.09599767040347283,-0.9533307257245667,-2.069117211188819,0.1377687953009969,2.137590386995479,-1.2753759276558259,-0.0016696625889443743,-0.0007396462328499884,0.00037158774657213207,-0.00019225785491866672,0.0021327719390683147,0.0006807717517211878,0.00011561733994731687,0.2411382496356964,-21.79654312133789,-2.4333655834198,22.61603546142578,0.6673074960708618,2.2487685680389404,-0.04756011441349983,,,,,,,,,
1739402431.1146219,0.5257026199132085,0.09599879319103236,-0.9533282625522597,-2.069116360724848,0.13777085323951932,2.1375845802194875,-1.2753772907315302,0.0007834877584316823,5.891682568985937e-05,0.0006684766494192161,0.00020750258686006112,0.0019297141961417297,-0.0015088825612657561,-0.0006206836411746309,0.1935308277606964,-21.77273941040039,-2.4333655834198,22.61603546142578,0.6480814218521118,2.2679946422576904,-0.05396880581974983,,,,,,,,,
1739402431.1246464,0.525699011877944,0.09599751553618747,-0.9533321561700575,-2.069112795328324,0.13776769973665748,2.1375881137801875,-1.27537889176044,0.0011177817605084858,-1.244034217764815e-06,-0.0002593932241359785,0.0007592999544806027,0.0005359092390564415,0.0007454312970001898,-0.000412151510537765,0.2173345386981964,-21.79654312133789,-2.4095618724823,22.56842803955078,0.6737161874771118,2.2679946422576904,-0.013685601763427258,0,0,0,0.000,0,0
1739402431.135646,0.5256987616413942,0.09599774098818165,-0.9533293746641965,-2.0691181422288545,0.13776833912853215,2.137588852779398,-1.275375735368776,8.500634877278132e-05,0.00013065822125802858,0.00020773999383132054,0.0010176449936875464,0.00014486290929116937,0.0010677091717936548,-0.00039536138710344966,0.2173345386981964,-21.79654312133789,-2.4095618724823,22.63983917236328,0.6673074960708618,2.2615859508514404,-0.04023589566349983,0,0,0,0.000,0,0
1739402431.1466057,0.5256950511755721,0.09599973863940287,-0.9533338984117775,-2.069116805217571,0.13776723170164684,2.13758840072524,-1.2753796449880874,-0.00025194828308525987,0.00023555424745803,-0.0006583338325593612,-7.82457643890898e-05,-0.0006345036063710496,0.00048284470853494677,-0.00040973676932634515,0.2689092457294464,-21.82431411743164,-2.35798716545105,22.59223175048828,0.6737161874771118,2.2615859508514404,-0.0072769103571772575,0,0,0,0.000,0,0
1739402431.1576254,0.5256990000557354,0.09599371874031704,-0.9533292946383133,-2.0691184949750623,0.13776618003888738,2.137587053674831,-1.2753814145465192,0.0009704306462610145,-0.001126797913486971,0.0009044220920425526,-0.0002591071843588555,-0.0008371614852428126,1.3799941586794267e-05,-0.001871742005471898,0.2173345386981964,-21.74496841430664,-2.4095618724823,22.61603546142578,0.6865335702896118,2.2679946422576904,0.0064559997990727425,0,0,0,0.000,0,0
1739402431.1676931,0.525699878668634,0.09599865873177958,-0.9533300192289316,-2.069114586068328,0.13776997271612482,2.137588871657598,-1.27538040265086,0.0017149451524322546,0.000388787085161431,0.0016656797975607312,0.0004841193714556852,0.001247152954839158,0.0002901768771915893,-0.001680804868473534,0.1935308277606964,-21.77273941040039,-2.4095618724823,22.59223175048828,0.6544901132583618,2.2615859508514404,-0.0008682189509272575,0,0,0,0.000,0,0
1739402431.17862,0.525697050523552,0.09599848889117325,-0.9533316783597922,-2.069118584792044,0.13776531851857485,2.1375881119159037,-1.2753701795975747,0.0005213503756469734,-0.0005604363933208214,0.001300004774446013,-0.0012531887973105406,4.89865121780259e-05,-0.0007560252509061055,0.002284894302463674,0.2411382496356964,-21.79654312133789,-2.4095618724823,22.61603546142578,0.6938577890396118,2.2679946422576904,-0.06037749722599983,0,0,0,0.000,0,0
1739402431.1886768,0.5256980822636091,0.09600113548168629,-0.953332331055196,-2.069116606813275,0.1377692150561206,2.1375845773123756,-1.2753744137712992,0.00010276426199949219,0.00014446196240376023,0.0002765714058780252,-0.000503716874586915,0.0005309875785651432,0.0001624328677367135,0.00015722654246712298,0.2411382496356964,-21.84811782836914,-2.38179087638855,22.61603546142578,0.6608988046646118,2.2679946422576904,-0.06037749722599983,0,0,0,0.000,0,0
1739402431.1995893,0.5256987616429885,0.09599750476504858,-0.9533314125487395,-2.069118390181677,0.13776769973596392,2.1375883433169935,-1.275372637196841,0.0006509617792881188,-0.0009988382919481136,-1.852064176951655e-05,0.0002987907778986596,-0.0010303337377013282,-0.0005657193340357273,-0.000332639128185832,0.2173345386981964,-21.79654312133789,-2.38179087638855,22.63983917236328,0.6737161874771118,2.2615859508514404,-0.06678618490695953,0,0,0,0.000,0,0
1739402431.210578,0.5256971065134904,0.09599964378707669,-0.9533315236899848,-2.069115019552304,0.13776781820939366,2.137588108198293,-1.2753812554636759,0.0002542867421683894,-5.761181847239702e-05,-8.653946692544422e-05,0.0015542291372814964,0.0010535197189685333,0.0004719454605173709,-0.0030875819209590667,0.2411382496356964,-21.79654312133789,-2.4095618724823,22.56842803955078,0.6737161874771118,2.2679946422576904,0.0064559997990727425,0,0,0,0.000,0,0
1739402431.2205908,0.5256970491173971,0.09600045304283278,-0.9533323544816533,-2.069114663398724,0.13776769973797026,2.1375881138538726,-1.2753788747305737,0.00021911609392964775,0.0007202707599695831,-1.3080129290442098e-05,-0.00015116633130136354,0.00010767285930705464,0.0008644594867325438,-0.0022143820477274583,0.2411382496356964,-21.82431411743164,-2.38179087638855,22.59223175048828,0.6737161874771118,2.2679946422576904,-0.013685601763427258,0,0,0,0.000,0,0
1739402431.230644,0.525698841110016,0.09600210881560689,-0.9533275155349104,-2.0691145860336295,0.13776769973596395,2.1375887476392648,-1.2753757746143444,0.0007032365515542914,0.0012232769816248332,0.0011024924309355195,-3.9523889466690996e-05,0.0005689407906638004,0.00021529804810547793,-0.0010082386443360989,0.2173345386981964,-21.84811782836914,-2.4333655834198,22.59223175048828,0.6737161874771118,2.2615859508514404,-0.04023589566349983,0,0,0,0.000,0,0
1739402431.2416716,0.5256987616376049,0.09600700311579846,-0.9533313857616962,-2.0691186200566842,0.13776845723403197,2.137588394425858,-1.2753730318190788,0.0009846528229143971,0.0017304109589049569,-0.0006680858652013075,0.00041851439699014777,-0.0015564690660898224,-9.251618509280456e-05,0.00044378739858423643,0.2173345386981964,-21.89969253540039,-2.38179087638855,22.61603546142578,0.6673074960708618,2.2615859508514404,-0.04023589566349983,0,0,0,0.000,0,0
1739402431.25262,0.5256990000557354,0.09600023877245474,-0.9533314487593184,-2.0691163595645774,0.13776999353364044,2.137588357116074,-1.2753772521269249,0.0007419618121961237,0.0012883979711438597,0.000865897823169919,-0.0006246062888170001,9.367421669935689e-05,-0.0011814627370850589,0.000289273370760155,0.2173345386981964,-21.82431411743164,-2.4095618724823,22.61603546142578,0.6737161874771118,2.2615859508514404,-0.027418512850999832,0,0,0,0.000,0,0
1739402431.263716,0.5256970495565277,0.09599981999573859,-0.9533300094539476,-2.0691163600040325,0.13776496264893112,2.137586448958981,-1.275378861164129,-0.0007093376295977843,6.187443564874013e-05,0.001239887775114459,0.0003081823479580902,-0.0010168333782395282,0.00017817627586514854,-0.0009237410407497849,0.2411382496356964,-21.84811782836914,-2.4095618724823,22.61603546142578,0.6608988046646118,2.2551772594451904,-0.013685601763427258,0,0,0,0.000,0,0
1739402431.274645,0.5256988414370657,0.09600405583759518,-0.9533334071493276,-2.069114576925045,0.1377676977838388,2.1375881138479866,-1.275374111811144,-0.00023995764512246696,0.0016274115693941825,-0.0005711545811952483,3.818568679051624e-05,0.0008964570500040142,-0.0015138306765681824,-4.0795913340851996e-05,0.2173345386981964,-21.84811782836914,-2.35798716545105,22.59223175048828,0.6737161874771118,2.2679946422576904,-0.05396880581974983,0,0,0,0.000,0,0
1739402431.2856548,0.5256991948840875,0.09599955968570505,-0.9533313779139162,-2.0691163637348113,0.13776530820119398,2.137585711715633,-1.2753757754058406,-0.0006340316085152492,-0.0001245599277112951,0.0009160178402696457,0.00017040584365337447,-0.0012138848591800944,-0.0022335042646037654,0.00029483963406343465,0.2411382496356964,-21.79654312133789,-2.38179087638855,22.61603546142578,0.6673074960708618,2.2753188610076904,-0.06678618490695953,0,0,0,0.000,0,0
1739402431.296562,0.5256987616136034,0.09599859155087366,-0.9533316960946732,-2.0691128033551687,0.13776531850079754,2.1375881095923175,-1.2753808605344383,0.0005450574199356911,-0.0008235141752335578,-0.000459945418734366,0.0003956175180228337,-0.00090483897678008,-0.00024183411122517465,-0.0007759549112105416,0.2173345386981964,-21.77273941040039,-2.38179087638855,22.56842803955078,0.6938577890396118,2.2679946422576904,-0.0008682189509272575,0,0,0,0.000,0,0
1739402431.3077052,0.5256987616371559,0.09600045770916084,-0.9533310738352461,-2.069115350459848,0.1377684988373651,2.1375881270973536,-1.2753762310954033,0.0012043245554506847,0.0011986314457229999,0.0007121968078221799,0.0002857776906753379,0.0007456509808978079,0.00012405750649695078,0.0013044518466764604,0.2173345386981964,-21.82431411743164,-2.38179087638855,22.56842803955078,0.6673074960708618,2.2679946422576904,-0.05396880581974983,0,0,0,0.000,0,0
1739402431.3186827,0.5256950521567185,0.095998135200362,-0.95333209214906,-2.0691145773414434,0.13776678460211972,2.1375892761229975,-1.2753744650358418,-0.0011306695611019999,0.00030800428840749766,0.0001891624002590117,0.0005211889815348448,-0.0013526263800614495,0.0015628649382720206,-0.000986825073565108,0.2689092457294464,-21.79654312133789,-2.38179087638855,22.59223175048828,0.6801248788833618,2.2551772594451904,-0.05396880581974983,0,0,0,0.000,0,0
1739402431.3306434,0.5257004741578893,0.09599605466598068,-0.9533342351333461,-2.0691178736398106,0.13776769924963672,2.1375888711903737,-1.2753796319068,0.0007729913534335535,4.5086861193494984e-05,0.00024999185728744294,-0.002004450436577362,0.00019116494219881353,0.0007068517268566244,-0.000852857644357659,0.1935308277606964,-21.77273941040039,-2.38179087638855,22.59223175048828,0.6737161874771118,2.2615859508514404,-0.0072769103571772575,0,0,0,0.000,0,0
1739402431.3416665,0.525700465527433,0.09599886922434299,-0.9533335551544606,-2.069117906547321,0.13776586162927507,2.1375888695221463,-1.2753764950204598,0.00045151626662256366,0.00011171123552599602,-0.00018693146717433957,-0.0006590572388456462,-0.00042115856609692295,0.00042731719667215006,-0.0003597760818242292,0.1935308277606964,-21.77273941040039,-2.38179087638855,22.61603546142578,0.6801248788833618,2.2615859508514404,-0.03382720425724983,0,0,0,0.000,0,0
1739402431.351694,0.5257004481573614,0.09600155383837494,-0.9533373851660423,-2.06911460448615,0.13776741595130707,2.1375856739232915,-1.275377329971447,0.0013920062701574837,0.00024381104697647238,-0.0016217236091183658,-0.0017203395440923217,-0.00028824206372595195,-0.0019038573478742144,0.00017260658673470938,0.1935308277606964,-21.82431411743164,-2.3302161693573,22.59223175048828,0.6801248788833618,2.2753188610076904,-0.05396880581974983,0,0,0,0.000,0,0
1739402431.362572,0.5257004839692049,0.0959996605959466,-0.9533314403771288,-2.069118841198308,0.1377684573987173,2.13758811255304,-1.2753741118293351,0.0008545172503818668,-0.00021326232370233615,0.0010857328365539926,-0.001338160259532904,0.00038450776593235625,-0.0005247897072815483,0.0020795016384555,0.1935308277606964,-21.82431411743164,-2.4095618724823,22.61603546142578,0.6673074960708618,2.2679946422576904,-0.05396880581974983,0,0,0,0.000,0,0
1739402431.3726358,0.5256972875351703,0.09600161719710945,-0.9533286039615647,-2.0691163595938438,0.13776542651211982,2.1375896293356087,-1.2753772506886365,5.299024407776109e-05,0.0006473891809257647,0.00035958874801346333,0.0008608190137861275,0.0003859253697274257,-0.0003168926544299802,-0.0005353043483912724,0.2411382496356964,-21.84811782836914,-2.4095618724823,22.61603546142578,0.6673074960708618,2.2551772594451904,-0.027418512850999832,0,0,0,0.000,0,0
1739402431.3826864,0.5256970491204628,0.09600261765634023,-0.9533295321406228,-2.0691107144079237,0.13776845297043622,2.13758795703205,-1.2753807427789234,0.00011645814025150724,0.0005236005022789444,0.0005638916115369786,0.0019481547408225965,0.00020002735087149392,-0.0009266623603734254,-0.0005717832453927685,0.2411382496356964,-21.82431411743164,-2.4095618724823,22.54065704345703,0.6673074960708618,2.2679946422576904,-0.0008682189509272575,0,0,0,0.000,0,0
1739402431.3926878,0.5257011923570641,0.09599879367678814,-0.9533294001295651,-2.069116359551817,0.13776845804602728,2.1375888585909446,-1.2753741118171502,0.0018518582116943425,-0.0014471013200187074,0.00019416789967394754,0.0005498764157909903,-1.3520172764548625e-05,0.00036130942191810606,-0.0004530915489457005,0.1935308277606964,-21.77273941040039,-2.4095618724823,22.61603546142578,0.6673074960708618,2.2615859508514404,-0.05396880581974983,0,0,0,0.000,0,0
1739402431.4027195,0.5256971555284659,0.09599467168829223,-0.9533292975430209,-2.0691181513862023,0.137763412074616,2.137589629335412,-1.2753751729028482,-0.00033047365036843876,-0.0017182863003830943,0.0004852920968889046,-0.00030202924095464544,-0.0008689664594451766,0.0006740935266302302,0.001570680157539879,0.2411382496356964,-21.74496841430664,-2.4095618724823,22.63983917236328,0.6801248788833618,2.2551772594451904,-0.05396880581974983,0,0,0,0.000,0,0
1739402431.4128735,0.5256950425105809,0.09600165989515141,-0.9533298956705514,-2.069118252117389,0.1377645101796464,2.1375881133694543,-1.275379631924105,-0.0009060723583839107,-0.00035590264452066,0.0008982661671569402,-0.00030771223990688594,-0.001226058977942583,5.514410170455079e-05,-0.001722581439416,0.2689092457294464,-21.82431411743164,-2.4333655834198,22.63983917236328,0.6737161874771118,2.2679946422576904,-0.0072769103571772575,0,0,0,0.000,0,0
1739402431.423611,0.5256987612090197,0.09600260642710706,-0.9533320994952206,-2.0691168117263126,0.13776805510223772,2.1375872481182334,-1.275374111811169,6.786185270108499e-05,0.001567971736764917,0.00018611847977536452,0.0007104861367517949,0.0002910516530211162,-0.00041907157502853176,-0.00018355035566615277,0.2173345386981964,-21.82431411743164,-2.38179087638855,22.59223175048828,0.6737161874771118,2.2753188610076904,-0.05396880581974983,0,0,0,0.000,0,0
1739402431.4336414,0.5256987616371539,0.09599813907373676,-0.9533321908370868,-2.0691179105079995,0.13776764530251326,2.1375888716755553,-1.275382053160445,-0.0005315410558732683,-0.0004243498858373287,0.00040933614763152896,-0.00039221774061274695,-0.0017701571606495716,0.00012159863495768457,-0.0010284188282493178,0.2173345386981964,-21.79654312133789,-2.4095618724823,22.59223175048828,0.6737161874771118,2.2615859508514404,-0.013685601763427258,0,0,0,0.000,0,0
1739402431.4445953,0.5256916261341097,0.09599864357944836,-0.9533360971770962,-2.069114576931301,0.1377678357607056,2.1375872481182445,-1.2753807428507036,-0.001407483993243087,-0.00047239654061514313,-0.0017536230374833022,-0.0005504791623875346,0.00036498591196312607,-0.0006493647906218826,-0.001274584717573749,0.3165166676044464,-21.77273941040039,-2.35798716545105,22.59223175048828,0.6737161874771118,2.2753188610076904,-0.0008682189509272575,0,0,0,0.000,0,0
1739402431.4546077,0.5256970491164251,0.09599865878134685,-0.9533332636233545,-2.0691157616367573,0.13776874117833227,2.1375888716755553,-1.2753803895721965,-0.0009613170338299012,-0.0006414279950743649,0.00034983517845234833,-0.0003223594248682967,-7.7414263236004e-05,0.000511396977786007,-7.102349530382576e-05,0.2411382496356964,-21.77273941040039,-2.35798716545105,22.56842803955078,0.6608988046646118,2.2615859508514404,-0.0008682189509272575,0,0,0,0.000,0,0
1739402431.4655662,0.5256986836360162,0.09599669460147317,-0.9533323277355142,-2.0691173484591765,0.13776769973328887,2.1375872481182445,-1.2753747670019295,0.0004934343355851167,4.83728482170415e-05,-0.0005969488490280592,0.000415635101417269,0.00018869699904166642,-0.00042775510359262605,0.0006586553738332832,0.2173345386981964,-21.77273941040039,-2.38179087638855,22.61603546142578,0.6737161874771118,2.2753188610076904,-0.06037749722599983,0,0,0,0.000,0,0
1739402431.475633,0.5256970491151042,0.09600044879978052,-0.9533335288923085,-2.069117348903313,0.13777241335269264,2.1375896293356336,-1.275375858944177,0.00014323256806149842,0.0001869332708172058,-0.00048972814253163,-0.001707619086065381,0.0010556506430669612,0.0005129765385295986,0.0001077200977084267,0.2411382496356964,-21.82431411743164,-2.38179087638855,22.61603546142578,0.6608988046646118,2.2551772594451904,-0.04023589566349983,0,0,0,0.000,0,0
1739402431.486672,0.5256992037139547,0.09599814534059113,-0.9533293030405433,-2.0691128202353717,0.13776690267143668,2.1375888716755553,-1.2753788742467544,1.9747430399527324e-05,-0.0003590014687757984,6.854049369835744e-05,0.0013102433280123382,-0.0003271197003275726,-0.0004602597896664597,-0.0013140767083679155,0.2411382496356964,-21.79654312133789,-2.4095618724823,22.56842803955078,0.6801248788833618,2.2615859508514404,-0.013685601763427258,0,0,0,0.000,0,0
1739402431.4975924,0.5256987616493191,0.09599767336479278,-0.9533331566286468,-2.0691130424643074,0.1377661844155848,2.1375888716755553,-1.275378874246057,-0.0004050145421890008,-0.00036742629723997766,-4.833481289797021e-05,0.0006014717193861875,-0.001049069685137912,0.0003066115122065653,0.0012616601899415752,0.2173345386981964,-21.79654312133789,-2.35798716545105,22.56842803955078,0.6865335702896118,2.2615859508514404,-0.013685601763427258,0,0,0,0.000,0,0
1739402431.5075924,0.5256970583828081,0.09599395453130409,-0.9533313753687891,-2.0691173485516083,0.13776739444654376,2.137588876036206,-1.2753812511027953,0.0008167705595750057,-0.0017763371928322584,-0.00042927525365757304,5.222866629752456e-05,0.00018241573761820784,8.33681363524842e-05,-0.0012891211021108405,0.2411382496356964,-21.74496841430664,-2.38179087638855,22.61603546142578,0.6673074960708618,2.2615859508514404,0.0064559997990727425,0,0,0,0.000,0,0
1739402431.5185907,0.5257004751390862,0.0959995027072563,-0.9533313739515856,-2.069119925401338,0.13776857586347163,2.1375888716755798,-1.2753757358529716,0.0005472788579850298,0.0005613847016374656,-0.0007433325024714712,-0.001570294471515763,-6.406409762161872e-05,-0.0005430961232954746,0.0006413822115486812,0.1935308277606964,-21.82431411743164,-2.38179087638855,22.66364288330078,0.6673074960708618,2.2615859508514404,-0.04023589566349983,0,0,0,0.000,0,0
1739402431.5286205,0.5256988411100326,0.0960003698635342,-0.9533292941617221,-2.069116362943442,0.13776910280316676,2.1375912929298644,-1.275372088167589,0.0006887437870602756,-0.0001769730570043874,0.0008025801348651672,0.0001209320422366298,-0.0002953861884262201,0.0010013949096095542,0.00022226082709150732,0.2173345386981964,-21.82431411743164,-2.4095618724823,22.61603546142578,0.6608988046646118,2.2679946422576904,-0.07411040365695953,0,0,0,0.000,0,0
1739402431.5406346,0.5256979121989699,0.09600431891529916,-0.9533334225192754,-2.0691127946500134,0.13776845772094326,2.1375872481900244,-1.2753741118131872,-2.552974372452472e-06,0.0011656781120229452,0.0005681498295567863,0.0013570540095481963,0.0003210921914357474,-0.00027127899058729493,0.00010522177249793478,0.2689092457294464,-21.84811782836914,-2.35798716545105,22.56842803955078,0.6673074960708618,2.2753188610076904,-0.05396880581974983,0,0,0,0.000,0,0
1739402431.55064,0.5256970530571613,0.09600156289665814,-0.953329320981225,-2.069117795293454,0.13776845691001322,2.1375888716755553,-1.275369678251554,-0.0001951312132726343,-0.0007003615644935407,-6.556757145628563e-05,-1.2041833465305956e-05,0.0008383289953681326,0.0004787960976872119,0.0023460491481224243,0.2411382496356964,-21.82431411743164,-2.4095618724823,22.59223175048828,0.6673074960708618,2.2615859508514404,-0.08051909506320953,0,0,0,0.000,0,0
1739402431.5606472,0.5256970492255081,0.09599945348420232,-0.9533303539093219,-2.069120380750719,0.13777153807313713,2.1375888716755553,-1.2753757222646016,0.00016773393003562345,-0.0014059286176070199,-0.00037121219921470864,-0.0005910495005162443,0.00043117030026190045,-3.1473240257812846e-05,-0.0010212852670302111,0.2411382496356964,-21.82431411743164,-2.4095618724823,22.63983917236328,0.6673074960708618,2.2615859508514404,-0.04023589566349983,0,0,0,0.000,0,0
1739402431.570661,0.5256970500975771,0.0960023558789659,-0.9533293736884225,-2.0691158307537454,0.13776734557597903,2.1375896293356336,-1.2753776053542305,-0.0006071388094726503,0.001285136057841972,0.0004074165659299351,0.0006176098929776103,0.000543582753290773,0.0005697346070953624,0.0003720259475081941,0.2411382496356964,-21.82431411743164,-2.4095618724823,22.56842803955078,0.6737161874771118,2.2551772594451904,-0.027418512850999832,0,0,0,0.000,0,0
1739402431.5816336,0.5256988676009747,0.09599792619426882,-0.9533345532298021,-2.069118224662276,0.13776987324282952,2.1375888716755553,-1.2753757353704815,0.00010643049058251821,-0.0018904142854768745,-0.0015259209023277011,-0.0009988001148296055,0.0016634810443899594,0.0004274165767058779,-0.0006452091220770964,0.2173345386981964,-21.77273941040039,-2.38179087638855,22.63983917236328,0.6673074960708618,2.2615859508514404,-0.04023589566349983,0,0,0,0.000,0,0
1739402431.5925617,0.5256970520721767,0.09600180023515824,-0.9533314887516906,-2.069117458435958,0.13777012773831937,2.1375870543773474,-1.2753702308320118,-0.00037557179654686276,0.00025382043914716425,-0.00028435098764603993,-0.00025789524484766624,-0.0003033041108824512,0.00021357012741130788,0.0017302752038482754,0.2411382496356964,-21.82431411743164,-2.38179087638855,22.61603546142578,0.6801248788833618,2.2679946422576904,-0.05396880581974983,0,0,0,0.000,0,0
1739402431.6025715,0.5256950511756221,0.0959958496448468,-0.9533294005635442,-2.069118142247445,0.13777241389267303,2.137589628671666,-1.275379037623982,-0.0007541235531550864,-0.0018822168742813835,0.0001567777990639311,-0.0002807683148838742,0.0011752265358554361,-0.00031631614131926643,-0.0019491489524588262,0.2689092457294464,-21.74496841430664,-2.4095618724823,22.63983917236328,0.6608988046646118,2.2551772594451904,-0.013685601763427258,0,0,0,0.000,0,0
1739402431.6126914,0.5256986566726591,0.09599819736710921,-0.9533331684041556,-2.0691185852441043,0.1377701409126611,2.137588871675544,-1.275378874894846,6.421625769008007e-06,-0.0006657802359977739,-0.00047802438617265756,-0.0006835417936493088,0.0005882992599177529,-0.00029154827676365765,-0.0002450139063187877,0.2173345386981964,-21.77273941040039,-2.35798716545105,22.61603546142578,0.6801248788833618,2.2615859508514404,-0.013685601763427258,0,0,0,0.000,0,0
1739402431.623686,0.5257004741572949,0.09599977780658402,-0.9533321248557012,-2.0691171013110714,0.1377661846505514,2.137588876036206,-1.2753764944821115,0.0012213354588389228,0.0005702004370358654,-0.0003449904867845222,0.00019668407425323467,-0.0008188950908666029,0.00013799133071342115,-0.0005298882835485672,0.1935308277606964,-21.82431411743164,-2.38179087638855,22.61603546142578,0.6865335702896118,2.2615859508514404,-0.03382720425724983,0,0,0,0.000,0,0
1739402431.6345892,0.5256987616371563,0.09599777887937402,-0.9533334904406496,-2.069116008550679,0.13777359857302224,2.137589628851141,-1.2753796320676491,-0.00040242368909097016,0.0008262785523014448,-0.000779950022346884,-0.0012928998841813086,0.0017357783507699774,0.00018391580444367724,-0.0018592196891866843,0.2173345386981964,-21.79654312133789,-2.35798716545105,22.56842803955078,0.6608988046646118,2.2551772594451904,-0.0072769103571772575,0,0,0,0.000,0,0
1739402431.6446307,0.5257016344338625,0.09599865917073823,-0.9533344483795254,-2.069114604401333,0.13776923268197505,2.137588871675547,-1.2753764930285605,0.0005167303964103393,0.0001728282858942026,-0.00038405719813719636,-4.9418474456116776e-05,-0.00018182023214973145,-4.127883212991991e-05,0.0013406327022593854,0.2173345386981964,-21.77273941040039,-2.38179087638855,22.59223175048828,0.6608988046646118,2.2615859508514404,-0.03382720425724983,0,0,0,0.000,0,0
1739402431.6546328,0.5256970491650762,0.09599776831787206,-0.9533313740036433,-2.069114576875264,0.13776690124959154,2.1375887539379854,-1.2753729518037349,-0.000595020824893038,0.00015452602768705782,-0.00023060701369082123,0.00039863794361045716,-0.000266148430846978,-0.0006533555577317684,-8.664281074666246e-05,0.2411382496356964,-21.79654312133789,-2.38179087638855,22.59223175048828,0.6801248788833618,2.2615859508514404,-0.06678618490695953,0,0,0,0.000,0,0
1739402431.6656175,0.5257004741578878,0.09599966139872945,-0.9533362953523208,-2.069112730895665,0.13776938363172125,2.1375896348261585,-1.275373471890666,9.87616856317394e-05,-3.9782310022855986e-05,-0.0011099321748825998,0.0020807985244122515,0.0005690516279089478,0.0003693890956856878,0.0007857617117899939,0.1935308277606964,-21.79654312133789,-2.35798716545105,22.56842803955078,0.6865335702896118,2.2551772594451904,-0.06037749722599983,0,0,0,0.000,0,0
1739402431.6765618,0.5256994768928936,0.09600026603710955,-0.9533292941794402,-2.069115319977778,0.13776845741410193,2.137588114069343,-1.2753741118118331,0.0004238135076153844,-0.00039648947924022084,0.0012158916557513109,0.0001401851448025066,0.0002529247532737707,0.00021992469098436665,0.0006074786112506682,0.2173345386981964,-21.79654312133789,-2.4095618724823,22.59223175048828,0.6673074960708618,2.2679946422576904,-0.05396880581974983,0,0,0,0.000,0,0
1739402431.6866443,0.525697049128538,0.09599944927396596,-0.9533314400379506,-2.069120376638858,0.1377660263701404,2.1375888716755562,-1.2753738251013702,-0.0007904006845018944,-0.00032286667237945354,0.00036194869852917587,-0.001040936543802275,0.00018399481902170803,-6.828709604607994e-05,0.0016336284881318004,0.2411382496356964,-21.82431411743164,-2.4095618724823,22.63983917236328,0.6608988046646118,2.2615859508514404,-0.06037749722599983,0,0,0,0.000,0,0
