IITGN-Robotics/Franka_IITGN_ROBOTICS/franka_ros/franka_iitgn/data/b_49.csv
time,fr3_joint1_pos,fr3_joint2_pos,fr3_joint3_pos,fr3_joint4_pos,fr3_joint5_pos,fr3_joint6_pos,fr3_joint7_pos,fr3_joint1_vel,fr3_joint2_vel,fr3_joint3_vel,fr3_joint4_vel,fr3_joint5_vel,fr3_joint6_vel,fr3_joint7_vel,fr3_joint1_eff,fr3_joint2_eff,fr3_joint3_eff,fr3_joint4_eff,fr3_joint5_eff,fr3_joint6_eff,fr3_joint7_eff,flexpin1,flexpin2,flexpin3,Force,ContactMic,ContactMic_gt
1739402472.4580507,0.5257013407968104,0.095904049141099,-0.9533293306135514,-2.0691009438254313,0.13776425846023627,2.137582205327641,-1.2753828167571397,-0.0007116996385494028,0.001484557176029341,0.0015617447583363407,-0.0007005945631587046,-0.0006734593766164595,0.000502113541563269,-0.0007759102166858139,0.2411382496356964,-21.61801528930664,-2.4095618724823,22.54065704345703,0.6608988046646118,2.2551772594451904,-0.04756011441349983,,,,,,,,,
1739402472.4690127,0.5257002690814955,0.09593432290658033,-0.9533382038414853,-2.069106224440057,0.13776141863919666,2.1375867384723866,-1.275379050924192,-0.00020961624184362657,0.0023765908804815974,-0.0025730722056705084,-5.583580263524482e-05,-0.0010333423512368038,0.0014309050846980672,0.0028760295483068543,0.2411382496356964,-21.72116470336914,-2.3302161693573,22.56842803955078,0.6865335702896118,2.2753188610076904,-0.013685601763427258,,,,,,,,,
1739402472.4790444,0.5256916305493353,0.09595042872471167,-0.9533362948126447,-2.069109718086865,0.13776833273001465,2.137584812492458,-1.2753839443622976,-0.0021373021554215387,0.0017923056153166484,0.0010110828888704553,-0.0004954041212713555,0.0008683224738668951,0.0009630797269109734,0.000661232654932463,0.3165166676044464,-21.69339370727539,-2.35798716545105,22.63983917236328,0.6673074960708618,2.2679946422576904,-0.020094294100999832,,,,,,,,,
1739402472.4899874,0.5256933386548658,0.09596608070875029,-0.9533360975055083,-2.0691113994363914,0.1377662019667227,2.137588112489454,-1.2753820205197488,-0.0007758245070493606,0.0016027515891966703,-0.00030129294652319217,-0.0009032699163758462,-0.0005937359536354015,0.0002841291740825271,-0.0002731561270123011,0.2927129566669464,-21.72116470336914,-2.35798716545105,22.59223175048828,0.6865335702896118,2.2679946422576904,-0.027418512850999832,,,,,,,,,
1739402472.500049,0.5256933386548409,0.09597819448591101,-0.9533296252939333,-2.0691151190004713,0.13776618441610444,2.137589028658956,-1.2753792340415075,-0.0008474290900788351,0.0021962518257261036,0.0018502880556730181,-0.0012215197419579117,-0.0016248869722712924,1.3904491847467832e-06,0.0005179243232038137,0.2927129566669464,-21.79654312133789,-2.4095618724823,22.63983917236328,0.6865335702896118,2.2615859508514404,-0.05396880581974983,,,,,,,,,
1739402472.510095,0.5256987616371563,0.09599363592032098,-0.9533292946359951,-2.069111684521612,0.13776618441580724,2.1375914164825214,-1.2753882348693804,0.001440906754631598,0.0020569222579292076,-0.0005517228016773726,0.0012666540979225384,-0.0011080577917608823,0.0005623033707981542,-0.0019854973866792027,0.2173345386981964,-21.84811782836914,-2.4095618724823,22.56842803955078,0.6865335702896118,2.2679946422576904,-0.013685601763427258,,,,,,,,,
1739402472.5210826,0.525698841110016,0.0960028306201069,-0.9533197606370841,-2.0691118377186983,0.13776925406123297,2.1375904461462185,-1.2753806615927628,0.0010502882649783233,7.704448804610805e-05,0.0015068338973220393,0.0006448829453706369,-0.0005119159444601513,-0.0020457636382375617,0.0008507110759085629,0.2173345386981964,-21.87192153930664,-2.50874400138855,22.56842803955078,0.6608988046646118,2.2753188610076904,-0.06678618490695953,,,,,,,,,
1739402472.5320642,0.5256997721480755,0.09601215527372317,-0.9533243538711087,-2.0691160236847908,0.1377680083369734,2.13759044594236,-1.275380547365179,0.00017570175631013827,-0.00018019420154643867,-0.0009095253688568901,0.0003769693007098367,-0.0010445778238959498,0.0004056254196071503,0.0019428694700304558,0.1935308277606964,-21.82431411743164,-2.4333655834198,22.61603546142578,0.6801248788833618,2.2615859508514404,-0.04023589566349983,,,,,,,,,
1739402472.542067,0.5256970491124623,0.09603057325473004,-0.9533258971249677,-2.0691220046938144,0.13776800839694395,2.137592882369028,-1.2753760951647022,-0.0006127565600315006,0.0030554979102776006,-0.0008276816071653658,-0.0015015932981598703,-0.0013284662428596516,0.0007888991912887261,0.0020454813426032774,0.2411382496356964,-21.95126724243164,-2.4095618724823,22.69141387939453,0.6801248788833618,2.2679946422576904,-0.08051909506320953,,,,,,,,,
1739402472.5530484,0.5256933386548409,0.09604070224839995,-0.9533261338060103,-2.069122993691298,0.13776921576637163,2.137592016489826,-1.2753875995227535,-0.001092568627310372,0.0018190587706947653,-0.0006174458615263247,-0.0012777234625562643,0.00010364971040187435,0.00035432410485031256,-0.0002656624971765,0.2927129566669464,-22.00284194946289,-2.4095618724823,22.69141387939453,0.6608988046646118,2.2753188610076904,-0.020094294100999832,,,,,,,,,
1739402472.5639818,0.525697049443474,0.0960364815840369,-0.953326369118947,-2.069123224966179,0.1377727268274297,2.1375912588297474,-1.2753799400622272,-0.00038113391533695486,-0.0005026005048660514,-0.0005100647228774738,0.0003726262440630266,0.0013470927345507959,-0.0005542735864384049,0.002352557834949849,0.2411382496356964,-21.89969253540039,-2.4095618724823,22.66364288330078,0.6673074960708618,2.2817275524139404,-0.05396880581974983,,,,,,,,,
1739402472.575015,0.5256968151130067,0.09603790891416829,-0.953323300415293,-2.0691196974117108,0.13776699984698074,2.137593640047137,-1.2753852134103474,-0.00017192945488751456,0.0019755019430572193,0.0003593494753268968,0.00025909070884398927,0.00026052801227433595,-0.00022527329688327419,6.346831066295533e-05,0.2411382496356964,-21.87192153930664,-2.4095618724823,22.61603546142578,0.6801248788833618,2.2615859508514404,-0.04023589566349983,,,,,,,,,
1739402472.585043,0.5256941620003048,0.0960308369054166,-0.9533287046900066,-2.06911961397814,0.1377688714852222,2.1375936385935868,-1.275390320609314,-0.0007767872347655216,-0.0002634474494085157,-0.0005474915866873277,-6.115197090572329e-05,-0.0008442631298323146,0.0003860173814036718,-0.0028065133595893185,0.2411382496356964,-21.77273941040039,-2.4095618724823,22.61603546142578,0.6673074960708618,2.2615859508514404,0.0064559997990727425,,,,,,,,,
1739402472.5950453,0.5256987352994861,0.09603035771980377,-0.9533302944597386,-2.0691140522675595,0.13777312374553924,2.1375928823870503,-1.2753834847476384,-0.0006318907857214238,0.0008856888596184037,-0.00201197835174835,0.0016045634174033257,0.0012153731240761626,0.00011993091746787419,-0.0011884556075227861,0.2173345386981964,-21.79654312133789,-2.38179087638855,22.54065704345703,0.6673074960708618,2.2679946422576904,-0.027418512850999832,,,,,,,,,
1739402472.6060824,0.525697816956236,0.09602981154638746,-0.9533341876111792,-2.069118704346396,0.13777178805732937,2.137590603638987,-1.275381090125852,0.00033835877697106266,0.0005090533522784459,-0.0016287777895642125,0.0003695520923661733,-0.002005637852618943,-0.0011483317033416836,0.0007699016975524591,0.2173345386981964,-21.77273941040039,-2.3302161693573,22.61603546142578,0.6673074960708618,2.2753188610076904,-0.04756011441349983,,,,,,,,,
1739402472.617055,0.5256922421697747,0.0960241946636662,-0.953338684774751,-2.069116129003562,0.13777248328075758,2.137592880877014,-1.2753782795088318,-0.0005608480800020428,-0.00011745394857521759,-0.002054281103201041,0.0011323334606646888,-0.001131715200717985,-0.00029319886887288303,0.001912902715418428,0.2689092457294464,-21.72116470336914,-2.2826087474823,22.56842803955078,0.6737161874771118,2.2679946422576904,-0.06037749722599983,,,,,,,,,
1739402472.6289723,0.5256947813834812,0.09602570614434805,-0.9533302355975877,-2.0691186198521123,0.1377732026441481,2.1375934999831987,-1.2753771599716501,-0.0005637635448917102,0.0013395096670793436,0.001750618419729271,-0.0010548185082530303,0.001164868687309105,0.0006947385918166505,0.0012518240655690989,0.2689092457294464,-21.74496841430664,-2.35798716545105,22.59223175048828,0.6673074960708618,2.2753188610076904,-0.08051909506320953,,,,,,,,,
1739402472.639008,0.5256985266692361,0.09602024696623485,-0.9533313734714327,-2.069112269594992,0.13777251984909358,2.1375947701151627,-1.2753744888962508,0.0002140953395744124,-0.0012954464439064086,0.0001935364471116569,9.274567166853304e-05,-4.1346321147244614e-05,-3.289837231170085e-05,0.0024988711312360283,0.2173345386981964,-21.66958999633789,-2.38179087638855,22.51685333251953,0.6737161874771118,2.2551772594451904,-0.09425200521945953,,,,,,,,,
1739402472.6490445,0.5256958630722928,0.09602195948676172,-0.9533246914599378,-2.0691162141350232,0.13777325410768326,2.1375912588360544,-1.275377382311923,-0.0010654789522866023,-5.60412196248482e-05,0.000914763330382922,-0.0009038478005313333,0.00020217562780514885,-0.0005069973758393208,0.0017673887967048498,0.2173345386981964,-21.69339370727539,-2.4333655834198,22.56842803955078,0.6673074960708618,2.2817275524139404,-0.06678618490695953,,,,,,,,,
1739402472.6600034,0.5256970526679902,0.09602766788919902,-0.9533224902905648,-2.069115161264441,0.1377732555699384,2.137594398215958,-1.275383799601164,0.0002525363469381154,0.0023507883719621073,0.0012212094555864627,0.0006985784946129394,0.00037542092812724634,0.00047149533056696865,-0.0008816262516642127,0.2411382496356964,-21.77273941040039,-2.4571692943573,22.56842803955078,0.6673074960708618,2.2551772594451904,-0.013685601763427258,,,,,,,,,
1739402472.6700504,0.5257002401546477,0.09602395645328186,-0.9533251393799369,-2.0691160373824435,0.13777261638329807,2.137593006011533,-1.275379015855416,0.00021887372040210143,-0.00034098126694745174,0.00055292079286886,9.279940472571395e-05,8.014495891107241e-05,-0.00020541487197220582,0.0003408505947965451,0.1935308277606964,-21.72116470336914,-2.4571692943573,22.56842803955078,0.6737161874771118,2.2679946422576904,-0.05396880581974983,,,,,,,,,
1739402472.6800828,0.5256957284216901,0.09603309505753177,-0.9533261389819626,-2.069123262765428,0.1377732160794722,2.1375912588304455,-1.275383556001946,8.187478978680682e-05,-0.0007527834366950434,0.000445232274667947,-0.0007785138073315886,0.00020429789073389432,-0.0007040086530529753,-1.420803397806561e-05,0.2173345386981964,-21.84811782836914,-2.4095618724823,22.66364288330078,0.6673074960708618,2.2817275524139404,-0.027418512850999832,,,,,,,,,
1739402472.6910582,0.5256946310282943,0.09603583225172452,-0.9533282149054263,-2.0691253425181335,0.13777325556972375,2.1375936400471374,-1.2753781618310405,-0.0002836675916925337,0.0009172389113942524,5.586603677978864e-05,-0.0005852241333222845,-0.0007724963379919593,0.00026621473409748405,0.000664108786307313,0.2411382496356964,-21.87192153930664,-2.38179087638855,22.69141387939453,0.6673074960708618,2.2615859508514404,-0.06037749722599983,,,,,,,,,
1739402472.702051,0.5256970371190607,0.09603764458887429,-0.953326135115549,-2.069119944660821,0.13777400012048224,2.1375928870222687,-1.2753856300352826,-0.00032942189080468917,-0.0001279645109496909,-6.605832080051642e-05,0.0008665110184172541,-0.000709368147772203,0.00012290758893274584,-0.000633353861582842,0.2411382496356964,-21.87192153930664,-2.4095618724823,22.61603546142578,0.6608988046646118,2.2679946422576904,-0.0072769103571772575,,,,,,,,,
1739402472.7120578,0.5256970452643138,0.09603788471402591,-0.9533225701895006,-2.0691222222920365,0.13777585465682224,2.137592882387137,-1.2753793954063861,0.0008155559627478774,-0.000303202253875914,0.001289048112414483,-0.0009657185608993007,0.0013088728746832763,-0.00022264876050878923,0.0004634218548523983,0.2411382496356964,-21.87192153930664,-2.4571692943573,22.63983917236328,0.6737161874771118,2.2679946422576904,-0.05396880581974983,,,,,,,,,
1739402472.7229834,0.5256941245550955,0.09603799968937457,-0.9533260291517432,-2.0691214801015123,0.13777477094695015,2.1375897034726705,-1.2753798143771566,-0.000668181749136135,0.0006191722590267953,0.0008063291356318308,-8.25010142777571e-05,0.000776727237390247,-0.0010532732945195613,0.002235415559057498,0.2411382496356964,-21.87192153930664,-2.4095618724823,22.63983917236328,0.6544901132583618,2.2679946422576904,-0.04756011441349983,,,,,,,,,
1739402472.7340677,0.5256986831558513,0.09603628782241697,-0.953326771147855,-2.0691214800889433,0.1377740137175703,2.137592882369113,-1.275379655265486,0.00033572041055627774,-0.00022119962775606257,-0.00023388065273562933,0.0008258845682785873,-0.00040822157491578713,8.906130787948129e-05,0.00154767053759347,0.2173345386981964,-21.84811782836914,-2.38179087638855,22.63983917236328,0.6608988046646118,2.2679946422576904,-0.06037749722599983,,,,,,,,,
1739402472.744082,0.5256947910643314,0.09603914962438194,-0.9533284488643359,-2.0691196974119244,0.13777401323002775,2.1375930060115067,-1.2753855014148596,6.130488977813334e-05,0.0007971803557085987,3.0214071510583458e-05,0.0012099619670283479,0.00042891707657349495,0.00031397833240675205,-5.8460339469858236e-05,0.2689092457294464,-21.84811782836914,-2.38179087638855,22.61603546142578,0.6608988046646118,2.2679946422576904,-0.03382720425724983,,,,,,,,,
1739402472.7550974,0.525696651325008,0.0960279192481731,-0.9533351365881252,-2.0691196974119244,0.13777174024979,2.1375936812559844,-1.2753828232952107,0.0011414338917448714,-0.0008816090679309279,-0.0015724535611754634,0.0005263332945708182,7.79099531853446e-05,0.0009792317141934996,0.0019589491308383447,0.2173345386981964,-21.74496841430664,-2.3302161693573,22.61603546142578,0.6801248788833618,2.2615859508514404,-0.04756011441349983,,,,,,,,,
1739402472.7660434,0.5256963145935926,0.09603602659341483,-0.9533306329580162,-2.069121480201997,0.13777448717791563,2.137592886965974,-1.275381816065665,7.983952734215926e-05,0.0008332497568774279,0.0011319815610423317,-0.0009837881530569167,6.170141849122404e-05,5.8624973305662425e-05,0.0018102755385101426,0.2173345386981964,-21.82431411743164,-2.38179087638855,22.63983917236328,0.6608988046646118,2.2679946422576904,-0.06037749722599983,,,,,,,,,
1739402472.7780106,0.5256927068476582,0.09602515579403405,-0.9533250466307657,-2.069113313573796,0.13777401323270044,2.137594752667199,-1.2753871812258102,-0.0003825091575088939,-0.002067366931083057,0.0015797695340781367,0.0006490928509812964,0.000380358650641249,-0.0006155772359834108,-0.000678197944276419,0.2689092457294464,-21.69339370727539,-2.4333655834198,22.54065704345703,0.6608988046646118,2.2615859508514404,-0.013685601763427258,,,,,,,,,
1739402472.788993,0.5256968021143479,0.09602715372669085,-0.9533282933358406,-2.069112269589622,0.13777249986004825,2.137593047805862,-1.2753891462874347,0.0012938713286604524,0.0012868253502777431,0.00018805975224706807,0.0006314068457107094,-0.00031210909841225965,0.0008233909035881305,-0.00029911034720642355,0.2411382496356964,-21.72116470336914,-2.38179087638855,22.51685333251953,0.6737161874771118,2.2679946422576904,-0.0072769103571772575,,,,,,,,,
1739402472.7999747,0.5256960780061867,0.09602576202280494,-0.9533300062496597,-2.06911004435094,0.13777250376041908,2.1375930122869327,-1.2753844744145184,-0.0002694607575996929,-0.0013969426063531751,-0.0005659416871792768,0.0015319298045412433,-0.0023206857308664145,-0.000538548534581415,0.0019009502467630106,0.2411382496356964,-21.74496841430664,-2.35798716545105,22.51685333251953,0.6737161874771118,2.2679946422576904,-0.020094294100999832,,,,,,,,,
1739402472.8100388,0.5256986488453995,0.09602506804330653,-0.953330325678541,-2.0691174721341676,0.1377724979099674,2.1375945213338636,-1.2753852320209977,0.0006152921110004805,-0.0018188457992986745,0.0012090474865929686,-0.0007236986595663809,1.9928170156410178e-05,-0.00025293145731675767,-9.04729971243968e-05,0.2173345386981964,-21.69339370727539,-2.38179087638855,22.61603546142578,0.6737161874771118,2.2551772594451904,-0.013685601763427258,,,,,,,,,
1739402472.8200917,0.5256990866003088,0.09603086386201153,-0.9533244307964084,-2.069119697374239,0.13777646751626405,2.1375944116149395,-1.2753859896810753,0.0003450814017805393,0.0006988713831927026,0.0016654991683250134,-0.0015764519401976068,0.0008984671380918313,0.00036154659732926995,-0.0013711811755203725,0.2411382496356964,-21.77273941040039,-2.4333655834198,22.61603546142578,0.6673074960708618,2.2551772594451904,-0.0072769103571772575,,,,,,,,,
1739402472.8320608,0.5256956039042872,0.0960345746498575,-0.953326133807796,-2.069117914734905,0.13777768592447845,2.1375982895880776,-1.2753828516842878,-0.0004181091584189525,0.0010389037517253101,0.0013511049787921438,0.00014756014637512925,0.0014995277146467993,0.0003657389675444853,0.0002804964484087319,0.2173345386981964,-21.82431411743164,-2.4095618724823,22.59223175048828,0.6608988046646118,2.2551772594451904,-0.06037749722599983,,,,,,,,,
1739402472.8429787,0.5256960771456596,0.09603457432508171,-0.9533323376166234,-2.069119697223501,0.13777290476115972,2.1375977956251133,-1.2753876135613245,-0.00024384716657191517,0.0005891258598141649,-0.0016038282549611894,-0.0005044294446296972,-0.0012734733494060573,0.0012244129715369583,-0.00024787012795820097,0.2411382496356964,-21.82431411743164,-2.35798716545105,22.61603546142578,0.6673074960708618,2.2551772594451904,0.0064559997990727425,,,,,,,,,
1739402472.85302,0.525695681699136,0.09604070957653743,-0.9533304000469298,-2.0691231803496604,0.13777337842534024,2.137594372721218,-1.2753856768281926,8.038282280409831e-05,0.002522895919273251,-0.0013072285932792843,-0.00048336886997575194,-0.00022253116110495467,-0.0005859219966965197,-0.0007071594845990139,0.2173345386981964,-21.89969253540039,-2.38179087638855,22.66364288330078,0.6673074960708618,2.2679946422576904,-0.03382720425724983,,,,,,,,,
1739402472.863084,0.5256945962547529,0.09603799872904567,-0.953329921142498,-2.0691253791838884,0.13777664746798757,2.137594123235465,-1.2753822342439662,0.00029048824768595485,-0.0007130545060426893,-0.0004598336858084576,-0.002222968414709936,0.0007889298988683634,-0.0006967472598954872,0.0013272536369522813,0.2411382496356964,-21.87192153930664,-2.35798716545105,22.69141387939453,0.6480814218521118,2.2679946422576904,-0.05396880581974983,,,,,,,,,
1739402472.8740077,0.5256966982222786,0.0960366299586142,-0.9533282930131105,-2.069121562505449,0.1377760052995769,2.1375982741903585,-1.2753840510556507,-0.0005034202861749759,0.001171678103966763,-6.517832337917803e-05,0.00020757613663102676,0.0005679250038174168,0.0009721448575727074,0.0005711209708470911,0.2411382496356964,-21.84811782836914,-2.38179087638855,22.63983917236328,0.6801248788833618,2.2615859508514404,-0.04756011441349983,,,,,,,,,
1739402472.8850548,0.5256984111075721,0.09603629878738532,-0.9533262131180117,-2.0691200392883378,0.13777261645552705,2.137595341425113,-1.2753821485716323,0.00033544458940158446,0.0002401845362893272,-0.0005364780007950343,0.0012163638020960801,0.0003218669985289056,4.8832478275065774e-06,0.000371669199866703,0.2173345386981964,-21.84811782836914,-2.4095618724823,22.61603546142578,0.6737161874771118,2.2881362438201904,-0.06678618490695953,,,,,,,,,
1739402472.8960745,0.5256919267897441,0.09604085182133557,-0.9533303209363333,-2.069122252317835,0.1377745002335098,2.137596776368447,-1.2753828908942835,-0.0014023137161569368,0.0007013702297238882,-0.0009930728209579084,4.86634918941444e-05,0.0007194220583683225,-0.0005658137246434688,0.00033052666599629797,0.2689092457294464,-21.87192153930664,-2.38179087638855,22.61603546142578,0.6608988046646118,2.2679946422576904,-0.06037749722599983,,,,,,,,,
1739402472.906096,0.5256938900708389,0.0960347402608605,-0.9533282409414503,-2.069119707969205,0.13777329506933736,2.1375956567142667,-1.2753856840256579,-0.0012812914513811724,-0.0007435591169939789,3.8140293166380045e-05,-0.0007407168501011567,-0.0008558554718187384,0.0002782242244804047,0.0012310100586014538,0.2411382496356964,-21.79654312133789,-2.38179087638855,22.61603546142578,0.6673074960708618,2.2487685680389404,-0.027418512850999832,,,,,,,,,
1739402472.9170463,0.5256945920805126,0.09603482779360449,-0.9533296203317736,-2.069119697411984,0.13777477527823112,2.137594917559128,-1.2753828967022267,-0.0006216946656186383,0.0009170074036165474,-0.00044363576108733427,0.00031873658618450195,0.0010677295077795238,-0.0010091178161180127,-0.00016464398824508008,0.2411382496356964,-21.79654312133789,-2.35798716545105,22.61603546142578,0.6544901132583618,2.2615859508514404,-0.06037749722599983,,,,,,,,,
1739402472.9271016,0.5256938929710716,0.09603086422639741,-0.9533305553612078,-2.0691181650362576,0.13777326207062068,2.137594024678167,-1.275383288881498,-0.000777433541067374,0.00010141253875087694,-0.00016760860996701502,-0.0005172902242392074,-0.0006387666261697404,-0.0022243885098731982,0.001566767712984694,0.2411382496356964,-21.77273941040039,-2.38179087638855,22.59223175048828,0.6673074960708618,2.2615859508514404,-0.05396880581974983,,,,,,,,,
1739402472.9380457,0.5256973160747078,0.09602862948452773,-0.9533299975956355,-2.069114052269444,0.13777401323006172,2.1375944594933474,-1.2753835962244935,0.000682905900441395,-0.0004999065716348029,4.531043213922845e-05,0.0004902204759111648,-0.0005424672789669723,-0.0010321441552904964,0.0006617238583897761,0.1935308277606964,-21.74496841430664,-2.35798716545105,22.54065704345703,0.6608988046646118,2.2551772594451904,-0.05396880581974983,,,,,,,,,
1739402472.9489958,0.5256968030757972,0.0960288662460855,-0.9533310229464473,-2.0691140522680307,0.13777516596405082,2.137595527936796,-1.275385270657798,-0.0001582141487429065,-5.9461700529792546e-05,-0.0005415865771074307,0.0002324946304972735,0.0002356109172678767,-0.0011121683541224676,-0.00015087968794299327,0.2411382496356964,-21.74496841430664,-2.38179087638855,22.54065704345703,0.6544901132583618,2.2487685680389404,-0.04023589566349983,,,,,,,,,
1739402472.9589977,0.525694150551374,0.0960337383340576,-0.9533302316333983,-2.0691122697040654,0.13777478844841318,2.1375982570619962,-1.2753821330730863,0.0006135693805863955,0.0022676803086947913,-0.001009869782369794,0.000538305325776872,-0.0001478310986357558,0.0007304126730958999,0.001273421919454804,0.2411382496356964,-21.77273941040039,-2.35798716545105,22.51685333251953,0.6544901132583618,2.2615859508514404,-0.06678618490695953,,,,,,,,,
1739402472.969055,0.5256960741154079,0.09602886671897846,-0.9533282139361491,-2.0691139698517373,0.13777797454904814,2.1375978281083063,-1.2753849188989255,-0.0002002733234893701,0.0006979813815401589,0.00033618123231696315,0.0006208839194365057,-0.00048171107601602085,0.0014025795210472754,0.0005918193009056213,0.2411382496356964,-21.74496841430664,-2.38179087638855,22.54065704345703,0.6544901132583618,2.2679946422576904,-0.04023589566349983,,,,,,,,,
1739402472.9790876,0.5256919040541106,0.09602855056356532,-0.9533328951803255,-2.0691140532850505,0.13777209574233562,2.1375990334541055,-1.275388097020374,-0.0007424541256423379,-0.0007187728071043234,-0.0016960362705505411,0.0001586090155042249,-0.001024344367930621,0.0012610096988164082,-0.000741218788118526,0.2689092457294464,-21.74496841430664,-2.35798716545105,22.54065704345703,0.6801248788833618,2.2551772594451904,-0.013685601763427258,,,,,,,,,
1739402472.9891107,0.5256939940719739,0.09603061572803964,-0.95332825251058,-2.0691190990446655,0.13777915490056897,2.1375993617567155,-1.2753844079065264,-0.000993727756960284,-0.0007894383632740863,0.00029448005537719053,-0.0010203881985517548,0.0012596155633186413,0.0011377547626237432,0.0017722442059920547,0.2411382496356964,-21.77273941040039,-2.38179087638855,22.56842803955078,0.6544901132583618,2.2551772594451904,-0.013685601763427258,,,,,,,,,
1739402473.0000417,0.5256959961016211,0.09603457464845679,-0.9533351194169545,-2.0691196974286727,0.13777480159982086,2.1375993844865935,-1.2753826672451793,2.234903607250065e-05,0.001843641017525794,-0.0010915890010579766,-0.0008976518186489893,0.000980399195625443,0.0015011988702327125,0.0013539605291369792,0.2411382496356964,-21.82431411743164,-2.3302161693573,22.61603546142578,0.6673074960708618,2.2551772594451904,-0.07411040365695953,,,,,,,,,
1739402473.0110621,0.5256960742448374,0.09603457464985933,-0.9533243525970446,-2.069116058798954,0.13777405843537516,2.1375955397862674,-1.2753835303559538,0.00044575539506026395,0.000315586799934036,0.0015293849148681773,0.0013628821164151377,2.720671936949618e-05,-0.0006916116489047782,0.0007151805512779662,0.2411382496356964,-21.82431411743164,-2.4333655834198,22.56842803955078,0.6608988046646118,2.2753188610076904,-0.05396880581974983,,,,,,,,,
1739402473.0220075,0.5256949300895629,0.0960372393957308,-0.9533243639579159,-2.0691214831412608,0.1377730112948156,2.137597520478421,-1.2753867917204484,0.00022078349009184905,0.0010938736613175664,0.0011578309658563757,-0.0012981767259596126,0.00033191936572716797,0.0006157487319183338,4.10145871603059e-05,0.2411382496356964,-21.84811782836914,-2.4333655834198,22.63983917236328,0.6737161874771118,2.2615859508514404,-0.027418512850999832,,,,,,,,,
1739402473.032081,0.5256956030365858,0.09603482682091312,-0.9533261384326649,-2.069119697411976,0.13777438247278284,2.1375993907422517,-1.2753884109892937,-6.761666585092637e-05,-0.000925280912097905,-0.00019143911243650597,0.0004518190821890405,0.0020359371399968997,0.0008710354596360352,-0.000892929440500753,0.2173345386981964,-21.79654312133789,-2.4095618724823,22.61603546142578,0.6608988046646118,2.2551772594451904,-0.013685601763427258,,,,,,,,,
1739402473.0421112,0.5256938904982492,0.09604047976121144,-0.9533289169157213,-2.069121481106428,0.13777362854810826,2.137597533538706,-1.2753836485543328,-0.0001523844772098679,0.0008279910450946209,-0.0008489782033180469,-0.0009203051104901337,-0.0008850312351684976,-0.0008752643725090649,0.00032971652198491327,0.2411382496356964,-21.87192153930664,-2.38179087638855,22.63983917236328,0.6673074960708618,2.2615859508514404,-0.05396880581974983,,,,,,,,,
1739402473.0530019,0.5256921235103748,0.09603877882711177,-0.9533262131206518,-2.069117878105445,0.13777297180569276,2.1375959058488756,-1.275388328927811,-0.0016734655962137462,0.0010748942788667319,0.0009037495240997518,0.0009589666588106069,-0.000983690211637518,-0.0003016237179297552,-0.0012597412221037995,0.2689092457294464,-21.84811782836914,-2.4095618724823,22.59223175048828,0.6737161874771118,2.2753188610076904,-0.04023589566349983,,,,,,,,,
1739402473.0630698,0.5256975841072188,0.09603100223123447,-0.9533261354378623,-2.0691161320572657,0.13777361780870906,2.1375974105738904,-1.2753891688625725,0.0009337175306655492,-0.002064013798217707,0.00032911747799486225,0.0008435340907182655,-0.00126176117304077,0.0006318567361826663,-0.0019486174740214871,0.1935308277606964,-21.74496841430664,-2.4095618724823,22.56842803955078,0.6737161874771118,2.2615859508514404,-0.0072769103571772575,,,,,,,,,
1739402473.0749688,0.5256938910347475,0.09603266758141314,-0.9533282418687634,-2.0691179146218515,0.13777564767999328,2.1375994044903974,-1.275379752663251,-0.0003865721099548811,-0.0004646725998235035,0.00011141805845914585,-9.205662976655176e-05,0.000612792437156124,-0.0010583473633771342,0.0015890347323219889,0.2411382496356964,-21.79654312133789,-2.38179087638855,22.59223175048828,0.6480814218521118,2.2551772594451904,-0.08692778646945953,,,,,,,,,
1739402473.0850163,0.525696551123371,0.09602812935467128,-0.953326225956535,-2.0691119002868907,0.13777406588555516,2.137597163343917,-1.2753852328657906,-0.0003931283750934063,0.00042011112066954047,0.0008354742651663667,0.00030448506363569,0.000738509832663744,-0.000755230822615623,-0.00036885842591670003,0.2173345386981964,-21.72116470336914,-2.4095618724823,22.54065704345703,0.6608988046646118,2.2615859508514404,-0.04023589566349983,,,,,,,,,
1739402473.0950797,0.5256955940977213,0.0960288788515381,-0.953330023584342,-2.069110044314496,0.13777555338550335,2.137595308273744,-1.2753867743491833,-0.00015204014008859685,0.0007175357132524253,-0.001529862431280708,0.0014163554117175156,0.00022406094586021293,-0.0008500919023006567,-0.0012903625526599109,0.2173345386981964,-21.74496841430664,-2.35798716545105,22.51685333251953,0.6608988046646118,2.2615859508514404,-0.027418512850999832,,,,,,,,,
1739402473.1060336,0.5256959962079836,0.09602886624749318,-0.9533321064659448,-2.06911226957845,0.13777652079951191,2.1375994043089492,-1.2753886693605807,-0.00029144040429820794,0.000425043689489539,-0.0013197926421359004,0.0014436463552371989,0.0014299440278411329,-0.0005579930014955977,-0.0007866235361712766,0.2411382496356964,-21.74496841430664,-2.35798716545105,22.51685333251953,0.6801248788833618,2.2551772594451904,-0.020094294100999832,,,,,,,,,
1739402473.1160836,0.5256956329069288,0.09603083658217627,-0.9533299976181377,-2.0691161412152526,0.13777950990825194,2.1375970397194655,-1.2753879400561479,0.0005996889996251037,0.0006204009984135813,-4.092532581293222e-05,-0.0008329547581352641,0.0016370108633856008,-0.00024678857978771335,-0.0008028657918216688,0.2173345386981964,-21.77273941040039,-2.35798716545105,22.56842803955078,0.6544901132583618,2.2615859508514404,-0.013685601763427258,,,,,,,,,
1739402473.127034,0.5256942294299914,0.0960329912522276,-0.9533299990090565,-2.069114050836066,0.13777250232452504,2.1375994029620764,-1.2753821332319581,0.0008784948816388661,0.0005507565010713254,0.0011374167500167124,0.0007909968186128149,-0.000621557773796173,0.0012508313250908832,0.0010976785571075124,0.2411382496356964,-21.77273941040039,-2.35798716545105,22.54065704345703,0.6737161874771118,2.2551772594451904,-0.06678618490695953,,,,,,,,,
1739402473.1380296,0.5256940771262139,0.09603086420028242,-0.9533345650911613,-2.069119697751078,0.13777330822482925,2.1375986468372896,-1.2753821334499573,0.0007168659512324543,0.0005457342866137663,-0.002750218365773361,-0.0011855364128558125,-0.0009553321097248862,-0.00082460253678557,3.440258176079427e-06,0.2689092457294464,-21.77273941040039,-2.3064124584198,22.61603546142578,0.6673074960708618,2.2615859508514404,-0.06678618490695953,,,,,,,,,
1739402473.149025,0.5256958366424036,0.09603085249628036,-0.9533302575902038,-2.0691179143957457,0.1377811333849009,2.1375962242421784,-1.2753868659235148,0.0007417450557087208,-0.0015330103562656353,-7.012953199371379e-05,9.704970513919116e-05,0.0018078751219368628,-0.0007163834765403396,-0.0009212815816333617,0.2173345386981964,-21.77273941040039,-2.35798716545105,22.59223175048828,0.6407572031021118,2.2817275524139404,-0.027418512850999832,,,,,,,,,
1739402473.1591084,0.5256938911441901,0.09603457464966135,-0.9533263426324191,-2.0691214800889375,0.1377775387328358,2.137599403987933,-1.275383648555662,-0.00014053234649716927,-0.000245221672963681,0.00025297868261294827,-0.00014269298830963913,0.0004559885957531367,0.0005430695733113045,0.0006817068087257613,0.2411382496356964,-21.82431411743164,-2.4095618724823,22.63983917236328,0.6673074960708618,2.2551772594451904,-0.05396880581974983,,,,,,,,,
1739402473.170052,0.5256939160706381,0.09603802996604793,-0.9533282149065759,-2.0691196149956252,0.13777721257852318,2.1375978891772167,-1.2753821390488176,0.00029227178300563806,0.0016232903950996473,0.001378383976178829,-0.00028113458875710963,-0.0006695140506824155,0.0006266260719940413,0.0011954090877836232,0.2411382496356964,-21.87192153930664,-2.38179087638855,22.61603546142578,0.6608988046646118,2.2679946422576904,-0.06678618490695953,,,,,,,,,
1739402473.1800692,0.5256901796091081,0.09603802638567906,-0.9533244563310337,-2.069121489244914,0.13777174079151622,2.137598646837298,-1.275385272111742,-0.002823604479748643,0.00026414795245232106,0.0014213434950184943,-1.7367295209657295e-05,-0.0011304804516322196,0.0009642545040596909,-0.0004766547166478389,0.2927129566669464,-21.87192153930664,-2.4333655834198,22.63983917236328,0.6801248788833618,2.2615859508514404,-0.04023589566349983,,,,,,,,,
1739402473.1910045,0.5256956025909832,0.09603913505672537,-0.9533282235727842,-2.069125672221065,0.1377763656497306,2.1375986056291487,-1.2753828908942546,-0.00106049055505899,-0.0009068568349550996,-8.966400588734057e-05,-0.002488473963162253,0.0025185862645373674,0.00046169724513193814,0.0015142060448593876,0.2173345386981964,-21.84811782836914,-2.38179087638855,22.69141387939453,0.6544901132583618,2.2615859508514404,-0.06037749722599983,,,,,,,,,
1739402473.201014,0.5256946181878901,0.09604490499858785,-0.9533261262853779,-2.069117914740488,0.13777448910093126,2.1375978891765217,-1.2753832452005547,-0.0008417264120738907,0.0014192772125193325,-0.0012585990167546387,0.0013806878856752196,0.00026573716579426535,0.0005298558797595323,0.0008208987954259339,0.2411382496356964,-21.92349624633789,-2.4095618724823,22.59223175048828,0.6608988046646118,2.2679946422576904,-0.06678618490695953,,,,,,,,,
1739402473.211063,0.5256918921417297,0.09603877756507793,-0.9533261073162509,-2.069122232462701,0.13777401340059892,2.1375975342172624,-1.2753836442125133,-0.0015162613160748313,0.0007013946821194484,-0.00035844142893517447,-0.0005063491870365858,-0.0012528908696059476,-0.00034130255979747794,0.0017893618251988768,0.2689092457294464,-21.84811782836914,-2.4095618724823,22.63983917236328,0.6608988046646118,2.2615859508514404,-0.05396880581974983,,,,,,,,,
1739402473.2219744,0.5256966985392846,0.09604119124748585,-0.9533225613590259,-2.069118907239411,0.13777844940178396,2.137599444528016,-1.2753836485543082,0.0005125742061723864,0.001979611947059865,0.00020441964160233025,0.0001375138013291187,0.0008017252765500857,0.00022006017757215067,0.0013926473021041758,0.2411382496356964,-21.87192153930664,-2.4571692943573,22.59223175048828,0.6608988046646118,2.2817275524139404,-0.05396880581974983,,,,,,,,,
1739402473.2330961,0.5256990276800072,0.09604048129631677,-0.9533283179256359,-2.0691207424290012,0.1377749566591391,2.1375978892310545,-1.2753838055377593,0.0012443124773556748,0.0015669221058048268,-0.0011865286911093352,-0.0008818299355767039,-0.0004432177163153216,-0.0005479583200345793,0.0009965783326384484,0.1697271168231964,-21.87192153930664,-2.38179087638855,22.63983917236328,0.6801248788833618,2.2679946422576904,-0.05396880581974983,,,,,,,,,
1739402473.243157,0.5256932303199249,0.09603324171865765,-0.953330215402108,-2.069115936731238,0.13777601851144516,2.137597018701305,-1.2753860428563326,-0.0010160089165300278,0.00018252507192576402,-0.0005943306299965717,0.0007648086102081337,-0.0012995984072621909,-0.00047587020007352744,-0.00028192944492361877,0.2927129566669464,-21.77273941040039,-2.38179087638855,22.59223175048828,0.6801248788833618,2.2753188610076904,-0.03382720425724983,,,,,,,,,
1739402473.2549956,0.5256966984380275,0.09603203175122632,-0.9533299988701572,-2.069116132393326,0.13777285406049672,2.1375986463285472,-1.2753840017670672,-0.0002783914488894672,0.0015376315764746814,-0.0008755926150228971,0.000606999958369695,0.00015115553645056177,-0.00022830285666727452,-0.00036454008251057785,0.2411382496356964,-21.74496841430664,-2.35798716545105,22.56842803955078,0.6737161874771118,2.2615859508514404,-0.05396880581974983,,,,,,,,,
1739402473.265076,0.5256938900861052,0.0960310816735424,-0.9533309634484,-2.069114052230348,0.13777401978680687,2.1375986468372954,-1.2753867874337943,-0.00039963684407791746,0.0007629603451564659,-0.0008817891157696053,0.0007553410599752989,-0.0007176394978911874,-0.00015323814967337727,-0.00020657230861640123,0.2411382496356964,-21.74496841430664,-2.35798716545105,22.54065704345703,0.6608988046646118,2.2615859508514404,-0.027418512850999832,,,,,,,,,
1739402473.2759993,0.5256922898123504,0.09603086550291999,-0.9533282248972854,-2.0691161320578857,0.1377725666233833,2.1375994044973763,-1.2753843931324589,-0.001177567561503398,0.00045283526859386585,7.970671094003907e-05,-0.00015046286840851407,-0.00028486499432133936,0.00034431111229080586,6.191645294827803e-05,0.2927129566669464,-21.77273941040039,-2.38179087638855,22.56842803955078,0.6865335702896118,2.2551772594451904,-0.04756011441349983,,,,,,,,,
1739402473.2860453,0.5256973151474509,0.09602715372671311,-0.9533282149055737,-2.0691179269447275,0.1377725111004085,2.1375994044973763,-1.275385272111422,0.0003202423364245964,0.0006626301064078258,0.00046242507063693644,-0.000765342639360854,-0.0009798793055017462,-0.0002619898863731217,-0.0005134666312390833,0.1935308277606964,-21.72116470336914,-2.38179087638855,22.59223175048828,0.6737161874771118,2.2551772594451904,-0.04023589566349983,,,,,,,,,
1739402473.2960494,0.525694204963744,0.09602718009500077,-0.9533300277557041,-2.069117914735112,0.13777584170161417,2.1376009198175328,-1.2753841195046125,0.0004759771540677573,-0.0004181127152805531,-0.00011378726276241503,-0.00016182297105234332,0.0007709111480955452,0.0010081667688809776,-0.0009534930711827079,0.2411382496356964,-21.72116470336914,-2.35798716545105,22.59223175048828,0.6544901132583618,2.2423598766326904,-0.05396880581974983,,,,,,,,,
1739402473.3070312,0.5256939940735497,0.09603257674532566,-0.9533303296031502,-2.069119707586776,0.13777678202780952,2.1375994044973763,-1.2753828908430778,0.0006318338280101658,0.0003895301041318799,0.0007951087285061737,-1.7810636438320062e-05,0.00012161702430273384,0.0006440034478678259,0.00047980061859532086,0.2411382496356964,-21.79654312133789,-2.38179087638855,22.61603546142578,0.6737161874771118,2.2551772594451904,-0.06037749722599983,,,,,,,,,
1739402473.318071,0.5256958369159829,0.09603457464985955,-0.9533261351274864,-2.0691214800890005,0.13778014974235714,2.137598646837298,-1.2753891657421987,0.0007328339542556604,0.00013891030256942406,0.00033423986150567925,-4.272068117229576e-05,0.0013100023424045123,-0.00038054760349922283,-0.0016479793402074776,0.2173345386981964,-21.82431411743164,-2.4095618724823,22.63983917236328,0.6480814218521118,2.2615859508514404,-0.0072769103571772575,,,,,,,,,
1739402473.3290591,0.5256938901785722,0.0960362729083858,-0.9533281884144513,-2.0691244480931905,0.13777289485173913,2.137598647321815,-1.2753821332346003,-0.00034240300498434477,-0.001710496083243031,0.00013396906600927715,-0.0010763087464357498,-0.0006018888315160141,-6.017480810988575e-05,0.0013397049781520118,0.2411382496356964,-21.84811782836914,-2.38179087638855,22.63983917236328,0.6737161874771118,2.2615859508514404,-0.06678618490695953,,,,,,,,,
1739402473.34005,0.5256956285913638,0.09603937653089349,-0.9533243521113315,-2.069119701536304,0.1377756060958817,2.137598646837301,-1.2753876533290327,-0.000139914628973806,0.00022634639392509208,0.0012822689914994538,-0.0005472047608293603,0.0013800386833921817,-0.00035630873137716516,0.0010150606424590783,0.2173345386981964,-21.84811782836914,-2.4333655834198,22.61603546142578,0.6608988046646118,2.2615859508514404,-0.020094294100999832,,,,,,,,,
1739402473.3510005,0.5256976284003908,0.09604120040200889,-0.9533264471201074,-2.0691232627659857,0.1377764587494462,2.1375986468372985,-1.2753812273000231,0.0011153242971660518,0.0011987648612458138,-0.0008253551196390485,-0.00028358470654847525,0.0009638388559019761,-0.00023565644908599747,0.0024952444216915825,0.1935308277606964,-21.87192153930664,-2.4095618724823,22.66364288330078,0.6673074960708618,2.2615859508514404,-0.04756011441349983,,,,,,,,,
1739402473.3610818,0.5256959158848185,0.09603948788187196,-0.9533261350118164,-2.069124004625707,0.13777358388929623,2.1375970232799877,-1.275389207841321,4.457518357317606e-05,0.0017073040147616496,-0.0007769273973473709,-0.0006185334614857887,-0.00021997853655958868,-0.0006502567356605463,-0.0011020852693094945,0.2173345386981964,-21.84811782836914,-2.4095618724823,22.66364288330078,0.6737161874771118,2.2753188610076904,-0.0072769103571772575,,,,,,,,,
1739402473.3710828,0.5256977086376823,0.09603940302572639,-0.9533282149053992,-2.0691224691222208,0.13777253745618503,2.137599302028059,-1.2753908322454117,0.00017154806827943066,0.0004566525258357459,-0.0005171986583040655,0.0007598902792293439,-0.0007801954462390818,-2.0014780478230074e-05,-0.0013750801454548182,0.2173345386981964,-21.84811782836914,-2.38179087638855,22.63983917236328,0.6737161874771118,2.2679946422576904,-0.020094294100999832,,,,,,,,,
1739402473.3820455,0.5256937845383917,0.09603778716834672,-0.9533279760144215,-2.0691197004788022,0.1377735700755218,2.1375994051460574,-1.2753902795280692,-0.0007361739729324111,-1.715671431367472e-05,0.00042884113218430816,0.00043083950672408844,-0.0001389729066626241,0.00048521052493343615,-0.0013347087398573301,0.2411382496356964,-21.82431411743164,-2.38179087638855,22.61603546142578,0.6737161874771118,2.2551772594451904,-0.0008682189509272575,,,,,,,,,
1739402473.3930984,0.525694158413201,0.09603193242965445,-0.9533261351142004,-2.0691179148856613,0.1377748279389182,2.137598646837302,-1.2753804696419386,-0.00017098080379773485,-1.854723460206836e-05,-0.0002577303707891628,0.00010548612053176267,0.0009300444040119529,-0.00019485679250011914,0.0022532739709588655,0.2411382496356964,-21.77273941040039,-2.4095618724823,22.59223175048828,0.6544901132583618,2.2615859508514404,-0.05396880581974983,,,,,,,,,
1739402473.404018,0.5256938900717668,0.09603396111432774,-0.9533279764868253,-2.0691161442677086,0.13777680390743915,2.137599443743233,-1.2753821331628363,0.0002499420924109866,0.0008794913070943666,-0.0005848113482823325,0.0008173871185622984,-0.00030493118401035376,-0.00017740148170864258,0.0003453405003289408,0.2411382496356964,-21.77273941040039,-2.38179087638855,22.56842803955078,0.6737161874771118,2.2551772594451904,-0.06678618490695953,,,,,,,,,
1739402473.4150562,0.5256982812986758,0.09603303924770672,-0.953332103575521,-2.0691179148480283,0.13777507069384456,2.137599404497598,-1.2753837008821411,0.0010730834439704891,0.001998889442150507,-0.00034463679732646754,0.00021623897225506639,-0.0006406798822122493,-0.00017368325594063847,0.00015389166179350478,0.1935308277606964,-21.77273941040039,-2.35798716545105,22.59223175048828,0.6801248788833618,2.2551772594451904,-0.05396880581974983,,,,,,,,,
1739402473.4260502,0.5256938886584946,0.09603087606448431,-0.9533320773841675,-2.0691161320578866,0.13777635250481357,2.1375986468372985,-1.2753847455005471,-0.0010433107448870227,0.0004147249346845819,-0.0013990077814763496,-0.0004128317946418394,0.00031512538828737554,-0.00010175427331967995,6.845121947802275e-05,0.2411382496356964,-21.77273941040039,-2.3302161693573,22.56842803955078,0.6544901132583618,2.2615859508514404,-0.05396880581974983,,,,,,,,,
1739402473.436156,0.5256960047677557,0.0960308729783151,-0.953333868716092,-2.069117915074067,0.137773300991984,2.1375986468372985,-1.2753828967641863,0.0009193743289227156,-0.0002374174958907463,-0.0016363074911727327,-0.0017227068349177635,-0.0020864700034315337,-0.000254358355706798,0.0008919012929026491,0.2411382496356964,-21.77273941040039,-2.3064124584198,22.59223175048828,0.6673074960708618,2.2615859508514404,-0.06037749722599983,,,,,,,,,
1739402473.4470954,0.5256959989939444,0.09602886722404265,-0.9533321939281828,-2.069117914734906,0.1377755973179168,2.1375990000500082,-1.2753842124735253,-0.0004787553795443724,-0.0007805899338296097,-0.0009096933166671301,-6.871870879306732e-05,0.0012907231114730818,0.0003681572084555154,-0.0002367013134837461,0.2411382496356964,-21.74496841430664,-2.3302161693573,22.59223175048828,0.6608988046646118,2.2615859508514404,-0.04023589566349983,,,,,,,,,
1739402473.4580693,0.5256958366301182,0.09603096966153135,-0.9533261351175227,-2.069117582060251,0.13777495872353374,2.1375978891832013,-1.2753884503620643,0.0005575825669628236,0.0005032388474213624,0.000792916892214648,-9.643247530831005e-05,-0.00018989984964212152,-0.0008100657536777884,-0.001022703809739152,0.2173345386981964,-21.77273941040039,-2.4095618724823,22.61603546142578,0.6801248788833618,2.2679946422576904,-0.04023589566349983,,,,,,,,,
1739402473.4691389,0.5256956025914236,0.09603457502381986,-0.953329997903416,-2.06911405226405,0.13777494706241167,2.1375986469090784,-1.2753817640388345,-0.0006385159673533672,-0.0003476618353042947,-0.00020715572681566,0.0016145871437528722,0.0005880407277746992,-0.00013379795019840713,0.0006553170122454244,0.2173345386981964,-21.82431411743164,-2.35798716545105,22.54065704345703,0.6544901132583618,2.2615859508514404,-0.06678618490695953,,,,,,,,,
1739402473.4800103,0.5256918920930602,0.09603360543480093,-0.9533291512400796,-2.0691219226519957,0.13777330893003045,2.13759788917722,-1.275388410987137,-0.001105259774921186,9.71035769174271e-05,-0.0006799254821399413,-0.000336689318728527,-0.0001357928972537506,-0.0010561713280025026,-0.001727846315548235,0.2689092457294464,-21.79654312133789,-2.38179087638855,22.61603546142578,0.6673074960708618,2.2679946422576904,-0.013685601763427258,,,,,,,,,
1739402473.4900305,0.5256973151117138,0.09604017471452216,-0.9533282498289812,-2.069119697562663,0.13777266952660436,2.1375970232799877,-1.2753836543685337,8.529506567305531e-07,0.0008020012491092507,0.0009266234943281651,0.0005128251068893665,-0.001018090529442016,-0.0016361920523331338,0.0013540204986997298,0.1935308277606964,-21.87192153930664,-2.4095618724823,22.61603546142578,0.6737161874771118,2.2753188610076904,-0.05396880581974983,,,,,,,,,
1739402473.5020432,0.5256956037659363,0.09603776656594841,-0.9533282178062732,-2.0691237054420695,0.13777606006178195,2.1375978893387253,-1.275387271464065,0.0006578999743601674,2.3479724121583737e-05,-0.000727963994625858,-0.00013690789938219147,0.0003737468248839326,-0.0005964512667488509,-0.001021801912676899,0.2173345386981964,-21.82431411743164,-2.38179087638855,22.63983917236328,0.6801248788833618,2.2679946422576904,-0.027418512850999832,,,,,,,,,
1739402473.5130491,0.5256934568237779,0.0960394909201804,-0.9533261351512311,-2.069123510479637,0.13777531267874682,2.137600162157456,-1.2753833465790143,-0.0006445689325599762,0.00126669958696524,0.0012311080636652693,-0.00020833157214644624,-0.0005504436596507649,-0.0002506105226233167,0.001748319018496288,0.2173345386981964,-21.84811782836914,-2.4095618724823,22.66364288330078,0.6801248788833618,2.2487685680389404,-0.04756011441349983,,,,,,,,,
1739402473.5230696,0.5256977464867492,0.09603727598221296,-0.9533289207675735,-2.0691255734761866,0.13777601046629145,2.1375994044973767,-1.2753852721056618,0.0002656477346378223,0.0010809061431615915,-0.000720893722789955,-0.0018501758270213606,0.0006976637482270749,3.783993511081676e-05,0.00019572593303788776,0.2173345386981964,-21.84811782836914,-2.38179087638855,22.66364288330078,0.6544901132583618,2.2551772594451904,-0.04023589566349983,,,,,,,,,
1739402473.5330732,0.5256963057075253,0.09604096305035506,-0.9533284489207785,-2.0691204243446877,0.13777808865467334,2.1375997064754277,-1.2753877043199193,0.00041429496531050617,0.001172661776512137,-0.0011536127242747247,7.378358671303721e-05,-0.0008262562940700977,0.0004909607889200248,-0.000241657132006042,0.2173345386981964,-21.87192153930664,-2.38179087638855,22.59223175048828,0.6544901132583618,2.2615859508514404,-0.04756011441349983,,,,,,,,,
1739402473.5440683,0.525695715271204,0.09603941181124637,-0.9533242729696333,-2.069119816613244,0.1377775252200237,2.1375986468552433,-1.2753867876491596,0.0007635536340679244,0.0016458201284076052,0.0005279903626975793,0.0003138299616390635,0.00024541111637001525,-0.00018508379190075916,-0.0013058964420142696,0.2173345386981964,-21.84811782836914,-2.4333655834198,22.61603546142578,0.6673074960708618,2.2615859508514404,-0.027418512850999832,,,,,,,,,
1739402473.5540698,0.5257001231533932,0.0960329195508446,-0.9533243537220507,-2.069119780959435,0.1377768207244353,2.137602885389816,-1.2753890510732364,0.0006257582103902028,-0.0012791571589564788,0.0008769576850971326,-0.00039725342364637403,0.0005348732547091912,0.0016366144632301554,-0.0004521852005260979,0.1935308277606964,-21.79654312133789,-2.4333655834198,22.61603546142578,0.6737161874771118,2.2615859508514404,-0.0072769103571772575,,,,,,,,,
1739402473.5649672,0.5256919047709494,0.09603356539596723,-0.9533299797582709,-2.069120167447548,0.1377771375747997,2.1375970233039143,-1.2753860292865413,9.817798611162505e-05,0.0006864156776553781,-0.0006837597047276592,-0.0001959191851157739,0.00034125484789411975,-7.542677464507619e-05,0.0004452886306670026,0.2689092457294464,-21.79654312133789,-2.35798716545105,22.59223175048828,0.6737161874771118,2.2753188610076904,-0.03382720425724983,,,,,,,,,
1739402473.5751202,0.5256956064431054,0.09603266852653251,-0.9533338600489962,-2.0691161324351977,0.13777251180221584,2.1375986468372985,-1.2753821332346083,0.00027694118501656105,0.0009519136873036445,-0.0015933771495407559,-5.86245357449656e-05,-0.0020743714241549254,-0.0005939503043963601,-0.00018111280410245474,0.2173345386981964,-21.79654312133789,-2.3064124584198,22.56842803955078,0.6737161874771118,2.2615859508514404,-0.06678618490695953,,,,,,,,,
1739402473.5860364,0.5256973152187335,0.09602747908104706,-0.953330009138148,-2.0691179160915545,0.13777589441049853,2.1375986468372985,-1.2753884045289976,0.00022819033440636726,-0.001857365636585682,-0.0008631898695251102,-0.0003934721243624269,0.00022628819254495117,-0.00035985229001373397,-0.00043229187633726535,0.1935308277606964,-21.72116470336914,-2.35798716545105,22.59223175048828,0.6544901132583618,2.2615859508514404,-0.013685601763427258,,,,,,,,,
1739402473.5960796,0.5256948873352477,0.09603101380528525,-0.953326136399714,-2.069117942207028,0.13777757978790156,2.13759788917722,-1.2753920739357316,-0.00013498058471396435,4.144917936671292e-05,-0.00020159991282422073,-0.0003575966261008353,-0.0001401068157675493,-0.0011201548988838896,-0.0010136315257654467,0.2173345386981964,-21.74496841430664,-2.4095618724823,22.59223175048828,0.6673074960708618,2.2679946422576904,-0.013685601763427258,,,,,,,,,
1739402473.6070046,0.5256956025869456,0.09603529640856176,-0.953330336015361,-2.069117915187276,0.13777677100171187,2.1375997577100865,-1.2753867874524776,0.0002898486879461659,0.0006985159309301387,-0.0013682349942482153,0.0006621156070398729,0.0016963121173179437,0.0002140460133100832,-0.00046565096774911523,0.2173345386981964,-21.82431411743164,-2.35798716545105,22.59223175048828,0.6480814218521118,2.2551772594451904,-0.027418512850999832,,,,,,,,,
1739402473.6180305,0.5256977432889386,0.09603181442811104,-0.9533282149073149,-2.0691201399749795,0.1377786914477926,2.137599408860021,-1.2753836480698162,0.0006188572672591682,-0.0007896136664642132,0.00016005475335563533,0.00017544538277432665,0.0007965004898419124,0.0006107664261634164,0.0013966599132141631,0.2173345386981964,-21.77273941040039,-2.38179087638855,22.59223175048828,0.6608988046646118,2.2551772594451904,-0.05396880581974983,,,,,,,,,
1739402473.6289968,0.5256939690821192,0.09603290496185002,-0.9533263690099528,-2.06911799720145,0.13777265758017157,2.13759419635718,-1.275392245094257,0.0009087056332708192,-0.0004216618896755587,-0.0004607036568161869,0.00019859716252221821,-0.001894588030679799,-0.0014345956515765762,-0.002968705455162852,0.2411382496356964,-21.79654312133789,-2.4095618724823,22.59223175048828,0.6737161874771118,2.2615859508514404,-0.020094294100999832,,,,,,,,,
1739402473.6390023,0.5256939016273144,0.09603823701167011,-0.9533310229504083,-2.0691196975263746,0.13777694042241506,2.1375978891018503,-1.2753949917525385,0.0007898499214579461,0.0015007396502088243,-0.0015327021416546346,0.0007551822632801494,-3.715493993328029e-05,-0.000251448504722356,-0.0020041196388604667,0.2411382496356964,-21.87192153930664,-2.38179087638855,22.61603546142578,0.6737161874771118,2.2679946422576904,0.0064559997990727425,,,,,,,,,
1739402473.649017,0.525701271132639,0.09604108576420681,-0.9533282148439427,-2.0691196977510877,0.1377757807575929,2.1376001619878724,-1.2753837489204194,0.002155865640818671,0.0017515396383460883,0.00047440601460853793,0.0012530601696227872,0.0005379258677593496,0.0003140657884578943,0.0013280376628662745,0.1419561207294464,-21.87192153930664,-2.38179087638855,22.61603546142578,0.6865335702896118,2.2487685680389404,-0.05396880581974983,,,,,,,,,
1739402473.6600034,0.5256966252739838,0.09603853775400908,-0.9533261347884997,-2.069124242604185,0.13777728237834166,2.137598646837297,-1.2753915899041754,0.0002980855826856816,-0.0007142509413037538,-5.266672585415677e-05,-0.001184726439172623,0.0010893692392063656,0.00010865412394947786,-0.0017041782219053606,0.2173345386981964,-21.84811782836914,-2.4095618724823,22.66364288330078,0.6737161874771118,2.2615859508514404,-0.013685601763427258,,,,,,,,,
1739402473.6700654,0.5256990315016729,0.0960416216616444,-0.9533243436082066,-2.069117914751499,0.137778053256074,2.1375978891772194,-1.2753868270380393,0.0012506783847786361,-2.0487971709167688e-05,0.0008893449120240738,0.001179780131174513,-4.3069378449624575e-05,-0.0005082310382983749,0.0014553640455621075,0.1697271168231964,-21.84811782836914,-2.4333655834198,22.59223175048828,0.6673074960708618,2.2679946422576904,-0.05396880581974983,,,,,,,,,
1739402473.6809988,0.5256959973850253,0.09603948959396602,-0.95332612635584,-2.0691214831413984,0.13777254403686945,2.1376001665181055,-1.2753867874497429,0.0002732610585276675,0.0004643357625101545,0.0006089061064027509,0.00018462827597321452,-0.001232830876014533,0.00018767327764573948,-8.250207687209993e-05,0.2411382496356964,-21.84811782836914,-2.4095618724823,22.63983917236328,0.6737161874771118,2.2487685680389404,-0.027418512850999832,,,,,,,,,
1739402473.6910338,0.5256919008318799,0.09603777829098199,-0.9533261351154005,-2.0691214831414504,0.13777489512159322,2.137599117787652,-1.2753836041567617,-0.0014425639526435283,0.000717807402664401,3.707659811334876e-05,-0.0013683348375711137,-0.0016029207446112323,0.0011430089141738348,-5.192896681849052e-06,0.2689092457294464,-21.82431411743164,-2.4095618724823,22.63983917236328,0.6938577890396118,2.2615859508514404,-0.027418512850999832,,,,,,,,,
1739402473.702091,0.5256956122208026,0.09603411662284801,-0.9533261437823423,-2.069120881721685,0.13777562209469998,2.1376010680942663,-1.2753894749700314,0.0003808862022850937,-0.0008262522138242111,0.00014494883104027422,-0.0002562129998614955,0.00030803136976481144,0.0002461880346325269,-0.0019231469383603284,0.2173345386981964,-21.79654312133789,-2.4095618724823,22.59223175048828,0.6865335702896118,2.2679946422576904,-0.013685601763427258,,,,,,,,,
1739402473.712972,0.525694592080567,0.09603577751945834,-0.9533237148569328,-2.0691221699176414,0.13777880994039882,2.1375994049998384,-1.2753844541875754,-0.0005527642715930398,0.00026545845746512404,0.0017784768685809422,-0.0016810632334440527,0.0016445456988962567,0.0005083493931046971,-0.0008359306948057457,0.2411382496356964,-21.79654312133789,-2.4333655834198,22.61603546142578,0.6608988046646118,2.2551772594451904,-0.04756011441349983,,,,,,,,,
1739402473.7240677,0.5256945949813324,0.09603203451374767,-0.953328214894607,-2.0691168749769875,0.13777641946269492,2.137597889177228,-1.2753860297725341,0.0005252978023162114,-0.0011993456094982645,-0.000329794697236047,0.0001035199948881545,-0.0009329954945448539,-0.0009829936754062094,-1.8916935099405792e-05,0.2411382496356964,-21.74496841430664,-2.38179087638855,22.56842803955078,0.6801248788833618,2.2679946422576904,-0.03382720425724983,,,,,,,,,
1739402473.735076,0.5256990276337719,0.09603027446493466,-0.9533282109808188,-2.0691189037318907,0.13777729559600393,2.1375986468372985,-1.2753844062144113,0.0010154845311955616,-0.0009341047694453967,0.000632172129180671,0.00046944117907465237,-0.001198453663919398,-0.0007717471356858889,0.0022523794139483874,0.1697271168231964,-21.72116470336914,-2.38179087638855,22.59223175048828,0.6737161874771118,2.2615859508514404,-0.04756011441349983,,,,,,,,,
1739402473.746054,0.5256956026266489,0.09603405914802651,-0.9533243116004043,-2.0691204422166534,0.1377736234074481,2.1375986468372985,-1.275385283309364,-6.826752507081615e-05,0.00010968605952345206,0.0016634187794218802,-0.0009398310633704702,-0.001344616463469269,-0.00047433271059188004,0.000287691444257257,0.2173345386981964,-21.77273941040039,-2.4095618724823,22.61603546142578,0.6737161874771118,2.2615859508514404,-0.04023589566349983,,,,,,,,,
1739402473.757096,0.5257011307197885,0.0960275096988253,-0.9533282144590456,-2.0691179147391097,0.13778012949124666,2.1375994044973767,-1.275384563197901,0.0014645848857223703,-0.001989174855355277,0.00036219745936956027,-5.303647159954358e-05,-0.00011535205122076492,0.0006792303001437459,-0.001187814551931173,0.1697271168231964,-21.72116470336914,-2.38179087638855,22.59223175048828,0.6737161874771118,2.2551772594451904,-0.04756011441349983,,,,,,,,,
1739402473.7680194,0.5256956026028552,0.09603484744993947,-0.9533282149054019,-2.0691200272278585,0.13777328261432364,2.1375970770613466,-1.275383245201441,-0.0006595685200593557,0.0008739873977202208,0.0006344411687155426,-0.0006847313681867966,-0.0011013437847755977,-0.0004671175911404756,-0.0009256248777710811,0.2173345386981964,-21.82431411743164,-2.38179087638855,22.61603546142578,0.6801248788833618,2.2753188610076904,-0.06678618490695953,,,,,,,,,
1739402473.7789834,0.5256956141467076,0.0960339883462399,-0.9533261351155489,-2.069121480090805,0.13777805220866535,2.1375986469991073,-1.2753852721179206,-0.0007191128420120172,0.0006205464420785739,9.541433157275324e-05,-0.0007719627372318433,0.001189526133807259,0.00035809191948762606,-0.001321110884196906,0.2173345386981964,-21.77273941040039,-2.4095618724823,22.63983917236328,0.6673074960708618,2.2615859508514404,-0.04023589566349983,,,,,,,,,
1739402473.790021,0.525697315432772,0.09603301316891467,-0.9533299976894211,-2.069117919144008,0.13777578076360741,2.137600919647953,-1.2753852722731491,-0.00017255520983302586,-0.001169587820573794,-0.0012141777952323722,-0.0001339568687058068,-0.00038003555410209713,0.000843753622980384,0.0021047938126072738,0.1935308277606964,-21.77273941040039,-2.35798716545105,22.59223175048828,0.6865335702896118,2.2423598766326904,-0.04023589566349983,,,,,,,,,
1739402473.8010645,0.5256955938676683,0.09603474328727638,-0.9533299975824254,-2.0691220142257363,0.13777638773141498,2.1375978891772167,-1.2753891744635033,-0.0005760659712396516,-0.00033575964886291986,-0.0015975991991977268,0.0002926655789818815,-0.00011962198442722637,-0.0007556839521265135,-0.0017984312273435642,0.2173345386981964,-21.79654312133789,-2.35798716545105,22.61603546142578,0.6801248788833618,2.2679946422576904,-0.0072769103571772575,,,,,,,,,
1739402473.8119867,0.5256997296426897,0.0960402011949223,-0.9533262400919347,-2.0691196984337688,0.13777578141137364,2.137597902259172,-1.275383661636296,0.0022573727922644074,0.0008603704275453847,-0.0003543513694936109,0.0010398342822955293,-2.71511564500009e-05,-7.204488814153254e-05,0.0010355060356708845,0.1697271168231964,-21.84811782836914,-2.4095618724823,22.61603546142578,0.6865335702896118,2.2679946422576904,-0.05396880581974983,,,,,,,,,
1739402473.8220692,0.5256954691487898,0.09603578047069151,-0.9533287986267164,-2.0691214887941114,0.13777729608378372,2.137601825751908,-1.2753852851938172,-0.00024480803236692447,-0.000778291665956258,0.00016890470242983939,-0.0002702109712559109,-0.00013885792313520818,0.0006627845849612993,-0.0010904055810859513,0.2173345386981964,-21.79654312133789,-2.38179087638855,22.63983917236328,0.6737161874771118,2.2615859508514404,-0.04023589566349983,,,,,,,,,
1739402473.833076,0.5256973160739381,0.09603925053096359,-0.9533320765370911,-2.069119700954329,0.13777729559622776,2.1376018257696314,-1.2753860297717956,0.0005059732815653267,0.0003424986061787954,-0.0017475716975261033,0.000830363707189103,0.00032948984657514037,8.65647364072583e-05,0.0003841696982706534,0.1935308277606964,-21.84811782836914,-2.3302161693573,22.61603546142578,0.6737161874771118,2.2615859508514404,-0.03382720425724983,,,,,,,,,
1739402473.8439922,0.5256984452992156,0.0960394557584296,-0.9533299975824094,-2.0691184407318017,0.137778359033263,2.1375994047127174,-1.2753867830711494,0.0006714003233918716,0.00041969788469750613,-0.0007895017807440219,0.000714321652765554,0.0011581041070569452,-0.0001798110625651068,-0.0003783677437053032,0.2173345386981964,-21.84811782836914,-2.35798716545105,22.56842803955078,0.6737161874771118,2.2551772594451904,-0.027418512850999832,,,,,,,,,
1739402473.8540668,0.5256938902289624,0.09603777829080597,-0.9533282932275369,-2.0691227468657027,0.13777877175627157,2.1375994044973776,-1.2753861479937838,-0.00035282200082069066,-0.00018762752525234606,2.4261250466830304e-06,-0.0002727892147426681,-1.854619423198974e-05,-4.0321434877197264e-05,0.00018446926399898775,0.2411382496356964,-21.82431411743164,-2.38179087638855,22.61603546142578,0.6608988046646118,2.2551772594451904,-0.03382720425724983,,,,,,,,,
1739402473.8649812,0.5256938900702529,0.09603578431982342,-0.9533283191479133,-2.0691214896026855,0.13777801425248404,2.1375978949914205,-1.2753828908949219,8.074631128177606e-05,0.00012420843264316945,-0.0011313857010209715,-0.0007840528526469902,0.00012736466260864637,5.929528045844169e-05,0.0005811338560647166,0.2411382496356964,-21.79654312133789,-2.4095618724823,22.63983917236328,0.6673074960708618,2.2679946422576904,-0.06037749722599983,,,,,,,,,
1739402473.8750808,0.5256940068269744,0.09603398883306735,-0.9533281923033461,-2.0691179147350662,0.13777663206202545,2.137597889177318,-1.2753812273000231,-0.00018502296141945746,-0.00044076413274740623,-0.0013162966471139733,-7.383875281751433e-05,-0.001076532554306769,-0.00042140646122478876,0.0006689887023611225,0.2689092457294464,-21.77273941040039,-2.38179087638855,22.59223175048828,0.6673074960708618,2.2679946422576904,-0.04756011441349983,,,,,,,,,
1739402473.8860354,0.5256973151475269,0.09603574095911419,-0.9533282187569299,-2.0691179106649646,0.13777881186588398,2.1375994044973767,-1.2753899320697435,0.00130671997814939,-0.0003880734589401877,-0.0002921119046174603,-0.0008168388640410629,0.0010325541655883336,0.00036198574688318957,-0.0003241213123474406,0.1935308277606964,-21.79654312133789,-2.38179087638855,22.59223175048828,0.6608988046646118,2.2551772594451904,-0.0008682189509272575,,,,,,,,,
1739402473.8960567,0.525698712629938,0.09602993286161252,-0.953328214941092,-2.0691118361853027,0.13777655160053376,2.1375986468372985,-1.2753841238114605,0.00026061299216374094,-0.00029614350200883057,0.0004668808365498946,0.0017383975850855465,-0.00012839031793063802,-0.00014919240988244749,8.058068738495578e-05,0.1697271168231964,-21.74496841430664,-2.38179087638855,22.54065704345703,0.6801248788833618,2.2615859508514404,-0.05396880581974983,,,,,,,,,
1739402473.9070144,0.5256957065907251,0.09603577997638198,-0.953329997546085,-2.0691196973994144,0.13777653403586398,2.1375994051433986,-1.2753828908969373,0.0008120361361634532,0.0017134309543114542,-0.0004155442636183852,-0.0011344026309495628,0.0001973823510384113,4.756743555295637e-05,0.00034829689400575484,0.2173345386981964,-21.79654312133789,-2.35798716545105,22.61603546142578,0.6801248788833618,2.2551772594451904,-0.06037749722599983,,,,,,,,,
1739402473.9170318,0.5256938905000029,0.09602969435240133,-0.9533321813737986,-2.0691197004643795,0.1377789688778549,2.1376004641355166,-1.275386031225272,-0.0005293470669910862,-0.0006537175276271402,-0.0022414879053768533,0.00015416144112854793,0.0006949638945139966,0.0006284784057283036,-0.0002258131970119243,0.2411382496356964,-21.74496841430664,-2.3302161693573,22.61603546142578,0.6608988046646118,2.2551772594451904,-0.03382720425724983,,,,,,,,,
1739402473.927958,0.5256956027336489,0.09603578044525236,-0.9533300007929342,-2.0691196974119412,0.13777634771260722,2.1375978891832013,-1.275385313602563,6.310941163365229e-05,0.000711526604800261,-0.0009286091072853017,-0.0003325533035336442,-0.0008917774048643357,-0.0007108492686370886,0.0006995699539524105,0.2173345386981964,-21.79654312133789,-2.35798716545105,22.61603546142578,0.6737161874771118,2.2679946422576904,-0.06678618490695953,,,,,,,,,
1739402473.9380603,0.525695680913118,0.09603110264243565,-0.9533260559637359,-2.0691179137174203,0.13778124257628582,2.1375994044973767,-1.275385272327009,-0.00011250614087690843,-0.002048952620276702,0.0007182251785803403,0.001002215832846268,0.0007145153164259239,-0.000150965137362135,-0.0008583397316979611,0.2173345386981964,-21.77273941040039,-2.4095618724823,22.59223175048828,0.6673074960708618,2.2551772594451904,-0.04023589566349983,,,,,,,,,
1739402473.9489722,0.5256938900706941,0.09603914699419275,-0.9533282265676796,-2.069123290577218,0.13777729453062731,2.1375970232799877,-1.2753885292113087,-0.00037311949183582444,0.0007987952104554519,8.423356236973417e-05,-0.0008308867834985496,0.00037260827303080485,-0.0004173410480740803,-0.000302989462403979,0.2411382496356964,-21.84811782836914,-2.38179087638855,22.66364288330078,0.6737161874771118,2.2753188610076904,-0.013685601763427258,,,,,,,,,
1739402473.9600854,0.5256938908131776,0.0960377783936916,-0.9533280024874029,-2.069117915074538,0.13777729608374645,2.137599443743233,-1.275388410991223,0.0006319658049855236,0.001126427054287941,0.00014747853521515785,5.5384610197845496e-05,0.00020068601321205737,-0.0001410269492974823,-0.001007300608402844,0.2411382496356964,-21.82431411743164,-2.38179087638855,22.59223175048828,0.6737161874771118,2.2551772594451904,-0.013685601763427258,,,,,,,,,
1739402473.971062,0.5256959959920192,0.09603948797837814,-0.9533282136203625,-2.0691240624663108,0.13777701084569374,2.1375986468912074,-1.2753833749264865,-0.0010417002474701984,5.9615531850212096e-05,0.0003416588188880665,-0.002036294367000805,0.000562264402146066,-0.00022875682631759512,-0.00013947231015779666,0.2411382496356964,-21.84811782836914,-2.38179087638855,22.63983917236328,0.6801248788833618,2.2615859508514404,-0.06037749722599983,,,,,,,,,
1739402473.9820704,0.5256981211353832,0.09603778673444925,-0.9533243524385226,-2.069121480103521,0.13777896961477837,2.1376018257516867,-1.2753871400012202,0.0006378479193920395,-0.0003173187865665251,0.001511917264421505,0.0002841869226333408,0.0002117085250960899,0.0010572591977590523,-0.0005479322559712146,0.1935308277606964,-21.82431411743164,-2.4333655834198,22.63983917236328,0.6865335702896118,2.2615859508514404,-0.027418512850999832,,,,,,,,,
1739402473.9929917,0.5256941587453956,0.09604162146081027,-0.953326458469312,-2.0691179147349055,0.1377772917138691,2.1375986468552433,-1.2753915899055992,-0.0005662110639485824,0.0001524844297375139,0.0007763141677589905,0.0009821000565740396,0.0007092822533061364,-0.00046592924633917705,-0.0015361272021049482,0.2411382496356964,-21.84811782836914,-2.4333655834198,22.59223175048828,0.6737161874771118,2.2615859508514404,-0.013685601763427258,,,,,,,,,
1739402474.003058,0.5256990279579878,0.09603706659948798,-0.9533307003712758,-2.069125736272416,0.13777896961203756,2.1375970232799877,-1.2753822748630455,0.0007097063399816626,-0.0003639916452906256,-0.0012940018713347651,-0.002486990720290825,-0.00011399020274847861,-0.0011295803382125355,0.002220161203898067,0.1697271168231964,-21.82431411743164,-2.35798716545105,22.66364288330078,0.6865335702896118,2.2753188610076904,-0.07411040365695953,,,,,,,,,
1739402474.0141156,0.525695602590985,0.09603570134971502,-0.9533261233457592,-2.069117914786553,0.13777689427029105,2.1375994219399796,-1.275383008637512,0.0006489792744769448,-0.0003631039710121378,0.0003019093192616252,0.0005424842253387949,3.844035512257529e-05,-0.00044923108672097927,0.0011967599783005295,0.2173345386981964,-21.79654312133789,-2.4095618724823,22.59223175048828,0.6801248788833618,2.2551772594451904,-0.06037749722599983,,,,,,,,,
1739402474.0249918,0.5256948260839328,0.09603777839906945,-0.9533300235827371,-2.069121922651996,0.1377757676019104,2.137597023280086,-1.2753844062150759,-0.00023926205429775852,-6.940067769689443e-05,-0.0005671084446286397,-0.0005651230461769781,-0.001269369776087854,-0.0013214497772357813,0.0007676580521380438,0.2411382496356964,-21.82431411743164,-2.35798716545105,22.61603546142578,0.6865335702896118,2.2753188610076904,-0.04756011441349983,,,,,,,,,
1739402474.0350282,0.5256938900861035,0.09603578045866294,-0.9533243525459677,-2.0691197066069753,0.13777805957599856,2.137598647321815,-1.2753821332346167,-0.0009785047137152716,-0.0006362799897563449,0.0011659932379088475,-0.0010091326261518986,-0.0008140956038996844,-0.0003358595854413468,0.0017721383284492256,0.2411382496356964,-21.79654312133789,-2.4333655834198,22.61603546142578,0.6673074960708618,2.2615859508514404,-0.06678618490695953,,,,,,,,,
1739402474.0460448,0.5256976300408717,0.09603406793793175,-0.9533303209361872,-2.069116131944884,0.13777956900986904,2.137602583411767,-1.2753867938920236,0.0008898181206066721,3.072246986057483e-05,-0.00029621429362230024,0.0009456814676421443,-0.00041482083973799647,0.00018336303217660686,-5.6383394082837725e-05,0.1935308277606964,-21.77273941040039,-2.38179087638855,22.56842803955078,0.6544901132583618,2.2551772594451904,-0.027418512850999832,,,,,,,,,
1739402474.0569956,0.5256956025927609,0.09603382139965948,-0.9533323074630023,-2.0691214800889424,0.13777881134975747,2.1376001621753997,-1.275383506048131,0.0005464442276967008,0.0002947620376510861,-0.001221698088697265,-0.0012625536154089877,-0.00019429884099428284,-0.00013209689063512696,-0.00018053429149331033,0.2173345386981964,-21.77273941040039,-2.3302161693573,22.63983917236328,0.6608988046646118,2.2487685680389404,-0.04023589566349983,,,,,,,,,
1739402474.0679758,0.525693891033229,0.09603383076609627,-0.95332435211278,-2.0691197796398,0.1377772434289148,2.137596265619909,-1.2753887641919612,-0.00029807787940027043,-0.00038127141398240877,0.0015457765964155662,-0.000676027304165786,-0.00036906233909038215,-0.0012515993075382422,0.00011842509721056384,0.2411382496356964,-21.77273941040039,-2.4333655834198,22.61603546142578,0.6737161874771118,2.2817275524139404,-0.013685601763427258,,,,,,,,,
1739402474.0780625,0.5256956025909995,0.09603690382535583,-0.9533303989373211,-2.069117914736298,0.1377775969843964,2.137600162157455,-1.275386684968464,0.0002510601026774957,0.0011725284376498022,-0.00047436494043927074,0.0006455601712507701,0.0001480185005256005,0.0002543510996004802,0.0004364836304795688,0.2173345386981964,-21.82431411743164,-2.38179087638855,22.59223175048828,0.6801248788833618,2.2487685680389404,-0.04023589566349983,,,,,,,,,
1739402474.089021,0.5256973152187119,0.09602718155496988,-0.9533299977374158,-2.0691208940445436,0.13778382086797736,2.1376012634475607,-1.275389168657275,0.000498629039244105,-0.001254337217936863,-0.0006548484664772668,-0.00027085246798657373,0.002283599754198126,0.0015850722989872604,0.0004601013016423064,0.1935308277606964,-21.72116470336914,-2.35798716545105,22.59223175048828,0.6544901132583618,2.2753188610076904,-0.0072769103571772575,,,,,,,,,
1739402474.0990255,0.525695602590985,0.09603777823721994,-0.9533299714124653,-2.06912444712616,0.13777805381585578,2.137599157105242,-1.2753825038899294,-0.00060490980602515,0.0009468553513446375,0.0004533388152156504,-0.0015974102073242496,0.0010363251842648111,0.0016464932964628835,0.000961250057361788,0.2173345386981964,-21.82431411743164,-2.35798716545105,22.63983917236328,0.6673074960708618,2.2615859508514404,-0.06678618490695953,,,,,,,,,
1739402474.1090333,0.5256927425310111,0.09603269536639823,-0.9533282158679384,-2.06911977987847,0.13778166728284538,2.137600162166096,-1.275388410995498,-0.0007583706734729529,-0.0004917641240095592,0.00024222275178056843,0.0005213000071722834,0.0024444711421806537,0.00030372952404758997,-0.00015872056887348402,0.2173345386981964,-21.79654312133789,-2.38179087638855,22.61603546142578,0.6737161874771118,2.2487685680389404,-0.013685601763427258,,,,,,,,,
1739402474.1199636,0.5256938635631536,0.09603783209385687,-0.9533282188643155,-2.069117914848425,0.13777805360601164,2.137597062525844,-1.2753829039762068,-0.00035596077272560204,-0.0003426407960692038,-0.0013852728519245018,0.0013980024766125808,0.0006392417496194493,-0.0003771367937642462,0.0008990238094936066,0.2411382496356964,-21.79654312133789,-2.38179087638855,22.59223175048828,0.6673074960708618,2.2753188610076904,-0.06037749722599983,,,,,,,,,
1739402474.129983,0.525695579842473,0.09603777854251985,-0.9533281919393777,-2.0691202441836225,0.13777794254271258,2.137597023280652,-1.2753899263095994,-0.0008465851356290015,-0.0003513972076967962,-0.00044003434321435316,0.00026731682400422464,-0.0004424381281692112,-0.0004554724175790653,-0.0006480646181874256,0.2173345386981964,-21.82431411743164,-2.38179087638855,22.63983917236328,0.6673074960708618,2.2753188610076904,-0.0008682189509272575,,,,,,,,,
1739402474.1409655,0.525693891354093,0.09604088702126003,-0.9533261380043504,-2.0691218190175826,0.13777760137256517,2.137601234877536,-1.2753836485543328,0.0005743018816947731,0.0003650099896828738,0.0003480897472784419,-0.0008627798386631319,0.0003241171513177924,0.0011368011212974658,0.0006899399579148666,0.2411382496356964,-21.87192153930664,-2.4095618724823,22.63983917236328,0.6801248788833618,2.2487685680389404,-0.05396880581974983,,,,,,,,,
1739402474.1510303,0.5256918951253493,0.09603777546434521,-0.9533232717718204,-2.0691240349999505,0.13778200027042606,2.137594592519202,-1.275386031709789,-0.0013566589204148847,-0.0004146928025940714,0.000656621282912919,-0.0008341572933736884,0.0008054964818158113,7.898686847788675e-05,0.0007651963998904924,0.2689092457294464,-21.82431411743164,-2.4571692943573,22.63983917236328,0.6608988046646118,2.2679946422576904,-0.03382720425724983,,,,,,,,,
1739402474.1610603,0.5256938635793494,0.09603746197974714,-0.9533264471319979,-2.069121492342033,0.13777881145793316,2.137597023224158,-1.2753879464991973,-0.00026949625427322545,0.00011566414892510025,4.1491480045748215e-05,-0.0003342276413000066,0.00020455373276491993,-0.000778651501979175,0.0007555627011063757,0.2411382496356964,-21.82431411743164,-2.4095618724823,22.63983917236328,0.6608988046646118,2.2753188610076904,-0.013685601763427258,,,,,,,,,
1739402474.1720083,0.5256938900701024,0.09603578922587284,-0.9533282149071658,-2.069121922652065,0.1377765384236947,2.1375986511979486,-1.275385285836996,-0.0009122771972168702,0.00019861006857137676,0.0006512301838209838,0.00020539059840469348,-0.0005468759884343674,0.00015916849490701723,0.001724161979879135,0.2411382496356964,-21.79654312133789,-2.38179087638855,22.61603546142578,0.6801248788833618,2.2615859508514404,-0.04023589566349983,,,,,,,,,
1739402474.182113,0.5256938900702519,0.0960356759599046,-0.9533303209361865,-2.0691196979018245,0.13777653842369442,2.1375994044974505,-1.2753883597546847,-0.001120292767724262,0.0005282429364009873,-0.0008586281503910379,0.00015549339687885038,-0.002008038389507897,0.0008751372064099708,0.0001246776048257423,0.2411382496356964,-21.79654312133789,-2.38179087638855,22.61603546142578,0.6801248788833618,2.2551772594451904,-0.020094294100999832,,,,,,,,,
1739402474.1929994,0.5256959931575947,0.0960341468583067,-0.9533300322614855,-2.0691197350588784,0.13777871334977074,2.137599404981893,-1.275386030475567,-0.0002654087224390202,-9.251909418088195e-06,-0.0002587242187785381,-0.0004565408011583453,0.0012273298551825924,0.00038579911702234926,-0.00013014688507108563,0.2411382496356964,-21.77273941040039,-2.35798716545105,22.61603546142578,0.6737161874771118,2.2551772594451904,-0.03382720425724983,,,,,,,,,
1739402474.2039874,0.5256984366799438,0.09603574237154967,-0.9533261351157446,-2.0691197798284358,0.13777916572842944,2.1375994044973794,-1.2753900440469517,0.001095609627959908,0.00017485882266897218,0.000989646009304676,0.00017650352486328402,0.0009661592640205505,0.00028954828535038345,-0.0022204700796609935,0.2173345386981964,-21.79654312133789,-2.4095618724823,22.61603546142578,0.6608988046646118,2.2551772594451904,-0.0008682189509272575,,,,,,,,,
1739402474.2139971,0.5256956027459762,0.09603404059237275,-0.9533299975824236,-2.0691179148493553,0.13777805423588246,2.1375987645748684,-1.2753842884788351,0.0003315888070461491,-0.000442827067458707,-0.0007995776033135325,0.0002669530165674927,-8.363450129950644e-05,0.0019300927404781443,0.0013361599323890546,0.2173345386981964,-21.77273941040039,-2.35798716545105,22.59223175048828,0.6673074960708618,2.2615859508514404,-0.04756011441349983,0,0,0,0.000,0,0
1739402474.2240682,0.5256966186384376,0.09603404156915872,-0.953326135115549,-2.069118010378513,0.1377757809256347,2.137597890632764,-1.2753794666882812,-7.455230002069527e-05,0.0002687980070976931,0.0016235045151842598,0.0003759979754315469,-0.0008258571958144464,-0.00013088409949396174,0.0021764249352750047,0.2411382496356964,-21.77273941040039,-2.4095618724823,22.59223175048828,0.6865335702896118,2.2679946422576904,-0.05396880581974983,0,0,0,0.000,0,0
1739402474.2350738,0.5256948260993357,0.09603564256626272,-0.9533282236791952,-2.0691161320961107,0.13777956906400868,2.137599417579337,-1.2753907926675203,-0.0002655302193143933,0.0017835446893460813,-0.000812338458468806,0.0018988415263813665,0.0005635927459499461,0.00020378343910778862,-0.001413395150913268,0.2411382496356964,-21.82431411743164,-2.38179087638855,22.56842803955078,0.6544901132583618,2.2551772594451904,0.0064559997990727425,0,0,0,0.000,0,0
1739402474.2450879,0.5256917529856852,0.09603404120791662,-0.9533348220635076,-2.069120686407512,0.13777881140392945,2.137601081173781,-1.2753812668528755,-0.0020478129762203064,-0.0006020178332243075,-0.0032546002809221266,-3.178119500609912e-05,0.0008731100206730023,-0.0001031675660692089,0.0023462832292510723,0.2411382496356964,-21.77273941040039,-2.3064124584198,22.61603546142578,0.6608988046646118,2.2679946422576904,-0.07411040365695953,0,0,0,0.000,0,0
1739402474.255968,0.5256956285792993,0.09603406779309878,-0.9533299975878542,-2.069116133910016,0.1377780537438511,2.1375978891952383,-1.2753867874856328,-5.4426498994317434e-05,-0.00014807440382154217,-0.0006371350183392732,0.0015431442946780855,-0.0002636412969384619,-0.0005114560174676663,-0.0005200775555750926,0.2173345386981964,-21.77273941040039,-2.35798716545105,22.56842803955078,0.6673074960708618,2.2679946422576904,-0.027418512850999832,0,0,0,0.000,0,0
1739402474.266014,0.5256969972207157,0.09603396030941543,-0.9533299723754398,-2.069118247452588,0.13777703745401151,2.137597891115287,-1.2753876927363959,-0.0007174899359759497,0.0005546424906337031,-0.0004669979373624839,7.004832350339483e-05,-0.0008533948835610192,8.545930765386721e-05,-0.0017559619420905634,0.1935308277606964,-21.79654312133789,-2.35798716545105,22.59223175048828,0.6938577890396118,2.2679946422576904,-0.020094294100999832,0,0,0,0.000,0,0
1739402474.2760305,0.5256940010437287,0.09603746194897246,-0.9533261321716827,-2.069121150542436,0.13777956909995398,2.137599404497409,-1.2753879400396086,-0.0003295467270172474,-0.000823654559116868,-0.00045441567925485213,-0.00025984630137647905,-0.0003215866594126983,-0.0001641276663791833,0.0006967603827423426,0.2689092457294464,-21.82431411743164,-2.4095618724823,22.63983917236328,0.6544901132583618,2.2551772594451904,-0.013685601763427258,0,0,0,0.000,0,0
1739402474.286058,0.5256956055156289,0.09603774909603476,-0.953326135115499,-2.0691196975193975,0.13777729608377337,2.1375943953397947,-1.2753857277856953,5.919088695411186e-05,0.0004104314891522021,0.0014083561133608335,-0.0007031084288387702,-0.00019324770394062548,-0.001273979658001782,0.0011971183693455973,0.2173345386981964,-21.82431411743164,-2.4095618724823,22.61603546142578,0.6737161874771118,2.2881362438201904,-0.027418512850999832,0,0,0,0.000,0,0
1739402474.2970123,0.5256939969607196,0.09603649074718111,-0.9533282235721978,-2.06912148924631,0.1377795690640078,2.1375980461543653,-1.2753867874258185,-0.0006070117065298355,-0.0004398730656877942,-0.0012993036507761807,-0.0006360957016786199,0.00034748390416926734,-0.0007274074494986774,-0.00025544841073127226,0.2411382496356964,-21.79654312133789,-2.38179087638855,22.63983917236328,0.6544901132583618,2.2679946422576904,-0.027418512850999832,0,0,0,0.000,0,0
1739402474.3080387,0.5256938991668453,0.0960394997012721,-0.9533243524386767,-2.06911791530033,0.13778063201350627,2.137597023282646,-1.2753884116352432,-0.0001585723690118508,0.0008744142664751824,0.0007153579485433876,0.0012392167684318156,0.0010917898908845468,-0.0008701216496473848,-0.0009573319145254554,0.2411382496356964,-21.84811782836914,-2.4333655834198,22.59223175048828,0.6544901132583618,2.2753188610076904,-0.013685601763427258,0,0,0,0.000,0,0
1739402474.3190594,0.5256956035539774,0.0960357908485355,-0.953328463086996,-2.0691180093610275,0.13777653793814956,2.1376024809424465,-1.275383648554334,0.0002659412554386096,-0.0009166487086966713,-0.00010970624379024846,0.0006816360680751623,-6.677996559653377e-05,0.0008774946781745253,0.0010765467393702118,0.2173345386981964,-21.79654312133789,-2.38179087638855,22.59223175048828,0.6801248788833618,2.2679946422576904,-0.05396880581974983,0,0,0,0.000,0,0
1739402474.329101,0.5256956035539765,0.09603406793810772,-0.9533299975866265,-2.0691179147365077,0.13777881140392123,2.1375986648421796,-1.2753836485543328,1.19327584599411e-05,-0.00019925392880670026,-0.0007673514237218205,0.0002981619653863398,-0.0009310639798120463,0.0002303573123295001,-4.921520512657959e-05,0.2173345386981964,-21.77273941040039,-2.35798716545105,22.59223175048828,0.6608988046646118,2.2615859508514404,-0.05396880581974983,0,0,0,0.000,0,0
1739402474.339969,0.5256956025909886,0.09603578045866296,-0.953326135115549,-2.069117915074067,0.13777972653800757,2.1375994442278516,-1.275383609308476,-0.0010381765495118818,-0.0006349593941084019,0.0006835259205242053,0.0011992410560995124,0.0001324275826959985,0.00017867390709062816,0.0010970332078099414,0.2173345386981964,-21.79654312133789,-2.4095618724823,22.59223175048828,0.6544901132583618,2.2551772594451904,-0.05396880581974983,0,0,0,0.000,0,0
1739402474.3500257,0.5256938861456663,0.09603483109099385,-0.9533282152263969,-2.0691184652373864,0.1377788060420874,2.137599404982566,-1.2753837030682176,-0.0008761038023340713,-0.001234446830848546,-0.0004773361267904785,-0.00010903138625074896,8.951566474837343e-05,0.0006788988602327729,-7.8629652542386e-05,0.2411382496356964,-21.79654312133789,-2.38179087638855,22.61603546142578,0.6608988046646118,2.2551772594451904,-0.06678618490695953,0,0,0,0.000,0,0
1739402474.3609524,0.525695602590961,0.09603506847276506,-0.9533282150124037,-2.0691186596401496,0.13777877364019273,2.1375986466677204,-1.2753876533378945,5.184141627996843e-05,0.00021588345116695681,0.00028407706413171387,-0.0007978703523042242,-5.013662907774578e-05,-0.0005707952535534855,-0.00020860024831410146,0.2173345386981964,-21.79654312133789,-2.38179087638855,22.59223175048828,0.6608988046646118,2.2615859508514404,-0.020094294100999832,0,0,0,0.000,0,0
1739402474.3710408,0.5256956285913632,0.09603577154865721,-0.9533307082594794,-2.0691171730008295,0.13777882452612322,2.137598686083152,-1.2753867874318003,0.001420040140240353,-0.00017776076372875792,-0.0018793991454759526,-0.0002389274493484525,0.001038678686962329,-0.0006410728707101801,-0.0014611172689334897,0.2173345386981964,-21.79654312133789,-2.35798716545105,22.59223175048828,0.6608988046646118,2.2615859508514404,-0.027418512850999832,0,0,0,0.000,0,0
1739402474.3810487,0.5256956099500216,0.09603506851414391,-0.9533261437943776,-2.0691204377894064,0.1377787719130084,2.137598646837963,-1.2753860341323726,0.0001577780527693531,0.000287141805541793,0.0007758200155116263,-2.920656358640502e-05,-0.001264841812274898,0.00042635482743597823,0.0007788242838463811,0.2173345386981964,-21.79654312133789,-2.4095618724823,22.61603546142578,0.6608988046646118,2.2615859508514404,-0.03382720425724983,0,0,0,0.000,0,0
1739402474.3920324,0.5256952733460641,0.09603554313985461,-0.9533299975824725,-2.0691217273420195,0.13777882306390488,2.1376005153701647,-1.2753887511200033,9.515933632748706e-05,0.00027958433471332773,-0.0009429006932541815,-0.00181497311303931,2.8750884594232304e-05,0.0003569678708907106,-0.0014644404155251987,0.1935308277606964,-21.79654312133789,-2.35798716545105,22.63983917236328,0.6608988046646118,2.2487685680389404,-0.013685601763427258,0,0,0,0.000,0,0
1739402474.4020658,0.5256966980767173,0.09603706645112885,-0.9533292788300904,-2.069119587527713,0.13777637028160228,2.1376001621634364,-1.2753852721174037,-0.00019385148930053605,0.0006155668185142224,-9.649462558619561e-05,0.0001362597556705332,-0.00048682374892645964,-0.00033088094552632475,-0.000431757522507125,0.2411382496356964,-21.82431411743164,-2.35798716545105,22.61603546142578,0.6544901132583618,2.2487685680389404,-0.04023589566349983,0,0,0,0.000,0,0
1739402474.4121103,0.5256974191607883,0.09603788361541223,-0.9533302325366487,-2.069120448766336,0.13777881134975778,2.137601221795584,-1.2753805096773059,0.0015264441442957495,0.0012813945967139698,-0.001055332455992682,-0.0008619663036110014,0.0002451050389331477,0.00040675321611666746,0.0011538480495378095,0.1935308277606964,-21.82431411743164,-2.35798716545105,22.61603546142578,0.6608988046646118,2.2487685680389404,-0.08051909506320953,0,0,0,0.000,0,0
1739402474.4239955,0.5256966778577045,0.0960321490629831,-0.9533291509204117,-2.0691192541747894,0.13777653842369408,2.1375997122956103,-1.2753907922066103,-0.0002318375108029005,-0.0007622877530142679,-0.0009101976377848759,0.00048454371719816255,-0.0013748108519507317,0.0010162169571635387,-0.002156799235020009,0.1935308277606964,-21.74496841430664,-2.38179087638855,22.63983917236328,0.6801248788833618,2.2615859508514404,0.0064559997990727425,0,0,0,0.000,0,0
1739402474.434983,0.5256973148904639,0.09604043797197408,-0.9533261351173102,-2.0691214800345086,0.1377772960296011,2.137601982737118,-1.275386793407507,0.0005359074701707357,0.0022222629864561676,0.0004914737819063722,-5.855559499578567e-05,-3.405511119212228e-05,0.0014678110124723446,-0.0003038392830588704,0.1935308277606964,-21.84811782836914,-2.4095618724823,22.63983917236328,0.6737161874771118,2.2615859508514404,-0.027418512850999832,0,0,0,0.000,0,0
1739402474.4450016,0.5256956025909795,0.09603406784545859,-0.9533282149054045,-2.069120723036977,0.13777806101614376,2.1376001622139484,-1.2753892088477166,0.000731771618090922,-0.0008387029664011933,-0.0003494742626596337,-0.0006709513117993987,-0.0007537495967979114,0.0005562303766316943,-0.001328136021200666,0.2173345386981964,-21.77273941040039,-2.38179087638855,22.61603546142578,0.6673074960708618,2.2487685680389404,-0.03382720425724983,0,0,0,0.000,0,0
1739402474.4550934,0.5256938900702519,0.09604044663230826,-0.9533300490926104,-2.069121922895473,0.13777982091131286,2.1375994044973776,-1.2753924653550952,-0.0012409361402140385,0.0015657321454944292,-0.0006962116542765734,5.8499746952123957e-05,-0.0002597550194265959,0.00046627758291507696,-0.003417487355329555,0.2411382496356964,-21.84811782836914,-2.35798716545105,22.61603546142578,0.6673074960708618,2.2551772594451904,-0.0072769103571772575,0,0,0,0.000,0,0
1739402474.4660704,0.5256944447756288,0.09603578047484802,-0.9533281883063073,-2.069119697449613,0.13777881143385656,2.1375970232799877,-1.2753836486101628,0.0004860528999094981,0.0001089585211084327,-0.0001683941348588644,3.645350747270913e-05,0.0003151011550382176,-0.001142011597104033,0.0005427828443061503,0.2173345386981964,-21.79654312133789,-2.38179087638855,22.61603546142578,0.6608988046646118,2.2753188610076904,-0.05396880581974983,0,0,0,0.000,0,0
1739402474.4780622,0.525695613708464,0.09603754010812258,-0.9533260778049358,-2.0691215904421187,0.13777729746963652,2.1375994088580272,-1.2753821332346167,-0.0007401139771664473,-0.0002545858052889403,-0.00016471222110328414,-0.0013038676459959462,8.019715173644432e-05,0.00032645549647201835,0.00022232317642062222,0.2173345386981964,-21.82431411743164,-2.38179087638855,22.63983917236328,0.6737161874771118,2.2551772594451904,-0.06678618490695953,0,0,0,0.000,0,0
1739402474.4889572,0.5256956032269323,0.09603398926559041,-0.9533282149013831,-2.069121233970793,0.13777881140393206,2.137597890630778,-1.2753878711177975,-0.0002719896222806973,-0.0006343787286581305,-0.00012831938658800217,-0.00031174753692837646,0.0005209482207166189,-0.0001437157170546464,-0.001646413741740741,0.2173345386981964,-21.77273941040039,-2.38179087638855,22.63983917236328,0.6608988046646118,2.2679946422576904,-0.05396880581974983,0,0,0,0.000,0,0
1739402474.4989831,0.5256936526146606,0.09603956983987971,-0.9533261611159288,-2.069115030160274,0.13777881140392945,2.137599404497401,-1.275382251043696,-0.001009522313646845,-0.00013865804853187313,0.0015316064149020518,0.002251235074669338,0.0005490304714891251,-0.00022227707865852221,-0.0001406235559225409,0.2411382496356964,-21.84811782836914,-2.4095618724823,22.59223175048828,0.6608988046646118,2.2551772594451904,-0.06678618490695953,0,0,0,0.000,0,0
1739402474.5111163,0.5256948260462536,0.09603406761284257,-0.9533330396270334,-2.0691183613892994,0.1377811862832338,2.13759788917722,-1.2753821390494826,0.0013055931416861418,-0.0009101736432846395,-0.0012300165584899659,0.0002889890277200084,-0.00022594249170056473,-0.000616742150737494,0.0015458545283536073,0.2411382496356964,-21.77273941040039,-2.35798716545105,22.56842803955078,0.6407572031021118,2.2679946422576904,-0.06678618490695953,0,0,0,0.000,0,0
1739402474.5220377,0.5256937841082002,0.09603207876607418,-0.9533299887578299,-2.0691183664595187,0.13777653912572707,2.1375970232799877,-1.275386791846297,-0.0014447406810116849,-0.000896002029202918,-0.00015027358136928705,0.00020687782149840712,-0.00034084541488211753,-0.0008288857542217791,-0.00014133131367176127,0.2411382496356964,-21.74496841430664,-2.35798716545105,22.56842803955078,0.6801248788833618,2.2753188610076904,-0.027418512850999832,0,0,0,0.000,0,0
1739402474.5320606,0.5256925941378652,0.0960320680417479,-0.9533282498129749,-2.0691163793446226,0.13777729608378464,2.1375993907613267,-1.275383645647307,-0.0013071368788858328,-0.00046910944053913235,0.001067795752193797,-0.0002727222776053741,-0.0004303204723008371,-0.00012177952847525835,0.0015498987069775055,0.2689092457294464,-21.74496841430664,-2.4095618724823,22.56842803955078,0.6737161874771118,2.2551772594451904,-0.05396880581974983,0,0,0,0.000,0,0
1739402474.5430079,0.5256956809170784,0.09603416584971743,-0.9533262134496189,-2.069116136619123,0.13777653842369442,2.1375982764483923,-1.275381267337368,0.0005210835230236308,5.645602788308915e-05,-5.000019144963449e-05,0.00024636371739423255,0.0001199504608749978,-0.000575247557032057,0.0017566523696281849,0.2173345386981964,-21.74496841430664,-2.4095618724823,22.56842803955078,0.6801248788833618,2.2615859508514404,-0.07411040365695953,0,0,0,0.000,0,0
1739402474.5540652,0.5256956029124177,0.09603406766031462,-0.9533320624374926,-2.0691196977511117,0.1377768927401939,2.1375978891751286,-1.2753867875933058,-3.0029205765035917e-05,0.0001679199858545743,-0.000986391939095176,0.00030447516735879844,-0.00041442338002265145,-0.0012165026585941128,-0.0007119689155258536,0.2173345386981964,-21.77273941040039,-2.3302161693573,22.61603546142578,0.6801248788833618,2.2679946422576904,-0.027418512850999832,0,0,0,0.000,0,0
1739402474.5649986,0.5256938987370471,0.09603947822439271,-0.9533281357534528,-2.069116132057888,0.13777877207679662,2.137599404551212,-1.2753891686493004,-0.00023346838508153022,0.002419442878445038,0.00042196171486849637,0.0010158906977463544,0.0008425775550755554,0.0008129597171780802,-0.00026180448772149343,0.2411382496356964,-21.84811782836914,-2.38179087638855,22.56842803955078,0.6608988046646118,2.2551772594451904,-0.0072769103571772575,0,0,0,0.000,0,0
1739402474.5759509,0.5256938900703009,0.09603564253016939,-0.9533278488713256,-2.0691179177873606,0.13777851300191402,2.137600468496157,-1.275388881852773,-0.0016960359362334296,0.000961159338982853,0.0004909293598189619,0.00023001522419277087,0.0004781790520646753,-6.685823686188177e-05,1.850893920154307e-05,0.2411382496356964,-21.82431411743164,-2.35798716545105,22.59223175048828,0.6673074960708618,2.2551772594451904,-0.0008682189509272575,0,0,0,0.000,0,0
1739402474.58596,0.5256959145955434,0.09603577163305517,-0.9533302945158422,-2.0691218097541904,0.1377787982479926,2.1376004643150304,-1.275388056061391,0.000846276312810493,-0.0005800640211810889,-0.00021542519092641557,-8.46728979964439e-05,0.00016466901069973238,0.0006396387912748637,-0.0010421847638098802,0.2173345386981964,-21.79654312133789,-2.38179087638855,22.63983917236328,0.6608988046646118,2.2551772594451904,-0.04756011441349983,0,0,0,0.000,0,0
1739402474.5970073,0.525693598184477,0.09603405621853343,-0.9533257801712833,-2.069121480094526,0.13777729169564515,2.1375970232979356,-1.27538725939646,-0.0011678013287852334,-0.0005661316960357293,0.0004018680171946719,-0.00014925276834701362,-0.0009894730217930039,-0.0004627801669519152,-0.0002396791058612941,0.2411382496356964,-21.77273941040039,-2.38179087638855,22.63983917236328,0.6737161874771118,2.2753188610076904,-0.05396880581974983,0,0,0,0.000,0,0
1739402474.6070597,0.5256939940701243,0.09603754108466048,-0.9533282153196501,-2.0691215991347085,0.13777881075384468,2.1375986468372985,-1.2753860698290258,-0.0009506988342366874,-3.450362326096949e-05,-0.0004061068328587724,-0.0004966426354264916,-0.0002172645198812544,-0.00022816928314185004,0.0006173581368164489,0.2411382496356964,-21.82431411743164,-2.38179087638855,22.63983917236328,0.6608988046646118,2.2615859508514404,-0.06037749722599983,0,0,0,0.000,0,0
1739402474.6180272,0.5256959993115445,0.09603550700818327,-0.9533303179927497,-2.0691215199222754,0.1377781713618023,2.1375986991651073,-1.275382133252562,-0.00019243960970664924,-0.0008050888084463275,-0.0006303575114439368,-0.0005958688920696489,-0.000923120758890767,-0.0007458478174757947,0.002320315928971976,0.2411382496356964,-21.79654312133789,-2.38179087638855,22.63983917236328,0.6673074960708618,2.2615859508514404,-0.06678618490695953,0,0,0,0.000,0,0
1739402474.628037,0.5256973181433632,0.09603783221515297,-0.9533278516307763,-2.069121481107103,0.13777881189195218,2.137600202195262,-1.2753829417685134,0.0007405199975755108,-0.0006501231087642173,-0.0012498872076548435,-5.5366334676803576e-05,0.0012640500871818553,0.0007840295266690665,0.0009840567053236592,0.1935308277606964,-21.79654312133789,-2.35798716545105,22.63983917236328,0.6608988046646118,2.2753188610076904,-0.06037749722599983,0,0,0,0.000,0,0
1739402474.6380491,0.5256955231181748,0.09603941195832329,-0.9533284131151467,-2.06912400451267,0.13777805374385937,2.1375986475371556,-1.2753876533298942,-0.00034701601406428523,0.0013493515825345726,-0.0010205138013343901,-0.0008304508206859731,0.00015263140967217506,-0.00044685322795727565,-0.0018782510729182323,0.2173345386981964,-21.84811782836914,-2.38179087638855,22.66364288330078,0.6673074960708618,2.2615859508514404,-0.020094294100999832,0,0,0,0.000,0,0
1739402474.6490247,0.5256941240732236,0.0960369090922203,-0.9533282266742239,-2.0691196974161112,0.13777729608377276,2.1375980463221556,-1.2753844076679615,0.0007549270005471528,0.0012329302121300877,-0.0005080074430771932,0.00019874328086285576,-0.0009955962176297762,0.0005867434177496533,-0.0009265115662046047,0.2411382496356964,-21.77273941040039,-2.38179087638855,22.61603546142578,0.6737161874771118,2.2679946422576904,-0.04756011441349983,0,0,0,0.000,0,0
1739402474.6599717,0.5256990276337665,0.09603269538243937,-0.953333013099661,-2.0691180063085706,0.13777881091638444,2.1375987645757553,-1.2753867874318083,0.0010890195580646846,-0.0007934628198081012,-0.0009493035866721903,0.0005306230173468123,0.0007338526596710856,5.4562511903993434e-05,0.0010339681795208983,0.1697271168231964,-21.79654312133789,-2.35798716545105,22.59223175048828,0.6608988046646118,2.2615859508514404,-0.027418512850999832,0,0,0,0.000,0,0
1739402474.6700468,0.525691892129399,0.09603570498154324,-0.9533299975244753,-2.069121480090494,0.13777805374384283,2.1375979022611657,-1.275390792997564,-0.0012947615276974753,-0.0007123109599242135,-0.0007447722421580749,-1.9699455993635404e-05,-0.00034666160058619726,0.00037754536340935547,-2.785790396821826e-05,0.2689092457294464,-21.79654312133789,-2.35798716545105,22.63983917236328,0.6673074960708618,2.2679946422576904,-0.020094294100999832,0,0,0,0.000,0,0
1739402474.6809578,0.5256918908212037,0.09603949968881723,-0.9533261351512144,-2.069116463079729,0.13777409291326498,2.137598646837372,-1.2753879793563565,-0.0012733334392184994,0.0018968674953688384,-5.458671210474862e-05,2.722527292833653e-05,-0.0005807215951877353,-0.0009092736405584699,0.00042611235115797203,0.2689092457294464,-21.84811782836914,-2.4095618724823,22.56842803955078,0.6737161874771118,2.2615859508514404,-0.013685601763427258,0,0,0,0.000,0,0
1739402474.6909888,0.5256956285913411,0.09603577752899924,-0.9533261351155495,-2.0691180276383676,0.13777637022715886,2.1375994044973767,-1.275389926302068,-0.00044538058895385183,-0.00031892331583750733,0.00026408381338917847,0.0008927266829475219,-0.001650072172342126,-0.0002783137189207585,-0.0017251437241395935,0.2173345386981964,-21.79654312133789,-2.4095618724823,22.56842803955078,0.6544901132583618,2.2551772594451904,-0.0008682189509272575,0,0,0,0.000,0,0
1739402474.7019954,0.5256884699770145,0.09603554314385702,-0.9533282235721978,-2.0691220325510953,0.13777806684862687,2.137600464135506,-1.275388961276003,-0.0008511207873497294,0.0006737494044956095,-0.000811961800822418,-0.0012119244352631663,7.745305561659757e-05,0.00024406793162333834,-0.0007790956665614789,0.3165166676044464,-21.79654312133789,-2.38179087638855,22.61603546142578,0.6673074960708618,2.2551772594451904,-0.04023589566349983,0,0,0,0.000,0,0
1739402474.7130399,0.5256938900702682,0.0960357776718567,-0.9533284489088736,-2.0691140522812126,0.13777559026840058,2.1376018301183186,-1.2753863679318254,-0.00012107704803875079,-0.0006046075190762697,9.592852640483116e-05,0.0018019045355651764,-0.0015691719388778586,0.0018112150815213148,0.0007003363985737149,0.2411382496356964,-21.79654312133789,-2.38179087638855,22.54065704345703,0.6801248788833618,2.2615859508514404,-0.06678618490695953,0,0,0,0.000,0,0
1739402474.7240152,0.525693968071392,0.09603491082626257,-0.9533261351168699,-2.0691161321709397,0.13777881188460794,2.1375978892490246,-1.2753867875095404,-0.0006363594608521269,0.00036988674066660806,-0.00014387891451934183,2.3665181905230975e-05,-0.0001196176524704959,-0.0003329096193422763,0.0003668218512298882,0.2411382496356964,-21.74496841430664,-2.4095618724823,22.56842803955078,0.6608988046646118,2.2679946422576904,-0.027418512850999832,0,0,0,0.000,0,0
1739402474.7349432,0.525697332282217,0.09603577168526288,-0.9533303209361865,-2.0691197248840245,0.1377787381313727,2.137598777656821,-1.2753797182785847,0.0008490035426342913,-0.0005480498557405825,-0.0012197521535659522,-0.000610215171302151,0.0009473617971553219,0.0002789673829768318,0.003089793542290471,0.1935308277606964,-21.79654312133789,-2.38179087638855,22.61603546142578,0.6608988046646118,2.2615859508514404,-0.06037749722599983,0,0,0,0.000,0,0
1739402474.745046,0.5256973969650535,0.09603949968909471,-0.9533261611515947,-2.0691197340418555,0.13777881140268855,2.137598647485536,-1.2753916295802539,0.001539313720732999,0.0010394144155305872,0.0006212691052214212,0.00027895683023606687,-7.797004792395648e-05,-0.001073943801094815,-0.002430283329577788,0.1935308277606964,-21.84811782836914,-2.4095618724823,22.61603546142578,0.6608988046646118,2.2615859508514404,-0.013685601763427258,0,0,0,0.000,0,0
1739402474.7560768,0.5256959961024202,0.0960378047066528,-0.9533282145787966,-2.0691224782425173,0.13777814738285088,2.137598646837309,-1.2753828967629626,-0.0006903137215496701,-0.0008146411178792353,-0.001627528816520543,0.0004062316066563152,-0.0015899021688829883,-3.520246986464786e-05,0.0013584984356283308,0.2411382496356964,-21.82431411743164,-2.38179087638855,22.63983917236328,0.6544901132583618,2.2615859508514404,-0.06037749722599983,0,0,0,0.000,0,0
1739402474.7670288,0.5256938826427896,0.09603946451591525,-0.9533250544487888,-2.0691207688294453,0.13777805373582566,2.1375986468372985,-1.2753899264709165,-0.00135388929278342,0.0006017586623459989,-6.802156797784524e-05,-0.0007754982588793891,2.1089934171188038e-05,-0.0009975033612137415,-0.0011110644795920034,0.2411382496356964,-21.84811782836914,-2.4333655834198,22.61603546142578,0.6673074960708618,2.2615859508514404,-0.0008682189509272575,0,0,0,0.000,0,0
