IITGN-Robotics/Franka_IITGN_ROBOTICS/franka_ros/franka_iitgn/data/b_50.csv
time,fr3_joint1_pos,fr3_joint2_pos,fr3_joint3_pos,fr3_joint4_pos,fr3_joint5_pos,fr3_joint6_pos,fr3_joint7_pos,fr3_joint1_vel,fr3_joint2_vel,fr3_joint3_vel,fr3_joint4_vel,fr3_joint5_vel,fr3_joint6_vel,fr3_joint7_vel,fr3_joint1_eff,fr3_joint2_eff,fr3_joint3_eff,fr3_joint4_eff,fr3_joint5_eff,fr3_joint6_eff,fr3_joint7_eff,flexpin1,flexpin2,flexpin3,Force,ContactMic,ContactMic_gt
1739402497.4926295,0.525711576635791,0.09589192209855411,-0.953332041573946,-2.069113451011599,0.13776437839719355,2.137576781148763,-1.2753774176813455,0.0012453777653808023,0.0024763272512853497,-0.0012429197004132767,0.00033010328468307745,0.00019161175804563522,0.00035833984343636665,0.0010763062570556645,0.2173345386981964,-21.59421157836914,-2.3302161693573,22.49304962158203,0.6608988046646118,2.2423598766326904,-0.06678618490695953,,,,,,,,,
1739402497.502697,0.5257067084392983,0.09590987410556921,-0.9533296833732052,-2.0691171337028855,0.13776460456977307,2.1375800729665744,-1.2753810506963519,-0.00011635799943965266,0.0013332836295580077,0.0010631169643935791,-0.001619633631503968,-0.001627781867335752,0.0004332941941288771,0.0008868753368665558,0.2411382496356964,-21.61801528930664,-2.3302161693573,22.54065704345703,0.6865335702896118,2.2551772594451904,-0.04756011441349983,,,,,,,,,
1739402497.5136843,0.5257062688789778,0.09593819694004815,-0.9533299972418605,-2.0691201586813297,0.1377635763032375,2.13757968814499,-1.2753844403225034,0.000672856501867421,0.0021284717527623805,0.0003345687451654398,0.00032018390507823174,-0.0007439516903987961,0.000246668453529086,-0.00044013395193554037,0.2173345386981964,-21.74496841430664,-2.35798716545105,22.56842803955078,0.6801248788833618,2.2615859508514404,-0.03382720425724983,,,,,,,,,
1739402497.5246906,0.5256998558714413,0.09596102032663345,-0.953329970110322,-2.0691261333002364,0.13776779918118665,2.137579107012618,-1.275385275747146,-0.0014551885753682245,0.0015141544242152365,0.001299255720203495,-0.00016005754569697162,0.00033748123796435947,-0.0007392672760845089,-0.0009950779082290406,0.2927129566669464,-21.82431411743164,-2.35798716545105,22.61603546142578,0.6737161874771118,2.2679946422576904,-0.0008682189509272575,,,,,,,,,
1739402497.5347729,0.5257035751577545,0.09598774634019305,-0.9533260691016987,-2.0691327868941864,0.13776836381177548,2.137581722008821,-1.275379761395265,0.00026464457603142424,0.0006111223994139678,0.001537741234464751,-7.848103880266435e-05,0.00019655280342680123,0.00015891688241617975,0.001148085036562097,0.2411382496356964,-21.89969253540039,-2.38179087638855,22.66364288330078,0.6801248788833618,2.2817275524139404,-0.04756011441349983,,,,,,,,,
1739402497.54666,0.5257063502759339,0.09601422201238081,-0.9533211617382717,-2.069140688861851,0.13776845935424792,2.137583345643894,-1.275387294367236,-0.00016447276293481773,0.0002972297264750726,0.000813014955072014,-0.0005120140787087312,-0.000249298983886696,0.0005532534768442326,-0.0004901074018718004,0.2411382496356964,-21.95126724243164,-2.4333655834198,22.73902130126953,0.6673074960708618,2.2679946422576904,-0.013685601763427258,,,,,,,,,
1739402497.5566988,0.5257097725309722,0.09603278418408452,-0.9533193247292293,-2.0691435285421593,0.13776726822832724,2.1375821930368635,-1.2753789194904501,0.0009819257420198002,0.0017322670339631906,0.0008080419537298236,-0.0010902736806053547,0.0006906013008441684,0.0006025705514298995,0.001985109990408744,0.1935308277606964,-22.02664566040039,-2.4571692943573,22.76282501220703,0.6865335702896118,2.2817275524139404,-0.05396880581974983,,,,,,,,,
1739402497.5676897,0.5257059142120258,0.0960465118128601,-0.9533193478401552,-2.0691389837129686,0.13776863340181883,2.1375824797475484,-1.2753847596441594,0.00017546789166775293,0.001330148648012861,-0.001193869913967526,0.0001751038298256654,0.0007162334851818697,6.0340416265575566e-05,-0.0016289786308076142,0.2173345386981964,-22.05441665649414,-2.4571692943573,22.69141387939453,0.6673074960708618,2.2753188610076904,-0.013685601763427258,,,,,,,,,
1739402497.5786216,0.5257107700866284,0.09605022392527161,-0.9533196992855774,-2.06914241005343,0.13776806733267627,2.137581722086584,-1.2753839963337825,0.001420548989458889,0.0015755782498165793,-0.0010194425695505902,-0.00042339122923645074,-0.0008182975146194429,-0.0004897296754091745,0.00024350561716512302,0.1697271168231964,-22.00284194946289,-2.4095618724823,22.71521759033203,0.6801248788833618,2.2817275524139404,-0.013685601763427258,,,,,,,,,
1739402497.5886953,0.5257087038286165,0.09604491390031378,-0.9533189832353033,-2.0691374171773744,0.13776745562961487,2.1375833456438946,-1.2753788801847474,0.0003812742390940688,-0.000432525598154101,-0.00034576244869151515,-9.980320418256938e-05,0.00048445952638194825,6.787106965330477e-05,0.0014849564021591146,0.1697271168231964,-21.92349624633789,-2.4571692943573,22.63983917236328,0.6801248788833618,2.2679946422576904,-0.05396880581974983,,,,,,,,,
1739402497.5987077,0.5257051989401443,0.09604494020955089,-0.9533179164933675,-2.0691356713511193,0.13777162154128483,2.1375809644265056,-1.2753875946217532,5.068756262610426e-05,8.188117655510182e-05,-0.0013386819843137709,-0.0003839724967857247,0.0016005368885113824,-0.0004900570114773912,-0.0008449450147346919,0.2173345386981964,-21.92349624633789,-2.4333655834198,22.61603546142578,0.6801248788833618,2.2881362438201904,-0.020094294100999832,,,,,,,,,
1739402497.6107013,0.5257069114595233,0.09603578045881146,-0.9533196977069234,-2.069135645806945,0.13776848290694788,2.1375841163859253,-1.2753869395115238,0.0002493382228608166,-0.0012529847748624272,-0.0002231003332140918,-0.0015095385774293734,-0.0005734240616082874,9.600411038438196e-05,-0.0007902392540662295,0.1935308277606964,-21.79654312133789,-2.4095618724823,22.61603546142578,0.6801248788833618,2.2615859508514404,-0.013685601763427258,,,,,,,,,
1739402497.621709,0.5257069115685395,0.09602993416397426,-0.9533224756894432,-2.0691240885466136,0.13777717250309693,2.1375875841964858,-1.2753757544601223,0.00030360324615755934,0.00023233303873679831,-0.0006195014346618589,0.0019898679693360144,0.002357450202163547,-0.0004501360015757013,0.0033116077794891983,0.1935308277606964,-21.74496841430664,-2.38179087638855,22.49304962158203,0.6608988046646118,2.2679946422576904,-0.08051909506320953,,,,,,,,,
1739402497.6336763,0.5257071498781026,0.09602251178996597,-0.9533235956033723,-2.069129682398378,0.13776956067975563,2.137588395037192,-1.2753845243140298,0.0006521755112751061,0.0005821662175478431,0.0006360874320792707,-0.00010330606765458859,7.383047252807265e-05,-0.0006149924180421436,-0.0014366011242440855,0.1935308277606964,-21.64181900024414,-2.35798716545105,22.54065704345703,0.6865335702896118,2.2551772594451904,-0.0072769103571772575,,,,,,,,,
1739402497.6456199,0.5256988222826088,0.09601931449638008,-0.953327869562416,-2.069123391138086,0.1377695211980493,2.1375888169976176,-1.2753806752970358,-0.0019746657168826258,-0.00040145105217576186,0.0006729501832533984,0.0010035559422955755,-0.0015503248159513465,0.0020073518912358543,0.0004733865726115887,0.2927129566669464,-21.64181900024414,-2.3302161693573,22.49304962158203,0.6865335702896118,2.2487685680389404,-0.06678618490695953,,,,,,,,,
1739402497.6557357,0.5257014531505534,0.0960185807803146,-0.9533306678838497,-2.069126882118343,0.1377711829450973,2.137589153962005,-1.2753862569481396,0.0007917363752150683,0.0008769186448517579,-0.00036925821645361997,0.0004011478488788763,-0.0014811245293155089,0.001250662177296464,-0.0014805045343494912,0.2689092457294464,-21.64181900024414,-2.3064124584198,22.51685333251953,0.6938577890396118,2.2551772594451904,-0.0008682189509272575,,,,,,,,,
1739402497.6677365,0.5257027623318064,0.09602120710173244,-0.953327839551031,-2.069125154944215,0.1377754055496026,2.1375887140434227,-1.2753872469768466,0.0008896912853091783,5.2156644794022354e-05,0.001261759860941728,0.0007401680505757574,0.000506701920249907,-0.00031982640899006436,-0.0019377232236542307,0.2411382496356964,-21.64181900024414,-2.35798716545105,22.51685333251953,0.6865335702896118,2.2615859508514404,0.0064559997990727425,,,,,,,,,
1739402497.6786897,0.5256986155216712,0.0960259456901226,-0.9533299972513141,-2.0691308658676175,0.13777478893759013,2.137587759115634,-1.2753882523122873,-0.0011700872620500431,0.00045391764493937976,-0.00011935661333430006,-0.0004080258668627337,0.001130285630954376,0.00025335526017568615,-0.0009434557983486015,0.2689092457294464,-21.74496841430664,-2.35798716545105,22.59223175048828,0.6544901132583618,2.2679946422576904,-0.013685601763427258,,,,,,,,,
1739402497.6887069,0.5256995365080973,0.09603457427562183,-0.9533252612186215,-2.0691325723314273,0.13777100014163648,2.137588871669545,-1.2753867820576887,-0.00022801729592618754,0.0009712477381599565,0.0008758546690089098,4.607523320712307e-05,0.0001684492722148838,0.001010859323583269,-0.002077347387922584,0.2927129566669464,-21.82431411743164,-2.38179087638855,22.61603546142578,0.6865335702896118,2.2615859508514404,0.012864691205322742,,,,,,,,,
1739402497.6996691,0.5257042182997669,0.09603799969131961,-0.9533239005924209,-2.069141307729925,0.13777098258981071,2.1375879962779067,-1.2753883432047397,0.0005392130055588538,0.00012273989609953544,0.0007803159363067284,-0.0019168113281616463,0.0001651115004502715,0.0001694125669178631,-0.002375011112261527,0.2173345386981964,-21.87192153930664,-2.4095618724823,22.69141387939453,0.6865335702896118,2.2679946422576904,-0.0008682189509272575,,,,,,,,,
1739402497.7106533,0.5257002769625104,0.0960476618125752,-0.9533211465592817,-2.069137170096345,0.13777395306911372,2.1375840692018624,-1.2753789984587802,-0.0015755465701198395,0.0008673785154374617,-0.0001334728985936441,0.00042369065258075723,0.0018330259996622127,-0.0007008189422753818,-0.0005921499690894225,0.2411382496356964,-21.97507095336914,-2.4333655834198,22.66364288330078,0.6737161874771118,2.2753188610076904,-0.05396880581974983,,,,,,,,,
1739402497.7206628,0.5257048501776318,0.09604691180181156,-0.9533200918102902,-2.069139235539352,0.13777325557816109,2.1375872461622323,-1.275383959670102,-0.0003569416612887661,0.0007847751595311111,0.0014858343839239936,0.0015051833404125027,-0.00019922646758689828,-6.503486307294105e-05,0.0009065503605376816,0.2173345386981964,-21.95126724243164,-2.4333655834198,22.66364288330078,0.6673074960708618,2.2753188610076904,-0.020094294100999832,,,,,,,,,
1739402497.7307205,0.5257065934531618,0.09605164404559122,-0.9533179241130904,-2.0691410076484913,0.1377744871237441,2.137587248118211,-1.275385972229756,0.000878109242657397,0.00026494127398043544,2.0418045278706152e-05,0.00035919069831025165,-0.0003741156694749934,-0.0001878981924767808,-0.00038641696943550127,0.1935308277606964,-22.00284194946289,-2.4333655834198,22.69141387939453,0.6608988046646118,2.2753188610076904,-0.0072769103571772575,,,,,,,,,
1739402497.7417252,0.5257049507069537,0.09604939643416302,-0.9533161334410721,-2.069139236809018,0.13777285187019775,2.137587235036292,-1.2753796916170386,0.0001717880394310785,0.00017769404951365034,0.0009739614201153435,0.00023628346229634698,0.000704309676401491,-0.00040101366981770237,1.282789745208192e-05,0.2173345386981964,-21.95126724243164,-2.4571692943573,22.66364288330078,0.6737161874771118,2.2753188610076904,-0.07411040365695953,,,,,,,,,
1739402497.7517273,0.5257044836704433,0.09604639764474901,-0.9533210755935578,-2.069139236810762,0.13777174465567782,2.1375872481175797,-1.2753784440440374,0.00016907552138153146,0.0001332371945016527,-0.0012899192358872026,-0.0009547589790812016,-0.001197939353854233,0.0002490352756534985,0.00185158248575815,0.2173345386981964,-21.89969253540039,-2.38179087638855,22.66364288330078,0.6801248788833618,2.2753188610076904,-0.06678618490695953,,,,,,,,,
1739402497.7626898,0.5257051989374462,0.09604260828632957,-0.9533217776024477,-2.0691338886397337,0.13776686942624508,2.1375881140154767,-1.2753825315209444,0.00084304909142493,-2.9804819018481244e-05,-0.0005668471318082521,0.0003732226345608951,-0.003473586069877047,0.0006143028476739442,-0.0004400365277266278,0.2173345386981964,-21.84811782836914,-2.38179087638855,22.59223175048828,0.6938577890396118,2.2679946422576904,-0.05396880581974983,,,,,,,,,
1739402497.77364,0.5257006250680628,0.09603433138627622,-0.9533220277961048,-2.069132927420343,0.13777688135426608,2.1375871303806746,-1.2753774232409971,-0.000670044370590932,-0.0003205862678923541,-0.00045978490217142744,0.0005003576258908503,0.0012149046407933424,-0.0013015484577250343,0.001622375758929596,0.2411382496356964,-21.77273941040039,-2.38179087638855,22.61603546142578,0.6737161874771118,2.2753188610076904,-0.06678618490695953,,,,,,,,,
1739402497.7836843,0.5257014883197343,0.09603152839532206,-0.9533258798016547,-2.069130000756553,0.13777174178665894,2.1375881140134827,-1.2753824967408682,0.001279147255130105,0.0022510867263845977,0.00019450698832536209,0.000377230289799144,0.0006353924878894181,-0.0005872159513172327,0.00022338155677044467,0.2689092457294464,-21.69339370727539,-2.3302161693573,22.54065704345703,0.6801248788833618,2.2679946422576904,-0.06037749722599983,,,,,,,,,
1739402497.793708,0.5257033790370337,0.09602379929095559,-0.9533306029743055,-2.0691282691451853,0.13777413170348077,2.1375896293356336,-1.275383238000466,-0.00046392699858682936,-0.00144885487574081,-0.0011882205451211793,0.0003598517257861496,0.00035970800681125266,0.00039690306332404294,-0.00024057785704009702,0.2411382496356964,-21.66958999633789,-2.3064124584198,22.51685333251953,0.6608988046646118,2.2551772594451904,-0.05396880581974983,,,,,,,,,
1739402497.803732,0.5257051713558576,0.09602180124821116,-0.9533308797073924,-2.0691282322985516,0.13777600675790186,2.1375888716755553,-1.2753814186188719,0.00018746870453714313,-0.00043584124516542287,-0.00038639316423409536,-0.000324284545817642,0.0003213268872598907,0.0003560627867155761,0.0008643167822654442,0.2173345386981964,-21.64181900024414,-2.3064124584198,22.51685333251953,0.6801248788833618,2.2615859508514404,-0.03382720425724983,,,,,,,,,
1739402497.8146808,0.5257051871645679,0.09602153626297136,-0.9533317187672998,-2.069128243215705,0.13777365055363283,2.1375888716755553,-1.2753859725206553,0.0002791017321747116,-0.0005338300028599971,-0.0012503205943071888,-0.00030181670865284604,-0.0006807286738654009,0.00039500750760587845,-0.000675145878148066,0.2173345386981964,-21.64181900024414,-2.3302161693573,22.51685333251953,0.6673074960708618,2.2615859508514404,-0.03382720425724983,,,,,,,,,
1739402497.8247442,0.5257041653191457,0.09602610537104336,-0.9533268548230736,-2.0691260667989604,0.1377732957133796,2.137588877489756,-1.2753836030094352,0.0012164900886017897,0.0016331773617798504,0.0008870909806967126,0.001305814686341675,0.0005914994734508353,-0.0004108311505527937,-0.00027247953932770213,0.2173345386981964,-21.69339370727539,-2.35798716545105,22.51685333251953,0.6673074960708618,2.2615859508514404,-0.05396880581974983,,,,,,,,,
1739402497.8356183,0.5257044836772199,0.09602714496305519,-0.9533288587218897,-2.0691338534596047,0.13777251546171415,2.137588871675588,-1.2753828126385678,0.0015694092186986038,-0.0005677532917662556,-0.0005592981685613642,-0.0012163599130226648,-0.00018655888216323902,-0.0004592425843232521,0.0014511784248005407,0.2173345386981964,-21.72116470336914,-2.3302161693573,22.59223175048828,0.6737161874771118,2.2615859508514404,-0.04756011441349983,,,,,,,,,
1739402497.845691,0.5257030147857406,0.09603257963867008,-0.9533253141460254,-2.069135643111896,0.13777250229807037,2.1375881140154767,-1.2753876315736798,0.0007659306908828534,-0.00024035885662603617,2.4004564623025793e-05,-0.00039107507743959223,9.485568609672471e-05,0.0004058182948856569,-0.0018240092945135213,0.2173345386981964,-21.79654312133789,-2.38179087638855,22.61603546142578,0.6737161874771118,2.2679946422576904,-0.0072769103571772575,,,,,,,,,
1739402497.8566282,0.525706801558795,0.09604108579637483,-0.9533240421459996,-2.069133987564435,0.1377724979098931,2.1375872481182445,-1.2753892048672295,0.0018787363565213307,0.000495508706319875,-0.00025901606873673195,0.001224895009229595,-0.0006394104829082845,-0.0011255621649754006,-0.0017100779195273936,0.1935308277606964,-21.87192153930664,-2.38179087638855,22.59223175048828,0.6737161874771118,2.2753188610076904,0.0064559997990727425,,,,,,,,,
1739402497.8667016,0.5257025317607368,0.09604774626586797,-0.9533203096085646,-2.0691392358676275,0.13777920706186136,2.1375906232619157,-1.2753852168664264,-0.0013276143918946126,0.0014516661436644292,-0.0005003864185422436,0.00013368715856037748,0.0012650792602693587,0.00041250433032300854,-0.0011284260847437167,0.2411382496356964,-21.92349624633789,-2.4333655834198,22.66364288330078,0.6544901132583618,2.2753188610076904,-0.013685601763427258,,,,,,,,,
1739402497.8777251,0.5257049487302887,0.09604725388222968,-0.9533169235449834,-2.069139749071533,0.13777266911328268,2.1375893833824002,-1.2753826742776389,0.0008523667216280568,0.0014495691645336126,0.0007480105181656726,0.0008989591136251112,-0.00038340836365829257,0.0007479496837688042,-0.00016793201354947402,0.2173345386981964,-21.95126724243164,-2.48494029045105,22.63983917236328,0.6737161874771118,2.2615859508514404,-0.03382720425724983,,,,,,,,,
1739402497.888729,0.5257037060537112,0.09604999089239545,-0.9533179413122571,-2.0691392368150807,0.13777604485695485,2.1375881140164394,-1.2753801268843927,-0.0012581006572883271,-0.0003554284362328414,-0.0006873744958002268,-0.00011809818476300572,0.0009876642707548995,0.0002707603597666065,0.0006356293876622628,0.1935308277606964,-21.95126724243164,-2.4333655834198,22.66364288330078,0.6801248788833618,2.2679946422576904,-0.04756011441349983,,,,,,,,,
1739402497.8997374,0.5257034470450933,0.0960501081418299,-0.9533206514883773,-2.0691374544486787,0.1377779887112601,2.1375881140154767,-1.275380450019777,-0.0004229554339251283,0.001705657453598281,-0.000722087770038125,0.001204811834615501,0.0004726549834986626,-0.0003352837425339458,-6.372430478910089e-05,0.2411382496356964,-21.95126724243164,-2.4095618724823,22.63983917236328,0.6544901132583618,2.2679946422576904,-0.05396880581974983,,,,,,,,,
1739402497.910666,0.5257002708376456,0.09604639768090753,-0.9533211051423003,-2.069137454238723,0.13777717887773414,2.137588585127262,-1.27538805129814,-0.000810867654642979,-2.8152011473457747e-06,-0.000583885132019968,3.3168690698553356e-05,-0.00023590682605860653,0.0005333654207421659,-0.0017251971494840314,0.2411382496356964,-21.89969253540039,-2.38179087638855,22.63983917236328,0.6608988046646118,2.2679946422576904,0.019273381680250168,,,,,,,,,
1739402497.9206998,0.5257002972016874,0.096040965929596,-0.9533224928481179,-2.0691336051623734,0.13777059697789343,2.1375916199746987,-1.27538567329421,-0.0006828584595946096,-0.0002421847129461131,-0.00036150279188981407,0.000766580271033852,-0.00021487275675290541,0.0014006115616888406,-0.0010298675979813524,0.2411382496356964,-21.82431411743164,-2.38179087638855,22.61603546142578,0.6938577890396118,2.2423598766326904,-0.027418512850999832,,,,,,,,,
1739402497.9316156,0.5257042359437508,0.09603512460191152,-0.953324279567506,-2.0691345784776325,0.137773613105642,2.13758811401816,-1.2753871812255884,0.0007381619183934502,-0.00023845899358643403,-0.0008906348543529409,-0.0007588419173438375,0.00034825747682551514,-0.0004918886073054095,-0.00028051495999901273,0.2173345386981964,-21.77273941040039,-2.38179087638855,22.59223175048828,0.6673074960708618,2.2679946422576904,-0.013685601763427258,,,,,,,,,
1739402497.9416926,0.5256991003505228,0.0960283609607589,-0.9533265390836779,-2.069132105169558,0.13777676880993356,2.1375888723215777,-1.2753810671154377,-0.0014801465041123236,-0.0018058124371839943,-0.0010656260421258367,-0.000363340628800878,-0.0012202349284946164,-0.0003090138749969095,-0.0002546695002390593,0.2689092457294464,-21.69339370727539,-2.35798716545105,22.56842803955078,0.6737161874771118,2.2615859508514404,-0.06678618490695953,,,,,,,,,
1739402497.9527233,0.5257041613811454,0.09602906967950399,-0.9533306413971263,-2.069129796724564,0.13777250253856915,2.137589629335637,-1.2753839948536734,-5.000414975835565e-05,0.0007233193059222359,-0.0015673885803509826,0.0006186855021875674,-0.0014367348857555803,-0.0002074348372206286,-0.000436407580970239,0.2173345386981964,-21.69339370727539,-2.3064124584198,22.54065704345703,0.6737161874771118,2.2551772594451904,-0.04756011441349983,,,,,,,,,
1739402497.9636617,0.5257022453551738,0.09602640970398267,-0.9533288587214612,-2.069132792288448,0.13777265733710237,2.137589342625835,-1.2753828321039002,0.00022031506838065558,0.00027119907226850413,-0.0001326946725697594,-0.001040043532992594,0.001078807213162795,-0.00042392439548473356,0.0013777773821934953,0.2173345386981964,-21.66958999633789,-2.3302161693573,22.54065704345703,0.6737161874771118,2.2615859508514404,-0.06037749722599983,,,,,,,,,
1739402497.974629,0.5257041301266231,0.09603025189325659,-0.9533288590485101,-2.0691340873799624,0.1377724571433128,2.1375928088987024,-1.275378253530286,0.0011002702584057794,0.0002796269420661901,-0.000662831822253531,-0.0008992765798727014,-0.0008443260151630675,0.0002841131023167439,0.0017743531779335668,0.2173345386981964,-21.72116470336914,-2.3302161693573,22.56842803955078,0.6865335702896118,2.2551772594451904,-0.06037749722599983,,,,,,,,,
1739402497.9856253,0.5257013287257034,0.09603174055537589,-0.9533267524406543,-2.0691314172441073,0.13777437909858734,2.13759280826797,-1.2753852546428626,7.234362958462672e-05,-0.00013528470732344488,0.0002006001004725191,-6.435327339343968e-05,0.0002545759670841918,0.00027560973005047353,-0.0011513685308597466,0.2411382496356964,-21.74496841430664,-2.35798716545105,22.56842803955078,0.6673074960708618,2.2551772594451904,-0.04023589566349983,,,,,,,,,
1739402497.9956355,0.5257003045236929,0.09603135500880766,-0.9533211337872634,-2.069132103256597,0.13777376897383592,2.1375896293894687,-1.2753784247431263,-0.0009933684482940522,-0.00017676187446718993,0.0007711563693027988,0.0004333519740960834,0.00037831753202058604,0.00015416530643271714,0.0019592615483055315,0.2411382496356964,-21.74496841430664,-2.4333655834198,22.56842803955078,0.6673074960708618,2.2551772594451904,-0.06678618490695953,,,,,,,,,
1739402498.0057404,0.525703449734709,0.09603406792582336,-0.9533207677540799,-2.0691321061026375,0.13777361683428818,2.1375872526404014,-1.2753823210562183,-0.00038839079844160543,0.0001233904364318133,0.00028609768207364303,0.0006841286104565586,-0.00033686072736388063,-0.0013249147223725222,0.0015602991298608688,0.2411382496356964,-21.77273941040039,-2.4095618724823,22.56842803955078,0.6737161874771118,2.2753188610076904,-0.03382720425724983,,,,,,,,,
1739402498.0166976,0.5257040411336454,0.09603914719170036,-0.9533242809867197,-2.0691346962401838,0.1377733352324172,2.137592063671921,-1.2753853593785005,0.0002513787308925338,-0.00159761263942361,-0.000265650428510397,-0.00027478936344236464,-0.00017137687232590524,0.0005541343960584228,-0.0005537081053678039,0.1935308277606964,-21.84811782836914,-2.38179087638855,22.63983917236328,0.6801248788833618,2.2615859508514404,-0.027418512850999832,,,,,,,,,
1739402498.0277238,0.5257044452567864,0.09604556640380177,-0.9533201004911431,-2.0691367653533903,0.13777729606569064,2.1375906894762986,-1.275385855337631,2.1624565678794044e-05,0.000825145786314533,0.001052333747133182,0.0009116575861088979,0.0004886825462006994,-0.00028002097404232577,-0.0019638183643933688,0.2173345386981964,-21.89969253540039,-2.4333655834198,22.63983917236328,0.6737161874771118,2.2551772594451904,-0.03382720425724983,,,,,,,,,
1739402498.0387113,0.5257051194616779,0.09604803084294446,-0.9533228889867984,-2.0691428951952937,0.13777578027607099,2.1375889123809464,-1.2753823729987186,0.000114492669120538,0.0006478270753789324,9.878464442153975e-05,-0.0007674401243121493,-0.000211851497764917,-0.0005221367304920851,0.0010742335916836682,0.2173345386981964,-21.92349624633789,-2.4095618724823,22.71521759033203,0.6865335702896118,2.2615859508514404,-0.027418512850999832,,,,,,,,,
1739402498.0497046,0.525703376165826,0.09604810615951352,-0.9533211295359225,-2.06913923680961,0.13777578060109832,2.1375910422405378,-1.2753790560643286,0.0008129203274064328,0.00026667208852916303,0.00012106068111538153,0.00024734311844832,-0.00017557722592463783,0.000616084899077828,-6.55199103360601e-05,0.2411382496356964,-21.92349624633789,-2.4333655834198,22.66364288330078,0.6865335702896118,2.2551772594451904,-0.05396880581974983,,,,,,,,,
1739402498.0606256,0.5256993031364682,0.09604710620562451,-0.9533221221133223,-2.069139262320569,0.13777725659262857,2.1375896293436094,-1.2753842124475894,-0.001670169671910561,0.0008783309385647913,-0.0003128236007115447,-0.0006317127024044003,0.0003991752377702903,-0.000254555673866956,-0.0009882393168989232,0.2689092457294464,-21.89969253540039,-2.38179087638855,22.66364288330078,0.6737161874771118,2.2551772594451904,-0.04023589566349983,,,,,,,,,
1739402498.0706766,0.5257023377698177,0.0960443997520534,-0.9533246782054576,-2.0691360554689804,0.13777880261382403,2.1375885849657563,-1.275380457170046,0.0007791919151236642,9.622095603111685e-05,-0.000317618365700283,0.0008316580765317968,8.634290721745794e-05,0.00014976550106805773,0.0006287975300305846,0.2173345386981964,-21.87192153930664,-2.38179087638855,22.61603546142578,0.6608988046646118,2.2679946422576904,-0.08051909506320953,,,,,,,,,
1739402498.0806854,0.5256998805475114,0.09604065901473294,-0.9533249667057917,-2.0691321147174366,0.13777651892174642,2.1375904314012586,-1.2753844220859465,-0.0004886074537365582,-0.0003893606920360953,8.69679500163401e-05,0.0007884983069137765,-0.0002939930421315765,-0.0004644900785821445,-0.0009486745784729328,0.2411382496356964,-21.82431411743164,-2.38179087638855,22.56842803955078,0.6801248788833618,2.2753188610076904,-0.020094294100999832,,,,,,,,,
1739402498.090693,0.5257041656215339,0.09603479137476334,-0.9533242530901842,-2.069133891614274,0.13777620539838836,2.1375881140693855,-1.275381609740301,0.0013292763439395083,-0.0008344415771164672,0.0016168290693580859,0.0004188658725752789,-0.0002694233458364099,0.00015932728942947042,0.0018922403845942376,0.2173345386981964,-21.77273941040039,-2.38179087638855,22.59223175048828,0.6737161874771118,2.2679946422576904,-0.06678618490695953,,,,,,,,,
1739402498.1016898,0.525704137877618,0.09603118569948213,-0.9533267789637493,-2.0691338887797213,0.1377754721566698,2.1375888717293905,-1.2753828778093472,0.0006425646035513022,-0.00030844123805174694,-0.00015365672061118813,-0.0009663967717167462,-0.0006647948079449096,8.867616852227224e-06,0.0005716586703598404,0.2173345386981964,-21.72116470336914,-2.35798716545105,22.59223175048828,0.6801248788833618,2.2615859508514404,-0.06037749722599983,,,,,,,,,
1739402498.1126485,0.5257044009337173,0.09602665008678292,-0.953327494514392,-2.0691299497834095,0.13777738484130367,2.1375912972905153,-1.275384877408499,-9.257750818452033e-05,-0.0011526070116539846,-0.0005458703871482063,0.0007653246943328601,-0.0014944267522285614,-8.309379658616488e-05,-0.0002364230123832775,0.2173345386981964,-21.66958999633789,-2.35798716545105,22.54065704345703,0.6608988046646118,2.2679946422576904,-0.013685601763427258,,,,,,,,,
1739402498.1236117,0.5257005066628809,0.09602835953554649,-0.9533249962667051,-2.069131414502183,0.13777881137977047,2.1375904409924855,-1.2753832983877766,-0.0017683925151333133,0.00033354866036827663,9.010898692695825e-05,-0.0004636797848307856,0.00030500258318576353,0.0007473020558923474,0.002358255678283323,0.2411382496356964,-21.69339370727539,-2.38179087638855,22.56842803955078,0.6608988046646118,2.2487685680389404,-0.04756011441349983,,,,,,,,,
1739402498.1336527,0.5257051710864841,0.09603466211777476,-0.9533249963636029,-2.0691300259939904,0.13777618300340505,2.137589747073508,-1.2753883701220547,0.001150405341792722,0.0012923377856973424,-0.0009068708966317,0.0006408749430168329,-0.0016135886305763724,-0.0006111426588053724,-0.000988636804179517,0.2173345386981964,-21.74496841430664,-2.38179087638855,22.54065704345703,0.6801248788833618,2.2551772594451904,-0.013685601763427258,,,,,,,,,
1739402498.144688,0.5257030268985022,0.09602836831912315,-0.9533249962545872,-2.069129959114759,0.1377789295074229,2.137592050644443,-1.2753852262604013,0.0014060842989207934,-0.0003508025517494583,-0.0008107816149039024,-6.147509062478444e-05,0.0004146915332971261,-0.0009488490558825139,-0.0005353327068518578,0.2173345386981964,-21.69339370727539,-2.38179087638855,22.56842803955078,0.6608988046646118,2.2615859508514404,-0.013685601763427258,,,,,,,,,
1739402498.154729,0.5257019894630651,0.09602940854211636,-0.9533240425802703,-2.0691300262764707,0.13777641995226475,2.1375920508052846,-1.275383511866676,-0.00046854127425986677,-0.0021457206754110494,-2.5373017379884887e-05,0.0008806664640744813,9.029646591019792e-06,-0.0006944912760332163,0.0021998627754628874,0.2173345386981964,-21.72116470336914,-2.38179087638855,22.54065704345703,0.6801248788833618,2.2615859508514404,-0.05396880581974983,,,,,,,,,
1739402498.1656864,0.5257013053114604,0.09603566886804309,-0.9533221074271054,-2.0691349826919394,0.1377797253213412,2.13758859128242,-1.2753855567210979,0.000640231553033695,3.685760344686361e-05,-1.413846986279481e-05,-0.0002069687057402818,0.0007302716723314542,-1.0336975899271256e-05,0.0013102490304230862,0.2411382496356964,-21.82431411743164,-2.38179087638855,22.61603546142578,0.6801248788833618,2.2679946422576904,-0.03382720425724983,,,,,,,,,
1739402498.1757238,0.5257023071363179,0.0960432012375948,-0.9533246783142253,-2.0691345775328247,0.1377765384776648,2.1375932792083834,-1.275382080737291,0.0005222899759455792,0.0012599335293719907,-0.0005788066820582611,0.0008529795679595028,-0.0011962252443354351,0.0007914444709450131,0.002088174448129204,0.2173345386981964,-21.89969253540039,-2.38179087638855,22.59223175048828,0.6801248788833618,2.2551772594451904,-0.06678618490695953,,,,,,,,,
1739402498.1876488,0.525702810376026,0.09604414944382805,-0.953319949476174,-2.0691392452829263,0.13777655154652801,2.137588284155294,-1.2753832946953043,6.261739518639847e-05,-0.00033569803366360565,0.0016774222407354125,-0.0007245002764501879,-0.0010216051331229143,-0.0010418311934351644,0.00084736923730142,0.2173345386981964,-21.89969253540039,-2.4095618724823,22.66364288330078,0.6801248788833618,2.2679946422576904,-0.05396880581974983,,,,,,,,,
1739402498.1977065,0.5257002682443327,0.09604361004859144,-0.9533208922635898,-2.0691374538188545,0.13777729559630186,2.1375918405842893,-1.2753873001143254,-0.0011227247097791734,-0.0010269503750239125,-0.0005750375130157892,0.00019881386401549212,-0.0007627476264807481,-0.00037795603324866016,0.0005676005391586053,0.2411382496356964,-21.87192153930664,-2.4333655834198,22.63983917236328,0.6737161874771118,2.2753188610076904,-0.020094294100999832,,,,,,,,,
1739402498.208632,0.5257019802879769,0.09604441042600446,-0.9533180340177715,-2.069139238070504,0.13777530385801945,2.1375896300614157,-1.275387182376759,-0.0018167195546495004,-0.0003352799685761047,0.0013081828179125972,9.615135165788536e-05,-0.0007393325328943566,-0.00015690883549696695,-0.0004030737984081164,0.2173345386981964,-21.87192153930664,-2.4333655834198,22.66364288330078,0.6544901132583618,2.2551772594451904,-0.020094294100999832,,,,,,,,,
1739402498.2186573,0.5257026994682972,0.09604432081963253,-0.9533240424227856,-2.069137531608035,0.13777805352715616,2.137588925456951,-1.2753790044373698,1.6033572316148778e-05,-0.00010788469575735319,0.00015585856063688873,0.0006244424299034043,-0.0005722109985829059,-0.0006397893977963955,0.002961923156884703,0.2173345386981964,-21.87192153930664,-2.38179087638855,22.63983917236328,0.6673074960708618,2.2615859508514404,-0.05396880581974983,,,,,,,,,
1739402498.2287486,0.5257003603261147,0.09604147955565062,-0.9533239180122883,-2.06913745413418,0.1377765384236932,2.1375916610970944,-1.2753864336545224,-0.0007821300275850585,-0.001686996084481095,-0.0006851876459822829,-0.0005205430997595614,0.0006743523633105409,0.00219720654102528,-0.0004589016638183392,0.2411382496356964,-21.87192153930664,-2.35798716545105,22.63983917236328,0.6801248788833618,2.2753188610076904,-0.027418512850999832,,,,,,,,,
1739402498.2396672,0.525704240886178,0.09604440361181685,-0.9533239276246346,-2.069135700815747,0.13777881755981566,2.137591800355979,-1.2753898085698108,0.0005755573118220298,0.0007942623098985507,0.0001826186563574647,0.000453520167269022,0.0008442203450854094,0.000828382870918279,-0.001348829201969331,0.2173345386981964,-21.87192153930664,-2.38179087638855,22.61603546142578,0.6608988046646118,2.2487685680389404,-0.0008682189509272575,,,,,,,,,
1739402498.249721,0.5257020196811305,0.09603631718549531,-0.9533240294802207,-2.0691338122507816,0.13777653842379867,2.1375905049187227,-1.2753836034922812,-0.00010969805778935667,-0.0016542197374379687,0.0010614104613384011,0.00033403921279686466,-0.0011092623242563784,0.0007655606857563686,0.0006857450708402134,0.2173345386981964,-21.77273941040039,-2.38179087638855,22.59223175048828,0.6801248788833618,2.2487685680389404,-0.05396880581974983,,,,,,,,,
1739402498.260712,0.5257020185529068,0.09603455459475534,-0.9533207677486224,-2.0691321061022534,0.13777730029553553,2.1375896446583864,-1.275386083333007,-0.0007637790226079095,-0.0002831178555204251,0.001298689419236364,-0.00026478911146636086,0.0005140513797653951,0.0007861638251202092,6.634941628612672e-05,0.2173345386981964,-21.74496841430664,-2.4095618724823,22.56842803955078,0.6737161874771118,2.2679946422576904,-0.020094294100999832,,,,,,,,,
1739402498.271689,0.5257024266170551,0.09602910529874502,-0.953326054809162,-2.0691321061026855,0.13777881140400078,2.137592808275943,-1.2753876358598417,0.00021666282638706924,-0.0013325469701361606,-4.785400004244538e-05,-0.0010015458933680362,0.0003544661316288897,-0.0007514546255386119,-8.493932459678347e-05,0.2411382496356964,-21.66958999633789,-2.35798716545105,22.56842803955078,0.6608988046646118,2.2551772594451904,-0.020094294100999832,,,,,,,,,
1739402498.2826378,0.5257023344858927,0.09603252473414764,-0.9533267789181302,-2.06913210578775,0.13777724341085787,2.1375889288724585,-1.275383596244436,0.00028911569372438105,0.00041872191995729507,-0.00089625814334028,-0.0010807607521497956,-0.00035278326669312257,-0.00012796903699451872,9.116225879705648e-05,0.2173345386981964,-21.72116470336914,-2.35798716545105,22.56842803955078,0.6737161874771118,2.2615859508514404,-0.05396880581974983,,,,,,,,,
1739402498.292684,0.5257037722875635,0.09602656805479538,-0.9533249933111472,-2.0691321048429367,0.13777694503686927,2.1375903884502305,-1.275388409534785,0.0006963572010168835,-0.0014507939869098261,0.0004059343389133857,-0.0004022056912277819,-0.001634383930035757,-9.660553269060385e-05,-0.0021998024463870712,0.1935308277606964,-21.66958999633789,-2.38179087638855,22.56842803955078,0.6737161874771118,2.2487685680389404,-0.013685601763427258,,,,,,,,,
1739402498.3027318,0.5257024959520998,0.09602812026388856,-0.9533205322788901,-2.069129337548025,0.13777960879281514,2.1375912127363925,-1.275384918898909,4.9399546840373757e-05,-0.001316495857446183,0.001502060685448386,0.0016040658994162522,7.686400438109813e-05,0.00029724314999281124,-0.0006734786560581452,0.2411382496356964,-21.69339370727539,-2.4095618724823,22.54065704345703,0.6801248788833618,2.2551772594451904,-0.04023589566349983,,,,,,,,,
1739402498.3136811,0.5257040225228181,0.09603207010398722,-0.9533267788818082,-2.0691321060987975,0.13778079029302415,2.13759184134596,-1.2753821332326227,0.00045968618314429964,-0.0002966209986365649,0.00020166596239549914,0.0002719999493996987,0.0006328555970052464,-0.0009200887219105587,-0.0009897907834668942,0.1935308277606964,-21.74496841430664,-2.35798716545105,22.56842803955078,0.6801248788833618,2.2753188610076904,-0.06678618490695953,,,,,,,,,
1739402498.3246288,0.5257012572007567,0.09603570178677061,-0.9533267089206471,-2.0691338122502843,0.13777725731867602,2.1375928693041177,-1.275385232074833,0.0007870952569919013,-0.0010055793218831574,-0.0011311482330110404,0.0004476369706442759,0.0014265223227537499,0.0018074499884463376,-0.00011025463480302455,0.2411382496356964,-21.79654312133789,-2.3302161693573,22.59223175048828,0.6737161874771118,2.2679946422576904,-0.013685601763427258,,,,,,,,,
1739402498.3347244,0.5257036931525104,0.09604113321197158,-0.9533249873878618,-2.0691365898084735,0.13777578076295957,2.1375913018812533,-1.27538360344044,0.0008235470597485427,0.0006914754827772563,-0.0010615314531798392,-0.0006579652450135853,-0.0007665872447805712,-0.0009532483199991744,0.0014031141921461271,0.1935308277606964,-21.87192153930664,-2.38179087638855,22.61603546142578,0.6865335702896118,2.2423598766326904,-0.05396880581974983,,,,,,,,,
1739402498.3456807,0.525701221768614,0.09604120733712065,-0.9533228899736276,-2.069137454149295,0.13778114470019814,2.137591338638607,-1.2753844003994463,-0.0006188544097792774,-0.0007705014893994155,0.00026841897381585687,-5.3436085032449135e-05,0.0023252746621773316,0.00048281149362825365,0.0015407772619337643,0.2411382496356964,-21.87192153930664,-2.4095618724823,22.63983917236328,0.6801248788833618,2.2679946422576904,-0.04756011441349983,,,,,,,,,
1739402498.3566248,0.5257059572964288,0.09604557290811563,-0.9533226780339892,-2.069135671456724,0.13777729609244027,2.1375942276389317,-1.2753894662666887,0.0012967418632459477,7.204832695922849e-05,-0.00015647679786991847,0.0006917641382931745,-6.306320868870675e-05,0.000236793243817395,-0.0008658072005826207,0.1935308277606964,-21.89969253540039,-2.4095618724823,22.61603546142578,0.6737161874771118,2.2551772594451904,-0.013685601763427258,,,,,,,,,
1739402498.366684,0.5257020199759276,0.09604423039785911,-0.9533221658756091,-2.0691436890126518,0.13777733545227314,2.1375928281125423,-1.2753836442472957,-0.00019951003897746884,-0.0008445390023981477,-9.546437570132126e-06,-0.0016295371990262065,-0.0004448722838256818,0.0016720618827654112,0.0005306996140244924,0.2173345386981964,-21.89969253540039,-2.4095618724823,22.69141387939453,0.6737161874771118,2.2679946422576904,-0.05396880581974983,,,,,,,,,
1739402498.3776605,0.5257004185371158,0.09604631893553953,-0.9533258251105219,-2.0691374550830144,0.13778003693596189,2.1375896344050123,-1.275384303864741,-0.0019360155758414593,0.00019948164699202614,-0.0009271001361157986,0.00015524706216109524,0.000354395343388789,-0.0003289245540649689,-3.938026598402961e-05,0.2689092457294464,-21.89969253540039,-2.35798716545105,22.63983917236328,0.6865335702896118,2.2551772594451904,-0.020094294100999832,,,,,,,,,
1739402498.3876634,0.5257020170628453,0.09604097469725854,-0.9533203822134043,-2.06913567145674,0.13777850303722908,2.1375914634798456,-1.2753855304429276,-7.525573271437017e-05,-0.0006762336612350095,0.0003683460037294048,0.0007419209172725025,0.00012034628542134055,-0.00014346273599829482,-0.0009158821069703545,0.2173345386981964,-21.82431411743164,-2.4333655834198,22.61603546142578,0.6544901132583618,2.2679946422576904,-0.020094294100999832,,,,,,,,,
1739402498.39768,0.5257037987743867,0.09603955246554031,-0.9533246213524529,-2.0691357763303744,0.13777911663918982,2.137591447288528,-1.275379422491397,0.0007366149409557764,-0.00045801866152088086,0.0003108521227027193,-6.942882346980194e-05,0.00048412998999305875,-0.0009057921664357105,0.0028318342387150274,0.1935308277606964,-21.82431411743164,-2.35798716545105,22.61603546142578,0.6673074960708618,2.2487685680389404,-0.05396880581974983,,,,,,,,,
1739402498.4086893,0.5257054063111811,0.09603897609939817,-0.9533200906055181,-2.069134152381634,0.13777572811475847,2.137593586029505,-1.2753888620714005,0.0014564593640503246,-0.00036258449451347834,0.001711870276754117,-0.00047157640574143136,-0.0006950282470280069,1.651562203609364e-05,-0.0004511208264723198,0.1697271168231964,-21.79654312133789,-2.4095618724823,22.59223175048828,0.6865335702896118,2.2615859508514404,-0.0008682189509272575,,,,,,,,,
1739402498.4196463,0.5257012303082177,0.0960334747461983,-0.9533228899200088,-2.0691320922927425,0.13778190219816716,2.1375943913545608,-1.2753891744614978,-0.000304150315956438,-0.0008584966512898822,0.0007580954752575593,-0.0007377312882385484,0.0013677403939069,0.0015816273811429553,-0.0008683189623279158,0.2411382496356964,-21.72116470336914,-2.4095618724823,22.54065704345703,0.6737161874771118,2.2551772594451904,-0.0072769103571772575,,,,,,,,,
1739402498.4306097,0.5257044124668658,0.09603693848459573,-0.9533246770548027,-2.069128243647474,0.13777778797300827,2.137593868130373,-1.275387627165161,8.380619548548855e-05,0.0013867785393303805,0.00039700294761408207,0.0009942937146110204,0.0012647361112252773,7.165881035884243e-05,-0.0005352822594461324,0.1935308277606964,-21.77273941040039,-2.38179087638855,22.51685333251953,0.6737161874771118,2.2551772594451904,-0.020094294100999832,,,,,,,,,
1739402498.4406114,0.5257036931723166,0.09603415577373157,-0.9533249125138754,-2.069133812250285,0.13777805425487252,2.1375929450990974,-1.2753843931311297,0.0007803439594552663,0.0010584494890125424,-0.00011061155442859471,-0.0018109809394098795,0.00078902169332237,0.00012315693298636267,0.00044788790067234346,0.1935308277606964,-21.77273941040039,-2.38179087638855,22.59223175048828,0.6673074960708618,2.2551772594451904,-0.04756011441349983,,,,,,,,,
1739402498.4506633,0.525701989118294,0.0960283871420891,-0.953326778931133,-2.0691336022225384,0.13777956906401068,2.137589683674062,-1.2753892015963646,-0.0003258704390208197,-0.0007200273675237205,4.3211860394192216e-05,-0.0004968961843688825,0.0019130676639212162,-0.0020355111515448776,-0.0010953906450070058,0.2173345386981964,-21.69339370727539,-2.35798716545105,22.61603546142578,0.6544901132583618,2.2551772594451904,-0.0072769103571772575,,,,,,,,,
1739402498.4617608,0.5257012189705738,0.09603035747650335,-0.9533267789316057,-2.0691300262661567,0.13777851715531217,2.1375932823933304,-1.2753821332348025,-0.0008887250003497052,-0.0013233904779432143,-0.0003495661434830378,0.0007389218850126991,0.0015312788198067434,0.0008162475765861736,0.0007891393320295549,0.2411382496356964,-21.72116470336914,-2.35798716545105,22.54065704345703,0.6737161874771118,2.2615859508514404,-0.06678618490695953,,,,,,,,,
1739402498.472673,0.5257020599115585,0.09603427978409426,-0.9533249962545866,-2.069132029573265,0.13777653988868,2.137593638376227,-1.2753828908942546,0.0003146450206866116,-0.00041470563954224893,0.0002796935816836735,-0.00021995645906654866,-0.0009476237375616442,0.0004554961737146554,0.0015835960028103776,0.2173345386981964,-21.74496841430664,-2.38179087638855,22.56842803955078,0.6801248788833618,2.2615859508514404,-0.06037749722599983,,,,,,,,,
1739402498.4827023,0.5257059190312718,0.09604162193198007,-0.9533242809988492,-2.0691374881455222,0.1377784080603754,2.1375904591946537,-1.2753836485543328,0.001432359072937642,0.0019486055968601665,-0.00024489169357582845,-0.0021267241632758997,-0.0003417616009559024,0.0010749602991039072,0.00028514730104372676,0.1935308277606964,-21.84811782836914,-2.38179087638855,22.63983917236328,0.6673074960708618,2.2615859508514404,-0.05396880581974983,,,,,,,,,
1739402498.4936643,0.5257003859897839,0.0960378826989811,-0.9533249961415327,-2.069133888779897,0.13777805520394382,2.137593600729489,-1.2753851545355792,-0.0009654977326587677,-0.0010528188898841502,-0.00011675714998236848,0.00010456589025914254,0.0006200480107074885,0.00021329644258876362,0.00025160957915931867,0.2411382496356964,-21.82431411743164,-2.38179087638855,22.59223175048828,0.6673074960708618,2.2615859508514404,-0.04023589566349983,,,,,,,,,
1739402498.5036883,0.5257013692699204,0.0960434381464923,-0.9533211337877101,-2.069135594927303,0.13777638045914614,2.1375923545861477,-1.2753852721096524,-0.00018000663095073222,0.00013878841781630612,0.0006096505381259126,5.0322883461673715e-05,-0.0016967251781394956,-7.103893362943444e-06,-2.413474841128356e-05,0.2689092457294464,-21.89969253540039,-2.4333655834198,22.61603546142578,0.6801248788833618,2.2679946422576904,-0.04023589566349983,,,,,,,,,
1739402498.515696,0.5257002721817289,0.09603960051599171,-0.9533229073073645,-2.0691356714562916,0.13777653847680613,2.137592226977978,-1.275388450073572,0.0002824915773640348,-0.001269695909641521,-5.382478814104511e-05,0.00041519648507338733,-0.0005495550340759637,0.0004006699055235633,-0.0003994035797543353,0.2411382496356964,-21.84811782836914,-2.4095618724823,22.61603546142578,0.6801248788833618,2.2615859508514404,-0.013685601763427258,,,,,,,,,
1739402498.5266514,0.5257026965369791,0.09604425799193735,-0.9533227445235445,-2.0691394663990237,0.13778124261034783,2.137591817685762,-1.2753812542555056,-0.0003287693761373601,0.0004247205009304941,-0.0009687872632871306,-0.0002273480967686357,0.0007734282726998215,0.0006949303694651181,0.0016002011634151068,0.2173345386981964,-21.89969253540039,-2.38179087638855,22.66364288330078,0.6673074960708618,2.2679946422576904,-0.07411040365695953,,,,,,,,,
1739402498.5366778,0.52570436492196,0.09604274027483556,-0.9533214968397716,-2.0691374541376306,0.13777881145793316,2.1375918220848757,-1.2753868274684992,0.0005331593035874854,0.0005519660239699586,0.0008838849086644729,-0.0002951035265627681,0.00015963457826531798,0.0007691049469229465,-0.0002594548260117606,0.2173345386981964,-21.87192153930664,-2.4571692943573,22.63983917236328,0.6608988046646118,2.2679946422576904,-0.05396880581974983,,,,,,,,,
1739402498.5466955,0.5257076446726919,0.09604268719122008,-0.9533247549289063,-2.069135671456724,0.13777837215610547,2.1375904465792903,-1.275383648608168,0.0015584283644564756,-5.718403107938554e-05,-0.0010759264063131407,0.0003982939885183347,9.588894227711707e-05,0.00032801435707355346,0.0005215879081107831,0.1419561207294464,-21.84811782836914,-2.38179087638855,22.61603546142578,0.6737161874771118,2.2615859508514404,-0.05396880581974983,,,,,,,,,
1739402498.5576434,0.5257005065142336,0.0960389215952082,-0.9533247225133742,-2.0691300263128305,0.13777578465642332,2.137588526078944,-1.275382133019276,-0.00047465072855283223,0.0003502908322409862,-9.163869416055868e-05,0.0013998088152299042,-0.0007441649290210672,0.00020203472476799667,0.0011867609805137915,0.2411382496356964,-21.82431411743164,-2.38179087638855,22.54065704345703,0.6865335702896118,2.2679946422576904,-0.06678618490695953,,,,,,,,,
1739402498.5676675,0.5257037310774588,0.09603613416086551,-0.9533208597161773,-2.069132106102686,0.13777926240740784,2.1375932807849463,-1.275383648554329,0.0007622119157420919,-0.0006152300894182993,0.0007465597237882372,0.0006271927521733276,0.0006701494897117887,-0.00018751876069437293,0.0007415160247306687,0.1935308277606964,-21.79654312133789,-2.4333655834198,22.56842803955078,0.6480814218521118,2.2615859508514404,-0.05396880581974983,,,,,,,,,
1739402498.5786095,0.5257065669138229,0.09603434378439812,-0.953322823908372,-2.06913544281327,0.13777840951243508,2.1375889303808067,-1.2753831263693944,0.0006633037460117791,0.00024394351442216252,0.00035382680981826443,-0.0001325636091051985,0.00015357954767722062,-0.0009159140140816074,-8.873189565860418e-05,0.1935308277606964,-21.77273941040039,-2.4095618724823,22.61603546142578,0.6673074960708618,2.2615859508514404,-0.06037749722599983,,,,,,,,,
1739402498.588702,0.5257032351297272,0.09603493746347276,-0.9533249962530191,-2.069130026308958,0.13777653842971938,2.1375934639262932,-1.2753821332386044,0.0006239189665505672,0.001150129706641478,-0.0006857306073263048,0.0005788226864088161,-0.0007521581157359555,-0.0002658979986449157,5.441942165989222e-05,0.2411382496356964,-21.74496841430664,-2.38179087638855,22.54065704345703,0.6801248788833618,2.2615859508514404,-0.06678618490695953,,,,,,,,,
1739402498.5996761,0.5257012213492939,0.09602656401960412,-0.953326805422559,-2.069133888779705,0.13777960843250775,2.137589003220858,-1.275383608463577,0.0008030834888139666,-0.0019583533690335836,-0.0009212662142816189,0.00012539860757884166,0.0009963163803974554,-0.0014184188804372251,0.0002536296928825758,0.2411382496356964,-21.66958999633789,-2.35798716545105,22.59223175048828,0.6544901132583618,2.2615859508514404,-0.027418512850999832,,,,,,,,,
1739402498.6106482,0.5257027314312767,0.09603493745833278,-0.9533281346355558,-2.0691300007680304,0.13778171938884592,2.137588928364757,-1.2753901890236268,0.0004467763317014807,0.0007377753260532178,-0.000954769855983152,0.0009556357933011037,0.0015811775036322353,-0.0022065045872683917,1.986182466673283e-05,0.2411382496356964,-21.74496841430664,-2.3302161693573,22.54065704345703,0.6673074960708618,2.2615859508514404,-0.0072769103571772575,,,,,,,,,
1739402498.6216393,0.5257054112580374,0.09603420221080067,-0.953330641495234,-2.069133890039016,0.13777880724011293,2.137595871763655,-1.2753836484101073,0.0011673168167290072,0.0007180621957685433,-0.0016946142403279206,-0.0007776364738375021,0.000216252798516016,0.0003562014612486544,0.0013344261990333288,0.1697271168231964,-21.74496841430664,-2.3064124584198,22.59223175048828,0.6608988046646118,2.2423598766326904,-0.05396880581974983,,,,,,,,,
1739402498.6316416,0.5256982698264234,0.09603777938588533,-0.9533248902907743,-2.069132106102693,0.137777453557749,2.137593634178868,-1.2753852727576651,-0.001123633888881918,0.0012255879397752535,-0.00020973202118776358,0.0011528251562395535,0.00032748733847577974,0.000550551450070971,-0.0009645117016924905,0.2689092457294464,-21.82431411743164,-2.38179087638855,22.56842803955078,0.6737161874771118,2.2615859508514404,-0.04023589566349983,,,,,,,,,
1739402498.6416771,0.52569826982639,0.09603810577542028,-0.9533267789262222,-2.0691374711402806,0.137778337518211,2.1375904175259435,-1.2753891686493324,-0.0013315872956123297,0.0018962380912871165,-0.0006147112712528205,-0.0020288808513952462,3.286669132236735e-05,0.0014559276228586233,-0.001150734550639478,0.2689092457294464,-21.82431411743164,-2.35798716545105,22.63983917236328,0.6608988046646118,2.2615859508514404,-0.0072769103571772575,,,,,,,,,
1739402498.6526074,0.5257003472401026,0.09603990894064807,-0.9533249962545866,-2.0691359560188967,0.13777729559533608,2.1375894012732153,-1.2753860297717219,-0.0006091561208351871,0.0002951393338790549,-0.0009205681725628185,0.000766371866426442,-0.0006481984788484778,-0.0006706842676700691,-0.00010671183052990586,0.2411382496356964,-21.82431411743164,-2.38179087638855,22.59223175048828,0.6737161874771118,2.2615859508514404,-0.03382720425724983,,,,,,,,,
1739402498.6627786,0.525701130850685,0.09603990973468449,-0.9533249609333156,-2.06913745427373,0.13777663206268595,2.1375918225156396,-1.2753821332346167,-0.0010815383595039136,-0.000885789111800756,0.0005833281657356379,-0.0004516804885550735,-0.0007289190983797135,0.0005355913271147456,0.0021986218301951375,0.2689092457294464,-21.82431411743164,-2.38179087638855,22.63983917236328,0.6673074960708618,2.2679946422576904,-0.06678618490695953,,,,,,,,,
1739402498.6747143,0.5256982707510095,0.09604778238673596,-0.9533246783629484,-2.0691413166006183,0.13777840805232516,2.137589804482455,-1.2753878872683557,-0.0017081924425602646,0.0012588567807036344,-0.0003634996872936958,-0.0005361543687334823,-5.429911994022045e-05,6.791263443139348e-05,-7.169282568601624e-05,0.2689092457294464,-21.92349624633789,-2.38179087638855,22.69141387939453,0.6673074960708618,2.2551772594451904,-0.05396880581974983,,,,,,,,,
1739402498.685683,0.5257041259461751,0.09604344868103504,-0.9533172053416865,-2.069141316600618,0.13777805374585117,2.137592725323868,-1.2753899452294586,0.0005910481703364702,-0.0007323887182109608,0.0008111449758346696,-0.001859574462568405,0.00031870939616494945,2.7891948237203324e-05,-0.0022561935151967348,0.2173345386981964,-21.87192153930664,-2.4571692943573,22.69141387939453,0.6673074960708618,2.2679946422576904,-0.0008682189509272575,,,,,,,,,
1739402498.6966798,0.5257041348976161,0.09604153972240816,-0.9533228209318529,-2.0691395191683513,0.1377780537438511,2.137589672968172,-1.27538678549384,0.00028921030656881014,-0.0005910553586075848,-0.0016832203037432047,-4.4736734213653417e-05,-0.0006516673759440067,-0.0014141697702098892,0.001434144638783154,0.2173345386981964,-21.87192153930664,-2.38179087638855,22.63983917236328,0.6673074960708618,2.2551772594451904,-0.027418512850999832,,,,,,,,,
1739402498.7086277,0.525704408213852,0.09604097468118167,-0.9533211689595347,-2.069137454464229,0.13777881140392945,2.13758993784577,-1.2753836514614296,0.0015036413010460132,-0.0004156765331793549,0.0011608028759698343,-0.00047854984791544683,0.0001534060140902437,-0.0016113369738296106,0.00042393897830734936,0.1935308277606964,-21.82431411743164,-2.4333655834198,22.63983917236328,0.6608988046646118,2.2615859508514404,-0.05396880581974983,,,,,,,,,
1739402498.7196753,0.5257054145971655,0.09604269593179238,-0.9533228236331001,-2.0691318224503608,0.13777830564503646,2.13758899592919,-1.2753892868713916,0.0020286366040302107,0.0015921782054508574,-0.00029241707570309386,0.001284273976370621,-0.0008193979161757389,-0.001148508961435056,-0.0018097614926188758,0.1697271168231964,-21.84811782836914,-2.38179087638855,22.59223175048828,0.6801248788833618,2.2615859508514404,-0.0072769103571772575,,,,,,,,,
1739402498.7306662,0.5256989850821796,0.09603691921495146,-0.9533243123172512,-2.0691341723853736,0.1377780581281049,2.137595150765086,-1.2753852722738166,-0.00032836585121388795,-0.0006547324339510235,-0.0005120580021350424,0.0008431675135226812,0.00040689931704194105,0.002247191009463133,0.00013075209679590943,0.2689092457294464,-21.77273941040039,-2.35798716545105,22.56842803955078,0.6673074960708618,2.2487685680389404,-0.04023589566349983,,,,,,,,,
1739402498.7416353,0.5257002716958662,0.09603478845516311,-0.9533267003025133,-2.0691300263244945,0.13777835973534058,2.1375940913684874,-1.2753828508034994,-0.0002252042385154734,0.0007799599014706123,6.437764737105272e-05,0.001353897739031309,0.0015707674797140457,0.0008256167242777544,0.00040748832633700257,0.2411382496356964,-21.77273941040039,-2.3302161693573,22.54065704345703,0.6737161874771118,2.2487685680389404,-0.03382720425724983,,,,,,,,,
1739402498.7516742,0.5257002972018351,0.09603478248533064,-0.9533242808891902,-2.0691317914817353,0.13777638345827725,2.1375886437804845,-1.275382877650794,-0.0010588997389187668,-0.00017472791096618666,0.00021164343026034734,0.0009957442685104795,-0.0003070620945114781,-0.0004568880937099129,0.0015667511887719537,0.2411382496356964,-21.77273941040039,-2.38179087638855,22.56842803955078,0.6544901132583618,2.2679946422576904,-0.06037749722599983,,,,,,,,,
1739402498.7627347,0.5257044085006739,0.09603406837500224,-0.9533281346313679,-2.069130026311054,0.13777850132252234,2.137592527050849,-1.275383648554258,0.0010271860135268982,0.0010713095323290902,-0.0002640149450686901,0.0004381710738322986,-0.0010753602982133674,-0.0010975217255531273,0.0009102726015900621,0.1935308277606964,-21.77273941040039,-2.3302161693573,22.54065704345703,0.6544901132583618,2.2679946422576904,-0.05396880581974983,,,,,,,,,
1739402498.7736063,0.5257002677685897,0.0960338315974761,-0.9533249962532241,-2.069132094928294,0.13777811084146785,2.1375950369112524,-1.275382548879283,-0.000292511272744043,0.0006924882796710051,0.00031864688424637785,0.0007570019926835816,0.0009124224226551464,0.002279237475375347,0.0009128844244819894,0.2411382496356964,-21.77273941040039,-2.38179087638855,22.56842803955078,0.6673074960708618,2.2487685680389404,-0.027418512850999832,,,,,,,,,
1739402498.7837481,0.5257002932770498,0.09603406793392931,-0.9533249962545866,-2.0691356455268135,0.13777805390682835,2.1375882906198256,-1.2753899262375974,-0.0007232735958216928,-3.826871125019139e-06,-0.0001912931864266244,-0.00010739728676097517,-0.00034145313468313403,-6.490955048518864e-05,-0.0017103703959829844,0.2411382496356964,-21.77273941040039,-2.38179087638855,22.61603546142578,0.6673074960708618,2.2679946422576904,-0.0008682189509272575,,,,,,,,,
1739402498.7946715,0.5257019803971344,0.09603578056692214,-0.9533250227455399,-2.0691338887795587,0.13778022866992834,2.1375942405363624,-1.27539079220661,0.00010632695700145227,-6.0439676374348154e-05,-0.0003386586834593179,-0.00027628299362917046,0.0011262190571937189,0.0007020153155010629,-0.0009224900102535755,0.2173345386981964,-21.79654312133789,-2.38179087638855,22.59223175048828,0.6608988046646118,2.2551772594451904,0.0064559997990727425,,,,,,,,,
1739402498.8056633,0.5257024400254099,0.09603672751024288,-0.9533229163561634,-2.0691320975994167,0.1377780406041382,2.1375920164871647,-1.275388411780175,-0.0009668494480560821,0.000277128996306019,-1.0455446425932063e-06,0.0007239339736872189,-0.0004740119874803881,-0.001596873554369266,-0.0015674889697299935,0.2411382496356964,-21.79654312133789,-2.4095618724823,22.56842803955078,0.6673074960708618,2.2753188610076904,-0.04023589566349983,,,,,,,,,
1739402498.81666,0.525701981721386,0.09604191374347282,-0.9533200554417817,-2.0691374541337266,0.1377795697120242,2.137592014982441,-1.2753876533528856,-9.706997862047863e-05,0.0009372579679879035,0.0010428242062654044,-0.0005792628606342098,0.000913975689562652,0.0002883473102951375,-0.0008031856941880856,0.2173345386981964,-21.87192153930664,-2.4095618724823,22.63983917236328,0.6544901132583618,2.2753188610076904,-0.020094294100999832,,,,,,,,,
1739402498.826713,0.5257003737310801,0.0960425692829419,-0.95332185677815,-2.0691354418684624,0.13777988747627223,2.137591663277091,-1.2753819893331426,-0.0006864555321355007,0.0008564695421723635,0.0007086079002172589,0.0008942245294233683,0.0012589111040020085,4.317146471825357e-05,0.0016858489031481437,0.2411382496356964,-21.84811782836914,-2.4095618724823,22.61603546142578,0.6608988046646118,2.2753188610076904,-0.06678618490695953,,,,,,,,,
1739402498.8376102,0.5257003030891121,0.09604128335365358,-0.9533207353702662,-2.0691433828936736,0.13777881578428167,2.1375950311136713,-1.2753789528658661,-0.0006537427275044019,-0.0009203557608858954,0.0005924834067747844,-0.001529600938400749,6.159454539831941e-05,-0.00019666154058860003,0.002666825914543862,0.2411382496356964,-21.87192153930664,-2.4095618724823,22.69141387939453,0.6608988046646118,2.2487685680389404,-0.06678618490695953,,,,,,,,,
1739402498.847677,0.5257036898658644,0.09604244639806167,-0.953320417338856,-2.0691384266558317,0.1377772965698778,2.1375917035557044,-1.2753844626875055,8.394824443709993e-05,-0.0009666938832865814,0.0007072605622883918,-1.267899398710049e-05,-0.0004000948146315241,-0.0008379167484152818,0.0012014051633817283,0.1935308277606964,-21.84811782836914,-2.4095618724823,22.61603546142578,0.6737161874771118,2.2679946422576904,-0.04756011441349983,,,,,,,,,
1739402498.8586705,0.5257002677672263,0.09603805332242299,-0.9533200553913354,-2.069137454184289,0.13777805374385382,2.137592763027778,-1.2753899655555532,-0.0010951794235737914,-0.0021398843255131896,0.000671518568937457,-0.0001964887029098246,-0.0003713355688397884,0.00069259464352717,-0.001779029121255884,0.2411382496356964,-21.82431411743164,-2.4095618724823,22.63983917236328,0.6673074960708618,2.2679946422576904,-0.0008682189509272575,,,,,,,,,
1739402498.8687153,0.525700267767243,0.09604124382404877,-0.9533229046425215,-2.0691338887797057,0.137781548043777,2.1375932863478893,-1.2753828908949192,-0.00037529511119582,0.000825590285111514,0.00017511342809938612,0.000694183218148173,0.00028571619809991054,0.00015456283281537934,0.000344278012387872,0.2411382496356964,-21.87192153930664,-2.4095618724823,22.59223175048828,0.6737161874771118,2.2615859508514404,-0.06037749722599983,,,,,,,,,
1739402498.8796334,0.5257022187065533,0.09603889745855083,-0.9533258914074502,-2.0691338887797053,0.13778156545088513,2.1375886433440345,-1.2753820763846515,0.000595671184714378,-0.0005469511710126579,0.0008955999781079683,0.00046583335179362995,-0.00037510239098602956,-0.0005266926661974434,0.001211702211911814,0.2173345386981964,-21.79654312133789,-2.3302161693573,22.59223175048828,0.6737161874771118,2.2679946422576904,-0.06678618490695953,,,,,,,,,
1739402498.8897161,0.5257050885975049,0.09603589450929413,-0.9533245269657977,-2.0691338887797053,0.13777958269697266,2.1375904480268675,-1.2753884894806133,0.0020406429547956224,-0.001222855712723374,0.00012130078676845211,-0.0003897940239614916,0.0016192409581920588,-0.0002600138812204898,-0.0004900370765272433,0.2173345386981964,-21.79654312133789,-2.35798716545105,22.59223175048828,0.6544901132583618,2.2615859508514404,-0.013685601763427258,,,,,,,,,
1739402498.9006653,0.5256973080092299,0.09603781643522931,-0.953326775975454,-2.0691300263128305,0.13777657779227132,2.137593640029118,-1.275385267751436,-0.0014321899096936647,-0.0002914127840057438,0.0002999312255739039,0.0012729573709481658,-0.0005262989116528276,0.0007811307252463476,0.0019070253581972333,0.2927129566669464,-21.82431411743164,-2.35798716545105,22.54065704345703,0.6801248788833618,2.2615859508514404,-0.04023589566349983,,,,,,,,,
1739402498.9116738,0.5256982611178017,0.09603107068867392,-0.9533268054225088,-2.069133883110859,0.13777881140459614,2.1375936269651845,-1.2753852322362647,-0.002661676401831501,-0.0017641211935658786,-0.0008258973446397685,-0.00019904492683702399,-0.0002742982274620516,0.0006232931850906508,0.00032356858511288316,0.2689092457294464,-21.72116470336914,-2.35798716545105,22.59223175048828,0.6608988046646118,2.2615859508514404,-0.013685601763427258,,,,,,,,,
1739402498.922643,0.5257036521614508,0.09603207032319837,-0.9533211341148107,-2.0691300263128194,0.13777653890972527,2.1375935877193037,-1.2753812275093825,-0.0003350232072474387,-0.0013468212368760203,0.001409924692850927,-7.562042742505253e-05,-0.0015286310507271936,4.4279896088196586e-05,0.00019160728879761375,0.2173345386981964,-21.74496841430664,-2.4333655834198,22.54065704345703,0.6801248788833618,2.2615859508514404,-0.04756011441349983,,,,,,,,,
1739402498.9336169,0.5257048413566999,0.09602846487170863,-0.9533249961455722,-2.0691300259978944,0.13777625334762844,2.137595155366998,-1.275388763645635,0.0007454012088505797,-0.0023492409531248037,0.00015313944493481038,0.0008083110481863422,-0.001185214194798453,-7.535234541638879e-05,-0.0005035586572080875,0.2173345386981964,-21.69339370727539,-2.38179087638855,22.54065704345703,0.6865335702896118,2.2487685680389404,-0.013685601763427258,,,,,,,,,
1739402498.9436898,0.5257021923730688,0.09603206999886257,-0.9533197905322476,-2.0691356714567184,0.13777821268394672,2.137592880448991,-1.275383648560305,0.0001723572071618236,-0.0002879557670263271,0.001738491402698066,-3.666784050808202e-05,-0.0011442442740653795,7.319173198205747e-05,0.0014403739974532502,0.2173345386981964,-21.74496841430664,-2.4095618724823,22.61603546142578,0.6673074960708618,2.2679946422576904,-0.05396880581974983,,,,,,,,,
1739402498.954718,0.5257002716930258,0.09603036140976552,-0.9533214880299411,-2.0691338884297763,0.13777817185024815,2.1375920164898154,-1.2753877553139437,-0.0001738738089742806,-0.0007088053371013679,0.0016393189244564238,-0.0001858933251222892,0.0011667688989053485,0.0007252229179666756,-0.00063182372433767,0.2411382496356964,-21.72116470336914,-2.4571692943573,22.59223175048828,0.6673074960708618,2.2753188610076904,-0.0072769103571772575,,,,,,,,,
1739402498.965646,0.5257027220710256,0.09603791132473587,-0.953328857279974,-2.0691338802764343,0.1377780537445178,2.13759040880494,-1.275385743053945,-0.00012533576580152028,0.00021508012764522564,-0.0018520799144650392,2.660896718093567e-05,-0.0008108811097171022,-5.30058971802812e-05,-0.0005167131692066322,0.2173345386981964,-21.79654312133789,-2.3302161693573,22.59223175048828,0.6673074960708618,2.2615859508514404,-0.04023589566349983,,,,,,,,,
1739402498.9756486,0.5257026968644688,0.09603609628686793,-0.9533260623676487,-2.0691374541335987,0.1377780405801367,2.137591977189248,-1.2753867918004265,0.00043544922229276663,9.709334960902009e-05,0.0004067111093164063,-0.0008367730444631249,-0.0007671978979983438,-0.00018953088429994505,-0.0001408837464375415,0.2173345386981964,-21.79654312133789,-2.35798716545105,22.63983917236328,0.6673074960708618,2.2753188610076904,-0.027418512850999832,,,,,,,,,
1739402498.9856727,0.5257019773566702,0.09604196389075335,-0.95332499482524,-2.0691374569681655,0.13777657779197142,2.1375920164891604,-1.2753867874318743,0.0005376938158257542,0.0012528705354949658,7.363318805171529e-05,-0.0006123296854524412,-0.0011961836563853959,0.0007530333827993068,-0.0008753671763243007,0.2173345386981964,-21.84811782836914,-2.38179087638855,22.63983917236328,0.6801248788833618,2.2753188610076904,-0.027418512850999832,,,,,,,,,
1739402498.9956777,0.5257058415193069,0.09604407224369146,-0.9533221923786518,-2.069137454133791,0.13778048477041993,2.1375936379475644,-1.2753836487158383,0.0010979743041674593,0.0005010937345410999,0.0004533584182560579,-0.0007989971148334937,-0.001080992729439242,0.00037515179329415655,0.00031984608196245374,0.1935308277606964,-21.87192153930664,-2.4095618724823,22.63983917236328,0.6737161874771118,2.2615859508514404,-0.05396880581974983,,,,,,,,,
1739402499.0057395,0.5257002678036315,0.09604268591466657,-0.953322849166917,-2.069137454133743,0.1377780537978518,2.1375936400471014,-1.2753843689066242,0.00019440179365497098,0.00010639166194272714,-0.0006169955675447898,-0.00011257382534069078,-0.0004393364140411542,0.0005214362368746284,8.520492079005018e-06,0.2411382496356964,-21.84811782836914,-2.38179087638855,22.63983917236328,0.6673074960708618,2.2615859508514404,-0.04756011441349983,,,,,,,,,
1739402499.016624,0.5257019803243131,0.09604097466249832,-0.953324525771249,-2.069135671456724,0.13777745361177626,2.137592881741036,-1.2753877045635909,-0.00019479274657125084,0.0013939529248612353,-0.0004946326153286702,0.0006296657964978158,0.0001865930795550709,0.0010496165303144863,0.0005281846402238623,0.2173345386981964,-21.82431411743164,-2.35798716545105,22.61603546142578,0.6737161874771118,2.2679946422576904,-0.013685601763427258,,,,,,,,,
1739402499.0266411,0.5257019807240398,0.0960424412543952,-0.9533229061790444,-2.0691356710368094,0.13777774514572955,2.137592003407863,-1.2753865903995996,0.00028533406953959396,0.00047341428393917167,-0.00019030936352892565,0.0009403919221982222,-0.000423458842993905,-7.486189273522972e-05,0.00027838638554427515,0.2173345386981964,-21.84811782836914,-2.4095618724823,22.61603546142578,0.6608988046646118,2.2753188610076904,-0.0008682189509272575,,,,,,,,,
1739402499.0366611,0.5256982727698366,0.09604072916253605,-0.9533249958183474,-2.0691338887796977,0.13778048491421105,2.1375904611325276,-1.2753899662896944,-0.0018090401505315708,0.000108377449203435,-0.0009404919619445059,0.0004482570679202464,0.0008506913992137632,-0.0007193006020156607,-0.00025580150742778577,0.2689092457294464,-21.82431411743164,-2.38179087638855,22.59223175048828,0.6737161874771118,2.2615859508514404,-0.027418512850999832,,,,,,,,,
1739402499.0476851,0.5257024498368889,0.09603889458761179,-0.9533267779504568,-2.069133888779705,0.13777911671135062,2.13759439768927,-1.2753821332525614,-0.0003792533946701583,0.00046239944191118663,-0.0013616732548827693,0.0003951404460789452,-0.0007156927525131581,0.0011688332419893775,0.0008913001971463055,0.2411382496356964,-21.79654312133789,-2.35798716545105,22.59223175048828,0.6673074960708618,2.2551772594451904,-0.06678618490695953,,,,,,,,,
1739402499.058675,0.5257003472887593,0.09603410728969111,-0.9533226780461465,-2.0691321070474933,0.13777956907000827,2.1375928823870582,-1.275386031709789,0.0009088087588530516,-0.000394669300147798,0.0005199614065762833,0.00012829466387914972,0.0009302025345466809,0.0002058881034439103,-0.00033444611855127065,0.2411382496356964,-21.77273941040039,-2.4095618724823,22.56842803955078,0.6544901132583618,2.2679946422576904,-0.03382720425724983,,,,,,,,,
1739402499.0696106,0.5257002678040307,0.09603130875025698,-0.9533207667715876,-2.069130026312836,0.13777565782219683,2.1375943972226983,-1.2753860297717328,-0.0003901790415451056,-0.0002810183639993764,0.0016486769482037986,0.0013372132840858903,-0.00056896741184605,0.0006540630215872042,-0.0022295766054647942,0.2411382496356964,-21.72116470336914,-2.4095618724823,22.54065704345703,0.6608988046646118,2.2551772594451904,-0.03382720425724983,,,,,,,,,
1739402499.0796485,0.5257002942581969,0.09603056933861993,-0.9533268318771069,-2.0691348071327504,0.13777871329636457,2.1375882775398707,-1.2753875851287992,0.0004763131729862175,0.00011240233579070291,-0.00033991751484903555,-0.0013774261755820616,0.00038394082276114365,-0.0019773253764215743,-0.0005334234088680344,0.2411382496356964,-21.69339370727539,-2.35798716545105,22.59223175048828,0.6737161874771118,2.2679946422576904,-0.04756011441349983,,,,,,,,,
1739402499.089649,0.5257065541600493,0.09603060701783936,-0.9533259182283422,-2.06913396630059,0.13777654043981974,2.1375901196748908,-1.2753872842887757,0.002228917053725421,-0.0007919186568564106,-3.977573935705413e-05,-0.0012942072054021611,-0.0008517345709744779,-0.0006658989246493184,0.0015572124306301467,0.1935308277606964,-21.72116470336914,-2.3302161693573,22.59223175048828,0.6801248788833618,2.2551772594451904,-0.020094294100999832,,,,,,,,,
1739402499.0996876,0.5257036970764922,0.09603210020280725,-0.9533249962016487,-2.0691300398087713,0.13777733561429437,2.1375936395384705,-1.2753867874835523,0.0007314860256083205,-0.001296328542829733,-0.0008325142539196274,0.00020496088707846888,-0.0009033025016698027,0.0011799338392422456,-0.0003803487907258865,0.1935308277606964,-21.74496841430664,-2.38179087638855,22.56842803955078,0.6737161874771118,2.2615859508514404,-0.027418512850999832,,,,,,,,,
1739402499.110527,0.5257003472401749,0.09603578045917449,-0.9533249962545857,-2.069128260607356,0.1377757807642855,2.13759288238705,-1.2753860690175793,0.00012574811067083173,-0.0005268965469253145,-0.0009738675344656434,0.0015418914152739046,-0.0024578683774450737,0.00023900076261466332,9.898268465021983e-05,0.2411382496356964,-21.79654312133789,-2.38179087638855,22.51685333251953,0.6865335702896118,2.2679946422576904,-0.03382720425724983,,,,,,,,,
1739402499.1206336,0.5257022995243955,0.09603795062280727,-0.953326778895267,-2.0691377377511717,0.13777729413359285,2.137594384625263,-1.2753878470701512,0.0003840837764733781,7.410197579607429e-05,-8.136575645093788e-05,-0.0004847969262985169,-0.0018026991666993722,0.0004703983793190343,-0.0002596510464342375,0.2173345386981964,-21.79654312133789,-2.35798716545105,22.61603546142578,0.6737161874771118,2.2551772594451904,-0.027418512850999832,,,,,,,,,
1739402499.1306343,0.5257022981848193,0.09603780474325622,-0.9533229135212912,-2.0691338888146977,0.13777731341833582,2.137593600801059,-1.2753844062323563,8.1885748479802e-05,0.0005318487058510701,0.00010769601826506384,0.0006245802502835238,-0.0004949675339381994,6.520854500632789e-05,0.0012499312436887251,0.2173345386981964,-21.82431411743164,-2.4095618724823,22.59223175048828,0.6737161874771118,2.2615859508514404,-0.04756011441349983,,,,,,,,,
1739402499.141636,0.5257036967350855,0.09604162178644662,-0.9533220292678078,-2.069135671456724,0.13777669595179548,2.1375943977069936,-1.2753836456472325,0.0012427472913964562,-0.0003334767647480543,0.00043666822594303476,1.0206572894190709e-05,0.0009106946107696809,0.0007711484257771199,5.989072266439761e-05,0.1935308277606964,-21.84811782836914,-2.38179087638855,22.61603546142578,0.6801248788833618,2.2551772594451904,-0.05396880581974983,,,,,,,,,
1739402499.1517224,0.5257019920617977,0.09604415126712196,-0.9533247744652504,-2.069135662953455,0.13777957344095332,2.137593640047137,-1.2753820931972062,-0.00014098759527863487,0.001198301503432617,0.0009045442584205295,-0.00022434568631139021,0.0014696240301847277,0.0001529382121838044,0.0009554398315866979,0.2173345386981964,-21.87192153930664,-2.38179087638855,22.61603546142578,0.6544901132583618,2.2615859508514404,-0.04023589566349983,,,,,,,,,
1739402499.1626647,0.5257009506452149,0.09604333576712583,-0.9533210543136004,-2.0691356714566758,0.13777805568799925,2.1375918985369156,-1.2753852720936985,-0.0007427516785533227,-5.219602748550518e-05,0.00046963501273514837,0.00042241893445410885,-4.4684857082515306e-06,-0.0005570732861791029,0.001444042401558365,0.2411382496356964,-21.87192153930664,-2.4333655834198,22.61603546142578,0.6673074960708618,2.2753188610076904,-0.04023589566349983,,,,,,,,,
1739402499.1746228,0.5257048678057316,0.09604097458432673,-0.9533228896462803,-2.0691346990746067,0.13777854366297249,2.1375928823863926,-1.2753868048744033,0.0021198459045205856,0.0011492711098094268,-0.0007344391898741606,0.0007051727292886007,0.0002343954942970828,0.0002891904837596717,-0.00048008784237740706,0.2173345386981964,-21.82431411743164,-2.4095618724823,22.63983917236328,0.6673074960708618,2.2679946422576904,-0.027418512850999832,,,,,,,,,
1739402499.185673,0.5257036928262516,0.09604026306268257,-0.953326775988116,-2.069137454233537,0.13777986135264567,2.1375904567720982,-1.2753836485543657,0.00025576939502823656,-0.0009952622955571267,-0.0008042560981815926,-0.00028760510458625683,0.00022312109923761027,-0.00030331785954943764,0.0022119847585792708,0.1935308277606964,-21.82431411743164,-2.35798716545105,22.63983917236328,0.6608988046646118,2.2615859508514404,-0.05396880581974983,,,,,,,,,
1739402499.1966176,0.5257041260551861,0.0960339880738883,-0.9533242805264288,-2.069132114605955,0.13778064678647278,2.1375916632053116,-1.2753789592730664,0.0002798759581382161,-0.0002246731383545765,0.0004083986403740199,0.0007387064444304845,0.00023361425471422775,-0.0010745224500562796,0.0012893623264769107,0.2173345386981964,-21.79654312133789,-2.38179087638855,22.56842803955078,0.6737161874771118,2.2753188610076904,-0.06678618490695953,,,,,,,,,
1739402499.2066793,0.5257002678035817,0.09603612674952484,-0.9533259576999346,-2.069132109357167,0.1377785655910948,2.137593640041154,-1.2753888168363887,-0.00029619888964343174,-0.0010682699871877954,-0.0001960440795688129,0.00014746771780940748,0.0011335076782337296,0.00019173024681798026,-0.00034008592467353854,0.2411382496356964,-21.79654312133789,-2.35798716545105,22.56842803955078,0.6673074960708618,2.2615859508514404,-0.0072769103571772575,,,,,,,,,
1739402499.2176683,0.5257010183442514,0.09603481474801068,-0.9533265403630358,-2.0691338887797235,0.13777665701811448,2.1375924099832284,-1.2753844062124253,-0.0006556727819590416,-0.0009902316527622907,-0.0011988047092739472,0.00027139727339458674,-0.0004526329609569839,-0.0010218185755461325,-0.00031053876367663496,0.2411382496356964,-21.77273941040039,-2.35798716545105,22.59223175048828,0.6801248788833618,2.2679946422576904,-0.04756011441349983,,,,,,,,,
1739402499.228625,0.5257022304845472,0.09603442259932286,-0.953322916354368,-2.0691300149751384,0.13777733691103475,2.137592881899875,-1.2753852725961603,0.0009387620022466318,9.608328559982152e-05,-0.00024703781913410205,0.0004043581844038371,-0.0015474996703511944,-0.0001027789924073743,-6.54770830980205e-05,0.2173345386981964,-21.77273941040039,-2.4095618724823,22.54065704345703,0.6737161874771118,2.2679946422576904,-0.04023589566349983,,,,,,,,,
1739402499.2386358,0.5257019803006855,0.09603207001509736,-0.953324996254581,-2.0691317884717013,0.1377815527441496,2.1375918987522318,-1.2753883586614367,0.0005034626886971341,-0.0010354041524419121,-0.000205807815798695,0.0006629452899628971,-0.0003415396713678491,-0.0006999372248453139,0.00040072491530153176,0.2173345386981964,-21.74496841430664,-2.38179087638855,22.59223175048828,0.6737161874771118,2.2753188610076904,-0.013685601763427258,,,,,,,,,
1739402499.2486718,0.5257036928087054,0.09603499018103714,-0.9533249167817268,-2.069130026265981,0.1377780538218835,2.137592882224888,-1.275384406214116,0.0007034388994615226,0.0008813535999300414,-0.0001378483720240449,-0.00013924313468495042,-0.0005459930256002431,0.0004036624732367613,0.0009200284107282687,0.1935308277606964,-21.74496841430664,-2.38179087638855,22.54065704345703,0.6673074960708618,2.2679946422576904,-0.04756011441349983,,,,,,,,,
1739402499.2597075,0.5257019802879742,0.09603673142405718,-0.9533249205605089,-2.069131818706122,0.13777729673181432,2.1375914695362184,-1.2753812673373843,-0.00023386867137247324,0.0007515865424297948,-3.0408222174665544e-05,-0.00014536641618447473,-0.00015464003652507484,-0.0007431754890944437,0.0007569042236317122,0.2173345386981964,-21.79654312133789,-2.38179087638855,22.59223175048828,0.6737161874771118,2.2679946422576904,-0.07411040365695953,,,,,,,,,
1739402499.2706337,0.5257002694024869,0.09603780482013173,-0.9533242545074687,-2.0691338887680195,0.13777956662023008,2.1375920164818507,-1.2753857407141176,-0.000542470354543371,-0.0007324716485689227,-0.00012768627923359286,-0.0008962279685851471,0.000641554743291007,-0.0002605435184526505,-0.00022035762042016022,0.2411382496356964,-21.82431411743164,-2.38179087638855,22.59223175048828,0.6544901132583618,2.2753188610076904,-0.027418512850999832,0,0,0,0.000,0,0
1739402499.2815979,0.5257019774535788,0.09603680935465202,-0.9533249932985858,-2.0691356714567237,0.13778204415717155,2.1375928823870582,-1.2753812716803088,0.0005457613021146984,-0.00020934071674551323,-0.0011191259094104396,-0.0005352998250338588,0.0023140858780963417,-0.00022652375793739716,0.0013788029784412516,0.2173345386981964,-21.79654312133789,-2.38179087638855,22.61603546142578,0.6608988046646118,2.2679946422576904,-0.07411040365695953,0,0,0,0.000,0,0
1739402499.2916243,0.5257036929176736,0.09604336366269975,-0.9533221923786259,-2.0691356714567237,0.1377788114586764,2.1375928823870582,-1.2753821332346902,-0.00014664578565587547,0.0014686354897924133,0.00014543974056174398,3.3613265553311835e-05,-0.0011015714867461117,-0.00011813307149786979,0.001164789641838239,0.1935308277606964,-21.87192153930664,-2.4095618724823,22.61603546142578,0.6608988046646118,2.2679946422576904,-0.06678618490695953,0,0,0,0.000,0,0
1739402499.3016405,0.5257012640510911,0.09604535122108449,-0.9533247553245459,-2.0691356718416456,0.13778311806137344,2.137592016489826,-1.2753852715194565,-0.0009941466426620416,0.0011681255718581209,-0.0003272974528737919,-4.816000181667574e-05,0.0006024382705452349,-0.0009113943393661034,-0.0007692760641672316,0.2173345386981964,-21.89969253540039,-2.38179087638855,22.61603546142578,0.6544901132583618,2.2753188610076904,-0.04023589566349983,0,0,0,0.000,0,0
1739402499.3116436,0.5257019777684705,0.09604055243821907,-0.9533249958144414,-2.0691359010449917,0.13777916642857269,2.1375925291743485,-1.2753828908942444,-0.0009152104992469584,-0.0002513467707143265,-0.0006951738213260018,0.001325231729947464,0.0010741551280938285,-0.0012679539503281318,-0.00016303089055942334,0.2173345386981964,-21.84811782836914,-2.38179087638855,22.61603546142578,0.6608988046646118,2.2679946422576904,-0.06037749722599983,0,0,0,0.000,0,0
1739402499.3216686,0.5257002677672004,0.09604543792684905,-0.9533249952734327,-2.0691375561768584,0.13777775885320503,2.1375920164838447,-1.2753828865336037,-0.0007060623738568544,0.0003627615166256503,-0.0019114425272123876,-0.0002892301884904765,-0.000744306856472583,-0.00031138758971758807,0.0016738567647983263,0.2411382496356964,-21.89969253540039,-2.38179087638855,22.63983917236328,0.6801248788833618,2.2753188610076904,-0.06037749722599983,0,0,0,0.000,0,0
1739402499.3326957,0.5257012669945297,0.09604268706955982,-0.9533228811434545,-2.0691356714572997,0.13777805375074045,2.137592016489826,-1.275391594264235,0.00037908243584961995,0.0011161853942309847,0.0003637391871056002,-0.0003504203230745936,-0.0013229346942592668,0.0002519463678017658,-0.002622081738849491,0.2173345386981964,-21.84811782836914,-2.4095618724823,22.61603546142578,0.6673074960708618,2.2753188610076904,-0.013685601763427258,0,0,0,0.000,0,0
1739402499.3436084,0.5257002677632164,0.09603805462289212,-0.9533229154833852,-2.0691374531889353,0.13777842555746173,2.1375928823870582,-1.2753867875036051,-0.0005889462666362729,-0.00034428085196942196,-0.0006848678334064914,-0.000197255467454905,0.00013123622153006498,0.0003553894598847671,-0.00020036498539679465,0.2411382496356964,-21.82431411743164,-2.4095618724823,22.63983917236328,0.6673074960708618,2.2679946422576904,-0.027418512850999832,0,0,0,0.000,0,0
1739402499.3537276,0.5257019802879741,0.09604438799860794,-0.9533249949463747,-2.069131133720553,0.13777992338680398,2.1375936405558797,-1.275383648554334,-0.00013019133000384883,0.0005645515383791027,-0.0008455811117036386,0.001271249655894,0.0004950082112518543,0.0007587156901973538,8.975195294532096e-05,0.2173345386981964,-21.87192153930664,-2.38179087638855,22.59223175048828,0.6544901132583618,2.2615859508514404,-0.05396880581974983,0,0,0,0.000,0,0
1739402499.364604,0.5256993144199754,0.09603718141864512,-0.9533229075980671,-2.0691338890790885,0.1377794716598904,2.137592016489829,-1.2753899263093778,-0.0016813672373744125,-0.00044121253709092346,0.0005359656091604992,0.0008270546833477849,0.00011317433301057057,0.0006296472140762535,-0.00040915039077943545,0.2411382496356964,-21.77273941040039,-2.4095618724823,22.59223175048828,0.6673074960708618,2.2753188610076904,-0.0008682189509272575,0,0,0,0.000,0,0
1739402499.3747132,0.5257046505004787,0.09604226010360511,-0.9533277322787231,-2.069132106102691,0.13778175713692997,2.1375936400471374,-1.2753812673373843,0.0011023406639749265,0.0025322780119872244,-0.0012914199459551992,0.000611105324581751,0.0019127994990234074,0.00015677550497580315,0.0018047689084508957,0.1935308277606964,-21.87192153930664,-2.35798716545105,22.56842803955078,0.6480814218521118,2.2615859508514404,-0.07411040365695953,0,0,0,0.000,0,0
1739402499.3856776,0.5257026984925569,0.09603207130215413,-0.9533228504927563,-2.069137454133743,0.13777932520063033,2.1375928823870587,-1.275389168810805,0.0009938159543417667,-0.002003406156552054,0.00011833582988898813,-0.0019045694115320912,0.0011990351040392052,0.0003417185072385595,0.00045257442201774374,0.2173345386981964,-21.74496841430664,-2.38179087638855,22.63983917236328,0.6608988046646118,2.2679946422576904,-0.0072769103571772575,0,0,0,0.000,0,0
1739402499.3957167,0.5257019891304547,0.09603491126009431,-0.9533267774780556,-2.0691356741861684,0.13778154805247822,2.1375928823870587,-1.2753828908942573,0.0004200483752599328,5.367098565059876e-05,-0.0005644884062653056,-0.0022826410379326576,0.0014192891420523172,-0.000570832307493769,0.0007182362382796366,0.2173345386981964,-21.74496841430664,-2.35798716545105,22.61603546142578,0.6737161874771118,2.2679946422576904,-0.06037749722599983,0,0,0,0.000,0,0
1739402499.4065957,0.5257026951076963,0.09603406892830367,-0.9533258223138419,-2.069132207722014,0.13778141321318216,2.1375928823870587,-1.2753844062144113,-2.5611439427783694e-06,0.0002590649550786197,0.00015824948219776323,-0.0008947522233683318,0.00043579127632313624,-5.812617019635734e-06,-0.0002081534204771838,0.2173345386981964,-21.77273941040039,-2.35798716545105,22.56842803955078,0.6673074960708618,2.2679946422576904,-0.04756011441349983,0,0,0,0.000,0,0
1739402499.4166794,0.5257019803000796,0.09603791012222443,-0.9533265404968262,-2.0691321061044063,0.13777730926349896,2.1375928823870587,-1.2753866304483736,-0.00038596617512102625,0.000586700243436692,0.0001482147229954541,0.0010477546013135742,-0.0003186555574804275,8.950106352767332e-06,0.00022649704746165547,0.2173345386981964,-21.82431411743164,-2.35798716545105,22.56842803955078,0.6737161874771118,2.2679946422576904,-0.027418512850999832,0,0,0,0.000,0,0
1739402499.4276984,0.5257005061858221,0.09603407118645167,-0.9533229164633851,-2.0691338887797053,0.13777881140400383,2.1375943972226983,-1.2753853244385662,0.00034668841407184837,-0.00010617738853659008,0.0010283222245866751,4.9727034944541056e-05,-0.0007961607987568845,0.0002724419679974574,-0.00018970314652172482,0.2411382496356964,-21.77273941040039,-2.4095618724823,22.59223175048828,0.6608988046646118,2.2551772594451904,-0.04023589566349983,0,0,0,0.000,0,0
1739402499.43866,0.5257020067802732,0.09604130866894986,-0.9533255269682953,-2.069133877442013,0.13777892950942927,2.1375870202772274,-1.2753778946823946,0.0005635433721061525,1.484011218495665e-05,-3.339721647986057e-05,0.00026452408873166224,-0.0013057178036255132,-0.002002421286114168,0.0016839304320288688,0.2173345386981964,-21.87192153930664,-2.4095618724823,22.59223175048828,0.6608988046646118,2.2817275524139404,-0.06678618490695953,0,0,0,0.000,0,0
1739402499.4487088,0.5257019803974391,0.0960340679397138,-0.9533267672020578,-2.0691356831091596,0.1377789295114294,2.137592882315278,-1.2753891685775192,0.0005455967154325859,-0.001144103196951755,-0.001319857860330102,-0.0006348439992750044,0.0003934306701590489,-9.979932441470026e-05,-0.0009164025770378059,0.2173345386981964,-21.77273941040039,-2.35798716545105,22.61603546142578,0.6608988046646118,2.2679946422576904,-0.0072769103571772575,0,0,0,0.000,0,0
1739402499.4606674,0.5257036931357548,0.09604170074334917,-0.9533218833174887,-2.069133888779771,0.1377781723360485,2.1375928883304636,-1.2753884168034215,0.0011886346701217541,0.0004471833672961855,0.001275696902884689,0.0008072436006506172,0.001311860966009259,-0.00024569412173139734,-0.0009455433446903338,0.1935308277606964,-21.84811782836914,-2.4095618724823,22.59223175048828,0.6673074960708618,2.2679946422576904,-0.013685601763427258,0,0,0,0.000,0,0
1739402499.4716656,0.5257058395570643,0.0960410252864933,-0.9533207667588764,-2.069137462637012,0.1377789695261935,2.1375951553673045,-1.2753867874497562,0.0014356536460478678,0.0003235083732957928,0.000460709010131026,0.00016742414026388569,0.0009584533804030381,0.0004386095995271546,0.001404547286107812,0.1935308277606964,-21.84811782836914,-2.4095618724823,22.63983917236328,0.6608988046646118,2.2487685680389404,-0.027418512850999832,0,0,0,0.000,0,0
1739402499.4826121,0.5257019803000926,0.09603860576115465,-0.9533240420957312,-2.0691413059395853,0.13778136118476988,2.1375930045579565,-1.2753867830711496,0.0005842897436234378,-0.0014767406727732128,-0.00019673860492790804,-0.0013762761630397606,0.00010076744899541285,-0.0002844943289696977,-0.0011238549083135998,0.2173345386981964,-21.82431411743164,-2.38179087638855,22.66364288330078,0.6673074960708618,2.2679946422576904,-0.027418512850999832,0,0,0,0.000,0,0
1739402499.4926763,0.5256989850821275,0.09604365325267625,-0.953320530954586,-2.0691373012149215,0.13777805833615095,2.1375928823891273,-1.2753891686492256,-0.0008259426321168175,0.0008666334564333344,0.0018208896271117167,-0.00042927430282374557,-0.000979718284702804,-0.0001670774344727244,-0.0011800127603562804,0.2689092457294464,-21.87192153930664,-2.4095618724823,22.63983917236328,0.6673074960708618,2.2679946422576904,-0.0072769103571772575,0,0,0,0.000,0,0
1739402499.5036573,0.5256982698385029,0.09603880517060416,-0.9533247573595436,-2.069136356439688,0.13777805374392887,2.1375923873631715,-1.2753856253243534,-0.0009510368416724565,-0.00041427510532272464,-0.0003918151309448304,0.00041425787269014434,-0.0008004394871631697,0.00012161544978786558,-0.0006227216949112699,0.2689092457294464,-21.82431411743164,-2.38179087638855,22.61603546142578,0.6673074960708618,2.2753188610076904,-0.04023589566349983,0,0,0,0.000,0,0
1739402499.5137086,0.5257020064518787,0.09604086942230552,-0.9533199759675736,-2.0691339001212636,0.13778044499159625,2.13759201649192,-1.2753828734536454,0.0009478976132628367,0.0002716461026550808,0.0015253534663803466,0.0006750081506608013,-0.0004457984228425375,-0.0007956161343683838,0.001834019357161279,0.2173345386981964,-21.82431411743164,-2.4095618724823,22.59223175048828,0.6480814218521118,2.2753188610076904,-0.06037749722599983,0,0,0,0.000,0,0
1739402499.5237167,0.5257023102806618,0.0960387395600248,-0.9533228899239802,-2.0691321174405695,0.13777881205397347,2.137591258829748,-1.2753836490385542,0.0012020550518549295,0.0010611408056981739,-0.0005928606742624629,0.00022922745319605453,0.00048765525701326915,-0.00048652933761097724,0.00040657529473942704,0.2173345386981964,-21.79654312133789,-2.4095618724823,22.56842803955078,0.6608988046646118,2.2817275524139404,-0.05396880581974983,0,0,0,0.000,0,0
1739402499.5346358,0.5257020068898065,0.0960388889581799,-0.9533249962544368,-2.069134172397102,0.1377820004144389,2.137595155205788,-1.2753876533290354,8.82154253761987e-05,0.0029325191796841844,-0.0006262334055618234,9.335781751595377e-05,0.0002440971989975543,0.000764035342435018,-0.0003813064275753177,0.2173345386981964,-21.79654312133789,-2.38179087638855,22.56842803955078,0.6608988046646118,2.2487685680389404,-0.020094294100999832,0,0,0,0.000,0,0
1739402499.5446951,0.5257019802884247,0.09603420091577214,-0.953325825148273,-2.0691338888146977,0.13777729662380978,2.1375928823870556,-1.2753867874318003,4.6443412141454823e-05,0.0004073909294194832,0.0006309786636666368,-0.00025697363155311506,-0.00040687730852847977,-0.0002767376249982305,0.0008558788366249104,0.2173345386981964,-21.74496841430664,-2.35798716545105,22.59223175048828,0.6737161874771118,2.2679946422576904,-0.027418512850999832,0,0,0,0.000,0,0
1739402499.555595,0.525700267767243,0.09603407217207009,-0.9533267776180263,-2.069130027537581,0.13778457852208315,2.13759360080128,-1.2753876534905382,-0.0014173283534392538,0.0003654688594478823,0.0004745122212147995,0.00024299275365885926,0.00168166733236395,-0.00027274588153149593,-0.0003558775504988853,0.2411382496356964,-21.77273941040039,-2.35798716545105,22.54065704345703,0.6480814218521118,2.2615859508514404,-0.020094294100999832,0,0,0,0.000,0,0
1739402499.565616,0.525700267767243,0.09603480464193452,-0.9533229164647088,-2.0691338887797257,0.1377773005300551,2.137594397706551,-1.2753864614761476,-0.00011065569884820441,4.975728867560999e-05,0.0009863009730681396,-0.0010388800285047518,-0.0009754486185668113,0.0001646922062600646,-9.397870609789138e-05,0.2411382496356964,-21.77273941040039,-2.4095618724823,22.59223175048828,0.6737161874771118,2.2551772594451904,-0.03382720425724983,0,0,0,0.000,0,0
1739402499.5756712,0.5257030222654681,0.09603409460712611,-0.9533250754003975,-2.0691338887797053,0.13778202030399195,2.137593640047137,-1.2753868082879534,0.0008540417961131755,4.333365592821696e-06,-5.2774788446676566e-05,-0.0004139298943472667,-0.0003570145118753134,0.00046815827711486457,-0.001015759841812206,0.2173345386981964,-21.77273941040039,-2.38179087638855,22.59223175048828,0.6737161874771118,2.2615859508514404,-0.027418512850999832,0,0,0,0.000,0,0
1739402499.5857115,0.5257002955722734,0.09603546696209302,-0.9533268054230057,-2.069135696966531,0.13777881337472125,2.1375928823870582,-1.2753852328659046,-0.0010485828178537105,-0.0008849191573631146,-0.001652746120118296,-0.0014394045400587929,-0.0005290616074003001,3.805067849048014e-05,-0.0003431196525734626,0.2411382496356964,-21.79654312133789,-2.35798716545105,22.61603546142578,0.6608988046646118,2.2679946422576904,-0.04023589566349983,0,0,0,0.000,0,0
1739402499.5966678,0.5257012650323939,0.09603477923526493,-0.9533229164648805,-2.069135799005902,0.13777897033603292,2.1375925797629853,-1.2753836485541112,-0.0007907050210417489,-0.0009889044392567149,-6.561961620143737e-05,-0.00025373010102049045,-0.001121026127456955,-0.000770372239370386,0.00021017956375566743,0.2173345386981964,-21.77273941040039,-2.4095618724823,22.61603546142578,0.6608988046646118,2.2615859508514404,-0.05396880581974983,0,0,0,0.000,0,0
1739402499.608617,0.5257020627002355,0.09603805121674311,-0.9533265405130267,-2.0691355949280235,0.13777992386743532,2.1375943992274578,-1.275391589903609,-0.0006454068595795811,7.321859224987556e-05,-0.0007519695679631223,0.0005455011913765321,0.001646551329885565,0.0006354626915296784,-0.0014816391481102544,0.2173345386981964,-21.82431411743164,-2.35798716545105,22.61603546142578,0.6544901132583618,2.2551772594451904,-0.013685601763427258,0,0,0,0.000,0,0
1739402499.6187198,0.525704129000021,0.09603802500074839,-0.9533211298590887,-2.0691358235694612,0.13777881578421583,2.137592882387084,-1.2753867871626243,0.0007238189925619933,-0.00023202797383529874,-6.971380715608665e-05,0.0003321226645406251,0.00028985340171231436,-7.675588245662812e-05,-0.0008805383365596368,0.2173345386981964,-21.79654312133789,-2.4333655834198,22.61603546142578,0.6608988046646118,2.2679946422576904,-0.027418512850999832,0,0,0,0.000,0,0
1739402499.6296368,0.5257058384830572,0.09604096199438711,-0.9533240381832733,-2.0691377377513627,0.13777968738552956,2.1375928823870587,-1.275383859260804,0.0008137993635807794,-0.0006624959631185077,0.00035853257202129107,-0.001165071080194526,0.0013519119545109509,-0.00039729017597452576,0.0014263756014909694,0.1935308277606964,-21.82431411743164,-2.38179087638855,22.61603546142578,0.6544901132583618,2.2679946422576904,-0.04023589566349983,0,0,0,0.000,0,0
1739402499.6396859,0.5257019891546291,0.09603883993499464,-0.9533216448827507,-2.069134172432031,0.1377789751983342,2.13759360080128,-1.2753923475397606,-0.0009049702270382996,-0.0002720609783069065,3.0390073901960464e-05,0.0008707796448213453,9.6513411062484e-05,-0.00019237861455795029,-0.0023995431585382126,0.2173345386981964,-21.82431411743164,-2.4095618724823,22.56842803955078,0.6608988046646118,2.2615859508514404,-0.0072769103571772575,0,0,0,0.000,0,0
1739402499.6506972,0.525703694225967,0.0960409746865413,-0.953324969647439,-2.0691339001290614,0.1377773374513242,2.137591218792606,-1.2753836529329285,0.0010656319142422106,-9.424495169490339e-05,-7.22352925235846e-05,0.0007178177936419219,0.0006706478248092537,-0.00031490210797220235,0.000658248058224456,0.1935308277606964,-21.82431411743164,-2.38179087638855,22.59223175048828,0.6737161874771118,2.2551772594451904,-0.05396880581974983,0,0,0,0.000,0,0
1739402499.6615973,0.5257005061858301,0.09603431348786551,-0.9533249962544363,-2.0691357735310083,0.13777631005145996,2.137592016471881,-1.2753822902180678,-0.0001470647119556081,-0.002805632988357159,-0.0008902654033814129,-0.001044879433061394,-0.0007045611754929977,0.0002457407969706268,0.0004610777957024675,0.2411382496356964,-21.77273941040039,-2.38179087638855,22.61603546142578,0.6865335702896118,2.2753188610076904,-0.06678618490695953,0,0,0,0.000,0,0
1739402499.6717129,0.5257003737350935,0.09604072868369344,-0.953322916464731,-2.0691356799617213,0.13778159756585076,2.137592882387058,-1.2753836500105415,-0.0002396425045785713,0.0005957382404659684,0.0004677736750477447,-0.0005809725214347243,0.0008658476099367012,-7.940753391933231e-05,0.0011011664285915128,0.2411382496356964,-21.82431411743164,-2.4095618724823,22.61603546142578,0.6673074960708618,2.2679946422576904,-0.05396880581974983,0,0,0,0.000,0,0
1739402499.6826165,0.5257054063111811,0.09603880763648973,-0.9533222002278473,-2.0691320295733133,0.1377797275082086,2.137593640047137,-1.2753836085174206,0.0005638898264791821,0.0002975987908545114,0.00014675423199822486,0.0012980410135623067,0.00018163245690526355,0.0003544804811736169,0.001167650491432779,0.1697271168231964,-21.82431411743164,-2.4095618724823,22.56842803955078,0.6801248788833618,2.2615859508514404,-0.027418512850999832,0,0,0,0.000,0,0
1739402499.6926877,0.5257003766745451,0.09603802398369729,-0.9533230371093516,-2.0691336591875555,0.13778048484613903,2.137592016489826,-1.2753852314288106,-0.00026207567293281083,-0.0006099196210005474,0.0004742984584704844,-4.68407539075403e-05,0.0010399649239312765,-0.0003646835749033347,0.00015483445686621843,0.2411382496356964,-21.82431411743164,-2.4095618724823,22.59223175048828,0.6480814218521118,2.2753188610076904,-0.013685601763427258,0,0,0,0.000,0,0
1739402499.7036195,0.5257037727178351,0.09603239748165418,-0.953326778883381,-2.0691321061022534,0.1377774142615747,2.1375947671270104,-1.27538329533564,9.381805068328739e-05,-0.00017180847709039688,-0.0009596761247105295,0.0003175695466636223,-0.0012695942631281304,0.0008473761818570727,0.0006116418024872109,0.1935308277606964,-21.74496841430664,-2.35798716545105,22.56842803955078,0.6737161874771118,2.2551772594451904,-0.05396880581974983,0,0,0,0.000,0,0
1739402499.7137303,0.5257037045838157,0.09603863331093802,-0.9533267259496985,-2.069133888779705,0.13777920509093022,2.1375988481936146,-1.2753836490328678,0.00025851659549500756,0.0005933718746761749,-0.0002458459669269605,-0.00031959298207894307,0.0001273205786632601,0.0016305752002690676,-0.00017482151068922588,0.1935308277606964,-21.79654312133789,-2.35798716545105,22.59223175048828,0.6608988046646118,2.2551772594451904,-0.05396880581974983,0,0,0,0.000,0,0
1739402499.7256544,0.5257036928087718,0.09603408062036388,-0.9533249962542876,-2.069133888779705,0.13778341183211584,2.1375936400722604,-1.2753899394451678,0.0008183386071350548,-0.0002730978489258421,-0.0006802235688247379,-0.0012251701149117553,0.0008983455874169684,0.00011830665641278791,-0.0010256077738598937,0.1935308277606964,-21.77273941040039,-2.38179087638855,22.59223175048828,0.6608988046646118,2.2615859508514404,-0.0008682189509272575,0,0,0,0.000,0,0
1739402499.736625,0.5257024105910156,0.09603406927320028,-0.9533267788225894,-2.0691338900394487,0.13777839842774076,2.1375962679873295,-1.2753899264709574,0.0012368445336392218,-0.0006148936946654153,-0.000757181094196207,-0.000626946853640383,-0.00031254361687953,0.0014628005416083244,-0.001516292470059162,0.2411382496356964,-21.77273941040039,-2.35798716545105,22.59223175048828,0.6737161874771118,2.2487685680389404,-0.0008682189509272575,0,0,0,0.000,0,0
1739402499.7466333,0.5257002677793393,0.09603872545110166,-0.9533267701012873,-2.0691363606414295,0.1377766965519581,2.137592882393339,-1.275388410989222,0.00021219946284549952,0.0011807025265871181,3.5630152066626363e-06,-0.0005971301032279978,0.000676923936187952,-0.00018104517650574634,0.0005351772623695106,0.2411382496356964,-21.82431411743164,-2.35798716545105,22.61603546142578,0.6801248788833618,2.2679946422576904,-0.013685601763427258,0,0,0,0.000,0,0
1739402499.7566822,0.5257009830229805,0.09603417458929302,-0.9533228416569074,-2.0691366438505128,0.13777705086491276,2.1375936400471374,-1.2753860341323726,-0.000475246127567997,-0.000248744467273519,0.00018687081779470072,-0.000539704473520715,-0.0005338833994466359,-0.00024313909261013648,0.00036189117084221335,0.2411382496356964,-21.77273941040039,-2.38179087638855,22.59223175048828,0.6801248788833618,2.2615859508514404,-0.03382720425724983,0,0,0,0.000,0,0
1739402499.7676191,0.5257019802920119,0.09603809700697613,-0.9533249167695641,-2.0691353653545947,0.13777741565025792,2.137591258829748,-1.2753863332033477,-0.00010578971730045663,-0.00036957581723361934,-0.001158091312836273,-3.1895531839627234e-05,0.00011005293068296918,-0.0005423386094271359,0.0004999749381218011,0.2173345386981964,-21.82431411743164,-2.38179087638855,22.61603546142578,0.6737161874771118,2.2817275524139404,-0.04023589566349983,0,0,0,0.000,0,0
1739402499.7776253,0.525702696524858,0.09604260814136527,-0.9533228781986748,-2.0691357042048724,0.1377781062372092,2.1375928300592495,-1.275390048425568,9.168690027628289e-05,0.0017315111135070115,8.408146984768803e-05,-1.4981959955455361e-05,7.876298294507495e-05,-0.00033076664481591184,-0.0013722519887215928,0.2173345386981964,-21.84811782836914,-2.4095618724823,22.61603546142578,0.6673074960708618,2.2679946422576904,-0.0008682189509272575,0,0,0,0.000,0,0
1739402499.787664,0.5257044110442706,0.09604344196452574,-0.9533206617883229,-2.0691356714583877,0.13778357060718482,2.137592016487168,-1.2753871406507142,0.0008495356527719203,0.0015694305536983913,0.0011427691891724488,3.957436007921526e-05,0.0011043091588556363,-0.00023001626057466535,0.0008435532202985456,0.1935308277606964,-21.87192153930664,-2.4095618724823,22.61603546142578,0.6608988046646118,2.2753188610076904,-0.027418512850999832,0,0,0,0.000,0,0
1739402499.7977133,0.5257019804373837,0.09604061989166447,-0.9533246782050651,-2.069133888464769,0.13778275793936912,2.1375928823870582,-1.2753860698106363,0.00021574777305086976,-0.0003786617297857731,-0.0003277413259770559,0.0007568971607350772,0.0008469149708255641,-0.0003667155123576977,-0.0003001924920494894,0.2173345386981964,-21.82431411743164,-2.38179087638855,22.59223175048828,0.6544901132583618,2.2679946422576904,-0.06037749722599983,0,0,0,0.000,0,0
