IITGN-Robotics/Franka_IITGN_ROBOTICS/franka_ros/franka_iitgn/data/s_b_008.csv
time,fr3_joint1_pos,fr3_joint2_pos,fr3_joint3_pos,fr3_joint4_pos,fr3_joint5_pos,fr3_joint6_pos,fr3_joint7_pos,fr3_joint1_vel,fr3_joint2_vel,fr3_joint3_vel,fr3_joint4_vel,fr3_joint5_vel,fr3_joint6_vel,fr3_joint7_vel,fr3_joint1_eff,fr3_joint2_eff,fr3_joint3_eff,fr3_joint4_eff,fr3_joint5_eff,fr3_joint6_eff,fr3_joint7_eff,flexpin1,flexpin2,flexpin3,Force,ContactMic,ContactMic_gt
1739376123.8719716,0.12362186935464647,0.9880497478119817,0.2286816357982031,-1.5386054507789528,-1.4613972023482587,1.2486511136919096,0.20753469296844648,-0.0011649773419117068,0.0008346128243636072,-0.0008578639308632447,-0.00018254040401465455,-0.0004974295545737158,-0.001169272244147853,0.0011483399259174013,-0.8300287127494812,-50.85690689086914,2.8986656665802,16.98249053955078,-1.3175557851791382,-2.2290756702423096,0.026597600430250168,,,,,,,,,
1739376123.8829353,0.12362317155764259,0.9880437881970461,0.2286816387143719,-1.5386117154477708,-1.4613970173226445,1.2486530676375502,0.2075313712412964,0.00015984612451324423,-0.0008136810276254845,-0.0005208535376680862,-0.0005143909777892579,0.00041203194457225113,-0.0011402890694742756,-0.000620813672814406,-0.8776361346244812,-50.77756118774414,2.8986656665802,17.05786895751953,-1.3102315664291382,-2.2098495960235596,0.05314789339900017,,,,,,,,,
1739376123.8938947,0.12362358464757253,0.9880457864635298,0.228681639686483,-1.5386093100844935,-1.461398834602956,1.2486531890039618,0.20753167284474594,-0.0002587122325504453,0.0009292382039503933,-0.0010840519967781396,-0.0003919285831386846,-0.0001358399076702088,0.0020282368935357004,-0.0022436289102085636,-0.8538324236869812,-50.80533218383789,2.8986656665802,17.03406524658203,-1.3038228750228882,-2.2098495960235596,0.05314789339900017,,,,,,,,,
1739376123.9039192,0.12362358576591131,0.9880440955124905,0.22868344472089436,-1.5386119380079006,-1.461398832682834,1.2486481894024117,0.20753647027933655,-3.6111164943488955e-05,-0.0020373921005334703,0.0008456512927464578,-0.0002556152083187233,-0.0010787914346875684,1.570620914242952e-05,-0.00021358874426353618,-0.8538324236869812,-50.77756118774414,2.8748619556427,17.03406524658203,-1.3038228750228882,-2.2034409046173096,0.012864691205322742,,,,,,,,,
1739376123.9149377,0.123599440513883,0.988155225675012,0.22872986557804328,-1.5385644408150216,-1.461391709508025,1.2487262186928203,0.2075363303024479,-0.004134655939997118,0.01793592051180191,0.009484817858555773,0.00991711771364224,0.0015791452404367847,0.011678340641731219,-0.00015029235644355377,-0.3817255198955536,-49.09146499633789,3.5334312915802,15.994636535644531,-1.1271260976791382,-1.8811752796173096,0.012864691205322742,,,,,,,,,
1739376123.9269218,0.12356770075475434,0.9882481669364609,0.2288088534943087,-1.538568988814367,-1.4614014740845258,1.2488261588273104,0.20753441515995802,0.003047345003141459,-0.004251348546930853,0.0036343695238447776,-0.007926888936438801,-0.0006578787400279265,-0.0007044069105914342,-0.0013453937890633583,-0.03260441869497299,-49.67862319946289,3.73576283454895,17.05786895751953,-1.1335347890853882,-1.8216660022735596,0.03941498324275017,,,,,,,,,
1739376123.9378743,0.12359130275960695,0.9883151912258473,0.22882598671242016,-1.538572566526743,-1.461408654103615,1.2488609486670688,0.2075470876200284,0.00035870748341467195,0.0023473116159789297,0.0024993929500352306,0.0020152899751177296,-0.0008213820280370992,0.0027021081569726588,0.001737639026558662,-0.3063471019268036,-50.34512710571289,3.5572350025177,16.81189727783203,-1.0877584218978882,-1.9141342639923096,-0.04023589566349983,,,,,,,,,
1739376123.9479413,0.12360189145128093,0.9882851587569577,0.22884489506577296,-1.538580227857258,-1.4614079758565026,1.248856958601113,0.20754812099407394,0.0014125928004963236,-0.000610689121083948,0.0022564589235268546,0.004131032192465668,-0.0004752578540065997,0.00046870600181048345,0.0022346199865186218,-0.4293329417705536,-49.67862319946289,3.4064781665802,16.63733673095703,-1.0621236562728882,-1.7887070178985596,-0.05396880581974983,,,,,,,,,
1739376123.9599555,0.1235991771694819,0.9882750447025673,0.2288566444210709,-1.5385445215060172,-1.4613997187105627,1.2488654526336351,0.20754289195032086,0.0012033442127585177,-0.0022323222870523425,0.0004503823710061709,0.0017653558540629982,0.0022071920523297475,-0.0012847979997416199,0.00022526627838968366,-0.3817255198955536,-49.37314224243164,3.58500599861145,16.21680450439453,-1.0941671133041382,-1.7758896350860596,-0.0008682189509272575,,,,,,,,,
1739376123.9709358,0.12358286827889896,0.9882825727439883,0.2288560733196576,-1.5385324192041892,-1.4614021136709259,1.2488695258623024,0.20754441881496202,-0.002047315421424803,0.0007449217322339728,0.0004932711637444391,0.0005172528135851304,0.0009392875517755303,0.002776946518120659,0.0020899220563441855,-0.1555902659893036,-49.47629165649414,3.6841881275177,16.16919708251953,-1.0749410390853882,-1.8088486194610596,-0.013685601763427258,,,,,,,,,
1739376123.9819338,0.12359210824963685,0.9883072004450277,0.22884628172555999,-1.5385622848253855,-1.46140560705441,1.2488664664301155,0.20754366521782366,0.0008509326260209997,0.0026210567274137756,-0.0004280298129638612,-0.001872747613920127,0.0002512283985282623,0.0017143800282848074,0.00034024798212701265,-0.2825433909893036,-49.83334732055664,3.8111412525177,16.61353302001953,-1.0941671133041382,-1.7557480335235596,-0.0072769103571772575,,,,,,,,,
1739376123.992868,0.12359437705159865,0.9883001253518171,0.22886946719591267,-1.5385775858612865,-1.4614060642225388,1.2488713832165956,0.20754290950794818,0.0006893888227038274,-0.0029777813097177698,0.0016243892152357849,-0.0015526071642992141,-0.0011491194097226966,-3.560450435082134e-05,0.0024959771788322037,-0.3539545238018036,-49.73019790649414,3.50566029548645,16.73651885986328,-1.0813497304916382,-1.7887070178985596,-0.0008682189509272575,,,,,,,,,
1739376124.002916,0.12359208059586833,0.9883012487740375,0.22887644248091066,-1.538562267594022,-1.461406064216582,1.2488695273886306,0.20754442548019467,-0.0012703243096963274,-0.0015850674491542163,0.0015205649182683453,0.0017817621990567482,-0.0006281949079831109,-0.0003491996605242993,0.00023058943159918137,-0.2825433909893036,-49.70639419555664,3.50566029548645,16.53815460205078,-1.0813497304916382,-1.8088486194610596,-0.013685601763427258,,,,,,,,,
1739376124.01395,0.12357296025714175,0.9882772154270321,0.2288696003092724,-1.5385420642403536,-1.461407216040139,1.248875809546069,0.207542043610728,-0.0018212754143496863,-0.00017167666604487068,-0.00018344571135747072,0.0012780552628812005,-0.0014581518877254472,0.000482136711090705,-0.0002681898857338372,-0.05640812963247299,-49.39694595336914,3.71195912361145,16.26837921142578,-1.0685323476791382,-1.8216660022735596,0.0064559997990727425,,,,,,,,,
1739376124.0239565,0.12356923329186814,0.9882676646140912,0.22886267144623476,-1.5385387688965961,-1.4614051842502451,1.248884529042564,0.20754366716803754,-0.0004502277776549298,-0.0005449038392837765,-0.001546990170060392,-0.0013852991462627927,-0.0010656553830743582,0.0008589345203315335,-0.0004072512314784374,-0.004833422601222992,-49.26999282836914,3.8111412525177,16.26837921142578,-1.0877584218978882,-1.8152573108673096,-0.0072769103571772575,,,,,,,,,
1739376124.0339754,0.12357573261870826,0.9882773968692318,0.22887207537886872,-1.5385449573148944,-1.461404546778631,1.248889237090802,0.2075381645169035,-6.882109509299202e-05,0.0005087382604802473,0.0011975095380202774,-0.0006032425077894538,0.000561124149412776,0.000873975624595304,6.86746936839651e-05,-0.05640812963247299,-49.44852066040039,3.6841881275177,16.39136505126953,-1.0941671133041382,-1.8152573108673096,0.03941498324275017,,,,,,,,,
1739376124.0459394,0.12358146376411339,0.9882894539671245,0.22887589970776467,-1.538563750173419,-1.461405305102925,1.248886218131562,0.20754514299725957,-0.001149946521010598,-0.0007828866491582842,0.0013394327788686068,-0.0012632660315857005,-0.00011735126608332776,0.0012732381304867593,0.0009828991481935709,-0.1793939769268036,-49.60324478149414,3.6603844165802,16.58972930908203,-1.0877584218978882,-1.7887070178985596,-0.020094294100999832,,,,,,,,,
1739376124.056936,0.12358180844384643,0.988300839110936,0.22887706106645736,-1.538565030264669,-1.4614045474428505,1.2488854604721609,0.20754549440012973,-0.0008574508494666763,0.0005692379969582007,0.0014359107644365651,0.00179843103104889,0.0002955977466821242,-0.00013196406654601486,0.0009352614520887405,-0.1793939769268036,-49.73019790649414,3.58500599861145,16.58972930908203,-1.0941671133041382,-1.7822983264923096,-0.013685601763427258,,,,,,,,,
1739376124.067868,0.1235862392641666,0.9882897209662014,0.22886923078667853,-1.5385569155879975,-1.4614045474428505,1.2488839938982765,0.2075451824943421,0.0004941988585617455,-0.0025729108413659317,-0.0003191542386179775,0.0018383791091627145,-0.00010476518945214466,0.0004154010980547371,0.0018968198383637956,-0.2309686839580536,-49.57547378540039,3.6841881275177,16.46674346923828,-1.0941671133041382,-1.7685654163360596,-0.020094294100999832,,,,,,,,,
1739376124.0779364,0.12358112067037434,0.9882867942589845,0.22886972306988076,-1.538540711827502,-1.4614049721642577,1.248883836915736,0.20754566606009442,-0.0004921851317529765,0.0005357244037624274,0.0007296787802680415,0.00030692935118998156,-0.00098099554876957,0.0004892942847668404,0.0023408140213751726,-0.1317865550518036,-49.52389907836914,3.71195912361145,16.29218292236328,-1.0813497304916382,-1.7685654163360596,-0.013685601763427258,,,,,,,,,
1739376124.0879412,0.12358465971502276,0.9882840625304686,0.22886503587469242,-1.5385375384227202,-1.4614035663410803,1.248881563934615,0.20754366723109866,0.0011772968471427362,-0.0004922384912078805,-0.0016655426888035273,0.0002524734359236271,-0.001273911680056663,-4.2725897909455524e-05,-0.0008861753312159793,-0.1793939769268036,-49.50009536743164,3.73576283454895,16.29218292236328,-1.0749410390853882,-1.7493393421173096,-0.0072769103571772575,,,,,,,,,
1739376124.097943,0.12358349757529807,0.9883000990082542,0.22886971180907573,-1.5385561801669378,-1.461404547424481,1.2488869753078007,0.20754775238618625,0.0008459850294394702,0.001466663056516887,-1.5118213338203386e-06,-0.0017919519310456921,0.00036942428598588545,0.00105676173021564,0.0006032333106425896,-0.2071649730205536,-49.73019790649414,3.6841881275177,16.53815460205078,-1.0941671133041382,-1.7951157093048096,-0.013685601763427258,,,,,,,,,
1739376124.1089742,0.12358252869298876,0.9883028503154624,0.22887128364681245,-1.538566442589645,-1.4614061268645726,1.2488837968779212,0.20754733556382313,-0.0005573349240784705,0.0005993416089127204,-0.0003432954021456848,-0.0020506542302313685,-0.00031584662293192246,3.07562482480745e-05,0.002139977899371928,-0.1793939769268036,-49.75796890258789,3.6841881275177,16.63733673095703,-1.0813497304916382,-1.7951157093048096,-0.013685601763427258,,,,,,,,,
1739376124.1199708,0.1235844917035943,0.9882935095010051,0.22887377791153363,-1.5385537803771077,-1.461405960778327,1.2488885993257013,0.20754433562786528,0.0006804079317951955,-0.0013033078544416152,0.00041783499526179633,0.001578424826504965,-0.0005974452557753871,-0.0009263761498388447,0.0008589780088098704,-0.2071649730205536,-49.62704849243164,3.6603844165802,16.46674346923828,-1.0941671133041382,-1.8088486194610596,-0.0008682189509272575,,,,,,,,,
1739376124.1309085,0.12358367744831265,0.988282784431653,0.22887383439927272,-1.5385489554070093,-1.4614053051268636,1.2488901299380366,0.20754442943960025,0.0007434291838691784,0.00016951081440438437,0.0017485555511001002,0.0012602401270922136,-0.0008894093578468837,-0.00024865290500695526,0.00033067870358490935,-0.1793939769268036,-49.44852066040039,3.6603844165802,16.41516876220703,-1.0877584218978882,-1.8088486194610596,0.026597600430250168,,,,,,,,,
1739376124.141876,0.1235839489972463,0.9882854026514168,0.22887524981862953,-1.5385443774638647,-1.4614036815456182,1.2488924968112123,0.20754350921243458,0.0007267533814372525,-0.0006725793783097281,-0.00018478116984649835,0.0006797409917168823,0.0004763678735967016,-0.0002746934325090231,0.0002638677660983811,-0.1793939769268036,-49.47629165649414,3.6841881275177,16.34375762939453,-1.1014913320541382,-1.8015244007110596,-0.0072769103571772575,,,,,,,,,
1739376124.1519058,0.12358010462594363,0.9882918345484215,0.22886902528358094,-1.5385534087817978,-1.4614060621008342,1.2488894711835796,0.20754326602936313,-0.0007310243279777382,0.0006595261281003855,-0.0003705744400475142,0.000186798005659742,-0.0008161715099664483,-0.00035498555035293764,0.0009803710691337353,-0.1555902659893036,-49.60324478149414,3.73576283454895,16.49054718017578,-1.0813497304916382,-1.7758896350860596,-0.0008682189509272575,,,,,,,,,
1739376124.1619809,0.12358294282157616,0.988301586793248,0.22887231030578786,-1.5385575046417925,-1.461400423158359,1.248892729570912,0.20754526928954228,1.7054545134562345e-05,0.0006451015439765883,4.417671328108596e-05,0.00029804983890228726,0.001300532925899921,6.479590229638507e-05,-0.0007135533394186083,-0.1555902659893036,-49.70639419555664,3.6841881275177,16.51435089111328,-1.1014913320541382,-1.7758896350860596,0.0064559997990727425,,,,,,,,,
1739376124.172942,0.12358294673093587,0.9882959339077765,0.22887696249657905,-1.5385516211158023,-1.4614060627446135,1.2488878476447476,0.20753765372718722,0.00017800284447979124,-0.0006497417784146215,0.0016765991174443767,0.0015970148128969914,0.0002711537390042652,-0.0003190088519724856,-0.001394633376696183,-0.1555902659893036,-49.60324478149414,3.6603844165802,16.43897247314453,-1.0813497304916382,-1.7621567249298096,0.026597600430250168,,,,,,,,,
1739376124.1839817,0.12358285647886234,0.9882911560139591,0.2288671598126914,-1.5385516222046194,-1.4614053210556426,1.248888605286432,0.20753816461390784,-0.0009561291474869607,-0.00021099385393076993,-0.00028242093920507127,2.4904578034511712e-05,-0.0014291721466562072,3.4540256798209384e-06,-0.0019193394058481014,-0.1555902659893036,-49.55167007446289,3.71195912361145,16.43897247314453,-1.0877584218978882,-1.7685654163360596,0.03941498324275017,,,,,,,,,
1739376124.1949441,0.12358027882217992,0.9882931692005958,0.22886897707634568,-1.5385516211508017,-1.461406022536094,1.248888605341613,0.20754441220789946,-0.0003507765501907581,0.0007834751885111029,0.0005431404216406256,-0.0021381419481031473,0.00010676268978383863,0.0003502192761319483,-0.0022866872801124466,-0.1317865550518036,-49.55167007446289,3.6841881275177,16.43897247314453,-1.0813497304916382,-1.7685654163360596,-0.013685601763427258,,,,,,,,,
1739376124.2058876,0.12358434110856112,0.9882961690362158,0.22887351554687885,-1.5385554722436396,-1.4614053049371583,1.2488909865038214,0.20754242541650697,-0.0005194611062733633,0.0009540100944145085,-5.645463761173023e-06,-0.0012282157437844003,-0.0004464284740579073,0.00035630518041374174,0.0016351245904624283,-0.1793939769268036,-49.65481948852539,3.6603844165802,16.49054718017578,-1.0877584218978882,-1.7887070178985596,0.03941498324275017,,,,,,,,,
1739376124.2168763,0.1235855956009229,0.9882955504458479,0.2288717324173866,-1.538560960880118,-1.4614099993374723,1.248890987165994,0.20754792465545555,-0.00019742179801169517,-0.0005263699600079827,0.0006356409016390046,0.0006305238965951021,-0.0011582756951214936,-9.294713192267522e-05,0.0016015534182056254,-0.2071649730205536,-49.62704849243164,3.6841881275177,16.53815460205078,-1.0749410390853882,-1.7887070178985596,-0.04023589566349983,,,,,,,,,
1739376124.2269535,0.12358442252401106,0.9882949827450359,0.22887386647285887,-1.5385526822021764,-1.461405305156764,1.2488957617011256,0.2075436847802776,0.0006064879555592026,7.60194320915102e-05,0.00015776602573232826,0.0009653377034614427,0.0002122587634680788,0.0017650472720166072,6.818909103270936e-05,-0.2071649730205536,-49.57547378540039,3.6603844165802,16.43897247314453,-1.0877584218978882,-1.8015244007110596,-0.0072769103571772575,,,,,,,,,
1739376124.237967,0.12358057955852117,0.9882888596722313,0.22887593377576207,-1.5385499177763158,-1.461402559352948,1.2488950569229074,0.20754693310476124,-0.0008658011598248952,-0.000564092048012357,0.0011823923992395622,-0.0001730386771046681,0.0009785154204001454,0.0009709804761624619,0.0010305552058817746,-0.1555902659893036,-49.50009536743164,3.63261342048645,16.41516876220703,-1.0813497304916382,-1.7951157093048096,-0.0072769103571772575,,,,,,,,,
1739376124.2488832,0.1235838037911543,0.9882880880780706,0.22887382954028368,-1.5385453007017305,-1.4614049236163862,1.2488925035532916,0.2075385432839328,0.0008762756485850523,-0.0010410966070833671,-0.0004755726773525043,0.0008295549705252822,0.0008246492691661859,-0.000277278564998869,-0.001268256961442469,-0.2071649730205536,-49.55167007446289,3.6603844165802,16.39136505126953,-1.0877584218978882,-1.8015244007110596,0.03941498324275017,,,,,,,,,
1739376124.2589066,0.12358252448766344,0.9882926928382898,0.22887593654650046,-1.5385537007643408,-1.4614049766145432,1.2488923128237812,0.20754053271234163,0.0007303967699998752,0.0007106752835044086,0.0019488640254618486,-0.0010736685798132693,-0.00013757047317441287,-0.001160658612865333,-0.00046085628787107083,-0.1793939769268036,-49.60324478149414,3.63261342048645,16.46674346923828,-1.0813497304916382,-1.7621567249298096,0.019273381680250168,,,,,,,,,
1739376124.2699492,0.12358878414521735,0.988300292289163,0.22887223003312523,-1.5385572659434141,-1.4614053046042552,1.2488900534853378,0.20754278253840436,0.0018784184865368006,0.0016897825870696445,0.0003124303413557881,0.000205009952906858,0.0005779134798821917,-0.0006580389329799,-0.000919209806859103,-0.2071649730205536,-49.67862319946289,3.71195912361145,16.51435089111328,-1.0877584218978882,-1.7685654163360596,0.03941498324275017,,,,,,,,,
1739376124.2799888,0.12358462922772971,0.9882976524373976,0.22887198652530882,-1.5385572662583449,-1.461404375982227,1.2488909796380327,0.2075389181794867,0.00046377995232475957,-7.271915177923323e-05,0.00044663449280669796,0.0004001829110105653,2.4963140062907424e-05,0.0006673083926747386,-0.0012908015689277593,-0.1793939769268036,-49.65481948852539,3.6841881275177,16.51435089111328,-1.1079000234603882,-1.7758896350860596,0.03300629183650017,,,,,,,,,
1739376124.2909124,0.12357704053201883,0.9882921809221749,0.22886817651141073,-1.5385480557967575,-1.4614053051111258,1.248889088074165,0.2075401529197942,-0.0018997434799271624,-0.001490771029265877,-0.000715070267498764,0.0015629773875985079,-0.0009892472085923836,6.20676885168379e-05,0.0012971012973768152,-0.10798283666372299,-49.57547378540039,3.73576283454895,16.39136505126953,-1.0877584218978882,-1.7685654163360596,0.026597600430250168,,,,,,,,,
1739376124.3009436,0.12358552768652789,0.9882911716891177,0.22887176042849694,-1.5385480900345252,-1.4614042145041792,1.2488923866328956,0.20754373913495378,-0.0002745895879271966,9.768686395986338e-05,-0.0002554185018122056,0.0011017839192689887,0.00043950276433621447,-0.0007504630457639702,0.0009820881254771275,-0.2309686839580536,-49.55167007446289,3.6841881275177,16.41516876220703,-1.0877584218978882,-1.7685654163360596,0.019273381680250168,,,,,,,,,
1739376124.3119678,0.12358099400308056,0.9882907735900398,0.22887420285841797,-1.538551390571518,-1.4614045474366941,1.24889474091116,0.20754291392761634,0.0004022489931229526,8.599087149483155e-05,0.001277902280654262,-0.00013372160842734768,-0.0001004280500017212,0.001113524941731183,-0.00037263571349232307,-0.1317865550518036,-49.57547378540039,3.6841881275177,16.43897247314453,-1.0941671133041382,-1.7822983264923096,-0.0008682189509272575,,,,,,,,,
1739376124.3229673,0.12357978646279995,0.9882948434532403,0.22886526059075696,-1.538557266257049,-1.4614045469462207,1.2488950609030134,0.20754523677388861,-0.0007741248307931209,0.0005577436235443512,-0.0013234153682890285,-0.000638508871320943,0.0007345321207629113,0.0005529955483696701,0.0015737857507596097,-0.1555902659893036,-49.60324478149414,3.73576283454895,16.51435089111328,-1.0941671133041382,-1.7951157093048096,-0.020094294100999832,,,,,,,,,
1739376124.3338926,0.12357983122954308,0.9882965905101775,0.2288738580014491,-1.538551620799521,-1.4614045472773043,1.2488972670595404,0.20754342448749077,-0.002692805885702425,0.001476140211847597,-0.0001635865494122397,0.00025518320379927756,0.00014843808488804714,0.00032313455409007063,0.0011747746697007432,-0.1555902659893036,-49.62704849243164,3.6603844165802,16.43897247314453,-1.0941671133041382,-1.8015244007110596,-0.0008682189509272575,,,,,,,,,
1739376124.3449664,0.12358294718249409,0.9882874223636336,0.2288731830856522,-1.5385548514391278,-1.4614037362498085,1.2488973888523478,0.20754296825229734,0.00011476333694950198,-0.000961944514170619,0.00010687697941802137,-0.0005040311907408661,0.001956184454055515,0.0016544462584674458,-0.0012888321613886583,-0.1555902659893036,-49.50009536743164,3.71195912361145,16.46674346923828,-1.0877584218978882,-1.8015244007110596,-0.0008682189509272575,,,,,,,,,
1739376124.3558643,0.12358222381203562,0.9882912713378922,0.2288728302812414,-1.538553698076384,-1.4614053050940725,1.2488925754704387,0.20754640644723232,0.0004859342372667122,0.0005979562736019057,-0.00012975821626838336,-0.0006871875708426362,-0.0008669718767102715,7.213692065197004e-05,0.0008438445272928613,-0.1555902659893036,-49.52389907836914,3.71195912361145,16.46674346923828,-1.0877584218978882,-1.7887070178985596,-0.0072769103571772575,,,,,,,,,
1739376124.3669207,0.12358252549464523,0.9882946435700958,0.22887212359037423,-1.5385552417105546,-1.4614045474428505,1.2488932726168327,0.20753973316173355,0.0006923610429893411,-0.0010330017280614022,-0.0006077554221118869,-0.000763208694667904,0.0007917307088165389,-0.0002890130890415906,-0.0003708581905682044,-0.1793939769268036,-49.60324478149414,3.71195912361145,16.49054718017578,-1.0941671133041382,-1.7758896350860596,0.03941498324275017,,,,,,,,,
1739376124.3769414,0.12358294575657078,0.9882986828190053,0.2288720741170685,-1.5385575046728335,-1.4614053051029288,1.248892615679051,0.20754235995127762,-2.6427811415502913e-05,0.0007167187770253296,-0.00028966810861253084,-0.0016856319896338065,0.0007085294391173673,0.0010824815329707367,-0.00017777450564992697,-0.1555902659893036,-49.65481948852539,3.6841881275177,16.51435089111328,-1.0877584218978882,-1.7887070178985596,0.012864691205322742,,,,,,,,,
1739376124.3869438,0.1235801050709922,0.9882985768970992,0.2288703325686347,-1.5385536553984023,-1.4614058912774295,1.2488919760020765,0.2075462535459067,-0.0003399400067855405,0.0013784912982918573,1.3293268139958447e-05,-0.0003318800845858769,-0.0007964739361523344,0.001096018972130565,0.0018121049526493085,-0.1555902659893036,-49.65481948852539,3.71195912361145,16.43897247314453,-1.0749410390853882,-1.7557480335235596,-0.020094294100999832,,,,,,,,,
1739376124.3979442,0.12357636515910225,0.9882918692172602,0.22887110420514695,-1.5385507162683985,-1.4614044952551515,1.2488931306035431,0.20753897626319545,-0.0023055826292919853,-0.0016624203128595115,-0.00038570541554757006,-9.614221584161077e-05,0.00020083677944769185,0.0011599571968198149,-0.002942700100098825,-0.10798283666372299,-49.55167007446289,3.6603844165802,16.46674346923828,-1.0941671133041382,-1.7685654163360596,0.05955658480525017,,,,,,,,,
1739376124.408922,0.1235794301921075,0.9882891695911651,0.22887494744393322,-1.5385498648765499,-1.4614036815453235,1.2488958740826477,0.20754909997947008,-0.001083779415376213,-0.0010277281091040974,0.0022726320938741213,-0.0006140295251457341,0.0003166159171046944,0.0006264068320394754,0.0009952143065226147,-0.10798283666372299,-49.52389907836914,3.6841881275177,16.41516876220703,-1.1014913320541382,-1.7887070178985596,-0.013685601763427258,,,,,,,,,
1739376124.418942,0.12358438398304708,0.9882967985134127,0.22887388413242357,-1.5385515189706986,-1.4614053051029288,1.248897210618169,0.20754906118749336,0.000858178673755024,0.0015737941075968606,-0.00028018902437655776,-0.0016742762505045394,-0.0005012544943523519,0.0009220409549891707,-0.0001343950427312533,-0.1793939769268036,-49.62704849243164,3.6603844165802,16.43897247314453,-1.0877584218978882,-1.8015244007110596,-0.013685601763427258,,,,,,,,,
1739376124.4289863,0.12358439567192968,0.9882928675336093,0.22887669161450788,-1.5385554457872952,-1.4614056578190087,1.2488972493522554,0.2075381869286145,7.040149377655776e-05,-0.00018573720745259165,0.0009311318030336132,-0.00010848805996834611,-0.0006584507080402347,0.00018585954420720802,-0.0013687085436284523,-0.1793939769268036,-49.57547378540039,3.6603844165802,16.49054718017578,-1.0877584218978882,-1.8015244007110596,0.03941498324275017,,,,,,,,,
1739376124.439933,0.1235866572993135,0.9882919440350367,0.2288742787330084,-1.5385554749728705,-1.4614036815476092,1.2488944254151622,0.20754304160847922,0.0020657698427659814,-0.0005514395345071486,-0.0009312059034820051,-6.891174441127866e-05,0.0008968195160728944,-0.0008219574454676176,-0.0006331213718757281,-0.2071649730205536,-49.57547378540039,3.6841881275177,16.49054718017578,-1.1014913320541382,-1.7887070178985596,-0.0008682189509272575,,,,,,,,,
1739376124.4509244,0.12358081503492054,0.988293273410892,0.22887633264769405,-1.5385488618561267,-1.461403079311801,1.2488946336923998,0.2075426349508386,-0.00023774321948900423,-0.0003954104599264729,0.0011029610612482187,0.0007127048908199832,0.0003711936274847032,-0.0010715738510323391,0.0005744985982816535,-0.1555902659893036,-49.55167007446289,3.6603844165802,16.43897247314453,-1.0749410390853882,-1.7822983264923096,0.03300629183650017,,,,,,,,,
1739376124.4609752,0.12358497103819754,0.9882907741606669,0.22887000016545286,-1.5385462730366712,-1.4614024391116283,1.2488958740765175,0.20754445467182583,0.001786354198964723,-0.0006462717613141241,-0.0018706935745063688,0.0015208096919156835,0.0016760959478489012,-0.00036802492762919584,0.002702669308817848,-0.1793939769268036,-49.57547378540039,3.71195912361145,16.36756134033203,-1.1079000234603882,-1.7887070178985596,-0.0008682189509272575,,,,,,,,,
1739376124.471954,0.1235798052986604,0.9882921760650198,0.228868316632836,-1.5385530107398129,-1.4614053036103032,1.2488914881701305,0.20754188398254464,0.000666821617226785,-0.0015047627940249068,-0.0009192294394710904,-0.0012692168944285261,-0.00028868516224926644,-0.0016490737493458291,-0.0018254096255035843,-0.1317865550518036,-49.57547378540039,3.73576283454895,16.46674346923828,-1.0877584218978882,-1.7621567249298096,0.03941498324275017,,,,,,,,,
1739376124.4828587,0.12358282994728939,0.9882981207614034,0.2288741999805985,-1.5385572321014072,-1.4614066952724007,1.2488934878939673,0.20754632632230077,-4.7981506326090084e-05,0.0002660015466060462,0.00017346071297413802,-0.0014626352671010122,-0.00046148803295073136,-0.00022443427842734365,-0.00018409911113901456,-0.1555902659893036,-49.65481948852539,3.6841881275177,16.51435089111328,-1.0749410390853882,-1.7685654163360596,0.0064559997990727425,,,,,,,,,
1739376124.4928634,0.12358354466606922,0.9882972934756898,0.22887207552110012,-1.5385516182794552,-1.4614032305485973,1.24889511642453,0.2075487528552324,0.00046568038909859547,0.0016250559136279509,4.530054012395238e-06,0.0005452101121546937,0.001268988402353175,0.0007208199092036403,0.0008229599901111163,-0.2071649730205536,-49.62704849243164,3.6841881275177,16.43897247314453,-1.0685323476791382,-1.7822983264923096,-0.020094294100999832,,,,,,,,,
1739376124.502949,0.12358665717873389,0.988291158896978,0.22887231806857528,-1.5385495425374611,-1.4614060664061506,1.2488966317447712,0.20754080834408922,0.0014204154419906931,-0.0015109715993240846,7.010210908982338e-05,0.00046756621466639885,-0.0002093428538360462,-0.0003273188473438568,-0.0017974330819862981,-0.2071649730205536,-49.55167007446289,3.6841881275177,16.43897247314453,-1.0813497304916382,-1.7951157093048096,0.05314789339900017,,,,,,,,,
1739376124.5139327,0.12358665621820922,0.9882911675280083,0.22887093913652906,-1.5385509458334425,-1.4614039811223443,1.2488966317447712,0.20754221746825244,0.0005459149714048418,-0.0007314841241706086,7.079829797500763e-05,0.0005607381337148609,0.0011753921967054095,0.0002677468916891134,0.0010393229021438083,-0.2071649730205536,-49.55167007446289,3.71195912361145,16.46674346923828,-1.1014913320541382,-1.7951157093048096,0.0064559997990727425,,,,,,,,,
1739376124.5239615,0.12358471125219132,0.9882928810117654,0.22887525024403194,-1.538557266534854,-1.4614044073949755,1.2488958740846927,0.20754454513763423,0.0003090098190786676,0.0005562927811570696,0.0007038613286964347,-0.0018434995838384058,0.001033103307043536,-0.00014592356650834995,-0.0005264987570445403,-0.1793939769268036,-49.57547378540039,3.6841881275177,16.51435089111328,-1.0941671133041382,-1.7887070178985596,-0.013685601763427258,,,,,,,,,
1739376124.5359418,0.12357948697413274,0.9882911636761543,0.22887104424375465,-1.5385516211144583,-1.4614052711738528,1.2488966317447712,0.20754667842443206,-0.002152693481346482,-0.0005742474664533629,-0.0020568735757312754,0.00027441339563635857,0.0006153475882410105,-0.00016388445514917184,-0.0001130074008510528,-0.10798283666372299,-49.55167007446289,3.71195912361145,16.43897247314453,-1.0877584218978882,-1.7951157093048096,0.0064559997990727425,,,,,,,,,
1739376124.546965,0.1235845515577682,0.9882948866683161,0.22887306896037363,-1.5385530121395283,-1.4614045474427866,1.2488951164246145,0.20754946589392326,0.0012933562676590445,-0.0016920520326018946,-0.0014206863226020783,7.278125479355459e-05,-9.188769956282848e-05,-0.0002318077706875982,0.0010151268021655507,-0.1793939769268036,-49.60324478149414,3.71195912361145,16.46674346923828,-1.0941671133041382,-1.7822983264923096,-0.020094294100999832,,,,,,,,,
1739376124.557937,0.12358259319185318,0.9882928801915005,0.2288744716706138,-1.5385515475245874,-1.4614052467765333,1.2488944110923448,0.2075476335690062,-0.0008749507619936357,-0.00031717719099159415,0.0004153439295014128,-0.0008163415097164652,0.0004601290561794724,8.371187210338748e-05,0.00010528360046527956,-0.1555902659893036,-49.57547378540039,3.6841881275177,16.43897247314453,-1.0877584218978882,-1.7758896350860596,-0.013685601763427258,,,,,,,,,
1739376124.5698571,0.12358294719808545,0.9882985220058107,0.2288750267140378,-1.538553700588961,-1.4614053051025995,1.2488951164249098,0.20754999359807702,0.0005286098385240736,0.0008007678110699926,0.0013050963393374955,-5.6131308710369505e-06,-0.00030995087561674445,-7.233667521907491e-05,0.0018300017721257981,-0.1555902659893036,-49.65481948852539,3.6841881275177,16.46674346923828,-1.0877584218978882,-1.7822983264923096,-0.020094294100999832,,,,,,,,,
1739376124.579923,0.12358149400496606,0.9882965991767908,0.22886901599148315,-1.538547746633277,-1.4614045472773072,1.2488951164246145,0.20754443871194903,0.0003363532100314674,0.0009526385128714731,-0.0010587646359835928,0.0010043234531814636,0.0006098292814334581,0.0001974586020146512,0.001498090844342732,-0.1793939769268036,-49.62704849243164,3.6841881275177,16.41516876220703,-1.0941671133041382,-1.7822983264923096,-0.013685601763427258,,,,,,,,,
1739376124.5900488,0.12358346179614678,0.9882947961367399,0.22886642920934652,-1.5385572322098497,-1.4614060627630043,1.2488957534036835,0.20754776624309534,-9.836238010794041e-05,3.656280184409619e-05,-0.0018788891734766709,-0.0021781677015013257,-6.170763974319411e-05,4.274674518546409e-05,-0.0004533984301143331,-0.2071649730205536,-49.60324478149414,3.75956654548645,16.51435089111328,-1.0813497304916382,-1.7887070178985596,-0.013685601763427258,,,,,,,,,
1739376124.6009624,0.12358294588293255,0.9882986878738992,0.22887418477485869,-1.5385516211142645,-1.4614060627630072,1.248895587374213,0.2075481266982743,0.0013862768495184795,0.0006477179425391352,0.00017920229468860408,0.0010113914719059713,-8.653430049091805e-05,0.0008276253518927393,-0.0003066826991690221,-0.1555902659893036,-49.62704849243164,3.6603844165802,16.43897247314453,-1.0813497304916382,-1.7822983264923096,-0.013685601763427258,,,,,,,,,
1739376124.6119041,0.12358251965272393,0.988293114099714,0.22887430543255355,-1.5385516182800336,-1.4614060627630072,1.2488951164272728,0.2075496143536419,0.0008712077051356862,-0.00013330985976486458,-0.00013941849790108702,0.00046233079290049824,-0.00041370633823479305,-0.00047551088940991806,0.0008280932878269717,-0.1793939769268036,-49.57547378540039,3.6841881275177,16.43897247314453,-1.0813497304916382,-1.7822983264923096,-0.027418512850999832,,,,,,,,,
1739376124.6219144,0.12358252492119047,0.988292880052752,0.2288695001499262,-1.538547669683896,-1.4614059003651059,1.2488966317447712,0.2075508563858718,0.00042034126105220944,0.0008916022681443093,-0.001590310845383968,0.0003568943648821306,-0.0002571313888282908,2.8179941548187482e-05,0.0019982136997353573,-0.1793939769268036,-49.57547378540039,3.75956654548645,16.41516876220703,-1.0813497304916382,-1.7951157093048096,-0.027418512850999832,,,,,,,,,
1739376124.6319203,0.12358260127575156,0.9882911671000673,0.22888089500257577,-1.5385537008675843,-1.4614068159506681,1.2488976920289228,0.2075504990677283,-0.00020485508334833983,-0.001493074494369641,0.003455000541166011,-0.0003872559190519234,-0.0010599278670123204,0.00010884768978944648,0.0013331107755216662,-0.1555902659893036,-49.55167007446289,3.60880970954895,16.46674346923828,-1.0749410390853882,-1.7951157093048096,-0.027418512850999832,,,,,,,,,
1739376124.6428823,0.12358157789999635,0.9882965905103652,0.22887490963884846,-1.5385534699513284,-1.46140530444068,1.2488966448446794,0.2075392657343529,-0.00029633916830475334,0.0011695882864645795,0.00012036932599897181,9.805131264257439e-05,-0.00034723655346708754,-3.170059504667902e-05,-0.0014158559898166851,-0.1793939769268036,-49.62704849243164,3.6841881275177,16.46674346923828,-1.0877584218978882,-1.7951157093048096,0.03300629183650017,,,,,,,,,
1739376124.6549237,0.12358438490502323,0.9882929059421709,0.22887211334083696,-1.5385468537896057,-1.4614060220393732,1.2488951164246391,0.2075498193306993,0.0017059271207587193,-0.0015546075813753428,0.00012569701936618614,0.00167352948383754,0.0001554146629138564,-0.0013230802730246404,0.0005135570645279433,-0.1793939769268036,-49.57547378540039,3.6841881275177,16.41516876220703,-1.0813497304916382,-1.7822983264923096,-0.020094294100999832,,,,,,,,,
1739376124.6669407,0.12358433093707401,0.9882948822695881,0.22886820297365923,-1.5385495280625054,-1.461406319820304,1.2488969357147242,0.2075484738850033,-0.0005882394371561844,0.00038993177854067886,-0.0013573263999197803,0.0007069059107719132,0.00011220591301800299,0.0013776342427694634,0.000815423351630852,-0.1793939769268036,-49.60324478149414,3.73576283454895,16.41516876220703,-1.0749410390853882,-1.7887070178985596,-0.0072769103571772575,,,,,,,,,
1739376124.6779423,0.12358457675755431,0.988293316892814,0.22887128334117593,-1.5385516211259855,-1.4614060627620653,1.248895116426612,0.20754038827600338,0.0013204157653650612,-0.0009563756045527302,-2.419653385585252e-05,-0.0003317726321580439,0.00037027981845210416,-0.00039515978177213863,-0.0028132523176343234,-0.1793939769268036,-49.55167007446289,3.73576283454895,16.43897247314453,-1.0813497304916382,-1.7822983264923096,0.03300629183650017,,,,,,,,,
1739376124.6899261,0.12357986830765379,0.9882949310011775,0.2288720731622892,-1.538551621009478,-1.4614053051029288,1.2488934930288091,0.20754246645157678,4.697356835477776e-05,-0.0008240760499459904,-0.00020943190223623965,0.00021409043605294685,0.000148627706392856,-0.0004815637024211788,-0.0007677011376436704,-0.1555902659893036,-49.60324478149414,3.6841881275177,16.43897247314453,-1.0877584218978882,-1.7685654163360596,0.03941498324275017,,,,,,,,,
1739376124.6999424,0.12358454148437614,0.9882959220935505,0.22887385672202024,-1.538552862024126,-1.4614068144635295,1.2488952341621853,0.20754827786616906,-0.0001266375125935255,0.0003226396957793378,0.0012230279502022838,0.00019732042849365924,-0.0009863145819475618,-0.0008262441235694795,0.0022977131954126997,-0.1793939769268036,-49.57547378540039,3.6603844165802,16.46674346923828,-1.0749410390853882,-1.7822983264923096,-0.03382720425724983,,,,,,,,,
1739376124.710874,0.12357986040319736,0.9882949478034952,0.22887207796925493,-1.5385536073662605,-1.4614038508056184,1.2488958799008876,0.20754585747014492,-0.0005039183082314648,0.0005420840176571112,0.0012396647744068634,0.000998717490654397,-0.000381300333822896,-6.935404461593572e-07,0.0015018549600580937,-0.1555902659893036,-49.60324478149414,3.6841881275177,16.46674346923828,-1.0877584218978882,-1.7887070178985596,-0.013685601763427258,,,,,,,,,
1739376124.7219722,0.12358661657110213,0.9882994073256002,0.22887385675804967,-1.5385516211139285,-1.461400973660341,1.248895155724339,0.2075468935533025,0.001568717655862642,0.0022072798115253594,0.00043016485666532377,-0.00011829891603333607,0.00021710872532063204,-0.001248432844964519,-0.00013798653656846822,-0.2071649730205536,-49.62704849243164,3.6603844165802,16.43897247314453,-1.0877584218978882,-1.7822983264923096,-0.0072769103571772575,,,,,,,,,
1739376124.7329211,0.12358073708821332,0.9882972167570633,0.22887210630305477,-1.5385498034795544,-1.4614049721561073,1.2488958801143084,0.20754766485295284,0.0007579529482268805,-0.0003155164343292092,0.0007265272065302378,0.00228877764008946,-0.00034002668312537555,0.00014340316070296066,0.0004680783408216974,-0.1555902659893036,-49.60324478149414,3.6841881275177,16.41516876220703,-1.0813497304916382,-1.7887070178985596,-0.0008682189509272575,,,,,,,,,
1739376124.74294,0.12358454427906763,0.9882976903501893,0.22887210939979707,-1.5385537009037202,-1.4614024743983964,1.248897051460494,0.20753908299443127,0.00069699913632534,0.0009362656949519049,0.0002487997007535772,1.2176242990079284e-05,-0.0005897749390651246,-0.0001435509018546472,-0.0023067682912677632,-0.1793939769268036,-49.60324478149414,3.6841881275177,16.46674346923828,-1.0749410390853882,-1.7887070178985596,0.03300629183650017,,,,,,,,,
1739376124.754931,0.12358263097402439,0.9882966021176386,0.22887282882334847,-1.5385527282072595,-1.4614036814659037,1.2488958745758558,0.20754668054401526,-0.0011194601779659025,0.0012294209262121935,-0.00045988484283404694,0.0001921507043775607,0.0008978390663845067,-0.00040228679067614453,-0.0009771077290722011,-0.1555902659893036,-49.62704849243164,3.71195912361145,16.49054718017578,-1.1014913320541382,-1.7887070178985596,0.0064559997990727425,,,,,,,,,
1739376124.7659817,0.12358431349523431,0.988297686030706,0.22887105047173806,-1.5385533692599749,-1.461403681490437,1.2488954184026662,0.2075437132207707,0.00045350458730018654,0.0008710898652218263,0.000577808230712529,-0.0007543876918330865,0.0007444831014977486,0.0001982079211496306,-0.002310941403401625,-0.1793939769268036,-49.60324478149414,3.73576283454895,16.46674346923828,-1.1014913320541382,-1.7758896350860596,-0.0072769103571772575,,,,,,,,,
1739376124.7768574,0.12358057567185253,0.9882949860954219,0.22886999574726996,-1.5385473655940474,-1.4614045473876691,1.2488951164305961,0.20753982742398178,-0.001577186607254089,-0.00045058928121166994,-0.001229609409606782,0.0018414225930296004,-0.0008946378757470969,-0.0006401886003159248,-0.0014861734977523171,-0.1555902659893036,-49.57547378540039,3.71195912361145,16.39136505126953,-1.0941671133041382,-1.7822983264923096,0.026597600430250168,,,,,,,,,
1739376124.786867,0.12358271039702727,0.9882976889552814,0.22887208520573973,-1.53855370047271,-1.4614053051029279,1.2488951164246145,0.20754669375039927,-0.0008537348320476134,0.0004582855132950367,-0.000339265945482473,6.064017203438678e-05,-0.000404089196571468,0.0005968831988733246,0.0012930890741840815,-0.1555902659893036,-49.60324478149414,3.6841881275177,16.46674346923828,-1.0877584218978882,-1.7822983264923096,0.0064559997990727425,,,,,,,,,
1739376124.7969322,0.12358242318976406,0.9882969844960172,0.22887307335086526,-1.5385554750780552,-1.4614035191477168,1.248899214343158,0.20754602771653446,-0.0001045461205933676,0.0004306523070575196,-0.0007297809882293872,-0.0018467540153037552,0.0016117340837711754,0.000897917117080841,0.000739237851023217,-0.1793939769268036,-49.60324478149414,3.71195912361145,16.49054718017578,-1.1014913320541382,-1.7887070178985596,-0.013685601763427258,,,,,,,,,
1739376124.8069887,0.12358360448040927,0.9883007016865106,0.2288731797895767,-1.538553010774662,-1.4614045474401003,1.2488960311246868,0.20754831961433606,-0.0006977568780520112,0.0020584785285982883,-0.0004087095029298393,-0.00012020501442082902,-0.00035686059539072747,0.00040199602258848897,-0.00025570927615934286,-0.1793939769268036,-49.65481948852539,3.71195912361145,16.46674346923828,-1.0941671133041382,-1.7887070178985596,-0.0072769103571772575,,,,,,,,,
1739376124.8189085,0.12358271028688683,0.9882956926801447,0.22887318169953824,-1.5385548269845637,-1.461402046715681,1.2488962335970066,0.20754963757120695,-0.00033779407542466514,0.0016494444574570461,-0.0005933158736087955,-0.0010787610334177858,0.00045618315524046933,0.0008865632841200274,0.0012352249294600344,-0.1555902659893036,-49.60324478149414,3.71195912361145,16.49054718017578,-1.0877584218978882,-1.7887070178985596,-0.020094294100999832,,,,,,,,,
1739376124.8299286,0.1235866576612223,0.9882965905119054,0.22887699949737905,-1.5385527056706823,-1.4614029238610147,1.2488998107136708,0.20754295427897396,0.0015158587702739268,0.0014730994727683885,0.0014438124392974862,-0.0008857576387296566,0.00036904709570561786,0.0013845282698952011,-0.0005169538816053754,-0.2071649730205536,-49.62704849243164,3.63261342048645,16.46674346923828,-1.1079000234603882,-1.7951157093048096,0.03941498324275017,,,,,,,,,
1739376124.841883,0.12358080460595192,0.9882948693585138,0.2288728104057661,-1.5385506312186075,-1.4614068333394943,1.248898449060924,0.2075418752522352,0.0004485271756905938,-0.00023463677645700176,0.0002746247269951853,0.00041256150413871145,-0.0006932201219018912,0.00034983493951112107,-0.0020326714501148497,-0.1555902659893036,-49.60324478149414,3.6841881275177,16.46674346923828,-1.0749410390853882,-1.8015244007110596,0.03941498324275017,,,,,,,,,
1739376124.8538594,0.12357982996830094,0.9882980009241593,0.22887313265761489,-1.5385534161847598,-1.4614042140075738,1.248898141807501,0.20754264214808812,-0.0013458514342687428,-0.00015596169433529486,-7.727170335304027e-05,-0.0004414759003637757,-2.144801560986405e-05,6.396226128231244e-05,-0.0016397033595585975,-0.1555902659893036,-49.60324478149414,3.6841881275177,16.49054718017578,-1.0877584218978882,-1.7685654163360596,0.03300629183650017,,,,,,,,,
1739376124.863972,0.12358284289278033,0.9882949560440764,0.22887885111893716,-1.5385498371310309,-1.4614051844157603,1.2488943604596703,0.20754102345693992,0.0003709609828272635,-0.0013272933832466345,0.0014477083756131413,0.0011329358868892995,-0.00140210056051982,-0.001168462451302611,-0.0021797538885845523,-0.1555902659893036,-49.60324478149414,3.63261342048645,16.41516876220703,-1.0877584218978882,-1.7758896350860596,0.019273381680250168,,,,,,,,,
1739376124.874957,0.12357835454953593,0.9882959222015706,0.22887314392851404,-1.538553862793449,-1.4614052870566736,1.2488985987706323,0.20754770425169447,-0.0018213860818948307,-0.0006231104548441065,-0.0005727995298665615,0.00041402063168183685,-0.00026509381350101573,0.00031989797298097615,0.0005391978921972969,-0.1317865550518036,-49.57547378540039,3.71195912361145,16.46674346923828,-1.0877584218978882,-1.7758896350860596,-0.0008682189509272575,,,,,,,,,
1739376124.884982,0.12358200013224732,0.9882959010450869,0.22887694019160792,-1.5385565167294215,-1.4614018858075668,1.2489004718495613,0.20754543004597417,-0.0017361362219589958,-0.000439457918653598,0.0009539111376826547,-0.0017233521763853421,0.0004276207504332311,0.0013848883698022064,-0.0014904226678990628,-0.1555902659893036,-49.60324478149414,3.6603844165802,16.49054718017578,-1.0877584218978882,-1.7887070178985596,0.0064559997990727425,,,,,,,,,
1739376124.8959017,0.1235846626384675,0.9882919071001974,0.22887491664673681,-1.5385516198255524,-1.4614013147861153,1.248898643102923,0.2075457018881778,0.0010311642162940627,-0.0006648878996234134,0.0012140587405861602,0.0005352646062780702,0.00089761155138387,-0.0006527015851215342,0.00027694539730598413,-0.1793939769268036,-49.55167007446289,3.6603844165802,16.43897247314453,-1.1079000234603882,-1.7758896350860596,-0.020094294100999832,,,,,,,,,
1739376124.907937,0.1235829442410152,0.9882914102024455,0.2288751477461726,-1.538556200254273,-1.4614034612495033,1.248898668118073,0.20754609389352557,0.00048445949992046534,-0.0007555954920191372,0.0006185654046687274,-0.0007876210153513073,0.00055364640576304,0.0011761631312173508,-9.339471366575152e-05,-0.1555902659893036,-49.55167007446289,3.6841881275177,16.49054718017578,-1.0941671133041382,-1.7822983264923096,0.012864691205322742,,,,,,,,,
1739376124.9179523,0.12358259644022339,0.9882928811557985,0.22887318619679614,-1.5385554495723013,-1.4614052999097762,1.248895875773633,0.20754502945344824,-5.339835005311092e-05,-0.00024273051898739394,1.205887937580721e-05,-0.0011501780077325934,-0.0006324994575804247,-0.000817517212161759,4.8453234699575264e-05,-0.1555902659893036,-49.57547378540039,3.6603844165802,16.49054718017578,-1.0877584218978882,-1.7887070178985596,0.012864691205322742,,,,,,,,,
1739376124.9289687,0.12358223658068247,0.9882993687836374,0.22887397047789376,-1.538552974346646,-1.4614057342939148,1.248900334421793,0.20754772402754643,0.0008489476279620464,0.00171000917489091,2.5439755193527977e-05,4.876702174043938e-05,-0.0011600259392926656,0.0016945047691118574,-0.00032205759520260064,-0.1555902659893036,-49.65481948852539,3.6603844165802,16.46674346923828,-1.0749410390853882,-1.7951157093048096,-0.0008682189509272575,,,,,,,,,
1739376124.9408703,0.12358071067170599,0.988292880157254,0.22887385690225082,-1.5385537059540324,-1.4614031191459962,1.2488966922594988,0.2075444563952115,-0.00045977475600487495,-0.0006828425480656803,0.0007527688500430712,9.118440331113907e-05,0.0017086756676237516,0.00110216624581742,-0.0009255167385274956,-0.1555902659893036,-49.57547378540039,3.6603844165802,16.46674346923828,-1.0941671133041382,-1.7822983264923096,0.026597600430250168,,,,,,,,,
1739376124.9509492,0.12358379015123384,0.9882952289412736,0.22887629774903423,-1.5385516346099888,-1.4614045295561198,1.248897737097876,0.20754684157902445,0.0010453886088674642,-0.000285605556298143,0.0007079077470931434,-0.0006111370767548368,0.00022732574504495548,0.0006790475210762848,0.0014485199148012882,-0.2071649730205536,-49.60324478149414,3.6603844165802,16.46674346923828,-1.0941671133041382,-1.7951157093048096,0.0064559997990727425,,,,,,,,,
1739376124.9619102,0.12358623886712453,0.9882960245987883,0.228871053852215,-1.5385518591014569,-1.4614064583799569,1.2488987593133927,0.20754541041757582,0.0023235936910643105,-2.165211358111358e-05,-0.0006315682885041269,0.0005447207134113203,-0.0013812093381813826,-0.0005668592622234518,0.0015924276822284463,-0.2309686839580536,-49.57547378540039,3.71195912361145,16.43897247314453,-1.0749410390853882,-1.7758896350860596,-0.0072769103571772575,,,,,,,,,
1739376124.9719226,0.12358221176351238,0.9882956161108045,0.22887317007064656,-1.538550971088477,-1.4614060071220907,1.2488977902699185,0.2075468545735927,-0.00018152295272329705,0.0005539209769524277,-0.000502248045366243,-0.0005728057945408018,-0.00021467713923144235,-0.0005688749960042943,-0.00014270984423036875,-0.1793939769268036,-49.60324478149414,3.71195912361145,16.46674346923828,-1.0813497304916382,-1.7685654163360596,0.0064559997990727425,,,,,,,,,
1739376124.982855,0.12358123419359435,0.9882952589244534,0.2288752264831652,-1.5385545652114851,-1.4614053050844302,1.2488980904727631,0.20754336057793346,-0.00045586632220212986,-0.00012220790610727438,0.0012317347934005694,0.00011391376766938004,-0.000414694883913038,-0.0006816941700137449,-0.001245776151717864,-0.1317865550518036,-49.57547378540039,3.6841881275177,16.49054718017578,-1.0877584218978882,-1.7685654163360596,0.03300629183650017,,,,,,,,,
1739376124.9938896,0.1235789859190129,0.9882951506594271,0.22887420143748102,-1.5385515445694835,-1.4614009225429079,1.2488947180308132,0.20754516969995435,-0.000543843857116725,-0.00026827215146271244,0.0008426732107996238,-9.738367189173397e-05,0.000745847168799111,-0.000749150530290407,-0.000752587244746301,-0.1317865550518036,-49.60324478149414,3.6841881275177,16.43897247314453,-1.0941671133041382,-1.7758896350860596,0.019273381680250168,,,,,,,,,
1739376125.003929,0.12358442150177004,0.9882929854428144,0.22886999541923295,-1.5385509099783918,-1.461401718171033,1.2489006031316934,0.2075394395185188,0.0009447358556391728,-0.0003070562051704808,-0.0014378985622566002,0.0010000641182952186,0.0013744140678574215,0.0005250439380147687,-0.0011825702555246938,-0.1793939769268036,-49.57547378540039,3.71195912361145,16.46674346923828,-1.0813497304916382,-1.7887070178985596,0.03300629183650017,,,,,,,,,
1739376125.0139356,0.12358090729946423,0.9882929965707947,0.2288749087210306,-1.5385554834290882,-1.4614045294906064,1.2488998843110137,0.20754835969909327,-0.0016331970646379587,-0.00043947248268532584,0.00070787462418936,-0.0003827204035924664,-0.0001184431829513019,0.0014599278023559752,-0.00072518379012448,-0.1317865550518036,-49.57547378540039,3.6841881275177,16.49054718017578,-1.0941671133041382,-1.7822983264923096,-0.0072769103571772575,,,,,,,,,
1739376125.0249488,0.12358837017685506,0.9882948906173137,0.22887240214584298,-1.5385554067369724,-1.4614045488960967,1.2488997668971127,0.20754884111119576,0.0022472862464199697,-0.0009996730358615368,-0.00027012481834342786,-0.0015115614498193903,-0.001031687344263083,0.0009597933319681272,0.0004860095074564035,-0.2309686839580536,-49.60324478149414,3.6841881275177,16.49054718017578,-1.0941671133041382,-1.7822983264923096,-0.013685601763427258,,,,,,,,,
1739376125.0359273,0.1235845224291625,0.9882928839364336,0.2288700730660072,-1.5385537009038786,-1.4614060627630152,1.2488980976495287,0.20754629643012926,0.0005603431977626003,0.00025055739100128305,-0.001797048256819944,0.0001608390420942838,-0.0003905620412356899,-0.0002276074032576928,-0.00022406454472007815,-0.2071649730205536,-49.57547378540039,3.71195912361145,16.46674346923828,-1.0813497304916382,-1.7951157093048096,-0.0008682189509272575,,,,,,,,,
1739376125.0459702,0.12358089126908181,0.9882997106986607,0.22887139612479873,-1.5385554750780626,-1.4614048222133489,1.248897748870699,0.2075487624753523,-0.0015595464446014975,0.0016294775158433232,0.00036994103792591625,-0.0015241261669990242,-0.00031221140542768086,-0.0013858365867488339,0.0016114526087382757,-0.1317865550518036,-49.62704849243164,3.73576283454895,16.49054718017578,-1.0877584218978882,-1.7685654163360596,-0.013685601763427258,,,,,,,,,
1739376125.0559788,0.1235845004828134,0.9882946240086307,0.22887526282142384,-1.5385505423553392,-1.4614020447209843,1.248899355210713,0.2075484802350517,0.0009287282847711228,0.00019826112034127636,0.001886627724284428,0.0005290115286669229,0.0001758993749795113,0.00016121070332598538,0.0015418954627590639,-0.2071649730205536,-49.57547378540039,3.6841881275177,16.41516876220703,-1.0877584218978882,-1.7822983264923096,-0.0072769103571772575,,,,,,,,,
1739376125.0678735,0.1235829442649078,0.9882967070761046,0.2288713664380719,-1.538549553459356,-1.4614029238119537,1.2488989527070988,0.20754533919214976,0.0008599836833657061,0.0008203449081014554,0.0001917787149382188,0.0005523570481610868,3.705867179989162e-05,0.001160233812039583,-0.00021509736103191024,-0.1555902659893036,-49.62704849243164,3.6841881275177,16.43897247314453,-1.1079000234603882,-1.7758896350860596,0.019273381680250168,,,,,,,,,
1739376125.0779302,0.12358357552191347,0.9882998264893786,0.2288717309990452,-1.5385537008926404,-1.4614053051029283,1.2489010469026587,0.20754403801180446,0.001002714573572368,0.0019601092725845346,0.001427244377634141,-0.000719302876191253,-0.0009956025046486028,0.0011708431111559356,-0.00077411934990659,-0.2071649730205536,-49.62704849243164,3.6603844165802,16.46674346923828,-1.0877584218978882,-1.7951157093048096,-0.0008682189509272575,,,,,,,,,
1739376125.088215,0.12358219745285114,0.9882894425924971,0.22887354166602136,-1.5385545108842782,-1.4614060627630072,1.2488980151641982,0.20754427156809074,-4.3795614876255716e-05,-0.0016914380532041915,6.170819148405187e-05,-0.0012579489715938653,-0.0005565343111856233,-0.0004022969696133521,-0.0008643370036093581,-0.1555902659893036,-49.52389907836914,3.6603844165802,16.51435089111328,-1.0813497304916382,-1.7758896350860596,0.019273381680250168,,,,,,,,,
1739376125.0999534,0.12357948447964764,0.9882943148595507,0.22887290788239084,-1.5385534598228334,-1.4614068010545285,1.2488948304353136,0.20754371633521873,-0.0005861271211651232,5.539347091845185e-05,-0.0006505567121781637,0.000954731719803225,-0.0014499665942891626,-0.0016591620829617033,-0.0006175902846223526,-0.10798283666372299,-49.55167007446289,3.71195912361145,16.46674346923828,-1.0749410390853882,-1.7758896350860596,0.03300629183650017,,,,,,,,,
1739376125.1109688,0.12358665459425287,0.9882980283333334,0.22887207845476848,-1.538551285392348,-1.4614034591064884,1.2488998847701664,0.20754370460383675,0.000691715330128157,0.00022902603684164149,-0.0004116493893964615,0.0008089291915446984,0.0015666543125638344,-0.00011174019935785361,-0.0003770182170253955,-0.2071649730205536,-49.60324478149414,3.6841881275177,16.43897247314453,-1.0941671133041382,-1.7822983264923096,0.03300629183650017,,,,,,,,,
1739376125.1218944,0.1235822364422597,0.9882973340268618,0.22887340733162936,-1.5385492555995788,-1.4614053044346123,1.2488974635418866,0.20754532375954388,-0.0009098708237816808,0.00019095019401963592,0.0009379836285397257,0.0008307716005550592,-0.0003294506264979275,-0.0006138920644772794,-0.0012474204805865913,-0.1555902659893036,-49.60324478149414,3.71195912361145,16.41516876220703,-1.0877584218978882,-1.7887070178985596,0.019273381680250168,,,,,,,,,
1739376125.1319218,0.12358434400084542,0.9882983232223108,0.22887278288740806,-1.5385534144229451,-1.461402046715647,1.248901360708991,0.20755081302923054,0.0009826831597098628,0.00031727237621483013,0.0012465941351541617,-0.0008068085998934351,0.00044215482183632317,0.0005259538380918872,0.0030476498467335487,-0.1793939769268036,-49.60324478149414,3.6841881275177,16.49054718017578,-1.0877584218978882,-1.7951157093048096,-0.027418512850999832,,,,,,,,,
1739376125.1428635,0.12358173639674548,0.9882937019165817,0.22886642909445862,-1.5385516344660952,-1.4614059420758667,1.2488950816245659,0.20754923768573072,-2.5642462773867576e-05,-0.0010754434319004452,-0.0021891127694914905,2.879980264967408e-06,-0.0003660011831254649,-0.0007449627299282292,0.0022322590118225194,-0.1793939769268036,-49.57547378540039,3.75956654548645,16.46674346923828,-1.0813497304916382,-1.7685654163360596,-0.013685601763427258,,,,,,,,,
1739376125.1539307,0.12358270930509045,0.988295808637064,0.2288701122346453,-1.538551894399397,-1.4614005449055227,1.2488959480063773,0.20754479616095048,0.0008806326381051589,-0.0011275843576104706,-0.00097406842092559,0.00016406527759569973,0.0018264775063449418,-0.0005647159559908806,0.0006833609557670192,-0.1555902659893036,-49.55167007446289,3.71195912361145,16.43897247314453,-1.0877584218978882,-1.7758896350860596,-0.0072769103571772575,,,,,,,,,
1739376125.1639426,0.12358464759444047,0.9882951507180173,0.22887286770628396,-1.5385536999610474,-1.46140568126937,1.2488991270643364,0.2075444445598725,0.001339743925108442,-0.0013689623961217375,-0.00026530911240751253,0.00019816667268159863,-0.00020144192287206676,0.0010208442274036607,-0.0003299149691876783,-0.1793939769268036,-49.60324478149414,3.71195912361145,16.46674346923828,-1.0813497304916382,-1.7758896350860596,-0.013685601763427258,,,,,,,,,
1739376125.1739643,0.12358286827891363,0.9882977904648127,0.2288787711285408,-1.538551620799505,-1.4614049251747725,1.2488982219930278,0.20754997787606688,-1.2578776156514128e-05,-0.0010834917532735067,0.001949351031937203,0.00038012896879732153,0.00016168321415758774,-0.00020068636547380334,0.00130126884583396,-0.1555902659893036,-49.60324478149414,3.63261342048645,16.43897247314453,-1.0877584218978882,-1.7685654163360596,-0.020094294100999832,,,,,,,,,
1739376125.1848435,0.12358455416763876,0.9882922205420562,0.22887207424101907,-1.5385536753945037,-1.4614030992685956,1.248899871229506,0.20754998904248217,9.851630618513962e-05,-0.0023220445373555066,0.0006658087273008505,0.0005261001840386967,9.647382449250847e-05,0.00041825570439396934,0.0018603371544047647,-0.1793939769268036,-49.55167007446289,3.6841881275177,16.46674346923828,-1.0941671133041382,-1.7822983264923096,-0.020094294100999832,,,,,,,,,
1739376125.1948886,0.12357803886565547,0.9882959610581555,0.22887388343572446,-1.5385537097341981,-1.46140368135555,1.2488983535615352,0.20754842090382272,-0.001728624467268018,0.0004675748720530195,0.0011482882464649874,-0.00032051497773228764,0.0002666689134020487,-0.0018374449344704478,0.0010329539379717134,-0.1317865550518036,-49.57547378540039,3.6603844165802,16.46674346923828,-1.1014913320541382,-1.7822983264923096,-0.0072769103571772575,,,,,,,,,
1739376125.2049,0.12358242324791217,0.9882938290613377,0.22887386583105562,-1.5385498299343183,-1.4614060625974608,1.2489004849623997,0.20755084238629276,0.0006643458117798455,-0.0005218416406035755,0.0009430544560237353,-0.00035000051016872394,-0.000396413988900808,-0.00041125827095229295,0.002586212128368102,-0.1793939769268036,-49.57547378540039,3.6603844165802,16.41516876220703,-1.0813497304916382,-1.7887070178985596,-0.027418512850999832,,,,,,,,,
1739376125.2149062,0.12358291197796538,0.9882983017648823,0.22887034150953844,-1.538553598864941,-1.4614037223441758,1.2488997670559594,0.20754602902312835,-0.000405304631436115,0.0008334179871079411,-0.0013932650235721784,-0.001369815019579774,0.0006350534339667882,9.127651320133341e-05,0.001929487594743823,-0.1555902659893036,-49.57547378540039,3.73576283454895,16.46674346923828,-1.0877584218978882,-1.7822983264923096,-0.013685601763427258,,,,,,,,,
1739376125.224963,0.12358350082247795,0.9882996715937241,0.22887000696402549,-1.5385536886200848,-1.4614013021107508,1.2488999480176635,0.2075430427970671,0.0007193524944622434,0.0011829484953558185,-0.0004712506451326044,-0.0009079066472082213,0.0002234223882167597,-0.00041953479311096313,-0.0008949935056307803,-0.2071649730205536,-49.62704849243164,3.71195912361145,16.46674346923828,-1.0941671133041382,-1.7951157093048096,0.026597600430250168,,,,,,,,,
1739376125.2359247,0.12358181721306334,0.9882973349181162,0.22886927148550862,-1.5385498343082091,-1.46140204664218,1.2488998847879993,0.20754609901762655,-0.0012785013991677315,-0.0003053574943822199,-9.052612508294249e-05,0.0005217900102335124,2.4135185970703692e-05,8.520554294048193e-05,-0.00027446956163854405,-0.1793939769268036,-49.60324478149414,3.73576283454895,16.41516876220703,-1.0877584218978882,-1.7822983264923096,0.012864691205322742,,,,,,,,,
1739376125.2468843,0.12358594735693848,0.9882976396698919,0.22887219217449034,-1.5385495434823893,-1.4614020466972868,1.248899127136118,0.20754050691812864,0.0015562966329451962,-0.0001900652421642058,0.0003602258007850991,0.0013610229536222907,0.0013104271113641975,0.0005823939571579133,-0.0008180937832516478,-0.2071649730205536,-49.62704849243164,3.6841881275177,16.43897247314453,-1.0877584218978882,-1.7758896350860596,0.03300629183650017,,,,,,,,,
1739376125.2578833,0.12358048541334342,0.988298036060927,0.22887212454709338,-1.5385538623268353,-1.4614058884276002,1.2488998847961965,0.20754439060529734,-0.0012921221487952389,0.0011776275246456547,-1.0192785919780982e-05,9.010971603164213e-05,-0.0007110823304912965,0.0005787105631785705,0.0003929971533359325,-0.1317865550518036,-49.60324478149414,3.71195912361145,16.46674346923828,-1.0813497304916382,-1.7822983264923096,-0.0008682189509272575,,,,,,,,,
1739376125.2679281,0.12358249376609105,0.9882943265742137,0.22887443957529402,-1.53855359036455,-1.4614060627600547,1.2488998847961965,0.20754923768373443,0.0003237824583539617,-0.0005450047051653181,-8.151179575774208e-05,0.0006445434351648762,-0.001044355565801036,-9.458203341631866e-06,0.0010120226170858607,-0.1793939769268036,-49.55167007446289,3.6841881275177,16.46674346923828,-1.0813497304916382,-1.7822983264923096,-0.013685601763427258,,,,,,,,,
1739376125.2788472,0.12358155414877411,0.9882943959630851,0.22887215319138468,-1.5385533834483147,-1.4614053044407558,1.2488998847961965,0.20754908091066895,-0.00041773718131512486,0.0003533775695373941,0.00019923064541224652,-0.00045388833215382967,-0.00012001619865346152,-0.00022758264406632216,0.0013553669536278603,-0.1793939769268036,-49.55167007446289,3.6841881275177,16.46674346923828,-1.0877584218978882,-1.7822983264923096,-0.013685601763427258,,,,,,,,,
1739376125.288954,0.12358270941026327,0.988297776712197,0.2288750148930932,-1.5385513149913987,-1.4614053036130286,1.2488964039037573,0.20754919828673624,-0.0010781998957895486,0.00020541657387722714,0.0005607241351040848,0.0004401334099862792,-0.0018532524420959513,-0.0007515147722026187,0.002534978387811115,-0.1555902659893036,-49.60324478149414,3.6841881275177,16.43897247314453,-1.0877584218978882,-1.7887070178985596,-0.013685601763427258,,,,,,,,,
1739376125.2999527,0.12358294683787746,0.988299749555076,0.22887097814222868,-1.5385537009025843,-1.4614059361762688,1.2488982211780384,0.2075412271377928,-0.0011591770161749485,0.0009412225709491429,8.581146730856276e-05,-0.00023992731098796197,-0.0003544288847525931,0.00042084815020854117,-0.0006402774638033606,-0.1555902659893036,-49.62704849243164,3.71195912361145,16.46674346923828,-1.0813497304916382,-1.7951157093048096,0.026597600430250168,,,,,,,,,
1739376125.3099613,0.12357986928244888,0.9882922245407112,0.22887315061666594,-1.5385495548201045,-1.4614030799000395,1.2488991270822825,0.20754447492444353,-0.0011329671679987559,-0.00068915976354531,-0.0005481858399021954,0.00034718902571959656,0.0006697486258513505,-1.981792220457566e-05,0.00013774596069103182,-0.1555902659893036,-49.55167007446289,3.6841881275177,16.43897247314453,-1.0941671133041382,-1.7758896350860596,0.026597600430250168,,,,,,,,,
1739376125.3200102,0.12358252003364341,0.9882960389523658,0.22887526289373195,-1.5385507820942996,-1.4614045280494405,1.2488998847961956,0.2075420942511151,0.0012317012289094413,0.0016338200193314746,0.0010201400207392418,0.0007583792456997023,1.0993958964005556e-05,0.0006224691722924391,-0.001972158053549029,-0.1793939769268036,-49.57547378540039,3.6841881275177,16.43897247314453,-1.0941671133041382,-1.7822983264923096,0.04673920199275017,,,,,,,,,
1739376125.3308923,0.12358293549601045,0.9882980370358136,0.2288748571715549,-1.5385530119948205,-1.461402923719887,1.2488998847961965,0.20754685668579234,0.0003318957044828705,0.0009910350642494267,0.0016492681655464105,-0.00027528005377402574,0.0010546196973385035,0.0004177846420204432,-0.0007086732197049904,-0.1555902659893036,-49.60324478149414,3.6603844165802,16.46674346923828,-1.1079000234603882,-1.7822983264923096,0.0064559997990727425,,,,,,,,,
1739376125.340929,0.12358451380431383,0.9882960420929088,0.22887275788937228,-1.538550944573766,-1.4614052897074061,1.2488998847961965,0.2075472472175862,0.0006197107835795884,0.00017452483114539736,0.0001294516693922261,0.0002867534751483684,-0.00025853762101848846,0.0008126852333849778,-0.00044614379179076986,-0.2071649730205536,-49.57547378540039,3.6841881275177,16.46674346923828,-1.0877584218978882,-1.7822983264923096,-0.0008682189509272575,,,,,,,,,
1739376125.3518932,0.12358259253080636,0.988294092142837,0.22886999472704064,-1.5385489086961481,-1.4614045474427635,1.2489006424562747,0.20754538487108298,-0.00038015878670745413,0.00017513715958598745,-0.0010112861767251503,0.0013374718684746757,0.0002171546643231419,0.0005974109653233043,0.00015152166816773214,-0.1555902659893036,-49.55167007446289,3.71195912361145,16.41516876220703,-1.0941671133041382,-1.7887070178985596,0.012864691205322742,,,,,,,,,
1739376125.3629274,0.1235807770339374,0.988295961092498,0.2288731042406409,-1.5385571557106057,-1.4614028038791298,1.2489013986628028,0.20754070508151096,-0.0010363824180796713,-0.0007028909240249035,-4.531127931020054e-06,-0.0012814658723170483,-0.0009767452440696733,0.0008051666043134567,-0.0015675841509551654,-0.1555902659893036,-49.57547378540039,3.71195912361145,16.51435089111328,-1.0813497304916382,-1.7951157093048096,0.019273381680250168,,,,,,,,,
1739376125.3730104,0.12358078111303757,0.9882998301788116,0.22887286819031288,-1.538551280666891,-1.4614045472221178,1.2488998847961719,0.2075386772163421,-0.0011296898473343077,0.0014973716371643976,-0.001414133382110422,0.0010329041877214784,0.00011187535713402894,0.0006201168270011406,-0.0013021704058752668,-0.1555902659893036,-49.62704849243164,3.71195912361145,16.43897247314453,-1.0941671133041382,-1.7822983264923096,0.03941498324275017,,,,,,,,,
1739376125.383953,0.12358181851776671,0.9883016699408541,0.22887036032512353,-1.5385515833202283,-1.4614036635014056,1.2489006424562747,0.20754367664895404,0.0008215903996189515,0.001500521713121346,-0.0004916585790031397,0.00041297793724553414,0.0012648228289720224,0.0005152468948305662,-0.001434125675270867,-0.1793939769268036,-49.65481948852539,3.71195912361145,16.43897247314453,-1.1014913320541382,-1.7887070178985596,0.03300629183650017,,,,,,,,,
1739376125.3948894,0.12358465970477635,0.9882902136143715,0.22887102176246482,-1.5385515830070011,-1.4614038569307168,1.2489006424562747,0.2075476224197222,0.000925879092888942,-0.0026136563770271185,-0.0013047879147959794,-0.0005727605969916088,0.0007045221844845002,-0.0002605084730679459,0.0008979339046644426,-0.1793939769268036,-49.52389907836914,3.71195912361145,16.43897247314453,-1.0877584218978882,-1.7887070178985596,-0.04023589566349983,,,,,,,,,
1739376125.4059145,0.12358179222300596,0.9882906280924961,0.2288703093529596,-1.5385551914605142,-1.4614045340256745,1.2489006424562747,0.2075467735608856,0.0007435291720242828,-0.0006626291836059083,-0.0008431721612382544,-0.0007504353873351191,2.987575742339891e-05,-0.00044635135194669975,0.00015913602699943425,-0.1793939769268036,-49.50009536743164,3.71195912361145,16.51435089111328,-1.0941671133041382,-1.7887070178985596,-0.020094294100999832,,,,,,,,,
1739376125.417869,0.12358293404844578,0.9882980313670362,0.22887283757348317,-1.538552898715904,-1.4614042145041033,1.2489006424562747,0.20755121034191532,-0.00014937162904111147,0.0007110313616897351,6.94364169519134e-05,5.6598422045384686e-05,0.0016055695250960474,0.00026115256692151105,0.00223844149420392,-0.1555902659893036,-49.60324478149414,3.71195912361145,16.46674346923828,-1.0877584218978882,-1.7887070178985596,-0.027418512850999832,,,,,,,,,
1739376125.4279783,0.12358220169099603,0.9882967735372311,0.22887313281628893,-1.5385516182755052,-1.4614040110766533,1.2488998847961965,0.2075405782265184,-0.0005338771047309199,-0.0005247937497549591,-0.00042196065679032013,0.0006439515589988941,0.0010014798253089137,-0.0008990434670606104,-0.002856404246119596,-0.1555902659893036,-49.60324478149414,3.6841881275177,16.43897247314453,-1.0941671133041382,-1.7822983264923096,0.05955658480525017,,,,,,,,,
1739376125.4388893,0.12358122287489023,0.9882981448121245,0.2288714004146027,-1.5385536233250896,-1.4614056583126107,1.2488991285896682,0.20754131882189494,-5.67693177027322e-05,2.674510910636804e-06,-0.0002238413138567789,-2.824826385493503e-05,-0.0005185321336195995,1.0726154117073513e-05,-0.002066924941750818,-0.1317865550518036,-49.60324478149414,3.73576283454895,16.46674346923828,-1.0877584218978882,-1.7758896350860596,0.05314789339900017,,,,,,,,,
1739376125.449913,0.12358356696938573,0.9882943227229305,0.22887000741398614,-1.5385537009038743,-1.461405901194816,1.2488998717142525,0.20755082179237555,-0.00036529240822549597,-0.0011279955181266045,-0.00011115230949348569,-0.0005690928597444454,-0.00018865985934531085,-0.0003989234845922499,0.00188361785818906,-0.2071649730205536,-49.55167007446289,3.71195912361145,16.46674346923828,-1.0813497304916382,-1.7822983264923096,-0.027418512850999832,,,,,,,,,
1739376125.4599156,0.1235845803144722,0.9882997495564804,0.2288742262258945,-1.5385471374073734,-1.461405416712663,1.2488984719451357,0.2075476638952618,0.0012445121470900326,0.0016089795155781914,-0.00042713865008162674,0.0015721351697571696,-0.0006685936482569237,-0.00043674110994624263,0.00047869893627756573,-0.1793939769268036,-49.62704849243164,3.6841881275177,16.39136505126953,-1.0877584218978882,-1.7822983264923096,-0.0008682189509272575,,,,,,,,,
1739376125.4719183,0.1235843410052495,0.9882947430352179,0.22887104546205178,-1.5385498384322538,-1.4614060647017042,1.2488991271281424,0.2075453097915493,0.00020745552380428006,-0.0013000483373271465,0.00012515120782730018,0.0007833979637164911,-0.0008626779865514747,-0.0005856996831995649,-0.0022065932622766706,-0.1793939769268036,-49.55167007446289,3.71195912361145,16.41516876220703,-1.0813497304916382,-1.7758896350860596,0.0064559997990727425,,,,,,,,,
1739376125.4828584,0.12358381636198847,0.9882999175359213,0.2288741323335049,-1.5385536980698893,-1.4614071736357988,1.2488998847961965,0.20754346986387665,0.0012601198025472813,0.0007463750212809333,0.00044306459872358933,-0.0005983767434186438,-0.0014681594993425561,-0.00033046744351589033,-0.0020963786044149984,-0.2071649730205536,-49.62704849243164,3.6603844165802,16.46674346923828,-1.0749410390853882,-1.7822983264923096,0.026597600430250168,,,,,,,,,
1739376125.4929278,0.12358430751750778,0.9882943265827644,0.2288727924486256,-1.5385516261065473,-1.4614060627809522,1.2489014015699034,0.20754923638491418,-0.0005556865999886508,-0.0008549057522954696,-0.0010786828204923068,-0.0009467427012460938,3.830854627918485e-05,0.00041702119944834283,0.0006499249165213067,-0.1793939769268036,-49.55167007446289,3.6841881275177,16.46674346923828,-1.0813497304916382,-1.7951157093048096,-0.013685601763427258,,,,,,,,,
1739376125.5029664,0.12358265511038599,0.9882998305011249,0.22887246540512798,-1.5385515839403097,-1.4614049766339245,1.2488998847962045,0.20754533989855994,-0.00044143006915951626,0.001421689015600369,7.479204855529472e-05,0.001014016869918829,-0.0004923146495243511,0.00024092480468536592,-0.0015208323958360369,-0.1317865550518036,-49.62704849243164,3.75956654548645,16.43897247314453,-1.0813497304916382,-1.7822983264923096,0.019273381680250168,,,,,,,,,
1739376125.5138857,0.12358285652296977,0.9882983608145888,0.22887526298174957,-1.5385509455300306,-1.4614059420758667,1.2488998847961965,0.20754058705927295,0.00032078716880015506,0.0005118218193875491,7.145777181837033e-05,0.0003709666094285261,-0.0008027179652545811,0.00021847618831989993,-0.0019876644907496524,-0.1555902659893036,-49.60324478149414,3.6841881275177,16.46674346923828,-1.0813497304916382,-1.7822983264923096,0.019273381680250168,,,,,,,,,
1739376125.5239286,0.12358181726543457,0.9882945963949779,0.2288729339678268,-1.5385509445387702,-1.4614017182446328,1.2489006424562747,0.2075467377639181,-4.6020813321020636e-05,-0.0004014203965058799,-0.0012493194770837098,-8.769327770901711e-05,0.0016374638113322432,-0.00037031269423210055,0.00011743940103109722,-0.1793939769268036,-49.55167007446289,3.71195912361145,16.46674346923828,-1.0813497304916382,-1.7887070178985596,0.0064559997990727425,,,,,,,,,
1739376125.5339522,0.12358292041192147,0.9882960780728468,0.22887811027072955,-1.5385551771020345,-1.4614051843483447,1.2488999022387994,0.20754919828738097,0.0009829916751370954,0.00019592443445000463,0.001151308298135165,-0.0006615513050751254,-0.0014781990521048468,0.0002976988877431808,0.0015716334240795525,-0.1555902659893036,-49.57547378540039,3.6841881275177,16.49054718017578,-1.0877584218978882,-1.7822983264923096,-0.013685601763427258,,,,,,,,,
1739376125.544872,0.12358283764161106,0.9882943265387844,0.22887387439722012,-1.5385506261252822,-1.4614059427273387,1.24889988485013,0.20754207496023647,0.0007462515717851487,-0.00025418096775824426,0.0011720974958944672,0.0014740497976510505,-0.0002748893917858804,7.771342069876115e-05,-0.001636854795426624,-0.1555902659893036,-49.55167007446289,3.6603844165802,16.43897247314453,-1.0813497304916382,-1.7822983264923096,0.04673920199275017,,,,,,,,,
1739376125.5558505,0.12358052435396422,0.9882953284179071,0.22887173100313946,-1.5385526974079822,-1.461408484016639,1.2488991271361183,0.20754772252857598,-0.00027200715746323874,-0.000614045418190452,-0.00025658485316727556,0.00022112309688114017,-0.0011684799193669377,-0.00023952527061275397,1.7222711228710968e-05,-0.1317865550518036,-49.57547378540039,3.6603844165802,16.46674346923828,-1.0877584218978882,-1.7758896350860596,-0.0008682189509272575,,,,,,,,,
1739376125.5659547,0.12358563167709573,0.9882943266732299,0.2288720871138387,-1.5385572661363776,-1.4614052987005781,1.2489006426177802,0.2075459895726836,0.00146207576267517,-0.0011016101913789663,-0.0006877896294386272,-0.0021103972909302343,-0.00013232929034547508,0.00020975883986485843,0.0005206482439543897,-0.2071649730205536,-49.55167007446289,3.6841881275177,16.51435089111328,-1.0877584218978882,-1.7887070178985596,-0.013685601763427258,,,,,,,,,
1739376125.5768828,0.12358080322887686,0.98829393263619,0.2288728292552501,-1.5385538068681246,-1.4614030992707043,1.2488998847961974,0.20754289084437463,0.0004667655476253894,-0.000565976281251293,-0.0006117304254784232,-0.0005704436984498645,0.0012813547881169625,-3.1682349625079457e-05,-0.001957647492331133,-0.1555902659893036,-49.57547378540039,3.71195912361145,16.46674346923828,-1.0941671133041382,-1.7822983264923096,0.026597600430250168,,,,,,,,,
1739376125.5879152,0.12358370940935783,0.988298070110361,0.2288769601448853,-1.5385536998201315,-1.461405700215175,1.2489021577764314,0.20754602771034855,-0.0004100790170890484,0.0006752342879916971,0.000883150532712852,0.00045350548319556704,-0.00020124684904419192,0.00034248816023372966,0.00047533804188400414,-0.1793939769268036,-49.60324478149414,3.63261342048645,16.46674346923828,-1.0813497304916382,-1.8015244007110596,-0.013685601763427258,,,,,,,,,
1739376125.5989194,0.12358271010704715,0.9882982018685991,0.2288705728053869,-1.5385515841619732,-1.4614045293965927,1.2489002380089063,0.2075468571008758,-0.00018953806470864182,0.00018313154458900847,-0.0008012269989185305,-0.00022284832391805144,0.0008401945067766909,0.00016604189867166388,0.0019241756910534703,-0.1555902659893036,-49.60324478149414,3.71195912361145,16.43897247314453,-1.0941671133041382,-1.7822983264923096,0.0064559997990727425,,,,,,,,,
1739376125.6099145,0.12358367759191416,0.9882960390958919,0.2288738698661256,-1.5385533917419711,-1.4614053051028268,1.2488998455523337,0.20754852985327,0.0013307407414293133,-0.0001127832722826273,0.0012211659589840527,-0.0009399070156480452,-0.000454339328287459,-9.292847404106258e-05,-0.0006522938794520322,-0.1793939769268036,-49.57547378540039,3.6603844165802,16.49054718017578,-1.0877584218978882,-1.7822983264923096,-0.020094294100999832,,,,,,,,,
1739376125.6214824,0.1235855246917524,0.9882960677548001,0.22887314506730494,-1.5385498354862277,-1.461402881672018,1.2489006424560531,0.2075416169211754,0.0016542205123713175,0.001259061205812832,0.0001135204999732929,0.0007165032528664043,0.0009666664220351977,0.0001577994176076059,-0.001914287360570765,-0.2309686839580536,-49.57547378540039,3.71195912361145,16.41516876220703,-1.1079000234603882,-1.7887070178985596,0.04673920199275017,,,,,,,,,
1739376125.6319177,0.1235838060658609,0.9882950250806257,0.22887208288292285,-1.5385526719037421,-1.4614020447284473,1.2489006468169255,0.2075460990176304,0.00081714897928929,-0.00042720985475217,-0.0004207949490725671,-0.0006240333565342191,-5.4347260812046114e-05,0.00033705562698688993,-7.551303580228088e-05,-0.2071649730205536,-49.57547378540039,3.6841881275177,16.46674346923828,-1.0877584218978882,-1.7887070178985596,0.012864691205322742,,,,,,,,,
1739376125.6428564,0.12358088375776871,0.9882960390930534,0.22887212343037242,-1.5385506387690864,-1.4614060622602425,1.2488998847962045,0.20754534136574576,-0.0018751208388331888,-5.609559772793164e-05,-0.00041477208209256657,-0.0002123721739409955,-0.00010721021474760267,9.246461808278251e-06,-0.0004508419060883714,-0.1317865550518036,-49.57547378540039,3.71195912361145,16.46674346923828,-1.0813497304916382,-1.7822983264923096,0.019273381680250168,749,724,710,38.133,0,0
1739376125.6528897,0.12358028762183167,0.9882979561457432,0.22887526291155788,-1.538553901058813,-1.4614049430598928,1.2489009444343258,0.20754371193972593,-0.00035836173083556694,-0.0005346792519970006,0.0006128120981447958,-0.0006701053623052964,0.0006117686724380531,0.00047144659018590783,-0.0014052093874320547,-0.1317865550518036,-49.60324478149414,3.6841881275177,16.46674346923828,-1.0877584218978882,-1.7822983264923096,0.03300629183650017,744,723,709,38.025,0,0
1739376125.6639237,0.12358006674190976,0.9883017474969421,0.2288751575148101,-1.5385508692119072,-1.4614095257747342,1.2488998848021782,0.20754445769933322,-0.0007502919806484106,5.461341410934427e-05,0.00017073280746928674,0.0016376458730378509,-0.0004667532154775323,0.00017417341986845772,-0.002542922556645498,-0.1555902659893036,-49.65481948852539,3.6841881275177,16.46674346923828,-1.0877584218978882,-1.7822983264923096,0.026597600430250168,744,724,708,38.133,0,0
1739376125.6748788,0.12358292076857606,0.9882943265742302,0.22887313692190522,-1.5385516210984718,-1.461402790935403,1.2488998847961965,0.20754820847337618,0.0005381698345711282,-0.0013787238747208143,0.000882676345948942,0.0009561947177027344,0.0006112368142875571,-0.0001036494614233201,0.001455668651283111,-0.1555902659893036,-49.55167007446289,3.6841881275177,16.43897247314453,-1.0813497304916382,-1.7822983264923096,-0.020094294100999832,746,724,708,38.133,1,0
1739376125.6858935,0.12358054647539893,0.9882986411322684,0.22887282886515115,-1.5385519757013808,-1.461405291675458,1.248899127136118,0.20754816636462012,-0.0011172203883353057,-0.0005744426918541353,-0.0009904309151557004,8.40736278247973e-05,0.0007826724087791883,-0.000731295338747235,0.00037472231309156745,-0.1317865550518036,-49.57547378540039,3.71195912361145,16.41516876220703,-1.0877584218978882,-1.7758896350860596,-0.013685601763427258,746,723,708,38.133,0,0
1739376125.695897,0.12358089408421996,0.9882997497116465,0.22887527464275334,-1.5385536897118315,-1.4614045428074127,1.248901702094404,0.20754999098067178,-0.0013176914567528443,0.0010940325157381427,0.0007399143716926856,-0.000669118926234617,0.00032622439773826286,0.0004567920253753398,0.0021571423141326525,-0.1317865550518036,-49.62704849243164,3.6841881275177,16.46674346923828,-1.0941671133041382,-1.7887070178985596,-0.020094294100999832,743,723,708,38.133,1,0
1739376125.7069466,0.12358283457300825,0.9882960660764905,0.22887352592787608,-1.5385554834761632,-1.4614013019719332,1.2489006424742197,0.20754530718348785,-0.00010361070719657161,-0.00013487322935633127,0.0003066771202924887,-0.0012779356346498676,-0.0002401100696442277,0.00015042917569741738,-0.0007423386979241368,-0.1793939769268036,-49.57547378540039,3.71195912361145,16.49054718017578,-1.0941671133041382,-1.7887070178985596,0.0064559997990727425,744,725,709,38.133,1,0
1739376125.717915,0.12358119944355953,0.9882961171506605,0.2288752621380989,-1.5385498044243617,-1.4614060627569,1.2489009444343258,0.2075479966682873,-0.00044053194151998467,-0.0011082727289245212,0.0009507699979977058,-0.0001970474384527704,-0.0009730770839028538,0.0004424300776693629,-8.32779196954025e-05,-0.1317865550518036,-49.57547378540039,3.6841881275177,16.41516876220703,-1.0813497304916382,-1.7822983264923096,-0.013685601763427258,742,724,708,38.025,0,0
1739376125.7288911,0.12358152918901073,0.9883017599337692,0.2288751841924998,-1.538550704919031,-1.4614001833924197,1.2488998848021782,0.2075499957188781,-0.0002997378985203364,0.0018747604287569538,0.0002392142866761671,0.0009639339674670669,0.0030755134577309384,0.0007049033501567257,0.0014031481244186753,-0.1793939769268036,-49.65481948852539,3.6841881275177,16.46674346923828,-1.0941671133041382,-1.7822983264923096,-0.020094294100999832,743,723,709,38.133,1,0
1739376125.7389123,0.1235836335892246,0.9883002225400881,0.22887514627809666,-1.5385534362059556,-1.4614049471988353,1.2488999371240057,0.20754736605895374,-0.0003335429347851806,0.0009970563474206281,0.00045243038741830444,0.0006271969169790372,-0.0006070895738159357,0.000222216002640567,-0.0003160924785652116,-0.1793939769268036,-49.60324478149414,3.6841881275177,16.46674346923828,-1.0877584218978882,-1.7822983264923096,-0.0008682189509272575,744,723,707,38.133,0,0
1739376125.7498453,0.12358284153330133,0.9882960392553454,0.22887031069658673,-1.5385488647940828,-1.4614060627609868,1.24890064245657,0.2075477220919531,7.536037566232976e-05,-0.0008187536783208528,1.9204809906003714e-05,0.0008080791607975157,-6.514030120335858e-05,-3.734465649396737e-05,0.001738780041498861,-0.1555902659893036,-49.57547378540039,3.71195912361145,16.43897247314453,-1.0813497304916382,-1.7887070178985596,-0.0008682189509272575,742,724,708,38.025,1,0
1739376125.7599168,0.12357986895708088,0.9882960303925031,0.2288709396049676,-1.538548030095081,-1.4614038435218175,1.2488982612388857,0.2075429293148497,0.00014752955396603445,0.0007809960981587384,-5.623856207737424e-05,0.0015218454398652783,0.001486483089467301,-0.0009445247930871703,0.00026880688847688713,-0.1555902659893036,-49.57547378540039,3.71195912361145,16.39136505126953,-1.0877584218978882,-1.7685654163360596,-0.0008682189509272575,743,725,708,38.025,1,0
1739376125.7719471,0.12357920645684929,0.9882997765380229,0.22887286814298194,-1.538553691141155,-1.4614042189655954,1.2488999242035588,0.20754876245634485,-0.0017095247000068277,0.0007189404052005373,-0.000926228175970711,-0.0010081787873442909,-0.0001699528332438264,0.0002753667686362601,5.451143158137798e-05,-0.10798283666372299,-49.62704849243164,3.71195912361145,16.46674346923828,-1.0877584218978882,-1.7822983264923096,-0.013685601763427258,744,725,706,38.025,1,0
1739376125.7819524,0.12358200057976043,0.9882941030082605,0.22887232341306346,-1.5385527285221403,-1.4614034736722348,1.2488991271363405,0.2075412528381049,-0.0005373331383841452,-0.0008679238954375055,-0.0009869160816171588,-0.0007450309205177128,0.00029743565082816325,-0.0006947241103637477,-0.001889551803956834,-0.1555902659893036,-49.55167007446289,3.6841881275177,16.49054718017578,-1.0941671133041382,-1.7758896350860596,0.026597600430250168,742,725,708,38.025,0,0
1739376125.7919543,0.12358294675101589,0.9882960395353156,0.2288711642018489,-1.5385495462701784,-1.4614031056734529,1.248900041779623,0.20754371775385952,0.0001297890772461851,6.838334204138197e-05,-0.001717957237233106,0.00020584192835898304,-0.0003369141202513788,0.00030810021511406323,0.0007658759912618331,-0.1555902659893036,-49.57547378540039,3.73576283454895,16.43897247314453,-1.0877584218978882,-1.7822983264923096,0.03300629183650017,744,730,707,38.025,1,0
1739376125.8028696,0.12358286730478356,0.9882961200395431,0.22887491298594873,-1.5385513573614356,-1.4614050560946639,1.2488998847970825,0.20754426739197684,1.487281615365169e-05,2.2433023161518175e-05,0.000305268601149335,0.0008094670161245376,-0.000820578995841905,-0.00020556644604395252,0.00015258635038248317,-0.1555902659893036,-49.57547378540039,3.6841881275177,16.43897247314453,-1.0877584218978882,-1.7822983264923096,0.019273381680250168,743,723,708,38.025,1,0
1739376125.8138547,0.12357838085783965,0.9882981179808508,0.228876692638134,-1.5385554835798425,-1.4614064568887633,1.2489041233487137,0.20754294204710763,-0.0023120569372615555,0.0003251395681085236,0.0009446612864359113,-0.0021410007606134243,-0.00021234373720620172,0.00036999100316644775,0.00010480694724309558,-0.1317865550518036,-49.60324478149414,3.6603844165802,16.49054718017578,-1.0749410390853882,-1.7822983264923096,0.03941498324275017,743,723,707,38.025,1,0
1739376125.8239353,0.12358123419798608,0.9883011929128018,0.22887326191458027,-1.53854983749263,-1.4614060448781825,1.2488991286614486,0.20754609902540747,-0.0010331176144466837,0.0007129854885178815,-0.0002581587261983428,0.00011841787471260866,-0.0008723134731043576,-0.000603298691701443,0.0021119346495320377,-0.1317865550518036,-49.60324478149414,3.71195912361145,16.41516876220703,-1.0813497304916382,-1.7758896350860596,0.012864691205322742,742,723,708,38.025,1,0
1739376125.8349147,0.12358119960336555,0.9882990083885814,0.22887139124648898,-1.5385555099323078,-1.4614053662913182,1.2489005399869657,0.20754684331817716,-0.00010682789433430658,0.00027928780771829174,-0.000230382730595447,-0.0015274482585720312,-6.910607096115718e-05,0.0008809628800727301,0.0011257827896212248,-0.1317865550518036,-49.60324478149414,3.73576283454895,16.49054718017578,-1.0749410390853882,-1.7758896350860596,0.0064559997990727425,742,725,707,38.133,1,0
1739376125.8459427,0.12358463341323274,0.9883002311217586,0.22887000257169107,-1.5385572620596515,-1.4614060627383814,1.2489014006247967,0.20754383157317632,0.0003804888612996759,0.0002755881618890326,-0.0011246162354013839,-0.0019557211638444837,-0.0004222256515250467,0.0010007212819178111,-0.00043786959699043324,-0.1793939769268036,-49.60324478149414,3.71195912361145,16.51435089111328,-1.0813497304916382,-1.7951157093048096,-0.0072769103571772575,742,724,707,38.025,1,0
1739376125.856905,0.12358112024931708,0.9883002255415322,0.22887693142528814,-1.538553416867057,-1.4614060582933401,1.2488991285896691,0.20754570402479725,-0.0007903868816508842,-9.746110478103516e-05,0.0011567551071908794,-0.0005363643057474865,-0.00037248956503616374,-0.0007901675870985937,-0.0005196852869956527,-0.1317865550518036,-49.60324478149414,3.6603844165802,16.49054718017578,-1.0813497304916382,-1.7758896350860596,-0.020094294100999832,743,724,708,38.133,1,0
1739376125.8679059,0.12358488478977687,0.9883005860209279,0.22887491970559254,-1.5385516097417649,-1.4614045414832186,1.248899884796221,0.2075499764173877,0.0016737631871764787,0.001402562112878065,0.00015309305785407654,0.0004239885857662605,0.0005270327775685783,-0.0009466820667971391,0.0016217210175052364,-0.1793939769268036,-49.62704849243164,3.6603844165802,16.43897247314453,-1.0941671133041382,-1.7822983264923096,-0.020094294100999832,743,722,708,38.133,1,0
1739376125.8788495,0.1235833303263439,0.9882977250359761,0.22887345430652756,-1.5385488632208333,-1.4614000566456422,1.2489038213706627,0.20754371780832698,-0.00037251896950327547,0.0010516024136545553,-0.0004384423825196271,0.001180165949929572,0.001042968086555743,0.00021855976483448733,-0.0005143919188781848,-0.1317865550518036,-49.60324478149414,3.73576283454895,16.43897247314453,-1.1014913320541382,-1.7887070178985596,0.03300629183650017,743,724,708,38.133,1,0
1739376125.889872,0.12358294328263796,0.9882982512585502,0.22887915135780612,-1.5385536923841896,-1.4614020466352853,1.2488991664059015,0.2075435988040557,0.00029871383766248374,0.0002882148335425147,0.002127338642855605,-0.00249138070866482,0.0012196605963902204,-0.0004215788560718768,-0.0006497221271377033,-0.1555902659893036,-49.57547378540039,3.6603844165802,16.46674346923828,-1.0877584218978882,-1.7758896350860596,0.03300629183650017,744,724,708,38.025,1,0
1739376125.9008484,0.12358252885469796,0.9882980285175195,0.22887307830115472,-1.5385535947707742,-1.461402797189792,1.2489006817027963,0.20754447530347833,-0.00020386882683444158,-0.00014468113049007252,-0.0010333681041715158,-0.0008605983461795095,0.0007709467946952439,5.4081798788541455e-05,-0.0016434920357364467,-0.1793939769268036,-49.60324478149414,3.71195912361145,16.46674346923828,-1.1079000234603882,-1.7887070178985596,0.026597600430250168,743,724,707,38.025,1,0
1739376125.9109774,0.12358126097431213,0.9882953370489868,0.2288695827907965,-1.5385495178320352,-1.4614034568433856,1.2489006424564963,0.20755237487869335,-0.0001708592913443976,-0.0005232140625787464,-0.0014266799017625751,-0.0002125362537231206,0.0008562627891309724,0.000594364330067657,0.0032529680041565763,-0.1317865550518036,-49.57547378540039,3.75956654548645,16.43897247314453,-1.0941671133041382,-1.7887070178985596,-0.04023589566349983,743,726,707,38.025,1,0
1739376125.921891,0.12358223680358636,0.988296030527314,0.22887526292891153,-1.5385554807112893,-1.4614047821334195,1.2488998847961965,0.20755114375520986,-0.00020992554251534322,-0.0006393097248995413,0.0009389869089954197,-0.0005771957816689149,0.001139127924010463,-0.0009726073454308954,0.0015405069480065592,-0.1555902659893036,-49.57547378540039,3.6841881275177,16.49054718017578,-1.0877584218978882,-1.7822983264923096,-0.03382720425724983,742,725,707,38.133,0,0
1739376125.9321358,0.12358294578870388,0.9883009520399375,0.22886749145458604,-1.538552782516258,-1.4614056576505134,1.2488998847961965,0.20754447481375116,0.0004689270677181971,0.0002224204504619219,-0.001549105917674188,0.0009815076125827135,-0.0010061978027949754,-0.0007509800813251999,-0.0011422093849592454,-0.1555902659893036,-49.60324478149414,3.75956654548645,16.46674346923828,-1.0877584218978882,-1.7822983264923096,0.026597600430250168,744,726,706,38.025,0,0
1739376125.9429512,0.1235828681347654,0.988296770610578,0.2288729425603691,-1.5385536668860522,-1.4614060620476435,1.2488992463272381,0.20754847953668074,-0.00036068969667272204,-0.00011591663871099884,0.0001585585347804267,-0.0011462294841939485,-0.0012249463583459518,-0.0009483075949432918,-0.0006577467903811033,-0.1555902659893036,-49.57547378540039,3.71195912361145,16.46674346923828,-1.0813497304916382,-1.7758896350860596,-0.0072769103571772575,743,727,706,38.025,2,0
1739376125.9538736,0.12358286697956213,0.988296039210126,0.22887307707555543,-1.5385497247453908,-1.4614045474428465,1.2489041238339034,0.20754987623294718,-6.903681349677062e-05,-0.0012468668308342756,-0.00027397719941884646,0.00022459571240882116,-0.000361304980051806,0.0031319397412482393,0.00099826877567428,-0.1555902659893036,-49.57547378540039,3.71195912361145,16.41516876220703,-1.0941671133041382,-1.7822983264923096,-0.020094294100999832,740,726,706,38.133,1,0
1739376125.9648693,0.12358120447457993,0.9883011943185491,0.22887525418034987,-1.5385537009036705,-1.4614005582613867,1.2488998853046427,0.20754383956069425,-0.0007953535474409625,0.002574570252442173,0.00031176665485957325,-0.0013409234057784997,0.0022009946944038686,0.0017718628926736487,-0.002532455975829084,-0.1317865550518036,-49.60324478149414,3.6841881275177,16.46674346923828,-1.0877584218978882,-1.7822983264923096,-0.0072769103571772575,743,726,706,38.133,1,0
1739376125.9748728,0.12358665722811972,0.9882980639638124,0.22887525029255354,-1.5385527444440248,-1.4614053048569973,1.248899884796205,0.20754982366201813,0.0021592036791996945,0.0009914012893553034,0.0008271341896092563,0.000533819034503913,-0.00031993439728135724,0.0010964681791625073,0.0009569789630059022,-0.2071649730205536,-49.60324478149414,3.6841881275177,16.46674346923828,-1.0877584218978882,-1.7822983264923096,-0.020094294100999832,744,726,705,38.025,1,0
1739376125.9848824,0.12358294590095127,0.9882932310552867,0.22887490909839348,-1.5385468527966395,-1.4614036815456057,1.2489014393622098,0.20754019717083272,-0.0009660312189183151,-0.0012869901685566543,-0.00022801263263236537,0.0013783776190893814,0.0002871842155888325,-1.8795464890798057e-06,-0.0011663510930888746,-0.1555902659893036,-49.57547378540039,3.6841881275177,16.41516876220703,-1.1014913320541382,-1.7951157093048096,0.026597600430250168,743,724,706,38.025,1,0
1739376125.9949088,0.12358293832282119,0.9882983096356293,0.22887105709464506,-1.5385477469434736,-1.4614068064622736,1.248900681702353,0.2075460990015629,0.0008223032732414011,0.0012648481445600192,-0.0005644218256260946,-0.0001025105425136179,-0.0010742633973984139,-0.0010636922707614393,-0.0008811728414400278,-0.1555902659893036,-49.57547378540039,3.71195912361145,16.41516876220703,-1.0749410390853882,-1.7887070178985596,0.012864691205322742,744,726,705,38.025,1,0
1739376126.0058672,0.12358381228477446,0.9882953788665786,0.2288742117947551,-1.538549553408583,-1.4614084838516948,1.2489006970244405,0.20754772062678825,0.0007388197836124086,-0.0008927498662833037,0.0009304619006001364,0.000683394255066935,-0.0008423706471612333,5.754968711387155e-05,0.0011205170727646876,-0.2071649730205536,-49.55167007446289,3.6841881275177,16.43897247314453,-1.0877584218978882,-1.7758896350860596,-0.0008682189509272575,744,728,706,38.025,1,0
1739376126.0159523,0.12358222809421746,0.9882997525723137,0.2288741848110595,-1.5385509161012076,-1.4614027642025886,1.2488991271627041,0.2075418075321382,-0.0006643210145631649,0.0004914287719573711,0.0013498570578722583,-0.0007656913414942607,0.0006855571292240816,-0.00120455707596538,-0.00183217227380865,-0.1555902659893036,-49.62704849243164,3.6603844165802,16.46674346923828,-1.0813497304916382,-1.7758896350860596,0.012864691205322742,743,725,706,38.025,1,0
1739376126.0269268,0.12358112803997041,0.9882981573978672,0.2288720741188628,-1.5385497264795063,-1.4614060492802046,1.2489000432331734,0.20754447544428778,-0.0009270367858992423,0.0013096929377484825,-2.5377933994859627e-05,0.0008728702327312134,-0.0004708366399565462,0.0006575056538332862,4.24489801167762e-05,-0.1317865550518036,-49.60324478149414,3.6841881275177,16.41516876220703,-1.0813497304916382,-1.7822983264923096,0.026597600430250168,743,726,707,38.025,1,0
1739376126.037842,0.12358252578681801,0.9882996712350927,0.22887900729087915,-1.5385516198540812,-1.4614067667870052,1.24889826123978,0.2075418891089425,0.0005394072831904647,-0.00016031825109090697,0.0019081944201403628,-0.00035956434028756477,-0.0013407714681387727,-0.0004104766850267053,-0.001299497293389754,-0.1793939769268036,-49.62704849243164,3.63261342048645,16.43897247314453,-1.0749410390853882,-1.7685654163360596,0.03941498324275017,746,724,708,38.133,1,0
1739376126.0478888,0.12358219811770729,0.9882960411286054,0.22887314587528226,-1.5385536243748705,-1.4614016646097643,1.2488991794639268,0.20754680384927215,-0.0005826847814939722,-0.0014414682445074594,0.00034100148074063313,8.460835892423919e-07,0.00023597348814638345,0.00021823552879886743,-0.0017890341022979005,-0.1555902659893036,-49.57547378540039,3.71195912361145,16.46674346923828,-1.0813497304916382,-1.7758896350860596,0.0064559997990727425,742,725,706,38.133,1,0
1739376126.0589042,0.12357952214539965,0.988298121311481,0.2288721134488775,-1.538551521231745,-1.4614068186931701,1.2489002380097924,0.2075488764876168,-9.831379238272892e-05,-0.000552962605241442,-0.0008025939366346632,0.0005310966402362379,-0.0013094251339925763,-0.0002015115219273048,5.4560474403976355e-05,-0.10798283666372299,-49.60324478149414,3.6841881275177,16.46674346923828,-1.0749410390853882,-1.7822983264923096,-0.013685601763427258,744,726,707,38.025,1,0
1739376126.0699081,0.12358464802882017,0.988302663561877,0.22887136152637927,-1.5385536753472082,-1.4614049236913345,1.2489014393642037,0.20754887942082595,0.0004086744413228262,0.0004370096775156972,-0.0014103903441558953,-0.00012993210404502967,-0.00038997479244859244,-0.0010056435571559334,0.0006550483723406595,-0.1793939769268036,-49.62704849243164,3.73576283454895,16.46674346923828,-1.0877584218978882,-1.7951157093048096,-0.013685601763427258,742,725,706,38.025,1,0
1739376126.0799606,0.12358078114972353,0.9882970465697783,0.22886961368163478,-1.5385516347188322,-1.4614020724633427,1.2488996876564151,0.20754295427762395,-0.0004896679509533269,-0.0005551435114347684,-0.0017346811153293273,0.00017571574638161256,0.0018658481204266958,-0.00036893369616311847,-0.0011392762465730045,-0.1555902659893036,-49.57547378540039,3.75956654548645,16.46674346923828,-1.1014913320541382,-1.7685654163360596,0.03941498324275017,742,729,707,38.025,0,0
1739376126.0909266,0.12358050680436307,0.9883002239885996,0.22887526423161975,-1.5385509203237058,-1.4614053005689973,1.2489009444962131,0.20754447334922418,0.0001627997609686022,0.00015376822016081203,0.001261919219131491,-0.00010214875984748245,-0.0007599305355295795,-0.0005530653148671929,-6.810367050350224e-05,-0.1317865550518036,-49.60324478149414,3.6841881275177,16.46674346923828,-1.0877584218978882,-1.7822983264923096,0.026597600430250168,743,728,707,38.025,1,0
1739376126.101845,0.12358259308009567,0.9882967686448482,0.22887000741399374,-1.5385516345942638,-1.461402385225069,1.2488998869555863,0.20755086151476201,-0.0011659212372838238,0.00021388811174100316,-0.0010042264974402587,2.1669801694328855e-05,0.0005435158783626152,0.0008711079054964284,0.001351214731581241,-0.1555902659893036,-49.57547378540039,3.71195912361145,16.46674346923828,-1.1014913320541382,-1.7822983264923096,-0.027418512850999832,743,723,706,38.133,1,0
1739376126.1119337,0.12358294621975388,0.9882992913916937,0.22887525412716742,-1.538554970340744,-1.4614036815236648,1.2489017020944406,0.20754289030900455,0.0003986475477757507,0.0008400607406200884,0.00010643700952793778,-0.0009378269936472574,0.0005843389812447186,0.00020813582750192034,-0.0008503656546660401,-0.1555902659893036,-49.62704849243164,3.6841881275177,16.51435089111328,-1.1014913320541382,-1.7887070178985596,0.012864691205322742,744,724,707,38.133,1,0
1739376126.1229098,0.1235824908557757,0.9883001093076451,0.22887514484195576,-1.5385515580675793,-1.4614019930796767,1.248900002539748,0.2075492364178909,-0.0002579263252246736,0.0022096118158928943,-0.0006488805742038483,0.0005304086181957138,0.0008262390662555393,-0.0009717968252959491,0.0023429318568351097,-0.1793939769268036,-49.62704849243164,3.6841881275177,16.46674346923828,-1.0877584218978882,-1.7822983264923096,-0.013685601763427258,744,723,706,38.133,1,0
1739376126.133868,0.12358292084476584,0.9882989801944094,0.22887518516844174,-1.5385516197026452,-1.4614049429860236,1.248899166867156,0.20754483930568898,-0.0003147672421552107,0.00036057427223065643,-3.0338609959576534e-05,0.0007261791445335671,0.00012601734106184318,-0.00044885359957229517,-0.0010723641601549521,-0.1555902659893036,-49.57547378540039,3.6841881275177,16.43897247314453,-1.0877584218978882,-1.7758896350860596,-0.013685601763427258,744,724,706,38.025,0,0
1739376126.1439536,0.12359007090243014,0.9882972407399288,0.228873171473591,-1.5385516211144328,-1.4614053047616722,1.2488999435849015,0.20754882343261918,0.0018800560012783023,0.0012516321140058388,-0.0006728193541140458,-4.8264217282198755e-05,-0.00042877798502244407,-0.0011204142713500417,-0.0010317458161977187,-0.2547723948955536,-49.55167007446289,3.71195912361145,16.43897247314453,-1.0877584218978882,-1.7822983264923096,-0.013685601763427258,743,723,706,38.025,1,0
1739376126.1549344,0.12357899436317296,0.988299008387217,0.22887609201390313,-1.5385506052945042,-1.4614052991433708,1.248901440008564,0.20754371780609535,0.00010827309519409359,0.0017411471004456635,0.0013070745620781497,0.0010839712117404708,-0.0011038724859387574,-0.00034374085662542504,-0.0006482963764100718,-0.1317865550518036,-49.60324478149414,3.6603844165802,16.46674346923828,-1.0877584218978882,-1.7951157093048096,0.03300629183650017,743,722,708,38.025,0,0
1739376126.1658895,0.12358518572506015,0.9882953730655526,0.22887030234911898,-1.538548857534577,-1.4613996520892572,1.2488991271901784,0.20754529735042737,0.00118478465862204,-0.0003599868044074115,0.0001688120481154197,0.0015829515244635258,0.00192082414243009,-0.0010507264247103065,0.0003732378702545839,-0.2309686839580536,-49.57547378540039,3.6841881275177,16.43897247314453,-1.1079000234603882,-1.7758896350860596,0.019273381680250168,742,723,707,38.025,0,0
1739376126.17685,0.12358098620648698,0.9883008115169697,0.22887318260761397,-1.5385533692262303,-1.4614060582748707,1.248899897878149,0.2075481669176906,-0.0009021458784838186,0.0007490236202196084,-0.0010595681870515915,-2.9166075289056576e-05,-0.00023370512194403838,-0.0010933366689170002,5.446079654446872e-06,-0.1317865550518036,-49.65481948852539,3.71195912361145,16.46674346923828,-1.0813497304916382,-1.7822983264923096,-0.013685601763427258,742,725,712,38.242,1,0
