IITGN-Robotics/Franka_IITGN_ROBOTICS/franka_ros/franka_iitgn/data/s_b_003.csv
time,fr3_joint1_pos,fr3_joint2_pos,fr3_joint3_pos,fr3_joint4_pos,fr3_joint5_pos,fr3_joint6_pos,fr3_joint7_pos,fr3_joint1_vel,fr3_joint2_vel,fr3_joint3_vel,fr3_joint4_vel,fr3_joint5_vel,fr3_joint6_vel,fr3_joint7_vel,fr3_joint1_eff,fr3_joint2_eff,fr3_joint3_eff,fr3_joint4_eff,fr3_joint5_eff,fr3_joint6_eff,fr3_joint7_eff,flexpin1,flexpin2,flexpin3,Force,ContactMic,ContactMic_gt
1739373992.4997246,0.13049276350660186,0.9716212830893572,0.21634010884264693,-1.5646113123010206,-1.4631749350658483,1.2773812360428085,0.2061937325517744,0.0002939884190878171,5.0792834509992736e-05,0.0016985994883429545,0.0023935540276620445,0.005575189536596562,-0.009567992346758224,0.003247479946335998,-0.3817255198955536,-47.99252700805664,3.35490345954895,16.07001495361328,-1.2910054922103882,-0.8548691272735596,0.012864691205322742,,,,,,,,,
1739373992.510689,0.1304989203564602,0.9716134298881415,0.21634795189164643,-1.564598494715403,-1.4631358245619306,1.2772712085602727,0.20619109107363995,0.0014213610119415236,-0.002314927788632892,0.00022601631348371793,0.001759087154361094,0.00537154748884726,-0.012038632168375177,0.0006430946089757111,-0.3817255198955536,-47.91318130493164,3.4064781665802,15.970832824707031,-1.1866353750228882,-0.9207870960235596,-0.0008682189509272575,,,,,,,,,
1739373992.5216188,0.13049924416067646,0.9716229671151199,0.21634618178762188,-1.564595628871062,-1.4631231113842873,1.2772005509305995,0.2061900261719927,0.001380715398283519,0.002313818652688073,-0.0013726753147224808,8.265600561110312e-06,0.0009754162253609463,-0.006003378063969751,-0.0005686917552778158,-0.3817255198955536,-48.01633071899414,3.48185658454895,15.947029113769531,-1.1271260976791382,-0.9729721546173096,-0.0008682189509272575,,,,,,,,,
1739373992.532619,0.13049817274061795,0.9716317234024923,0.21633849416037712,-1.564598274648135,-1.4631230700846451,1.2771549337859345,0.20618943069497878,0.0001990909841143806,0.00024257934681575248,-0.001467025205103584,-0.002458329338746565,-1.6822628899808637e-06,-0.005012542080926708,-0.0009933689976901934,-0.3301508128643036,-48.14328384399414,3.58500599861145,16.02240753173828,-1.1143087148666382,-0.9336044788360596,-0.013685601763427258,,,,,,,,,
1739373992.5427303,0.1304962819874495,0.9716398688456519,0.2163412475892201,-1.5645992064012546,-1.4631235272114356,1.2771248524433274,0.20619422970925147,-0.0007055089471949378,0.0006519442816088632,0.0009525078230102975,0.0005615425545353404,-0.0011759777719147978,-0.0006857339145614732,0.0008434468303551541,-0.3301508128643036,-48.24643325805664,3.5572350025177,16.04621124267578,-1.1014913320541382,-0.9537460803985596,-0.027418512850999832,,,,,,,,,
1739373992.5536814,0.1305001218021076,0.9716381838011103,0.2163399858087151,-1.5645925265684575,-1.4631195891774453,1.2771152325724362,0.20619570589484745,5.269568279133921e-05,0.00037078153868028754,0.00020624603872947995,-0.00021529031976607292,-0.0009290230429454581,0.0008245628697445566,0.0005102783653577983,-0.3539545238018036,-48.22262954711914,3.5334312915802,15.947029113769531,-1.1079000234603882,-0.9665634632110596,-0.04023589566349983,,,,,,,,,
1739373992.5636828,0.13049848810879497,0.9716307354072379,0.2163437422724605,-1.564598171611599,-1.4631220073152216,1.2771195398550321,0.20619184872369273,-0.0008910673594286709,-0.0012665515114624983,0.0006934610552311164,-0.00037813040597635416,-9.603752609090461e-05,0.00028060378446869566,6.917670539729386e-05,-0.3301508128643036,-48.11948013305664,3.48185658454895,16.02240753173828,-1.1143087148666382,-1.0059311389923096,-0.0072769103571772575,,,,,,,,,
1739373992.5736883,0.1305011541219602,0.9716289758835682,0.21634377758531756,-1.5645978085214014,-1.4631169077375505,1.2771241079328757,0.2061909215311041,-0.00010002170991975509,-0.00020612323323859346,0.001450769485086459,-0.00026926410656200614,-5.368591511909949e-05,0.0012177652788196622,0.00091112794627888,-0.3539545238018036,-48.09170913696289,3.48185658454895,16.04621124267578,-1.1271260976791382,-1.0132553577423096,-0.027418512850999832,,,,,,,,,
1739373992.5856237,0.13049608384776407,0.9716262660982918,0.21634198583578876,-1.5645925264515501,-1.4631167878917386,1.2771242616643235,0.2061910278936333,-0.0014416443248976036,0.0002443823633614423,-0.0004510672854578521,0.001461625040206689,-0.0004375133181722127,-0.0009331662172651919,-0.0008178312342173087,-0.2547723948955536,-48.04410171508789,3.50566029548645,15.947029113769531,-1.1271260976791382,-1.0324814319610596,-0.027418512850999832,,,,,,,,,
1739373992.5956957,0.13049375517774908,0.9716270514405947,0.21634586827422675,-1.5645999277976599,-1.463111431320636,1.2771299983050868,0.20618818722110868,-0.0012407401582754793,0.00030924184073385295,-0.00012212964260102584,-0.0005463082325340473,0.0010782074048569297,0.0004128077064632059,-0.0012432832993781986,-0.2309686839580536,-48.06790542602539,3.48185658454895,16.04621124267578,-1.1271260976791382,-1.0526230335235596,-0.0072769103571772575,,,,,,,,,
1739373992.607621,0.1305012611719659,0.9716269072068375,0.21634266920711775,-1.5645972179371281,-1.4631115325059467,1.2771268595003962,0.20619316259874648,0.000548153477091642,0.00028840234551667906,-0.000605582157883834,0.0004248330263935601,0.00042932502485707315,4.761109763294565e-05,0.0008498984824471951,-0.3301508128643036,-48.06790542602539,3.50566029548645,16.02240753173828,-1.1271260976791382,-1.0260727405548096,-0.027418512850999832,,,,,,,,,
1739373992.6187158,0.13049794941866721,0.9716229282370711,0.2163445335293263,-1.5645939460491431,-1.4631057871398045,1.277121145664643,0.20619108522721896,0.0007588666012405124,-0.0006275185117258761,0.0005135391122076504,-0.00045296017778483316,-8.599785690982205e-05,-0.00032530387479695535,-0.0002486923552298051,-0.2825433909893036,-48.04410171508789,3.48185658454895,15.994636535644531,-1.1399434804916382,-0.9867050647735596,-0.0008682189509272575,,,,,,,,,
1739373992.6287239,0.1304980705182116,0.9716307363371911,0.21633810879238846,-1.5645999424664043,-1.463112167506145,1.2771198240794015,0.20619022468231826,-0.0014667994382466156,0.0009199477612937203,-0.0004558023872769487,-0.0006671335077368792,-0.00022858292842651575,0.0009382920834893141,0.0012391472932130217,-0.2825433909893036,-48.11948013305664,3.5572350025177,16.04621124267578,-1.1207174062728882,-0.9665634632110596,0.0064559997990727425,,,,,,,,,
1739373992.6396976,0.13050434368054667,0.9716332537745361,0.21634195959012154,-1.56459994542189,-1.4631079026514038,1.2771159748106593,0.2061928126771913,0.001021813237029912,0.0004239557887006577,0.0014765332294249512,-0.0009917178536208975,-0.000296728962736437,0.00021057352084115797,-0.0007742829999837735,-0.3817255198955536,-48.17105484008789,3.50566029548645,16.04621124267578,-1.1207174062728882,-0.9473373889923096,-0.027418512850999832,,,,,,,,,
1739373992.649725,0.13050436514990932,0.9716344458472382,0.21633809712318106,-1.564597808521251,-1.4631078837313234,1.2771150557678594,0.20618452352675712,0.0002649272640725647,-0.0010944284592185353,-0.0007022209340859025,-0.00015086414322544936,0.0005425641270246384,0.0004850917358382654,-0.002987130669078946,-0.3817255198955536,-48.17105484008789,3.5572350025177,16.04621124267578,-1.1207174062728882,-0.9665634632110596,0.026597600430250168,,,,,,,,,
1739373992.66065,0.130501294990071,0.971628737464989,0.21633880575618006,-1.5645995824609684,-1.4631086473668535,1.2771174369311906,0.20618945436672656,-0.00014559775634852862,-0.001256585840822796,-0.0007099752095464968,-0.0012397637670416265,-0.00024037244431118085,0.0004299882500294474,9.868940936958905e-05,-0.3301508128643036,-48.09170913696289,3.5572350025177,16.07001495361328,-1.1143087148666382,-0.9867050647735596,0.012864691205322742,,,,,,,,,
1739373992.671727,0.13049605191331767,0.9716287286346713,0.21634195955788538,-1.5645933525148017,-1.4631078894914682,1.2771181945912689,0.20619422929507672,-0.0003109416219315486,-0.0005933735469135531,3.584137681910467e-05,0.0006629308404948273,-0.0009877516644294427,-0.000542972200996443,0.0027929771837665184,-0.2825433909893036,-48.09170913696289,3.50566029548645,15.970832824707031,-1.1207174062728882,-0.9931137561798096,-0.027418512850999832,,,,,,,,,
1739373992.6826315,0.13049615460138908,0.971627024944208,0.21634195959005548,-1.5645960918163384,-1.4631064919627152,1.2771260320639317,0.206187842006976,-0.0010723073382791295,-8.05275188233173e-05,-0.0007061124958428154,-0.0006274137911600096,6.723765747599199e-05,0.001393544879654329,-0.00010100499934895387,-0.2547723948955536,-48.06790542602539,3.50566029548645,15.994636535644531,-1.1335347890853882,-1.0324814319610596,0.026597600430250168,,,,,,,,,
1739373992.6926498,0.1304981525537032,0.9716232781802563,0.21634398139425956,-1.5645999539615643,-1.4631038987069542,1.2771260846071553,0.20618677614126307,0.0002606291162353553,-0.0019718201046398307,0.00012523507608236026,-0.0002943191557469044,-0.0005340445974201214,0.00038151732039403124,0.0001469369661112062,-0.2825433909893036,-48.01633071899414,3.48185658454895,16.04621124267578,-1.1271260976791382,-1.0324814319610596,0.026597600430250168,,,,,,,,,
1739373992.7036958,0.1304999002325781,0.9716270239629066,0.21634658857316819,-1.56459809104857,-1.4631045745546631,1.2771260621012934,0.20618593542746416,7.830994525070972e-05,-0.0020204551086058296,0.0009104226556085368,-0.000969407365853553,-0.00015010693125463987,-0.00011655165520241011,0.0013363957746435626,-0.3063471019268036,-48.06790542602539,3.48185658454895,16.02240753173828,-1.1472676992416382,-1.0196640491485596,0.03941498324275017,,,,,,,,,
1739373992.7146938,0.13050161275350775,0.9716307089148833,0.2163390458714941,-1.564594966205798,-1.4631031347661125,1.2771221370604644,0.20618465187803822,0.0005478769540917297,0.00014936870041858021,-0.00041876909423806087,0.0012060834026917859,0.0003547119607249422,0.00026651097700052754,-0.0006796561522769654,-0.3301508128643036,-48.11948013305664,3.5572350025177,16.02240753173828,-1.1207174062728882,-0.9995224475860596,0.05314789339900017,,,,,,,,,
1739373992.724718,0.13050161275350775,0.97163443703666,0.21633988370451415,-1.564599865931152,-1.4631055424282604,1.2771142981076582,0.20618470507273484,0.0005140911227631584,0.0026157562833463727,-0.0003261131970139489,-0.001450497335972178,0.0005307418014240819,-0.00039303431316764,-0.0015059116719291607,-0.3301508128643036,-48.17105484008789,3.5334312915802,16.04621124267578,-1.1271260976791382,-0.9601547718048096,0.05314789339900017,,,,,,,,,
1739373992.735707,0.13050161134285743,0.9716324479265235,0.21634271724840334,-1.5645899930678195,-1.463101618953461,1.2771127827335667,0.2061831376763172,-0.0006039383863222904,0.00038969514288994945,0.0007285863703784279,0.0008830516940760715,0.001127463890681567,-0.00021019215032664,-0.0008233710963772582,-0.3301508128643036,-48.14328384399414,3.5334312915802,15.923225402832031,-1.1335347890853882,-0.9473373889923096,0.03941498324275017,,,,,,,,,
1739373992.74572,0.13050161264497231,0.9716335699378381,0.21634195974611495,-1.5645992036988914,-1.463100546215656,1.2771139829937197,0.20618360075747472,2.8354150080560006e-05,0.00038676288768789896,0.001083316280339683,-0.0005192633688032213,0.002277645648289986,0.0014852176044172305,-0.0028401719136641424,-0.3301508128643036,-48.11948013305664,3.50566029548645,16.04621124267578,-1.1335347890853882,-0.9665634632110596,0.05314789339900017,,,,,,,,,
1739373992.7566283,0.13049990023277594,0.9716287404607681,0.21633987980020097,-1.564591446663983,-1.4631023635614955,1.2771163238989391,0.20618784394486925,-0.00011868354920732885,-0.000682484003625745,-0.0005306569124490347,0.000596511735494636,0.0006368441066739467,1.3136984274044448e-05,0.0001614337997877804,-0.3063471019268036,-48.09170913696289,3.5334312915802,15.970832824707031,-1.1271260976791382,-0.9802963733673096,0.026597600430250168,,,,,,,,,
1739373992.766666,0.13050090124318586,0.9716271279646823,0.21634195959005567,-1.5645931233692887,-1.4631016203890668,1.2771180238738495,0.20618343467910927,-9.76895716375901e-06,0.0007219202246664072,-0.00019668992213329908,0.0008836148230448776,0.000744553078219663,-0.000520421889505103,-0.0011707950546399962,-0.3301508128643036,-48.06790542602539,3.50566029548645,15.994636535644531,-1.1335347890853882,-0.9931137561798096,0.026597600430250168,,,,,,,,,
1739373992.7776914,0.13050157773642676,0.9716241639218902,0.2163421987172405,-1.564593703222201,-1.4631016060689865,1.2771228487879294,0.20618632624559177,-0.0003214525251442513,0.0004617799917749378,0.0003309031380205889,0.0010022417525060914,-0.0008314289497062595,0.0006046546567242369,-0.0006615714712143629,-0.3301508128643036,-48.06790542602539,3.50566029548645,15.994636535644531,-1.1335347890853882,-1.0324814319610596,0.03300629183650017,,,,,,,,,
1739373992.7876968,0.13049989730237133,0.9716253112849124,0.21633904229524992,-1.564595055254607,-1.4630999822962567,1.2771209802560266,0.20618632813204416,0.0010082961258542048,0.0006838089856749871,-0.0024193203261808657,-8.429102385430865e-05,-0.00012847443176707834,-0.0003080179513720574,0.0009629927785466757,-0.3063471019268036,-48.04410171508789,3.5572350025177,15.994636535644531,-1.1472676992416382,-1.0196640491485596,0.03941498324275017,,,,,,,,,
1739373992.7977269,0.13049747576752832,0.971625312423469,0.21634409428562792,-1.5645974464917296,-1.4630996247228925,1.277121635428842,0.20618706733579575,-0.000507262469973183,0.0002468638374362257,0.00031506629966916375,-0.0008479886212603154,0.0008896379179105243,2.1685758079330206e-05,0.00019895811495743512,-0.2825433909893036,-48.04410171508789,3.50566029548645,16.02240753173828,-1.1472676992416382,-1.0132553577423096,0.03300629183650017,,,,,,,,,
1739373992.8086503,0.13049990023143693,0.9716250475139944,0.21634274073788945,-1.5645958139984704,-1.4631008481210324,1.277115055715795,0.20618706879387802,-0.0002945022900419285,-0.0010286163242742333,0.0003660440131573704,-0.00036579899804047125,-0.0001342298043225443,-0.0005043702123179935,0.0005259341160239741,-0.3063471019268036,-48.04410171508789,3.5334312915802,15.994636535644531,-1.1399434804916382,-0.9665634632110596,0.03300629183650017,,,,,,,,,
1739373992.8186812,0.13050192917322692,0.9716271044126312,0.21634271438064634,-1.564590504059202,-1.4631022063687087,1.2771150557138014,0.2061874896343073,0.00021953534077322656,-0.00038564049750957344,0.0007913400316970013,0.0010752726287440542,0.0002026229725988238,-0.0005559971970507389,-0.0014342564485821975,-0.3301508128643036,-48.06790542602539,3.5334312915802,15.923225402832031,-1.1271260976791382,-0.9665634632110596,0.026597600430250168,,,,,,,,,
1739373992.8296483,0.13049990023456276,0.9716307354062907,0.21633988381245517,-1.5645981318919804,-1.463098387692432,1.2771126649959965,0.2061880501863022,-0.00023002651603084995,-6.382045064613198e-05,0.0001980358584096468,-0.0014662562296363234,0.0006772934195640539,-0.00022585519925044195,9.923989709721528e-05,-0.3063471019268036,-48.11948013305664,3.5334312915802,16.02240753173828,-1.1335347890853882,-0.9473373889923096,0.012864691205322742,,,,,,,,,
1739373992.839731,0.1304999005583113,0.9716248526860927,0.21633774396716363,-1.564596819089076,-1.463097498674702,1.277115055550302,0.20618623926730587,-0.00021189045692930402,-0.002795984071857238,0.00046511673513611725,-0.0004544442586937983,0.000933019122752484,0.0029824445899726045,0.0011339442902423705,-0.3063471019268036,-48.06790542602539,3.5334312915802,16.04621124267578,-1.1399434804916382,-0.9665634632110596,0.012864691205322742,,,,,,,,,
1739373992.8507514,0.1304999002327784,0.9716307353935797,0.21634375100357342,-1.5645939647446292,-1.4630988826022948,1.277117723640988,0.20619498753104346,-0.0005188881483705516,0.0008252093973238226,0.0008078122211803657,0.0008925475684140802,0.0007970098579247538,0.000914965596537427,0.0035424974430541298,-0.3063471019268036,-48.11948013305664,3.48185658454895,15.970832824707031,-1.1207174062728882,-0.9931137561798096,-0.03382720425724983,,,,,,,,,
1739373992.8616598,0.13049818771204538,0.9716260276792639,0.21634298317120218,-1.5645950485302171,-1.4631031191638726,1.277113949732058,0.2061942299431908,-0.00033176087673590345,-0.0008521918958748668,0.0015060346126202623,0.001728634165676676,-0.0011864013602978,-0.0008254801791662805,0.003945751580971431,-0.2825433909893036,-48.04410171508789,3.50566029548645,15.994636535644531,-1.1207174062728882,-0.9931137561798096,-0.027418512850999832,,,,,,,,,
1739373992.872726,0.13049832560429675,0.9716233148110683,0.21634408841916467,-1.5645935884307514,-1.4630974945838882,1.27712128113294,0.206185970346161,-0.00017518872195593747,-0.00045911997550179704,-0.0004753606773604209,0.00038840919160263706,0.001058903950393539,6.481114422704026e-06,0.00044848093681592704,-0.2547723948955536,-48.01633071899414,3.50566029548645,15.994636535644531,-1.1399434804916382,-1.0196640491485596,0.03300629183650017,,,,,,,,,
1739373992.8827515,0.1304988206961658,0.9716233112121911,0.216338885933321,-1.5645957843309524,-1.463097647493828,1.2771205758077715,0.20618642520811392,-0.00022294915050503238,-0.0006846053054833839,-0.0017724672392539578,-0.0007016445294573907,-0.00010678716956556255,-0.00039209948925074774,4.3350280064797576e-05,-0.2825433909893036,-48.01633071899414,3.5572350025177,16.02240753173828,-1.1271260976791382,-1.0132553577423096,0.026597600430250168,,,,,,,,,
1739373992.8936112,0.13049818869222266,0.9716252328416323,0.21633833344664044,-1.564595814979618,-1.4630976532843654,1.277117476177047,0.20618772583759445,-0.00022715591762952807,5.433031965973994e-05,-0.002248089861488324,-0.0004497819875301077,-0.001990283534811638,-0.0001846240253146933,8.305562572280111e-06,-0.2825433909893036,-48.04410171508789,3.5572350025177,15.994636535644531,-1.1271260976791382,-0.9867050647735596,0.026597600430250168,,,,,,,,,
1739373992.9036286,0.13049990023279318,0.9716307354044945,0.2163436631661471,-1.5645929795116023,-1.4630976343889015,1.277117436931855,0.2061933465468483,-1.4960461500472175e-05,0.001538011087210155,0.000324642598917153,0.0006346267218372899,0.0011395074770257736,-1.2874315662351305e-06,0.0020604806381794944,-0.3063471019268036,-48.11948013305664,3.48185658454895,15.994636535644531,-1.1271260976791382,-0.9867050647735596,-0.020094294100999832,,,,,,,,,
1739373992.9136488,0.13049819943129423,0.9716306559329825,0.21633987979886052,-1.564597932050145,-1.463098470540373,1.2771158133738798,0.20619320462754007,-0.0003639413767350296,0.00027131663871179544,-0.00030996515780072213,-0.0009482152884186986,-0.0007573452337025946,0.00016764713896261858,0.0007794840909415488,-0.2825433909893036,-48.11948013305664,3.5334312915802,16.02240753173828,-1.1207174062728882,-0.9729721546173096,-0.020094294100999832,,,,,,,,,
1739373992.923657,0.1304999384290454,0.971627024942912,0.21633998586293518,-1.5645942959496941,-1.4631025511296465,1.2771150557138014,0.20619387416590018,6.471371065589469e-06,9.294415739013822e-06,-0.0005157625870039954,-0.0009381671435876946,-0.0014854605132783038,0.0017776507749510334,0.0015305748602052814,-0.3063471019268036,-48.06790542602539,3.5334312915802,15.970832824707031,-1.1207174062728882,-0.9665634632110596,-0.027418512850999832,,,,,,,,,
1739373992.9347167,0.13049822692110594,0.9716324478902345,0.21633987990880568,-1.5645928862709677,-1.4630975951657599,1.277115260552237,0.20619481651839805,-0.0021891374859016183,0.0013286136530831468,-0.0006025561608330697,0.00018413914192736767,0.0002766757776307612,-0.0004971323108152526,0.002724067697506374,-0.2825433909893036,-48.14328384399414,3.5334312915802,15.994636535644531,-1.1271260976791382,-0.9802963733673096,-0.03382720425724983,,,,,,,,,
1739373992.9456177,0.13049914608683824,0.9716324479265727,0.21634082464420062,-1.5645951341685502,-1.4630968374819822,1.277116555695315,0.20618790172819082,0.0005884252326229565,0.0013826802665307832,0.0010869421224913402,-0.0007387383975321969,0.00035317383159710317,0.0003496118095866512,-4.837056997949974e-05,-0.2825433909893036,-48.14328384399414,3.5334312915802,15.994636535644531,-1.1335347890853882,-0.9802963733673096,-0.0008682189509272575,,,,,,,,,
1739373992.9556532,0.13049621918323606,0.971628737464989,0.21634408549438633,-1.5645956858535737,-1.4630968374819817,1.2771197099107279,0.20618479108130755,-0.00017317403352102635,6.713581229220994e-05,0.00045565753949557104,-0.0009325335283424496,0.0005136289373472333,0.0003845903178994655,-0.00047259609788250813,-0.2547723948955536,-48.09170913696289,3.50566029548645,16.02240753173828,-1.1335347890853882,-1.0059311389923096,0.03941498324275017,,,,,,,,,
1739373992.9676979,0.1304966130837316,0.9716273604963321,0.21634682177062672,-1.5645996010618712,-1.4630960812754537,1.277120575808658,0.20618617114826715,-0.0020634192019163377,0.0007846331479706369,0.000594251931141041,-0.002063215842992735,-0.00014581062768593924,0.0005412541690716273,0.00017205977292239364,-0.2309686839580536,-48.06790542602539,3.48185658454895,16.04621124267578,-1.1399434804916382,-1.0132553577423096,0.03941498324275017,,,,,,,,,
1739373992.978658,0.1305016127575267,0.9716258764426713,0.21634577314964937,-1.5645957737721672,-1.4630944553310035,1.2771181945912689,0.20618983141108174,1.317060544177382e-05,-0.0001457691029784086,0.0002431037556780484,-0.0006846057440015228,-0.00041601345108893315,-0.0004407374280116488,0.002552831752063558,-0.3301508128643036,-48.09170913696289,3.45805287361145,15.994636535644531,-1.1536763906478882,-0.9931137561798096,0.0064559997990727425,,,,,,,,,
1739373992.9896967,0.13050203606588104,0.9716260711447746,0.21634085996384264,-1.5645949530861665,-1.4630968374819764,1.2771188345137772,0.20618708045643167,0.0002629145983214887,-0.0007577737954498828,-0.000884306308511693,0.00016827653184283583,-0.0007098206532528266,0.00012512624029120667,-0.0007921446682684811,-0.3063471019268036,-48.06790542602539,3.5334312915802,16.02240753173828,-1.1335347890853882,-0.9995224475860596,0.03300629183650017,,,,,,,,,
1739373993.0016985,0.1305023612870937,0.9716304175090191,0.21634200574073245,-1.5645949795607463,-1.4630975951420602,1.27711501646728,0.2061841826805754,-0.00033245047686578696,0.00039529129097499804,-0.0004756185026136322,5.586718844956392e-05,-0.0007735016028423607,-0.000762691171199658,-0.0002360354979007909,-0.3063471019268036,-48.11948013305664,3.5334312915802,16.02240753173828,-1.1271260976791382,-0.9665634632110596,0.026597600430250168,,,,,,,,,
1739373993.0136142,0.13050532648712665,0.9716280212275072,0.2163420394591275,-1.5645935924966488,-1.4630968359736989,1.2771158133738059,0.20618708461002916,0.001786820908084372,-0.0012380818465445127,0.00027321536615055865,-0.00017637448156330483,-0.0005078656695191784,0.001230122566864932,0.0007651499588177698,-0.3817255198955536,-48.09170913696289,3.50566029548645,15.994636535644531,-1.1335347890853882,-0.9729721546173096,0.03300629183650017,,,,,,,,,
1739373993.0236905,0.1305033295062453,0.9716270259132748,0.2163402233475512,-1.56459709874017,-1.4630957508562439,1.2771130635050474,0.20618514611782707,0.0004025862644390834,-0.00029992507908845186,-0.0015021084433547067,-0.00020660434890326076,0.00015368055824704243,2.5585329411122735e-05,-0.000648594846503257,-0.3539545238018036,-48.06790542602539,3.5572350025177,16.02240753173828,-1.1335347890853882,-0.9601547718048096,0.03941498324275017,,,,,,,,,
1739373993.0337226,0.13049921607620438,0.9716324479265896,0.21634224205421143,-1.5645931146782943,-1.463097593633769,1.2771119697474078,0.2061907842980758,-0.0009572497097841957,0.0014055812629996806,-0.0003367004239492707,0.0006688823172957125,-0.0003417118052702598,-0.0007882928966386251,0.0014464777096242485,-0.2825433909893036,-48.14328384399414,3.5334312915802,15.994636535644531,-1.1271260976791382,-0.9802963733673096,-0.0072769103571772575,,,,,,,,,
1739373993.0446875,0.1304982671806154,0.9716296911393055,0.2163455250685464,-1.564592882001693,-1.4630952005156672,1.2771141344382246,0.2061864201486873,-0.0005415020918363528,0.0003003624471117207,0.0008359666726725531,9.438636588071891e-05,-0.0006312434718597134,0.0001365718739133692,-0.0013207740647607773,-0.2825433909893036,-48.09170913696289,3.45805287361145,15.994636535644531,-1.1472676992416382,-0.9867050647735596,0.026597600430250168,,,,,,,,,
1739373993.0557249,0.13049998812848881,0.9716270249604084,0.2163429170708589,-1.5645958745184403,-1.463097595141833,1.2771199069955002,0.20618546270960184,-0.0005541896464604288,0.0003772594069872577,-0.0006105812829735437,-0.0005505955444670171,-0.0004808047609511917,-0.0004286649636349916,-0.0005544530923028459,-0.3063471019268036,-48.06790542602539,3.50566029548645,16.04621124267578,-1.1271260976791382,-1.0196640491485596,0.04673920199275017,,,,,,,,,
1739373993.0666504,0.13050061510712233,0.9716253114423804,0.21634291611259748,-1.5645968533737449,-1.463096470969287,1.2771197055480905,0.20619184726760023,0.0007314059090305248,2.3294867711050023e-05,0.00021440221609965053,-0.0009464539452298001,-0.0001526015141072682,-0.0010787524988680778,0.001865134804004775,-0.3063471019268036,-48.04410171508789,3.50566029548645,16.04621124267578,-1.1335347890853882,-1.0059311389923096,-0.0072769103571772575,,,,,,,,,
1739373993.078694,0.13050454061654973,0.9716307350787878,0.21634587252774795,-1.5645940311357303,-1.4630949924162036,1.2771189522513224,0.20618615754807426,0.0016103794503820037,0.0014089988932563988,0.0008937129982974415,0.0008717134896257928,-0.00043923612708127245,-6.106797470736304e-05,-0.0020018229684462194,-0.3301508128643036,-48.11948013305664,3.48185658454895,15.970832824707031,-1.1399434804916382,-0.9995224475860596,0.03941498324275017,,,,,,,,,
1739373993.0897326,0.13049618993344053,0.9716252326236177,0.21634208448820852,-1.5645938536808854,-1.463098352800092,1.2771135251253922,0.20618620453074404,-0.0023631202204670693,-0.0001071191333241373,0.00015069098898152155,-0.00012924748043230882,-0.0016158635063012283,-0.0012587539030258289,-0.001049272011276072,-0.2547723948955536,-48.04410171508789,3.5334312915802,15.994636535644531,-1.1207174062728882,-0.9665634632110596,0.03941498324275017,,,,,,,,,
1739373993.100718,0.13050480628499314,0.9716253124230763,0.21634058974172693,-1.5645932363756647,-1.4630968374819817,1.2771139524605244,0.20619337283469574,0.002006268875399612,-0.0012629350468287854,-0.0002632965295148086,0.0006872411873786097,-0.0008868819951576234,-0.000911044624632607,0.0009972826846884081,-0.3301508128643036,-48.04410171508789,3.5334312915802,15.970832824707031,-1.1335347890853882,-0.9665634632110596,-0.020094294100999832,,,,,,,,,
1739373993.1116674,0.13050298534306615,0.971632456756891,0.21633999396745723,-1.5645949529728898,-1.4630968225279104,1.277115042625621,0.20618865922920585,0.0005787679835066231,0.001878707575497479,-0.00029410263879457206,-0.001049057311728569,-0.0009374403946102105,0.00045044894047713556,0.00013821183455970407,-0.3063471019268036,-48.14328384399414,3.5334312915802,16.02240753173828,-1.1335347890853882,-0.9665634632110596,-0.0072769103571772575,,,,,,,,,
1739373993.1226866,0.13050469833340206,0.9716287384461854,0.21634195991472072,-1.5645929529708293,-1.463093858391342,1.2771145278596472,0.20618459821899182,0.0006525607081135688,0.0002907006305045756,-0.0007299103155887186,0.0009438827734345801,0.0007154705105660666,0.0005157119056015051,3.3361789730228025e-05,-0.3301508128643036,-48.09170913696289,3.50566029548645,15.994636535644531,-1.1271260976791382,-0.9665634632110596,0.026597600430250168,,,,,,,,,
1739373993.1336417,0.13049990126296934,0.9716304968782523,0.21634488463180096,-1.5645931911718263,-1.4630917158607408,1.2771162861635434,0.20618310070358045,-0.0003838795640122153,-0.00029209243315607317,0.0011767015570013466,-0.0011522443595694623,0.0011905371518661136,0.0013232927740935085,-0.0026386913036687155,-0.3063471019268036,-48.11948013305664,3.50566029548645,15.994636535644531,-1.1399434804916382,-0.9802963733673096,0.026597600430250168,,,,,,,,,
1739373993.1436749,0.13049826681699261,0.9716287649330493,0.21634023270814284,-1.564598557020975,-1.463095717704972,1.2771181377346463,0.20618708572466662,-0.0006244661173374074,-0.00037984112878220014,0.0003970839531409824,-0.001757917058251799,-0.0001273125689197571,0.0006554362485705942,0.0007489737777288236,-0.2825433909893036,-48.09170913696289,3.5334312915802,16.07001495361328,-1.1399434804916382,-0.9931137561798096,0.03300629183650017,,,,,,,,,
1739373993.1546218,0.13050033634996086,0.9716269984534597,0.21634416858432137,-1.5645949617913124,-1.4630913596307762,1.2771157673070963,0.20619184872568966,0.0007593027575595029,7.013539706140142e-05,0.0007375413163375941,-4.97964608243131e-05,0.0011596090684868952,-0.0014241254125921985,0.0036037829524305474,-0.2825433909893036,-48.06790542602539,3.50566029548645,16.02240753173828,-1.1399434804916382,-0.9995224475860596,-0.0072769103571772575,,,,,,,,,
1739373993.164724,0.13050035027538182,0.9716252329502184,0.21634206493415226,-1.5645967359649937,-1.4630928213547187,1.2771189521974098,0.2061886597151871,-0.0012545921049721255,-0.0006747278518163852,-6.669104149973704e-05,-0.0005568116661716387,0.0010459152319259404,0.0005507056217743404,0.0015045875659418363,-0.2825433909893036,-48.04410171508789,3.50566029548645,16.04621124267578,-1.1399434804916382,-0.9995224475860596,-0.0072769103571772575,,,,,,,,,
1739373993.1756887,0.1304981890625624,0.9716270249438093,0.21634195959065033,-1.56459528273499,-1.4630903417485155,1.277116208320832,0.2061897483000995,-0.000349018580633971,2.1265047800237585e-05,-4.002870085659222e-05,-0.0001834452700289843,0.0006449900077375027,-0.0006709900480920212,-0.0005256678261195431,-0.2825433909893036,-48.06790542602539,3.50566029548645,16.02240753173828,-1.1472676992416382,-0.9802963733673096,0.0064559997990727425,,,,,,,,,
1739373993.1857247,0.13049851292122405,0.9716314506615794,0.21634271433219612,-1.5645974508991174,-1.4630935743770128,1.2771135003487486,0.20618973945346336,0.000875847579173864,0.0002379673932081891,-0.0009689354293343855,-0.002058329075080698,0.00031525573018180745,8.448591601537588e-05,-0.0011134169177207842,-0.2825433909893036,-48.11948013305664,3.5334312915802,16.04621124267578,-1.1335347890853882,-0.9802963733673096,0.0064559997990727425,,,,,,,,,
1739373993.1967075,0.1305000154738928,0.971629452724764,0.21633988024822856,-1.5645953012717915,-1.463094625009644,1.2771111002252367,0.20619209308043404,-0.0007251137461844699,0.0005870174285171721,8.980147665827301e-05,-0.0013154047742725073,0.00038474467775159553,-0.0008137845881493771,0.0008180409096674952,-0.3063471019268036,-48.09170913696289,3.5334312915802,16.02240753173828,-1.1399434804916382,-0.9601547718048096,-0.013685601763427258,,,,,,,,,
1739373993.207617,0.1304999002334271,0.9716307354098799,0.21634279404126025,-1.5645949892651598,-1.4630930427264808,1.2771131143612542,0.20618990563344078,-0.0009839049425415212,0.00010026790920501444,0.000355223388252474,-0.0009485905475910595,0.0013393570721337868,-0.0008563839947981962,-0.00030799372477735814,-0.3063471019268036,-48.11948013305664,3.5334312915802,16.02240753173828,-1.1335347890853882,-0.9601547718048096,-0.0008682189509272575,,,,,,,,,
1739373993.2176225,0.13050111882639875,0.971624879177046,0.216340934728722,-1.5645968504325407,-1.4630930956442598,1.2771170265254583,0.2061906107850081,0.00019571667574719222,-0.0008282787530528106,-0.0003055704403564732,-0.0022866007064816004,0.0010429845310187943,0.0005418949023857564,-0.00042877525100222774,-0.2825433909893036,-48.06790542602539,3.5572350025177,16.04621124267578,-1.1335347890853882,-0.9867050647735596,-0.0072769103571772575,,,,,,,,,
1739373993.227688,0.13050227646863286,0.9716287049418023,0.21634270434540054,-1.5645967366208857,-1.4630946109653127,1.2771145427815838,0.2061894160582185,0.0005805101229135296,0.00016382172380181848,0.0004856873568579978,-0.001180744500906457,-0.000981538724295961,3.9293075773134706e-05,0.0008395493639090348,-0.3063471019268036,-48.09170913696289,3.50566029548645,16.04621124267578,-1.1207174062728882,-0.9931137561798096,-0.013685601763427258,,,,,,,,,
1739373993.2387068,0.13049822715132736,0.9716270249440743,0.2163422087660825,-1.5645928613971694,-1.463092089129428,1.2771178411426036,0.20618521563829686,-1.7899889794854265e-05,0.0006772089283998967,-0.001402147200885498,0.000382702903026563,-0.00012088338373910564,-8.682270633654895e-05,-0.0022501844633973952,-0.2825433909893036,-48.06790542602539,3.50566029548645,15.994636535644531,-1.1335347890853882,-0.9931137561798096,0.012864691205322742,,,,,,,,,
1739373993.2496927,0.13050283916063043,0.9716230760640945,0.21634227551433677,-1.5645929539517762,-1.4630968193573566,1.277118194585283,0.2061859551532301,-3.083723069561736e-05,-0.0010683264321425742,-0.0013372830942068273,0.0006020257094675689,-0.0006374337229121564,0.0005289062552823677,-0.0010429845492852085,-0.3063471019268036,-48.01633071899414,3.50566029548645,15.994636535644531,-1.1335347890853882,-0.9931137561798096,0.0064559997990727425,,,,,,,,,
1739373993.259694,0.13049845155342724,0.9716269454673605,0.21634015489901906,-1.564592103712952,-1.4630998351534474,1.2771181939452463,0.20618944929083843,-0.0012489052769030708,-0.0004595821231818112,-4.1850163277564714e-05,0.0012688019793521436,-0.00031324494171743793,0.00038975155557359606,-0.0013168492897057285,-0.2825433909893036,-48.06790542602539,3.5334312915802,16.02240753173828,-1.1399434804916382,-0.9931137561798096,0.012864691205322742,,,,,,,,,
1739373993.2706542,0.13050235380029226,0.9716270249441084,0.21634266834357993,-1.5645928731655594,-1.463092446105592,1.277114244934849,0.20618602332349087,0.0011123795803026572,-0.0004990178932829521,0.0010268160356604451,0.00023433964588657442,-0.0006080861222055598,0.0002029765132025313,-0.00012039249844062003,-0.3063471019268036,-48.06790542602539,3.50566029548645,15.994636535644531,-1.1335347890853882,-0.9867050647735596,0.03300629183650017,,,,,,,,,
1739373993.280715,0.1305010122010832,0.9716253124235267,0.2163440834727437,-1.5645910906029177,-1.4630932305206314,1.2771155803330694,0.2061831003959496,-0.0014787764658469626,-0.001490098031348574,0.0005595447980543185,0.0004868666108716588,0.0002895232893182684,0.0012228242646823036,-0.0001820629334121903,-0.2825433909893036,-48.04410171508789,3.48185658454895,15.970832824707031,-1.1271260976791382,-0.9802963733673096,0.03941498324275017,,,,,,,,,
1739373993.2916152,0.13050014931892964,0.9716309738244212,0.21633999691756317,-1.5645985183511537,-1.4630946708630819,1.2771147003953154,0.20619152964717477,-0.0012460214916675196,0.0008122681792007088,0.0005819213695806212,-0.001272961510588321,0.0011371226901067417,0.0010409789678482884,0.001265588735162259,-0.3063471019268036,-48.11948013305664,3.5334312915802,16.07001495361328,-1.1472676992416382,-0.9665634632110596,-0.013685601763427258,,,,,,,,,
1739373993.3016276,0.13050025474427282,0.9716324479306109,0.21633988271836868,-1.5645972051278667,-1.4630924729257246,1.2771117183564191,0.2061922381201711,-0.0003297477903788124,0.0019931739375457533,-0.0003889652113850686,-0.00039554060549582947,0.00023954716216476027,0.0006809726613821934,0.0006523307298768235,-0.3063471019268036,-48.14328384399414,3.5334312915802,16.02240753173828,-1.1335347890853882,-0.9665634632110596,-0.013685601763427258,,,,,,,,,
1739373993.3116968,0.1305017270221878,0.971625206895779,0.21634196002213252,-1.5645928732090615,-1.4630951718524303,1.2771162057176135,0.20619290849991237,0.0005861208487629139,-0.0005132640628625981,1.2424685786092005e-05,0.0009581720460262737,0.00020772798901887943,0.00028190564990143084,0.0010665343858696232,-0.3301508128643036,-48.04410171508789,3.50566029548645,15.994636535644531,-1.1399434804916382,-0.9867050647735596,-0.0072769103571772575,,,,,,,,,
1739373993.3217034,0.130502153694351,0.971628737463202,0.2163428280634255,-1.5645928731709213,-1.463094919420328,1.2771171349322887,0.2061866185232333,0.0002761211544196013,0.00036050530406129443,0.0004298218417058562,0.0003418885511831034,-0.00028798712202825314,0.0011355406575667072,-0.0009662106181546013,-0.3063471019268036,-48.09170913696289,3.5334312915802,15.994636535644531,-1.1207174062728882,-0.9931137561798096,0.026597600430250168,,,,,,,,,
1739373993.3317385,0.13049924584646366,0.9716307339886306,0.21634610442700047,-1.5645928741520672,-1.463096832291997,1.277113903332597,0.2061874764910176,-0.0006013010188499686,0.002021033495988969,-8.161129999886626e-05,-0.00023705363086772626,-0.0012987745937289047,-0.0005082720051787597,-0.00023980118559890006,-0.2825433909893036,-48.11948013305664,3.48185658454895,15.994636535644531,-1.1335347890853882,-0.9867050647735596,0.026597600430250168,,,,,,,,,
1739373993.3426912,0.13050192950473483,0.9716284990464019,0.21634290750758312,-1.5645918060766932,-1.4630920708304047,1.2771177179519,0.206185520781752,-0.0006180469048956637,0.0015517204082734926,0.0005302300952935737,0.0005611652558565418,0.00029644809310875155,-0.0005464228774924495,0.0004574884469556699,-0.3301508128643036,-48.09170913696289,3.50566029548645,15.970832824707031,-1.1335347890853882,-0.9995224475860596,0.019273381680250168,,,,,,,,,
1739373993.3537445,0.13049999116725486,0.9716304969859172,0.21633998478821764,-1.5645910904979412,-1.4630903268411117,1.2771163081243149,0.20618515861068265,0.0007111265838368097,0.0003098846442336207,0.0004479701771630817,8.995055566689064e-05,0.0006217174859902993,9.907871305452905e-05,-0.0013043314796151997,-0.3063471019268036,-48.11948013305664,3.5334312915802,15.970832824707031,-1.1472676992416382,-0.9802963733673096,0.012864691205322742,,,,,,,,,
1739373993.3646796,0.1304984438824143,0.9716270249065733,0.21634201444834533,-1.5645928731709209,-1.4630949075791786,1.277116775708793,0.20618770686607577,-0.0006364659719997844,-0.0005088405782347153,-0.0010142988522140386,0.00013731520283442845,-0.0011556492784326469,-0.0004858238619243111,-0.0003813128609529553,-0.2547723948955536,-48.06790542602539,3.5334312915802,15.994636535644531,-1.1207174062728882,-0.9931137561798096,0.026597600430250168,,,,,,,,,
1739373993.375673,0.1304973615367141,0.9716287374649889,0.2163401989725173,-1.5645928820012385,-1.4630901326110446,1.2771125777630223,0.20619285225468653,-0.0020667050779170724,-0.0001143090438805949,-0.0006152317054541245,-6.802002034820801e-05,0.0011781361694781338,-0.001313993328667078,0.0011219737668195628,-0.2309686839580536,-48.09170913696289,3.5334312915802,15.994636535644531,-1.1399434804916382,-0.9729721546173096,-0.020094294100999832,,,,,,,,,
1739373993.3866882,0.1305044986673848,0.971630734097647,0.21634374227247993,-1.5645949529609258,-1.4630919518696837,1.2771157545310523,0.206192606377104,0.0009339953958142605,-0.00035582124625871056,-0.0013094958663500418,-0.0008415968539528819,-0.0002511419429188951,0.000541746861429927,0.0022561750968170275,-0.3301508128643036,-48.11948013305664,3.48185658454895,16.02240753173828,-1.1335347890853882,-0.9729721546173096,-0.013685601763427258,,,,,,,,,
1739373993.3967593,0.1305042847497745,0.9716279083962601,0.2163419595900557,-1.5645928731709209,-1.4630921241642991,1.277111103903643,0.206187826453992,0.0011246005974874127,-0.00019640984680767838,0.0002969220988848531,0.00030329867388574183,-0.0010163070158612703,8.963755960766191e-05,-0.00039303644313071375,-0.3539545238018036,-48.09170913696289,3.50566029548645,15.994636535644531,-1.1335347890853882,-0.9601547718048096,0.026597600430250168,,,,,,,,,
1739373993.4076815,0.1305031029678222,0.9716280221952114,0.2163440888372653,-1.564597204691801,-1.463091950566234,1.2771126729469187,0.2061870856426873,0.0010047948574185737,-8.138372400966077e-05,0.0008546035793453282,-0.0007191370315569696,0.00047484329724124276,0.00018334801204152534,-0.0009278237200109367,-0.3063471019268036,-48.09170913696289,3.50566029548645,16.02240753173828,-1.1335347890853882,-0.9867050647735596,0.03300629183650017,,,,,,,,,
1739373993.4186506,0.1305030237923859,0.971625876440694,0.2163398798522097,-1.5645957351792534,-1.4630928282421989,1.2771176667102793,0.20619179162606574,0.0002237152372295644,-0.0008213810899460678,-0.0011311393635176476,-0.0010063602309410072,0.000378592431225911,0.00044982993608218226,3.0207698599283217e-05,-0.3063471019268036,-48.09170913696289,3.5334312915802,15.994636535644531,-1.1271260976791382,-0.9931137561798096,-0.0072769103571772575,,,,,,,,,
1739373993.4296846,0.13050212397788002,0.9716253124073762,0.21634022691042526,-1.5645928820537334,-1.463088771484033,1.2771157597136749,0.20619103472196956,-0.00016654497938660125,-0.00037038543474655276,-0.0008003548650862801,0.0018150162181576213,0.0009832250582638676,-0.0003181726782951548,0.0014597320214602858,-0.3063471019268036,-48.04410171508789,3.5572350025177,15.994636535644531,-1.1335347890853882,-0.9995224475860596,-0.027418512850999832,,,,,,,,,
1739373993.4416063,0.13050139141999936,0.9716233423181608,0.21634403507105454,-1.5645949896266313,-1.4630895822648624,1.2771195097999535,0.2061881917213979,0.0010501411059462044,-0.001354240702363045,0.0005910795807255554,-6.2690172094785e-05,0.0008307021302959427,0.0005267839340032302,-3.144694537471619e-05,-0.2825433909893036,-48.01633071899414,3.48185658454895,16.02240753173828,-1.1271260976791382,-1.0132553577423096,0.019273381680250168,,,,,,,,,
1739373993.4526513,0.13050309519299635,0.9716248791772031,0.21634234693051846,-1.5645949539421296,-1.463091554266417,1.2771137346788608,0.2061855209969152,0.0011925074838741196,-0.00019874895038313244,-0.0002847147418648288,-0.00032168704564457755,-0.0007100103888343275,-0.00026277649576419293,-0.00044131922850463136,-0.3063471019268036,-48.06790542602539,3.5334312915802,16.02240753173828,-1.1399434804916382,-0.9867050647735596,0.019273381680250168,,,,,,,,,
1739373993.463713,0.13050278756266445,0.9716262746821854,0.21634408564698884,-1.564597451220587,-1.4630918858015878,1.2771120303120091,0.2061881890763165,-0.0005608768307916756,-0.0006130098398034259,-0.0007586374013380248,-0.0012532770404325372,-0.0004743012736324445,-0.0005511722212099705,-8.002994446197425e-05,-0.3063471019268036,-48.06790542602539,3.50566029548645,16.04621124267578,-1.1335347890853882,-0.9802963733673096,0.04673920199275017,,,,,,,,,
1739373993.474643,0.1305047333827114,0.9716248664207308,0.21634208834044522,-1.5645950413743164,-1.4630934259752895,1.2771110585689913,0.20618461559528473,0.0008521107081296177,-0.0005955287891771902,-0.0009401394394896989,0.0004002492970507893,-0.0002231499264226612,-0.0010260352348039198,-0.0006196019632265915,-0.3301508128643036,-48.06790542602539,3.5334312915802,16.02240753173828,-1.1207174062728882,-0.9729721546173096,0.026597600430250168,,,,,,,,,
1739373993.4847202,0.1305038319763411,0.9716307352602711,0.21633820635551687,-1.5645959861094496,-1.4630919499004453,1.2771110450025274,0.20618703043284378,0.0005608044604645452,0.0005687277094331786,-0.00043553617001969454,-1.4748720911736965e-05,-0.0006696802544441806,-0.0004598190217160241,4.100056637179852e-05,-0.3301508128643036,-48.11948013305664,3.5572350025177,16.02240753173828,-1.1335347890853882,-0.9729721546173096,0.0064559997990727425,,,,,,,,,
1739373993.4957268,0.13050267187506567,0.9716328811730532,0.21634412059189834,-1.5645928731767529,-1.463087440882218,1.2771110493629485,0.20619184865365506,0.00011802051343899416,0.0016252491970680087,-4.59747278771468e-05,0.0003325270340471531,0.0009438861571973346,-0.00026584018109022565,0.0016210994264353224,-0.3301508128643036,-48.11948013305664,3.50566029548645,15.994636535644531,-1.1399434804916382,-0.9729721546173096,-0.0072769103571772575,,,,,,,,,
1739373993.5066438,0.13050104725091613,0.9716253124356397,0.2163420679331337,-1.5645950589609279,-1.4630911922198553,1.2771126692056551,0.20619405934635854,-0.00029386316856428303,-0.0009121751725460191,-0.0003960109717788187,-0.00026579369798201133,0.0005719742931045175,-0.001444926369554922,0.0012187780004766346,-0.2825433909893036,-48.04410171508789,3.50566029548645,16.02240753173828,-1.1399434804916382,-0.9867050647735596,-0.027418512850999832,,,,,,,,,
1739373993.51667,0.13050073039466392,0.9716231820279078,0.21633809809707757,-1.5645945996838426,-1.463092706107638,1.2771129842656448,0.20618790075613738,-0.000454972277750467,-0.0014898588501285354,-0.0019302692776982664,-0.00033750975468677417,-0.0004449949069677518,-0.0004325334609946427,0.0018508002593526076,-0.3063471019268036,-48.01633071899414,3.5572350025177,16.04621124267578,-1.1271260976791382,-0.9802963733673096,-0.0008682189509272575,,,,,,,,,
1739373993.5267026,0.1305005652144606,0.9716287286324282,0.21634587045805082,-1.5645967356016226,-1.4630892673678184,1.2771142384120515,0.20618980770410317,-0.0009476130972077982,0.0010215916203201029,0.0014007793834905846,-0.0016689249133735105,0.0008468585670815073,0.0008892463746803334,7.675260585598065e-05,-0.2825433909893036,-48.09170913696289,3.45805287361145,16.04621124267578,-1.1472676992416382,-0.9867050647735596,-0.020094294100999832,,,,,,,,,
1739373993.5377223,0.1305030688200225,0.9716265916977274,0.2163406273176186,-1.564592874297422,-1.4630902086002515,1.2771174349750676,0.20619182379407752,0.00018219947356556255,0.0007837591371055394,-5.306009654142092e-05,0.001306961325023944,0.000679061736888142,0.0012414195823101822,0.0006103632203405061,-0.3063471019268036,-48.09170913696289,3.5334312915802,15.994636535644531,-1.1472676992416382,-0.9867050647735596,-0.020094294100999832,,,,,,,,,
1739373993.5486434,0.13050456649232364,0.97162702478679,0.21634198713602434,-1.5645978934565914,-1.4630919513903344,1.2771119691222816,0.20618788215708314,-1.995721895804048e-05,-0.0002833256066028283,-0.0011899685680903486,-0.0008547279603372759,-0.0003816200638347984,-0.00030525114687661903,-0.0008883840395618706,-0.3301508128643036,-48.06790542602539,3.50566029548645,16.02240753173828,-1.1335347890853882,-0.9802963733673096,-0.013685601763427258,,,,,,,,,
1739373993.5596874,0.13050298667719915,0.9716308678606057,0.21634227453852173,-1.5645952035299586,-1.463092708566586,1.277111910900516,0.20619225198926647,0.0005240788979884557,6.500874077163492e-05,0.0007334920368032437,-0.00133331537620989,-0.0001753376709548711,-0.000700432334084997,0.0008012406817680071,-0.3063471019268036,-48.11948013305664,3.50566029548645,16.02240753173828,-1.1271260976791382,-0.9802963733673096,-0.013685601763427258,,,,,,,,,
1739373993.5706487,0.13049935706074292,0.9716287374652384,0.2163430107133958,-1.5645949823956402,-1.4630908902629827,1.277110758292499,0.20618470507296885,-0.000877574284745198,-0.0006562637055678368,0.001000415454014375,-0.0001536518472294768,0.0005803255710446535,0.00048275461650540137,0.001273421140519074,-0.2547723948955536,-48.09170913696289,3.50566029548645,16.02240753173828,-1.1335347890853882,-0.9665634632110596,0.05314789339900017,,,,,,,,,
1739373993.5806737,0.1305031039818158,0.9716331644905059,0.21634195960785652,-1.5645949630997877,-1.4630927075432434,1.2771119152681565,0.2061869924150986,0.0009812683828952248,0.0017067078807132062,-0.0008590722239899606,-0.00043709810480245406,-0.001657414161110315,-0.0004330088808099657,0.0004097498462915771,-0.3063471019268036,-48.14328384399414,3.50566029548645,16.02240753173828,-1.1271260976791382,-0.9802963733673096,0.0064559997990727425,,,,,,,,,
1739373993.591605,0.13050115414691266,0.9716253035972541,0.21634234984505085,-1.5645928820012958,-1.46309194990111,1.2771126736201412,0.20618788907603672,0.0005623646377789056,-0.001385166991249687,-0.0005939021069049403,0.0006222284177345079,-0.0017410289076760506,-0.0006167581654273793,-0.0009956287036570117,-0.2825433909893036,-48.04410171508789,3.5334312915802,15.994636535644531,-1.1335347890853882,-0.9867050647735596,-0.0008682189509272575,,,,,,,,,
1739373993.6017082,0.13050066974727423,0.9716289666170359,0.21634022438390932,-1.5645928761145096,-1.4630887695331718,1.2771158518347328,0.20618835453355125,0.0003201003047135199,0.00043836430229218413,-0.0009161793925821374,0.0005145785628630987,0.00041942878425238434,0.0007611794868941253,0.0007831701368637236,-0.2825433909893036,-48.09170913696289,3.5334312915802,15.994636535644531,-1.1335347890853882,-0.9867050647735596,-0.013685601763427258,,,,,,,,,
1739373993.612651,0.13050481356927812,0.9716270249455514,0.21634487286099674,-1.5645967385812511,-1.4630899728977955,1.2771137325763582,0.20619078137791477,0.0011005820929458016,0.0005076009464013046,0.0006002644591773434,-0.001592075394091703,0.0005300676731271194,-0.000294138983591777,0.0022422423530977934,-0.3301508128643036,-48.06790542602539,3.50566029548645,16.04621124267578,-1.1472676992416382,-0.9867050647735596,-0.0072769103571772575,,,,,,,,,
1739373993.6226993,0.13050096782374443,0.9716287374649891,0.2163408277177273,-1.564593588426708,-1.4630911878743955,1.277116376584305,0.2061903601586067,0.00024624530743350376,0.0011071959197737507,-0.0006380825788758228,0.00026171396339383265,0.00023282726435021323,0.0004163477798484656,0.0010526813264454074,-0.3063471019268036,-48.09170913696289,3.5334312915802,15.994636535644531,-1.1399434804916382,-0.9867050647735596,-0.0072769103571772575,,,,,,,,,
1739373993.6327317,0.13050302147746895,0.9716284993734587,0.21634618313012435,-1.5645985193080738,-1.463091187880307,1.2771130278108203,0.20618893530752236,-3.845658449332094e-06,0.00051509246097658,0.002080618702647907,-0.0019252846052786176,-0.00045135313060161626,-0.0008780377416107405,-0.0011234575483180416,-0.3063471019268036,-48.09170913696289,3.48185658454895,16.07001495361328,-1.1399434804916382,-0.9867050647735596,-0.020094294100999832,,,,,,,,,
1739373993.6446445,0.13049654476630657,0.9716253124221828,0.21634382202591737,-1.5645968151106606,-1.4630884688471408,1.277113938355918,0.20618517626280605,-0.0005606520362521826,-0.0006644202884257562,-0.0007225592553496156,-0.00038185719233971294,0.0012180364447239784,5.71605478578266e-05,-0.0019165098105115618,-0.2547723948955536,-48.04410171508789,3.48185658454895,16.04621124267578,-1.1271260976791382,-0.9931137561798096,0.012864691205322742,,,,,,,,,
1739373993.6566288,0.13050481649780402,0.9716270249442578,0.21634412062743408,-1.5645949882943098,-1.4630911379133449,1.2771110450032614,0.20619031329211687,0.0011529964689272858,-0.0007135761679887835,0.0007787050303325679,-0.00018349468762422126,-0.00020177386567246037,0.00036547202793710834,0.0014425443884046598,-0.3301508128643036,-48.06790542602539,3.50566029548645,16.02240753173828,-1.1399434804916382,-0.9729721546173096,-0.0072769103571772575,,,,,,,,,
1739373993.6667113,0.13050299709854316,0.971628737028924,0.2163409325552496,-1.5645950677551064,-1.4630917929173768,1.2771119124069155,0.20618465071966233,-0.0006378387850354963,0.000534403447149975,-0.0003619466416939118,-6.410617368367896e-05,-0.0007527640420346584,8.406426122635973e-05,0.00024333277833106103,-0.3063471019268036,-48.09170913696289,3.5334312915802,16.02240753173828,-1.1335347890853882,-0.9802963733673096,0.026597600430250168,,,,,,,,,
1739373993.6776762,0.13050067854012645,0.9716288280572069,0.21634448590023872,-1.5646006673531623,-1.4630927015307604,1.2771127921113878,0.20618941751924982,-0.0006437811304997566,0.0007029203260999755,-3.446074115280297e-05,-0.0015642747926329123,-0.0009147333675450821,0.001302632671668523,0.002274462028166008,-0.2825433909893036,-48.11948013305664,3.48185658454895,16.07001495361328,-1.1271260976791382,-0.9867050647735596,-0.013685601763427258,,,,,,,,,
1739373993.6888018,0.13050410357011882,0.9716270248029405,0.21634015134203602,-1.5645931513078157,-1.4630908390282198,1.2771129705397517,0.20618764182251437,0.0006524508395276243,-0.0008196796139402144,-0.0010587224281554026,-0.00029243396663308817,2.4356992221846063e-05,-0.0003386443794391608,0.0002759434750740071,-0.3301508128643036,-48.06790542602539,3.5334312915802,15.994636535644531,-1.1399434804916382,-0.9802963733673096,0.019273381680250168,,,,,,,,,
1739373993.6997304,0.1305013826709239,0.9716324475995242,0.21634200958795496,-1.5645949529612995,-1.4630933980725556,1.277113426867703,0.20618486139180062,-0.0003282549187669278,0.0019798460973814627,-0.0011569173233220362,-0.0005973667666478399,-0.002121760945797543,0.00011029246959301346,-0.00043758151975811224,-0.2825433909893036,-48.14328384399414,3.5334312915802,16.02240753173828,-1.1335347890853882,-0.9931137561798096,0.012864691205322742,,,,,,,,,
1739373993.7106733,0.13050127687334212,0.9716265916977717,0.2163438563583855,-1.5645949529607763,-1.463092694503761,1.2771134263812034,0.2061799676528041,-0.0008812600704786492,7.114941090484818e-05,0.002493759600284294,0.0009553462115167761,-0.0001930025178298586,-0.0007257261298835687,-0.003880128711516939,-0.2825433909893036,-48.09170913696289,3.48185658454895,16.02240753173828,-1.1271260976791382,-0.9931137561798096,0.05314789339900017,,,,,,,,,
1739373993.7216682,0.1305013900508361,0.9716270239590739,0.2163420660250291,-1.5645969765758614,-1.4630887520905442,1.2771150904599406,0.20618840449588755,0.0001235104683762042,-0.0012873216563476305,0.0005405989153140572,-0.0013078333745499618,0.0008642887169935765,-0.0007915421168249753,-0.0005018151928787095,-0.2825433909893036,-48.06790542602539,3.50566029548645,16.04621124267578,-1.1335347890853882,-0.9802963733673096,0.012864691205322742,,,,,,,,,
1739373993.7317574,0.13050447328106518,0.9716214959981129,0.2163402326604095,-1.5645949559082957,-1.4630891753799355,1.2771119115993985,0.20618784247500835,0.0004370183484887502,-0.0034018841935703446,-0.0006194247746066971,-0.0007558785380647799,0.001225904350368806,-0.001827119404988356,-0.000292506207049297,-0.3301508128643036,-47.99252700805664,3.5334312915802,16.02240753173828,-1.1271260976791382,-0.9802963733673096,0.026597600430250168,,,,,,,,,
1739373993.7426877,0.1304991562041221,0.9716248791764478,0.21634412062927588,-1.564591919496621,-1.4630918302055338,1.2771110500628098,0.20619005289743436,-0.0007237590000216,-0.0003254093355813685,0.00020212190155461938,0.00032065250430028273,-0.0014034743060431596,-0.0006679903497473868,0.0017984039521365147,-0.2547723948955536,-48.06790542602539,3.50566029548645,15.994636535644531,-1.1335347890853882,-0.9729721546173096,0.0064559997990727425,,,,,,,,,
1739373993.753654,0.13050139146036238,0.9716239254542779,0.21634220881007976,-1.5645949539365391,-1.4630923151019464,1.2771103454842576,0.20618934794373886,-0.0003672749298768046,-0.0012134639700785929,0.000370246972908887,-0.0006079554418687027,-0.0007359688682569388,0.0004109221437663339,0.0008591428614619196,-0.2825433909893036,-48.06790542602539,3.50566029548645,16.02240753173828,-1.1271260976791382,-0.9665634632110596,0.012864691205322742,,,,,,,,,
1739373993.764717,0.13050025587942593,0.9716242433416782,0.21634378061373008,-1.564591181849551,-1.4630892154643649,1.277112668560593,0.20618759741321901,-6.901087827956143e-05,-0.000981620525730229,0.0006175107466487642,0.000419044941477232,-0.0005077665415637319,0.0002462495019473843,-6.3679724515077894e-06,-0.3063471019268036,-48.06790542602539,3.48185658454895,15.970832824707031,-1.1536763906478882,-0.9867050647735596,-0.0072769103571772575,,,,,,,,,
1739373993.7756312,0.13050207556475935,0.9716307354006081,0.21634019485627867,-1.5645928731710927,-1.4630880131644735,1.2771119108995301,0.20619003005829634,-0.000147683758268191,0.0006423130334339175,-0.0004951437700125666,-0.0009211699834711691,0.0005486710274659793,-0.0004980815598035163,0.0010503706786109488,-0.3063471019268036,-48.11948013305664,3.5334312915802,15.994636535644531,-1.1399434804916382,-0.9802963733673096,-0.0008682189509272575,,,,,,,,,
1739373993.7856648,0.13050278624315897,0.971628737464989,0.21634232205662135,-1.5645949529607763,-1.46309193676532,1.2771126685596084,0.20619030701782556,-0.0011794577151798308,0.0005369652781118179,-0.0009517587288400981,-0.00040913699319415343,-0.00035323598575984905,-0.00018099611491892713,-0.0012415948796881356,-0.3063471019268036,-48.09170913696289,3.5334312915802,16.02240753173828,-1.1335347890853882,-0.9867050647735596,-0.0072769103571772575,,,,,,,,,
1739373993.7957115,0.1305013825583729,0.9716248703467282,0.21634230212116398,-1.5645942466443727,-1.4630902870977203,1.2771138991080335,0.20618712431758032,-0.000460500705345365,-6.910001245362624e-05,-0.0005420200448814057,3.2229565470654126e-05,-0.001411861220542818,0.0010240832391599907,-0.001691962863278362,-0.2825433909893036,-48.06790542602539,3.50566029548645,16.02240753173828,-1.1472676992416382,-0.9931137561798096,-0.0072769103571772575,,,,,,,,,
1739373993.8077123,0.1305022865647751,0.9716287364716799,0.2163444538181925,-1.5645952671641887,-1.4630911922408103,1.2771112019883937,0.20618924480763948,-0.00026423883521934483,1.5906026065801745e-05,0.0012642005653285403,-0.0006082857410065099,-0.0010333137556906593,-0.00015021030008571936,-0.0008541371534475787,-0.3063471019268036,-48.09170913696289,3.48185658454895,15.994636535644531,-1.1399434804916382,-0.9729721546173096,-0.013685601763427258,,,,,,,,,
1739373993.8186944,0.13050310387238356,0.9716253124235249,0.21634487431248267,-1.564594952965281,-1.4630911922410317,1.277112668631684,0.20618747051106426,-0.0002539594981415243,-0.0006173763961519123,0.000922080847281168,0.0008564554487962674,0.0004370960263150508,-0.0006689162075412333,-0.0007314399599812756,-0.3063471019268036,-48.04410171508789,3.50566029548645,16.02240753173828,-1.1399434804916382,-0.9867050647735596,0.026597600430250168,,,,,,,,,
1739373993.8296652,0.130504737398234,0.9716270249442578,0.2163399890115878,-1.564594961791094,-1.4630880002446915,1.2771120286909357,0.20618474328620237,0.001377484913628253,-0.0009242639884030988,-0.0017041315071331237,0.00022173414372410246,0.0006248420807967935,0.0007183088701073156,-0.001068407071494185,-0.3301508128643036,-48.06790542602539,3.5334312915802,16.02240753173828,-1.1399434804916382,-0.9802963733673096,0.012864691205322742,,,,,,,,,
1739373993.8397002,0.1305048163933132,0.9716270246172091,0.21634195959190516,-1.564592877095656,-1.4630865611758912,1.277111910901525,0.20618170348124418,0.0012385708580908124,-0.00039464751591846195,-0.0010575930101576051,0.0007307241333728404,0.0006686986084006795,0.00012259945056145602,-0.0016571782790008155,-0.3301508128643036,-48.06790542602539,3.50566029548645,15.994636535644531,-1.1399434804916382,-0.9802963733673096,0.03941498324275017,,,,,,,,,
1739373993.8506124,0.13050107504198225,0.971630020150103,0.21634232075520354,-1.5645970888505272,-1.4630903800407018,1.277109529682141,0.2061887096062127,-0.00035658555990365494,0.00035334059496266247,-0.00046888462485313097,-0.0011426750913003884,0.0001535732717099519,0.0003283455168614609,0.00041923194185139695,-0.2825433909893036,-48.11948013305664,3.5334312915802,16.04621124267578,-1.1335347890853882,-0.9601547718048096,0.019273381680250168,,,,,,,,,
1739373993.8607614,0.130506843858025,0.9716331631701977,0.21634201448909043,-1.564594955910197,-1.4630919322704157,1.2771119108995301,0.20618420467463638,0.0016973228255678134,0.0014740915263018377,-0.0001703805601094298,-0.0008545744497342762,-0.0013666643055312315,0.0004851713654199227,-0.00038381508482615914,-0.3539545238018036,-48.14328384399414,3.5334312915802,16.02240753173828,-1.1335347890853882,-0.9802963733673096,0.026597600430250168,,,,,,,,,
1739373993.871712,0.13050482568552466,0.9716270249482954,0.21634409856993292,-1.5645931115895164,-1.4630919499010104,1.2771110405326307,0.20619041831631774,0.0016250894267595037,-0.0007580164833171577,-0.0004238635649034268,0.0005366467622006328,-9.6947643722801e-07,0.00021510180269854786,0.0001722916240751856,-0.3301508128643036,-48.06790542602539,3.50566029548645,15.994636535644531,-1.1335347890853882,-0.9729721546173096,-0.0072769103571772575,,,,,,,,,
1739373993.8817592,0.13050139146216858,0.9716245589030794,0.21634200710395085,-1.5645928849567907,-1.4630903219831486,1.2771126685593812,0.20618660942207537,-0.00023210316912312663,-0.0015707995029229014,-0.0006471834629390725,0.0008505429433341817,-0.0006522605216894327,-0.0002527882796980355,-0.001310101072009399,-0.2825433909893036,-48.04410171508789,3.5334312915802,15.994636535644531,-1.1472676992416382,-0.9867050647735596,0.03300629183650017,,,,,,,,,
1739373993.8926675,0.13050473739823465,0.9716251175942072,0.21634397959814816,-1.5645949532878471,-1.4630910202375778,1.2771119108995301,0.20619118425856728,0.0007893682011901602,0.0008348728576410609,0.0007111292445125099,0.00029768257141651595,0.0005239032238983472,-0.0004755844857013727,-7.981408616352086e-05,-0.3301508128643036,-48.06790542602539,3.48185658454895,16.02240753173828,-1.1399434804916382,-0.9802963733673096,-0.013685601763427258,,,,,,,,,
1739373993.9026902,0.13049900952035262,0.9716287370410368,0.2163423556534765,-1.5645895462354784,-1.4630901151515607,1.2771126685596084,0.20619260485542706,-0.0006189057904880146,0.0006679005074750706,-0.0007486993198097111,0.0011092949423165922,-9.189196848483037e-05,-0.00024957484253474425,0.0013018673782251567,-0.2825433909893036,-48.09170913696289,3.5334312915802,15.947029113769531,-1.1399434804916382,-0.9867050647735596,-0.013685601763427258,,,,,,,,,
1739373993.9136918,0.13050139140899264,0.9716287378404888,0.2163440057004615,-1.5645957341943186,-1.4630926899550531,1.2771134262196868,0.2061866751089114,-0.0006890275049581446,0.0004051915602551855,-0.0003407169509266073,-0.0007636281707391953,-0.0003038584683811938,0.0003400050028935281,-0.0011995753276832857,-0.2825433909893036,-48.09170913696289,3.48185658454895,15.994636535644531,-1.1271260976791382,-0.9931137561798096,0.03300629183650017,,,,,,,,,
1739373993.924612,0.13049938961443242,0.9716287371379424,0.2163398886942519,-1.564598987493987,-1.4630896835504297,1.2771119108995301,0.20619022500405068,-0.00016232561236055848,-0.0001621363301986307,-0.0020335892622372026,-0.001767509514344328,-0.0004226687414747402,-0.0002789128281919009,0.0005168758306571034,-0.2547723948955536,-48.09170913696289,3.5334312915802,16.04621124267578,-1.1536763906478882,-0.9802963733673096,0.0064559997990727425,,,,,,,,,
1739373993.934667,0.13049939352078282,0.9716287375739998,0.21634408592123072,-1.5645928072316997,-1.4630910740208902,1.2771110450022978,0.20619168541931995,-0.0016583427335157904,0.0003873311770362451,-0.00184271211917849,0.000731511161366644,-0.0010040144221411412,5.58792723179649e-05,0.0016285994521011587,-0.2547723948955536,-48.09170913696289,3.50566029548645,16.02240753173828,-1.1399434804916382,-0.9729721546173096,-0.0072769103571772575,,,,,,,,,
1739373993.9447582,0.13050139146170206,0.971630735405844,0.21634195962606528,-1.5645949620818047,-1.4630934516527956,1.2771110450022978,0.20618632747435564,-0.00026852974802855,0.0012352793710953104,-0.00038477968092581066,-0.00012704199605796773,-0.002914655475830484,-4.137778556996784e-05,2.559161664191878e-05,-0.2825433909893036,-48.11948013305664,3.50566029548645,16.02240753173828,-1.1207174062728882,-0.9729721546173096,-0.0008682189509272575,,,,,,,,,
1739373993.9556334,0.1305030951929966,0.9716270249442579,0.2163406247235038,-1.5645928731709722,-1.463093793528689,1.2771118974905291,0.2061918486447988,0.00030919557037135557,-0.00018979043796288187,-0.0005236186425483674,0.000890783475921537,-0.0019124363008150072,0.00043644194334125925,0.0009095821151146296,-0.3063471019268036,-48.06790542602539,3.5334312915802,15.994636535644531,-1.1271260976791382,-0.9802963733673096,-0.0072769103571772575,,,,,,,,,
1739373993.9657412,0.13049936585025146,0.9716301709199029,0.216341959602671,-1.5645928731709209,-1.4630879610172258,1.277112943495423,0.2061910473228354,-0.0007147383991319575,-9.062754148158681e-05,-0.00045924326219363537,0.0009082009112355751,-0.000599129006527059,2.971588779955949e-05,0.0008698196104413805,-0.2547723948955536,-48.09170913696289,3.50566029548645,15.994636535644531,-1.1399434804916382,-0.9931137561798096,-0.0008682189509272575,,,,,,,,,
1739373993.9767265,0.1304993925440887,0.9716308832402929,0.21634409613354572,-1.5645931115895,-1.463088006794345,1.2771106829565453,0.20619320586966838,-0.0009655533709025715,0.0006561623047758024,-0.0004329542217149699,0.001297035132861895,0.00024604582100885413,-0.0007635075741504751,0.0012690613553424256,-0.2547723948955536,-48.09170913696289,3.48185658454895,15.994636535644531,-1.1399434804916382,-0.9729721546173096,-0.020094294100999832,,,,,,,,,
1739373993.9876044,0.13049767958945094,0.9716270249805967,0.21634069633804356,-1.5645931130107489,-1.4630878388466684,1.277113583196982,0.20618924628972274,-0.0009487170386823801,0.001212868344083479,-0.0007950771160828585,0.0008943680342382227,0.0007920096085698906,0.0004114465999737448,0.000258019883278914,-0.2309686839580536,-48.06790542602539,3.5334312915802,15.994636535644531,-1.1399434804916382,-0.9931137561798096,-0.013685601763427258,,,,,,,,,
1739373993.9976492,0.130503100076009,0.971625312278172,0.21634456852415207,-1.5645929526451343,-1.4630876540654623,1.277111910900416,0.2061900530944886,0.0006514664869340357,-0.0002398992525747176,-0.00016093801483178506,0.0006057571096849638,-7.810149135337958e-05,-0.000417658443074632,-0.0009249995460187091,-0.3063471019268036,-48.04410171508789,3.48185658454895,15.994636535644531,-1.1399434804916382,-0.9802963733673096,0.0064559997990727425,,,,,,,,,
1739373994.0086334,0.130503103005763,0.9716270249442553,0.21634491175551337,-1.5645970545117265,-1.4630899147676548,1.2771110450022978,0.20618591996611693,0.0007293722818758082,-0.0001529511392072149,0.0012483386898238119,-0.0016936646340732732,0.0008963044356934079,-0.0007384631242155376,-0.003093536558595932,-0.3063471019268036,-48.06790542602539,3.50566029548645,16.04621124267578,-1.1472676992416382,-0.9729721546173096,0.012864691205322742,,,,,,,,,
1739373994.018706,0.13050310398242773,0.9716270236360627,0.2163399599939565,-1.5645980788950578,-1.4630871996965826,1.2771110450022978,0.20618934916676424,0.0004980937730441513,0.00014515654439681963,-0.0015991053111391246,-0.0008106475746493168,0.0017349660822284388,-0.0007780980047138164,0.0010377675106566246,-0.3063471019268036,-48.06790542602539,3.5334312915802,16.02240753173828,-1.1335347890853882,-0.9729721546173096,0.012864691205322742,,,,,,,,,
1739373994.029665,0.13050096804081723,0.971630761896788,0.21634204080187885,-1.5645949529784222,-1.4630926677501648,1.2771102873422193,0.20619259326226985,0.0001277676512426358,0.0022313281283713616,-0.00021954645526476479,-0.0010863750315418471,-0.0023395782527809686,-0.0006428925964074377,0.0025089941591766056,-0.3063471019268036,-48.11948013305664,3.5334312915802,16.02240753173828,-1.1271260976791382,-0.9665634632110596,-0.013685601763427258,,,,,,,,,
1739373994.0406806,0.13050139099148345,0.9716287600318053,0.21634471371735736,-1.5645970987279885,-1.4630886002746468,1.2771119108995301,0.20619318713050308,0.00033042685801095404,-0.0008106648046456238,0.001155307218999359,-0.00044252912482101083,-0.00011778362567539628,-0.00017574713921823158,0.0017478877997118944,-0.2825433909893036,-48.09170913696289,3.48185658454895,16.02240753173828,-1.1335347890853882,-0.9802963733673096,-0.020094294100999832,,,,,,,,,
1739373994.0506933,0.13050139437788458,0.9716287345216772,0.21634589736940968,-1.5645978139958383,-1.4630890531554557,1.2771110315932968,0.20618780452760108,3.9468831608746786e-05,0.0003176735481972684,0.0007760133674883918,-0.0005296371164599275,0.0007691647426737792,-0.0001456323054344787,0.00044154976028756745,-0.2825433909893036,-48.09170913696289,3.48185658454895,16.02240753173828,-1.1271260976791382,-0.9729721546173096,0.026597600430250168,,,,,,,,,
1739373994.0615973,0.1305009593599086,0.971627022000802,0.21634196352647048,-1.5645950589407398,-1.4630871865963246,1.2771115488564269,0.20619619328287347,-0.00012844901264530135,-0.001381853922350683,0.000555383641579317,-0.0007057354424048742,0.000206165292538022,-0.0002052707791928719,0.001187100194418164,-0.3063471019268036,-48.06790542602539,3.50566029548645,16.02240753173828,-1.1335347890853882,-0.9802963733673096,-0.020094294100999832,,,,,,,,,
1739373994.0716434,0.13050352607293522,0.9716277406360104,0.2163430123329727,-1.564594952962571,-1.4630864390510605,1.277110287336088,0.20619334513866935,0.00028298265501476024,-0.0004556152489384682,0.0004267945409587732,4.426100208438723e-05,9.268402291519735e-05,-0.00024219475070524628,0.00141122965522744,-0.2825433909893036,-48.06790542602539,3.50566029548645,16.02240753173828,-1.1399434804916382,-0.9665634632110596,-0.020094294100999832,,,,,,,,,
1739373994.0816638,0.13050114539362587,0.9716263097006408,0.2163438569881868,-1.5645933422249265,-1.463091629753938,1.2771110450022976,0.2061835366452981,-0.00023846439679145101,-6.940456087649573e-05,0.0010522653415424347,0.0009326520061389228,-0.0015976583488210413,-0.00020879667131132242,-0.002467346043956988,-0.2825433909893036,-48.06790542602539,3.48185658454895,15.970832824707031,-1.1271260976791382,-0.9729721546173096,0.03300629183650017,,,,,,,,,
1739373994.092681,0.1305031039810442,0.9716287374609516,0.2163461072939042,-1.5645928731836318,-1.4630912378004648,1.2771126685596084,0.20618445219793333,0.0001457655673537869,0.0014603624966244174,-4.6018917851286e-05,-0.001108184306421092,-0.001162644624122732,-0.00021458585429116674,-0.0014137198339591556,-0.3063471019268036,-48.09170913696289,3.48185658454895,15.994636535644531,-1.1271260976791382,-0.9867050647735596,0.019273381680250168,,,,,,,,,
1739373994.1027057,0.1305053086184301,0.9716233959178261,0.21634479459413103,-1.5645956682165136,-1.4630858664663537,1.277109529682141,0.20618678028145979,0.0010097692500651463,-0.0006787280834492628,-0.000205256667476447,0.0005038641323996868,0.0006103690026981719,-0.0008857099449596006,0.0010839701676689617,-0.3063471019268036,-48.01633071899414,3.50566029548645,16.02240753173828,-1.1536763906478882,-0.9601547718048096,0.026597600430250168,,,,,,,,,
1739373994.1127481,0.13050135644929803,0.9716345936951643,0.21634093181119496,-1.5645967356499082,-1.463091020013383,1.277111790218521,0.20618580321356964,0.0002024479772415222,0.003164151886643014,-0.000318767522659875,-0.0007048161539293348,0.0006907524457001096,-0.00013580773460124902,-0.000682768930312619,-0.2825433909893036,-48.14328384399414,3.5572350025177,16.04621124267578,-1.1399434804916382,-0.9802963733673096,0.03941498324275017,,,,,,,,,
1739373994.123687,0.1305048165029668,0.9716281128499237,0.21634230094373288,-1.5645949529607763,-1.4630914395424959,1.277110287341538,0.20618546273074806,0.0006452566942864227,0.00015580323842480424,0.000807384294391321,9.847230545076448e-05,0.0002853104045049241,-0.0005768563907114432,-0.001243063652465101,-0.3301508128643036,-48.11948013305664,3.50566029548645,16.02240753173828,-1.1335347890853882,-0.9665634632110596,0.04673920199275017,,,,,,,,,
1739373994.1346495,0.13050139146170206,0.9716287338526478,0.21634302928212262,-1.5645928770955064,-1.4630872207994212,1.2771110450022978,0.20618377933702944,-0.000373905813950704,-0.0003119937963085856,0.0005873176068402115,0.0011908681147718122,0.0010200500204003687,0.0009707474822560684,-4.183840419317646e-05,-0.2825433909893036,-48.09170913696289,3.5334312915802,15.994636535644531,-1.1335347890853882,-0.9729721546173096,0.03300629183650017,,,,,,,,,
1739373994.1455948,0.13050278756271405,0.9716287374649687,0.21634054814060122,-1.5645967356741561,-1.4630891512682849,1.277111908747468,0.20619154325559455,-0.0008003183844579102,0.001002275654823283,-0.00031739258772559486,-0.0011260304066694055,-0.00022367255752956257,0.0004889471111216739,0.0023731200648883844,-0.3063471019268036,-48.09170913696289,3.5572350025177,16.04621124267578,-1.1399434804916382,-0.9802963733673096,-0.013685601763427258,,,,,,,,,
1739373994.155704,0.130501400204899,0.9716287361567939,0.2163405884747073,-1.564598884348447,-1.4630869142465883,1.2771110450022614,0.20618389742452511,6.023746902046618e-05,-7.407352365908194e-05,-0.0008006467358317568,-0.0014961281456003284,-0.0007336639361780546,0.0007749043524796461,-0.0001633171449158463,-0.2825433909893036,-48.09170913696289,3.5334312915802,16.04621124267578,-1.1399434804916382,-0.9729721546173096,0.03300629183650017,,,,,,,,,
1739373994.1657186,0.1305031039825813,0.9716287373559507,0.2163398927730246,-1.564598518351203,-1.4630898509604207,1.2771094101723606,0.20618474129018324,7.521789848581302e-05,0.0008301999630341911,-0.0018547756004430843,-0.0017252696866318974,-0.0009582424637503641,-0.00032607806660388836,-0.0009129818443738876,-0.3063471019268036,-48.09170913696289,3.5334312915802,16.07001495361328,-1.1472676992416382,-0.9867050647735596,0.012864691205322742,,,,,,,,,
1739373994.1766813,0.13050138849571932,0.9716270249442572,0.21634553412475,-1.5645956682165136,-1.46309219084831,1.277111044983904,0.20618687233879568,-0.00026528539985854144,1.620620334660995e-05,-7.838570658140627e-05,-0.0012603645441589544,-0.0010045283368676548,-0.00019085333025331785,-1.4307960500174158e-05,-0.2825433909893036,-48.06790542602539,3.45805287361145,16.02240753173828,-1.1271260976791382,-0.9729721546173096,0.0064559997990727425,,,,,,,,,
1739373994.187662,0.1305013914616853,0.9716271044171175,0.2163438559983486,-1.5645918057536765,-1.4630876529883252,1.2771126685596081,0.20619002350689772,0.0004909484584189472,-0.00011702190537674423,0.0006633507508220858,0.0006109477391423654,0.0005404480280917142,0.0002936248901630131,-0.0004670535509942951,-0.2825433909893036,-48.06790542602539,3.48185658454895,15.970832824707031,-1.1335347890853882,-0.9867050647735596,-0.0008682189509272575,,,,,,,,,
1739373994.1977196,0.13050473739823465,0.9716233144840195,0.2163427829282645,-1.564595032445749,-1.46309177766339,1.2771110450022978,0.20618615470385887,0.0005136830123764789,-0.0009442339124294126,0.000719525102694108,-0.001295831246032924,-0.00046091342745069574,-0.0008537394376816349,0.0005402589928042792,-0.3301508128643036,-48.01633071899414,3.50566029548645,16.02240753173828,-1.1335347890853882,-0.9729721546173096,0.012864691205322742,,,,,,,,,
1739373994.2096107,0.13050025620451408,0.9716307471795992,0.2163437805061504,-1.5645928996623226,-1.4630877430401037,1.2771102873422193,0.20619004947652578,-0.0011989370366437436,-0.0007163714351933472,-0.0008211152789646763,7.922575575402296e-05,-0.0005591334699653547,0.000258521564246087,0.0004001574103382045,-0.3063471019268036,-48.11948013305664,3.48185658454895,15.994636535644531,-1.1271260976791382,-0.9665634632110596,0.0064559997990727425,,,,,,,,,
1739373994.2197106,0.1305026803284495,0.9716297817315922,0.21634408980954287,-1.5645988853297426,-1.4630925440895137,1.2771102873422193,0.206183857370993,-0.0002529519544802418,0.0008885692258066924,-6.059488130777606e-05,-0.0011833055210181784,-0.0010732704207279998,0.00038982729227309107,-0.001380909974338166,-0.3301508128643036,-48.11948013305664,3.50566029548645,16.04621124267578,-1.1271260976791382,-0.9665634632110596,0.03300629183650017,,,,,,,,,
1739373994.230601,0.13050139142552575,0.9716243587330599,0.21634197258695415,-1.5645959067805142,-1.4630886080248204,1.277108839170109,0.20618941496228846,-0.0005194825077509446,-0.0014633849404501686,-0.00036350038244586057,-0.0008794570167732935,-0.0003923498360107849,-0.00043466558384029153,0.0003776678065013661,-0.2825433909893036,-48.04410171508789,3.50566029548645,16.02240753173828,-1.1335347890853882,-0.9665634632110596,0.012864691205322742,,,,,,,,,
1739373994.2406638,0.13050010215384777,0.9716287374596055,0.21634200861545566,-1.5645936136148004,-1.463086465061426,1.2771119108913551,0.20618627419519311,-0.0005445248985424533,3.482319045437245e-05,-0.0015099926458000963,0.0011567408815466556,0.0006906612224925992,0.000504018590763138,-0.0012898581269780074,-0.2547723948955536,-48.09170913696289,3.5334312915802,15.994636535644531,-1.1399434804916382,-0.9802963733673096,0.03941498324275017,,,,,,,,,
1739373994.2506864,0.13050480384331378,0.9716254602498853,0.21634382500047655,-1.5645971782384662,-1.4630871873458218,1.277107028954971,0.20618786855414808,0.0005810135912802874,-0.0013220410236434673,-0.0005694796538297329,-0.001135750719367329,-0.00021063562692600244,-0.0010643100027862178,-0.0014892369727030513,-0.3301508128643036,-48.01633071899414,3.48185658454895,16.02240753173828,-1.1335347890853882,-0.9665634632110596,-0.013685601763427258,,,,,,,,,
1739373994.2606912,0.13050310264405252,0.971628737477102,0.2163419900484568,-1.5645952796950946,-1.4630871814757258,1.277113426201293,0.20618736712808083,0.000124827377839214,0.0002145969552307285,-0.0017864182559697188,-0.0012668066553446623,0.0008592956512589045,0.001042433314011958,-0.000617659794844566,-0.3063471019268036,-48.09170913696289,3.50566029548645,16.02240753173828,-1.1335347890853882,-0.9931137561798096,0.026597600430250168,743,697,761,43.129,0,0
1739373994.2716854,0.13050239203805752,0.9716270161139402,0.21634408552522688,-1.5645928741902504,-1.4630879391896061,1.27711191089953,0.20619405491538606,-0.00023957438348860935,-0.0003112073891774626,0.0002447489683789834,-0.00017296427604339307,4.7947848874671354e-05,0.00012892238144828847,0.000668508931719885,-0.3063471019268036,-48.06790542602539,3.50566029548645,15.994636535644531,-1.1271260976791382,-0.9802963733673096,-0.027418512850999832,739,697,761,43.129,0,0
1739373994.2826293,0.13049939643301522,0.9716285866951412,0.2163398802802308,-1.5645967353107522,-1.4630888683686136,1.2771115488565026,0.2061925538934499,-0.0005172726047786347,0.0013523323333252835,-0.0013205802043724354,-0.0008314067557792927,-0.0006456294040543737,5.821045015100084e-06,0.0008232146775587485,-0.2547723948955536,-48.11948013305664,3.5334312915802,16.04621124267578,-1.1207174062728882,-0.9802963733673096,-0.013685601763427258,741,696,761,43.020,0,0
1739373994.2926724,0.13050139146175135,0.9716294525753215,0.21634195991408436,-1.5645928761143544,-1.463088595476422,1.277110287336088,0.20618893928201706,-0.0007410803953012768,1.4613405826838e-05,-0.0009695049223878404,0.0005112284246366161,0.000562822980144762,-0.0006666210003119521,-0.00012995982451631505,-0.2825433909893036,-48.09170913696289,3.50566029548645,15.994636535644531,-1.1399434804916382,-0.9665634632110596,-0.013685601763427258,741,695,761,43.020,0,0
1739373994.3036175,0.13050147019870192,0.9716287364878795,0.2163381768322445,-1.5645958136667464,-1.4630859114125268,1.2771102873422193,0.20618679998693126,-0.0002950691915783682,0.000607706125851167,-0.0005915036174535715,-0.0008357165870198648,0.00023475438598560017,-0.0005490170204850381,-0.0003477934254125368,-0.2825433909893036,-48.09170913696289,3.5572350025177,15.994636535644531,-1.1472676992416382,-0.9665634632110596,-0.0008682189509272575,737,696,761,43.020,0,0
1739373994.3137162,0.1305048174765596,0.9716270249442414,0.21633995853854987,-1.56459495399172,-1.4630901894738033,1.2771099074205237,0.2061926063131014,0.0012619203536478369,-5.9740994456749526e-05,-0.0013107167889031413,-0.0003639701012905362,0.0004845066964537437,-0.00027738145343567946,0.001471726388289007,-0.3301508128643036,-48.06790542602539,3.5334312915802,16.02240753173828,-1.1472676992416382,-0.9665634632110596,-0.013685601763427258,741,696,760,43.129,0,0
1739373994.3237317,0.13049654574339287,0.9716204534597244,0.21634104927597947,-1.564595217870326,-1.4630867771605944,1.2771110271171957,0.2061914923030584,-0.0011547038581654378,-0.0019844039082649815,-4.629028966561478e-05,-0.0011324789781574167,-0.0004066963591056288,-0.0006190315707214482,0.00035265975746893427,-0.2547723948955536,-48.01633071899414,3.5572350025177,16.02240753173828,-1.1399434804916382,-0.9729721546173096,-0.0072769103571772575,741,695,759,43.020,1,0
1739373994.3347158,0.13050139144562625,0.9716222128931703,0.21634196007475037,-1.5645928732814325,-1.4630871815315225,1.277110462727319,0.20618955547609094,-0.0005317295139388297,-0.0018195810640172143,-0.00033530242009104463,-0.000846418392936904,0.00019322874685445026,-0.0005141566471961521,-0.0016110014483050193,-0.2825433909893036,-48.04410171508789,3.50566029548645,15.994636535644531,-1.1335347890853882,-0.9802963733673096,-0.0008682189509272575,741,695,759,42.912,1,0
1739373994.3456385,0.13050136509339202,0.9716267070353222,0.216342332419947,-1.564598881368669,-1.4630864370052372,1.2771110449941228,0.20619107078959123,-0.000639516621462984,-0.0006425801370912253,-0.00019162134598030647,-0.0015788548397446343,0.0001442660230569585,0.0001729173129739598,-0.00013841488220543404,-0.2825433909893036,-48.06790542602539,3.5334312915802,16.04621124267578,-1.1399434804916382,-0.9729721546173096,-0.013685601763427258,739,697,763,43.129,2,0
1739373994.3557088,0.1305048165027179,0.9716270278823134,0.21634621231745843,-1.564591117021193,-1.4630871815297506,1.2771119064298628,0.20619213183163268,0.0016333193867502233,0.00033281713385245197,0.00046960893853206646,-3.0667226989032235e-05,0.0011091847544726957,0.0009677918894822762,-0.00015833041232316122,-0.3301508128643036,-48.06790542602539,3.48185658454895,15.970832824707031,-1.1335347890853882,-0.9802963733673096,-0.013685601763427258,742,698,760,43.020,2,0
1739373994.3666089,0.13050310398243326,0.9716253114423969,0.21634409468357915,-1.5645974513297474,-1.4630855711080049,1.2771108247704221,0.2061900260073034,0.00045947645661269926,-0.00010453129756665246,0.0009319740784295115,-0.0015950159965618651,0.0002521299040778312,-0.00011619495947639579,0.0013779927744158307,-0.3063471019268036,-48.04410171508789,3.50566029548645,16.04621124267578,-1.1472676992416382,-0.9802963733673096,-0.0008682189509272575,742,699,760,43.020,1,0
1739373994.376668,0.13050310398243326,0.9716287374649393,0.21634375533637173,-1.564594952997137,-1.463086907902349,1.2771102872870381,0.20618783077415925,0.0004012450581312426,-0.00012299843066581532,-4.0215418590327135e-05,0.0003120164981498842,-0.0009875404626277498,0.00012601340407880364,-0.00039646187816136223,-0.3063471019268036,-48.09170913696289,3.48185658454895,16.02240753173828,-1.1399434804916382,-0.9665634632110596,0.026597600430250168,740,696,761,43.129,1,0
1739373994.387634,0.13050286666764388,0.9716269454713982,0.21634432508429183,-1.5645949529607763,-1.4630890511564554,1.2771095252124738,0.20619108647529824,6.71548053486464e-05,-0.0012359092379890177,-0.0001297121743104118,-0.001269229078449092,-0.0010778210094532427,-0.001429216049618552,8.108280884027933e-05,-0.3063471019268036,-48.06790542602539,3.50566029548645,16.02240753173828,-1.1271260976791382,-0.9601547718048096,-0.0008682189509272575,739,696,761,42.912,0,0
1739373994.397705,0.1305024270282683,0.9716284990450641,0.21634443687542343,-1.5645926347523418,-1.4630882411864885,1.2771126685595326,0.20619137484552322,0.0008593017457087673,-0.00035538468984825755,-0.0002247304976603891,0.000776806654391911,-0.0001464082270299615,0.0005082893569650766,0.0009354540189361253,-0.3063471019268036,-48.09170913696289,3.50566029548645,15.994636535644531,-1.1335347890853882,-0.9867050647735596,-0.0072769103571772575,740,698,761,43.020,1,0
1739373994.407794,0.1304993925098521,0.9716277401878821,0.21634231095421882,-1.5645928770833935,-1.4630871815833641,1.2771110450022978,0.20618784392702752,-0.0012172711891278954,-0.00016421807789940724,0.0005904397736783721,0.00025652932941267,0.0003795725246260248,-3.658758725984959e-05,0.0018958966360005658,-0.2547723948955536,-48.06790542602539,3.50566029548645,15.994636535644531,-1.1335347890853882,-0.9729721546173096,0.026597600430250168,743,698,760,43.129,1,0
1739373994.418707,0.13049654585138132,0.9716287374663349,0.21634303040892847,-1.564596025594363,-1.463086425323,1.2771119108995301,0.20619260638577117,-0.0014856123501418572,0.00022483996966002917,0.0001339605448748755,-0.00016853243948896504,-0.0002699232018110846,0.001114451477633061,0.00237687047204787,-0.2547723948955536,-48.09170913696289,3.5334312915802,15.994636535644531,-1.1399434804916382,-0.9802963733673096,-0.013685601763427258,742,694,761,42.912,1,0
1739373994.4297056,0.13050302486142829,0.9716270288688436,0.21634302239532915,-1.5645940652816117,-1.463088639440433,1.277111790218521,0.20618648495112105,-0.00022035375189599253,0.0004928300636437929,0.00028479190452490675,0.0019151920405284636,-0.001976633563044792,0.0004718273236799323,-0.00047812141567106893,-0.3063471019268036,-48.06790542602539,3.50566029548645,15.994636535644531,-1.1335347890853882,-0.9802963733673096,-0.0008682189509272575,740,698,762,43.129,1,0
1739373994.441591,0.13050138267181877,0.9716233145917121,0.2163427535806876,-1.5645935972637053,-1.46309109194832,1.2771129705369781,0.20618656192776216,-0.00042788881740986773,-0.0004105007478309884,-0.0006332510459765763,-0.00014043922233121457,-2.2409485374750085e-05,0.0013635897588782822,-0.000758559573524464,-0.2825433909893036,-48.01633071899414,3.5334312915802,15.994636535644531,-1.1271260976791382,-0.9802963733673096,0.0064559997990727425,742,699,761,43.020,1,0
1739373994.4516497,0.1305013885318402,0.9716270249442585,0.21634272356500395,-1.5645968416056957,-1.463086428247898,1.2771119109055118,0.20619242993588865,-0.0001542859028903887,0.0002700468470560206,-0.0006660249815467454,5.80569425980799e-05,0.0010050703438458683,0.00034066894629771903,0.0006297123374956392,-0.2825433909893036,-48.06790542602539,3.5334312915802,16.04621124267578,-1.1399434804916382,-0.9802963733673096,-0.013685601763427258,740,696,753,42.803,1,0
1739373994.461674,0.1305048165030156,0.9716267028011846,0.21634408984579837,-1.5645949559095993,-1.4630887412474787,1.2771086525122826,0.20618311534786746,0.0006070752242911592,-0.0006054606234414381,-0.0004092226859062257,0.00012216080147012265,-0.001864142484113116,-0.0007902522804474928,-0.0020329756767387052,-0.3301508128643036,-48.06790542602539,3.50566029548645,16.02240753173828,-1.1472676992416382,-0.9802963733673096,0.026597600430250168,740,700,759,43.020,2,0
1739373994.4726713,0.13050139146170206,0.9716253121079846,0.21634479428207004,-1.5645967359648496,-1.463085558193548,1.2771119108933988,0.20619179455135558,-0.0007608303167669754,-0.0010350292052248215,0.0007811387178765824,-0.0009455411506247199,0.0004606055166896095,0.0006903974812655385,-0.0002562775576747642,-0.2825433909893036,-48.04410171508789,3.50566029548645,16.04621124267578,-1.1472676992416382,-0.9802963733673096,-0.0072769103571772575,743,700,760,43.020,1,0
1739373994.4836714,0.13049939362885585,0.9716253124235249,0.21634219585305953,-1.5645913290214988,-1.4630848003121402,1.2771126685596084,0.20619143689523536,-0.0005669966720072239,-0.0006960548455479639,-0.0011154461662062744,0.000899091972116719,0.001164806615278736,0.0009793112393305444,-0.0005272718563606314,-0.2547723948955536,-48.04410171508789,3.50566029548645,15.970832824707031,-1.1536763906478882,-0.9867050647735596,-0.0072769103571772575,739,698,759,43.020,1,0
1739373994.4936936,0.13050741274376879,0.9716286992002788,0.2163448061148141,-1.5645978143148136,-1.4630856757097874,1.2771110433468655,0.20619387545770787,0.001314260352781539,-0.0002202801550999143,-0.00040311958213556877,-0.0004232586985363926,0.00030395340705594324,-0.000191349924288153,0.0003292137165463296,-0.3301508128643036,-48.09170913696289,3.50566029548645,16.02240753173828,-1.1472676992416382,-0.9729721546173096,-0.027418512850999832,738,699,760,43.020,1,0
1739373994.5056832,0.13050311274564463,0.9716269454711821,0.21634382138016617,-1.5645928771116588,-1.4630878759668102,1.2771087660073162,0.20618474280027851,0.0005084502080311029,-0.00024947383904289576,-0.0007581163756141024,0.00012745289313170841,-0.0016881164608268083,-0.000464688505671045,-0.0012604139922244555,-0.3063471019268036,-48.06790542602539,3.48185658454895,15.994636535644531,-1.1399434804916382,-0.9537460803985596,0.012864691205322742,741,697,760,43.129,0,0
1739373994.5167005,0.13050139146171855,0.9716308832320515,0.21634267992394654,-1.5645985212461482,-1.4630882924229938,1.277110663862424,0.20619184434252472,-0.0006641076221138764,0.001112378595461872,-0.00020701350707072577,-0.0020151131341541264,-0.0003209736652041797,-0.0009671107647817029,0.0010083239397646487,-0.2825433909893036,-48.09170913696289,3.50566029548645,16.07001495361328,-1.1271260976791382,-0.9802963733673096,-0.0072769103571772575,738,697,760,43.020,1,0
1739373994.5277123,0.13050139534994895,0.9716211685822196,0.21634443946759677,-1.5645935894738399,-1.46308864452387,1.277111044995258,0.20618601896722377,-0.00018246481638192974,-0.001469501021219107,0.000338346457253701,0.0002001874365926957,0.00012847766182667934,-5.649166702306717e-05,0.00039630425744251066,-0.2825433909893036,-48.01633071899414,3.50566029548645,15.970832824707031,-1.1207174062728882,-0.9729721546173096,0.03300629183650017,742,700,761,43.020,1,0
1739373994.5386384,0.13049939352087092,0.9716253123750743,0.21634693100356123,-1.5645959717907645,-1.463087921746708,1.277111909409641,0.2061835919850738,-0.00013002875993189185,-0.0006440691038151554,0.00035599468929506774,-0.0015299467929820916,5.5565700233491377e-05,0.00020297617623235884,0.0012071432108432167,-0.2547723948955536,-48.04410171508789,3.48185658454895,15.994636535644531,-1.1271260976791382,-0.9802963733673096,0.026597600430250168,738,696,760,43.020,1,0
1739373994.5486982,0.13050476364390126,0.971627024944257,0.2163381351955968,-1.5645929006954957,-1.4630864238691543,1.2771110448367293,0.2061859558012696,0.0007860343743219525,0.0005771297211097406,-0.0030683726074461097,-0.00011367599600682773,-0.0005664092145782954,0.0007404613929826445,-0.0011520012240045382,-0.3301508128643036,-48.06790542602539,3.5572350025177,15.994636535644531,-1.1399434804916382,-0.9729721546173096,0.0064559997990727425,739,696,760,43.129,1,0
1739373994.5596633,0.13050310398213485,0.971628737464989,0.21634203619334844,-1.5645928996620293,-1.4630840551044544,1.2771110450022969,0.2061894216352916,0.0007234245927036609,0.00012709967314130364,-0.001724177295134419,0.0013365352183622528,0.0001455827238835906,0.00031388252710012546,0.0016054335433841492,-0.3063471019268036,-48.09170913696289,3.5334312915802,15.994636535644531,-1.1335347890853882,-0.9729721546173096,0.012864691205322742,741,697,759,43.129,1,0
1739373994.5696983,0.13050139146170206,0.971628737464989,0.2163450695760597,-1.5645949621185913,-1.4630864238165036,1.2771112203874981,0.20619651714088455,-0.0002913499583096955,0.0010019379372039755,0.000153945587606983,-4.401305399500557e-05,-0.00017400583255604963,0.0004277810827923435,0.0038227522453498685,-0.2825433909893036,-48.09170913696289,3.50566029548645,16.02240753173828,-1.1399434804916382,-0.9867050647735596,-0.020094294100999832,735,700,760,42.912,1,0
1739373994.5797017,0.13050310365689854,0.9716233184072594,0.21634690486856806,-1.5645910904940568,-1.4630855579722166,1.277108081485506,0.2061869099152193,0.00026404902686290077,-0.0009804706624080466,0.0005680497895206223,0.000799372624957175,0.0005573208045724503,-0.0014404918827047425,0.00010451680825558553,-0.3063471019268036,-48.01633071899414,3.48185658454895,15.970832824707031,-1.1472676992416382,-0.9601547718048096,0.03300629183650017,742,697,761,43.020,1,0
1739373994.5906687,0.13050310398243142,0.9716274581907608,0.2163426813457398,-1.5645928820375772,-1.46308400261514,1.2771087317868843,0.20619149953048907,0.0006018259122680663,-0.0009180597745200963,-0.0009852397970562094,0.0003595596093155153,0.001185267580154529,-0.0008405652682574624,0.0011809716391548493,-0.3063471019268036,-48.04410171508789,3.50566029548645,15.994636535644531,-1.1335347890853882,-0.9537460803985596,-0.013685601763427258,741,698,761,43.020,0,0
1739373994.600685,0.1304993934123374,0.9716287373923116,0.21634621077605007,-1.5645971281625306,-1.4630879389742657,1.2771090449709042,0.2061894524226023,-0.0009058572932436303,0.00016270401985150939,0.0007444076343350347,-0.00025039657141539596,-0.00017759941570925165,-0.001219193025633076,-0.00029895743646438496,-0.2547723948955536,-48.09170913696289,3.48185658454895,16.02240753173828,-1.1271260976791382,-0.9601547718048096,0.012864691205322742,744,701,760,43.129,1,0
1739373994.6115966,0.13050139146170145,0.9716253124235263,0.21634302152742382,-1.5645931116381175,-1.4630864245154709,1.2771117493266089,0.20619405724014003,-0.0005400231536504614,-0.0007237092515199472,0.0013865417733258723,0.0010697181631406068,0.0002898101032358393,-2.548616581764555e-05,0.0012791663292203797,-0.2825433909893036,-48.04410171508789,3.50566029548645,15.994636535644531,-1.1399434804916382,-0.9802963733673096,-0.027418512850999832,739,702,760,43.129,1,0
1739373994.621759,0.13049949947557724,0.9716252064597138,0.2163407065026795,-1.5645931115935383,-1.463087181529539,1.2771106814666449,0.20619244453456892,-0.0012642054691535723,-0.0009284925255781382,-0.0013767991067000465,0.0002597034167307233,0.0005610651088140214,-0.0010295825024143018,0.0006834399959685986,-0.2547723948955536,-48.04410171508789,3.5334312915802,15.994636535644531,-1.1335347890853882,-0.9729721546173096,-0.013685601763427258,742,698,761,43.020,2,0
1739373994.6326559,0.13050310398303136,0.9716287374643909,0.2163483955910496,-1.564593588428004,-1.4630878209675198,1.277111910897478,0.20618186124410182,0.000595172311098371,0.0006499737928271653,0.0021137104333586575,-0.00035321031478152063,0.0010587780130095399,-0.00046060839157881423,-0.002912711454447776,-0.3063471019268036,-48.09170913696289,3.45805287361145,15.994636535644531,-1.1271260976791382,-0.9802963733673096,0.04673920199275017,743,700,762,43.020,1,0
1739373994.6426864,0.13050310398243326,0.9716232461291745,0.21634511311491966,-1.5645951913914682,-1.4630853642293182,1.2771119108995301,0.20618764181552657,0.0003108647362588212,-0.00021266778674769492,-6.320185782082813e-06,-0.00018916667238608355,0.000819398563423127,0.00036016092633058634,0.00011074255717563131,-0.3063471019268036,-48.04410171508789,3.50566029548645,16.02240753173828,-1.1399434804916382,-0.9802963733673096,0.019273381680250168,741,701,760,42.912,1,0
1739373994.6536255,0.13050278756271405,0.9716287266243755,0.2163451484383518,-1.5645949648448954,-1.4630855754088385,1.2771102694635512,0.20618696753145474,0.00027618092755526014,0.00014498193678422558,0.0005650544993179632,-0.00021665418390528932,0.0005238680871037945,-0.001943112136792015,0.000552512351455562,-0.3063471019268036,-48.09170913696289,3.50566029548645,16.02240753173828,-1.1472676992416382,-0.9665634632110596,0.03300629183650017,743,701,760,43.020,1,0
1739373994.6636941,0.13050139145634346,0.9716307349695935,0.21634693111557024,-1.5645928744793172,-1.4630871035226267,1.277111045001995,0.2061900676923711,-0.00011978478937908432,0.0011929662613289474,0.0007192102602554024,0.0003806880152531549,-4.265437368090637e-05,0.00014433285076623405,0.0016319392202836938,-0.2825433909893036,-48.11948013305664,3.48185658454895,15.994636535644531,-1.1335347890853882,-0.9729721546173096,0.0064559997990727425,740,698,762,43.129,1,0
1739373994.67466,0.1305013165690397,0.9716270288688411,0.21634094231767118,-1.564592873170928,-1.4630871815290876,1.2771110047752947,0.20618632682819116,-0.0003133632250039163,0.00042229063936935523,-0.00020178099125923988,0.0011501930149942687,-0.00014303601614841407,-0.0003049392750874431,-0.0007961487060065386,-0.2825433909893036,-48.06790542602539,3.5334312915802,15.994636535644531,-1.1335347890853882,-0.9729721546173096,-0.0008682189509272575,745,699,760,43.020,1,0
1739373994.685605,0.13050310398201048,0.9716287374650112,0.21634510918405603,-1.564592873279937,-1.4630872207753847,1.2771102873419922,0.20618683902471255,0.00026584085179135136,0.0011313869454204436,-0.000210345207921429,0.0009179924219813458,-0.00013909221684920944,0.001405435566184302,-0.0008549405045666218,-0.3063471019268036,-48.09170913696289,3.50566029548645,15.994636535644531,-1.1335347890853882,-0.9665634632110596,-0.0008682189509272575,741,701,758,42.912,1,0
1739373994.6956854,0.13050318271943312,0.9716275365417758,0.21634298958568082,-1.564592873497975,-1.4630854402366413,1.2771110450022978,0.20618788887825965,5.860011384388732e-05,0.00044335833333799613,-0.000917332523508198,0.001000406742139205,-0.0008921247949994638,0.0005776374619368758,-0.0012706714669751395,-0.3063471019268036,-48.09170913696289,3.5334312915802,15.994636535644531,-1.1472676992416382,-0.9729721546173096,-0.0008682189509272575,739,702,761,43.020,1,0
1739373994.706694,0.13049868157662897,0.9716270245059331,0.21634479460793377,-1.5645967356377959,-1.4630896028015612,1.2771119108995301,0.2061872919282709,-0.001100688664311966,-8.258044703824072e-05,0.00010709671936622858,-0.0004185233124365765,-0.00046612792390895465,0.00213450395200012,0.0002685655171312671,-0.2547723948955536,-48.06790542602539,3.50566029548645,16.04621124267578,-1.1399434804916382,-0.9802963733673096,0.019273381680250168,743,702,761,43.020,1,0
1739373994.7176936,0.13050334018137608,0.9716287374649817,0.21634060155004026,-1.5645928741520672,-1.4630866713872273,1.2771110309311238,0.2061863265008001,0.0006181547671063286,-0.00030573213943314317,-0.000890668780189185,0.0011386867402260433,8.802562180334274e-05,0.0005856502167918866,-0.001037667885071275,-0.3063471019268036,-48.09170913696289,3.5334312915802,15.994636535644531,-1.1335347890853882,-0.9729721546173096,0.03941498324275017,740,702,761,43.020,1,0
1739373994.7277117,0.13050310398376658,0.9716267865256787,0.21634231277655744,-1.5645928731709262,-1.463086375899412,1.2771075127471163,0.20618540975633792,0.00042128717306826784,-0.0007918317975980128,0.0004791189254378134,0.0003742339491120409,0.0006852410133482794,-0.0002197010052940247,0.00012816808857917818,-0.3063471019268036,-48.06790542602539,3.50566029548645,15.994636535644531,-1.1399434804916382,-0.9802963733673096,0.04673920199275017,741,698,761,43.020,1,0
1739373994.7386324,0.13050310398243326,0.9716255511678088,0.21634306859668595,-1.5645883089438122,-1.4630864232231566,1.2771118705925182,0.20618772568329394,3.20720602815973e-05,0.00019619814641944137,-0.00031687544664041155,0.001084242569959354,-0.0005308902743907653,0.0012957495038964325,0.0008728379071582312,-0.3063471019268036,-48.04410171508789,3.5334312915802,15.970832824707031,-1.1399434804916382,-0.9802963733673096,0.026597600430250168,740,695,760,43.129,1,0
1739373994.7486477,0.13050163933744244,0.971628987552352,0.21634306864869474,-1.5645947146041075,-1.463087164086914,1.27711154885582,0.2061909729581118,-0.0002909834159494333,0.0005293138926393524,0.0002174692080174613,0.0005801093607103749,-0.0011800023946675604,0.0004783622832572743,0.00031057017410437575,-0.2825433909893036,-48.09170913696289,3.5334312915802,16.02240753173828,-1.1335347890853882,-0.9802963733673096,-0.0008682189509272575,744,703,760,43.020,1,0
1739373994.7586985,0.13050198039463035,0.971627236876119,0.2163451483305443,-1.564592952639744,-1.4630880569268812,1.2771122647935576,0.20619219520166052,-0.00024376680438674436,0.0007896390174753164,0.0013701966888807777,0.00042515126702879423,-0.00045453687636206583,0.0001280005212742562,0.0005544221733180708,-0.3301508128643036,-48.06790542602539,3.50566029548645,15.994636535644531,-1.1271260976791382,-0.9867050647735596,-0.013685601763427258,741,701,762,42.912,1,0
1739373994.7687073,0.13050334014540316,0.9716241639248977,0.21633998613295052,-1.564594952962122,-1.4630860154238245,1.27711104499546,0.20619243124568662,0.00020293555311306664,-0.0005512348622964919,-5.52861698008392e-05,0.0009383245014141507,0.0017644704510477419,0.0009007336521464311,0.0014030582591108714,-0.3063471019268036,-48.06790542602539,3.5334312915802,16.02240753173828,-1.1399434804916382,-0.9729721546173096,-0.013685601763427258,741,701,761,43.020,1,0
1739373994.7796936,0.13050593851842868,0.9716304969388114,0.2163487137403866,-1.5645928466799675,-1.463086425316083,1.277111892358689,0.20618757877958063,0.0005319590575981621,0.0006184815609733787,0.0013185582488941766,0.001229581254852265,0.0013112118035415652,0.0008444655171132519,-0.00036467050065031427,-0.3063471019268036,-48.11948013305664,3.45805287361145,15.994636535644531,-1.1399434804916382,-0.9802963733673096,-0.0072769103571772575,743,703,763,43.129,0,0
1739373994.7906625,0.13050481650849813,0.9716270249438091,0.21634304236702662,-1.5645949529607264,-1.4630864238694525,1.277108324043243,0.2061926044336131,0.0006600185640278674,-0.0005752084651013294,-0.00010916553359525949,-0.0003368523235487386,0.00031570268232624933,0.00024992607569363455,0.0006451741643509895,-0.3301508128643036,-48.06790542602539,3.5334312915802,16.02240753173828,-1.1399434804916382,-0.9867050647735596,-0.013685601763427258,745,701,763,43.129,1,0
