IITGN-Robotics/Franka_IITGN_ROBOTICS/franka_ros/franka_iitgn/data/s_b_006.csv
time,fr3_joint1_pos,fr3_joint2_pos,fr3_joint3_pos,fr3_joint4_pos,fr3_joint5_pos,fr3_joint6_pos,fr3_joint7_pos,fr3_joint1_vel,fr3_joint2_vel,fr3_joint3_vel,fr3_joint4_vel,fr3_joint5_vel,fr3_joint6_vel,fr3_joint7_vel,fr3_joint1_eff,fr3_joint2_eff,fr3_joint3_eff,fr3_joint4_eff,fr3_joint5_eff,fr3_joint6_eff,fr3_joint7_eff,flexpin1,flexpin2,flexpin3,Force,ContactMic,ContactMic_gt
1739375894.8251472,0.12033037728192994,0.9871650259518301,0.23258279811444788,-1.5420023122987174,-1.4654057420350413,1.2495587041588154,0.20875323972372467,-0.0005406567251636939,0.007749214624410159,0.0004935120204239366,0.003455168918575541,0.0003320560087988606,-0.0005357296203842427,0.0011442576298170601,-0.2547723948955536,-49.03989028930664,3.71195912361145,15.970832824707031,-1.0291646718978882,-1.5653183460235596,-0.020094294100999832,,,,,,,,,
1739375894.836081,0.12033131274403035,0.9871336912668852,0.232591578907627,-1.5420225796230214,-1.465406097716605,1.249558466186815,0.2087503755114463,0.00019206195089240127,-0.0026616112139055135,0.00033988917546274016,-0.0003554467509347563,0.00021568761884408388,-0.0008786579272087333,-0.0002553678931032119,-0.2547723948955536,-48.65506362915039,3.8111412525177,16.19300079345703,-1.0355733633041382,-1.5451767444610596,0.012864691205322742,,,,,,,,,
1739375894.8461206,0.12032357078887239,0.987156309172615,0.232605429713265,-1.5420032730481337,-1.4654077744170104,1.2495598183144951,0.20874946567954747,-0.002109042439931583,-0.0011367355034659272,0.0022467354708370904,0.000315836658643982,0.000516293141526855,-0.0002367714492715833,-0.000173252216749568,-0.1555902659893036,-48.96451187133789,3.7873375415802,16.04621124267578,-1.0483907461166382,-1.5653183460235596,0.012864691205322742,,,,,,,,,
1739375894.856153,0.12032419186850928,0.9871455287979974,0.23260490397895628,-1.5420049734841232,-1.4654068430190326,1.2495610618735915,0.2087555859451846,0.000105751818601804,0.0032379943310024088,-8.98942410937258e-05,0.002434508932822236,0.00011603580794907782,0.0020506073978698146,0.0005216119581535546,-0.1555902659893036,-48.80978775024414,3.83891224861145,15.994636535644531,-1.0291646718978882,-1.5387680530548096,-0.04023589566349983,,,,,,,,,
1739375894.8670814,0.12032357969158851,0.9871326777347735,0.23260597096244284,-1.5420106031790022,-1.4654074044435483,1.2495543933820037,0.20875867673685425,0.0012018937618493164,-0.0015584206248225095,-0.0007296374122051714,-0.0011764493246180646,0.00013040841807742694,-0.0014218334756495592,0.0038538073495433907,-0.1555902659893036,-48.65506362915039,3.83891224861145,16.12158966064453,-1.0483907461166382,-1.5195419788360596,-0.027418512850999832,,,,,,,,,
1739375894.8771822,0.12031990896989812,0.987147088005926,0.2326062318050294,-1.542002404464597,-1.4654057572147703,1.2495585524744008,0.2087493477979878,-0.0012556530091845076,0.0004211785547459405,-0.0002868637874080517,0.00015022450637529265,-0.0003455884957440068,0.0008433462885035838,-0.0011683653909026097,-0.10798283666372299,-48.88516616821289,3.83891224861145,16.04621124267578,-1.0291646718978882,-1.5515854358673096,0.012864691205322742,,,,,,,,,
1739375894.8881478,0.12031993699053342,0.9871480451835771,0.23260915688424763,-1.5420051837727697,-1.465406811016569,1.2495592045403348,0.20874855058173125,-9.934042341467188e-05,0.0008343220550041931,-0.0005447051013793369,0.0005531909134327806,-0.00043167784340877077,-0.0004439497663138091,0.00025335582182100256,-0.08021184056997299,-48.88516616821289,3.83891224861145,16.07001495361328,-1.0291646718978882,-1.5589096546173096,0.019273381680250168,,,,,,,,,
1739375894.8981514,0.12032459822054287,0.9871347748610456,0.23261057357867887,-1.5420059640620956,-1.4654077227344726,1.249560558587243,0.20875408374519497,0.0009822562129059374,0.0002999808937053954,0.00024039902210188946,0.00045508970504253596,-0.00010550122180840612,1.557107822621872e-05,0.0009165522902520674,-0.1317865550518036,-48.75821304321289,3.86271595954895,16.09381866455078,-1.0483907461166382,-1.5323593616485596,-0.027418512850999832,,,,,,,,,
1739375894.9090767,0.12032196107345557,0.9871422714804623,0.23261340296113903,-1.542003743056683,-1.4654083959810642,1.249561276932511,0.2087532283279586,-0.00015857698756968907,-0.0002344488035708989,0.00012237865170048007,-0.0012278543058639605,-0.0008025361337450123,-0.00013700090977367732,-0.0002707436129055905,-0.10798283666372299,-48.86136245727539,3.8111412525177,16.09381866455078,-1.0419820547103882,-1.5653183460235596,0.0064559997990727425,,,,,,,,,
1739375894.9191315,0.12032163029471517,0.9871439836754267,0.23261060420149432,-1.5420020357813087,-1.465409140073244,1.249562192313257,0.2087500659011077,0.001124137918664588,0.002093543582453836,0.000935393338078928,0.0012294321019373868,-0.0021837252282791296,-0.0004006733976965309,-0.0018542591027641882,-0.1317865550518036,-48.88516616821289,3.86271595954895,16.07001495361328,-1.0355733633041382,-1.5451767444610596,0.0064559997990727425,,,,,,,,,
1739375894.9291446,0.1203215422461302,0.987139833146821,0.2326098276263767,-1.5420098306182768,-1.4654052726977154,1.2495598801429935,0.20875482828244,4.2948980303953474e-05,-0.001405635629846766,-7.903751607245008e-05,-0.002056606322624727,0.000903358893972012,0.00019909295027148238,-0.0004033995415758736,-0.1317865550518036,-48.78598403930664,3.88651967048645,16.14539337158203,-1.0291646718978882,-1.5259506702423096,-0.03382720425724983,,,,,,,,,
1739375894.9391446,0.12031989143036509,0.9871479293514772,0.2326145454404212,-1.542009712044982,-1.4654062904769118,1.2495574850519247,0.20874768463027185,-0.0009509310286956781,-0.000783088749493021,0.00044360094762454225,-0.0015437591163735569,0.0012320459240236362,-0.0007006255410366514,-0.0019134624427778022,-0.10798283666372299,-48.91293716430664,3.8111412525177,16.14539337158203,-1.0483907461166382,-1.5323593616485596,0.026597600430250168,,,,,,,,,
1739375894.9492123,0.12032051532825322,0.9871450452286946,0.23261483944441547,-1.5420041843109418,-1.4654030375038045,1.2495609225029503,0.20875484140527242,0.0003712661461665983,0.00024101367702838083,0.0008996198820752056,0.0009354787077222385,0.0011482995727104277,-0.0009957254732361831,0.0010901797198656863,-0.10798283666372299,-48.86136245727539,3.83891224861145,16.07001495361328,-1.0483907461166382,-1.5387680530548096,-0.03382720425724983,,,,,,,,,
1739375894.9611459,0.12031780634543345,0.9871377067991673,0.2326147947527633,-1.54200228814865,-1.4654077074941487,1.2495599143254512,0.20875407499671259,-0.0013226241068840423,-0.00028502340987801176,0.0013560612658827492,0.0014603297146035328,-0.00034839382725997895,-0.00083880431938675,0.0005983785391700447,-0.08021184056997299,-48.75821304321289,3.8111412525177,16.04621124267578,-1.0355733633041382,-1.5259506702423096,-0.027418512850999832,,,,,,,,,
1739375894.9721456,0.12031983979028445,0.98714094536613,0.23261368806889204,-1.541999983435078,-1.4654066500601277,1.2495609593980488,0.2087493606788304,-0.0007720199491133576,0.0002409952674469211,0.0007102096697011771,0.00036416084203868794,-0.00013085335512401765,-0.0012183917557036428,-0.0013539917950882488,-0.10798283666372299,-48.80978775024414,3.86271595954895,16.04621124267578,-1.0483907461166382,-1.5387680530548096,0.012864691205322742,,,,,,,,,
1739375894.9830716,0.12031960650248391,0.9871438965109106,0.2326127146424509,-1.5420095127132487,-1.4654080482539327,1.2495629484114255,0.20875093174507955,0.00041415469298268466,0.001361246167106208,-0.00018098600148787222,-0.00083313716553878,-0.0004956266759273244,0.00013666394134538242,0.0006526880158227377,-0.10798283666372299,-48.88516616821289,3.83891224861145,16.14539337158203,-1.0419820547103882,-1.5515854358673096,-0.0008682189509272575,,,,,,,,,
1739375894.9940157,0.12032082974748003,0.9871385518973387,0.23261754178720934,-1.5420087706513723,-1.4654083568947176,1.2495638159263878,0.20874769046264222,0.0004768804345876851,-0.0012278290820258101,0.0015796534991868647,-0.0002106514352604926,-0.0013978077413667376,0.0015810215510440357,-0.0020394580041854394,-0.10798283666372299,-48.80978775024414,3.8111412525177,16.14539337158203,-1.0419820547103882,-1.5589096546173096,0.026597600430250168,,,,,,,,,
1739375895.0051746,0.12031982875666192,0.9871347385248392,0.23261586027015246,-1.5420059593151692,-1.4654056230750119,1.2495603705487222,0.20875172877339443,0.0002933448550130561,-0.002565284370750695,0.0007701725180963826,0.00039127113968199877,-8.865994420713955e-05,-0.0008035379783136275,-0.0005522922921908794,-0.10798283666372299,-48.75821304321289,3.83891224861145,16.09381866455078,-1.0355733633041382,-1.5387680530548096,-0.0072769103571772575,,,,,,,,,
1739375895.0161495,0.12032128051940197,0.9871423839970013,0.2326176302614141,-1.5420028324075086,-1.4654066481061014,1.2495614347070052,0.2087532052112333,9.022175012359248e-05,0.0015928518223921934,0.000815799302942711,-0.0011699379793541876,-0.0006290098078700174,0.0003262252333031182,0.001133673241693866,-0.1317865550518036,-48.83359146118164,3.8111412525177,16.09381866455078,-1.0483907461166382,-1.5387680530548096,-0.020094294100999832,,,,,,,,,
1739375895.0271246,0.12031988265693663,0.9871459817610369,0.23261407504966522,-1.5420048294372655,-1.4654083447655954,1.2495602553952414,0.20875081327136172,0.00032838893887012356,0.0023339408891588616,-0.0009718353016816288,-0.0008500311191062911,0.0006193947835158804,0.0002743919853126137,-0.0002688838915312257,-0.10798283666372299,-48.91293716430664,3.88651967048645,16.12158966064453,-1.0419820547103882,-1.5387680530548096,-0.0008682189509272575,,,,,,,,,
1739375895.0391417,0.12031975131010099,0.9871421828497847,0.23261377072607506,-1.5420083947549093,-1.4654054601658073,1.2495605462271882,0.20875407062213783,-0.0005912975320879912,0.0011254530027592841,-0.00026445115047331216,-0.0006731895782036053,0.0009279293763312007,0.0014141733413726145,0.0021051328579647665,-0.10798283666372299,-48.86136245727539,3.86271595954895,16.16919708251953,-1.0547994375228882,-1.5323593616485596,-0.027418512850999832,,,,,,,,,
1739375895.0501363,0.12032152502993144,0.9871408547048182,0.2326176293967965,-1.542005175126451,-1.4654080467979425,1.249557910209323,0.20875412059327872,0.00051236026049602,-0.001806165108333064,0.0015053477933235637,-0.0011547923001713953,0.0007878299655723689,-0.0012720890748911314,0.0005059915141118411,-0.1317865550518036,-48.83359146118164,3.8111412525177,16.12158966064453,-1.0419820547103882,-1.5451767444610596,-0.0008682189509272575,,,,,,,,,
1739375895.0611477,0.12032151669431766,0.9871432189441144,0.23261554949891267,-1.5420020354393877,-1.465404817446025,1.2495629325623885,0.20875964070624645,0.0011252437478330131,0.0011751802608546424,0.0004934654713103824,0.0007270214304072983,0.0011896772831838458,7.432008809493446e-05,0.0023239405060706646,-0.1317865550518036,-48.86136245727539,3.83891224861145,16.07001495361328,-1.0419820547103882,-1.5515854358673096,-0.04756011441349983,,,,,,,,,
1739375895.072183,0.12032154744897124,0.9871445488198111,0.2326144404606698,-1.5420056105350177,-1.465409275880635,1.2495582029821954,0.2087461693281164,9.63734798578155e-05,0.0018073069066643305,-0.00032004311458267386,-0.0008486333599957058,-0.0003059062951160091,-0.0002892993755775105,-0.0011884724446250767,-0.1317865550518036,-48.88516616821289,3.86271595954895,16.09381866455078,-1.0355733633041382,-1.5387680530548096,0.03941498324275017,,,,,,,,,
1739375895.0821834,0.12032154256839567,0.9871458779436971,0.23261385722743633,-1.542002749698497,-1.4654064936941882,1.2495621530511511,0.20875407062236084,0.0008960406552297711,0.0007324127592875673,-0.0006979776130016727,6.557215263007115e-05,0.0014689003918647065,-0.00019329559169375797,-0.00018745640703121734,-0.1317865550518036,-48.91293716430664,3.86271595954895,16.09381866455078,-1.0547994375228882,-1.5451767444610596,-0.027418512850999832,,,,,,,,,
1739375895.0931108,0.12031984173939268,0.9871438688795348,0.2326186202434387,-1.542006650377594,-1.4654092376160628,1.2495579145700464,0.20874966299000283,0.000921369993377559,0.0009027683822619287,0.0003701417134842097,-0.0011513440666308897,-0.0017210539796210752,4.809904125537168e-05,0.00017322729254197413,-0.10798283666372299,-48.88516616821289,3.83891224861145,16.14539337158203,-1.0355733633041382,-1.5451767444610596,0.012864691205322742,,,,,,,,,
1739375895.104157,0.12031886279351155,0.9871336336077227,0.23261649036399137,-1.5420048595366829,-1.4654091202099282,1.2495600218340202,0.20875320472713124,-0.001360353841022308,-0.0015606779733791402,0.0005589984054800035,-0.0005002901621829494,-0.0010739755595531321,-7.432222985914543e-06,-0.0010204424024136435,-0.10798283666372299,-48.78598403930664,3.83891224861145,16.12158966064453,-1.0355733633041382,-1.5387680530548096,-0.020094294100999832,,,,,,,,,
1739375895.1160798,0.12031939133479667,0.9871438767226849,0.23261589458259554,-1.5420105405571707,-1.4654040722601405,1.2495614340603267,0.20875422811436167,0.0005522788211071804,0.0007340432734637978,0.0005144481227445521,-0.00147348037306273,0.003150025025748481,0.0002582118858143503,0.0002785342869515579,-0.1317865550518036,-48.88516616821289,3.83891224861145,16.16919708251953,-1.0483907461166382,-1.5387680530548096,-0.027418512850999832,,,,,,,,,
1739375895.1261704,0.12031784118787778,0.9871382427997671,0.23261388347124823,-1.5420027496581215,-1.4654092250064468,1.2495606198759495,0.2087503755121378,-0.0004085807273933047,-0.0015596000119101016,-0.0005310127926255635,0.00026439271421790786,-0.0018138308848874955,0.000285755887981063,-0.00010912962653597622,-0.08021184056997299,-48.80978775024414,3.86271595954895,16.09381866455078,-1.0355733633041382,-1.5323593616485596,0.012864691205322742,,,,,,,,,
1739375895.1371398,0.12032064695404511,0.9871401698633238,0.23261669208030863,-1.5420009669689894,-1.4654091580021633,1.2495591615669446,0.208754946393964,0.0012153593892000947,-0.0005041894079335215,0.0004701433976189818,-0.0001265443475451897,-0.00019624185537274322,0.00027370030156498445,-0.0008083556902941711,-0.08021184056997299,-48.83359146118164,3.86271595954895,16.07001495361328,-1.0355733633041382,-1.5195419788360596,-0.03382720425724983,,,,,,,,,
1739375895.1481457,0.12032151641760575,0.9871430325228574,0.23261552341079178,-1.5420027500820734,-1.465407742975248,1.2495613954631484,0.20875355998746667,0.00010398220705517587,0.0004715180788507458,0.0003981448352158107,0.001086400707056108,0.0002501822796163144,0.0012489668018353759,4.443142564902736e-05,-0.1317865550518036,-48.83359146118164,3.83891224861145,16.09381866455078,-1.0483907461166382,-1.5387680530548096,0.012864691205322742,,,,,,,,,
1739375895.1591096,0.12032051402864796,0.9871439871711227,0.232615552523055,-1.5419995726254865,-1.4654072454862028,1.2495617170401367,0.20875639358162434,-0.0002734981064891301,0.0015135824438651936,-0.00023787247265494475,0.0018882592085421484,-0.0004395836228409428,0.0006118990103764494,0.0007323964517097939,-0.10798283666372299,-48.86136245727539,3.83891224861145,16.02240753173828,-1.0483907461166382,-1.5451767444610596,-0.020094294100999832,,,,,,,,,
1739375895.1691406,0.12031780973252905,0.9871394264823643,0.23261558449328787,-1.541999197484221,-1.4654069701842007,1.249562192344937,0.20875483427682015,-0.0005788287498782907,-0.00046842327478226377,-0.00046204144650274954,0.0003990978552406454,0.0010651718776882742,0.00041469214576226763,0.00032801786846959013,-0.08021184056997299,-48.80978775024414,3.83891224861145,16.04621124267578,-1.0419820547103882,-1.5451767444610596,-0.03382720425724983,,,,,,,,,
1739375895.1791484,0.12032256854078474,0.9871418384727119,0.23261802955259578,-1.5420048967214899,-1.4654080467979125,1.2495629500291643,0.20875924921117298,0.0010466208665696575,0.0008265187606591273,0.0005051511025357426,-4.2454658068967466e-05,0.0004767918110662111,0.0004920896956978191,0.002990193565236059,-0.1317865550518036,-48.86136245727539,3.83891224861145,16.09381866455078,-1.0419820547103882,-1.5515854358673096,-0.04023589566349983,,,,,,,,,
1739375895.1900713,0.12031893440305201,0.9871424051319453,0.2326149236735364,-1.5420030931320519,-1.4654081614191188,1.2495627915921876,0.20875426774930955,-0.0007641214627988992,-0.0004132589847284645,0.0001119284242242759,-0.001251167678001576,-0.0006470881561466162,0.00028566515302819493,0.001915945920293575,-0.05640812963247299,-48.86136245727539,3.88651967048645,16.09381866455078,-1.0419820547103882,-1.5515854358673096,-0.020094294100999832,,,,,,,,,
1739375895.2000792,0.12032051407676236,0.9871443031111865,0.23261614107843898,-1.5420069752088927,-1.4654067002911586,1.2495606770462464,0.20874840006664816,-0.00021640517071739486,0.00029696778137089825,-0.00012394359674315045,0.0004568397641737936,0.0005218428473080493,-0.0005062613514637943,-0.0007249924908563335,-0.10798283666372299,-48.86136245727539,3.86271595954895,16.12158966064453,-1.0483907461166382,-1.5323593616485596,0.012864691205322742,,,,,,,,,
1739375895.2102053,0.12031767785299673,0.9871421563949706,0.23261671747582763,-1.5420033521722656,-1.4654085007808724,1.249559013454698,0.208753206815883,-0.0005308887485635087,-0.0006995302074550406,0.0006610307605037288,0.0008963634045597049,-0.00020621946674742516,0.0004124669555847975,0.0011264504227697038,-0.10798283666372299,-48.86136245727539,3.83891224861145,16.07001495361328,-1.0419820547103882,-1.5451767444610596,-0.020094294100999832,,,,,,,,,
1739375895.2211547,0.12032151917222933,0.9871366539034402,0.23261703379184864,-1.5420048297763773,-1.465405795978022,1.2495595661581962,0.20875320033723535,0.00024777075223358436,-0.0017701366384350395,-0.00013570495044114362,-0.00035488225714593133,-0.00021610023734929698,1.111067517908077e-06,0.0004022728794612267,-0.1317865550518036,-48.78598403930664,3.86271595954895,16.12158966064453,-1.0291646718978882,-1.5259506702423096,-0.020094294100999832,,,,,,,,,
1739375895.2331064,0.12032064695386177,0.987142157339313,0.2326151994706319,-1.5420048308530774,-1.4654081252206084,1.2495614172644107,0.20875244706491514,0.0008064480771167678,-0.0006404039108889576,-0.00018085252746163574,-0.00020007465116163916,-0.0007573870726327428,0.0007287538655000197,5.958301397718052e-05,-0.08021184056997299,-48.86136245727539,3.88651967048645,16.12158966064453,-1.0419820547103882,-1.5387680530548096,-0.013685601763427258,,,,,,,,,
1739375895.2431598,0.12032253836156576,0.9871420812464117,0.23261522903676776,-1.5420069752030838,-1.465410016116783,1.249556734498658,0.20875093174478324,-0.0003143983756090065,0.0005092602857472861,-0.0009779741366220361,-0.001263994336762815,-0.0025474494777221568,-0.0015285949856225574,-0.000998074658799196,-0.1317865550518036,-48.86136245727539,3.9142906665802,16.12158966064453,-1.0291646718978882,-1.5259506702423096,-0.0008682189509272575,,,,,,,,,
1739375895.2532005,0.12031876207003145,0.9871421829573127,0.2326162969350853,-1.5420000486522827,-1.4654092773547645,1.2495621923151499,0.20875408374519408,-0.0006020865094250569,0.0016864774620163753,-0.002221347465068164,0.002302303883221203,-0.0018277726574367724,-0.0001080849298277738,0.002330273804692716,-0.08021184056997299,-48.86136245727539,3.9142906665802,16.07001495361328,-1.0355733633041382,-1.5451767444610596,-0.027418512850999832,,,,,,,,,
1739375895.2641296,0.12031949301947195,0.9871401759695314,0.23261731455875762,-1.5420051502655578,-1.4654055730630353,1.249562950029164,0.2087485505275783,-0.00027065646970033346,0.001073880262704792,-0.00024297669856235943,-0.0011299505718640262,0.0017937038586512064,0.00207340369707269,-0.0018157337430931035,-0.10798283666372299,-48.83359146118164,3.86271595954895,16.12158966064453,-1.0355733633041382,-1.5515854358673096,0.019273381680250168,,,,,,,,,
1739375895.2742062,0.12031809815504041,0.987139441527078,0.23262047421135518,-1.5420066092838933,-1.4654080310778856,1.249561395463151,0.20875725947085624,0.0002186254606136534,-0.0012734862940088723,0.000818723441965112,-0.0012868532246330868,0.0008812829822450079,0.00011322136171625807,0.0016397674323294187,-0.08021184056997299,-48.83359146118164,3.86271595954895,16.14539337158203,-1.0419820547103882,-1.5387680530548096,-0.027418512850999832,,,,,,,,,
1739375895.2851527,0.1203220398717047,0.9871439773464866,0.2326172061711098,-1.5420009757992912,-1.4654044196741316,1.2495578981672024,0.208754841477277,0.0008153429054759439,0.0007957324417421438,-0.0011618652490138718,0.0013838001195923078,0.0010070087412446607,-0.001685681163317673,0.0010321395178057332,-0.10798283666372299,-48.88516616821289,3.86271595954895,16.07001495361328,-1.0483907461166382,-1.5387680530548096,-0.03382720425724983,,,,,,,,,
1739375895.295205,0.12032051406651675,0.9871426306902361,0.23262194161300442,-1.542003473732213,-1.4654104335917273,1.249560676989038,0.20874930753763596,0.0011364095945244452,0.0006248772261809179,0.0011737153233426266,0.0002675165971127196,-0.0016934290587484278,0.0007052673433760689,-0.0015848288738837713,-0.10798283666372299,-48.86136245727539,3.83891224861145,16.09381866455078,-1.0227559804916382,-1.5323593616485596,0.012864691205322742,,,,,,,,,
1739375895.3061535,0.12031993537308927,0.9871427949059158,0.23261834111506002,-1.5420049750355225,-1.465405744741443,1.2495606753800381,0.20875513357185557,0.0010196746650414027,0.0005170511456774172,-0.0010973917993584263,-0.0008144328337874949,-0.00014877497457506004,0.00018315924870754464,0.0019319103761532765,-0.08021184056997299,-48.86136245727539,3.88651967048645,16.09381866455078,-1.0355733633041382,-1.5323593616485596,-0.027418512850999832,,,,,,,,,
1739375895.3161924,0.12031633051037574,0.9871420657772088,0.23262015941944178,-1.5420048295825672,-1.465407407147337,1.2495606765643843,0.20874739941019396,-0.0003791589535551152,0.0009574925634764977,0.00047187069533531444,0.0001526993627976384,0.00044563878425180975,0.00020932969238547167,-0.0008783221857583624,-0.05640812963247299,-48.83359146118164,3.86271595954895,16.12158966064453,-1.0483907461166382,-1.5323593616485596,0.03300629183650017,,,,,,,,,
1739375895.3270907,0.12031956763856282,0.9871367324422592,0.23262012035588228,-1.5419983178736667,-1.4654092366536744,1.2495595660146328,0.20875093174745016,-0.0006298349035128181,-0.0005001333192300283,-0.0001184332339960656,0.0008570994880762082,-0.0014042558705833527,-0.00047328959420338994,-0.0011517479494688528,-0.10798283666372299,-48.78598403930664,3.86271595954895,16.07001495361328,-1.0355733633041382,-1.5259506702423096,-0.0008682189509272575,,,,,,,,,
1739375895.3381336,0.12032160687019255,0.9871401593988927,0.23261837674236452,-1.5420027762011153,-1.4654054258066436,1.2495579538105843,0.2087465236266147,0.0012421139519559064,-0.0006122722562964505,-0.0004111364514386782,-0.000508380180790802,-0.0006257228277396056,-0.0011165219987010458,4.920753290529054e-05,-0.1317865550518036,-48.83359146118164,3.88651967048645,16.09381866455078,-1.0291646718978882,-1.5451767444610596,0.03941498324275017,,,,,,,,,
1739375895.349161,0.12031396737955335,0.9871401643046425,0.23261836789336132,-1.5420048983567094,-1.46540452644435,1.2495603619630056,0.20875227847930897,-0.001758770240032878,0.00023771901911899578,-0.0004439273858773012,1.0840448449806557e-05,0.0012945389642352284,0.0003411755986586936,-0.00023990157931394137,-0.05640812963247299,-48.83359146118164,3.88651967048645,16.09381866455078,-1.0355733633041382,-1.5387680530548096,-0.0072769103571772575,,,,,,,,,
1739375895.3601422,0.12032061924460004,0.9871399180369234,0.23261837674297614,-1.5420028556582897,-1.4654056263704478,1.2495599150221446,0.20875039074354113,0.00048645521083480025,0.00014936216000694725,-0.0005496199957660515,0.0003395740782292633,-0.0003909987725606825,-0.00046330901155643253,0.00010151001703006705,-0.10798283666372299,-48.83359146118164,3.88651967048645,16.09381866455078,-1.0291646718978882,-1.5259506702423096,0.012864691205322742,,,,,,,,,
1739375895.3701892,0.12031782923134607,0.9871421651767203,0.23262194209706422,-1.541998900680023,-1.465407418648971,1.2495590134544763,0.208749308242472,-0.00014449830746688419,0.0011635835464730983,0.0002251605800705944,0.0014562844840369208,0.0007165947385829744,-0.0006367648432843847,-0.0010332543769359824,-0.08021184056997299,-48.86136245727539,3.83891224861145,16.07001495361328,-1.0419820547103882,-1.5451767444610596,0.012864691205322742,,,,,,,,,
1739375895.3811471,0.12031772720650086,0.9871384458970476,0.23261885714881136,-1.5420048221503997,-1.4654084668806089,1.2495636981828453,0.20875087347876745,-0.0003371606355554366,-0.0009725716658580599,0.0006648342348953255,2.5167031752994912e-05,-0.0012324620363465936,0.00024549887216860494,-0.001157332880035978,-0.08021184056997299,-48.80978775024414,3.83891224861145,16.09381866455078,-1.0419820547103882,-1.5589096546173096,0.026597600430250168,,,,,,,,,
1739375895.3921115,0.12032183194464703,0.9871421301947108,0.23261836366805333,-1.5420039192865933,-1.4654096251136954,1.2495629500284997,0.2087524471369445,0.0003292606782617476,-0.000108735967859478,0.00017184655637402456,-0.00015552554829727022,-0.0007734696777734641,0.0009042444983772577,0.00025292133340226166,-0.1317865550518036,-48.86136245727539,3.88651967048645,16.07001495361328,-1.0291646718978882,-1.5515854358673096,-0.013685601763427258,,,,,,,,,
1739375895.4030833,0.12031981640807383,0.9871400194579121,0.23261981952416724,-1.5420048338495191,-1.4654061731406895,1.2495598743287932,0.208751688917317,0.001177852272053853,-8.584921642657688e-05,0.00028767458598227564,0.00015751115092344967,0.0004574221213533451,-0.0006147078292527298,4.0250825517138076e-05,-0.10798283666372299,-48.86136245727539,3.83891224861145,16.12158966064453,-1.0483907461166382,-1.5259506702423096,-0.0072769103571772575,,,,,,,,,
1739375895.414167,0.12032193071798244,0.9871421602470122,0.23261837280066383,-1.5420010553812578,-1.4654045772794309,1.2495591219976363,0.2087546219911181,0.0016655333943133067,0.000500402614333901,-0.0001392704113505743,0.0008153253032274909,0.0012107148775147773,-0.0006639227926602487,0.0019802761641059966,-0.10798283666372299,-48.86136245727539,3.88651967048645,16.07001495361328,-1.0483907461166382,-1.5195419788360596,-0.020094294100999832,,,,,,,,,
1739375895.4241683,0.12031822418045113,0.9871370817606997,0.2326162410178617,-1.5420048294373612,-1.4654038232202273,1.2495599193881781,0.20874855055150576,0.0004859305162201601,-0.002105170911413991,-0.0005683129114862633,-0.000882631690264458,0.0009535467686758183,0.00016681692903166269,-0.0021337469660620096,-0.05640812963247299,-48.83359146118164,3.88651967048645,16.12158966064453,-1.0419820547103882,-1.5259506702423096,0.019273381680250168,,,,,,,,,
1739375895.4351196,0.12031779709065157,0.9871422593731995,0.232619913263573,-1.5420016822247267,-1.4654048767497951,1.2495614216270554,0.2087575637801572,-0.0009646986704537747,-0.00011387326983965226,0.00044185236160893687,0.0008315946070452261,0.0007319978034167861,0.0010042994731396233,0.002894151359159828,-0.08021184056997299,-48.86136245727539,3.86271595954895,16.07001495361328,-1.0355733633041382,-1.5387680530548096,-0.05396880581974983,,,,,,,,,
1739375895.4451663,0.12031980373981661,0.9871423125809713,0.23261790932009563,-1.542004832391416,-1.4654097161660067,1.2495590134544765,0.2087508734847671,0.00015909466107951137,-5.0826437977482316e-05,-0.0008636720668612689,0.0004921392747458066,-0.0009452861786604318,-0.00039206272806089254,-0.0010276996659284326,-0.10798283666372299,-48.83359146118164,3.86271595954895,16.12158966064453,-1.0227559804916382,-1.5451767444610596,0.026597600430250168,,,,,,,,,
1739375895.45609,0.12031769174386842,0.987148727855309,0.23262194175882764,-1.5419989556848719,-1.465404934749506,1.249556438478467,0.2087509317627844,-6.868974183120292e-05,0.0018621296697060882,0.0002103922758631868,0.0013686452650736691,0.001605548751538628,-0.00024184375656678543,0.00027383720635639516,-0.08021184056997299,-48.91293716430664,3.83891224861145,16.04621124267578,-1.0419820547103882,-1.5323593616485596,-0.0008682189509272575,,,,,,,,,
1739375895.4661293,0.12031674546847718,0.9871385258544076,0.23261865938718201,-1.5420012378705448,-1.4654027113342394,1.2495611281370198,0.20875467448245993,-0.0005407584220618372,-6.427556873246979e-05,-0.0005198490580285012,0.0009483615063123469,0.000857209833977959,1.8439461826188217e-05,0.001348884040038647,-0.03260441869497299,-48.80978775024414,3.9142906665802,16.07001495361328,-1.0547994375228882,-1.5451767444610596,-0.020094294100999832,,,,,,,,,
1739375895.47707,0.1203169705565139,0.9871364164664588,0.2326202396104725,-1.5420024438569047,-1.465408502174334,1.2495610814902902,0.20874930819576928,-2.3379957504804144e-05,-0.000366209087279498,0.0007064662447766324,0.0007206067546384919,0.0010681261043808336,0.00023376423561361506,-0.0005996259459458366,-0.10798283666372299,-48.78598403930664,3.86271595954895,16.09381866455078,-1.0419820547103882,-1.5387680530548096,0.012864691205322742,,,,,,,,,
1739375895.4881043,0.12031783205811912,0.9871386049463997,0.23262023815840308,-1.5420026734384582,-1.4654037927493095,1.2495605593053778,0.20875395214893114,-0.0004639559928859153,-0.0005433805531994321,-0.00021813044287377365,0.0013022896984411355,-0.0001946391364338097,-0.00038506653020370536,0.0001923813321325163,-0.08021184056997299,-48.80978775024414,3.86271595954895,16.09381866455078,-1.0419820547103882,-1.5323593616485596,-0.027418512850999832,,,,,,,,,
1739375895.4981456,0.12031780583534568,0.9871459467300221,0.23262016330873653,-1.5420027800611171,-1.4654076943583478,1.2495613954624862,0.20875482822759864,-0.0010380975477020452,0.0009342326055425635,0.000638532096619234,0.0006601039512933197,-0.0003746209842633618,-0.0003825484435725823,0.002221626602127132,-0.08021184056997299,-48.91293716430664,3.86271595954895,16.09381866455078,-1.0355733633041382,-1.5387680530548096,-0.03382720425724983,,,,,,,,,
1739375895.509281,0.12032183194509088,0.9871414675942821,0.23261661190119204,-1.5420027909408316,-1.4654077208420682,1.2495567404742414,0.2087532068312618,0.0012345577015334837,-0.0012122739521599304,-0.0008762186665014187,7.045474807326893e-05,-0.0009639115169492031,-0.0008488500514697126,0.0011075905617237188,-0.1317865550518036,-48.86136245727539,3.9142906665802,16.12158966064453,-1.0483907461166382,-1.5259506702423096,-0.020094294100999832,,,,,,,,,
1739375895.5201967,0.12031980374531023,0.9871421341076322,0.23262048181979517,-1.5420009698779065,-1.465409231648307,1.249560637587732,0.20875006584758649,0.00011997480343580946,-0.0004424915162415483,0.0004877320462940189,0.0005686234157555423,-0.00013431890312770874,-8.140172371342642e-05,-0.001147852762682777,-0.10798283666372299,-48.86136245727539,3.86271595954895,16.07001495361328,-1.0355733633041382,-1.5323593616485596,0.0064559997990727425,,,,,,,,,
1739375895.5311253,0.12031609313437072,0.9871391624730346,0.23262050264262973,-1.5420048294358693,-1.4654062256142868,1.2495606765643386,0.20875407499663853,-0.0012598613811501667,-0.0006161697719302361,-0.0010993460648901668,-0.0005669988726323333,0.00010329472804084617,0.00041451530512386396,0.0013337772267701345,-0.05640812963247299,-48.80978775024414,3.88651967048645,16.12158966064453,-1.0483907461166382,-1.5323593616485596,-0.027418512850999832,,,,,,,,,
1739375895.542094,0.1203198303717292,0.9871429399718967,0.23261873094551835,-1.5420012436522785,-1.4654091405511827,1.2495606770489267,0.2087509317448079,-0.00021650976746418496,0.00029727414371318235,-0.0010202242115106123,0.00028207957729078085,-0.0018167778985230581,0.0002060920024012714,-0.0001368263297670013,-0.10798283666372299,-48.83359146118164,3.88651967048645,16.07001495361328,-1.0355733633041382,-1.5323593616485596,-0.0008682189509272575,,,,,,,,,
1739375895.552107,0.12031893443356516,0.9871384351515262,0.23262439927555523,-1.5420038279966242,-1.465408401793614,1.249560676887424,0.20875395214893103,0.0010001434695581749,-0.0007073952351105748,0.0011806261529278244,-0.0006535910001162032,-0.0002298578605379179,-0.00019350221275454883,-3.6326709444804164e-05,-0.05640812963247299,-48.80978775024414,3.88651967048645,16.07001495361328,-1.0419820547103882,-1.5323593616485596,-0.027418512850999832,,,,,,,,,
1739375895.5630977,0.12031780552721527,0.9871384499305722,0.2326183175569343,-1.5420027501345628,-1.4654052223963605,1.2495629107833068,0.20875553989147824,-0.0004336397800195042,-0.0003781370232396623,0.00022890220626892654,0.000565679863838767,0.0020402898462593302,-0.00024868749359297946,0.0030841961660816857,-0.08021184056997299,-48.80978775024414,3.9142906665802,16.09381866455078,-1.0419820547103882,-1.5515854358673096,-0.027418512850999832,,,,,,,,,
1739375895.5732284,0.1203177970505509,0.9871401357424465,0.23262334781672886,-1.542003703320333,-1.4654085196391662,1.249561434708343,0.20874932133518798,-0.0006977105838386089,-0.00026021056993859207,0.001902225098550047,-0.0005805597798212009,6.414113196012747e-05,0.0008371164304395749,-0.0012878511792405842,-0.08021184056997299,-48.83359146118164,3.86271595954895,16.09381866455078,-1.0419820547103882,-1.5387680530548096,0.012864691205322742,,,,,,,,,
1739375895.5840971,0.12031767784081894,0.9871374922223305,0.23261837690502873,-1.5419991843081207,-1.4654084739889255,1.2495606770489294,0.20875081910394652,-0.0001262522842146648,-0.0012051620320098252,-0.0006472383557592555,0.00027454120601569517,-0.00012967920294114984,-0.0008818832790376198,0.0014806280698868668,-0.10798283666372299,-48.80978775024414,3.88651967048645,16.04621124267578,-1.0419820547103882,-1.5323593616485596,-0.0008682189509272575,,,,,,,,,
1739375895.595129,0.1203201194118227,0.987138416457255,0.23262017108478678,-1.542004830780398,-1.4654077466049118,1.249559919388851,0.2087453517442654,0.0002809594592337137,-0.0012080281206230787,-0.0005357270268794125,-0.0009289999091150081,0.00045495134445137236,0.0002572099081727756,-0.002241145138836031,-0.10798283666372299,-48.80978775024414,3.86271595954895,16.12158966064453,-1.0355733633041382,-1.5259506702423096,0.019273381680250168,,,,,,,,,
1739375895.605213,0.12031993666694374,0.9871420503946361,0.2326186168783408,-1.5420033507348734,-1.4654074567687854,1.249559919388851,0.20875442448050943,0.0005329023016512087,-4.192912123995201e-05,-0.00028261155795105775,-0.00024823719186932056,-0.0008989896136794378,0.00016982426186712792,0.0008305402610594524,-0.08021184056997299,-48.86136245727539,3.88651967048645,16.07001495361328,-1.0227559804916382,-1.5259506702423096,-0.020094294100999832,,,,,,,,,
1739375895.616139,0.1203143840174538,0.9871425422759061,0.23262054069779514,-1.542001682238183,-1.4654041583255795,1.2495596159572497,0.20875297247118893,-0.001031089084508311,0.0009183240527275196,-0.00031597523687475535,0.0007958958270420306,0.001136182698928195,-0.0004414847640635466,0.0026341705142700457,-0.03260441869497299,-48.83359146118164,3.88651967048645,16.07001495361328,-1.0419820547103882,-1.5323593616485596,-0.013685601763427258,,,,,,,,,
1739375895.6280978,0.1203197117484213,0.9871419179898318,0.23262300609702716,-1.5420048293349229,-1.465405678000598,1.249557953810579,0.20875418873082652,8.316334729448807e-05,0.0003515322499617,0.0016988528762547077,-0.00017501292757211108,-0.000317572474552953,-0.0003845021704878184,0.0003170166444848969,-0.10798283666372299,-48.86136245727539,3.86271595954895,16.12158966064453,-1.0291646718978882,-1.5451767444610596,-0.027418512850999832,,,,,,,,,
1739375895.638111,0.12031609327786055,0.9871374123487829,0.23262194211313378,-1.5420009669689887,-1.465406803586865,1.2495613169475108,0.2087548677056092,-0.001234832236911611,-0.00212873428705996,0.000432778199621815,-0.0005348851556399736,0.0002694917239017924,0.00010326108271101946,0.0021436197941538376,-0.05640812963247299,-48.80978775024414,3.83891224861145,16.07001495361328,-1.0291646718978882,-1.5387680530548096,-0.03382720425724983,,,,,,,,,
1739375895.6491423,0.12031993677342097,0.9871438953527963,0.23262228575106983,-1.5420010426626183,-1.4654076049967768,1.2495621923670919,0.2087468670656155,0.0013203016742011665,0.0006692040986034715,0.000991900371537014,0.0013745090263570575,-0.0015448846130802713,0.00024750331564922653,-0.0004591387185564548,-0.08021184056997299,-48.88516616821289,3.86271595954895,16.07001495361328,-1.0483907461166382,-1.5451767444610596,0.0064559997990727425,,,,,,,,,
1739375895.6591864,0.12031813026399592,0.9871421563587647,0.23262333530171964,-1.542002750954631,-1.4654080485823344,1.2495617213649712,0.2087532066511946,0.0004079440525043123,0.0013738847698977308,0.0008163289844653508,-0.00017577788339138596,-0.0004242914128546184,-0.00024093301925078465,0.0005243767284263336,-0.08021184056997299,-48.86136245727539,3.86271595954895,16.09381866455078,-1.0419820547103882,-1.5451767444610596,-0.020094294100999832,,,,,,,,,
1739375895.671131,0.12031780580094266,0.9871399046275903,0.23262039568497506,-1.5420009669689967,-1.4654089579317713,1.2495588597480627,0.20875482828244998,-0.00042351248288898853,-0.0014290168926557652,-7.368775606434144e-05,0.0009159251842639916,-0.0013135593182042303,-0.0014012332871475605,0.00034770482794111725,-0.08021184056997299,-48.86136245727539,3.86271595954895,16.07001495361328,-1.0291646718978882,-1.5259506702423096,-0.03382720425724983,,,,,,,,,
1739375895.6821406,0.12032064706210455,0.9871401852315271,0.2326201719487806,-1.5420048412096208,-1.4654049029025649,1.249561433091958,0.20875320472512837,0.0011679698889077155,0.0004897434573158815,0.00013425099455256193,-0.000531437580781127,-0.000687536208732347,0.00011235288252845144,-8.04833407680884e-05,-0.08021184056997299,-48.83359146118164,3.86271595954895,16.12158966064453,-1.0355733633041382,-1.5387680530548096,-0.020094294100999832,,,,,,,,,
1739375895.6932147,0.12032149003160371,0.9871400105915547,0.23261802358701142,-1.5420013262800178,-1.4654054372495353,1.2495614347089985,0.20875244706493992,0.0009982832282512772,8.09086948914294e-05,-0.0003060317987940111,0.0017617453329450065,-0.00018355330817274729,0.0003405821921472001,-0.00027178026010340366,-0.1317865550518036,-48.86136245727539,3.86271595954895,16.04621124267578,-1.0291646718978882,-1.5387680530548096,-0.013685601763427258,,,,,,,,,
1739375895.7041633,0.12031979499096436,0.9871411535906393,0.23262323012687028,-1.54200004854724,-1.4654052883749458,1.2495614216270554,0.20874911501910315,0.0007713889590750176,-0.00038175516796620025,0.0012061743188714158,0.0007472747327849265,0.00042466111022667057,0.0005668499460550679,-0.0002628168808835466,-0.10798283666372299,-48.86136245727539,3.86271595954895,16.07001495361328,-1.0419820547103882,-1.5387680530548096,0.026597600430250168,,,,,,,,,
1739375895.7151725,0.1203170971660956,0.9871421563567283,0.23262027610923275,-1.542004895423605,-1.4654074029839919,1.2495621923690614,0.2087572595275512,-0.0004633549534321248,-0.00011175809344981093,0.000171714472558855,0.00026971308951571145,0.0007079657033387961,0.0003214082019117339,0.001587095740336586,-0.08021184056997299,-48.86136245727539,3.86271595954895,16.09381866455078,-1.0483907461166382,-1.5451767444610596,-0.027418512850999832,,,,,,,,,
1739375895.7261004,0.1203180425500048,0.9871384449158845,0.23262156413540513,-1.5420028552262457,-1.4654048305784013,1.2495603619889262,0.2087473467610981,0.00020135555207418347,-0.0015645017341660735,0.0014519666121927532,0.00016792485360914985,0.0007710717584910099,-0.00032609775723768577,-0.0009571093008916467,-0.08021184056997299,-48.80978775024414,3.88651967048645,16.09381866455078,-1.0419820547103882,-1.5387680530548096,0.026597600430250168,,,,,,,,,
1739375895.7361858,0.12031497159322915,0.9871423594559178,0.23262186008031513,-1.5420050717796245,-1.4654045150191366,1.2495621923630307,0.2087504701332812,-0.000800711378941927,0.0003533323225587014,0.00044037763880662125,-0.0006841819295477311,0.0011624406913968172,0.0005703033591200223,0.00019982343607501357,-0.08021184056997299,-48.86136245727539,3.83891224861145,16.12158966064453,-1.0355733633041382,-1.5451767444610596,0.03300629183650017,,,,,,,,,
1739375895.7481794,0.12031609322637839,0.9871369717960253,0.23262052529332022,-1.5420066382902684,-1.4654072343154698,1.2495606770489294,0.2087493477919874,-0.0012948983199744045,-0.0012735362925392335,-0.0008152102350246481,-0.0009705847785691909,-1.4946388006578204e-06,-1.9969603269150073e-06,-0.0012610927325829534,-0.05640812963247299,-48.78598403930664,3.86271595954895,16.14539337158203,-1.0483907461166382,-1.5323593616485596,0.012864691205322742,,,,,,,,,
1739375895.7595587,0.12032184059407906,0.9871428716148011,0.2326209073802299,-1.5420048294359132,-1.4654045678512944,1.2495574981345414,0.208746926970268,0.0007124914243019232,0.0013143495183115088,-0.00037006359652119167,-0.0009277832069118509,0.0010885183335626089,-0.00016457692411002545,-0.001798317234541711,-0.1317865550518036,-48.86136245727539,3.86271595954895,16.12158966064453,-1.0355733633041382,-1.5323593616485596,0.03300629183650017,,,,,,,,,
1739375895.7701747,0.12032193417581825,0.9871400105954409,0.23261947660730414,-1.5420027496460085,-1.465408165809689,1.2495614332375125,0.20875670032102647,0.0017001735547793374,9.948313214049604e-05,-0.001164369328613735,0.000158560437966243,0.0005230231843435084,0.00017915409599032292,0.002344101693827182,-0.10798283666372299,-48.86136245727539,3.9142906665802,16.09381866455078,-1.0419820547103882,-1.5387680530548096,-0.013685601763427258,,,,,,,,,
1739375895.781157,0.12031893347307879,0.9871421564918573,0.23262228872120627,-1.5420027496460085,-1.4654023557038243,1.2495599189043258,0.20875245146322743,-0.00023694015054966035,-4.0464255421869986e-05,-0.00053905059810769,0.0003704381298152115,0.001623538503204148,0.00021658999325763635,1.6847145517779396e-05,-0.05640812963247299,-48.86136245727539,3.86271595954895,16.09381866455078,-1.0547994375228882,-1.5259506702423096,-0.013685601763427258,,,,,,,,,
1739375895.7920635,0.12031717977731539,0.9871410081834467,0.2326176240576453,-1.5420027230864153,-1.4654057789399655,1.2495564384964095,0.2087516895668967,-0.0005011905518831873,-7.236111318889311e-05,-0.0007015122597896083,-0.00022362302750706192,-0.0006377195258719865,-0.0008240266942524217,-0.0007969170493023588,-0.10798283666372299,-48.88516616821289,3.9380943775177,16.09381866455078,-1.0291646718978882,-1.5323593616485596,-0.0072769103571772575,,,,,,,,,
1739375895.803183,0.12031804316788086,0.9871401465955589,0.2326233478351742,-1.5420049079634661,-1.465409259678899,1.2495621921358002,0.20875322222224219,0.0005301517882542329,-0.00037551112756204174,0.0007242052877368248,-0.00027675983024122403,-0.0015639228883172372,0.00030193595252177996,0.0007273026875496427,-0.08021184056997299,-48.83359146118164,3.86271595954895,16.12158966064453,-1.0355733633041382,-1.5451767444610596,-0.020094294100999832,,,,,,,,,
1739375895.814104,0.1203218276372918,0.9871426220763906,0.23262155543887605,-1.542000966969137,-1.4654069826463407,1.2495574850525888,0.2087541206113128,0.0016162641874590909,0.0006519221574667162,-0.0002784036334800266,0.0018227734221484214,-0.0010828573857498954,-8.066472445642371e-05,-0.00041951338730244776,-0.1317865550518036,-48.83359146118164,3.88651967048645,16.07001495361328,-1.0419820547103882,-1.5323593616485596,-0.0008682189509272575,,,,,,,,,
1739375895.8241074,0.12031780743130062,0.9871418133261406,0.23262121143686043,-1.5420006353415008,-1.4654092359836253,1.2495588595351592,0.2087503711909747,9.165061240669239e-05,0.00018238172547012182,0.0005716965763419696,0.0003837404481479768,-0.00033186183280051857,-0.0006372385372250178,0.00020889448754857394,-0.08021184056997299,-48.86136245727539,3.88651967048645,16.07001495361328,-1.0355733633041382,-1.5259506702423096,0.012864691205322742,,,,,,,,,
1739375895.834153,0.12031909802999144,0.9871384471994169,0.2326219522977147,-1.5420048295392639,-1.4654045393518262,1.249561132713008,0.20875645185775188,0.0009957869285002932,-0.0015735724918816058,0.0006382994988040219,-0.000967911573725575,-0.0001260209478963233,0.0008930503039127445,0.001371647701940209,-0.10798283666372299,-48.80978775024414,3.83891224861145,16.12158966064453,-1.0483907461166382,-1.5451767444610596,-0.04756011441349983,,,,,,,,,
1739375895.8450968,0.12031980369997806,0.9871418119762304,0.2326184817257502,-1.5419974016149516,-1.4654073030552583,1.2495621923631044,0.20875087347876742,0.0003742864112271328,-0.00016232232797663306,-0.00021692341224671286,0.0025342382732842506,-6.828868706646395e-07,0.0008116453755955489,-0.00011085350568440489,-0.10798283666372299,-48.86136245727539,3.88651967048645,16.02240753173828,-1.0419820547103882,-1.5451767444610596,0.026597600430250168,,,,,,,,,
1739375895.8551483,0.12032080762823165,0.9871374515696442,0.232622991491461,-1.542004829435864,-1.4654042615797096,1.2495574981345414,0.20875442499286367,0.000687504462593735,-0.00115634953085385,0.0011811978893938723,-0.00030289900776046895,-0.00047284229496361377,-0.00022507880401648368,0.0014594785149499867,-0.1317865550518036,-48.78598403930664,3.83891224861145,16.12158966064453,-1.0419820547103882,-1.5323593616485596,-0.027418512850999832,,,,,,,,,
1739375895.866072,0.12031632874119182,0.9871456284056745,0.23261869151542397,-1.5420027496460085,-1.4654065275863317,1.2495606770309844,0.208751689406862,-0.0009914353223561664,0.0014160830932298109,-0.0006549383235458586,-0.000612742183098357,-0.00012823937213543178,0.00047985884352137265,-0.00013070719450724498,-0.05640812963247299,-48.91293716430664,3.88651967048645,16.09381866455078,-1.0547994375228882,-1.5323593616485596,-0.0072769103571772575,,,,,,,,,
1739375895.8761375,0.12031609328236743,0.9871377276938168,0.23261869795096696,-1.542004795422788,-1.4654035220207857,1.2495614347090074,0.20875168989089246,-0.0002098595222937888,-0.0019064957603841387,-0.00038576875372948744,-0.0007151975207480669,0.002196845414868612,0.0005293257449428745,0.0004678960685300427,-0.05640812963247299,-48.80978775024414,3.9142906665802,16.12158966064453,-1.0483907461166382,-1.5387680530548096,-0.0072769103571772575,,,,,,,,,
1739375895.8862047,0.12032051695164643,0.9871438688671835,0.23261837818777636,-1.5420020618617947,-1.4654069474530793,1.2495621880084353,0.20875412311370226,0.001092198774766426,0.001348551136037038,-0.0004600831801197914,0.00066934540821011,0.0005208352851064479,0.0006037137828071841,0.0012583325109496815,-0.10798283666372299,-48.88516616821289,3.88651967048645,16.09381866455078,-1.0547994375228882,-1.5451767444610596,-0.027418512850999832,,,,,,,,,
1739375895.898095,0.12031609328240594,0.9871412948191743,0.23262299406005615,-1.542005610665075,-1.4654057945242573,1.2495606770489047,0.20875359984029357,-0.0005395276991158411,-0.0010914635363127568,0.0014604335907448193,-0.00011778262868452607,-0.0005540501733497049,0.00011988980570993897,0.0008418335382630107,-0.05640812963247299,-48.80978775024414,3.86271595954895,16.09381866455078,-1.0291646718978882,-1.5323593616485596,0.012864691205322742,,,,,,,,,
1739375895.90813,0.120316864852444,0.9871421564837136,0.2326202508098491,-1.5420009938031418,-1.4654085639983763,1.2495614347090076,0.2087556354501169,-0.002792896935524397,0.0004542977743232781,0.0009866998200075117,0.0016376463570080275,0.0008965288724064593,1.5744359915035157e-05,0.000436122843213691,-0.08021184056997299,-48.86136245727539,3.86271595954895,16.07001495361328,-1.0291646718978882,-1.5387680530548096,-0.013685601763427258,,,,,,,,,
1739375895.9181976,0.12031788470414087,0.9871401319268109,0.23262472930423017,-1.5420009669694437,-1.4654063094288037,1.249562192369086,0.20875157098542743,-0.0009172036682317369,-0.00019547170565817508,0.000938083481047191,0.0007204518438600161,0.0006969561175806541,0.0007052324812752584,-0.0009063020162814932,-0.08021184056997299,-48.83359146118164,3.88651967048645,16.07001495361328,-1.0483907461166382,-1.5451767444610596,-0.0072769103571772575,,,,,,,,,
1739375895.929133,0.12032151929293465,0.9871435852346963,0.23261846223852672,-1.5419984615141105,-1.4654056274822167,1.2495606769950942,0.2087532093147514,0.0015040464520798959,0.00027301251911663845,-0.0014891672733738717,0.001792752750623367,0.0009245840365020689,-0.0001539071086113422,-0.00042803158166276347,-0.1317865550518036,-48.86136245727539,3.9142906665802,16.04621124267578,-1.0355733633041382,-1.5323593616485596,-0.020094294100999832,,,,,,,,,
1739375895.9400895,0.12031780579912815,0.987138445905097,0.2326228996260907,-1.5420009699083483,-1.4654057827140674,1.2495606770489291,0.20875638040993533,-0.0006377461547599712,-0.001070746715507171,0.0006446668082834815,0.000907628330217143,-0.0010121460502164337,9.837048189202431e-05,-6.972856401312388e-05,-0.08021184056997299,-48.80978775024414,3.83891224861145,16.07001495361328,-1.0291646718978882,-1.5323593616485596,-0.020094294100999832,,,,,,,,,
1739375895.95014,0.12031957922095922,0.9871444781712709,0.23261924955287874,-1.542003112736251,-1.4654057949370822,1.2495606770489294,0.2087510892725635,0.00107928134389157,0.0005011782160727043,-0.00173692813234109,7.728463470087102e-05,0.0002775671898289953,0.0004379515682705003,0.0011581620436075441,-0.10798283666372299,-48.88516616821289,3.9142906665802,16.07001495361328,-1.0291646718978882,-1.5323593616485596,-0.0008682189509272575,,,,,,,,,
1739375895.962243,0.12031599511467628,0.9871423836612732,0.23262358511396666,-1.542002829130981,-1.465408752992803,1.2495614347090076,0.2087548782542463,-0.00044260954940628783,0.00025845922863242034,0.0001613180571762464,0.0007195115939637481,-0.0005637695999459396,0.0004894434633778576,0.0004085985649577114,-0.08021184056997299,-48.83359146118164,3.86271595954895,16.09381866455078,-1.0419820547103882,-1.5387680530548096,-0.0072769103571772575,,,,,,,,,
1739375895.9731,0.12031788502944564,0.9871406711534026,0.2326254928555251,-1.5420037033204743,-1.4654068559397084,1.2495614287333012,0.2087540652818534,-0.0011643349514583363,-0.0011802183285776584,0.001564578428884256,0.0006223270451042177,0.00047484350410622103,-0.00023488742654652009,0.0021414326600660127,-0.08021184056997299,-48.80978775024414,3.86271595954895,16.09381866455078,-1.0291646718978882,-1.5387680530548096,-0.027418512850999832,,,,,,,,,
1739375895.9841387,0.12032051547255108,0.987140882625395,0.23262017400180557,-1.542002749651392,-1.4654048678743254,1.2495606768873901,0.20875407062233062,0.0012203353217763633,0.00024474794608859496,0.00015829954551610097,0.00014973127376497855,-0.0007730435049527325,0.00018829389577698522,-0.00030240702414951787,-0.10798283666372299,-48.83359146118164,3.86271595954895,16.09381866455078,-1.0419820547103882,-1.5323593616485596,-0.027418512850999832,,,,,,,,,
1739375895.9951413,0.1203178058031288,0.9871403968404293,0.2326207398251668,-1.5420027496460085,-1.4654089109859727,1.2495621923690852,0.2087548297405317,0.0007924544984893781,-0.00028723031256031435,-0.001025367360892955,0.0003035132983519904,-0.0008549146300570144,0.0006188358021031239,8.105058889551627e-05,-0.08021184056997299,-48.83359146118164,3.88651967048645,16.09381866455078,-1.0355733633041382,-1.5451767444610596,-0.03382720425724983,,,,,,,,,
1739375896.0051441,0.12032151626123139,0.9871421593060922,0.23262194310914494,-1.542004829435864,-1.4654074426080694,1.2495614347090076,0.20874655984430715,0.001701643288957341,0.0005801596571699706,-9.341289504335678e-05,-0.0005360075417943491,0.00032226739721978733,1.1198213832286212e-05,-0.0021702245066186478,-0.1317865550518036,-48.86136245727539,3.83891224861145,16.12158966064453,-1.0419820547103882,-1.5387680530548096,0.03300629183650017,,,,,,,,,
1739375896.0160968,0.12031651162369938,0.9871403529186317,0.2326194878814634,-1.5419974016149511,-1.4654046325561108,1.249558859266205,0.20875105011755482,-0.00042317595002410097,-0.0019256890468216663,-0.0010053022036884437,0.0013619783712890167,0.00166435683796676,-0.001298494853652968,-0.0009277957903530773,-0.03260441869497299,-48.80978775024414,3.9380943775177,16.02240753173828,-1.0355733633041382,-1.5259506702423096,-0.0008682189509272575,,,,,,,,,
1739375896.0280755,0.12031972505107942,0.987142236750709,0.2326201998113947,-1.5419999942719362,-1.4654080481801546,1.2495598801370098,0.20875356144422727,0.0009468899417902756,-3.527670158109974e-05,0.0004262271189342446,0.000507472452156311,-0.001340089989737384,-0.0002552502378406734,0.0014962094864302605,-0.10798283666372299,-48.86136245727539,3.86271595954895,16.09381866455078,-1.0419820547103882,-1.5259506702423096,0.012864691205322742,,,,,,,,,
1739375896.039152,0.12031766908026273,0.9871439042007687,0.23261941051274765,-1.5420066121076983,-1.4654080443293533,1.2495591704500004,0.20875087348677057,0.0005412585111149197,0.0010463115932164554,0.0006237120407897324,-0.0007930466939204599,0.0006283281674604236,-0.0004485978591588961,-9.069000182073046e-05,-0.10798283666372299,-48.88516616821289,3.88651967048645,16.14539337158203,-1.0419820547103882,-1.5195419788360596,0.026597600430250168,,,,,,,,,
1739375896.050128,0.12031767782891688,0.9871443021623653,0.2326220480576281,-1.542000581312429,-1.465407599234617,1.2495606770489787,0.2087511288150505,0.0007606959898539048,0.0006131822157918411,-0.00027537554166961667,0.0018013087312119327,0.0004342618946033779,0.0007616526776334295,-0.0005102066078975073,-0.10798283666372299,-48.86136245727539,3.83891224861145,16.09381866455078,-1.0483907461166382,-1.5323593616485596,0.0064559997990727425,,,,,,,,,
1739375896.0611892,0.12031706118782731,0.987138445909144,0.23261874086095954,-1.542000966956749,-1.4654074420256644,1.249558203466811,0.20874930819347295,-0.0010427123461113053,-0.0013561608493799218,-0.00044993339930497257,0.00044411247916113707,-0.0004860894753664161,-0.0008962973385502884,-0.001693670355132744,-0.08021184056997299,-48.80978775024414,3.9142906665802,16.07001495361328,-1.0227559804916382,-1.5387680530548096,0.012864691205322742,,,,,,,,,
1739375896.072129,0.1203160932741765,0.9871369451949094,0.2326233365995947,-1.5420038279919386,-1.4654089064655165,1.249560676976854,0.2087493081874725,4.418610337017238e-05,-0.0015412232757898994,0.00014709886826199742,-0.0003480202358584922,-0.000730236525414265,0.00019214660426572982,-0.0006544223026309063,-0.05640812963247299,-48.78598403930664,3.86271595954895,16.07001495361328,-1.0355733633041382,-1.5323593616485596,0.012864691205322742,,,,,,,,,
1739375896.0830848,0.12031438043362805,0.9871437982380001,0.2326224031004555,-1.542002749662159,-1.4654070616205102,1.2495599192811802,0.20875407062236076,-0.0012560604734877905,0.0016625522005799633,0.0001542093053569264,5.1513800977282404e-05,0.00113356693816264,-8.404309699801e-05,-1.4658726383519815e-05,-0.03260441869497299,-48.88516616821289,3.86271595954895,16.09381866455078,-1.0419820547103882,-1.5259506702423096,-0.027418512850999832,,,,,,,,,
1739375896.0931056,0.12031970752628819,0.987140149586248,0.23262324817105734,-1.5420027411427397,-1.465408388366275,1.2495599193888491,0.20875320472512837,0.0013713573018673368,-3.679073717525303e-05,0.0002965467273134143,0.000990066849626391,0.0003605644424393214,-5.148859172209814e-05,-2.76359315275963e-06,-0.10798283666372299,-48.83359146118164,3.86271595954895,16.09381866455078,-1.0419820547103882,-1.5259506702423096,-0.020094294100999832,,,,,,,,,
1739375896.1031706,0.12031875674639135,0.9871422358313253,0.23262231593729138,-1.5420009670778616,-1.4654045673655467,1.2495606775334462,0.20875407062236076,-0.00027064211402375916,0.000597257374304057,-0.0014871593472092655,0.00015543461268481925,-0.0006672348881206812,0.0003627837359230979,0.0009415122783420017,-0.08021184056997299,-48.86136245727539,3.86271595954895,16.07001495361328,-1.0355733633041382,-1.5323593616485596,-0.027418512850999832,,,,,,,,,
1739375896.1141217,0.12032012072830213,0.987143868879795,0.2326222789407125,-1.5420041378366574,-1.4654085021719803,1.2495599193888538,0.20874855052750424,0.0011084968159051978,0.0019329623847023965,0.0009167074727130812,0.00013858562210447372,4.089600711101196e-05,-6.502368245912886e-05,-0.0009096985482884268,-0.10798283666372299,-48.88516616821289,3.88651967048645,16.12158966064453,-1.0419820547103882,-1.5259506702423096,0.019273381680250168,,,,,,,,,
1739375896.1241739,0.12031608453519253,0.9871465879628153,0.23262442221663446,-1.5420027483745526,-1.465407722627269,1.249560963758728,0.20875007897038414,-0.0009570358675883362,0.002538465165733178,0.0007493470516420951,0.0011976781501432535,-0.0004040169402761399,-0.0009732815438809575,-0.0006030138981660874,-0.05640812963247299,-48.91293716430664,3.83891224861145,16.09381866455078,-1.0483907461166382,-1.5387680530548096,0.0064559997990727425,,,,,,,,,
1739375896.1350803,0.1203160932783305,0.9871394431660956,0.23262156656412486,-1.5420027463916637,-1.465408162067588,1.249561434652514,0.20875093320294988,-0.0005222612221170379,-0.0011984948728081877,-0.0006216217246228966,-9.551295894906394e-05,-4.339452384431527e-05,-0.00014253745380612384,-6.954136071533136e-05,-0.05640812963247299,-48.83359146118164,3.88651967048645,16.09381866455078,-1.0419820547103882,-1.5387680530548096,-0.0008682189509272575,,,,,,,,,
1739375896.1450949,0.12031956655690271,0.9871401613490884,0.23262523641881588,-1.5420026476067261,-1.4654086207047172,1.2495606764029061,0.20874768398023655,0.0015624880938235127,-0.0005133030030466619,0.0003053559443830044,0.0006581671786219245,-0.0007287600736857678,0.00010286501967700609,-0.001067779577276789,-0.10798283666372299,-48.83359146118164,3.83891224861145,16.09381866455078,-1.0291646718978882,-1.5323593616485596,0.026597600430250168,,,,,,,,,
1739375896.1551654,0.12031980373594738,0.9871419189212322,0.2326212219393024,-1.5420027496442803,-1.4654034672171272,1.2495596174107892,0.20875320472511735,0.0010570070089673583,0.0006053478826754432,0.0007110805207438395,0.00015384491827590162,0.00010537703132252403,-0.0004128112599126693,0.0008512049386154678,-0.10798283666372299,-48.86136245727539,3.86271595954895,16.09381866455078,-1.0547994375228882,-1.5323593616485596,-0.020094294100999832,,,,,,,,,
1739375896.166086,0.12031981250896012,0.9871421563545941,0.23262697405637855,-1.5420027496460085,-1.4654100168666355,1.2495621792691889,0.20875006584755082,0.0002926573902231173,-0.0003363349686842525,0.0019801361882802945,-0.0005063654736150453,-0.0022714708385160112,0.0007456194160580657,-0.0012630039293322374,-0.10798283666372299,-48.86136245727539,3.8111412525177,16.09381866455078,-1.0291646718978882,-1.5451767444610596,0.0064559997990727425,,,,,,,,,
1739375896.176134,0.1203178056551514,0.9871438678982,0.23261956069299225,-1.5420027631415116,-1.4654081643287864,1.2495606770488554,0.20875726092894883,-2.0409799592666073e-05,0.0008591623460396293,-0.0004796474473104171,0.00012762886083591543,-0.0007291713049129084,0.0002766350689650763,0.0018505995753751569,-0.08021184056997299,-48.88516616821289,3.9142906665802,16.12158966064453,-1.0419820547103882,-1.5323593616485596,-0.027418512850999832,,,,,,,,,
1739375896.1861582,0.12031780288292343,0.9871380485327158,0.2326194858029343,-1.5420048292958923,-1.4654057437684183,1.2495620746315161,0.2087520918606891,-0.0010004688161930541,-0.0007835497361024565,-0.001157325281653987,-0.0014428968244127453,0.0005011184186213063,5.300692920779846e-05,-0.00025173930434426665,-0.08021184056997299,-48.80978775024414,3.9142906665802,16.12158966064453,-1.0355733633041382,-1.5451767444610596,-0.013685601763427258,,,,,,,,,
1739375896.197169,0.12031756958809492,0.987142156356372,0.23262522285485399,-1.5420026731165872,-1.465409275827752,1.249559161728108,0.20874692696818836,-0.000715610326882561,0.0008458124436305501,0.0007882350355078744,0.000488466711674267,0.000403040685755322,-5.004206647045865e-05,-0.001378478624124841,-0.08021184056997299,-48.86136245727539,3.83891224861145,16.09381866455078,-1.0355733633041382,-1.5195419788360596,0.03300629183650017,,,,,,,,,
1739375896.208074,0.12031514810902719,0.9871421567220028,0.23262513127161322,-1.5420009668635786,-1.465407694438858,1.2495606770489294,0.20874930818747245,-0.001391846836769248,0.0011044106502338146,0.001746730394962064,0.00033037055756353204,-0.000429728995909027,0.0006073355651653755,-0.001693703746924017,-0.05640812963247299,-48.86136245727539,3.83891224861145,16.07001495361328,-1.0355733633041382,-1.5323593616485596,0.012864691205322742,,,,,,,,,
1739375896.2201273,0.12031781441876249,0.9871421462201043,0.23261948591017942,-1.5420065780648138,-1.4654063700677051,1.2495606770489294,0.20875134431576056,7.09326682400472e-05,-0.00017070610096440672,0.0003671988703285947,-0.0010234865167875412,0.0007467645611962505,5.447305421137392e-05,0.0016412572927843574,-0.08021184056997299,-48.86136245727539,3.9142906665802,16.14539337158203,-1.0291646718978882,-1.5323593616485596,-0.027418512850999832,,,,,,,,,
1739375896.2310588,0.12031609036224333,0.9871400096465384,0.23262358558333063,-1.542000966968797,-1.4654083451944528,1.2495614332554574,0.2087502233061605,-0.0008456726049425313,-4.0200427162815754e-05,0.0012875346172120958,0.0005272646905935935,-0.00011489263185405745,0.0008006936982803323,-0.0009429664648132701,-0.05640812963247299,-48.86136245727539,3.86271595954895,16.07001495361328,-1.0419820547103882,-1.5387680530548096,0.0064559997990727425,,,,,,,,,
1739375896.241159,0.12031953527804953,0.9871430194285931,0.23262304020564892,-1.5420027524494762,-1.4654053209353894,1.2495606770489212,0.20875006633447055,0.0005012973280536042,0.000970793562009464,0.0012791708384675647,-0.00012440892384475306,0.0016945008288643806,-9.889776315230158e-05,-0.0015599639921055942,-0.10798283666372299,-48.83359146118164,3.83891224861145,16.09381866455078,-1.0291646718978882,-1.5323593616485596,0.0064559997990727425,,,,,,,,,
1739375896.2520833,0.12031780547054405,0.9871428800412267,0.23262438717492478,-1.542002074376775,-1.465406583933373,1.2495613169714377,0.20875262203605902,0.00017154605655560608,0.0004939765935410801,0.0005304655984352709,0.001063526504390276,0.0011668056518257706,-5.3389284498469474e-05,0.0019341979286225568,-0.08021184056997299,-48.88516616821289,3.83891224861145,16.12158966064453,-1.0483907461166382,-1.5387680530548096,-0.013685601763427258,,,,,,,,,
1739375896.2620997,0.12031609425271089,0.9871430459260825,0.232617956115411,-1.542004828965404,-1.465403506033157,1.249561434708343,0.2087493081884602,-0.0005280564679934251,0.0010541037807531085,-0.0008725474257489584,-7.974488853353633e-05,-0.0011202233723050365,0.00037836463897342296,-0.0004442382891513011,-0.05640812963247299,-48.83359146118164,3.9380943775177,16.12158966064453,-1.0483907461166382,-1.5387680530548096,0.012864691205322742,,,,,,,,,
1739375896.2721338,0.12031772706212765,0.98714394829209,0.23262515688612662,-1.5420048291209199,-1.4654077440357325,1.2495614347090076,0.2087494262929723,0.0005228158609939385,0.00029007398120081023,9.210661921984652e-05,-0.0005166578964757466,-0.0016573421678665304,0.00039228398381376206,1.3765985271432205e-05,-0.08021184056997299,-48.88516616821289,3.83891224861145,16.12158966064453,-1.0483907461166382,-1.5387680530548096,0.012864691205322742,,,,,,,,,
1739375896.2831228,0.1203160929539148,0.9871401584545492,0.23262333908810406,-1.5420027496460067,-1.4654023930673454,1.2495592641980904,0.2087524470656066,-0.000818465004474986,-3.0119180702840496e-06,0.0010154522831852069,0.00010694573591524077,0.0003807665471245004,-0.0008404449796539131,-7.141510227825828e-05,-0.05640812963247299,-48.83359146118164,3.86271595954895,16.09381866455078,-1.0547994375228882,-1.5323593616485596,-0.013685601763427258,,,,,,,,,
1739375896.2931452,0.12031822414442508,0.9871412287391875,0.23261631007584838,-1.5419964828419912,-1.465409218650465,1.2495600218342418,0.2087533228306282,0.0002092410092366106,0.00023940743200362533,-0.002618372618908166,0.004330894970995469,-0.0005153147961453266,-0.0004619237646477777,0.001080898365236663,-0.05640812963247299,-48.86136245727539,3.9142906665802,16.02240753173828,-1.0355733633041382,-1.5387680530548096,-0.020094294100999832,,,,,,,,,
1739375896.3041227,0.1203157562828494,0.9871421504665002,0.232623033302614,-1.5420045234220119,-1.4654068541085414,1.249559161720797,0.20875351001510511,-0.0015002368623506603,8.360635961624524e-05,-0.0006770264508936782,-0.00031822421530800133,-0.0011735540509715892,-0.00024659022039331285,8.742702929479359e-05,-0.05640812963247299,-48.86136245727539,3.86271595954895,16.12158966064453,-1.0291646718978882,-1.5195419788360596,-0.013685601763427258,,,,,,,,,
1739375896.315055,0.12031768754639145,0.9871421563949206,0.23262335119657485,-1.5420027440844513,-1.4654092627477906,1.2495606770489294,0.20875320473112874,0.0004833147805119552,0.0002974165494043486,0.00018313467332474416,0.0005023559541704422,-0.000848687015177114,0.0004664389388578004,0.0004391938148136992,-0.10798283666372299,-48.86136245727539,3.86271595954895,16.09381866455078,-1.0355733633041382,-1.5323593616485596,-0.020094294100999832,,,,,,,,,
1739375896.3251426,0.12031780533124568,0.9871401584177627,0.23261759673794086,-1.5420029880644934,-1.4654066926568776,1.2495606770489294,0.20875320472512846,-0.00036234205466755833,-0.0007953509909133767,-0.0018259693650638773,0.00022712241498850402,-0.0004759168308606527,0.00042476464442411883,0.0008030861843841936,-0.08021184056997299,-48.83359146118164,3.9380943775177,16.09381866455078,-1.0291646718978882,-1.5323593616485596,-0.020094294100999832,,,,,,,,,
1739375896.336124,0.12031946928319653,0.9871423604370697,0.23262508823584668,-1.5420069752044216,-1.4654080441498674,1.2495599191735103,0.2087532563701526,0.001113530941812164,0.0006275621913969404,0.0015378263942380035,-0.0016847738260229376,6.68065216470976e-05,-0.00025276218342301795,0.0015857519017934306,-0.1317865550518036,-48.86136245727539,3.8111412525177,16.12158966064453,-1.0419820547103882,-1.5259506702423096,0.0064559997990727425,,,,,,,,,
1739375896.3480887,0.12031646191475753,0.9871421551605882,0.2326226495188465,-1.5420026731650396,-1.4654027643660976,1.2495614347090065,0.2087533214400073,-6.571715551523087e-05,-0.00017229220157331405,-0.0007811537388937242,-0.0002781589595491427,0.0009715850472353798,0.0003245181440785468,0.0014720287294470089,-0.05640812963247299,-48.86136245727539,3.9142906665802,16.09381866455078,-1.0547994375228882,-1.5387680530548096,-0.020094294100999832,,,,,,,,,
1739375896.3581178,0.1203160971777924,0.9871401588538204,0.23261956492445507,-1.5420056940864546,-1.4654037912182858,1.249559919388851,0.20874616941861265,-0.0016847359383568212,-0.0005640802072837636,-0.0013816371282429675,-0.0011104173462747882,7.112604716691799e-05,-0.0008242839774199549,-0.0017901143310403388,-0.05640812963247299,-48.83359146118164,3.9142906665802,16.14539337158203,-1.0419820547103882,-1.5259506702423096,0.03941498324275017,,,,,,,,,
1739375896.3682053,0.12031515720344332,0.9871405916642503,0.2326216837619542,-1.5420036740157403,-1.4654051832325978,1.2495606770489294,0.2087538648169706,-0.0012431296138709466,0.00024362645421908936,-0.0010563170575726365,-0.00018996682413016978,0.0009316802564188901,0.0003364904312094408,0.0024790569930555617,-0.05640812963247299,-48.80978775024414,3.88651967048645,16.09381866455078,-1.0419820547103882,-1.5323593616485596,-0.013685601763427258,,,,,,,,,
1739375896.379098,0.12031610366900816,0.987140158429875,0.2326244426677834,-1.5420009669742074,-1.4654082523679859,1.249559919388851,0.20875291949494248,-0.0014049954971239978,-0.0001356984062759228,0.00035706202913956094,0.001144353474752737,0.000232786713102506,0.0002595078539112866,0.0007140550655920924,-0.05640812963247299,-48.83359146118164,3.88651967048645,16.07001495361328,-1.0355733633041382,-1.5259506702423096,-0.013685601763427258,,,,,,,,,
1739375896.3900633,0.12031585999043753,0.9871414411028779,0.2326233604380769,-1.5420027496460085,-1.4654079964111317,1.2495614347090076,0.2087493075400794,-0.0004933735377309208,-0.0006712258339685842,7.461796602458058e-05,6.145862914249783e-05,-0.00038510120473294533,-0.00018074408621160504,5.226778011227425e-05,-0.05640812963247299,-48.86136245727539,3.86271595954895,16.09381866455078,-1.0419820547103882,-1.5387680530548096,0.012864691205322742,,,,,,,,,
1739375896.400099,0.12031413622717954,0.9871401676720319,0.23262345764840273,-1.5420020608812244,-1.4654085196861446,1.2495610814962979,0.20875558594250646,-0.0015261383642652569,0.00020070379757998144,-0.0002954124776625203,-0.0007996383013762133,-0.00191702998139543,-0.00016074953080624283,0.0014907814333126098,-0.03260441869497299,-48.83359146118164,3.86271595954895,16.09381866455078,-1.0419820547103882,-1.5387680530548096,-0.04023589566349983,,,,,,,,,
1739375896.4101777,0.12031783209367589,0.9871441897146946,0.23262338766379526,-1.5420027496110156,-1.4654092318105099,1.2495606770309844,0.2087535100144384,0.0009296513273896001,0.0015660496135866703,-0.00040140235995827687,0.00026658085612323354,-0.0012058797738029518,-0.00011492774931233796,0.0012049620285899012,-0.08021184056997299,-48.88516616821289,3.86271595954895,16.09381866455078,-1.0355733633041382,-1.5323593616485596,-0.013685601763427258,,,,,,,,,
1739375896.4202194,0.12031770081659296,0.9871423041867851,0.23262358851336462,-1.5420059233480987,-1.465408153346252,1.2495603237823842,0.208753215572191,5.569410971043189e-05,-0.00013741746695304532,0.00023508857767953485,-7.744371088948428e-05,-0.000230246783904039,-0.0002912445988336005,0.0008356271294058787,-0.08021184056997299,-48.83359146118164,3.86271595954895,16.14539337158203,-1.0419820547103882,-1.5323593616485596,-0.020094294100999832,,,,,,,,,
1739375896.4311333,0.12031980373937147,0.9871401587569237,0.23262338780427644,-1.5420027156290446,-1.4654084014708515,1.2495621923670919,0.20875837491174923,0.000956359480251659,-0.0009500491522215979,0.0008556973366289552,0.0005599023529198366,-0.001173562043329849,0.0008625132659755314,0.0022422003204625317,-0.10798283666372299,-48.83359146118164,3.86271595954895,16.09381866455078,-1.0419820547103882,-1.5451767444610596,-0.027418512850999832,,,,,,,,,
1739375896.441179,0.12031733360498599,0.9871384429535974,0.23262438440282288,-1.5420028300994384,-1.4654080418353732,1.2495606770489294,0.20874930842237627,4.656745715218093e-05,-0.0014651834084838196,0.0004491513785355836,-2.625419150592708e-05,-0.0007125496214668211,0.00022677872721306425,-0.0004746147521379785,-0.08021184056997299,-48.80978775024414,3.83891224861145,16.09381866455078,-1.0355733633041382,-1.5323593616485596,0.012864691205322742,,,,,,,,,
1739375896.4520683,0.12031814778729313,0.9871386725418364,0.2326218029020967,-1.5420058378593153,-1.4654098998280156,1.2495614347090076,0.20875645167723617,0.0006890374767225432,-0.0009860724843766414,-0.0007923079404700621,-0.0009494025286368235,-0.0021698229126287704,0.0003884658765411148,0.001207326949073616,-0.08021184056997299,-48.80978775024414,3.88651967048645,16.09381866455078,-1.0291646718978882,-1.5387680530548096,-0.04756011441349983,,,,,,,,,
1739375896.464147,0.12032143752616196,0.9871423306772067,0.23262159185316428,-1.5420048954306533,-1.465404548955371,1.249562192369086,0.2087541231136931,0.0006662389737021725,0.0010343050438218983,-0.00023545034345226316,-0.00018041521707074345,0.0008599156030335797,0.00031027644870148114,0.001517589618825795,-0.1317865550518036,-48.83359146118164,3.88651967048645,16.09381866455078,-1.0355733633041382,-1.5451767444610596,-0.027418512850999832,,,,,,,,,
1739375896.4741604,0.12031394098926262,0.9871401849209778,0.23262157438110645,-1.5420066120200173,-1.4654092729139065,1.2495614347090076,0.20874368885875388,-0.0022554340620348306,-0.00026804877864238034,-0.00018567151485807804,-0.0014491293568039392,-0.0013317793064060864,0.000572334419828945,-0.003362632131952574,-0.05640812963247299,-48.83359146118164,3.88651967048645,16.14539337158203,-1.0355733633041382,-1.5387680530548096,0.03300629183650017,,,,,,,,,
1739375896.4851332,0.12031851899864358,0.9871382163089192,0.23262238257715162,-1.5420025200227536,-1.4654080475977163,1.2495606726882786,0.20874610938659027,-0.0006801869018054664,-0.0013722722386736415,-0.0002863472679579026,-6.785597133948136e-05,0.00022179801460606228,-3.265409505997502e-05,-0.0011514954771454798,-0.08021184056997299,-48.80978775024414,3.88651967048645,16.09381866455078,-1.0355733633041382,-1.5323593616485596,0.012864691205322742,,,,,,,,,
1739375896.4951642,0.12032052237769443,0.9871438688754582,0.23261805514999467,-1.5420027510593313,-1.4654046681264283,1.2495599193887772,0.20875513351768726,0.00103920583453699,0.00063941525233773,-0.0019535813339951235,-0.000970931065184888,0.00032446109341759393,6.156164480569876e-05,0.0002623309200729088,-0.10798283666372299,-48.88516616821289,3.9380943775177,16.09381866455078,-1.0355733633041382,-1.5259506702423096,-0.027418512850999832,,,,,,,,,
1739375896.5060685,0.12031646238556742,0.9871394431620247,0.2326254962609018,-1.5420027506271787,-1.4654069454220322,1.2495614434303093,0.20875320100326494,-0.0006052790931005478,-0.0009297643913942024,0.00035576587096657633,0.00028139605982780677,0.0014645023156991774,0.0006503844935627771,0.0005707952326437079,-0.05640812963247299,-48.83359146118164,3.86271595954895,16.09381866455078,-1.0419820547103882,-1.5387680530548096,-0.020094294100999832,,,,,,,,,
1739375896.5161283,0.12031609036844554,0.9871452548068841,0.2326219093925312,-1.5420050678544595,-1.4654044217498021,1.2495618903911827,0.2087511287969863,-0.0006444064358244422,0.0013894795213412927,0.0004479150168092992,-0.000915300520559365,0.0010908475142071728,-0.00020862506006133084,0.0007393564561064827,-0.05640812963247299,-48.86136245727539,3.88651967048645,16.12158966064453,-1.0483907461166382,-1.5515854358673096,0.0064559997990727425,,,,,,,,,
1739375896.5270543,0.12031497040330706,0.9871401594047388,0.23262651246637933,-1.542004764680649,-1.4654084003360952,1.2495599193868572,0.20875320479913306,-0.0003926629174667786,-0.0004855700488186837,0.002716446570272779,-0.000878891034071379,0.0006914032850926338,-4.45162788892426e-05,5.1430918011659515e-05,-0.08021184056997299,-48.83359146118164,3.86271595954895,16.12158966064453,-1.0419820547103882,-1.5259506702423096,-0.020094294100999832,,,,,,,,,
1739375896.5371306,0.12031956748094676,0.9871384194060945,0.23262308467788956,-1.5420000210767286,-1.465404981466064,1.2495606770489294,0.2087501839530519,-0.00020815699555006497,-0.0009183642566908784,-0.00018128013852720742,0.0005098905771063816,0.0007738329243395076,-0.00015562222215810884,-0.0007866095657098103,-0.10798283666372299,-48.80978775024414,3.86271595954895,16.09381866455078,-1.0355733633041382,-1.5323593616485596,0.0064559997990727425,,,,,,,,,
1739375896.5481124,0.12031780576177507,0.9871422357949865,0.23262254121750106,-1.5420009669535866,-1.4654045830962894,1.2495598801429944,0.20874448584833558,-6.74899959694222e-05,0.00014776959688856216,-0.0002390749291954247,0.00022675635955481712,0.000808524130536038,0.00015010906435706183,-0.002922059657864873,-0.08021184056997299,-48.86136245727539,3.88651967048645,16.07001495361328,-1.0483907461166382,-1.5259506702423096,0.026597600430250168,,,,,,,,,
1739375896.559094,0.12031611947736107,0.9871377305327258,0.23262156563319952,-1.542004239665856,-1.4654069454821446,1.249560677048708,0.20875407065830695,-0.000963087500089082,-0.001926975305179993,-0.00020466720949165166,-0.00037682813591251915,0.0010638165499842274,0.00016236292672292208,0.0003356043038610083,-0.05640812963247299,-48.80978775024414,3.88651967048645,16.14539337158203,-1.0419820547103882,-1.5323593616485596,-0.027418512850999832,,,,,,,,,
1739375896.570086,0.12031983297039477,0.9871421815292584,0.23262262911335618,-1.5420051501255858,-1.4654042242658643,1.2495606770489294,0.20875006584755143,0.0006624625430367852,-0.00041430843789805446,-0.0002293728958144432,-0.0005792063173657583,0.001884227397104285,-0.0002729123331491435,-0.0001655829617295652,-0.10798283666372299,-48.86136245727539,3.88651967048645,16.12158966064453,-1.0419820547103882,-1.5323593616485596,0.0064559997990727425,,,,,,,,,
1739375896.5811157,0.12031609331463126,0.9871419183762432,0.23262162261737815,-1.5420044978101854,-1.4654053407563705,1.2495606770489294,0.20874694009302683,-0.0004075493412088412,0.0003828382026946712,-0.0005940659169989816,2.8458815717133574e-05,-0.0019134036315466409,-0.00026679285511513654,-0.002384534811036924,-0.05640812963247299,-48.86136245727539,3.9142906665802,16.12158966064453,-1.0419820547103882,-1.5323593616485596,0.03300629183650017,752,777,762,38.459,0,0
1739375896.5921218,0.1203178032077037,0.9871382513948346,0.23262548443924216,-1.5420027486993289,-1.4654060984227513,1.2495606770489294,0.2087476846303459,0.0002665456314307332,-1.1972900808401382e-05,-6.757999170132803e-05,-4.117680900468613e-05,-0.000604731203173531,-0.0005201690052434791,-0.0016258236639236428,-0.08021184056997299,-48.83359146118164,3.86271595954895,16.09381866455078,-1.0355733633041382,-1.5323593616485596,0.026597600430250168,750,777,762,38.350,0,0
1739375896.6030755,0.12031397160148721,0.987139399555646,0.23262521885600254,-1.5420009754843693,-1.4654074959455212,1.2495614347090076,0.20874929502375805,-0.00119266968372299,0.00023818463291318248,0.0003760361222638227,-0.0005005947461801987,0.000646626909051611,0.00022626707379192132,-0.0011021117287296762,-0.05640812963247299,-48.80978775024414,3.83891224861145,16.07001495361328,-1.0227559804916382,-1.5387680530548096,0.012864691205322742,751,777,760,38.350,0,0
1739375896.6131573,0.1203178056551734,0.9871439483683564,0.23262261157685205,-1.542002715633077,-1.465407100489619,1.2495606770489294,0.20875320472490544,-0.0007524156090893684,0.002068462113624492,-0.0006853908626638238,0.0008438827960191434,-0.00029408690810396875,8.484135288349789e-05,0.0009818836332277517,-0.08021184056997299,-48.88516616821289,3.88651967048645,16.09381866455078,-1.0419820547103882,-1.5323593616485596,-0.020094294100999832,752,779,761,38.242,1,0
1739375896.623164,0.12031784076708613,0.9871421475296436,0.23262558959259866,-1.5420009669684134,-1.465407644111818,1.2495606770489294,0.20875168940486158,0.0007059744670939093,0.0007524247267366217,0.0007669906656372724,-0.00010709452953403117,0.0005968831079408231,-7.059389768422312e-05,-0.0013242804148906578,-0.08021184056997299,-48.86136245727539,3.86271595954895,16.07001495361328,-1.0483907461166382,-1.5323593616485596,-0.0072769103571772575,752,779,761,38.350,0,0
1739375896.6351547,0.12031709295404196,0.9871421622091051,0.23262229531297854,-1.5419991829272481,-1.4654061728193266,1.2495574937738907,0.20875558804865119,3.1273158698970533e-05,0.0006074998728189824,-0.00025155194248310467,0.0013236405814495231,0.001728126488895805,-0.0007005923839667349,0.0003512725876482598,-0.08021184056997299,-48.86136245727539,3.88651967048645,16.04621124267578,-1.0483907461166382,-1.5323593616485596,-0.04023589566349983,750,773,760,38.459,1,0
1739375896.646084,0.12031952944956957,0.9871421560315774,0.2326244135271062,-1.542004665813292,-1.4654072899885078,1.2495606770429395,0.20874780275377677,0.00036685550380834706,-0.0004324606776922427,0.0002632304799779307,-0.00026334422960542635,0.0013106297309020151,-0.0005849164161374549,-0.0024304747441321294,-0.10798283666372299,-48.86136245727539,3.88651967048645,16.09381866455078,-1.0419820547103882,-1.5323593616485596,0.026597600430250168,750,779,759,38.242,1,0
1739375896.656139,0.12031980373531896,0.9871384458970255,0.23262156998021416,-1.5420048267429076,-1.4654071063388252,1.2495606770489294,0.2087540706243612,0.000787422088555647,-0.0010753010539313026,-0.00023931423606658844,-0.0003844835575837843,0.001165590949794715,-0.0002749497070015358,0.00029561083931607885,-0.10798283666372299,-48.80978775024414,3.88651967048645,16.12158966064453,-1.0419820547103882,-1.5323593616485596,-0.027418512850999832,749,780,760,38.350,1,0
1739375896.6671572,0.12031804267026475,0.98714039716339,0.2326246507923199,-1.542007459925729,-1.465408047283198,1.2495614347090076,0.20874616931011516,-0.0006698623817573224,0.00027700898689153174,-8.127085504410843e-05,-0.001749561562377949,0.00036285626171098827,9.746669391806355e-05,-0.002380426389889515,-0.08021184056997299,-48.83359146118164,3.88651967048645,16.12158966064453,-1.0419820547103882,-1.5387680530548096,0.03941498324275017,751,781,761,38.350,0,0
1739375896.6780524,0.12031780616131223,0.9871438776746732,0.2326252231978047,-1.5420027496971964,-1.4654084615503298,1.2495606639669772,0.2087469269701935,0.000973675109401591,0.0012687022931504503,0.001157041715717233,-0.00012767187067616194,-0.0003780289110611896,0.0002960461517427659,-0.001855872360613711,-0.08021184056997299,-48.88516616821289,3.83891224861145,16.09381866455078,-1.0419820547103882,-1.5323593616485596,0.03300629183650017,751,781,759,38.350,1,0
1739375896.6880894,0.12031491432296024,0.9871400789450513,0.23262337463841287,-1.5420009669689902,-1.465408519532516,1.249560677048708,0.2087548472376428,0.00014998544093773643,-0.002268092197537321,0.0003617163386368296,0.001367596882022554,-0.0028503445077572025,0.0005509878973520345,0.0020407118404087102,-0.05640812963247299,-48.83359146118164,3.86271595954895,16.07001495361328,-1.0419820547103882,-1.5323593616485596,-0.03382720425724983,752,778,759,38.350,1,0
1739375896.6981246,0.12031780573921391,0.9871421681283346,0.2326215655928613,-1.5420048556118813,-1.4654081490396853,1.2495614347090076,0.20875093174574624,-0.0004880296228010068,-0.0001289761712073913,-0.0005491544669365377,-0.0005674155200501871,-0.00042054327359409795,8.423984426073518e-05,-0.0007345035033249652,-0.08021184056997299,-48.86136245727539,3.88651967048645,16.12158966064453,-1.0419820547103882,-1.5387680530548096,-0.0008682189509272575,752,780,759,38.350,1,0
1739375896.7091188,0.12031780608788606,0.9871411121284837,0.23262334826854064,-1.5420047532336398,-1.4654062119022508,1.249559919388851,0.20875395214893103,0.0002887545235640987,0.000871460610524255,0.0011623907115119356,-0.0003662888786436637,0.0002574696142272421,6.975046116553549e-06,0.0012172687353526105,-0.08021184056997299,-48.83359146118164,3.86271595954895,16.12158966064453,-1.0483907461166382,-1.5259506702423096,-0.027418512850999832,754,780,761,38.350,0,0
1739375896.719128,0.12031909229904077,0.9871401584231458,0.23262334837705217,-1.5420027495405997,-1.4654037665769513,1.249559919388851,0.20875426328605326,0.0006168286941858844,0.0001231816463018614,0.00032507449262845166,-0.0001331463676437598,0.0007179254212341019,-0.0007416760921903791,0.0008520692591617426,-0.10798283666372299,-48.83359146118164,3.86271595954895,16.09381866455078,-1.0419820547103882,-1.5259506702423096,-0.020094294100999832,751,780,758,38.350,1,0
1739375896.729131,0.12031679086705341,0.9871423041849741,0.23262156559152342,-1.5420027496460067,-1.4654079900377055,1.2495606770489294,0.20875199276202863,-0.0006535310679156946,0.0009193251548927274,-0.0004158612591236461,0.0002725847091183253,1.5078356486148727e-05,-0.00020218151086928867,0.0009394690150362399,-0.08021184056997299,-48.83359146118164,3.88651967048645,16.09381866455078,-1.0419820547103882,-1.5323593616485596,-0.0008682189509272575,752,778,760,38.350,1,0
1739375896.7411227,0.12031780676771463,0.9871346935850137,0.23262538139024824,-1.5420025250499814,-1.465403296365182,1.2495563872617532,0.20875244707092938,-5.717749144999311e-05,-0.001182956861654357,0.000871485353510821,0.0005222459511584015,0.002242879840709841,-0.0017899024980185198,-0.0005031038945748188,-0.08021184056997299,-48.78598403930664,3.83891224861145,16.12158966064453,-1.0547994375228882,-1.5259506702423096,-0.013685601763427258,753,776,759,38.459,1,0
1739375896.7520607,0.12031805522833508,0.9871418119723849,0.23262619609471186,-1.5419982108090735,-1.4654018606722659,1.2495599193822047,0.20875320472512837,0.0006335199590259129,0.00032261157407602326,3.5804737896825522e-06,0.0010046080653841169,-0.00030366790272537067,-8.864819827663606e-05,0.0014781521574710292,-0.08021184056997299,-48.86136245727539,3.86271595954895,16.07001495361328,-1.0621236562728882,-1.5259506702423096,-0.020094294100999832,753,776,759,38.242,1,0
1739375896.7621527,0.12031779381457386,0.9871422230707393,0.23262156563974976,-1.5420065865564003,-1.4654049818801569,1.2495606770489294,0.20875006584755082,-0.0006648439499352888,3.2099056059377686e-05,0.0007090916384144026,-0.0008999784844997147,0.0007438311806780293,0.0002988737283506504,-0.0024401709484550985,-0.08021184056997299,-48.86136245727539,3.88651967048645,16.14539337158203,-1.0355733633041382,-1.5323593616485596,0.0064559997990727425,753,778,760,38.350,1,0
1739375896.7730987,0.1203132587461809,0.9871402378917515,0.23262445286720412,-1.5420068391933375,-1.4654095625385888,1.2495614347090076,0.2087520916446507,-0.0014478137663253255,-0.001484860345768357,0.0007649555107602901,-0.00021524048893749325,-0.00012303846799933477,0.0005144926500092273,-0.00013032237837309684,-0.05640812963247299,-48.83359146118164,3.88651967048645,16.14539337158203,-1.0291646718978882,-1.5387680530548096,-0.013685601763427258,754,776,759,38.242,2,0
1739375896.7841225,0.1203178070928879,0.987139841834668,0.23262335131229733,-1.5420048294362911,-1.4654045680278514,1.2495606378030728,0.20875483251153423,-0.0005106054939256931,-0.0023668989870714533,-0.0004079914490011481,-0.0005011164734844515,-0.0005596833783950609,0.00015801392094996948,0.001102656911401945,-0.08021184056997299,-48.83359146118164,3.86271595954895,16.12158966064453,-1.0483907461166382,-1.5323593616485596,-0.03382720425724983,752,778,759,38.242,1,0
1739375896.7941358,0.12031396737940477,0.9871423071230518,0.23262162304547235,-1.542004829435864,-1.4654045241916893,1.2495599193881863,0.20875203422486358,-0.0012215837546389065,8.248012419688667e-05,-0.00038988219494442587,-0.00025020992803915685,0.0027298795621543315,4.908856899204898e-05,-0.0005792898529618294,-0.05640812963247299,-48.83359146118164,3.9142906665802,16.12158966064453,-1.0355733633041382,-1.5259506702423096,-0.0008682189509272575,751,776,759,38.350,1,0
1739375896.804183,0.12031780587136798,0.9871421563950037,0.2326233484132466,-1.5420048023998292,-1.4654072890660859,1.2495614347090076,0.20875166458921235,0.0008442501768444107,0.0009465779370773712,0.0006776504862794922,-0.0008363924872661415,-6.94693125592318e-05,0.0006807713083389831,1.8229338469471015e-05,-0.08021184056997299,-48.86136245727539,3.86271595954895,16.12158966064453,-1.0483907461166382,-1.5387680530548096,-0.020094294100999832,751,775,759,38.350,2,0
1739375896.8150804,0.1203175695881118,0.9871468358661087,0.23261948580166683,-1.5420065994103163,-1.465407454675184,1.2495606755953792,0.20875407061366663,-0.0005902099853101509,0.0011484827614748605,-0.0004920530869191339,-0.0006458910293152278,0.0007569438986914183,0.0006411725835128967,-0.0001891519983091421,-0.08021184056997299,-48.88516616821289,3.9142906665802,16.14539337158203,-1.0227559804916382,-1.5323593616485596,-0.027418512850999832,751,779,759,38.350,1,0
1739375896.8250825,0.12031609273535471,0.9871399200494292,0.2326244223125607,-1.5420027496457933,-1.4654070904262353,1.249561434708983,0.2087518483369538,-0.0007727758988030789,-0.000578053145152497,0.0009119838198602461,-0.0003500763903230519,-0.0011872643541655527,0.0006944846060432052,-0.0005079553056893623,-0.05640812963247299,-48.83359146118164,3.83891224861145,16.09381866455078,-1.0227559804916382,-1.5387680530548096,-0.0072769103571772575,752,778,759,38.350,1,0
1739375896.8351724,0.12031979401933764,0.9871403968323044,0.2326239489275016,-1.542004826601441,-1.4654042796262408,1.2495606770489294,0.2087469284309776,-0.00022492424558008515,-0.0008720820972263923,4.7832755279328756e-05,-0.0003913893965515418,0.00036324616126296285,0.0001310057821190256,-0.0015486796520953713,-0.10798283666372299,-48.83359146118164,3.88651967048645,16.12158966064453,-1.0419820547103882,-1.5323593616485596,0.03300629183650017,752,781,760,38.350,1,0
1739375896.8461416,0.12031909496290108,0.9871416891004046,0.23262545175536592,-1.5420027156329166,-1.4654049875439732,1.2495629456685136,0.20874636636238952,-1.2043291621836481e-05,0.0002097950656179614,0.0009773940131006305,0.00021015050706371324,0.0005235414171584996,0.0009347319059023378,-0.0019111472367752931,-0.10798283666372299,-48.88516616821289,3.83891224861145,16.09381866455078,-1.0419820547103882,-1.5515854358673096,0.04673920199275017,751,779,759,38.242,1,0
1739375896.8572054,0.12031609230231706,0.9871421554378413,0.23262651387819372,-1.5420027383081245,-1.4654077424189782,1.2495599193888263,0.20875320473112874,-9.512499567932095e-05,0.0004930756874409171,0.0006528772338582087,9.473444326029811e-05,0.0008204051852116673,0.00031027507060043776,-0.00015186516739546787,-0.05640812963247299,-48.86136245727539,3.86271595954895,16.09381866455078,-1.0483907461166382,-1.5259506702423096,-0.020094294100999832,756,778,760,38.568,1,0
1739375896.8681571,0.12031780579909451,0.9871436190140436,0.2326265136044579,-1.5420027487010088,-1.4654045678519552,1.2495571947029402,0.20874692550755866,0.00021802618687579686,0.0011821327933906325,0.0017152169100300887,0.00028923397232523185,-0.0003129726444127404,-0.0013356633749919647,-0.0016081777680777391,-0.08021184056997299,-48.88516616821289,3.86271595954895,16.09381866455078,-1.0355733633041382,-1.5387680530548096,0.03300629183650017,753,777,760,38.459,0,0
1739375896.8791304,0.12031609325440637,0.9871421285953353,0.2326215742789075,-1.5420048699034117,-1.4654077469342668,1.249559915020222,0.20874372818758777,4.212632985911867e-05,0.000751424161776352,-0.0003384049486443289,-0.0009023745479299533,0.0005821742385271019,-0.0003128485569433353,-0.002891030985023144,-0.05640812963247299,-48.86136245727539,3.88651967048645,16.09381866455078,-1.0483907461166382,-1.5259506702423096,0.03300629183650017,752,777,759,38.242,1,0
1739375896.8891673,0.12031822403642331,0.9871424624758268,0.23262227753603684,-1.5420027468474922,-1.46540922502702,1.249559919388777,0.2087540880653002,-0.0007913278226339926,0.0005171008056858342,0.0002861898159025145,-9.030878608534622e-05,-0.0005553095446912859,-0.0007845323819723879,0.0006398991531184503,-0.05640812963247299,-48.86136245727539,3.88651967048645,16.09381866455078,-1.0355733633041382,-1.5259506702423096,-0.027418512850999832,754,778,760,38.242,1,0
1739375896.900074,0.12031790812290719,0.9871393559823979,0.23262251489086858,-1.542001225185516,-1.4654092708945659,1.2495606720422563,0.2087485505276027,0.0002666175667152538,-0.0009775125275030127,0.0005241196219669717,0.00111849851119356,-0.001843033673312714,-0.0001781080573183595,-0.00028222250128501843,-0.08021184056997299,-48.78598403930664,3.88651967048645,16.04621124267578,-1.0355733633041382,-1.5323593616485596,0.019273381680250168,752,782,761,38.242,1,0
1739375896.9111497,0.12031585609705132,0.9871386847960892,0.23262416570222497,-1.5420066121474456,-1.4654059370965098,1.2495599193887663,0.2087556359134354,-0.0006841325444608029,-0.0010368863374732257,0.0010654324774992331,-0.0003070528808003662,-0.0009879688730666408,-0.0003961604236009023,0.0012809553013492473,-0.05640812963247299,-48.80978775024414,3.86271595954895,16.14539337158203,-1.0355733633041382,-1.5259506702423096,-0.013685601763427258,752,777,758,38.350,1,0
1739375896.922144,0.1203198037395178,0.9871449908910607,0.23262513094709783,-1.5420027614197656,-1.4654107911436256,1.2495614347090076,0.20874930803095784,0.0002791989004560637,0.0005148533583323867,0.0004874845164664455,-0.0014529484061034394,-0.0014912929115177308,-1.3933853609239815e-05,0.0005185121738541246,-0.10798283666372299,-48.86136245727539,3.83891224861145,16.09381866455078,-1.0227559804916382,-1.5387680530548096,0.012864691205322742,752,777,760,38.242,1,0
1739375896.933106,0.12031497159189268,0.9871421564066182,0.23262465100931828,-1.5420027373637082,-1.4654089220427762,1.249559919388851,0.20875244657739228,-0.0007819584429137129,-0.0010810348908868838,0.0010045990010202628,0.0005417867012880602,-0.0006319074188476909,-7.576873778704387e-05,0.00017650386576401365,-0.08021184056997299,-48.86136245727539,3.88651967048645,16.09381866455078,-1.0355733633041382,-1.5259506702423096,-0.013685601763427258,751,777,761,38.350,1,0
1739375896.9431896,0.12032192195321319,0.9871438688793467,0.23262089374373646,-1.542004895413151,-1.4654037578085595,1.249559919388851,0.2087461444756825,0.00036836397234322484,-0.000237684730697216,-0.0011860841739319262,6.111405912819691e-05,0.0009118812823739816,-0.00015753066326965786,-0.0031981835628768253,-0.10798283666372299,-48.88516616821289,3.9380943775177,16.09381866455078,-1.0419820547103882,-1.5259506702423096,0.026597600430250168,754,779,760,38.242,1,0
1739375896.9541245,0.1203160670446706,0.9871425007410072,0.23262654312017497,-1.54200274969446,-1.4654084739082103,1.2495614347090076,0.2087564460562629,-0.0006874863604308759,0.0005547822838219186,0.002245432589543373,0.00033497064282284517,0.0006257459412180367,0.0003295547753814635,0.0008592174005093254,-0.05640812963247299,-48.86136245727539,3.86271595954895,16.09381866455078,-1.0419820547103882,-1.5387680530548096,-0.020094294100999832,752,778,759,38.350,2,0
1739375896.9641602,0.12032082679587759,0.9871408707358923,0.23262370288938145,-1.5420009669689902,-1.465408517756164,1.2495614347090076,0.20875244711983212,0.001762753596108594,0.00015572609482229034,-0.0007850372911350145,0.0017963450994355817,-0.0004739874947566158,0.00029936150110306247,0.0009646281177490683,-0.10798283666372299,-48.83359146118164,3.88651967048645,16.07001495361328,-1.0419820547103882,-1.5387680530548096,-0.013685601763427258,752,779,759,38.350,1,0
1739375896.9751165,0.12031780576888394,0.9871419149642792,0.2326226881346522,-1.5420026476067812,-1.4654057964087994,1.2495606770489294,0.2087500059425257,-0.0002861639720731317,0.0003946115553314304,9.336255811452534e-05,0.00026830536813711653,-0.0006912926705813929,-0.000254752321541256,0.00044832908465030285,-0.08021184056997299,-48.86136245727539,3.9142906665802,16.09381866455078,-1.0291646718978882,-1.5323593616485596,-0.020094294100999832,752,778,759,38.350,1,0
1739375896.986089,0.12031780579911087,0.9871384458956683,0.23262194100237912,-1.5420047529058674,-1.4654066446241543,1.249559919388851,0.20875801711287736,0.000157093111125994,-0.0008148478501122555,-0.000589955933132428,-0.0006176419673447133,0.00112623575453079,0.0002801530184407589,0.002142697457397004,-0.08021184056997299,-48.80978775024414,3.9142906665802,16.12158966064453,-1.0547994375228882,-1.5259506702423096,-0.03382720425724983,750,778,759,38.350,1,0
1739375896.996126,0.12031791102706417,0.9871421563586151,0.23262252106730236,-1.5420047264479408,-1.4654039264579517,1.249559919388851,0.20875077588634308,0.0007644098144588799,0.0018311357571073152,-5.8801704919811144e-05,-0.00025023816141232666,0.001010901697911172,-0.0005006207684252575,-0.0001378396295100225,-0.08021184056997299,-48.86136245727539,3.86271595954895,16.12158966064453,-1.0419820547103882,-1.5259506702423096,-0.0008682189509272575,752,777,760,38.350,1,0
1739375897.0061631,0.12031976583015076,0.9871400789449023,0.23262742632838812,-1.5420045658339454,-1.4654056914206988,1.2495605588268428,0.2087527308305296,-0.0003404370063374673,4.5390207130432676e-05,0.0010915702910351435,0.0005765904438117048,0.0011573084117238004,-0.00045575382759642004,-0.00013862909418672312,-0.10798283666372299,-48.83359146118164,3.83891224861145,16.12158966064453,-1.0355733633041382,-1.5323593616485596,-0.020094294100999832,752,777,761,38.242,1,0
1739375897.0181391,0.12032072587459618,0.9871401580902647,0.2326218040405546,-1.5419982119083648,-1.4654057555276552,1.2495606770482621,0.20875244706226476,0.001155010105396993,-0.0005888909233981463,-0.0010322333261602683,0.0016347261176691392,-0.0005404480066200536,2.945924294965115e-05,0.00016374389386015603,-0.08021184056997299,-48.83359146118164,3.88651967048645,16.07001495361328,-1.0291646718978882,-1.5323593616485596,-0.013685601763427258,751,779,760,38.350,1,0
1739375897.029154,0.12031980374545874,0.9871421269242221,0.23262304459344785,-1.5420027496408242,-1.4654065182349925,1.2495582958315403,0.20875559031679522,0.0001944368778843429,0.00045989578840766894,0.00021998362104492657,-0.0003055077029865275,0.0004915387448511943,-0.0006753921753062907,0.0014810963106591257,-0.10798283666372299,-48.86136245727539,3.83891224861145,16.09381866455078,-1.0547994375228882,-1.5122177600860596,-0.04023589566349983,752,774,760,38.459,0,0
1739375897.039155,0.1203176778409672,0.9871438953698012,0.232621577167431,-1.542000683351656,-1.4654058991839132,1.2495614347090076,0.2087555859425915,0.0009209175556336804,0.0016044122425301463,-0.0007392196695801243,0.0004940292295443826,0.0007560623946314489,0.0004754633856016667,0.0015197281882632892,-0.10798283666372299,-48.88516616821289,3.88651967048645,16.09381866455078,-1.0547994375228882,-1.5387680530548096,-0.04023589566349983,750,777,763,38.350,1,0
1739375897.0501165,0.12031686094311161,0.98714382701695,0.2326216798542633,-1.5420038570420822,-1.465407590455925,1.249559919388851,0.20875639357362386,-0.0009228164574287484,0.0008012947839785504,-0.0010158904602008522,-0.0014395680399577808,0.0004327935919966889,0.0003286818634888137,0.0017554224163452996,-0.08021184056997299,-48.91293716430664,3.88651967048645,16.14539337158203,-1.0483907461166382,-1.5259506702423096,-0.020094294100999832,755,777,761,38.350,2,0
1739375897.061052,0.12031851607179339,0.987142307093869,0.2326247776033668,-1.542004140204508,-1.46540532624221,1.2495614347090076,0.20875427812128192,0.00016012110334465572,0.0013578749163742512,0.0004581450004482795,-0.0014035786420523145,-3.333520911990197e-05,0.00036729458044868917,-0.00014674342796436692,-0.08021184056997299,-48.83359146118164,3.88651967048645,16.12158966064453,-1.0419820547103882,-1.5387680530548096,-0.0008682189509272575,750,779,760,38.350,1,0
1739375897.0711386,0.12031709619805983,0.9871392953477953,0.23262051725837954,-1.5420004499802733,-1.46540776180156,1.2495614332554574,0.20875047015407888,-0.0002619427008420778,0.0007785679823594631,-0.0011335853882727173,7.186411886731576e-05,-0.0001130188315945398,0.0005740190071142916,-0.0009932493326533982,-0.08021184056997299,-48.86136245727539,3.9142906665802,16.09381866455078,-1.0483907461166382,-1.5387680530548096,0.03300629183650017,750,776,762,38.350,0,0
1739375897.0830722,0.12032269778276165,0.9871389763015752,0.23261960397658127,-1.5420048292829107,-1.4654085020908965,1.2495606770489212,0.20875355960166353,0.0005677691125128417,0.00018325201502610437,-0.0007476865896367064,0.0003863341400899043,-0.0007801811794000425,-0.00025833465690080365,0.0012589038311774353,-0.10798283666372299,-48.86136245727539,3.9142906665802,16.12158966064453,-1.0419820547103882,-1.5323593616485596,-0.020094294100999832,751,780,763,38.350,2,0
1739375897.09316,0.12031777956978137,0.9871411266820082,0.23262255402402063,-1.5420027499730562,-1.4654091405059213,1.249562192369086,0.20875636316839521,0.0005780104605036808,0.0002801803128082038,0.0002842377565391738,-0.00034342789355623415,0.001153990241263713,0.00045017873424630327,0.004154986959033815,-0.08021184056997299,-48.86136245727539,3.88651967048645,16.09381866455078,-1.0355733633041382,-1.5451767444610596,-0.03382720425724983,751,780,762,38.350,1,0
1739375897.10318,0.12031980363151304,0.9871400901558416,0.23262370578182776,-1.5420009669689947,-1.465407755572387,1.249559919388851,0.20875093177077667,0.0005699416310919378,0.00013113414968154503,0.0001430209000409801,0.0002080706298758717,-0.0008805534254856002,-0.00013547112848958328,-0.0015285641096142379,-0.10798283666372299,-48.86136245727539,3.88651967048645,16.07001495361328,-1.0483907461166382,-1.5259506702423096,-0.0008682189509272575,751,778,762,38.350,1,0
1739375897.115124,0.12031609317037238,0.9871403284711783,0.23262268075588222,-1.5420009668290178,-1.4654045153629365,1.249559919388851,0.20874692697019365,-0.0005721019037842464,0.00017546560744108688,0.0005419352087037472,0.0004565943048921902,0.0008824820586257441,-0.0003589188565745245,-0.001711751926918418,-0.05640812963247299,-48.86136245727539,3.9142906665802,16.07001495361328,-1.0355733633041382,-1.5259506702423096,0.03300629183650017,751,777,767,38.350,2,0
