IITGN-Robotics/Franka_IITGN_ROBOTICS/franka_ros/franka_iitgn/data/s_b_002.csv
time,fr3_joint1_pos,fr3_joint2_pos,fr3_joint3_pos,fr3_joint4_pos,fr3_joint5_pos,fr3_joint6_pos,fr3_joint7_pos,fr3_joint1_vel,fr3_joint2_vel,fr3_joint3_vel,fr3_joint4_vel,fr3_joint5_vel,fr3_joint6_vel,fr3_joint7_vel,fr3_joint1_eff,fr3_joint2_eff,fr3_joint3_eff,fr3_joint4_eff,fr3_joint5_eff,fr3_joint6_eff,fr3_joint7_eff,flexpin1,flexpin2,flexpin3,Force,ContactMic,ContactMic_gt
1739373918.5426126,0.13350290979190255,0.9744656944697738,0.2132453656096296,-1.559627277648531,-1.4600364115462194,1.2743624082680653,0.20497510751640644,-0.0012200534435012143,-0.00035630301643859477,-0.0013904631704692103,0.0013962961960497415,-0.0005440801453536943,3.0912361187609245e-05,-0.0007002413765645,0.018970288336277008,-48.42496109008789,3.6841881275177,16.34375762939453,-1.4878438711166382,-0.7962753772735596,0.07969819009304047,,,,,,,,,
1739373918.5526428,0.1335046319131101,0.9744655913444202,0.21324280496515757,-1.5596308151189895,-1.4600396699150735,1.2743624082680653,0.20497685522071485,9.95769451453733e-05,-0.0008480709614878156,-0.0019313467770835755,-0.0010133524613458247,-0.0007791455785646004,9.142025357548578e-05,-0.0003115352579187682,-0.004833422601222992,-48.42496109008789,3.71195912361145,16.39136505126953,-1.4878438711166382,-0.7962753772735596,0.05314789339900017,,,,,,,,,
1739373918.563612,0.13350369830189476,0.9744686898971076,0.21324643208237296,-1.5596300268693717,-1.460040024239327,1.2743615423708328,0.2049801928769522,-0.0006030109511241096,0.0006613314612434896,0.0007605741189654525,-0.0008846659139158275,-0.0004451976570238865,-0.00014911602548481307,-0.001034498905755707,0.018970288336277008,-48.47653579711914,3.6603844165802,16.36756134033203,-1.4942525625228882,-0.7889511585235596,0.026597600430250168,,,,,,,,,
1739373918.5746996,0.1335047371971831,0.9744708363149667,0.2132485108988858,-1.5596272842846157,-1.460039489757369,1.2743615423708328,0.20498090102906466,0.0007244336702065728,0.00034543349502948835,0.00036824152698821744,0.00023647604604869622,9.667494191974014e-05,0.00044407024784514303,-0.0004258656452647483,-0.004833422601222992,-48.47653579711914,3.63261342048645,16.34375762939453,-1.5070699453353882,-0.7889511585235596,0.026597600430250168,,,,,,,,,
1739373918.5847385,0.1335013118189605,0.9744649804616707,0.21324256572591738,-1.5596272493100813,-1.4600381548404653,1.2743607847107545,0.2049787169304151,-0.0005423071912089233,-0.0005685272249665112,-0.0015504529581793478,0.0009160151454731132,0.0005896567671468224,-0.00015243897947793674,-0.001161599402250361,0.04277399927377701,-48.42496109008789,3.71195912361145,16.34375762939453,-1.5006612539291382,-0.7825424671173096,0.03941498324275017,,,,,,,,,
1739373918.596702,0.13350780414719712,0.9744612951343951,0.21324247908390523,-1.5596283837031983,-1.4600032263027731,1.2742944401933072,0.20497741590914131,-0.00019766051360333602,-0.0025136777339367098,-0.0011970755555921477,-0.002231863783070073,0.0036238425297823607,-0.007859390694439453,-0.00017685926650184102,-0.004833422601222992,-48.37338638305664,3.6841881275177,16.31598663330078,-1.2058614492416382,-0.9729721546173096,0.04673920199275017,,,,,,,,,
1739373918.6086667,0.1335184313328657,0.9744607675602782,0.21324958999874744,-1.5596077830887685,-1.459962448941052,1.274181883850976,0.20498064253512388,0.00020556713764935852,-0.0015485183995334031,-0.00034903202388738,0.0015711430206685638,0.001860785349184314,-0.006537127710001796,0.0014922170137376697,-0.10798283666372299,-48.32181167602539,3.58500599861145,16.07001495361328,-1.1472676992416382,-1.0718491077423096,-0.0072769103571772575,,,,,,,,,
1739373918.618667,0.13351953206628853,0.9744630136280079,0.21325296905685984,-1.5596050777718848,-1.459948167319733,1.2741604856884143,0.20497971376488844,-0.0001422203694853501,0.00015513922058594436,-2.1025642453436028e-05,0.0009429369465453682,0.0001490444754123398,-0.0011759704251759649,0.0009774233018212126,-0.08021184056997299,-48.34958267211914,3.5334312915802,16.04621124267578,-1.1399434804916382,-1.0718491077423096,-0.0008682189509272575,,,,,,,,,
1739373918.6296372,0.13351971767474088,0.974466564709313,0.213247798676361,-1.5596077894551255,-1.4599487256436514,1.2741489076658516,0.20497871766550943,0.0005058530963283294,0.0006989699791049063,-0.0015008404946959238,0.000173455272309376,0.0005759668048562994,-0.0021936252858587766,0.00010343391373855633,-0.08021184056997299,-48.40115737915039,3.60880970954895,16.09381866455078,-1.1207174062728882,-1.0260727405548096,0.03300629183650017,,,,,,,,,
1739373918.6397066,0.13352336075222798,0.9744694267125089,0.21324530391297178,-1.55961048854947,-1.4599488432100365,1.2741417159324968,0.20497657926250362,-0.00014105587953025192,-0.0009501981340838462,-6.205509369123399e-05,-0.001303891690587837,-0.0001913640451223655,2.4535911998117957e-05,-0.0007100637270612633,-0.1317865550518036,-48.40115737915039,3.63261342048645,16.12158966064453,-1.1207174062728882,-1.0324814319610596,0.05314789339900017,,,,,,,,,
1739373918.649726,0.1335241762167766,0.9744770453221498,0.21324684713476583,-1.5596063015457895,-1.4599487910443896,1.274141186550087,0.20497476708637227,-0.00039589392927688,0.0018251628248369279,0.0011310348763098536,0.0006800780906703501,0.0012138527139110315,0.00033059440262648746,-1.9242042997075345e-05,-0.1317865550518036,-48.50430679321289,3.60880970954895,16.09381866455078,-1.1207174062728882,-1.0324814319610596,0.03941498324275017,,,,,,,,,
1739373918.6607127,0.1335228685161493,0.9744696921117172,0.21324886882961097,-1.559608531150913,-1.4599473106091516,1.274138679923484,0.204979077092957,-0.0007578940488885686,-0.0002678277660632789,0.00045560575148462516,0.0001625562299020528,0.0005042585516918199,0.00019697461037183683,0.0005091653478690182,-0.08021184056997299,-48.40115737915039,3.58500599861145,16.09381866455078,-1.1335347890853882,-1.0526230335235596,0.03300629183650017,,,,,,,,,
1739373918.6707184,0.1335249189980698,0.9744680994550542,0.21324424533372882,-1.5596063058480585,-1.4599418215893845,1.2741474901904084,0.20497527015209407,-0.0007506759110603507,-0.0017648241841697865,-0.0016217125757246474,-0.0005083155486359748,0.0031414071633291477,-0.0005330780177280117,-0.0006737602992040823,-0.10798283666372299,-48.34958267211914,3.63261342048645,16.09381866455078,-1.1399434804916382,-1.0983994007110596,0.05314789339900017,,,,,,,,,
1739373918.6816735,0.1335229210584023,0.9744697039215887,0.2132466382553927,-1.5596105010649544,-1.45994335674824,1.2741504944086819,0.20497512248850436,0.00033203299363589834,0.0005330550859688179,0.0014902682892684043,0.0010381156809710643,0.00018781665130494885,0.0007747350606155255,-0.0013628642462450383,-0.08021184056997299,-48.40115737915039,3.58500599861145,16.12158966064453,-1.1271260976791382,-1.1112167835235596,0.03941498324275017,,,,,,,,,
1739373918.6926672,0.13352112983578454,0.9744639954834858,0.213248811368507,-1.559609858729715,-1.4599440358088256,1.2741458402362726,0.20498066105329216,-0.0008831747858826985,-0.000892210669766032,0.0004311342815132397,-0.0008072348767621513,-2.0512925308333626e-05,-0.0007048610875930253,0.001587703920224345,-0.05640812963247299,-48.32181167602539,3.5572350025177,16.12158966064453,-1.1207174062728882,-1.0718491077423096,0.019273381680250168,,,,,,,,,
1739373918.7036474,0.13352696713198098,0.9744683961815735,0.2132496609748018,-1.5596041015457724,-1.4599381510623506,1.274143567256038,0.20498105244103332,0.0010893271976547413,0.001620412727124626,0.0006819970629133581,-0.00026034278139583285,0.0006480790514656315,-0.0008394863437344172,0.0011144652770354534,-0.10798283666372299,-48.37338638305664,3.5334312915802,16.04621124267578,-1.1335347890853882,-1.0526230335235596,0.019273381680250168,,,,,,,,,
1739373918.71371,0.13352113013536462,0.9744677059489664,0.21324700783163666,-1.5596123098902337,-1.4599407423573736,1.2741443249161162,0.2049796360370937,-0.0007193872776921536,-0.0004484295506143437,-6.687198107584772e-05,-0.0028136505850137467,-0.0001903077402106132,0.00015680970484020898,0.0005450801824853994,-0.05640812963247299,-48.37338638305664,3.60880970954895,16.14539337158203,-1.1399434804916382,-1.0590317249298096,0.019273381680250168,,,,,,,,,
1739373918.7257106,0.13352284242807774,0.9744639954834856,0.21324681246411947,-1.5596064604623343,-1.4599379096057437,1.274142339315778,0.20497481390587105,0.0004884021314179158,-0.0014760175086456348,-0.00035464029844908975,-0.00036932587782344446,0.0003626082261320929,-0.0003501597056445776,-3.609852503501528e-05,-0.08021184056997299,-48.32181167602539,3.60880970954895,16.07001495361328,-1.1335347890853882,-1.0452988147735596,0.03300629183650017,,,,,,,,,
1739373918.7369301,0.13352655278218944,0.9744697038978115,0.21324855129028272,-1.5596076150493734,-1.4599390264514702,1.274141943698046,0.20497825941377537,-0.0003544145153741602,-9.486444174238993e-05,0.0014196239192719499,0.0004106515567894049,-0.00035403774889044426,0.00075949733591899,0.0015207820171585062,-0.1317865550518036,-48.40115737915039,3.58500599861145,16.12158966064453,-1.1271260976791382,-1.0388901233673096,0.012864691205322742,,,,,,,,,
1739373918.7477043,0.13352868739357127,0.974471417797621,0.21324484648592734,-1.5596061955659015,-1.4599435582662077,1.274141180079093,0.20497332780901414,-0.0003686072747877722,-7.630080541516438e-05,2.807022216004399e-05,0.00031623248301169136,-0.0008612189435969802,-0.00010969836618252392,-0.0016127630444913788,-0.1317865550518036,-48.42496109008789,3.60880970954895,16.09381866455078,-1.1207174062728882,-1.0324814319610596,0.05314789339900017,,,,,,,,,
1739373918.758715,0.1335265566824861,0.974469812296852,0.21324211603787396,-1.5596060033726726,-1.4599424862672887,1.2741418227969599,0.2049779059507254,6.991859722893826e-05,0.000501089315265966,-0.0012129797363441448,-0.0009269982391313798,-0.0001901601535407143,0.00018651869937722203,0.0007977388007985423,-0.1317865550518036,-48.37338638305664,3.63261342048645,16.07001495361328,-1.1207174062728882,-1.0388901233673096,0.012864691205322742,,,,,,,,,
1739373918.769714,0.13352310466824574,0.9744639955310418,0.21324392495520947,-1.5596081737205205,-1.4599396599135368,1.2741433869787862,0.20497755780358085,0.00015883768321296352,-0.001448683831973672,-0.0003529965531192785,-0.0008196449649772591,-0.0009305700025368087,-0.000183508030872033,-0.0005811690090563223,-0.08021184056997299,-48.32181167602539,3.60880970954895,16.09381866455078,-1.1207174062728882,-1.0526230335235596,0.0064559997990727425,,,,,,,,,
1739373918.7806394,0.1335249594311103,0.9744667522707537,0.21324571540887047,-1.5596021530962683,-1.459937033650802,1.2741450761189912,0.20498134145621852,0.0008142260393932926,-0.0006876228406429086,-0.0010387214751160835,0.0008044170653306026,0.0008132302017667395,0.0013923736001456772,0.0002808322270879127,-0.08021184056997299,-48.37338638305664,3.58500599861145,16.02240753173828,-1.1399434804916382,-1.0654404163360596,0.012864691205322742,,,,,,,,,
1739373918.7907104,0.13352655303355174,0.9744677056018705,0.21324495156098716,-1.5596034107031402,-1.4599355854766976,1.2741474176069152,0.2049813415346857,0.0012355863607449971,0.001083373335799674,-0.0006327008861640882,0.0005075399186793169,-5.24673767669868e-07,0.00023876526683178447,0.00025793269731600344,-0.1317865550518036,-48.37338638305664,3.60880970954895,16.07001495361328,-1.1399434804916382,-1.0855820178985596,0.012864691205322742,,,,,,,,,
1739373918.8016555,0.1335228423200704,0.9744677059450679,0.213246428367939,-1.5596051934541308,-1.4599369867919008,1.274147463793323,0.20497981900897969,-0.0004230400510747003,0.00011649244533335206,-0.0004447298305443744,0.0007170203180413879,-0.00048255777630189163,0.00034071861973730845,-0.0003305205269435562,-0.08021184056997299,-48.37338638305664,3.58500599861145,16.09381866455078,-1.1399434804916382,-1.0855820178985596,0.026597600430250168,,,,,,,,,
1739373918.8127048,0.13352494621565028,0.9744660974258588,0.2132460347172152,-1.5596097547772678,-1.4599369398885775,1.274144164008104,0.20496999880653374,0.0003990754150473218,-3.670694873700092e-05,0.00022568033461812788,-0.0005332041994243538,-0.001260874116463991,-0.0006635792822304428,-0.0020480106194734906,-0.10798283666372299,-48.34958267211914,3.58500599861145,16.12158966064453,-1.1271260976791382,-1.0590317249298096,0.07969819009304047,,,,,,,,,
1739373918.822746,0.1335249423155707,0.9744697048506612,0.21324591220321326,-1.559604952123443,-1.4599372638609291,1.2741404283758455,0.20497320337948596,-0.0004864558467058946,0.00024895411415377065,-0.0007512910231862048,0.0010897319549953365,-0.0003166536630703385,-0.0010658851199998832,-0.002112363766496747,-0.10798283666372299,-48.40115737915039,3.58500599861145,16.07001495361328,-1.1335347890853882,-1.0260727405548096,0.07969819009304047,,,,,,,,,
1739373918.8336995,0.13352511161072914,0.9744697042069207,0.21324851883604598,-1.5596037437295722,-1.4599376684176564,1.274136754312291,0.20497841493227673,4.683181609364134e-05,0.000479082832288578,0.0015825237240441434,-0.0006503558150332983,-0.0011874616171031892,-0.001149611269927656,0.0001360352746238231,-0.10798283666372299,-48.40115737915039,3.58500599861145,16.07001495361328,-1.1335347890853882,-1.0260727405548096,0.026597600430250168,,,,,,,,,
1739373918.8447266,0.1335249307722013,0.974467706266064,0.2132457068201934,-1.5596035205543364,-1.4599309265181661,1.274139186263102,0.20498146016461546,-6.620873974777587e-05,-0.0006850096859712164,0.00036033519090274466,7.041110258498575e-06,0.00012972621034590339,0.0027270209961967632,0.0010991133166359359,-0.10798283666372299,-48.37338638305664,3.58500599861145,16.07001495361328,-1.1536763906478882,-1.0196640491485596,0.012864691205322742,,,,,,,,,
1739373918.8557205,0.13352655267521052,0.9744659937453364,0.2132439239835894,-1.559603423893226,-1.4599366521612933,1.2741379345335104,0.20498209935928938,0.0003084348172219175,-0.0012635276979328757,-0.0006724861155350876,-8.690072758847196e-05,0.0005640231415530719,0.00012856437890498834,0.001072647473802705,-0.1317865550518036,-48.34958267211914,3.60880970954895,16.07001495361328,-1.1399434804916382,-1.0452988147735596,0.0064559997990727425,,,,,,,,,
1739373918.866639,0.1335248403689287,0.9744698120947386,0.21324600545518446,-1.5596083458994903,-1.4599369754872378,1.2741446938404877,0.20497832129506066,-0.0001058785610522699,0.0004514700399368453,-0.0007026338082041495,-0.0013119980001661054,-0.0010071730806030653,0.0020774121648481744,-0.0002856085315605431,-0.10798283666372299,-48.37338638305664,3.58500599861145,16.12158966064453,-1.1399434804916382,-1.0718491077423096,0.03941498324275017,,,,,,,,,
1739373918.8766775,0.13352484026092387,0.9744608392414711,0.21324783677693032,-1.5596081515156885,-1.4599333885203563,1.2741425896850704,0.20497302311147106,0.0004593204612348406,-0.0019718051753920517,-0.00035430990691314996,-0.00037169256194003917,0.0007450826939415025,-0.001228043371776692,-0.0024255592440916643,-0.10798283666372299,-48.29800796508789,3.58500599861145,16.09381866455078,-1.1335347890853882,-1.0855820178985596,0.05314789339900017,,,,,,,,,
1739373918.886735,0.13352356099770582,0.9744659933998892,0.2132485280518387,-1.5596059351378642,-1.4599321882896679,1.274144422154163,0.20497678107846687,-0.000450503399291837,9.859553558577144e-05,0.0003477971321884384,0.001388249305809022,0.0006921042510703994,0.00011883266192165534,-0.0005969176711472459,-0.08021184056997299,-48.34958267211914,3.58500599861145,16.09381866455078,-1.1399434804916382,-1.0919907093048096,0.03941498324275017,,,,,,,,,
1739373918.8977525,0.13352484069700643,0.9744659933879998,0.2132487511735653,-1.559607777192332,-1.4599329171372537,1.274144310768314,0.20497725069182,7.322753919228255e-05,-0.00045348383864115177,0.00065555000739288,-0.0005905707688193177,-4.137006905007232e-05,0.0003357320533160526,8.352158478880758e-05,-0.10798283666372299,-48.34958267211914,3.58500599861145,16.09381866455078,-1.1335347890853882,-1.0590317249298096,0.03941498324275017,,,,,,,,,
1739373918.908755,0.13352288120254052,0.974467706266062,0.21324804351388754,-1.5596036986269473,-1.4599330244090991,1.2741425806777165,0.20497546276077477,-0.001123467265646995,-0.0001886639990107939,0.00014949227036623253,0.0010028671575998515,9.999927483780383e-05,0.0008038443972540288,-0.002944235955492201,-0.08021184056997299,-48.37338638305664,3.58500599861145,16.07001495361328,-1.1335347890853882,-1.0452988147735596,0.05955658480525017,,,,,,,,,
1739373918.9197023,0.13352484134121012,0.9744648449221225,0.213243935697225,-1.5596035052918042,-1.459932508111645,1.2741355413764188,0.2049817263846866,-0.00020354466080238514,0.00015768538290965826,-9.63336898755369e-05,-0.0001936682805043992,-0.0005737345094841704,-0.0019243540840289345,0.001720313621494602,-0.10798283666372299,-48.37338638305664,3.60880970954895,16.07001495361328,-1.1399434804916382,-1.0260727405548096,0.0064559997990727425,,,,,,,,,
1739373918.9297028,0.13352970226220312,0.9744659938038768,0.21324389903420074,-1.5596104874812475,-1.4599329037341455,1.2741370561178653,0.20498145870168324,0.0016992956867667313,-0.00042291604716999037,-0.0006485202671388075,-0.0018135234009899449,0.00023794735889116252,0.00012326150753900794,0.001274383091701495,-0.1317865550518036,-48.34958267211914,3.60880970954895,16.12158966064453,-1.1335347890853882,-1.0388901233673096,0.012864691205322742,,,,,,,,,
1739373918.9406748,0.13352656154852371,0.9744659935313382,0.2132466294707681,-1.5596073046911176,-1.4599321460679362,1.2741356433221973,0.20498146065866346,0.0004887435343097755,-0.00113654624414389,0.0009310484783858616,-0.0005003633516609513,-0.0012119064779808346,-0.0009274597484677565,0.002598593001021761,-0.1317865550518036,-48.34958267211914,3.58500599861145,16.12158966064453,-1.1399434804916382,-1.0388901233673096,0.012864691205322742,,,,,,,,,
1739373918.9507484,0.1335270487853143,0.9744659934243405,0.21324383176135736,-1.5596034201611204,-1.4599312801707038,1.274139443436418,0.20497740274320175,4.8401153614098214e-05,-0.00014696224783660578,-0.001008025130678771,0.0012341541820694705,0.0005732089434979358,0.000385785911313427,0.0005147054188326663,-0.10798283666372299,-48.34958267211914,3.60880970954895,16.07001495361328,-1.1472676992416382,-1.0590317249298096,0.04673920199275017,,,,,,,,,
1739373918.9617186,0.13352486781513817,0.9744640243727968,0.21324780631311918,-1.5596072837580532,-1.4599312782326368,1.27414367575083,0.2049798785547951,0.00021465110743667994,-0.0014546998474426454,0.00046800482322445025,-0.0007322744214341306,0.0022362055421818157,0.0024191918246651892,-0.00021361631039923054,-0.10798283666372299,-48.32181167602539,3.58500599861145,16.12158966064453,-1.1472676992416382,-1.0855820178985596,-0.0008682189509272575,,,,,,,,,
1739373918.9727519,0.13352707117874338,0.9744659943874787,0.21324578972943625,-1.5596075194364274,-1.4599321461231063,1.2741405570445574,0.20497876594857453,0.0013919960263665632,-4.949643568886561e-05,0.0008762678199619869,0.00030214822420150536,-1.551606726687749e-05,-0.0016900273452767523,0.00014367961023898144,-0.10798283666372299,-48.34958267211914,3.58500599861145,16.12158966064453,-1.1399434804916382,-1.0654404163360596,0.026597600430250168,,,,,,,,,
1739373918.9837592,0.13352696631652178,0.9744697067748594,0.21324803252626,-1.5596016310408845,-1.4599289146103986,1.2741394911940167,0.2049830793360029,0.0009585554221221066,0.001623588968845283,0.0008934177402469982,0.000841845275528041,0.0011082574716705484,-0.0015857693164543021,0.00027786115802467295,-0.10798283666372299,-48.40115737915039,3.5572350025177,16.04621124267578,-1.1399434804916382,-1.0590317249298096,-0.0008682189509272575,,,,,,,,,
1739373918.9946723,0.13352396448734458,0.9744660309804595,0.21325088473629866,-1.559605193454148,-1.4599340265175278,1.2741422975164183,0.20497592203870552,-0.00015596320455292252,-0.0001529202770957913,0.0010623873313731855,0.0003052488182500491,-0.0004178825358815648,0.0006557663312696577,-0.00015228524031618974,-0.05640812963247299,-48.34958267211914,3.5572350025177,16.09381866455078,-1.1207174062728882,-1.0452988147735596,0.05955658480525017,,,,,,,,,
1739373919.0056617,0.13352579422950103,0.974468723812011,0.21324568964871798,-1.55960341100322,-1.4599321460657202,1.274141045269449,0.20497686012288166,0.00012941917696159916,9.417614501208054e-05,-0.0008877746578188033,0.00023686149567375852,-0.0006533205443318233,0.00023370973477438545,0.0005102947379455934,-0.10798283666372299,-48.37338638305664,3.58500599861145,16.07001495361328,-1.1399434804916382,-1.0324814319610596,0.03941498324275017,,,,,,,,,
1739373919.0166523,0.13352657906924337,0.9744707179421556,0.213246732305526,-1.5596051947354101,-1.4599329036741793,1.2741362984845732,0.20498142061907762,-0.000710752394801471,0.0011452065337047383,-0.0007112274561854308,2.0527233629955878e-05,0.00022284109331091313,0.0004333809717463872,0.0007092402095619677,-0.1317865550518036,-48.40115737915039,3.60880970954895,16.09381866455078,-1.1335347890853882,-1.0324814319610596,0.012864691205322742,,,,,,,,,
1739373919.0267372,0.13352516406592918,0.9744680179668033,0.21324602379248309,-1.559607607205254,-1.459933659450025,1.274137056117856,0.20498113840746734,-5.311848668777282e-05,-0.0007765855480645941,0.00028028280538920007,-0.0007858870167597334,-0.0004196621165994951,-0.00029065567179805584,-0.0005504200883591564,-0.10798283666372299,-48.37338638305664,3.60880970954895,16.12158966064453,-1.1271260976791382,-1.0388901233673096,0.0064559997990727425,,,,,,,,,
1739373919.0367384,0.13352931815926136,0.9744677089462825,0.21324460640647952,-1.559603438141815,-1.4599328993673308,1.2741410702271145,0.20497852563631805,0.00117984108099138,-0.0005592372766601193,-0.0001155971102258451,0.00038595050577676333,-0.0008220186463524631,0.0006915838701572684,-0.0012660093857985554,-0.1555902659893036,-48.37338638305664,3.60880970954895,16.07001495361328,-1.1335347890853882,-1.0452988147735596,0.0064559997990727425,,,,,,,,,
1739373919.0477118,0.13352495399808753,0.9744725215567529,0.21324591954567995,-1.5596033047003999,-1.4599321460679116,1.274138679693549,0.2049762612279357,-0.001363150242522183,0.002071278817560447,0.000555439678951224,0.0004377225992710657,-0.0008557262166265904,0.00011141624280118164,-0.0009152885342927152,-0.10798283666372299,-48.40115737915039,3.58500599861145,16.07001495361328,-1.1399434804916382,-1.0526230335235596,0.019273381680250168,,,,,,,,,
1739373919.0587277,0.13352121242522663,0.9744622832996527,0.21325025443190335,-1.5596051903970394,-1.4599329035126736,1.2741409526554013,0.20497971811693935,-0.0018812396232242004,-0.001621725639453525,0.0008712091299732773,0.0005261905602115158,-0.000553286193463904,0.000557681187584284,0.001345041962429159,-0.05640812963247299,-48.29800796508789,3.5334312915802,16.09381866455078,-1.1335347890853882,-1.0718491077423096,0.026597600430250168,,,,,,,,,
1739373919.0687401,0.13352390413689474,0.9744662274277646,0.21324792005676385,-1.5596017104032875,-1.4599289656999943,1.2741394418049115,0.20497947973050934,-4.775534455200316e-05,0.00011802352650805766,-2.2567621500942212e-05,0.0005214313889147273,0.00035330973986245006,-0.000793679927687791,0.0003546741052222876,-0.08021184056997299,-48.34958267211914,3.58500599861145,16.04621124267578,-1.1399434804916382,-1.0590317249298096,0.026597600430250168,,,,,,,,,
1739373919.07971,0.13352591404112035,0.9744640734859465,0.21324592866290074,-1.5596016283266656,-1.4599333079420889,1.2741445395116786,0.20498034709036883,0.0004000263246570696,-0.0006737574632059381,-0.0007918513652259719,0.00016964067484509033,-0.0003498273005017429,0.0002776302241622868,0.0005225802345637379,-0.08021184056997299,-48.32181167602539,3.58500599861145,16.04621124267578,-1.1271260976791382,-1.0654404163360596,0.019273381680250168,,,,,,,,,
1739373919.091684,0.13352963661135475,0.9744669297231134,0.21324776413000077,-1.5596073006030338,-1.4599306095018254,1.2741401950198479,0.20497516318442854,0.0014395789965923125,0.0011845118632475712,0.00025523358705469533,-0.0007247943338938161,0.0009892364995586237,0.00012362908226946535,-0.0024950846755678905,-0.1317865550518036,-48.34958267211914,3.5572350025177,16.12158966064453,-1.1399434804916382,-1.0654404163360596,0.06596527993679047,,,,,,,,,
1739373919.1026576,0.13352284524205693,0.9744659963150316,0.21324591667350473,-1.5596034238914165,-1.459932903707178,1.2741378138331152,0.20497683905878494,-0.001246378435920713,-0.0014545077195931913,-0.0003514825413027447,0.0013302778969202377,-0.00040998868322282783,0.0007458549804520319,-0.002053371312636375,-0.08021184056997299,-48.34958267211914,3.58500599861145,16.07001495361328,-1.1335347890853882,-1.0452988147735596,0.012864691205322742,,,,,,,,,
1739373919.1137002,0.13352294827484673,0.9744715204082232,0.21324460637447565,-1.5596052024986673,-1.4599310864298065,1.2741346348635467,0.20497986731747053,-2.5940233049254224e-05,0.0007874294472166076,-0.000822395614461778,-0.0003543296659767435,0.0006582521968422701,-0.0002990318699261771,-0.0014180286266603872,-0.08021184056997299,-48.42496109008789,3.60880970954895,16.09381866455078,-1.1399434804916382,-1.0452988147735596,-0.0008682189509272575,,,,,,,,,
1739373919.123765,0.13352511258281288,0.9744737263526546,0.2132441689466977,-1.5596038533779004,-1.4599316736581245,1.2741362984398321,0.20498110473419492,-0.0012646879183890662,0.0012069013329924702,-0.0007095673795689412,0.0007399748610745799,-0.0002633749672402788,-0.0004311416327995327,-0.0005554619241889205,-0.10798283666372299,-48.45273208618164,3.60880970954895,16.04621124267578,-1.1399434804916382,-1.0324814319610596,0.012864691205322742,,,,,,,,,
1739373919.134642,0.1335250793927187,0.974467706271346,0.21324850707637008,-1.559606265242866,-1.4599312801627036,1.274137056117855,0.20498290820774007,0.000512089839426948,-0.0006716647618194107,0.000338913684155238,-0.0010575191129414661,-0.0008282614888250534,0.0003966428545934454,0.0003945614766192954,-0.10798283666372299,-48.37338638305664,3.5572350025177,16.09381866455078,-1.1472676992416382,-1.0388901233673096,-0.0008682189509272575,,,,,,,,,
1739373919.1446762,0.13352139258137455,0.9744742234665522,0.21324855329314152,-1.5596051947037746,-1.4599339480978912,1.2741386796751664,0.20497313282328233,-0.0008749093352262932,0.0013370446229258796,0.00087525673636249,-0.000210325866252885,-4.486377618166974e-05,-0.00011042361971284068,-0.0014308264879505453,-0.05640812963247299,-48.42496109008789,3.58500599861145,16.09381866455078,-1.1207174062728882,-1.0526230335235596,0.04673920199275017,,,,,,,,,
1739373919.1546798,0.13352938839870407,0.9744677059926077,0.21324696885314426,-1.5596017104033606,-1.4599336613801173,1.2741417103154797,0.20497907888215874,0.000738370385221022,-0.0004376494319226503,0.0015037032022255372,0.0006397368064705718,-0.0014240419496923708,-2.6250064921551412e-05,3.016436710607845e-05,-0.1317865550518036,-48.37338638305664,3.60880970954895,16.04621124267578,-1.1271260976791382,-1.0782577991485596,0.03300629183650017,,,,,,,,,
1739373919.164703,0.1335266432319513,0.9744662284977341,0.21324576017556587,-1.5596017104047333,-1.4599278677850451,1.274140194995323,0.20497715563802585,0.0005435876693843485,-0.00047235531406697467,-0.0009071188270251011,0.0011107297368161755,0.00021543832265968983,-0.0010322962804429256,-0.0008947456081928139,-0.1317865550518036,-48.34958267211914,3.58500599861145,16.04621124267578,-1.1399434804916382,-1.0654404163360596,0.012864691205322742,,,,,,,,,
1739373919.1756403,0.13352484026143263,0.9744639954848126,0.21324611112247827,-1.5596084119863034,-1.4599305089200052,1.2741426957776734,0.20497683968458189,-0.0009152404102007077,-0.000913497819530299,-0.0009896891488001798,-0.0023335733633160984,-0.00026897256688326697,0.0005279514476610031,-0.0015582838297447889,-0.10798283666372299,-48.32181167602539,3.60880970954895,16.09381866455078,-1.1536763906478882,-1.0590317249298096,0.012864691205322742,,,,,,,,,
1739373919.1857042,0.13352751037099725,0.974463995590483,0.213250514332539,-1.5596042675325297,-1.459933655412156,1.274137934514125,0.20498221125387114,0.0016585453135801263,-0.0007438459033027462,0.001121120022891279,-0.00025554959843801517,-0.000537009170118184,-0.00017840831232631964,0.001739256038542648,-0.1317865550518036,-48.32181167602539,3.5334312915802,16.09381866455078,-1.1271260976791382,-1.0452988147735596,0.0064559997990727425,,,,,,,,,
1739373919.196671,0.1335228423254746,0.9744660194247193,0.21324568182406767,-1.5596051932995119,-1.4599313687789208,1.2741378271876165,0.2049743014062119,-0.0007962189723345001,-0.0001100704163343132,0.0002428021882962037,0.0009818427466603457,0.0004001350358662008,0.0010291334547831315,-0.00026134957693606925,-0.08021184056997299,-48.34958267211914,3.58500599861145,16.09381866455078,-1.1335347890853882,-1.0452988147735596,0.07328949868679047,,,,,,,,,
1739373919.206698,0.13352727027175076,0.9744677059455102,0.21324569045915637,-1.5596016293436847,-1.4599289106753777,1.2741355407979258,0.2049772506462552,0.0007152187200796795,-0.0005132022161398887,-0.000634809382288111,0.0010535056193482202,0.0018297436093358595,1.4173934772643542e-05,0.0005851792062307731,-0.1317865550518036,-48.37338638305664,3.58500599861145,16.04621124267578,-1.1271260976791382,-1.0260727405548096,0.03941498324275017,,,,,,,,,
1739373919.217712,0.13352484902162834,0.9744697038859229,0.2132456891632203,-1.5596083445428415,-1.4599324131551055,1.2741355406361932,0.20498113627731074,-0.001286900379603793,-4.291512309755055e-05,-0.0006399914512687875,-0.0009405348090851223,-0.00020749735264874257,-0.0007375169409583363,0.0003888277804575534,-0.10798283666372299,-48.40115737915039,3.58500599861145,16.12158966064453,-1.1335347890853882,-1.0260727405548096,0.0064559997990727425,,,,,,,,,
1739373919.2286646,0.13352837028563644,0.9744706408982466,0.21325048815744474,-1.5596035186325503,-1.4599284569008073,1.2741370117202833,0.20498021833530397,0.000227849606971795,0.0006215485693151499,0.0015241670709992903,0.0002000257398781088,0.0016807720800728623,-0.0003234677011787555,-0.0003859985437147999,-0.1555902659893036,-48.40115737915039,3.5334312915802,16.07001495361328,-1.1399434804916382,-1.0654404163360596,0.012864691205322742,,,,,,,,,
1739373919.2387533,0.13352678931780212,0.9744697818923524,0.21324804641807432,-1.559607419071658,-1.4599314889182828,1.2741401949773534,0.2049814596780857,0.0003874030012192182,-0.00011297812892149757,-0.0011232338719265617,-0.00033243608495212517,0.0003292079348216996,0.00060402645568934,0.001131845763816694,-0.1317865550518036,-48.40115737915039,3.58500599861145,16.09381866455078,-1.1335347890853882,-1.0654404163360596,0.012864691205322742,,,,,,,,,
1739373919.249672,0.13352655289153137,0.9744640744480431,0.2132456804638531,-1.5596055240740068,-1.4599265690448642,1.2741393195976745,0.20498296330633922,0.0001624308043039775,-0.00025183825350019013,-0.0018179322851529513,0.0004424342780101088,-0.0005188162013177959,-0.0007505824939656059,0.0034174602683722344,-0.1317865550518036,-48.32181167602539,3.58500599861145,16.09381866455078,-1.1472676992416382,-1.0590317249298096,-0.0008682189509272575,,,,,,,,,
1739373919.260689,0.1335265527821911,0.9744622829640918,0.2132459287222633,-1.5596016677876152,-1.4599277896980656,1.2741394373332506,0.20497916193128843,-0.0015800050917608654,-0.0005050930567349147,-0.000566973949318719,0.0008428414162032368,-1.640660084229644e-07,-0.0003944225450638188,-0.000383203388395967,-0.1317865550518036,-48.29800796508789,3.58500599861145,16.04621124267578,-1.1399434804916382,-1.0590317249298096,-0.0072769103571772575,,,,,,,,,
1739373919.2707474,0.13352284624431818,0.9744677146118632,0.21324576304114315,-1.5596072772387823,-1.4599281355202636,1.2741394378318742,0.2049744578151265,-0.0006239741253594357,-0.0005415305190735809,-0.00018813339607373105,-0.0017050444910722603,0.0008222558050394527,0.00013862014049006055,-0.001478887943238607,-0.08021184056997299,-48.37338638305664,3.58500599861145,16.12158966064453,-1.1335347890853882,-1.0590317249298096,0.03300629183650017,,,,,,,,,
1739373919.2817051,0.13352568689672498,0.97446840920301,0.21324851627904162,-1.5596038532271332,-1.45992965067659,1.2741378137779367,0.20497344605773912,1.9779349774919465e-05,-0.00011792104125841498,0.0018462405161211992,0.00045172107701330804,0.0009586885041795072,-0.0005565229833349939,-0.003151917276890317,-0.08021184056997299,-48.37338638305664,3.58500599861145,16.04621124267578,-1.1207174062728882,-1.0452988147735596,0.05314789339900017,,,,,,,,,
1739373919.2926795,0.1335255498820405,0.9744659972802168,0.2132484692493829,-1.5596052055634604,-1.4599320725769211,1.274137813777934,0.20497864309776137,-0.00047605669262700716,-0.0007268248085457488,0.0008755107247369423,-0.0005584564198866836,-0.0005949298674808355,0.00016184021189842552,-0.0007149700402713675,-0.10798283666372299,-48.34958267211914,3.5572350025177,16.09381866455078,-1.1271260976791382,-1.0452988147735596,-0.0008682189509272575,,,,,,,,,
1739373919.302734,0.13352508620455647,0.9744689972970442,0.2132456920912431,-1.5596061945466932,-1.4599282944932777,1.274137813777934,0.20498129709490062,-4.131199086183132e-05,-0.001205922521378772,-0.0002320256754179122,0.0004972726417184675,0.00026998364368214763,0.0007277137076544523,0.0011053613151788978,-0.10798283666372299,-48.40115737915039,3.58500599861145,16.09381866455078,-1.1335347890853882,-1.0452988147735596,0.012864691205322742,,,,,,,,,
1739373919.3136823,0.13352720575652197,0.9744661798324112,0.2132446063705405,-1.559606628975309,-1.4599288973780598,1.2741386273473574,0.20497556696645766,-0.00017657830197958396,5.3149768289749476e-05,-1.6803762556928756e-05,-0.0012266972750230496,0.00062618671298276,-0.00019115675126625867,-0.0008699987377036561,-0.10798283666372299,-48.32181167602539,3.60880970954895,16.07001495361328,-1.1271260976791382,-1.0526230335235596,0.026597600430250168,,,,,,,,,
1739373919.3237133,0.1335269676040681,0.9744705921312422,0.21324666026471623,-1.5596034152407163,-1.4599288944701347,1.2741401949944369,0.20498104747476734,0.000676627074290196,0.0004521458237319309,0.0006023518242401744,0.00032344174687670436,-0.0011798889900704876,0.0005463725720274122,0.00012723880417502725,-0.10798283666372299,-48.37338638305664,3.58500599861145,16.07001495361328,-1.1271260976791382,-1.0654404163360596,0.012864691205322742,,,,,,,,,
1739373919.3346963,0.1335279121319975,0.9744660194766771,0.2132459176030873,-1.5596054690795842,-1.4599288930165188,1.2741378152678229,0.20498170395798238,0.000725852240378428,-0.0009188130282399591,-0.00015937781472412764,0.00040529085286804365,0.0012159599927883086,-4.0032661618749186e-05,0.0004394903668774596,-0.10798283666372299,-48.34958267211914,3.58500599861145,16.09381866455078,-1.1271260976791382,-1.0452988147735596,0.0064559997990727425,,,,,,,,,
1739373919.3456798,0.1335269749258154,0.9744640041860918,0.21324785157949147,-1.5596051977517358,-1.459927416996046,1.2741401949953315,0.2049800324213568,0.0020078396041975565,-0.0018833075919913863,0.0016590724532042416,-0.0003844701544071222,-0.0008204632516272242,0.00039994056002513217,-0.0012349528426888363,-0.10798283666372299,-48.32181167602539,3.5572350025177,16.09381866455078,-1.1399434804916382,-1.0654404163360596,0.012864691205322742,,,,,,,,,
1739373919.3557308,0.13352700507853885,0.9744639954836329,0.21324493006857712,-1.5596094983710784,-1.4599259648461804,1.2741394376703685,0.20498164252281656,0.00015250967807605437,-0.0020820731991274214,-0.00016340970873061965,-0.001227967224196326,0.0007943974868813847,-0.0005936352827984487,-0.0017668277497805932,-0.10798283666372299,-48.32181167602539,3.60880970954895,16.12158966064453,-1.1399434804916382,-1.0590317249298096,-0.0008682189509272575,,,,,,,,,
1739373919.3657427,0.1335257851415821,0.974465993745331,0.21324393285718724,-1.5596034107017422,-1.4599296898985188,1.2741394373352501,0.2049758955547435,-0.00019339126050476593,-0.0008772462810700849,-0.0019546983038080806,0.0003291630497186811,-7.796154046680915e-05,-3.731817198700352e-05,-0.0026672673560321643,-0.10798283666372299,-48.34958267211914,3.60880970954895,16.07001495361328,-1.1207174062728882,-1.0590317249298096,0.04673920199275017,,,,,,,,,
1739373919.3767161,0.13352941489727035,0.9744677146475309,0.21324704732567623,-1.5596041798828482,-1.4599281372947206,1.2741370561178555,0.20498142045600562,0.001834906605787591,0.0007830536373283549,0.0008052700835880788,0.0008639591824514379,0.00020086880857450283,0.0005724554695568638,-1.5641909161074463e-05,-0.1317865550518036,-48.37338638305664,3.60880970954895,16.07001495361328,-1.1335347890853882,-1.0388901233673096,0.012864691205322742,,,,,,,,,
1739373919.3877048,0.13352726146365843,0.9744677060522147,0.2132456804678332,-1.559607418707229,-1.4599288949546105,1.274137813777934,0.20498487647782052,-2.907136461737463e-06,-0.00021736243447272166,-0.0008996962509673285,-0.0009239890784315356,0.0005664104289892802,-0.0009423921330088242,0.0019249938737335123,-0.1317865550518036,-48.37338638305664,3.58500599861145,16.09381866455078,-1.1271260976791382,-1.0452988147735596,-0.020094294100999832,,,,,,,,,
1739373919.3986435,0.13352720238425297,0.9744684078218644,0.21324389774947644,-1.5596041004801944,-1.4599328300754975,1.2741374082374153,0.20497733189664705,-0.00034879896709539117,0.00025160761094566867,-0.0017152067062245634,0.0009147515500780515,-0.0008154458923878137,-0.00029242704635722855,0.0007282215424514809,-0.10798283666372299,-48.37338638305664,3.60880970954895,16.04621124267578,-1.1207174062728882,-1.0452988147735596,0.019273381680250168,,,,,,,,,
1739373919.408725,0.13352137004659398,0.9744668973385584,0.21324591662549452,-1.559603658407042,-1.4599293667288396,1.2741359441450493,0.20497602722427863,-0.0018999370646519994,-4.3948544238455714e-05,-0.0002098405548059662,0.00021774464637806288,-0.00038349861165576886,-0.0007074638228378279,-0.0009220542134599826,-0.05640812963247299,-48.34958267211914,3.58500599861145,16.07001495361328,-1.1335347890853882,-1.0388901233673096,0.019273381680250168,,,,,,,,,
1739373919.4196525,0.1335250764732779,0.9744687605167057,0.21325240376837215,-1.5596064600685173,-1.4599272614192855,1.2741386796688892,0.2049768219141831,0.00017563866132886384,0.0011271554200190377,0.0010581404060524353,-0.0015543929801935612,0.0008155013172306336,0.00016535296424054132,0.00057881414064734,-0.10798283666372299,-48.34958267211914,3.5334312915802,16.07001495361328,-1.1399434804916382,-1.0526230335235596,0.012864691205322742,,,,,,,,,
1739373919.42972,0.1335287587262693,0.9744660715660616,0.2132439007990089,-1.5596075001712266,-1.4599291993493049,1.2741393195976742,0.2049759393547016,0.0017069478967348662,-0.00047910266609321967,-0.0006314195003716304,-0.00045766885439641847,-0.0003429060329922018,0.00017408379685608817,0.0010828466858763155,-0.1317865550518036,-48.34958267211914,3.60880970954895,16.09381866455078,-1.1335347890853882,-1.0590317249298096,0.05955658480525017,,,,,,,,,
1739373919.440727,0.13352484027707368,0.9744697857747839,0.21324776024035824,-1.5596034107186445,-1.4599290112405996,1.2741402009546574,0.20497658463626167,-0.0006195743509856376,0.0003061752511668307,0.0013900337471556034,0.00047741196326142376,-0.0007982715191592256,-0.0007703733350643309,0.0014442399316508066,-0.10798283666372299,-48.40115737915039,3.5572350025177,16.07001495361328,-1.1271260976791382,-1.0654404163360596,0.026597600430250168,,,,,,,,,
1739373919.4516575,0.13352655569837452,0.9744684143490743,0.21324881294720077,-1.559605220776838,-1.4599265510456456,1.2741401949953566,0.20497978388805344,-0.00036581025512725975,0.0020462410404501656,0.0019067124638970873,4.9677261113366205e-06,0.0006346696938515205,0.00028376642377977247,0.00025452025303465036,-0.1317865550518036,-48.34958267211914,3.5572350025177,16.09381866455078,-1.1472676992416382,-1.0654404163360596,0.026597600430250168,,,,,,,,,
1739373919.461674,0.13352586384197,0.9744677059860685,0.21324211648237398,-1.5596034106645222,-1.4599281920455565,1.2741386796751664,0.20497792781915758,-6.871219561365626e-05,0.000281946639226526,-0.0009444663052007585,0.0005402741924754694,0.00021835426512666653,2.5902634768968952e-05,0.0019856569782681858,-0.10798283666372299,-48.37338638305664,3.63261342048645,16.07001495361328,-1.1335347890853882,-1.0526230335235596,0.04673920199275017,,,,,,,,,
1739373919.471696,0.1335257893691915,0.9744678099465921,0.21324568041456687,-1.559604482075944,-1.459927514817474,1.2741410721651816,0.20498141485495938,0.0006801037886777242,0.0004021164438460113,-0.0003825670844323926,0.0007628888717274287,0.0006960436302575489,0.0008827557717872459,0.00030003306546051505,-0.10798283666372299,-48.37338638305664,3.58500599861145,16.07001495361328,-1.1399434804916382,-1.0452988147735596,0.012864691205322742,,,,,,,,,
1739373919.4817388,0.13353133606198933,0.9744659934261,0.21324571929696373,-1.5596072731490767,-1.4599274171060386,1.2741362985129583,0.20497967865009983,0.001981366827940622,-0.0006163571487409447,0.0005311449046248426,-0.0014371470116749778,-3.452881199933559e-05,0.0002100969630430568,6.618756999459557e-05,-0.1555902659893036,-48.34958267211914,3.58500599861145,16.12158966064453,-1.1399434804916382,-1.0324814319610596,0.026597600430250168,,,,,,,,,
1739373919.4927306,0.1335304028844371,0.9744684089183075,0.21324776895297892,-1.5596053032294754,-1.459927382075024,1.2741355407976989,0.20498145576638163,0.0017040637370245159,-0.00024885568195578647,8.143291155687945e-06,-0.0012011408659377664,-0.00023172838835058696,-7.878747300845443e-05,0.0008599337978024064,-0.1555902659893036,-48.37338638305664,3.5572350025177,16.09381866455078,-1.1399434804916382,-1.0260727405548096,0.012864691205322742,,,,,,,,,
1739373919.5046945,0.133525679924326,0.9744697038898912,0.21324390112173988,-1.5596016310401144,-1.4599281351411162,1.2741386796751664,0.2049775027534408,6.695049207937126e-06,0.0012388506917140663,-0.0005247016125156023,0.0018745273742676646,0.0003620564163842818,-0.00032406794481782173,0.0005375367371192013,-0.08021184056997299,-48.40115737915039,3.60880970954895,16.04621124267578,-1.1335347890853882,-1.0526230335235596,0.019273381680250168,,,,,,,,,
1739373919.5157082,0.1335250599342291,0.9744677319811157,0.21324568430274793,-1.5596044034025427,-1.4599288930165104,1.274137813777934,0.20498154355128692,-0.00014762002926277525,0.0001980581005608139,-0.0005706751048546585,-0.0002966525202504646,0.00016895375517632347,-0.0005932706697387808,6.794504433414166e-05,-0.08021184056997299,-48.37338638305664,3.58500599861145,16.07001495361328,-1.1271260976791382,-1.0452988147735596,-0.0008682189509272575,,,,,,,,,
1739373919.5257125,0.13352962755899417,0.974468099562559,0.21324662525855914,-1.5596101363940162,-1.4599225752246552,1.2741380186702045,0.20497679434111507,0.0019204106767851561,0.0007731654801198461,0.000568166455844558,-0.0016863446514447699,0.0017508065149931767,-0.0006298964385305398,-0.0010252041697927786,-0.1317865550518036,-48.34958267211914,3.58500599861145,16.14539337158203,-1.1536763906478882,-1.0590317249298096,0.012864691205322742,,,,,,,,,
1739373919.5366364,0.1335248766765906,0.9744643920013543,0.21324392820074337,-1.559602369739829,-1.4599286062887669,1.2741386796671579,0.20498170247133837,0.00035529447676152504,-0.0014638396062786677,-0.0015176778967198636,-0.0002796408598169589,-0.0010870999802063317,-0.00025102229618987205,0.0011800561728748202,-0.10798283666372299,-48.29800796508789,3.60880970954895,16.04621124267578,-1.1335347890853882,-1.0526230335235596,0.0064559997990727425,,,,,,,,,
1739373919.5466654,0.13352284653295315,0.9744697040286371,0.21324642706642374,-1.5596044851409612,-1.45992965084607,1.274137809417283,0.20497983221880778,-0.0011199256422688955,0.0015313891170921834,-0.0001714721146056992,0.00010489295702614723,0.0003554215673112687,-0.000412891798398026,0.0005226123355221712,-0.08021184056997299,-48.40115737915039,3.58500599861145,16.07001495361328,-1.1207174062728882,-1.0452988147735596,0.026597600430250168,,,,,,,,,
1739373919.5567417,0.13352505602885603,0.9744649314971737,0.21324871415885882,-1.5596073647591868,-1.4599280961105843,1.2741378137777124,0.2049830832421833,-0.0008046689217766088,-0.0003355750004469662,0.0015200744804166426,-0.001281215806992174,0.00037779462016437155,0.0002595240641216892,0.002136210080627193,-0.08021184056997299,-48.32181167602539,3.5572350025177,16.12158966064453,-1.1335347890853882,-1.0452988147735596,-0.0008682189509272575,,,,,,,,,
1739373919.5677087,0.13352325711859017,0.9744623791105838,0.21324780635128895,-1.5596051937934647,-1.4599273777501154,1.2741366605008049,0.20497586988372346,-0.0018777641564787346,-0.00044197809549100463,-5.381227217907425e-05,-0.0003031443722122881,0.00145384984114143,0.0001294050042324084,-3.9795513421790564e-05,-0.05640812963247299,-48.29800796508789,3.58500599861145,16.09381866455078,-1.1399434804916382,-1.0324814319610596,0.04673920199275017,,,,,,,,,
1739373919.5788407,0.1335279124440332,0.9744609460978827,0.2132495462655848,-1.5596036583651778,-1.459927377696355,1.2741346348696772,0.20497830527476804,0.0002847247197834559,-0.001796747581342759,0.000830419927020779,0.00023876826468101814,0.00036821018044930253,-0.00042175189466469876,0.0010283599264699487,-0.10798283666372299,-48.29800796508789,3.5334312915802,16.07001495361328,-1.1399434804916382,-1.0452988147735596,-0.0008682189509272575,,,,,,,,,
1739373919.5897279,0.1335251673114706,0.974467940956506,0.21324413405648848,-1.5596072728043495,-1.459926764555359,1.2741394373292627,0.20497693998178868,-0.00035047034649693767,6.765947321969055e-05,-0.0004400769972861875,0.00031335395389097103,3.554255192546015e-05,0.0008005832327653035,-0.00020838211166343025,-0.10798283666372299,-48.37338638305664,3.60880970954895,16.12158966064453,-1.1472676992416382,-1.0590317249298096,0.04673920199275017,,,,,,,,,
1739373919.600634,0.13352386622693432,0.9744622833207393,0.21324783302852202,-1.5596061823366623,-1.4599281353578593,1.2741385561233953,0.20497523054970848,-0.0007395996181020051,-0.0019672683429520148,-0.00030673372395824427,-0.0006565708224254227,-0.00035670001323175174,-0.00021456377706978582,-0.0005864242678281083,-0.08021184056997299,-48.29800796508789,3.58500599861145,16.09381866455078,-1.1335347890853882,-1.0526230335235596,0.05314789339900017,,,,,,,,,
1739373919.6107612,0.13352800250306687,0.9744677059450759,0.21324570680462285,-1.559603419838173,-1.4599282529324968,1.274139437333152,0.20497818947077748,0.001639692795945914,0.001450456563241644,-0.0015043550356426112,0.0004704106889046153,0.00020982023615332375,0.0009637498713156087,0.00165292139083564,-0.10798283666372299,-48.37338638305664,3.58500599861145,16.07001495361328,-1.1335347890853882,-1.0590317249298096,0.03941498324275017,,,,,,,,,
1739373919.62163,0.13353242164068663,0.9744701239804121,0.2132477731653222,-1.5596072762964934,-1.4599281351955904,1.2741394329745936,0.2049731902996648,0.0018777457594972107,0.000985750083362462,0.00011901906443370576,-0.0009133161627018879,-0.0008337532733192615,0.00016129783146913803,-0.00046471918010752616,-0.1793939769268036,-48.37338638305664,3.5572350025177,16.12158966064453,-1.1335347890853882,-1.0590317249298096,0.04673920199275017,,,,,,,,,
1739373919.6316557,0.13352316162972913,0.974465278209551,0.2132463385846916,-1.559605524476027,-1.4599241987819633,1.27413781377786,0.20498272240207488,-0.0004841876430135945,-0.001366172135739325,-0.00010484497858629868,0.0002948917458537463,0.0009367021784378092,-0.00040284653471358406,0.0018791562675522697,-0.08021184056997299,-48.34958267211914,3.60880970954895,16.09381866455078,-1.1399434804916382,-1.0452988147735596,-0.0072769103571772575,,,,,,,,,
1739373919.641676,0.133530391207325,0.9744659904687871,0.21324602367780854,-1.5596059655749328,-1.4599288929626757,1.2741394373352446,0.20498015358086363,0.001631513951468149,-0.0009611058885216245,0.0003793952325517691,-0.0005849594943609535,-5.453023044137053e-05,0.00017485090347145392,-0.000869516460277325,-0.1555902659893036,-48.34958267211914,3.60880970954895,16.07001495361328,-1.1271260976791382,-1.0590317249298096,-0.0072769103571772575,,,,,,,,,
1739373919.6526864,0.13352554987798357,0.9744684166577731,0.21324568139855737,-1.5596063787204122,-1.4599285398038007,1.274137813777934,0.2049784610785075,-0.0007002837174875247,0.0006282425130579028,-0.0004998297906920892,-0.0007136998394997685,-0.0006164284099851983,-0.0005734120498039814,-0.0010703047450395264,-0.10798283666372299,-48.37338638305664,3.58500599861145,16.07001495361328,-1.1271260976791382,-1.0452988147735596,-0.0008682189509272575,,,,,,,,,
1739373919.6647017,0.13352284264809539,0.974471416410666,0.21324788616656795,-1.5596034930971114,-1.4599273772098433,1.274137813777934,0.20498134758655276,-0.0014586660071358296,0.0005396294319684855,0.0009305249255196882,0.0004376590282235477,0.0010427730804163928,0.00035875129472634243,0.0009996792995524304,-0.08021184056997299,-48.42496109008789,3.58500599861145,16.07001495361328,-1.1399434804916382,-1.0452988147735596,-0.013685601763427258,,,,,,,,,
1739373919.674913,0.13352659101661904,0.97446773194545,0.21324211510891034,-1.5596051936807038,-1.459928893016508,1.2741386796751664,0.20498272661198624,-0.0008301216830998154,-0.0002665094987232476,-0.001037697018836701,-0.0007948112386296453,-0.0007341065973553017,0.0006491161957632088,0.001061968618090236,-0.1317865550518036,-48.37338638305664,3.63261342048645,16.09381866455078,-1.1271260976791382,-1.0526230335235596,-0.0008682189509272575,,,,,,,,,
1739373919.6857138,0.13352875774242257,0.9744686718111857,0.21324991627326328,-1.559603521004674,-1.459926511637616,1.2741362984577773,0.204977371549193,0.0007574311054652553,0.0006575395004107089,0.0012730600238019453,0.0008952543130345536,-0.00031235512007342196,0.00030864782320267947,-0.0017210254503172216,-0.1317865550518036,-48.37338638305664,3.5572350025177,16.07001495361328,-1.1472676992416382,-1.0324814319610596,0.019273381680250168,,,,,,,,,
1739373919.6966357,0.1335265881377732,0.9744677319618069,0.21324662918325343,-1.5596051933429453,-1.4599288928550025,1.2741394373352446,0.20498303816934352,0.00013660005946550038,0.0015107697922142997,0.0017061844384591858,-4.4084271394243674e-05,-0.0005849100900050337,-0.0002106745204222025,0.0012575234027746936,-0.1317865550518036,-48.37338638305664,3.58500599861145,16.09381866455078,-1.1271260976791382,-1.0590317249298096,-0.0008682189509272575,,,,,,,,,
1739373919.7067177,0.1335235610339077,0.9744639954836324,0.21324421269083096,-1.5596034106640577,-1.4599273776963533,1.2741394373352446,0.20496988602097094,-0.00048064571142038607,-0.001617716843795781,-0.002395308809589003,0.0004095417064907069,-0.0007079731106418197,0.0008680764409885128,-0.002975364039812381,-0.08021184056997299,-48.32181167602539,3.60880970954895,16.07001495361328,-1.1399434804916382,-1.0590317249298096,0.07969819009304047,,,,,,,,,
1739373919.717814,0.13352555311836,0.9744680221225307,0.2132456833360136,-1.5596095075283705,-1.4599263180582247,1.2741372992211468,0.20498529960533446,0.00011136745658188885,-3.1740753032817354e-05,-0.00043457116485823505,-0.0010142124766513302,-0.0005881789407976119,-0.0019320935660886393,0.003749688190118554,-0.10798283666372299,-48.37338638305664,3.58500599861145,16.12158966064453,-1.1399434804916382,-1.0452988147735596,-0.020094294100999832,,,,,,,,,
1739373919.728739,0.13352696908012832,0.9744684079927812,0.21324780631350812,-1.559603411694156,-1.4599281309898,1.2741394373323398,0.20498028812170346,0.0001306173404168835,0.001620590876521597,0.0008956723309852017,6.0090150056811014e-05,-0.000248503904023401,0.00025993988667294063,0.0008863957272750307,-0.10798283666372299,-48.37338638305664,3.58500599861145,16.07001495361328,-1.1335347890853882,-1.0590317249298096,0.04673920199275017,,,,,,,,,
1739373919.7387617,0.13352658908451098,0.9744666964015394,0.21324780664951298,-1.5596038939265227,-1.4599248387044497,1.2741386794598255,0.20498308374594246,0.00020217304053988324,0.0001896407601307767,0.00031686732280954887,0.0005271151624270077,0.0002337778938540348,-0.00014476765543140445,0.0015592257043317423,-0.1317865550518036,-48.34958267211914,3.58500599861145,16.04621124267578,-1.1335347890853882,-1.0526230335235596,-0.0008682189509272575,,,,,,,,,
1739373919.750675,0.13352800280995242,0.9744677062700305,0.21324392511121576,-1.5596046069070497,-1.4599323907945911,1.2741370561178542,0.20498066155889458,0.0006890675123599389,-8.498136038434919e-05,-0.0007098402012142176,-0.000204479422306335,-0.0022492713112998008,-8.78958399418596e-05,0.0005292728920031866,-0.10798283666372299,-48.37338638305664,3.60880970954895,16.04621124267578,-1.1335347890853882,-1.0388901233673096,0.019273381680250168,,,,,,,,,
1739373919.7616246,0.13352727016969468,0.9744697357166551,0.2132477864620691,-1.559603866811746,-1.4599273776864163,1.2741370168719988,0.20497483432580654,-5.684254999830003e-05,0.0012657419038154525,0.00020296930741193423,0.0005935569196503136,7.53440562728661e-05,-0.00027460492889261215,-0.0006002163775193165,-0.1317865550518036,-48.40115737915039,3.5572350025177,16.04621124267578,-1.1399434804916382,-1.0388901233673096,0.05955658480525017,,,,,,,,,
1739373919.7716844,0.13352768484970493,0.9744728252160343,0.21324601577623514,-1.5596051933789914,-1.459928124212547,1.2741378137772692,0.20497586065223386,0.0009727059536536025,0.0021732212937169188,-6.803219874801527e-05,0.0007614742806480571,-0.0007881931164929559,0.0008691457868879261,-7.660686175272336e-05,-0.10798283666372299,-48.40115737915039,3.58500599861145,16.09381866455078,-1.1335347890853882,-1.0452988147735596,0.03300629183650017,,,,,,,,,
1739373919.782701,0.13352579725374894,0.9744677063906797,0.21324098011649276,-1.5596051923599306,-1.4599263180581619,1.2741386796751664,0.20497987612083882,5.183884822672424e-05,0.00026751462990754035,-0.0020490986668102694,-0.000744601974992255,-0.00014127865475622255,0.0006068868346282395,-0.0011912381026747117,-0.10798283666372299,-48.37338638305664,3.6603844165802,16.09381866455078,-1.1399434804916382,-1.0526230335235596,0.012864691205322742,,,,,,,,,
1739373919.7927103,0.133527307369792,0.9744661024772522,0.213248519282766,-1.559603523604895,-1.4599279652731085,1.2741386796751664,0.20497870384393255,0.0011316638155773454,-0.00010213315052360521,0.000970303902832781,-6.237483413345948e-05,0.00040715081796837793,0.0006029362034290323,0.000659049980021592,-0.10798283666372299,-48.32181167602539,3.58500599861145,16.07001495361328,-1.1335347890853882,-1.0526230335235596,0.03300629183650017,,,,,,,,,
1739373919.8036723,0.13352939024429733,0.974469703897817,0.21324568154659101,-1.5596072732823083,-1.459924956441084,1.2741392672698657,0.2049786473393895,0.0018692923163043905,0.00042190131369434624,-0.0002888337381429534,-0.0007751724097661155,-1.5711109183102513e-05,-0.0004437978125049786,0.0005505355694829447,-0.1317865550518036,-48.40115737915039,3.58500599861145,16.12158966064453,-1.1335347890853882,-1.0590317249298096,-0.0008682189509272575,,,,,,,,,
1739373919.8147395,0.13352767592103928,0.9744642304498831,0.21324792296091805,-1.559603657912957,-1.4599288932856866,1.274140194992443,0.2049786453703681,0.0007147236264709602,-0.001043190352538163,0.0007980807607884846,0.00039626855178818954,-0.0007476630361526106,0.0005723757569579456,-0.0007205922161817855,-0.10798283666372299,-48.32181167602539,3.58500599861145,16.07001495361328,-1.1271260976791382,-1.0654404163360596,-0.0008682189509272575,,,,,,,,,
1739373919.825723,0.1335279153775309,0.9744681862304936,0.21324575916771504,-1.5596073006411817,-1.4599281347104105,1.2741394373352446,0.2049806571445809,0.0017135272616426393,0.0007693997901259231,-0.0003614547896426512,-0.001282641411971844,-0.00026484390178165246,0.0005586536925338133,0.0006495848867247519,-0.10798283666372299,-48.34958267211914,3.58500599861145,16.12158966064453,-1.1335347890853882,-1.0590317249298096,0.019273381680250168,,,,,,,,,
1739373919.8366416,0.1335251581424659,0.9744680439623887,0.21324570666060583,-1.5596076027962833,-1.4599291948330524,1.2741394373352446,0.20497855218984254,-0.00025239112141404096,0.00175526077860525,-0.000627609528939384,-0.0009674394580279058,-0.0009374382343466455,-0.00010197628368749064,-0.0005561918795180117,-0.10798283666372299,-48.37338638305664,3.58500599861145,16.12158966064453,-1.1335347890853882,-1.0590317249298096,0.03300629183650017,,,,,,,,,
1739373919.846735,0.1335235998135695,0.974465993430063,0.21324492131891862,-1.559601632401724,-1.4599288930344532,1.2741373428276543,0.20497545967465503,-0.001258124463333733,-0.0009397305329782322,-0.0002515773234330694,0.0017088892163698154,-0.0009860863290843094,-0.00036778651412045605,0.00010677429321088636,-0.05640812963247299,-48.34958267211914,3.60880970954895,16.04621124267578,-1.1271260976791382,-1.0452988147735596,0.05955658480525017,,,,,,,,,
1739373919.8576386,0.133525076485865,0.9744704087851147,0.2132479964571303,-1.559605303267185,-1.4599272076309755,1.2741376567918488,0.20498145805723408,-0.0007615097105529427,0.001311546031512829,0.000996399411214018,-0.0006181399136267495,0.0006221132642714068,-0.0004891117863640229,0.0023925937943736703,-0.10798283666372299,-48.40115737915039,3.5572350025177,16.09381866455078,-1.1399434804916382,-1.0452988147735596,0.012864691205322742,,,,,,,,,
1739373919.867721,0.13352721447168736,0.974465993864266,0.21324800559993382,-1.559605197412879,-1.459926722502713,1.2741378137752752,0.2049720758115423,0.0011684763253350001,-0.0011087002447411776,0.001052142104809777,0.0008804750970491933,0.00040395402129196324,9.444459371426881e-05,-0.0005965386988795224,-0.10798283666372299,-48.34958267211914,3.5572350025177,16.09381866455078,-1.1335347890853882,-1.0452988147735596,0.05314789339900017,,,,,,,,,
1739373919.8786333,0.13352830452281259,0.9744667329907063,0.21324787685314273,-1.5596051933410997,-1.4599273774730377,1.274137813777934,0.20497487232830103,0.0014951752385523956,-0.001012321299206912,0.0010815409825746995,-2.7933773660179464e-05,0.0009295097557968342,0.00025303571860333285,-0.001047668779826004,-0.1555902659893036,-48.34958267211914,3.5572350025177,16.09381866455078,-1.1399434804916382,-1.0452988147735596,0.05955658480525017,,,,,,,,,
1739373919.888642,0.13352696616058324,0.9744662274402836,0.2132456804164701,-1.559603448311009,-1.4599280176188585,1.2741367029051458,0.2049810472039618,5.007944887368526e-05,-6.248620121195644e-06,-0.0002213903731469995,0.00038390365663897583,0.00011616956073548848,-0.00022097678278525112,0.0009583201817628333,-0.10798283666372299,-48.34958267211914,3.58500599861145,16.07001495361328,-1.1335347890853882,-1.0388901233673096,0.012864691205322742,,,,,,,,,
1739373919.899627,0.13352734353640305,0.9744677088379641,0.2132446063704746,-1.5596018752365728,-1.4599272594722734,1.2741377614441434,0.20498296524952825,0.0007260832572336465,0.0009201241285462737,-0.0009890029127144948,0.0004962348186875663,-8.047562909953244e-05,-0.0004651992922843885,0.0025720714794137288,-0.1317865550518036,-48.37338638305664,3.60880970954895,16.04621124267578,-1.1399434804916382,-1.0452988147735596,-0.0008682189509272575,,,,,,,,,
1739373919.9097073,0.13352946735173127,0.9744660717464875,0.21324852758729332,-1.559605220814572,-1.459928134871248,1.2741377963350355,0.20497969912708755,0.0006369033788134794,-0.0008003260052860491,0.000447254767838942,-0.0006953901827382117,-0.0009119152732691503,-0.00026050580286322416,6.137568975684116e-05,-0.1317865550518036,-48.34958267211914,3.58500599861145,16.09381866455078,-1.1335347890853882,-1.0452988147735596,0.026597600430250168,,,,,,,,,
1739373919.9206722,0.1335248532742002,0.9744649578189809,0.21324390697013323,-1.5596056359042842,-1.4599273639145416,1.2741386796750678,0.2049772974327021,-0.0002103108528918867,-1.3393449224859892e-05,-0.0005124545026299927,0.0009626913034563647,-0.0006353145803979188,6.939403577044031e-06,0.00021789538509064748,-0.10798283666372299,-48.32181167602539,3.60880970954895,16.07001495361328,-1.1399434804916382,-1.0526230335235596,0.04673920199275017,,,,,,,,,
1739373919.9307113,0.1335265794601037,0.9744660022144267,0.2132508611894226,-1.5596072731686168,-1.459928017618629,1.274138666593214,0.20497441834772376,0.0004347559157448828,0.00044332468541450015,0.0013158628337732324,-0.0008624658515603316,-0.0003369845890772099,0.0003234317984674609,0.001466804096424339,-0.1317865550518036,-48.34958267211914,3.5572350025177,16.12158966064453,-1.1335347890853882,-1.0526230335235596,0.03300629183650017,,,,,,,,,
1739373919.940737,0.13352593963410722,0.9744677059455165,0.21324570714172822,-1.5596054416074607,-1.45992651179314,1.2741377963346663,0.20497652052236232,0.000379413747632947,0.00014571892254367977,0.00048010355163086247,0.0007417376319938175,-0.0005137895831367911,0.00011229981976751367,-0.001387534838061313,-0.08021184056997299,-48.37338638305664,3.58500599861145,16.09381866455078,-1.1472676992416382,-1.0452988147735596,0.05314789339900017,,,,,,,,,
1739373919.9507766,0.13352704523842393,0.9744660715324762,0.21324389806164704,-1.559604408931467,-1.4599263998757528,1.274137056117757,0.20498145962992387,0.00010302292609165154,-0.00114453776050615,-0.001602483856309847,-0.00019964506349319538,0.00014454381766763327,-0.000840428882157431,0.0008632288320614328,-0.10798283666372299,-48.34958267211914,3.60880970954895,16.07001495361328,-1.1472676992416382,-1.0388901233673096,0.012864691205322742,,,,,,,,,
1739373919.9616978,0.13352487656367368,0.9744698148652239,0.21324673226947338,-1.5596052313705098,-1.4599269066916074,1.2741362984577773,0.2049798785767281,0.00025548144823630165,-0.00029844212069679923,-0.00016917111376320109,-0.0003057025934136273,0.0005716507253844345,3.927285901168749e-05,-0.0005198087684758139,-0.10798283666372299,-48.37338638305664,3.60880970954895,16.09381866455078,-1.1399434804916382,-1.0324814319610596,0.012864691205322742,,,,,,,,,
1739373919.9736226,0.1335265527823942,0.9744706266663309,0.2132438977534766,-1.5596051948109921,-1.4599222595159709,1.2741370511111825,0.20497563076394543,0.0008027121331706339,0.0012650657640813734,-0.000886416772270527,0.0009699136329309942,0.0009830971261621327,0.0001552338770878112,-0.0011063415230179608,-0.1317865550518036,-48.37338638305664,3.60880970954895,16.09381866455078,-1.1472676992416382,-1.0388901233673096,0.05314789339900017,,,,,,,,,
1739373919.983738,0.13352515632499248,0.9744677059615574,0.21324568138655647,-1.5596056362432993,-1.4599262640375206,1.2741376960403357,0.20497907873265217,-2.6480437853681945e-05,-8.60202528134836e-05,4.7322925349026874e-05,0.00014113524031484785,-0.0002724495735424598,-0.0006695563062834039,0.0006515113538257461,-0.10798283666372299,-48.37338638305664,3.58500599861145,16.07001495361328,-1.1399434804916382,-1.0452988147735596,0.03300629183650017,,,,,,,,,
1739373919.9957004,0.1335256885185899,0.9744675455276309,0.21324673226947705,-1.559607520430077,-1.4599272594679809,1.2741378137772692,0.20498260934868648,-0.0009466727621409766,0.0006666078405646299,-0.0001200222959028245,-0.0002542587494123704,0.00048320890352147666,-0.0003840277302789351,0.0007454260437800161,-0.08021184056997299,-48.37338638305664,3.60880970954895,16.12158966064453,-1.1399434804916382,-1.0452988147735596,-0.0008682189509272575,,,,,,,,,
1739373920.0057065,0.133519447428587,0.9744680995612125,0.2132477868980453,-1.5596057183218242,-1.459927324883361,1.2741393195976747,0.2049816488282308,-0.0008127219780541897,0.0004261260118374431,0.00015260716182149752,-0.00014677780883177034,-0.0012098371354682354,-0.000438600279185896,-0.0001852389440332946,-0.03260441869497299,-48.34958267211914,3.5572350025177,16.07001495361328,-1.1399434804916382,-1.0590317249298096,-0.0008682189509272575,,,,,,,,,
1739373920.0166633,0.1335255490020981,0.9744667243357996,0.21325019975541512,-1.559605222295904,-1.459924144515792,1.2741394373345798,0.20498173954299542,0.000562792364643697,0.000631620007398413,0.0013324260672378904,-0.00018047235673292428,0.0006880342664338287,5.281036088448769e-05,-0.0007926569400194192,-0.10798283666372299,-48.34958267211914,3.5572350025177,16.09381866455078,-1.1399434804916382,-1.0590317249298096,0.0064559997990727425,,,,,,,,,
1739373920.0266874,0.13352386591307014,0.9744677059574479,0.21324392694064143,-1.5596023698472732,-1.459926025612563,1.2741370561178555,0.20497545967547598,-0.0008329271507865545,7.195065253614728e-06,-0.0013083182728837464,0.0005368394180012779,0.0012359413215154928,3.5506132823377224e-05,-0.001507451359269788,-0.08021184056997299,-48.37338638305664,3.60880970954895,16.04621124267578,-1.1472676992416382,-1.0388901233673096,0.05955658480525017,,,,,,,,,
1739373920.037623,0.13352602096769456,0.9744677175364602,0.21324211603268312,-1.559603657954827,-1.4599250989455381,1.2741362984577773,0.20497941334130979,0.0004748116248146733,-3.789925141026343e-05,-0.000822854093831492,0.0015882246542524465,0.0004499188747071999,-0.000372919321610486,0.00024661008530629856,-0.08021184056997299,-48.37338638305664,3.63261342048645,16.07001495361328,-1.1472676992416382,-1.0324814319610596,-0.0072769103571772575,,,,,,,,,
1739373920.047709,0.13352484031475273,0.974466100742976,0.21324569207925184,-1.5596041615723026,-1.4599252507560674,1.274138666593214,0.20497788834314015,-8.104726717586593e-05,-0.00015664049068143498,-0.0005586909179352205,0.0011258054758216138,1.9696832068356743e-05,0.0011450092965809835,-5.686001807755442e-06,-0.10798283666372299,-48.34958267211914,3.58500599861145,16.07001495361328,-1.1207174062728882,-1.0526230335235596,0.012864691205322742,,,,,,,,,
1739373920.0596821,0.13352749777019737,0.9744677059456757,0.21324631434281566,-1.5596049549267366,-1.4599237263532983,1.2741370561177816,0.20497829016756147,0.0008751597122795506,-0.0003313193134632181,6.175902766857249e-06,0.00023904393823936975,0.0008981545449562207,0.0007798372384349731,-0.0006350918511418046,-0.1317865550518036,-48.37338638305664,3.58500599861145,16.09381866455078,-1.1399434804916382,-1.0388901233673096,-0.0008682189509272575,,,,,,,,,
1739373920.0697455,0.1335267889985234,0.9744662535351364,0.2132421160360968,-1.5596054405886277,-1.4599238400410082,1.2741386796751664,0.204974338311791,-0.0009554097984437779,-3.876321044431262e-05,-0.0015615361531631127,-0.0006584487899589349,-0.0006215981541196221,0.0010493950120606206,-0.0017655882415474745,-0.1317865550518036,-48.34958267211914,3.63261342048645,16.09381866455078,-1.1335347890853882,-1.0526230335235596,0.03300629183650017,,,,,,,,,
1739373920.0806565,0.13352484040626464,0.9744714165151198,0.21324392830342206,-1.5596051933424726,-1.4599274668979667,1.274137813777934,0.20497586042751212,-0.0011269936332286511,0.0022329480391565246,-0.00039995607982579385,-0.0006088212673430172,-0.0011280458390869523,0.00011156120055564207,0.0026845191358967533,-0.10798283666372299,-48.42496109008789,3.60880970954895,16.09381866455078,-1.1271260976791382,-1.0452988147735596,0.03300629183650017,,,,,,,,,
1739373920.0907023,0.13352486650659606,0.9744651028805195,0.2132422317094167,-1.5596016283262002,-1.45992227317415,1.2741370561178555,0.2049786658412471,-0.0005214652121590884,-0.0004374224307193903,-0.0008110686595079158,0.0015579694294574431,0.0008282483520531349,2.7734967650875296e-05,0.0011171350355351768,-0.10798283666372299,-48.29800796508789,3.63261342048645,16.04621124267578,-1.1472676992416382,-1.0388901233673096,0.03300629183650017,,,,,,,,,
1739373920.1016498,0.13352492817865308,0.9744659976488235,0.21324568959573612,-1.5596034476326874,-1.4599272594503403,1.2741370503036544,0.20497819675229542,-0.0006264452554350734,0.0008155272103580584,-0.0016716042303234577,0.0013477031084773924,-0.0017774115534840943,-0.00031651890860978193,0.001248951342235587,-0.10798283666372299,-48.34958267211914,3.58500599861145,16.07001495361328,-1.1399434804916382,-1.0388901233673096,0.03941498324275017,,,,,,,,,
1739373920.1126206,0.13352484321327496,0.9744690358967993,0.21324786518703398,-1.559604162623354,-1.4599238961576702,1.2741394366892111,0.2049714687870413,-0.00047566002417345017,-0.00043586988027359487,0.00036407167717480374,-0.00010579673960542209,0.0004126766735911393,0.00037032333801782725,-0.0022630657828011406,-0.10798283666372299,-48.34958267211914,3.5572350025177,16.07001495361328,-1.1335347890853882,-1.0590317249298096,0.06596527993679047,,,,,,,,,
1739373920.1236525,0.13352962449729666,0.9744719143977393,0.21325094608443496,-1.5596034137292476,-1.4599238411368143,1.274136297004216,0.204981150046326,0.0008775078648422833,0.0010708341366182832,0.0014564622492908928,0.000543409890707272,0.0010619314345648304,-0.0008335984524580045,0.000779933674444721,-0.1317865550518036,-48.40115737915039,3.5572350025177,16.07001495361328,-1.1399434804916382,-1.0324814319610596,0.0064559997990727425,,,,,,,,,
1739373920.1337473,0.1335228452535941,0.9744677059575483,0.21324571848689552,-1.559607642478067,-1.4599249506078793,1.2741386794598173,0.2049779637021001,-0.0007752591100386592,-0.0005841033513296562,0.00040160102304353975,-0.0012421029796402042,0.0015300886167934555,0.0002449820306182359,-0.0006001595973746975,-0.08021184056997299,-48.37338638305664,3.58500599861145,16.12158966064453,-1.1335347890853882,-1.0526230335235596,0.03941498324275017,,,,,,,,,
1739373920.1446846,0.1335228689977796,0.974467706908047,0.213243976798711,-1.559603767803438,-1.4599230823835638,1.2741378137779327,0.20498205986612764,-0.00043841289024776115,0.00010448111422527715,-0.00029778615409290627,0.0011226913578653204,0.0011912410571812545,0.000503795252107555,0.000585749214650725,-0.08021184056997299,-48.37338638305664,3.60880970954895,16.07001495361328,-1.1399434804916382,-1.0452988147735596,0.0064559997990727425,,,,,,,,,
1739373920.1557367,0.13352591741949188,0.9744687501331768,0.21324568919949877,-1.5596084208437437,-1.4599264718829956,1.2741372668243272,0.20497981997082387,-0.000720467249568085,0.0005062955954960346,-0.0009629525569016002,-0.001479620941209262,-0.002018330892085195,0.00042929772534267897,-0.0006042121598906297,-0.08021184056997299,-48.37338638305664,3.58500599861145,16.09381866455078,-1.1472676992416382,-1.0526230335235596,-0.013685601763427258,,,,,,,,,
1739373920.165746,0.13352387869795393,0.9744640821691024,0.21324989496005836,-1.5596044313693973,-1.4599273641292092,1.2741370560939287,0.2049839009091983,-0.0003106086324616939,-0.00013950198462196598,0.0020286050090507655,-0.00054153685981271,0.000201540372083959,-0.0005070705463251903,0.002108052728068647,-0.08021184056997299,-48.32181167602539,3.5572350025177,16.07001495361328,-1.1399434804916382,-1.0388901233673096,-0.0072769103571772575,,,,,,,,,
1739373920.1766586,0.1335235802647793,0.9744647075519958,0.21324568917510095,-1.5596055261775439,-1.4599276206380631,1.2741370541797883,0.20497558998194637,-0.0001114792252749345,-0.00035481081459877434,-0.0005155990495478377,-0.0004421336645234291,-0.00105123928038852,-0.00020176408986155152,0.0002595644713069789,-0.08021184056997299,-48.32181167602539,3.58500599861145,16.09381866455078,-1.1335347890853882,-1.0388901233673096,0.05314789339900017,,,,,,,,,
1739373920.1876197,0.13352690607678933,0.9744668039565377,0.21324662961481938,-1.5596036578784946,-1.459928120764189,1.2741346305028842,0.20497480933087064,0.00036460755081450666,0.000545298604161104,0.00033752780391997395,0.0011229414061340473,-0.0015857310695272,-0.0015986277043911995,1.864323877198364e-05,-0.1317865550518036,-48.32181167602539,3.58500599861145,16.07001495361328,-1.1335347890853882,-1.0452988147735596,0.06596527993679047,,,,,,,,,
1739373920.1977255,0.13352508954673467,0.9744659973238086,0.21324649793448186,-1.5596036188826583,-1.4599226144119508,1.2741366584536653,0.20497317214658317,-3.3043192566565194e-05,-0.00035821264962720344,0.0005191936939300407,0.0023203646343507595,0.0017624341389489097,-0.0005682905049187643,-0.0007225638787992069,-0.10798283666372299,-48.34958267211914,3.58500599861145,16.04621124267578,-1.1399434804916382,-1.0654404163360596,0.04673920199275017,,,,,,,,,
1739373920.2086906,0.13352507647332892,0.9744639988360942,0.2132463891961177,-1.5596073586109254,-1.459923332857845,1.2741359051881829,0.20497876399230883,-0.000118646965220456,-0.0004540851761695641,0.00020095662999858755,-0.0012215818086340404,-9.045472216493482e-05,-0.000871803014501019,0.0003722141464197133,-0.10798283666372299,-48.32181167602539,3.58500599861145,16.12158966064453,-1.1472676992416382,-1.0590317249298096,0.026597600430250168,,,,,,,,,
1739373920.218701,0.13352555278616823,0.9744677839462668,0.21324783895335336,-1.5596054005394533,-1.4599268542029242,1.274137813556611,0.20497344481971236,3.889323369067344e-05,0.00036668442234558064,-1.7859351387580877e-05,0.0007263911888426792,0.00023676616054670995,-0.0005129459179794269,0.00021136988041676222,-0.10798283666372299,-48.37338638305664,3.5572350025177,16.07001495361328,-1.1399434804916382,-1.0452988147735596,0.05314789339900017,,,,,,,,,
1739373920.2296755,0.13352799007700486,0.9744686419600718,0.2132478853758457,-1.559607502161685,-1.4599268481106824,1.2741386796751626,0.2049806964445295,0.0002727835671628618,0.0009109548583970212,0.0006639097436731151,-0.0001338166712153914,0.0018502245680885984,0.000474770649458156,0.00023244849147036333,-0.10798283666372299,-48.37338638305664,3.58500599861145,16.09381866455078,-1.1399434804916382,-1.0526230335235596,0.019273381680250168,,,,,,,,,
1739373920.2406814,0.13352387477555763,0.9744707440455485,0.21324568043064443,-1.5596016371249724,-1.4599248197534895,1.2741376567945073,0.2049791036359906,-0.0009565024136285458,0.0019394537327187013,-0.0016213713680545863,0.001733115481993966,0.0015633658992919046,-7.578114931098575e-07,-0.00014434893654210866,-0.08021184056997299,-48.40115737915039,3.58500599861145,16.04621124267578,-1.1335347890853882,-1.0452988147735596,0.019273381680250168,,,,,,,,,
1739373920.251742,0.133526579141691,0.9744639983782885,0.2132495430253785,-1.5596023972058803,-1.4599270711235948,1.274137342826768,0.20497300538831115,-0.0004532849954880595,-0.000894982164205778,0.0005387165321197371,0.00017726566187853897,0.0006235524692481184,3.266010924975616e-05,-0.0027801724809077416,-0.1317865550518036,-48.32181167602539,3.5334312915802,16.04621124267578,-1.1335347890853882,-1.0452988147735596,0.05314789339900017,,,,,,,,,
1739373920.2626421,0.1335255610268403,0.9744735325308784,0.21324459190974007,-1.5596051933454191,-1.4599249389934337,1.2741360956205703,0.20497809836665679,-0.0005054493527943327,0.002038125269624021,-0.0015051584124057766,-0.00024059264100381207,-0.0003379216060876893,-0.0007619757374725291,7.077509747110231e-05,-0.10798283666372299,-48.42496109008789,3.63261342048645,16.09381866455078,-1.1335347890853882,-1.0590317249298096,0.012864691205322742,,,,,,,,,
1739373920.2726965,0.13352484027312828,0.9744715208720007,0.2132487142708775,-1.5596076302682276,-1.4599245316491558,1.2741385226351476,0.20497577994369415,-0.000133698987088994,0.0019894527590335383,0.001498879102737135,-0.0012496910923762042,0.0012859247789812748,-2.9735005780786954e-05,-0.0027243650011559593,-0.10798283666372299,-48.42496109008789,3.5572350025177,16.12158966064453,-1.1536763906478882,-1.0526230335235596,0.05955658480525017,,,,,,,,,
1739373920.2827055,0.13352507363376015,0.9744681695385206,0.21324871770130852,-1.5596052025044915,-1.4599263526954196,1.274137813129252,0.20498113694279035,-0.00020798437447393318,-0.0005239124404492876,0.0013297339308281776,8.835968705726025e-05,-0.00021212938204545303,-0.0003871055339037065,0.0012799275259851614,-0.08021184056997299,-48.37338638305664,3.5572350025177,16.09381866455078,-1.1472676992416382,-1.0452988147735596,0.0064559997990727425,,,,,,,,,
1739373920.293732,0.1335265542240659,0.974468108129765,0.21324563432156848,-1.5596036579131096,-1.459927061180106,1.2741386796751553,0.20498255716307007,-0.0001808063297470911,0.0006388776409644851,-5.129861585413437e-05,-0.00027527306621700343,-0.0014358139496128612,0.0008414074795970344,0.0017694036911197564,-0.1317865550518036,-48.34958267211914,3.5572350025177,16.07001495361328,-1.1335347890853882,-1.0526230335235596,-0.0008682189509272575,,,,,,,,,
1739373920.3046224,0.13352147131702727,0.9744677329124062,0.21324568045849746,-1.5596066259176669,-1.459929295523791,1.2741383264624566,0.20497521420050974,-0.0017693490036817731,0.00015018893612413065,0.0002710416844243053,0.00042760015388269704,-0.0015255243650605247,-0.0005853286696136371,-0.0005813536877166581,-0.05640812963247299,-48.37338638305664,3.58500599861145,16.07001495361328,-1.1207174062728882,-1.0526230335235596,0.026597600430250168,,,,,,,,,
1739373920.3146846,0.1335297382458196,0.9744683694110537,0.21324571540871906,-1.5596036590937914,-1.4599245969125731,1.2741370560999103,0.20498128880951047,0.0007141927651607698,0.0008256561210737102,0.00038127590081205726,0.0007058337275976633,0.00032187588296829614,0.000503590670025828,-0.000556555844666439,-0.1317865550518036,-48.34958267211914,3.58500599861145,16.07001495361328,-1.1335347890853882,-1.0388901233673096,0.012864691205322742,,,,,,,,,
1739373920.3246992,0.13352211012353218,0.9744622831099894,0.2132446063710672,-1.5596036579171617,-1.459923373304397,1.2741385604840458,0.2049778942809492,-0.0009498798533154348,-0.0027684395145886075,0.0003139502909629094,0.0007569770362290418,0.0008797836790227549,0.0003941628342255636,-0.0014490475114533742,-0.05640812963247299,-48.29800796508789,3.60880970954895,16.07001495361328,-1.1335347890853882,-1.0526230335235596,0.0064559997990727425,735,732,783,42.694,0,0
1739373920.3356466,0.13352791230553399,0.9744690357897947,0.21324397745053747,-1.5596051936816342,-1.4599279999340369,1.2741370561171828,0.20497578057210836,0.0006626028428521017,0.00027471786216868454,-0.0018318154882430676,0.0009480998982777378,-0.002188901747247378,0.0006768298276988977,0.0022626687439651415,-0.10798283666372299,-48.34958267211914,3.60880970954895,16.09381866455078,-1.1335347890853882,-1.0388901233673096,0.05955658480525017,735,731,783,42.694,0,0
1739373920.345671,0.13352290745091003,0.9744606614426947,0.21324781538651771,-1.5596034198214261,-1.4599235303469829,1.274138666593214,0.20497903361277853,-0.001776860082233347,-0.0019911540934328675,-0.00026364180023398217,-7.413960825974536e-05,0.00010719925830554109,0.000882287263907628,0.0006423134475591651,-0.08021184056997299,-48.27420425415039,3.58500599861145,16.07001495361328,-1.1335347890853882,-1.0526230335235596,0.03300629183650017,732,733,783,42.694,1,0
1739373920.3557053,0.13352578553805114,0.9744686680676693,0.21324665542856278,-1.5596034930805116,-1.4599266694537758,1.274138640429088,0.20497191329581746,0.0005021954747360645,0.000551093070645785,-0.000612764504661835,0.0004807895543876224,-0.0008136175758800728,-0.00015540998284469472,-0.003325067147042177,-0.10798283666372299,-48.37338638305664,3.58500599861145,16.07001495361328,-1.1335347890853882,-1.0526230335235596,0.05314789339900017,735,734,783,42.803,1,0
1739373920.3666964,0.13352932694367162,0.9744681123002457,0.2132457110219419,-1.5596034381366226,-1.4599256597741366,1.2741378137777124,0.2049756312875819,0.0020440413296678355,-0.00045012144318682187,-0.0008156668048745991,0.0008669978163842623,-0.00010543948743472955,-2.493349906914518e-05,-0.00019168706690863375,-0.1555902659893036,-48.34958267211914,3.58500599861145,16.07001495361328,-1.1271260976791382,-1.0452988147735596,0.05314789339900017,733,735,783,42.694,1,0
1739373920.3777444,0.1335249725573193,0.9744684092751833,0.21324957042363651,-1.5596059962073994,-1.4599252300151355,1.2741373384670034,0.20498034107634017,-0.0018417701936616674,0.0006346047127995808,0.00026169438951190757,-0.00023472275835332884,-0.000928520340432733,-7.405454722669002e-05,5.47064181945797e-05,-0.08021184056997299,-48.37338638305664,3.5334312915802,16.07001495361328,-1.1271260976791382,-1.0452988147735596,0.012864691205322742,734,734,783,42.694,0,0
1739373920.3896549,0.13352554905393937,0.9744659934256621,0.21324779663871565,-1.5596044027169655,-1.459924129510121,1.2741367018111014,0.20497408548505508,-0.0007804983447789652,-0.001404417183005702,0.0016013416537959315,-0.0003941909159055647,0.0001479759923002098,-0.0005869659628972847,-0.0018417270444566502,-0.10798283666372299,-48.34958267211914,3.5572350025177,16.07001495361328,-1.1271260976791382,-1.0452988147735596,0.04673920199275017,736,736,782,42.694,1,0
1739373920.399697,0.13352294860281896,0.974463996767455,0.21324414593744223,-1.5596034106696577,-1.4599234076842846,1.2741367028988686,0.2049754340110909,-0.0018706820350396498,0.0001799230569711278,-0.0004779112177570521,-0.00031268928075023285,0.0002880799437754354,-0.000807539882604229,0.00040885528747509447,-0.08021184056997299,-48.32181167602539,3.60880970954895,16.07001495361328,-1.1335347890853882,-1.0388901233673096,0.026597600430250168,731,735,783,42.694,1,0
1739373920.4107392,0.13352753265701234,0.9744660197457182,0.21324874393221904,-1.5596034106640577,-1.459926591605548,1.2741362984557834,0.20497652051760623,0.0016036799849431897,0.00031188724229975985,0.0016402017987934621,0.0003049339016138581,0.00029713290142121445,0.0001251315714380499,-0.0018179623958047121,-0.1317865550518036,-48.34958267211914,3.5572350025177,16.07001495361328,-1.1335347890853882,-1.0324814319610596,0.05314789339900017,733,734,783,42.694,0,0
1739373920.421633,0.1335260297160033,0.9744660033752499,0.2132460245298992,-1.5596034138295671,-1.4599273712274163,1.274137620037037,0.2049734441326453,-0.00027056032501804805,0.0005235339397680436,-0.00025190105147418615,0.0007389986717507284,0.0010167417116003696,-0.00040583525304790566,-0.0002811563804655194,-0.08021184056997299,-48.34958267211914,3.58500599861145,16.07001495361328,-1.1399434804916382,-1.0526230335235596,0.05314789339900017,737,735,783,42.803,1,0
1739373920.4316661,0.13352697507046027,0.9744661027984055,0.21324568916887782,-1.55961206078088,-1.4599233864461634,1.2741378118219218,0.20497551674931705,0.00041643010586450187,-0.0008598586202271036,-0.0005535457701808492,-0.002279442395570898,0.000984295231489569,-0.00014488449959608652,0.00010829990863308572,-0.10798283666372299,-48.32181167602539,3.58500599861145,16.14539337158203,-1.1335347890853882,-1.0452988147735596,0.026597600430250168,737,734,782,42.586,2,0
1739373920.4417715,0.1335228686018888,0.9744639984081043,0.21324777327332833,-1.559605672584485,-1.4599285844978132,1.2741370561178222,0.20497906077584502,-0.001856918681504687,-0.001206836275931996,0.0016146494690751723,-9.523541930553088e-05,-0.0007343240399144987,0.0001181092723540341,0.0007338872794270966,-0.08021184056997299,-48.32181167602539,3.5572350025177,16.07001495361328,-1.1207174062728882,-1.0388901233673096,-0.0072769103571772575,732,736,779,42.694,1,0
1739373920.4527068,0.13352484026136713,0.9744660223136994,0.21324571670502046,-1.5596034107023635,-1.4599270561580715,1.2741383776971151,0.20497983198406036,-0.0004530609648906878,-0.0014928755713796197,-0.0006704209660319196,0.0006983532126264791,0.00024680213322522833,-0.00018654344501720555,0.0012417359472304465,-0.10798283666372299,-48.34958267211914,3.58500599861145,16.07001495361328,-1.1335347890853882,-1.0590317249298096,0.026597600430250168,731,735,783,42.803,1,0
1739373920.4636447,0.13352518581086487,0.9744663400962355,0.2132440114689025,-1.5596072741861022,-1.4599226245809573,1.2741342685629022,0.20497379869317853,0.00010503509351096775,0.0005466849930401063,-0.0007805547349321511,-0.0008015038546075502,0.0018482246095180921,-0.0008940361438377831,-0.002240322767748808,-0.10798283666372299,-48.34958267211914,3.60880970954895,16.12158966064453,-1.1399434804916382,-1.0452988147735596,0.07328949868679047,732,734,783,42.694,1,0
1739373920.4737012,0.13352826627693282,0.9744662275723791,0.21324639293638256,-1.5596076394256002,-1.4599252245354055,1.2741370560978427,0.20497871720924685,-0.00037638092503859027,0.0004511351857974358,5.389378672028272e-05,-0.0005408882174985481,0.0016696492854784539,-0.0003992704392361346,0.00048253348417897507,-0.1555902659893036,-48.34958267211914,3.58500599861145,16.12158966064453,-1.1536763906478882,-1.0388901233673096,0.026597600430250168,732,733,784,42.694,1,0
1739373920.4847085,0.13352941496394655,0.9744677059463916,0.21324390940623852,-1.55960820035099,-1.4599226095640407,1.2741378137779338,0.20498182128981776,0.0007142286862603491,0.0001671934230483843,-0.0007766011709356508,-0.0010830147609648237,0.0010542390330883463,6.37373107560251e-05,0.0017614602799303088,-0.1317865550518036,-48.37338638305664,3.60880970954895,16.09381866455078,-1.1399434804916382,-1.0452988147735596,0.0064559997990727425,733,736,783,42.694,1,0
1739373920.4956224,0.1335279113440954,0.9744718102376972,0.21324568073858108,-1.5596061823913234,-1.4599240284743302,1.2741355007607782,0.20497270259067712,4.295929554892585e-05,0.0023451319626216632,-0.0015761510599926131,-0.000988746824505263,-7.049535149337168e-05,0.000625545373343242,0.0016631471889643284,-0.10798283666372299,-48.40115737915039,3.58500599861145,16.09381866455078,-1.1399434804916382,-1.0526230335235596,0.04673920199275017,733,734,782,42.803,1,0
1739373920.5056899,0.13352705790975103,0.9744659973119181,0.21324571065642053,-1.5596034932101601,-1.459927461212799,1.2741338766651156,0.20498132796746255,2.861239783692256e-05,0.00019669991808310134,-0.001444594038298554,0.0006808065328669331,-0.0005771236080250996,-0.00035298703814804183,0.0025590056240593333,-0.10798283666372299,-48.34958267211914,3.58500599861145,16.07001495361328,-1.1271260976791382,-1.0388901233673096,0.012864691205322742,732,736,783,42.694,1,0
1739373920.516688,0.1335266316647521,0.9744659934244045,0.21324214130663532,-1.559606264754361,-1.4599287169511777,1.2741368990805846,0.20498221783048035,0.0005513668397590777,-0.0008602907755499408,-0.0007138671232724842,-0.0005634720220714668,-0.0020385850422345035,-0.00025952767163509174,0.0022275573927440008,-0.1317865550518036,-48.34958267211914,3.63261342048645,16.09381866455078,-1.1271260976791382,-1.0388901233673096,0.0064559997990727425,732,735,783,42.694,1,0
1739373920.5266933,0.13352295616063378,0.9744697129807061,0.2132466291471847,-1.559603493098501,-1.459926546461526,1.274133877200808,0.2049821593273218,-0.0012340840569458015,0.0014465640740740963,0.0006862495755597523,0.000696887519455632,8.168331381375214e-05,-0.0016653114613836297,0.0010470937333310023,-0.08021184056997299,-48.40115737915039,3.58500599861145,16.07001495361328,-1.1335347890853882,-1.0388901233673096,0.0064559997990727425,731,736,783,42.694,0,0
1739373920.5377188,0.1335276778177527,0.9744660224206986,0.21324847175889,-1.559607277653554,-1.4599283632153943,1.2741376179195194,0.20497828164129508,0.00014481093495516157,-0.0008084706859950433,-0.0004577922786550292,-0.0006861292441388971,-0.0007948540568258919,-0.00025287104692308304,0.0001492070455546503,-0.10798283666372299,-48.34958267211914,3.5572350025177,16.12158966064453,-1.1271260976791382,-1.0526230335235596,0.03941498324275017,732,737,784,42.586,1,0
1739373920.5486937,0.13352494860781927,0.9744715214069808,0.21324776121643096,-1.559608270216263,-1.459926301047809,1.274139437329251,0.204971825019916,0.00020293123205817194,0.0015837076724503716,-8.064924643232183e-05,-0.0007895034216388444,-0.0007497718586387403,0.0006410664798331888,-0.0021310109836275674,-0.10798283666372299,-48.42496109008789,3.5572350025177,16.09381866455078,-1.1207174062728882,-1.0590317249298096,0.06596527993679047,732,736,784,42.694,1,0
1739373920.5586994,0.13352284620892751,0.9744698148653758,0.21324397777056348,-1.5596075376442826,-1.459925240101717,1.2741386796751664,0.20497970892465892,-0.0010340778781132319,0.000921375274632264,-0.0009260141348331828,-0.00029080370573821094,-0.0005651763359119962,0.0012153378422022536,-0.00012854504577323902,-0.08021184056997299,-48.37338638305664,3.60880970954895,16.09381866455078,-1.1207174062728882,-1.0526230335235596,-0.0008682189509272575,734,736,786,42.803,1,0
1739373920.5706592,0.13352567782414865,0.9744697823626235,0.2132460070276867,-1.5596035206033745,-1.4599229625395016,1.274136545921719,0.204982726123745,-0.0002370561460103623,0.001958997355850496,-0.00014580933945948626,-1.1675576809860644e-06,-0.0013081948598862771,-0.0007469329465576856,0.0006961846954702354,-0.08021184056997299,-48.40115737915039,3.58500599861145,16.07001495361328,-1.1399434804916382,-1.0388901233673096,-0.0008682189509272575,732,736,783,42.694,1,0
1739373920.5806975,0.13351943029143842,0.9744698209640805,0.21324697769890022,-1.5596074277391354,-1.459922732932372,1.2741370430330232,0.20497664453937986,-0.0013598494614022706,0.0013738241625652764,-0.0007072680787024458,-0.00018396126782687115,0.000272039340520223,-0.0004335826214900857,-0.0013868747510132695,-0.03260441869497299,-48.37338638305664,3.60880970954895,16.09381866455078,-1.1399434804916382,-1.0388901233673096,0.05314789339900017,733,734,784,42.694,1,0
1739373920.591659,0.13352515654107966,0.9744664148147366,0.21324570671355003,-1.5596052221824366,-1.4599273428058712,1.27413943297452,0.2049735251525163,0.0003584116144439702,-0.0005792204283800674,0.0008922279014512723,0.0005360741388315532,0.0003691564660514994,-6.810824516394431e-05,-0.00216537189384341,-0.10798283666372299,-48.32181167602539,3.58500599861145,16.09381866455078,-1.1271260976791382,-1.0590317249298096,0.03941498324275017,733,733,784,42.803,1,0
1739373920.60175,0.13352687659210744,0.9744677146528349,0.21324603165324404,-1.5596055504788606,-1.4599278268919051,1.2741359572337956,0.20497615053166587,0.0007201289707266698,-0.001192373019669584,0.00010044898137764305,-2.2852881332208403e-05,-0.0011044736936863884,-0.0008501119241290441,-0.00030861211964068776,-0.1317865550518036,-48.37338638305664,3.58500599861145,16.09381866455078,-1.1271260976791382,-1.0388901233673096,0.026597600430250168,733,736,783,42.694,0,0
1739373920.6127076,0.13352521613263657,0.9744705144141514,0.21324602363845532,-1.5596017480523048,-1.4599240237038957,1.2741378131257084,0.2049740423630589,-0.00015386212016598816,0.000690422253252998,0.0007299711496896278,-0.00012648008367412242,0.0012189001785176666,0.0011279316597851074,0.0006995243346300411,-0.08021184056997299,-48.37338638305664,3.60880970954895,16.04621124267578,-1.1399434804916382,-1.0452988147735596,0.03941498324275017,730,736,782,42.694,0,0
1739373920.6246555,0.13352771091661134,0.9744605733468082,0.21324579818997352,-1.559601710554754,-1.4599226621450818,1.274138561453076,0.2049774534237166,0.0005951327474840983,-0.0017771154295796589,-0.00022512561765838536,0.0007695962304615896,0.000374026034086189,0.0007033532835934333,0.0018899851327287625,-0.10798283666372299,-48.27420425415039,3.58500599861145,16.04621124267578,-1.1399434804916382,-1.0526230335235596,0.04673920199275017,732,733,783,42.803,2,0
1739373920.6346784,0.13352800275394786,0.9744705255418534,0.21324424033589578,-1.5596052060035805,-1.459922610940126,1.2741369378951013,0.2049700495264817,0.00047708380358235376,0.0008132371777717293,-0.000728084497619982,-0.0002780982730432153,0.0013359157964790548,-0.00016631427390390868,-0.0011022652587916073,-0.10798283666372299,-48.37338638305664,3.60880970954895,16.09381866455078,-1.1399434804916382,-1.0388901233673096,0.07328949868679047,732,737,784,42.694,1,0
1739373920.6456373,0.13352663157304379,0.9744650134017973,0.21324575929743766,-1.5596061827889511,-1.4599247929176506,1.2741377743699043,0.20497409841010134,0.0008810868364378417,-0.0007354455722152168,0.0006388890332505643,0.0005043968384086675,0.000379919291094945,-0.00022297401030977552,0.00043566757000809594,-0.1317865550518036,-48.32181167602539,3.58500599861145,16.09381866455078,-1.1335347890853882,-1.0452988147735596,0.04673920199275017,730,734,784,42.586,2,0
1739373920.6556883,0.13352795021174169,0.9744659976144777,0.21324578928674395,-1.5596075010142036,-1.4599233670089986,1.2741378137772665,0.20497587569547046,0.0006642485636136127,-0.001188491267944695,-0.00016267157863296527,-0.001046360345789147,0.0011129584938813436,0.0012707407123060716,-0.000610355879486189,-0.10798283666372299,-48.34958267211914,3.58500599861145,16.09381866455078,-1.1335347890853882,-1.0452988147735596,0.04673920199275017,732,736,783,42.694,1,0
1739373920.6666903,0.13352861529870022,0.9744705428754473,0.21324777330979697,-1.5596051947107505,-1.459925393453713,1.2741373428276543,0.2049719585751792,0.0011918609385986956,0.0012943436012454253,-0.0005259745911100365,-1.5269461135782817e-06,7.887897380295841e-05,0.00030520751621025964,-0.000764260369667089,-0.1555902659893036,-48.37338638305664,3.5572350025177,16.09381866455078,-1.1472676992416382,-1.0452988147735596,0.05314789339900017,733,736,784,42.694,1,0
1739373920.6776917,0.13352495442614729,0.9744680439660247,0.2132469685165475,-1.5596072822883065,-1.4599249413125206,1.2741367028486519,0.20497590650596795,-0.0005851758849770166,0.00036751048626297133,-0.00032450767528742887,-0.0010517172695593074,-0.0004719190109488985,-8.573779242831587e-05,-0.001245259288943431,-0.10798283666372299,-48.37338638305664,3.60880970954895,16.12158966064453,-1.1472676992416382,-1.0388901233673096,0.019273381680250168,733,735,783,42.694,1,0
1739373920.6887665,0.1335269664845841,0.9744677849110952,0.21324705061902066,-1.559607666847582,-1.4599248830229166,1.2741386791886553,0.20497666394892863,-0.0008299010905728231,-0.0009651241819101024,0.00020377101153305202,-0.0004672220963476925,-0.00034306828043332226,-0.0001290607519572312,-0.0016383698073609316,-0.10798283666372299,-48.37338638305664,3.60880970954895,16.09381866455078,-1.1207174062728882,-1.0526230335235596,0.012864691205322742,734,735,784,42.694,0,0
1739373920.6996174,0.1335266699096288,0.9744668035249741,0.2132477602581506,-1.5596034392052902,-1.4599238385811564,1.2741362984577744,0.204976323059668,0.00012255324371065795,-0.0004578982797901963,0.0005352146073445445,0.0004947570600824594,0.0005459139949348002,0.0007179571645710754,8.406809941126868e-05,-0.1317865550518036,-48.32181167602539,3.5572350025177,16.07001495361328,-1.1335347890853882,-1.0324814319610596,0.05314789339900017,735,734,787,42.912,0,0
1739373920.7096329,0.1335276751189222,0.9744677063136167,0.21324708512787938,-1.5596016284397374,-1.4599226660212181,1.2741385036340809,0.2049799769548534,-0.0006011348083297995,6.38176128820006e-05,0.00031430241327777466,0.0017522575000200745,0.0008172380501240736,-0.00042443549203683524,-0.0004361536731356155,-0.10798283666372299,-48.37338638305664,3.60880970954895,16.04621124267578,-1.1399434804916382,-1.0526230335235596,-0.013685601763427258,731,738,783,42.694,1,0
1739373920.7196562,0.1335257031457402,0.9744642295939095,0.21324674528427334,-1.5596063786683125,-1.459927605538328,1.274133573768885,0.20497670360555656,-0.00040600834419847286,-0.000815474783746221,4.053187414376094e-05,0.0015225244079104415,-0.0005170526923027939,0.0003922767133131961,-4.82463804968113e-06,-0.08021184056997299,-48.32181167602539,3.60880970954895,16.07001495361328,-1.1335347890853882,-1.0452988147735596,0.012864691205322742,733,736,784,42.694,1,0
1739373920.729732,0.13352653823507524,0.9744625173981292,0.2132505948925765,-1.5596016283764635,-1.459927960275408,1.2741367028333408,0.20498180317641976,0.00022258558307598628,-0.0009088861800951169,0.0003161529264645094,0.001245866271940332,-0.0002948695662606225,2.960072567177041e-05,9.667754916861328e-05,-0.1317865550518036,-48.29800796508789,3.5572350025177,16.04621124267578,-1.1335347890853882,-1.0388901233673096,0.0064559997990727425,732,740,785,42.694,1,0
1739373920.7397594,0.13352570320549212,0.9744640070431801,0.21324389918957043,-1.5596051933410835,-1.4599241261762668,1.2741362969982442,0.2049767824965814,-0.00027992868650071666,-0.00031107679075279286,-0.003140742222602588,-0.0002530617073846792,0.00016931140496692475,-0.00014583266358977735,-0.0004968532798782961,-0.08021184056997299,-48.32181167602539,3.60880970954895,16.09381866455078,-1.1271260976791382,-1.0324814319610596,0.012864691205322742,735,736,785,42.694,2,0
1739373920.7507164,0.13352123904642385,0.9744677097970433,0.21324571584075244,-1.5596030751590184,-1.4599242425440129,1.2741362584208482,0.20497924645459015,-0.0013618208588112232,0.0006925907247440651,-0.0006292377519948954,-0.00014331228727366174,-0.00044295433544524836,0.0009483926734257019,0.0006140544460575183,-0.05640812963247299,-48.37338638305664,3.58500599861145,16.09381866455078,-1.1271260976791382,-1.0590317249298096,-0.0072769103571772575,738,735,785,42.694,1,0
1739373920.7616792,0.1335250075701815,0.9744639954835074,0.2132481300102467,-1.5596055243509621,-1.459924613092312,1.2741367410399074,0.20497222138389112,-0.0005861524167923906,-0.0011556344042326053,0.000463772279959903,-0.001097526510195141,-0.0007338036598342039,-0.00044083129380834845,-0.0021771344614279747,-0.08021184056997299,-48.32181167602539,3.58500599861145,16.09381866455078,-1.1271260976791382,-1.0452988147735596,0.05955658480525017,733,735,783,42.803,1,0
1739373920.772643,0.13352494918006066,0.9744659934243387,0.2132465041966329,-1.559606387299955,-1.4599233684411579,1.2741386797242917,0.2049761667804993,0.0008842064058730268,-0.00048555545619946013,0.0010360155406247662,-0.001063344501406866,0.0006133272447928478,0.0007879843063951334,-0.0017969690003450116,-0.10798283666372299,-48.34958267211914,3.58500599861145,16.07001495361328,-1.1335347890853882,-1.0526230335235596,0.05314789339900017,734,737,784,42.694,1,0
1739373920.7827106,0.13352195313746512,0.9744656670683092,0.21324781799218318,-1.5596058832034356,-1.4599241246449532,1.2741385212381904,0.2049738786139341,-0.0008111381012142593,-0.0007984587356296244,-0.00015338614514294138,-5.3347104869588276e-05,0.0009449858426278222,0.0003690582852959887,-0.0023326776315431156,-0.05640812963247299,-48.37338638305664,3.58500599861145,16.07001495361328,-1.1271260976791382,-1.0526230335235596,0.03941498324275017,733,735,783,42.477,1,0
1739373920.793612,0.13352287778696864,0.9744677078413451,0.2132470472295378,-1.5595999278910144,-1.4599257925998108,1.2741367015957605,0.2049727103685562,-0.000513665929451087,-0.00020851559854975457,-6.0203793190479436e-05,0.0019938267822214688,0.0015587540292849493,0.0003245548386485708,-0.0015394216847960836,-0.08021184056997299,-48.37338638305664,3.60880970954895,16.02240753173828,-1.1399434804916382,-1.0452988147735596,0.04673920199275017,734,734,784,42.912,1,0
1739373920.803811,0.13352720334478232,0.9744660030542054,0.21324423941517312,-1.5596024796263233,-1.459924126744723,1.2741392802953133,0.20497241295163066,-2.6763291342688975e-05,-0.0004464862460827101,0.00036580493873342076,0.0005550170967308782,-0.0002260258219618872,0.00036672753566921944,-2.1282541093825308e-05,-0.10798283666372299,-48.34958267211914,3.60880970954895,16.04621124267578,-1.1271260976791382,-1.0590317249298096,0.05314789339900017,734,735,784,42.803,1,0
1739373920.8146358,0.13352775358236754,0.9744708259906909,0.21324859379214028,-1.5596034107159065,-1.45992696609938,1.2741370545922295,0.20497616484324893,1.3848447163569985e-05,0.0017771220214189908,-0.00029939299168571656,0.00035128482754430077,-0.0010547548617415939,-0.0002478825453976167,-0.0007479408180706829,-0.10798283666372299,-48.37338638305664,3.58500599861145,16.07001495361328,-1.1399434804916382,-1.0388901233673096,0.05314789339900017,733,734,784,42.803,0,0
1739373920.8247592,0.13352286893909354,0.9744706181474683,0.2132485937328288,-1.559603450798196,-1.459921901130771,1.274138287216574,0.20497463822415954,-0.0013984643658418354,0.0004184908134625934,0.0003157335240139354,0.0006101595012438435,0.001292711786721126,0.00012487505240654036,-0.0014282159342775124,-0.08021184056997299,-48.37338638305664,3.58500599861145,16.07001495361328,-1.1472676992416382,-1.0526230335235596,0.03300629183650017,735,737,783,42.586,1,0
1739373920.8357346,0.13352484040508147,0.9744639956069224,0.2132488600448495,-1.5596062098089902,-1.4599247798365795,1.2741386796729508,0.204975721533058,0.00019780733375626024,-0.0010049084028342166,0.0016987389978810792,-0.0006114699199750266,-9.775984709889538e-05,0.0007125015159188312,-0.001744316555349129,-0.10798283666372299,-48.32181167602539,3.58500599861145,16.09381866455078,-1.1335347890853882,-1.0526230335235596,0.03300629183650017,736,732,784,42.694,2,0
