IITGN-Robotics/Franka_IITGN_ROBOTICS/franka_ros/franka_iitgn/data/s_b_001.csv
time,fr3_joint1_pos,fr3_joint2_pos,fr3_joint3_pos,fr3_joint4_pos,fr3_joint5_pos,fr3_joint6_pos,fr3_joint7_pos,fr3_joint1_vel,fr3_joint2_vel,fr3_joint3_vel,fr3_joint4_vel,fr3_joint5_vel,fr3_joint6_vel,fr3_joint7_vel,fr3_joint1_eff,fr3_joint2_eff,fr3_joint3_eff,fr3_joint4_eff,fr3_joint5_eff,fr3_joint6_eff,fr3_joint7_eff,flexpin1,flexpin2,flexpin3,Force,ContactMic,ContactMic_gt
1739373776.0317671,0.13569926249995523,0.9768843337539902,0.21052856570873935,-1.5554560879844286,-1.456849781299902,1.2709026450625447,0.20390413704264546,-0.00044830471683950356,-0.00039651446678462467,-0.00034005942354335325,0.0008856475922460137,-0.0003007116538470576,-5.739232083471545e-05,0.0014015738982385807,-0.2547723948955536,-48.06790542602539,3.25175404548645,15.947029113769531,-0.9769796133041382,-1.2494614124298096,-0.0008682189509272575,,,,,,,,,
1739373776.04268,0.1357011992156858,0.9768840950464891,0.2105321380939186,-1.5554549852302295,-1.4568451698246172,1.2709007765316473,0.20390437438571743,0.0004431099997253625,0.0002386176307825803,0.00011380818799537466,-7.644932270680816e-05,-0.0004787163491545251,0.0001376135059776218,0.0010057887969783367,-0.2547723948955536,-48.06790542602539,3.1763756275177,15.923225402832031,-0.9897969961166382,-1.2366440296173096,-0.0008682189509272575,,,,,,,,,
1739373776.0527117,0.13569830048292425,0.9768823829241372,0.21053218449107827,-1.5554522534367894,-1.4568451704325174,1.270901534189732,0.20390120649423768,-0.0010913209244459389,0.0003027698429727471,8.812153185948142e-05,0.0006407156775245259,-0.002044556310348519,-0.00045673027786889833,-0.0005594267876312778,-0.2309686839580536,-48.04410171508789,3.20414662361145,15.899421691894531,-0.9897969961166382,-1.2430527210235596,0.026597600430250168,,,,,,,,,
1739373776.0637097,0.13569623635258204,0.9768902690933743,0.2105322107730488,-1.5554568088165097,-1.456847559337127,1.2709022918498103,0.20389805507190484,-0.001251076724366279,0.0008410437885185429,8.3767032330181e-05,-0.0010802381489075895,0.00022460319306391905,0.00024593991206559615,-0.0020143159770037488,-0.2071649730205536,-48.11948013305664,3.20414662361145,15.923225402832031,-0.9833883047103882,-1.2494614124298096,0.026597600430250168,,,,,,,,,
1739373776.074652,0.13570213860254282,0.9768845282691906,0.2105342993524894,-1.555453950716313,-1.4568435457821578,1.2709022918498103,0.20390763183882282,0.0009266410298770587,-0.0004136561981702507,-2.196934573385305e-05,0.00035683785602245435,0.0012476549961885183,0.0008024620340918024,0.0016003895655915341,-0.2547723948955536,-48.04410171508789,3.1763756275177,15.923225402832031,-0.9897969961166382,-1.2494614124298096,-0.027418512850999832,,,,,,,,,
1739373776.0856214,0.1356996413763388,0.9768840950209157,0.21053437389998314,-1.5554500853262039,-1.4568442994508193,1.270901534189732,0.20390757936550158,-0.0002123278467918372,-0.0005130524122879587,0.0009196968422866736,9.132629744947035e-05,-0.0008689189342873155,-8.80724443517453e-05,0.0015508898695511808,-0.2309686839580536,-48.06790542602539,3.1763756275177,15.871650695800781,-0.9833883047103882,-1.2430527210235596,-0.027418512850999832,,,,,,,,,
1739373776.0957913,0.13570043631864825,0.976883097743809,0.21053436966939387,-1.5554496985139528,-1.456842783634016,1.2709036894323968,0.203907631855946,0.00034548837812651715,-0.0002873923542660654,2.4569668216892465e-05,0.0008610537022694205,-8.146690603718485e-05,0.0008740287654657164,0.0008599460393177489,-0.2309686839580536,-48.04410171508789,3.1763756275177,15.899421691894531,-0.9962056875228882,-1.2622787952423096,-0.027418512850999832,,,,,,,,,
1739373776.1067076,0.13569726041567018,0.9768841224849398,0.21053044090098919,-1.555453855078971,-1.4568385452470334,1.2709014164514973,0.20390449297925742,-0.0015506931970249147,0.0005086651322363561,-0.0005285009198809122,-0.0008291402905190098,0.0023817035599576304,-0.0001914205527560674,0.0017656041679462613,-0.2309686839580536,-48.06790542602539,3.22795033454895,15.923225402832031,-0.9962056875228882,-1.2430527210235596,-0.0008682189509272575,,,,,,,,,
1739373776.117696,0.13570040112026566,0.9768858075296889,0.21053221109880413,-1.5554516831612553,-1.4568435281882077,1.2709006529772178,0.20390449297925742,-0.00013467889249304074,-0.0005529572977748589,-0.0007152095418719382,-0.0005811476488729085,2.0240212260506083e-05,-0.0009304844884064801,-0.0002172644263605649,-0.2309686839580536,-48.09170913696289,3.20414662361145,15.923225402832031,-0.9897969961166382,-1.2366440296173096,-0.0008682189509272575,,,,,,,,,
1739373776.1277492,0.13570043633151457,0.9768878093949726,0.2105322410479289,-1.555450768731306,-1.4568435412938638,1.270899311348913,0.20390198053364528,-0.00011843353885617429,0.0003709097901493569,-3.095102376028875e-06,-0.00020054762935591838,-0.0003246560706769459,-0.0006945946709380005,0.00042877354033432966,-0.2309686839580536,-48.11948013305664,3.20414662361145,15.923225402832031,-0.9897969961166382,-1.2366440296173096,0.019273381680250168,,,,,,,,,
1739373776.138646,0.13570043924829608,0.9768844142084587,0.2105332391374554,-1.555452859290673,-1.456843500110162,1.2709000186997987,0.2038980176470098,0.0007102664677853098,0.000300703601179651,0.0002206890846908799,-0.001248726448823797,0.0003979807773474871,0.0007877990804256995,-0.0027631729679947906,-0.2309686839580536,-48.06790542602539,3.20414662361145,15.947029113769531,-0.9897969961166382,-1.2302353382110596,0.026597600430250168,,,,,,,,,
1739373776.1486876,0.13570256611950296,0.9768858873456594,0.21053429061529905,-1.555453558066045,-1.4568413707810761,1.2709015341897232,0.20390446762204148,0.0015361973767075198,-0.00039432868495178864,-0.00017003265450597565,-0.000967737084284445,0.0018436020037593266,0.0010583316103600113,-0.001160248365900517,-0.2309686839580536,-48.09170913696289,3.1763756275177,15.947029113769531,-0.9962056875228882,-1.2430527210235596,0.026597600430250168,,,,,,,,,
1739373776.1596136,0.13570114496911748,0.9768842098394223,0.21053066837695034,-1.5554508351564773,-1.4568396032634108,1.2709007765296534,0.2039099746283718,0.0004992053830680558,-0.0005546529818744626,-0.0004525663913174348,0.00016526982480636002,0.0004975033741869829,-0.0002752742652452292,0.00078354420047457,-0.2309686839580536,-48.06790542602539,3.22795033454895,15.923225402832031,-0.9962056875228882,-1.2366440296173096,-0.020094294100999832,,,,,,,,,
1739373776.1696954,0.13569943245637953,0.9768859134952914,0.21053516543862902,-1.5554491853216645,-1.45683818745427,1.270897440631839,0.20390206184517937,-0.0002772076534028085,0.0006162793186773176,8.154149363946982e-06,0.0004375183711354899,0.0015583737055539022,-0.0016268876731719997,-0.0011229827163141714,-0.2071649730205536,-48.09170913696289,3.20414662361145,15.899421691894531,-0.9962056875228882,-1.2366440296173096,-0.0072769103571772575,,,,,,,,,
1739373776.1797004,0.1356980118790125,0.9768855739639732,0.2105351113945566,-1.5554529818584604,-1.4568383367855682,1.2708975975587717,0.20390285624511081,-0.0013505425601992886,2.5393033138744697e-05,0.0005949582571994041,0.0007467196639572005,0.0023677078800451597,-0.001522160309105479,-0.0005647838950891487,-0.2071649730205536,-48.09170913696289,3.1763756275177,15.923225402832031,-1.0026143789291382,-1.2366440296173096,0.012864691205322742,,,,,,,,,
1739373776.1906726,0.13570043632005427,0.9768819919175042,0.21053445252748845,-1.5554547724187557,-1.456837432692675,1.2709015334898734,0.20389968057322802,-4.3128552170452913e-05,-0.0017893810721154799,0.0007086736704461603,-0.0009997225281005119,0.0011874409511037798,0.0001154038310286505,-0.000836034275118224,-0.2309686839580536,-48.06790542602539,3.20414662361145,15.947029113769531,-1.0026143789291382,-1.2430527210235596,0.012864691205322742,,,,,,,,,
1739373776.2007372,0.13570285470003796,0.9768886726105517,0.21053141592576602,-1.5554527987198454,-1.4568380721672143,1.2709030495098848,0.20390763183883379,0.0006186357032332431,0.0019367746946338529,0.00024503310810861963,-7.9653890323054e-05,0.0008016965779258841,0.0004313609763054452,0.001269114685724358,-0.2547723948955536,-48.09170913696289,3.22795033454895,15.923225402832031,-0.9962056875228882,-1.2558701038360596,-0.027418512850999832,,,,,,,,,
1739373776.2117298,0.13570129902020708,0.9768824620134434,0.2105353876718182,-1.5554468667233912,-1.4568385036556295,1.2709004233169436,0.20390842864466888,0.00021944359684248,0.0002979839502390819,-3.253855906442012e-05,0.0006047794237303771,-0.000751826702829611,4.505072021918766e-05,0.0004595414570511189,-0.2825433909893036,-48.04410171508789,3.20414662361145,15.871650695800781,-0.9962056875228882,-1.2366440296173096,-0.03382720425724983,,,,,,,,,
1739373776.2227,0.13570217508243296,0.9768895144667076,0.2105354141971676,-1.5554489464652252,-1.4568403487890682,1.2709007707134585,0.20390383337355864,0.0008514384134254336,0.0013050168492582304,-0.0003679008122700342,6.46270037030851e-06,-0.0018371452699003671,0.0004160925012751149,-0.000450455443060029,-0.2547723948955536,-48.14328384399414,3.20414662361145,15.899421691894531,-0.9897969961166382,-1.2366440296173096,-0.0072769103571772575,,,,,,,,,
1739373776.2336218,0.1356987237030162,0.9768858134709006,0.21053324353200098,-1.5554532270750006,-1.456839585105587,1.2709000188695425,0.2039060082914136,-0.0010344794982310474,0.00020830937889050762,-0.000423208744502368,-0.0007744485161297837,-0.0003920098977979845,-7.127180956952787e-05,-0.0006196102483634797,-0.2071649730205536,-48.09170913696289,3.20414662361145,15.947029113769531,-0.9962056875228882,-1.2302353382110596,-0.013685601763427258,,,,,,,,,
1739373776.243691,0.13570113909185658,0.9768803758805257,0.21053541155627573,-1.5554525119403924,-1.4568411943649047,1.2708967987712636,0.20390759248833487,0.00018885506898172662,-0.001572009598705948,0.00022758922820107354,-0.002003454293602219,0.0002536006962670665,-0.0029468554545685846,0.00037841432913440234,-0.2309686839580536,-48.01633071899414,3.20414662361145,15.947029113769531,-0.9962056875228882,-1.2302353382110596,-0.027418512850999832,,,,,,,,,
1739373776.2537327,0.13570084983028485,0.9768848103734094,0.21053117829082219,-1.5554510826159857,-1.4568369513174837,1.2709007764751208,0.2039087712675379,0.00032103973794950073,0.001085357706136382,-0.0018529719832551493,-0.0015785361896675778,0.0015572108423667094,-4.2138868244840494e-05,0.0009493474768344345,-0.2071649730205536,-48.06790542602539,3.22795033454895,15.947029113769531,-0.9962056875228882,-1.2366440296173096,-0.0008682189509272575,,,,,,,,,
1739373776.2637436,0.1357021488888464,0.9768878054825018,0.21053291975140392,-1.5554525117950595,-1.4568395305645643,1.2709007632861948,0.20390479149438512,0.0006071460478863913,0.0015802845918615957,-0.000916911578591452,-0.0013383088547864865,9.492772353024469e-06,-0.0012250002873436842,-0.00045126509500706174,-0.2547723948955536,-48.11948013305664,3.22795033454895,15.947029113769531,-0.9833883047103882,-1.2366440296173096,-0.0072769103571772575,,,,,,,,,
1739373776.2746558,0.13570238506384197,0.976884097952242,0.21053160208396587,-1.5554522729646187,-1.4568352920300647,1.2709015196003195,0.20390602150141773,0.0008173319756640578,-0.0013377257388913133,-0.0010237217756336777,-0.0005601113815920471,0.0005950538411094785,-0.00014803969062905856,0.0011691187726318147,-0.2547723948955536,-48.06790542602539,3.25175404548645,15.947029113769531,-0.9833883047103882,-1.2430527210235596,-0.013685601763427258,,,,,,,,,
1739373776.2846758,0.13569872381537995,0.9768823824881213,0.2105347025743013,-1.555450729138199,-1.4568375562291676,1.2708983546290746,0.20390287382370206,-0.000991321739128605,-0.0008701679454816101,-0.00020277896876413687,0.0004499898683449926,0.000677205539528901,-0.0007487152048647554,0.0006943320520863599,-0.2071649730205536,-48.04410171508789,3.20414662361145,15.923225402832031,-0.9897969961166382,-1.2430527210235596,0.012864691205322742,,,,,,,,,
1739373776.2946863,0.13569872381137976,0.9768840950088027,0.2105354135341929,-1.5554482312094877,-1.4568380015138462,1.2708998618323024,0.20390930563221235,-0.00016983423101630366,0.0010478557170797965,2.6958151472556227e-05,0.000919397052760625,-9.175929161141282e-05,-0.00043213891389655163,0.0011129594495713755,-0.2071649730205536,-48.06790542602539,3.20414662361145,15.899421691894531,-0.9962056875228882,-1.2302353382110596,-0.04023589566349983,,,,,,,,,
1739373776.304736,0.13570256223110788,0.9768879446299524,0.2105354145228371,-1.5554485715891622,-1.456834377386327,1.270900776526994,0.20390764068983613,9.541995393195921e-05,0.0005149094458552272,-0.0005146038399596282,0.0004907565368038173,0.0012439712606682552,0.0012805479434874136,0.0017027214378592702,-0.2309686839580536,-48.09170913696289,3.20414662361145,15.923225402832031,-0.9897969961166382,-1.2366440296173096,-0.027418512850999832,,,,,,,,,
1739373776.315637,0.13570043634411166,0.9768851055313371,0.21053363184583482,-1.555450614335934,-1.4568355925297525,1.270901180977022,0.203903626596044,-0.0002581208272511802,-0.00027020462673930766,-0.00020126888266626457,-0.00010333802892003906,-0.00033842142239717756,-0.0001993254966200713,-0.0004742829060464293,-0.2309686839580536,-48.09170913696289,3.22795033454895,15.923225402832031,-0.9897969961166382,-1.2430527210235596,0.0064559997990727425,,,,,,,,,
1739373776.3256888,0.13569943536056409,0.9768860132495134,0.21053363184583482,-1.5554489464632808,-1.4568369515327964,1.2709003012127413,0.2039076318568267,-0.00022470854057390867,-1.7695450747709623e-05,-0.0005021947165163934,-0.0001507984211077485,-0.0005573290348292986,-0.00013780369513826144,0.0013322772801332861,-0.2071649730205536,-48.09170913696289,3.22795033454895,15.899421691894531,-0.9962056875228882,-1.2366440296173096,-0.027418512850999832,,,,,,,,,
1739373776.335719,0.1357049604455111,0.9768858075399856,0.21053749431270943,-1.555452511819263,-1.4568369522908027,1.2709006195220782,0.2039060082994141,0.0028750649705903174,0.0003236581044989322,0.0006703881116123397,-0.0006585172576951178,-0.0013225346120485362,0.0001643535760749035,-4.417279133190522e-05,-0.2825433909893036,-48.09170913696289,3.1763756275177,15.947029113769531,-0.9769796133041382,-1.2366440296173096,-0.013685601763427258,,,,,,,,,
1739373776.346453,0.13570043633670398,0.9768831330650799,0.21053363184583482,-1.555446800698013,-1.4568395259877591,1.2709014118752842,0.20390525063933576,-0.0004091250755448109,-0.0006843313436946591,-0.00015800429672090138,-0.0002741182119819351,-0.0001829725959348684,-0.00036336592968738403,-0.0003101332665255703,-0.2309686839580536,-48.04410171508789,3.22795033454895,15.899421691894531,-0.9833883047103882,-1.2430527210235596,-0.0072769103571772575,,,,,,,,,
1739373776.3576941,0.13569872348584502,0.9768840950130396,0.21053541452285385,-1.5554496507478623,-1.4568368867855028,1.2709006195455363,0.20390763185683494,-0.0006886623356823945,-0.0009146363406703274,-0.0002962577577836322,-0.00021050657204779846,0.001058674689658683,0.0009393225036693699,0.0005378723179264343,-0.2071649730205536,-48.06790542602539,3.20414662361145,15.947029113769531,-1.0026143789291382,-1.2366440296173096,-0.027418512850999832,,,,,,,,,
1739373776.3677382,0.13570138117610772,0.9768802764572894,0.21053748552327278,-1.5554494033859112,-1.4568387728665753,1.2708983494602568,0.20390835014841333,0.0002844910975044743,-0.0016567013915027547,0.0002449466705348006,-0.0006365047459794051,-0.0009102897541724941,-0.0009723180985632222,-3.4961617972116966e-05,-0.2309686839580536,-48.04410171508789,3.1763756275177,15.947029113769531,-0.9897969961166382,-1.2430527210235596,-0.03382720425724983,,,,,,,,,
1739373776.3786538,0.1357008497263777,0.9768840950821531,0.21053757304956047,-1.5554496955063613,-1.456837858278998,1.27090065873815,0.20390775069752787,-0.0012693072126482873,-0.0003412312432123621,0.0002164171288454475,3.2496165522913974e-05,0.0006003930053299259,0.00043861168885766974,0.000978135122373311,-0.2071649730205536,-48.06790542602539,3.1763756275177,15.923225402832031,-0.9962056875228882,-1.2366440296173096,-0.027418512850999832,,,,,,,,,
1739373776.3887336,0.1356967287987127,0.976885495524974,0.21053643810429687,-1.5554481944288314,-1.4568374919296156,1.2708971266104856,0.20390676164033553,-0.0008909610225269332,-0.000426444293263682,0.0011085768459894788,-0.00046803337884273536,0.0003223039773682663,-0.0010195914733292471,0.0003960272497512692,-0.1793939769268036,-48.09170913696289,3.20414662361145,15.899421691894531,-0.9962056875228882,-1.2366440296173096,-0.020094294100999832,,,,,,,,,
1739373776.4007134,0.13569743741972737,0.9768858085089189,0.210535414528632,-1.555450481889102,-1.4568356848041915,1.2709007721483987,0.2039033844011474,-0.0010871088832339277,0.0006672846011433998,0.00033851896865870327,-0.0014416561204159443,-0.0004210943399585383,-0.00025902982702178767,0.0010854324774844453,-0.1793939769268036,-48.09170913696289,3.20414662361145,15.923225402832031,-1.0026143789291382,-1.2366440296173096,0.012864691205322742,,,,,,,,,
1739373776.4117155,0.13570246385018359,0.9768840683724962,0.21053541452285388,-1.5554507287057138,-1.456837997260566,1.2709022916882964,0.2039063269231394,0.0009736912319946878,-0.0003181406083750042,0.0009874493552355168,-0.0014588782156436943,0.0015056546168824968,-0.0007891658785162429,0.00032913898304649716,-0.2547723948955536,-48.06790542602539,3.20414662361145,15.923225402832031,-0.9962056875228882,-1.2494614124298096,-0.013685601763427258,,,,,,,,,
1739373776.4226995,0.13570085360040177,0.9768858909268289,0.21053544951707603,-1.5554484730142273,-1.456834830318394,1.2708960480768672,0.20390676596140117,0.0005997275031359307,0.000591100387422667,-0.001420512283011848,-1.7365445805941947e-05,-0.000491819498753912,-0.002274071046102166,-0.0007895692459227789,-0.2071649730205536,-48.09170913696289,3.20414662361145,15.923225402832031,-0.9962056875228882,-1.2366440296173096,-0.020094294100999832,,,,,,,,,
1739373776.4327033,0.13570084974644486,0.9768850226841513,0.21053544076911312,-1.5554446018241848,-1.4568349324646999,1.270900121258816,0.20390125173345516,-0.0010759540708142426,-0.0008190412875958454,0.00011766085087434739,0.0006243657023391137,-0.0008247717666222051,0.0007440483411893846,-0.0013547644958982297,-0.2071649730205536,-48.06790542602539,3.20414662361145,15.871650695800781,-0.9833883047103882,-1.2430527210235596,0.026597600430250168,,,,,,,,,
1739373776.44462,0.13569872382338066,0.9768878332747721,0.21053927828595895,-1.5554478548792023,-1.4568340176876702,1.2708978276286287,0.2039004882047008,-0.0005322982428342263,0.0008565124400283699,0.0014869675372469195,-0.0007122180728648369,-5.307445658706623e-05,-6.39510772340405e-05,-0.0007598809933900959,-0.2071649730205536,-48.11948013305664,3.1525719165802,15.923225402832031,-0.9897969961166382,-1.2430527210235596,0.03300629183650017,,,,,,,,,
1739373776.454695,0.13570044508066664,0.9768833929990128,0.21053962021172837,-1.555446482648882,-1.4568343651557218,1.2709004308823244,0.20390707787165088,0.0008406662482813948,0.00015526824400671115,0.0018277115193914624,0.00029471982104256123,0.0014870061779262147,0.00047185273838927814,0.0010265119875040524,-0.2309686839580536,-48.06790542602539,3.1763756275177,15.899421691894531,-0.9962056875228882,-1.2430527210235596,-0.013685601763427258,,,,,,,,,
1739373776.4647,0.1356975482347971,0.9768863467358646,0.21053749529677193,-1.5554495404216033,-1.456834467933198,1.2709004738993521,0.20390798838695165,-0.00030145592760545464,0.0003662845639238122,0.0002236246655141409,-0.0008470029356811365,-0.0005659018733019907,-4.381569320955313e-05,0.0005543718142155468,-0.1793939769268036,-48.06790542602539,3.1763756275177,15.947029113769531,-0.9962056875228882,-1.2430527210235596,-0.027418512850999832,,,,,,,,,
1739373776.4756532,0.1356967287913541,0.9768858073995816,0.21053757304971488,-1.5554492926974373,-1.4568390022239606,1.2709014164461767,0.20390870164844396,-0.001689049781630726,0.00034515870571348665,0.0006458619669486404,0.0001072773866743795,-0.0003252653258069516,0.0006065201695595389,0.0015400965373289438,-0.1793939769268036,-48.09170913696289,3.1763756275177,15.947029113769531,-0.9833883047103882,-1.2430527210235596,-0.027418512850999832,,,,,,,,,
1739373776.4856896,0.13570256223115734,0.9768862411030611,0.21053327869108282,-1.5554477498911436,-1.456834311607451,1.2708987992731222,0.20390525065745277,0.0010143205645325372,-0.00015858444729135185,-0.0008730659344138091,-0.0005703866989248838,-0.0006452236454300801,0.0007996946951269949,0.0005935408916753835,-0.2309686839580536,-48.06790542602539,3.20414662361145,15.923225402832031,-0.9962056875228882,-1.2229111194610596,-0.0072769103571772575,,,,,,,,,
1739373776.4966462,0.1357004364881208,0.9768840950572562,0.21053363190561433,-1.555447775511326,-1.4568391577529545,1.2709014148351094,0.20391268541198793,0.0002843262242830906,-0.000576771529403568,-0.00012148237915483146,-6.347245639651088e-05,-0.00046218005350164585,0.0007015150072809328,0.0013903629123332747,-0.2309686839580536,-48.06790542602539,3.22795033454895,15.923225402832031,-0.9833883047103882,-1.2430527210235596,-0.03382720425724983,,,,,,,,,
1739373776.507686,0.13569896131846432,0.9768803845472193,0.21053363184583584,-1.5554475104959142,-1.4568343752806732,1.2708953088802402,0.20390838958966465,-0.00034288215620882796,-0.001282516998571081,-0.0009753182315143854,0.0004868805535800944,-0.0006660194425177333,-0.0009588188209805127,0.00010975907619015517,-0.2071649730205536,-48.01633071899414,3.22795033454895,15.923225402832031,-0.9897969961166382,-1.2302353382110596,-0.03382720425724983,,,,,,,,,
1739373776.518611,0.13569873256127596,0.9768895484066569,0.21053749431270946,-1.5554457540146502,-1.4568323714952878,1.2708953872935516,0.20390362702802198,-0.0004342637922325495,0.0017186728029746708,0.0005419537563064434,0.00124063634084966,0.0015812848988305862,-0.0016299043059393153,0.00018344948971635885,-0.2071649730205536,-48.14328384399414,3.1763756275177,15.899421691894531,-1.0026143789291382,-1.2302353382110596,0.0064559997990727425,,,,,,,,,
1739373776.5287623,0.13569872780778164,0.9768858302781103,0.21053749431270946,-1.5554466811621184,-1.4568332076429928,1.2708993112725695,0.20390288246453095,-0.0008799550923097761,0.00035122935809726906,0.0004505864388249978,-0.0005252466985892579,0.0005572426402488202,-0.0021243882922964653,-0.00014953410404632724,-0.2071649730205536,-48.09170913696289,3.1763756275177,15.899421691894531,-0.9962056875228882,-1.2366440296173096,0.012864691205322742,,,,,,,,,
1739373776.5396085,0.13570256518330287,0.9768823824881143,0.21053678334040302,-1.5554478735713,-1.4568364258051576,1.2708998655860704,0.20390763185685948,-0.000700722862414856,-0.0019221004896505076,-0.0001492830912042107,0.0002981855550021474,-0.00030197427978354935,0.00013621309970659448,-0.00025715138173254114,-0.2309686839580536,-48.04410171508789,3.1763756275177,15.899421691894531,-0.9962056875228882,-1.2558701038360596,-0.027418512850999832,,,,,,,,,
1739373776.5496795,0.1356988547217611,0.9768844080830168,0.21053351488870867,-1.5554475105277648,-1.4568350773248384,1.2709015204078373,0.2039068357987354,-0.0010641280929722672,-0.00015600224696628437,-0.0008478342840052607,0.0006432313168438644,0.00016081246346367838,-9.59211161110662e-06,-0.0007649912148422677,-0.1793939769268036,-48.04410171508789,3.20414662361145,15.923225402832031,-0.9897969961166382,-1.2430527210235596,0.0064559997990727425,,,,,,,,,
1739373776.560681,0.13570055021935953,0.9768858085221148,0.2105354154841921,-1.555447549737283,-1.4568300679825112,1.2709029926060105,0.2039032727836388,0.0006135517608260221,0.0005208336818142495,-0.0004529133372367726,-0.0002887328848280953,0.0005675768403543814,0.0007393297330829557,-0.00033413815996058237,-0.2309686839580536,-48.09170913696289,3.20414662361145,15.923225402832031,-0.9962056875228882,-1.2558701038360596,0.0064559997990727425,,,,,,,,,
1739373776.5707257,0.13569954618138683,0.9768856948612707,0.21053773052375796,-1.5554475104934202,-1.456832488584743,1.2709007765267626,0.203901404301892,0.0007584095246458967,-7.451578532984221e-05,0.0008948833362570248,-0.0006255528417664368,0.0008558625097103489,0.0016332613195517848,-0.0001894731159172166,-0.2071649730205536,-48.09170913696289,3.1763756275177,15.923225402832031,-1.0026143789291382,-1.2366440296173096,0.026597600430250168,,,,,,,,,
1739373776.5816877,0.13570044837042267,0.9768878053631774,0.2105374946371745,-1.555445702195584,-1.4568340046227009,1.2709010442715187,0.2039075926516528,5.052797753970139e-05,0.0009502044492431009,0.0002734145987430745,0.0007183111616555799,0.0011060273596897703,0.0014389878102736425,8.220882217598534e-06,-0.2309686839580536,-48.11948013305664,3.1763756275177,15.899421691894531,-0.9897969961166382,-1.2430527210235596,-0.027418512850999832,,,,,,,,,
1739373776.5926797,0.13570138517243127,0.9768878054703863,0.21053544087652917,-1.5554496562584934,-1.4568324887462487,1.270899964191195,0.2039005014090419,0.0010179060075863697,-0.00021607779598612,0.0004090293600072031,-0.0007143110440830323,0.0008180557403342642,-0.00044110612794029576,-0.0007637146919859696,-0.2309686839580536,-48.11948013305664,3.20414662361145,15.923225402832031,-1.0026143789291382,-1.2430527210235596,0.03300629183650017,,,,,,,,,
1739373776.6036763,0.13570075139347354,0.9768878114481123,0.21053750601360122,-1.5554450155142219,-1.4568350641890484,1.2709007745827239,0.2039083895169878,0.0020758574372261025,0.0007370351635500792,0.0013866579192233323,0.0010966067346969946,-0.001262333247679917,0.0017639369691664825,0.003232614511672149,-0.2309686839580536,-48.11948013305664,3.1763756275177,15.899421691894531,-0.9897969961166382,-1.2366440296173096,-0.03382720425724983,,,,,,,,,
1739373776.613709,0.13569875308657398,0.9768823855406282,0.21053572947105156,-1.5554429357001907,-1.456834749146993,1.270900474390064,0.20390763185683494,0.00027964748858426924,-0.0013896697007204249,-0.00018320613754142708,0.0015373874045111543,-0.0003702343220482689,7.8007671171444e-05,0.000879511280325558,-0.2071649730205536,-48.04410171508789,3.20414662361145,15.871650695800781,-0.9833883047103882,-1.2430527210235596,-0.027418512850999832,,,,,,,,,
1739373776.624708,0.13570138456048972,0.9768840950088198,0.2105354149566592,-1.5554492931644242,-1.4568347622109263,1.2709004730382345,0.20391077220147963,0.0012263976667777011,0.00024280302536646908,-0.00020780495796273138,-0.0005711032531170707,-0.001076374570081581,0.001223351784214376,0.0018870194897511851,-0.2309686839580536,-48.06790542602539,3.20414662361145,15.947029113769531,-0.9833883047103882,-1.2430527210235596,-0.05396880581974983,,,,,,,,,
1739373776.6356926,0.13569968130823915,0.9768823733932884,0.21053622857055415,-1.5554475104914263,-1.4568340045509216,1.2709011744988281,0.2039092191354054,-0.00010497125838391814,-0.0008821842010258355,0.0008621811527665141,0.00016318770610849375,0.00024780306046456456,-0.00069045880129488,0.0018448835108384456,-0.2071649730205536,-48.04410171508789,3.20414662361145,15.923225402832031,-0.9897969961166382,-1.2430527210235596,-0.013685601763427258,,,,,,,,,
1739373776.6466823,0.13569876172358875,0.9768843599183179,0.21053749333763716,-1.5554457399152128,-1.4568332468908434,1.2709007357577895,0.20390714625884301,-0.001295824437706686,2.9585935021586302e-05,2.603791585163374e-05,-0.0009987012065376915,-4.985310685653556e-05,-0.00037683006753696363,1.6868844878080327e-05,-0.2071649730205536,-48.06790542602539,3.1763756275177,15.899421691894531,-0.9962056875228882,-1.2366440296173096,0.012864691205322742,,,,,,,,,
1739373776.6586764,0.13570088470481287,0.9768833361638833,0.21053930366741705,-1.5554475104914944,-1.4568324890692594,1.2708989951976222,0.20390449300340027,0.00016037164471350223,0.0017643917904756792,0.0014317018301232016,-0.0005116253215353867,0.0009249876627795822,0.001981511717204838,-0.0007706161130441501,-0.2071649730205536,-48.04410171508789,3.1525719165802,15.923225402832031,-1.0026143789291382,-1.2494614124298096,-0.0008682189509272575,,,,,,,,,
1739373776.6686876,0.13570047137453364,0.976882382493455,0.21053541743918963,-1.55544929186025,-1.4568317184887336,1.2709014818433133,0.20389972018723784,-1.0504495640052133e-05,-0.0006273466370315969,0.0006909803340941376,-0.0010876057268167732,0.0009254726796793951,0.0021982190112715687,-0.0009703468994175843,-0.2309686839580536,-48.04410171508789,3.20414662361145,15.947029113769531,-1.0090230703353882,-1.2430527210235596,0.012864691205322742,,,,,,,,,
1739373776.6797059,0.13569672633875418,0.9768840950451414,0.21053386906491497,-1.5554489310593913,-1.4568340039048255,1.270901933630132,0.20390600822763313,-0.0005309726828652149,-0.0005605054850642148,0.0002542441542803874,-0.0008881982809626834,-0.0002810063953429587,0.0008174645421714542,-0.000279277534369905,-0.1793939769268036,-48.06790542602539,3.22795033454895,15.970832824707031,-0.9897969961166382,-1.2494614124298096,-0.013685601763427258,,,,,,,,,
1739373776.6906784,0.13569896550075364,0.9768840954448683,0.21053749431672678,-1.5554492876813097,-1.4568314165106724,1.270897226307864,0.20390763185683372,-4.367186334041273e-05,-0.00016082564132481223,0.0005705924105243924,-0.0005425128901809102,0.0006620506905459017,-0.0013239307617766358,0.0013289440610307613,-0.1793939769268036,-48.06790542602539,3.1763756275177,15.947029113769531,-1.0026143789291382,-1.2366440296173096,-0.027418512850999832,,,,,,,,,
1739373776.7006958,0.13570138118875233,0.9768840950088051,0.21054032884470544,-1.5554458102306752,-1.4568324892247095,1.270897475281663,0.20390732656741478,0.00044787623738890844,-0.0004241484663817673,0.0019715671585353416,0.0004328459839889746,0.00020469773794038086,-0.00026531117883765774,0.0006378445172475957,-0.2309686839580536,-48.06790542602539,3.1763756275177,15.899421691894531,-1.0026143789291382,-1.2366440296173096,-0.03382720425724983,,,,,,,,,
1739373776.7116795,0.1357004392642973,0.9768856994396048,0.2105358366378416,-1.555449576787174,-1.456831583296612,1.2709014816445106,0.2039059557900797,-0.000936138597595027,4.251965847859227e-05,-7.574481121121104e-05,-0.0009917073668967288,-0.0009124568187779269,0.001631372386428886,0.00022182617992487808,-0.2309686839580536,-48.11948013305664,3.22795033454895,15.923225402832031,-0.9833883047103882,-1.2430527210235596,-0.013685601763427258,,,,,,,,,
1739373776.7226696,0.1356999142329968,0.9768824089631732,0.2105374943288589,-1.5554435820631962,-1.456834004526995,1.2708999842205542,0.20389966745051905,0.001278216572754857,-0.000671950017796516,0.0009650679560467449,0.0005891800917375536,-0.0010060526949675498,-0.0013504619740243866,-0.0015917968822114306,-0.1793939769268036,-48.04410171508789,3.1763756275177,15.899421691894531,-0.9897969961166382,-1.2430527210235596,0.012864691205322742,,,,,,,,,
1739373776.7336617,0.1356988810573807,0.9768862406691665,0.21053927698972855,-1.5554457189719764,-1.4568340045509216,1.2709007549539337,0.20390281943284339,-0.0017766125455372453,-0.00016376626553306283,0.0010034192269107595,0.00021899409043197037,2.9415019968839247e-05,-0.0008453198112716704,3.937768145113337e-05,-0.1793939769268036,-48.06790542602539,3.1525719165802,15.899421691894531,-0.9897969961166382,-1.2494614124298096,-0.013685601763427258,,,,,,,,,
1739373776.743684,0.13570359459716025,0.9768840949381421,0.2105336697562422,-1.5554425488998693,-1.456832489230765,1.2709004551449052,0.20390525058533202,0.0005249199285342707,-0.0005039678352979359,-0.0015468393666506167,0.0011973330052650485,-0.0010401505598592177,-0.0005658219132410877,0.00021993402903986673,-0.2309686839580536,-48.06790542602539,3.22795033454895,15.899421691894531,-1.0026143789291382,-1.2430527210235596,-0.0072769103571772575,,,,,,,,,
1739373776.7546577,0.13569885178735214,0.9768858075295335,0.2105392769899425,-1.5554488231153478,-1.4568329449127924,1.270899112929331,0.2039044929792571,-0.001457249831130886,0.0003883429398082348,0.0009625098858604033,-0.0009159475988418745,-0.00012623007421158768,0.0005595978738774932,-0.00042413603829288853,-0.1793939769268036,-48.09170913696289,3.1525719165802,15.970832824707031,-0.9897969961166382,-1.2494614124298096,-0.0008682189509272575,,,,,,,,,
1739373776.764697,0.13570217650259878,0.9768844982599796,0.21053363184583485,-1.555445367553203,-1.456831583242777,1.270896522795611,0.20390498595082335,0.00020174756518955093,-0.00036501508951134625,-0.002069876715214661,-0.00041395748655275117,-0.001641736959136966,-0.001578401892607826,-9.823589456832904e-06,-0.2547723948955536,-48.06790542602539,3.22795033454895,15.923225402832031,-0.9833883047103882,-1.2366440296173096,-0.0008682189509272575,,,,,,,,,
1739373776.7757561,0.1357010980543029,0.9768878059087284,0.21053364063039265,-1.555445726784825,-1.4568330848827984,1.2708972443785433,0.20390018357010917,-0.00013210672771271382,0.0009089068792304728,-0.0007946204287665168,0.0006542483435171583,-0.00048766323352415796,0.00010855957856036765,-0.0009159356647544412,-0.2071649730205536,-48.11948013305664,3.22795033454895,15.899421691894531,-0.9962056875228882,-1.2366440296173096,0.026597600430250168,,,,,,,,,
1739373776.7866142,0.1357018996495163,0.9768878065605504,0.2105376109601332,-1.555442865434809,-1.4568328935163233,1.2709014768486036,0.2039004882026688,0.0016010902494704338,0.00013325175604542443,0.0010062324085385677,0.0017536213086567982,0.000782115318254222,-0.0005874619695693189,-5.3827939951747836e-05,-0.2071649730205536,-48.11948013305664,3.1763756275177,15.899421691894531,-0.9962056875228882,-1.2430527210235596,0.03300629183650017,,,,,,,,,
1739373776.7966828,0.13570069916658087,0.9768878054704054,0.21053565084383583,-1.5554475103339354,-1.4568323141527286,1.2708990975046932,0.20390211322915566,0.0012907851916828007,0.000428533193812345,0.0007681334312838617,0.00035913731345476967,0.00021533543632042444,-0.0012001759488140576,0.0004017683692888396,-0.2309686839580536,-48.11948013305664,3.20414662361145,15.923225402832031,-1.0026143789291382,-1.2622787952423096,0.019273381680250168,,,,,,,,,
1739373776.8076048,0.13569975164213172,0.9768801984561494,0.2105353588049596,-1.5554456479054815,-1.456834748643543,1.270900107584332,0.20390212496658222,-8.718147726522862e-05,-0.0007425500100349178,-0.000339278546342924,-0.00020369722718927463,-0.0009652000212282432,0.0013250444455617484,-0.00041119011589805176,-0.2071649730205536,-48.04410171508789,3.1763756275177,15.899421691894531,-0.9833883047103882,-1.2430527210235596,0.019273381680250168,,,,,,,,,
1739373776.8186846,0.13570147267532515,0.9768858114171327,0.2105375733375649,-1.5554457012130842,-1.456833246729108,1.270900120668711,0.20390607813888065,7.562830217816773e-05,-0.0003136627472229383,0.0006657723144519219,0.00022110972833086503,-0.00048381923306064394,0.0009457626804454348,-0.00245302853876212,-0.2309686839580536,-48.09170913696289,3.1763756275177,15.899421691894531,-0.9962056875228882,-1.2430527210235596,0.012864691205322742,,,,,,,,,
1739373776.8296413,0.13569775370564519,0.976885834020509,0.21053783550682173,-1.5554456924566473,-1.4568317315706858,1.270900290551375,0.2039059733505593,-0.0007903196433624514,0.000773781754394468,0.0012381149791081403,-0.00016326380151801068,-0.00029597249711721266,-0.0003205077399582783,-4.1134162827307264e-05,-0.1793939769268036,-48.09170913696289,3.1763756275177,15.899421691894531,-1.0090230703353882,-1.2366440296173096,-0.013685601763427258,,,,,,,,,
1739373776.8396466,0.13569896337639414,0.976882488452034,0.21053363184776086,-1.5554472720726475,-1.4568340001364357,1.2709007707127091,0.20390378553697389,0.0003875965125940123,-0.0009188348987047589,-0.0011007698093879114,0.0002551856901095944,-4.745279032031351e-05,0.00035395790958791515,-0.00047564204343894653,-0.2071649730205536,-48.04410171508789,3.22795033454895,15.923225402832031,-0.9897969961166382,-1.2366440296173096,0.0064559997990727425,,,,,,,,,
1739373776.8497396,0.13570076971245923,0.9768837132743032,0.2105354154949156,-1.5554429327647767,-1.456828244863972,1.270901167248949,0.2039102211534437,0.00025271905701019923,-0.0005158523818556501,0.00034237636073103996,0.0021431305958594027,0.0006043985971061359,-0.0006900387421391796,0.0030396114861562383,-0.2309686839580536,-48.09170913696289,3.20414662361145,15.871650695800781,-1.0026143789291382,-1.2430527210235596,-0.04023589566349983,,,,,,,,,
1739373776.860653,0.13569884046066888,0.9768801984443272,0.2105361260720435,-1.5554456924890985,-1.456831716063134,1.2709000145068532,0.2039073265734774,-0.00036598791707009653,-0.002020789047594064,-0.00048480732616539913,-0.0004163308982873315,-0.001010442414979323,0.0009456788625829297,0.0008582695833862919,-0.2071649730205536,-48.04410171508789,3.20414662361145,15.899421691894531,-0.9962056875228882,-1.2302353382110596,-0.03382720425724983,,,,,,,,,
1739373776.8706768,0.13570359002634938,0.9768819888340361,0.21053754075792155,-1.5554507579534271,-1.4568299482748939,1.2708989951977785,0.20390914911522695,0.000897980389549828,-0.0013531359999829165,-0.0002183064769130435,-0.0010788970357422931,-0.00011398267349874001,-7.082130381414283e-05,0.0005163491125403533,-0.2309686839580536,-48.06790542602539,3.20414662361145,15.970832824707031,-0.9962056875228882,-1.2494614124298096,-0.04023589566349983,,,,,,,,,
1739373776.8826091,0.13570241136331337,0.9768857305710013,0.2105346954135574,-1.5554457150577092,-1.4568338455569723,1.2708975430287117,0.20390761435973478,0.0005434300291290551,-4.8059607119483954e-05,-0.00023055910092192379,0.0005298818701836058,-0.0026451768015353407,-0.0014609616384853486,-0.0006930029528678491,-0.2547723948955536,-48.09170913696289,3.25175404548645,15.899421691894531,-0.9897969961166382,-1.2494614124298096,-0.027418512850999832,,,,,,,,,
1739373776.8926544,0.1357017948798778,0.9768850490097334,0.21053672928259165,-1.5554436480244798,-1.4568338672164434,1.2708975524745654,0.2039020986933862,0.000572158675971381,-0.00017576191591475065,0.0005485951803617718,0.0005699765157189926,-0.0016753542628039381,-0.00031609635130459677,-0.0007365518395445601,-0.2071649730205536,-48.06790542602539,3.22795033454895,15.871650695800781,-0.9897969961166382,-1.2366440296173096,0.019273381680250168,,,,,,,,,
1739373776.902681,0.13570309407287012,0.9768841038552765,0.21053973399538384,-1.55544751038241,-1.4568309392593601,1.270895856265785,0.20390525047710414,0.0008190558271221081,-3.6479098653476055e-05,0.0011216607374858489,-0.0006848377439048406,9.437795843284937e-05,-0.0013991564783406361,-0.0006594219083752127,-0.2547723948955536,-48.06790542602539,3.1763756275177,15.923225402832031,-1.0026143789291382,-1.2229111194610596,-0.0072769103571772575,,,,,,,,,
1739373776.9127376,0.13569967299166008,0.9768858075296837,0.21053749445864553,-1.5554457189840876,-1.4568293990314711,1.2708993242156221,0.20390362708202225,-0.001230540617967587,0.0003993172658097384,-0.0002496052306203099,0.0007382634489733227,-0.00022679692955483033,0.00022361102540507444,0.00012546513251084115,-0.2071649730205536,-48.09170913696289,3.1763756275177,15.899421691894531,-0.9897969961166382,-1.2366440296173096,0.0064559997990727425,,,,,,,,,
1739373776.9236832,0.13570088018438525,0.9768831589951217,0.21053636357912248,-1.5554491872044829,-1.4568300001408938,1.2709006151490316,0.20390366669581153,-0.0012520902728301569,-0.0017610554126433011,-0.0009155905399921824,-0.00017186943847751174,-0.00018637231066157142,0.001564621240087786,-0.000320348396931523,-0.2071649730205536,-48.06790542602539,3.20414662361145,15.947029113769531,-0.9833883047103882,-1.2622787952423096,0.0064559997990727425,,,,,,,,,
1739373776.9336903,0.13570327098428653,0.9768878172388601,0.21053544952243347,-1.5554492931678472,-1.4568303481453135,1.2709010569227155,0.20390287382370212,0.0008721482010617658,0.0015733489544948903,-0.00046955248529168193,-0.0007917779974952349,0.00039069400100864285,-0.001224831835523276,5.295738276175212e-05,-0.2309686839580536,-48.11948013305664,3.20414662361145,15.947029113769531,-0.9897969961166382,-1.2430527210235596,0.012864691205322742,,,,,,,,,
1739373776.9446049,0.13569990593246486,0.9768851055193396,0.2105354174752389,-1.5554484723849602,-1.4568287805574247,1.2708972956345204,0.20390449444645953,0.0001448091989623586,0.0004417292396886385,-0.0009414566659616088,-0.0009734949940861572,0.0007641486507517332,-0.0005946226825577944,0.00017114502976186603,-0.1793939769268036,-48.09170913696289,3.20414662361145,15.947029113769531,-1.0026143789291382,-1.2430527210235596,-0.0008682189509272575,,,,,,,,,
1739373776.9547248,0.1357006827496099,0.9768858075176452,0.21053962109962984,-1.5554457238759214,-1.4568301558594134,1.2708980525794902,0.20390362708204984,-0.0004245872379374473,-2.5401556553513653e-05,0.0010244738215919428,0.000288632188952638,0.0007033839431561383,-0.00160275157681906,-0.0011775320176012427,-0.2309686839580536,-48.09170913696289,3.1525719165802,15.899421691894531,-1.0090230703353882,-1.2494614124298096,0.0064559997990727425,,,,,,,,,
1739373776.9656892,0.13570280265576606,0.9768823854315106,0.21053745020394432,-1.555443101285429,-1.4568306137816527,1.2708983506754217,0.20390763625836678,0.0005008360355722411,-0.000796606520817394,-0.0007108335453114397,0.000975603506568737,9.508094749013192e-05,-0.0001093061116405061,0.001556011085498882,-0.2309686839580536,-48.04410171508789,3.1763756275177,15.899421691894531,-1.0090230703353882,-1.2430527210235596,-0.027418512850999832,,,,,,,,,
1739373776.9766967,0.13570335062252875,0.9768857295284104,0.21053749560854274,-1.5554491871534668,-1.4568284960363072,1.2708953873021684,0.2039052506393606,0.001417036508925901,-0.00021866060584848734,-0.0005366024176418603,-0.0008824548522066128,0.00037458202196563915,-0.0020761483354025854,-0.0010835862734720507,-0.2309686839580536,-48.09170913696289,3.1763756275177,15.947029113769531,-0.9962056875228882,-1.2302353382110596,-0.0072769103571772575,,,,,,,,,
1739373776.987671,0.13570510040561967,0.9768858078552617,0.2105405917334211,-1.5554435685498966,-1.4568284961236666,1.2708976607602904,0.20390122836763494,0.0008146762305807526,-0.0001728793075979558,0.000983065667849993,4.6330040074529875e-05,0.001471419127909262,-0.0008116692045463584,0.0006233665011623145,-0.2547723948955536,-48.09170913696289,3.1763756275177,15.871650695800781,-0.9962056875228882,-1.2494614124298096,0.026597600430250168,,,,,,,,,
1739373776.99768,0.13570182096071273,0.9768858075295357,0.21053749836245053,-1.5554474711361046,-1.4568292812394967,1.2708975687544015,0.20389492400739345,0.0006708648919058136,0.00010813892328002263,0.0003968891917960196,0.000447348873164413,0.0009339232402226104,-0.0007207907655934815,-0.0036429157056795318,-0.2071649730205536,-48.09170913696289,3.1763756275177,15.923225402832031,-0.9897969961166382,-1.2494614124298096,0.05314789339900017,,,,,,,,,
1739373777.0096745,0.13570359014986427,0.9768840937248332,0.21053542456751456,-1.5554471443485558,-1.4568316768684089,1.2708992396158647,0.20390763183886693,0.0009345645074954562,0.0005497296570266209,0.00010389833740461717,-0.0009445649407749002,-0.0006513469364428999,0.00038582974620948263,0.0006895066677144227,-0.2309686839580536,-48.06790542602539,3.20414662361145,15.947029113769531,-0.9962056875228882,-1.2366440296173096,-0.027418512850999832,,,,,,,,,
1739373777.0206726,0.1357018067049492,0.9768829898587134,0.21053927990597035,-1.55544463768259,-1.4568284799908666,1.2708979976394723,0.20390525063933565,-0.00036232893334621453,-0.0008571436423503224,-7.507594289291129e-05,-0.0008107935207841513,0.0005736858971275845,-0.0009589209702765068,-0.0012249026910685014,-0.2071649730205536,-48.09170913696289,3.1525719165802,15.923225402832031,-0.9962056875228882,-1.2430527210235596,-0.0072769103571772575,,,,,,,,,
1739373777.0316286,0.13570182123787042,0.9768897567314441,0.21053749468473856,-1.5554463258492286,-1.4568296300914592,1.2708961833042216,0.20391028642635098,-7.427416547387293e-05,0.0017007756577751062,0.0005144908090422023,-0.00016692551828929923,-0.001111119506110147,-0.0007417832794886825,0.0008424948508494881,-0.2071649730205536,-48.14328384399414,3.1763756275177,15.947029113769531,-0.9897969961166382,-1.2366440296173096,-0.013685601763427258,,,,,,,,,
1739373777.0416656,0.13570159673826565,0.9768821484886944,0.21053566369468285,-1.5554482029985062,-1.4568288317386422,1.2709007590092638,0.20390810729472397,-0.00048366727597772235,-0.0020573105333706976,-0.00024988277651226767,0.00018846583238196822,0.0013186503248150277,0.0007961311906117116,0.0007747426880229389,-0.2071649730205536,-48.04410171508789,3.20414662361145,15.970832824707031,-0.9962056875228882,-1.2366440296173096,-0.027418512850999832,,,,,,,,,
1739373777.0537095,0.13570530756564064,0.9768907988764433,0.21053398385377714,-1.5554471473850162,-1.4568292492632857,1.2708983552214097,0.203903537860978,0.0016410316359836532,0.0018678122274051832,-0.0008011250602775752,-0.000950106635721824,-4.444648930446824e-05,0.0013770814542991157,-0.00011172547213656489,-0.2547723948955536,-48.14328384399414,3.25175404548645,15.947029113769531,-0.9897969961166382,-1.2430527210235596,0.019273381680250168,,,,,,,,,
1739373777.0646853,0.13569957351329848,0.9768858056604981,0.21053835501359486,-1.5554454805614726,-1.4568292492792616,1.2709004744917856,0.20390763121147723,-0.0005692410686463716,0.000304869492763695,0.0021556906124278598,0.0005382426321766931,0.0001831353845307903,-5.179938521689574e-05,0.001310738676274894,-0.1793939769268036,-48.09170913696289,3.20414662361145,15.899421691894531,-0.9897969961166382,-1.2430527210235596,-0.027418512850999832,,,,,,,,,
1739373777.0747087,0.13570329855053107,0.9768803816581924,0.21053647657186103,-1.5554492918476883,-1.4568292361800053,1.2709012302197755,0.2039028194508858,-0.00012224992790431984,-0.001314476370198896,0.00047248744453760427,-0.001180353751530362,0.0013975026322335133,-0.001550044208105138,-0.0007388460851115964,-0.2309686839580536,-48.01633071899414,3.22795033454895,15.947029113769531,-0.9897969961166382,-1.2494614124298096,-0.013685601763427258,,,,,,,,,
1739373777.0856342,0.1357032025839115,0.9768848102645236,0.21053444648562292,-1.5554490533326473,-1.456831671161624,1.2709004730920594,0.20390838949891213,0.0017416373966020395,-0.0006088092234964437,-0.0002013819736118046,-0.0009763430397886593,-0.0004754809978301003,0.0006263595015798766,0.0012253665611030654,-0.2547723948955536,-48.06790542602539,3.22795033454895,15.947029113769531,-0.9962056875228882,-1.2430527210235596,-0.03382720425724983,,,,,,,,,
1739373777.0957224,0.1357028815413324,0.9768858075335715,0.21053635937145118,-1.5554432641544025,-1.4568306534088522,1.2708980015721274,0.20390798838091376,-0.0006486051583936473,0.000150536962732688,-0.00025489003017914187,0.0012576205821537801,8.278505724613734e-05,0.001251005431501099,0.0010319731551599054,-0.2309686839580536,-48.09170913696289,3.20414662361145,15.899421691894531,-0.9897969961166382,-1.2430527210235596,-0.027418512850999832,,,,,,,,,
1739373777.106608,0.13570501076037886,0.9768895065444099,0.21053544109787475,-1.5554475103321637,-1.4568295894000498,1.2708967679246983,0.2039076333260248,6.581091103742564e-05,0.0014022469836291705,-0.0007537392352442568,0.00014984742144886492,0.00040541478209621363,-0.0029525643302812186,0.0006557587165168058,-0.2547723948955536,-48.14328384399414,3.20414662361145,15.923225402832031,-0.9897969961166382,-1.2430527210235596,-0.027418512850999832,,,,,,,,,
1739373777.1177137,0.13569513134175168,0.97688580752934,0.21053673013102944,-1.555445489286809,-1.4568293539228916,1.2709006567732994,0.20390692441477362,-0.001444644215403132,0.0006378793258809641,0.0008140926378372292,-0.0005572361998528864,0.0008144369879208493,0.0003019191889614569,0.0014230442924019035,-0.1555902659893036,-48.09170913696289,3.22795033454895,15.899421691894531,-0.9897969961166382,-1.2366440296173096,-0.020094294100999832,,,,,,,,,
1739373777.1286747,0.13569977789853743,0.9768858075295338,0.2105375404636831,-1.5554450468323266,-1.4568269631993265,1.2709002903976236,0.20390449297955557,-0.0011745015150439577,0.000569847052222661,-0.0003305374543529875,-0.00012800919296280692,0.000815177303738793,-0.00035719242099322595,-0.0009415569332589572,-0.2071649730205536,-48.09170913696289,3.20414662361145,15.923225402832031,-1.0090230703353882,-1.2366440296173096,-0.0008682189509272575,,,,,,,,,
1739373777.1386774,0.13569974751823616,0.9768878054703869,0.21053752351056426,-1.5554475075062646,-1.4568284785192616,1.2709015322434323,0.203903627082025,-0.0010485843192290338,0.0012784123335814852,-0.0003197600188428831,-0.0009592569292280912,0.00022187663897152627,6.034217424917962e-05,-0.0008499612987348658,-0.2071649730205536,-48.11948013305664,3.1763756275177,15.923225402832031,-0.9962056875228882,-1.2430527210235596,0.0064559997990727425,,,,,,,,,
1739373777.1507046,0.13570120261056473,0.9768841009501892,0.21053962021187123,-1.555440781114707,-1.456827720859183,1.270901516747118,0.20390763185683494,7.80350349468722e-05,-0.0003976300841650104,-0.00025311160260403594,0.0012895654194394453,-0.0004056052069083839,-0.00010118731184471535,0.0003778887550602778,-0.2071649730205536,-48.06790542602539,3.1763756275177,15.871650695800781,-1.0026143789291382,-1.2430527210235596,-0.027418512850999832,,,,,,,,,
1739373777.161677,0.1357035336974611,0.9768904324899271,0.21053754781347128,-1.5554472717404038,-1.456827081008455,1.2709006398958975,0.20390838951691329,0.0013320507659315885,0.0007829386804015189,0.0004067427191740024,-0.0012395979521724078,0.0006936749109702076,0.000634152011656211,-2.9726381469419576e-05,-0.2309686839580536,-48.11948013305664,3.1763756275177,15.923225402832031,-1.0090230703353882,-1.2366440296173096,-0.03382720425724983,,,,,,,,,
1739373777.172613,0.13570361610751383,0.976884095350681,0.210535678640204,-1.5554492097696522,-1.4568284790044432,1.2708984485500214,0.2039060082994141,0.0009489111632156903,-0.0008131192481622411,-0.0002150134301184328,-0.0002175880941587323,-0.00016295366955586143,-0.0015385877704795785,-0.000664483475915668,-0.2309686839580536,-48.06790542602539,3.22795033454895,15.947029113769531,-0.9962056875228882,-1.2302353382110596,-0.013685601763427258,,,,,,,,,
1739373777.1836674,0.13570190002291907,0.9768814553047142,0.21053750309592761,-1.5554483306623987,-1.4568284785192698,1.2708977341192034,0.20390293926129974,-0.0001307958818417634,-0.001093369731106068,0.00010653791461107207,-0.0016877763574806445,0.0014990825863746113,0.0007852705385899901,-0.0010775030761492935,-0.2071649730205536,-48.04410171508789,3.1763756275177,15.947029113769531,-0.9962056875228882,-1.2229111194610596,0.03941498324275017,,,,,,,,,
1739373777.194661,0.13569747073925065,0.9768823824828375,0.21053859158065016,-1.5554453834265818,-1.456827720859183,1.2708964854798124,0.20390763187494823,-0.0007937216229363939,-0.0001797539775842272,0.0003593317764208516,1.1913804972290105e-05,0.0010210787152501644,5.88196385796686e-05,-4.414218961292359e-05,-0.1793939769268036,-48.04410171508789,3.20414662361145,15.899421691894531,-1.0026143789291382,-1.2366440296173096,-0.027418512850999832,,,,,,,,,
1739373777.206681,0.1357035449869155,0.9768837014987517,0.21053848964010508,-1.5554425897804718,-1.4568269631991049,1.270902121776357,0.2039052506393358,3.164540177900591e-05,0.0006043871654611084,5.166957284073143e-05,0.0005512360484017868,0.0008472130913487188,0.0010919707266011844,-0.0006018320844407093,-0.2309686839580536,-48.09170913696289,3.20414662361145,15.899421691894531,-1.0090230703353882,-1.2494614124298096,-0.0072769103571772575,,,,,,,,,
1739373777.2186646,0.13570055443745982,0.9768858076226986,0.21053750354708184,-1.5554470282284343,-1.4568292361793398,1.2709007707151325,0.20391084057354533,-0.0007964913936738213,0.00013858482957559095,-0.0003582578994243903,-0.0005329500182181135,-0.00031201542942372776,0.0005913219482254607,0.0017715922272273496,-0.2309686839580536,-48.09170913696289,3.1763756275177,15.947029113769531,-0.9897969961166382,-1.2366440296173096,-0.027418512850999832,,,,,,,,,
1739373777.2287126,0.13569992309155382,0.9768879575483818,0.21053973793933864,-1.5554452582859792,-1.4568283607816916,1.2708992328591937,0.20390612670908279,0.00024365979037070564,-0.0007797666997388976,0.0009678730788108159,-0.0005622643064328556,0.0008840581112106271,-0.0009416186064462629,-0.0007873197213403378,-0.1793939769268036,-48.09170913696289,3.1763756275177,15.923225402832031,-0.9962056875228882,-1.2366440296173096,-0.013685601763427258,,,,,,,,,
1739373777.239604,0.13569919635342087,0.9768840950128482,0.21053849795487675,-1.5554427485772462,-1.4568293931625447,1.2708984315359668,0.20390177505182908,-0.0012423703857589491,-0.00037271476751102013,-0.00028690627509137076,0.0017301168778835125,-0.0004952474839597385,-0.0006023284595261222,-0.0003505218113566031,-0.1793939769268036,-48.06790542602539,3.20414662361145,15.899421691894531,-0.9897969961166382,-1.2302353382110596,0.019273381680250168,,,,,,,,,
1739373777.2496707,0.13570533768917198,0.9768823824880716,0.21053788598800954,-1.5554447642781728,-1.4568306490328373,1.2708986045383042,0.20390048674087288,0.00109338724661382,-0.0008102794694279363,9.011498368245415e-05,-8.806800448181462e-05,-0.0006010007247638797,-0.000533106154415815,-0.0023370217960988955,-0.2547723948955536,-48.04410171508789,3.20414662361145,15.899421691894531,-0.9897969961166382,-1.2302353382110596,0.03300629183650017,,,,,,,,,
1739373777.2596788,0.13570117778120894,0.9768819889780205,0.21053851801927143,-1.555443612654328,-1.456828478591042,1.2708989397789205,0.20390676595952817,0.00025849376936532096,-0.0007041560663324191,0.0006876220316861556,-0.0004484200900052742,3.7727601430900945e-05,-0.0008441363022549498,0.00048450139984184727,-0.2071649730205536,-48.06790542602539,3.1763756275177,15.871650695800781,-0.9962056875228882,-1.2302353382110596,-0.020094294100999832,,,,,,,,,
1739373777.2706678,0.1357009326762624,0.9768880438850032,0.2105385213900696,-1.5554461101719372,-1.4568284785192616,1.2708983536044225,0.20390530345771782,-0.0013397334606283814,0.00042487632510262107,-7.163917643576474e-05,-0.00018386101602522824,0.0006270438542184245,0.0003618322053155606,0.0010083661870225087,-0.2071649730205536,-48.11948013305664,3.20414662361145,15.947029113769531,-0.9962056875228882,-1.2430527210235596,-0.0072769103571772575,,,,,,,,,
1739373777.2816753,0.13570120401028007,0.9768880102069767,0.21053778100573992,-1.5554450113485838,-1.4568292347257894,1.2708953740766535,0.20390712248457596,-0.0002731955029790635,0.00014250680317240866,0.00016785906977236312,0.00032002566982278175,0.00011303403762824866,-0.0027046665636786477,0.0013595962380034891,-0.2071649730205536,-48.11948013305664,3.20414662361145,15.923225402832031,-0.9897969961166382,-1.2302353382110596,-0.020094294100999832,,,,,,,,,
1739373777.2917018,0.13569967785598097,0.9768829994896467,0.2105377688074982,-1.555445476154413,-1.4568288323779854,1.2709018818685855,0.20390759265336728,-0.0009670956689879658,-0.0007023496902263856,-0.00025221427371159555,-0.00037347791767695156,-0.00047658464640591036,0.00018378070504083922,-0.0002975562449617318,-0.1793939769268036,-48.09170913696289,3.1763756275177,15.899421691894531,-0.9962056875228882,-1.2494614124298096,-0.027418512850999832,,,,,,,,,
1739373777.3027115,0.13569771008168818,0.9768858075136824,0.21054238272849582,-1.5554482334925566,-1.4568277266753815,1.2709014106356467,0.2039044545812351,-0.0010663231413039508,0.0007869775504768292,0.0016224862259618064,-0.0007533936378132735,0.000291263720481635,-0.0008380226742964998,0.0006842609767312088,-0.1793939769268036,-48.09170913696289,3.1525719165802,15.947029113769531,-1.0026143789291382,-1.2430527210235596,0.026597600430250168,,,,,,,,,
1739373777.3136084,0.13570536087436463,0.9768830977438087,0.21053852971998985,-1.555442512264571,-1.4568284785192944,1.270898957131176,0.20390676614073555,0.0011008526325142537,-0.0007122018310651125,0.0013572134672373,0.0010828780565187654,0.00021438676966296856,0.00030879512610909913,-5.571863082910701e-05,-0.2547723948955536,-48.04410171508789,3.1763756275177,15.899421691894531,-0.9962056875228882,-1.2302353382110596,-0.020094294100999832,,,,,,,,,
1739373777.3236277,0.1356997592195217,0.9768851055313861,0.21053754043938555,-1.5554460758258752,-1.456830578166617,1.2708999641759802,0.20391028658836435,-0.0009365906045090375,-0.00018303689154138263,-0.0010389822507145786,-0.001565418145993773,-0.00019867081757846215,-0.00041790220989111555,0.0018521169324327445,-0.2071649730205536,-48.09170913696289,3.20414662361145,15.947029113769531,-0.9833883047103882,-1.2430527210235596,-0.013685601763427258,,,,,,,,,
1739373777.3337042,0.13570531134626485,0.9768878093593074,0.21054065653751516,-1.5554470546829635,-1.4568316574633364,1.2708976941906172,0.20390536969805498,0.002044035994395729,7.624356072525316e-05,0.00038420368699780425,-0.0004206106644211864,-0.0007684605949294414,-0.0007356234701236073,-0.0004255871997417513,-0.2547723948955536,-48.11948013305664,3.1763756275177,15.947029113769531,-0.9962056875228882,-1.2494614124298096,-0.0072769103571772575,,,,,,,,,
1739373777.344836,0.13569991342279106,0.9768840979522638,0.21053859159845145,-1.5554432244248595,-1.4568245419627401,1.2708978319713016,0.2039025873454487,0.00030563423219588225,-0.0009276203135576164,0.0006241350278642235,0.0010713081864734356,0.001602252929379884,-0.0005602041344856432,-0.0006846790624932973,-0.1793939769268036,-48.06790542602539,3.20414662361145,15.899421691894531,-1.0026143789291382,-1.2430527210235596,0.019273381680250168,,,,,,,,,
1739373777.355711,0.13569978676087574,0.976884095335857,0.21053789472632742,-1.5554450424189625,-1.4568299943358984,1.2708964849425035,0.2039031813351101,-0.00043308454718786775,0.00017585270621595634,-0.00018858054518801614,-0.00019386236311630888,-0.000246083014414969,-0.002019111229439072,-0.000983721600996338,-0.2071649730205536,-48.06790542602539,3.20414662361145,15.923225402832031,-0.9833883047103882,-1.2366440296173096,0.019273381680250168,,,,,,,,,
1739373777.3676589,0.13570362502459646,0.9768823825970896,0.21053553122026422,-1.5554443978086583,-1.4568288829666327,1.2709022743291458,0.2039012460338035,0.000280536494505346,-0.0012373055696856246,-5.5956131204561624e-05,0.00031002900305839606,0.00037725137043184557,-0.00041302931433642845,-0.0009333892170078197,-0.2309686839580536,-48.04410171508789,3.20414662361145,15.923225402832031,-0.9897969961166382,-1.2494614124298096,0.026597600430250168,,,,,,,,,
1739373777.3776686,0.13570191157980394,0.9768852435110226,0.2105395262715343,-1.5554497193463197,-1.4568278385907711,1.270897996447031,0.2039012458647489,0.0005660704243018545,-6.466257576732878e-05,0.0009687197386178011,-0.00043241476608201965,-0.00028197990830160626,-0.001293005532900594,-0.0009855537073809781,-0.2071649730205536,-48.04410171508789,3.1525719165802,15.994636535644531,-1.0026143789291382,-1.2494614124298096,0.026597600430250168,,,,,,,,,
1739373777.3896308,0.13570191136379084,0.9768840963223814,0.21053860205773495,-1.5554425356910309,-1.4568292361795614,1.2709014773316842,0.20390791714925385,-0.0004495357370107122,0.0008730088765507431,-0.0001920639532145114,0.0005720269507026132,-7.611493087696115e-05,0.0008797979010790747,0.000103082385642215,-0.2071649730205536,-48.06790542602539,3.20414662361145,15.899421691894531,-0.9897969961166382,-1.2430527210235596,-0.03382720425724983,,,,,,,,,
1739373777.400677,0.13570362518059906,0.9768837570038698,0.2105365844833232,-1.5554473917183513,-1.45682696325294,1.270898035854369,0.20390803519774725,0.0007616593970206397,-0.0011111524643124145,-0.0003715954182620707,-0.0016261928016680241,0.0002314968159797557,-0.0003731933555958679,0.00012269465310486382,-0.2309686839580536,-48.06790542602539,3.22795033454895,15.923225402832031,-1.0090230703353882,-1.2494614124298096,-0.03382720425724983,,,,,,,,,
1739373777.4116073,0.1357003868170009,0.9768840950068945,0.21053576494977302,-1.5554442912403483,-1.4568278865639113,1.270901063215427,0.20390449417576328,0.0002893514477563916,-7.43193706804915e-06,-0.0003180550919840803,-0.0006558215330291948,-0.00045982809588667156,0.00018429380857509057,-0.0001760865467343704,-0.1793939769268036,-48.06790542602539,3.20414662361145,15.923225402832031,-1.0026143789291382,-1.2430527210235596,-0.0008682189509272575,,,,,,,,,
1739373777.4226408,0.13570191266254017,0.9768820714646577,0.21053783658842237,-1.555446312936203,-1.4568249803466604,1.2708998822331934,0.20390775069820133,0.00022494999366619702,9.29888657708421e-05,4.928992364104754e-05,0.00030454252919155563,0.0010198753392065692,-0.0003210600998926785,0.0012739454670378041,-0.2071649730205536,-48.04410171508789,3.1763756275177,15.947029113769531,-0.9897969961166382,-1.2302353382110596,-0.027418512850999832,,,,,,,,,
1739373777.432688,0.1356999146110153,0.9768823481461912,0.210538554752194,-1.5554404517372393,-1.456824541436254,1.27090061938395,0.20391226100118123,0.00033776672278931064,0.0003055867482091865,0.00041199765442282663,0.0007735615559312308,0.001074183311963271,0.0005401061841794315,0.0016007694387813157,-0.1793939769268036,-48.04410171508789,3.20414662361145,15.899421691894531,-1.0026143789291382,-1.2366440296173096,-0.027418512850999832,768,766,732,42.369,0,0
1739373777.4436355,0.13569990597046477,0.9768804640194966,0.21053765841852043,-1.5554442918057656,-1.4568284784654177,1.2709001024400783,0.20390676555196663,5.7775699295429216e-05,-0.001300609947625721,-0.00047854345632549985,0.00022229345195532,0.00013148075122667322,-0.001214471009221345,-0.0006793847959504453,-0.1793939769268036,-48.01633071899414,3.20414662361145,15.923225402832031,-0.9962056875228882,-1.2430527210235596,-0.020094294100999832,765,771,732,42.260,0,0
1739373777.4546742,0.13570191363192044,0.9768865227854207,0.2105368206925522,-1.5554453711676848,-1.4568269631991047,1.270901180974328,0.20390449292525323,0.00027085772438962695,0.0005955817832232189,0.0007064740652193528,-0.0006114435923914927,9.430668737183052e-05,0.000568446883747097,5.6778549184349205e-05,-0.2071649730205536,-48.09170913696289,3.22795033454895,15.899421691894531,-1.0090230703353882,-1.2430527210235596,-0.0008682189509272575,766,769,733,42.369,0,0
1739373777.4646852,0.13570362518062284,0.9768819988015975,0.21053647747235232,-1.5554442918890767,-1.4568275501477819,1.2709011809710404,0.20390479953241747,0.0004971569667607312,-0.0007264455703801288,0.00025415330786584747,0.00017513695170231765,0.0007678565658739858,0.00046418669667411993,0.0008255095836782488,-0.2309686839580536,-48.06790542602539,3.20414662361145,15.923225402832031,-1.0026143789291382,-1.2430527210235596,-0.027418512850999832,767,769,733,42.260,0,0
1739373777.4747005,0.1357019126598752,0.9768840949733032,0.21053658444732834,-1.5554482212659866,-1.456829746372585,1.2709001067974086,0.2039126684099736,-0.00018522594203451877,-0.0006597671908138332,-0.00012135991084017165,-0.0008710352800035409,-0.000662157574809721,0.0003431780140669674,0.0023919221516594136,-0.2071649730205536,-48.06790542602539,3.22795033454895,15.947029113769531,-0.9897969961166382,-1.2430527210235596,-0.03382720425724983,767,770,733,42.369,0,0
1739373777.485617,0.1357036238845241,0.9768858075295337,0.21053674195599678,-1.5554448168320782,-1.456827315930178,1.2709003565906343,0.20390833267545672,0.0008752602571867629,0.0007721806048521973,-0.00010643370206425641,-0.0005487813843197785,-0.0006142021068028504,0.0007115262009260246,-9.725342641141188e-05,-0.2309686839580536,-48.09170913696289,3.22795033454895,15.899421691894531,-1.0090230703353882,-1.2430527210235596,-0.03382720425724983,767,770,733,42.369,1,0
1739373777.4957213,0.13569955054985658,0.9768882523825794,0.21053610914381268,-1.5554425930361802,-1.4568292361853132,1.270901816518937,0.20390763185587232,-0.0005718461954342768,0.0004342054917714946,-0.0004995850821942495,-7.842563849942757e-05,-0.0004053693425832764,0.0012944270061483005,0.00016548842742803783,-0.2071649730205536,-48.11948013305664,3.22795033454895,15.899421691894531,-0.9897969961166382,-1.2494614124298096,-0.027418512850999832,767,769,734,42.369,1,0
1739373777.5066004,0.1357055147205943,0.9768870967634931,0.21054056812185037,-1.5554470664580744,-1.4568269631991049,1.2709014804003231,0.20390287088912393,0.0014443132717274596,-9.264071557114553e-05,0.0008715142354960947,-0.0007016815034902428,-0.00036414212661907804,0.0005465028979607999,0.00017957067644895744,-0.2309686839580536,-48.09170913696289,3.1763756275177,15.947029113769531,-1.0090230703353882,-1.2430527210235596,0.012864691205322742,767,771,729,42.260,0,0
1739373777.5166473,0.135699078174548,0.9768878064951498,0.210540446841549,-1.5554443841829872,-1.456827720859183,1.2709021560233114,0.2039044929792657,-0.0007159200933629868,0.0005703585479682793,0.00167232934148506,-0.00032324873287959343,0.0001548534629573273,0.002727555772328854,0.00038749511132015683,-0.2071649730205536,-48.11948013305664,3.1763756275177,15.923225402832031,-1.0026143789291382,-1.2494614124298096,-0.0008682189509272575,767,770,732,42.369,0,0
1739373777.5276084,0.13570095872729965,0.9768837319142964,0.21053682069299626,-1.5554425095274982,-1.4568292230973874,1.2708999845428974,0.20390596893091414,-0.0005680315734584744,-0.0010363816874954571,-8.389484833075351e-05,0.0006447785677603876,-4.5969363569251e-05,-0.000511718815360303,5.554282896222786e-06,-0.2071649730205536,-48.09170913696289,3.22795033454895,15.899421691894531,-0.9897969961166382,-1.2430527210235596,-0.013685601763427258,768,771,733,42.369,1,0
1739373777.5377078,0.13569988845720057,0.976887953261595,0.2105406831612049,-1.5554452359644966,-1.4568285962566099,1.2708961391936087,0.20390763185616823,-0.0010304150675027916,0.000596930636486814,0.0009882780148244444,0.001453753769618914,-0.0005655715529039277,-0.0010563609794767314,9.38785148318161e-05,-0.1793939769268036,-48.09170913696289,3.1763756275177,15.947029113769531,-0.9962056875228882,-1.2366440296173096,-0.027418512850999832,768,770,734,42.260,0,0
1739373777.548681,0.1357057510434528,0.9768858075416466,0.21053786546849165,-1.5554425104670508,-1.4568277208060125,1.2708968378294367,0.20391159823362368,0.001309381468006614,5.531915709541699e-05,-0.00026071370632338935,0.0008177028497753395,0.0002876202400179587,-0.0010370381193300386,0.0008948184508513458,-0.2309686839580536,-48.09170913696289,3.20414662361145,15.899421691894531,-1.0026143789291382,-1.2302353382110596,-0.03382720425724983,768,771,733,42.260,1,0
1739373777.559675,0.13569978673687647,0.9768840954448678,0.21054068315703942,-1.5554446450533255,-1.45682807342587,1.2708966771396026,0.20390838953502657,-0.0009016294665888938,0.0004491377613180331,-0.00018801923144641975,-0.0008721366260073286,0.0006894939696145104,-0.000825807320554929,-5.365927609795988e-05,-0.2071649730205536,-48.06790542602539,3.1763756275177,15.923225402832031,-1.0026143789291382,-1.2302353382110596,-0.03382720425724983,768,769,733,42.369,1,0
1739373777.5696995,0.13569920597801508,0.9768848102645621,0.21054175720522475,-1.5554432244372716,-1.4568284785371737,1.2709007591535566,0.20390556255149514,-0.0007258039279009581,-1.0344361849977629e-05,0.0015513511676031875,-0.00033858261459365297,-0.00043081419997348673,-0.000642109260199756,0.00024905581588675164,-0.1793939769268036,-48.06790542602539,3.1525719165802,15.899421691894531,-0.9962056875228882,-1.2494614124298096,-0.0008682189509272575,767,770,733,42.477,1,0
1739373777.5806544,0.13570362517927276,0.9768858075308797,0.21054060345080988,-1.5554450070976915,-1.4568284785192616,1.2708953076770582,0.20389886464936954,0.0010567452125058363,0.0005434033890707736,0.0009232036789027067,-0.00039490058724223477,-0.0007281380150340741,-0.002592541409229972,-0.0033604383556538123,-0.2309686839580536,-48.09170913696289,3.1763756275177,15.923225402832031,-0.9962056875228882,-1.2302353382110596,0.04673920199275017,767,770,732,42.369,1,0
1739373777.5906718,0.13570191265987516,0.9768841303300736,0.210540683159855,-1.5554404265514237,-1.4568281237288847,1.270900364933644,0.2039012414904683,-0.00018021046431088126,0.0008025273006071464,0.0003276966009284605,0.0008072646972492924,-3.892403569189613e-05,0.00028193749429130614,-0.0015124177378194339,-0.2071649730205536,-48.06790542602539,3.1763756275177,15.871650695800781,-0.9897969961166382,-1.2366440296173096,0.026597600430250168,767,770,729,42.151,1,0
1739373777.6016457,0.13570199139687505,0.9768840160448848,0.21053805859454197,-1.5554442918405924,-1.4568284785129817,1.270896807080503,0.2039004886937021,0.0006462755577529779,0.00019751152199984134,-0.0005623106970645342,0.0006995410543751452,0.0012274296597684143,-0.00226389971205478,-0.000841509730168403,-0.2071649730205536,-48.06790542602539,3.1763756275177,15.923225402832031,-0.9962056875228882,-1.2430527210235596,0.03300629183650017,767,769,732,42.369,1,0
1739373777.611667,0.135699914396335,0.9768838608970477,0.2105386028948746,-1.5554424839808312,-1.4568292361793396,1.270898675051122,0.2039021122510458,-0.0006928222764073981,0.0012581862056588236,0.0006677227955326497,0.001954458367913136,-0.0008243345853079446,0.0004360914108766048,-0.0004947676042271218,-0.1793939769268036,-48.06790542602539,3.20414662361145,15.899421691894531,-0.9897969961166382,-1.2558701038360596,0.019273381680250168,766,770,732,42.260,1,0
1739373777.6216989,0.13569986222768343,0.9768878064475687,0.21053852463434136,-1.5554427475817418,-1.4568288828051243,1.2709003663928966,0.20389659166668977,0.0003612372715397618,0.0007083843282352227,0.0008872361219342764,0.00019328994709153234,-0.0005820329623640517,0.002517386310091549,-0.0008528035616660068,-0.1793939769268036,-48.11948013305664,3.20414662361145,15.899421691894531,-0.9897969961166382,-1.2366440296173096,0.06596527993679047,768,769,733,42.260,1,0
1739373777.6317055,0.13570193890465287,0.9768858189823151,0.21053860326200904,-1.5554460745216652,-1.456826609818905,1.2709002647115155,0.20390358771352504,0.00011266587020611696,-0.000575324737878528,-0.00021963397033664597,-7.973204701027816e-05,0.0007246240373686943,0.0008778325075270591,-0.001012184421062263,-0.2071649730205536,-48.09170913696289,3.20414662361145,15.947029113769531,-1.0090230703353882,-1.2366440296173096,0.0064559997990727425,768,772,733,42.260,1,0
1739373777.641716,0.13570191266031964,0.9768840951180129,0.2105357422696643,-1.555444291004817,-1.456827602954123,1.2709014162819887,0.20390612762916613,0.0004256370247161214,-0.0006955868304368513,-0.00028815820624190404,-0.0001705071761321862,-0.0007556684286418203,0.0006970127663657415,-0.0003729015922643696,-0.2071649730205536,-48.06790542602539,3.20414662361145,15.923225402832031,-1.0026143789291382,-1.2430527210235596,-0.013685601763427258,769,768,733,42.260,1,0
1739373777.6526504,0.1357019126598752,0.9768781919575198,0.21053852458219616,-1.5554446637611141,-1.4568270264219,1.2709008653780012,0.20390600830008773,-0.00016196805505232985,-0.0015687542063998463,0.00019469439747578907,-0.0005293513683561612,0.0014048631096793452,-0.0006828823421359178,-0.0008767888821315107,-0.2071649730205536,-48.01633071899414,3.20414662361145,15.899421691894531,-0.9962056875228882,-1.2494614124298096,-0.013685601763427258,767,769,733,42.369,1,0
1739373777.6636891,0.1357022305240599,0.9768837817078957,0.21054068316076013,-1.5554457684121084,-1.4568269479226552,1.2708970830504258,0.20390120649624607,0.0007406553873777102,-0.0019891395452170577,0.0010885933951744141,2.900831413073094e-05,0.0006172776292409929,-0.0009042086157795045,-0.002720975997389921,-0.2071649730205536,-48.06790542602539,3.1763756275177,15.947029113769531,-0.9962056875228882,-1.2366440296173096,0.026597600430250168,767,769,733,42.369,1,0
1739373777.6746979,0.13570702059156728,0.976885807524228,0.21053828842334976,-1.5554464376026365,-1.4568284610507376,1.2709015208837247,0.2039052486945456,0.002780217095491911,0.0006574711363834165,-0.0005497290695334703,-0.0010201128790374167,-0.0003459013829140402,0.0012993295184637191,0.000397285490205327,-0.2825433909893036,-48.09170913696289,3.20414662361145,15.923225402832031,-0.9962056875228882,-1.2430527210235596,-0.0072769103571772575,766,770,733,42.369,0,0
1739373777.6847045,0.13570096781409804,0.976887956240185,0.21053789473657245,-1.555442463976948,-1.4568281750337262,1.2709021167776833,0.203903627082014,0.00033809776034394003,-9.776406168534896e-05,0.000246215725372861,-7.176898368026606e-05,-0.00044466232560562804,0.0006706444944779378,0.0009157123048963026,-0.2071649730205536,-48.09170913696289,3.20414662361145,15.923225402832031,-0.9897969961166382,-1.2494614124298096,0.0064559997990727425,767,771,733,42.369,1,0
1739373777.6956725,0.13570191264387413,0.9768840950451912,0.21053682068232948,-1.555442509132634,-1.456828125288581,1.2709010600437647,0.20390308167662133,-0.0002740120685220968,0.0002308229174188784,-0.00018491234980215363,3.0163041869114772e-05,-0.00030682399847000434,0.00045382768293616434,3.250371889888741e-06,-0.2071649730205536,-48.06790542602539,3.22795033454895,15.899421691894531,-0.9962056875228882,-1.2494614124298096,0.012864691205322742,768,769,735,42.477,1,0
1739373777.7057009,0.13569991471902204,0.9768823834692181,0.21053860239928754,-1.5554460745176273,-1.456828421828808,1.2709000125639038,0.203905303458916,-0.0010469057833714349,-0.0013779161200506282,-1.2128773575055117e-05,-0.0009456126177046253,0.0007927975041095444,0.0011543512088283067,6.208239933409897e-05,-0.1793939769268036,-48.04410171508789,3.20414662361145,15.947029113769531,-0.9962056875228882,-1.2302353382110596,-0.0072769103571772575,766,769,733,42.369,0,0
1739373777.7166505,0.13569648870549803,0.9768878064515388,0.2105368206943248,-1.5554459247292747,-1.4568284610763385,1.2709013757527194,0.20390668746818744,-0.0003562274453716793,-0.00021704538769848033,-0.0006613532745471124,-0.00026938673656730583,0.00025396585564135593,0.002067938284058495,0.0015690980190282647,-0.1317865550518036,-48.11948013305664,3.22795033454895,15.947029113769531,-0.9962056875228882,-1.2430527210235596,-0.020094294100999832,769,769,733,42.477,1,0
1739373777.7267687,0.13569917109175159,0.9768858075295836,0.2105386033713493,-1.5554450070887356,-1.456826839161931,1.2708996128364904,0.20390763185284716,-0.0016125821327018577,-0.000663014591201736,0.00033834529597386997,-0.0003871557177329407,0.0006719112934287468,-0.00011687744652846415,0.0006327046605804174,-0.1793939769268036,-48.09170913696289,3.20414662361145,15.923225402832031,-1.0090230703353882,-1.2302353382110596,-0.027418512850999832,768,771,733,42.260,1,0
1739373777.7376246,0.13569991471482434,0.9768823824880716,0.2105386033713493,-1.5554425094946756,-1.4568276814511205,1.2709015152912866,0.20390835014841333,5.1872654987044644e-05,0.0004978730079233981,-0.0006698573823699622,0.00026164676076186955,1.4271478900775868e-05,-0.00031247032967991566,0.00038908411482502757,-0.1793939769268036,-48.04410171508789,3.20414662361145,15.899421691894531,-1.0026143789291382,-1.2430527210235596,-0.03382720425724983,767,772,732,42.369,1,0
1739373777.7487001,0.13570179892865308,0.9768802764572894,0.21054060442420502,-1.5554442918406102,-1.456829891316043,1.2709001082029987,0.20390667673542925,0.00023195217418029628,-0.00021170525996734297,0.000686994248352126,0.00017509438825864712,-0.0024316506053297148,0.001412368154696088,-0.0007438968329398249,-0.2071649730205536,-48.04410171508789,3.1763756275177,15.923225402832031,-0.9962056875228882,-1.2430527210235596,-0.0072769103571772575,767,771,734,42.260,1,0
1739373777.759682,0.13570362474836492,0.9768823824841086,0.21054033990307652,-1.5554442918406084,-1.4568268062003917,1.2708978767151724,0.20390104881516335,0.0006052092829494573,-0.0005475719640990269,0.0009016014516576778,-0.0003790762949926195,-0.00011336640825101866,-0.002228304352553435,-0.002003903620546184,-0.2309686839580536,-48.04410171508789,3.1525719165802,15.923225402832031,-1.0090230703353882,-1.2494614124298096,0.019273381680250168,768,770,733,42.369,0,0
1739373777.770669,0.13570291395544035,0.9768858073868706,0.21053860044316317,-1.5554442918406084,-1.4568269108704097,1.2709008244928308,0.20391084056754497,-0.0005228439844973561,-8.994326413417036e-07,0.0004650804005331507,-0.00017838845601325686,0.00018065405877150837,-0.0002533445013036535,0.0019668344349576,-0.2309686839580536,-48.09170913696289,3.20414662361145,15.923225402832031,-1.0090230703353882,-1.2494614124298096,-0.027418512850999832,768,770,733,42.260,1,0
1739373777.7815964,0.13569992637974798,0.9768803845472176,0.2105386033713328,-1.5554426004102058,-1.4568284770654158,1.2708980138816475,0.2039067660320557,-0.00033069346756963325,-0.0012255546048817755,0.0008179790145135072,-5.792122327043784e-05,0.0005141694836383546,0.00012422793664009353,0.001223082476567297,-0.1793939769268036,-48.01633071899414,3.20414662361145,15.899421691894531,-0.9962056875228882,-1.2494614124298096,-0.020094294100999832,768,770,732,42.369,1,0
1739373777.792701,0.13570191266007264,0.9768857963008581,0.21053860304732874,-1.555443398932896,-1.4568283215358104,1.2708999999009742,0.20390449297925864,0.0005045629340039364,0.0006028238488481681,7.888629730167058e-05,-0.00011212430780267117,-0.0014579697212231562,-0.0011190884773354204,0.002224021611186962,-0.2071649730205536,-48.09170913696289,3.20414662361145,15.947029113769531,-0.9962056875228882,-1.2302353382110596,-0.0008682189509272575,768,770,733,42.369,1,0
1739373777.803605,0.13569976047920929,0.9768840946877468,0.2105368245825754,-1.5554460745025236,-1.4568252937897863,1.2709015278370719,0.20389745475358412,-0.00010286821780654563,-0.0015904870477983619,-0.0005727233989528549,-0.0006794398238971355,0.0006029625049493916,0.001167313088936428,-0.002650476840755379,-0.2071649730205536,-48.06790542602539,3.22795033454895,15.947029113769531,-0.9962056875228882,-1.2430527210235596,0.04673920199275017,768,767,732,42.477,1,0
1739373777.8146617,0.13569994386872483,0.976885807529532,0.21054072923436598,-1.5554464336590086,-1.4568272498909254,1.2708971265034443,0.20390845934808724,0.0001333201996944355,0.0009226028034577843,0.0004952936562960116,-0.0007080103975675583,0.0013406579327343525,-0.002004134169090396,0.0015316574005128066,-0.1793939769268036,-48.09170913696289,3.20414662361145,15.923225402832031,-1.0026143789291382,-1.2366440296173096,-0.0072769103571772575,766,769,733,42.260,1,0
1739373777.8257027,0.1356996813463488,0.9768878152818511,0.21053894660532785,-1.5554443968717042,-1.456824946389505,1.2708965329498585,0.20390603575253935,-0.001385480146853575,0.0016727978542846556,-0.00030486917635834973,-0.0005844026598001568,-8.700128568931504e-06,-0.000363127263196468,-0.00011555158979236239,-0.2071649730205536,-48.11948013305664,3.22795033454895,15.923225402832031,-0.9962056875228882,-1.2366440296173096,0.019273381680250168,768,768,734,42.260,1,0
1739373777.83669,0.13570188641000994,0.9768823034169755,0.21053682065032753,-1.5554442929309686,-1.4568227071973383,1.2709010632314672,0.20391194976695234,-0.00023999126069384469,-0.0010105804463060978,-0.001599857858718494,5.0688014861059255e-05,0.002177602891782816,-8.317156990926389e-05,0.0026804795470764366,-0.2071649730205536,-48.04410171508789,3.22795033454895,15.923225402832031,-1.0090230703353882,-1.2430527210235596,-0.027418512850999832,769,769,735,42.369,1,0
1739373777.8476229,0.13569978686873688,0.9768878592694691,0.21053860337134908,-1.555445245514931,-1.4568255498397238,1.270902239034826,0.2039077507225693,-0.0010239795823472472,0.0006529790374020222,0.0005021113852859763,-0.0003479554435063746,-0.00024801797906702017,0.0016748105737642157,0.0007376529008679032,-0.2071649730205536,-48.11948013305664,3.20414662361145,15.923225402832031,-1.0090230703353882,-1.2494614124298096,-0.027418512850999832,767,771,732,42.369,1,0
1739373777.857635,0.13569991468302167,0.9768840950097137,0.2105406047482256,-1.5554446549469516,-1.4568269631751694,1.2708969361248927,0.20390676596161555,-0.001023194953211453,-0.0004778676180933728,0.0009404058444208576,0.0003497373576617159,0.0002529343212023887,-0.0016956892935412519,0.0007425451032896182,-0.1793939769268036,-48.06790542602539,3.1763756275177,15.899421691894531,-1.0090230703353882,-1.2430527210235596,-0.020094294100999832,769,768,731,42.151,1,0
1739373777.867663,0.1357019125518677,0.9768840950088027,0.2105364774710244,-1.5554470318379328,-1.4568284783577556,1.2708983022236442,0.2039028694219467,0.0007857230716179566,-0.000332448659400319,-0.00016460837397327531,-0.0015347540651629325,-0.0018954213863339596,-0.000441349038919869,0.00033353185727005207,-0.2071649730205536,-48.06790542602539,3.20414662361145,15.947029113769531,-0.9962056875228882,-1.2430527210235596,0.012864691205322742,768,768,733,42.369,0,0
1739373777.8787434,0.13569959847493968,0.9768858341295034,0.21053681938624721,-1.5554394345330107,-1.4568227244850809,1.270899716711774,0.20391084057354533,-0.0009633118711238899,0.00030506414478498404,-0.0009817449458804646,0.001739644927941668,0.0018860771416595052,0.00032295293607237363,0.001464998144412288,-0.1793939769268036,-48.09170913696289,3.22795033454895,15.871650695800781,-1.0090230703353882,-1.2366440296173096,-0.027418512850999832,769,765,732,42.260,1,0
1739373777.889634,0.13570191222606254,0.9768845311988729,0.21054057717046698,-1.5554419959523789,-1.4568252952202951,1.2709007750701204,0.20391084059165862,-0.00036496127948786137,-9.22435634523979e-05,-0.00025963093043840856,-0.0002670150691136461,0.0001690175292791249,0.0007157583572958289,0.00023047498639792833,-0.2071649730205536,-48.04410171508789,3.1763756275177,15.923225402832031,-0.9962056875228882,-1.2366440296173096,-0.027418512850999832,768,768,734,42.369,1,0
1739373777.9006536,0.13569967818399944,0.9768795276975344,0.2105385572616096,-1.5554460741897311,-1.4568266971694905,1.2709011281646883,0.20390676597771595,-0.0014455408199543702,-0.0014138402981510936,0.0006684155353096235,-0.0010677806873546215,-0.00020629064529164784,0.0005776377013511985,0.00016231011637196088,-0.1793939769268036,-48.01633071899414,3.1763756275177,15.947029113769531,-0.9833883047103882,-1.2430527210235596,-0.020094294100999832,767,770,733,42.369,1,0
1739373777.9106722,0.13569967850401674,0.9768858075150231,0.2105386041994019,-1.5554436030758187,-1.4568274186637973,1.270901179032079,0.20390449297925772,-6.598025321838502e-05,0.0005118033044528715,0.0007106968254732263,-0.00034610611571414003,-0.00033749399354510786,0.0008672171386742829,0.0005112923648352702,-0.1793939769268036,-48.09170913696289,3.20414662361145,15.923225402832031,-0.9962056875228882,-1.2430527210235596,-0.0008682189509272575,762,769,734,42.369,1,0
1739373777.9215968,0.13570362517927295,0.9768823834692179,0.2105424658382286,-1.5554460745137393,-1.456829874642315,1.27090026568549,0.20390286942194666,0.0012714345589168474,-0.001215364070151952,0.0007235988187951952,-0.0014913531876206575,-0.0010794285694769995,0.00012328218385868037,-0.0013744118687753282,-0.2309686839580536,-48.04410171508789,3.1525719165802,15.947029113769531,-0.9833883047103882,-1.2366440296173096,0.012864691205322742,768,769,733,42.369,1,0
1739373777.9326699,0.13570188641420852,0.9768860458411321,0.2105368206943303,-1.5554404190171882,-1.4568231290919373,1.2708957394474942,0.20390286942194666,0.000488938200719662,0.0003291840609545099,-0.0005211333152806302,0.0011193262249505008,0.0016284012533193325,0.0006779845350168843,-0.0009035467064616605,-0.2071649730205536,-48.09170913696289,3.22795033454895,15.871650695800781,-1.0026143789291382,-1.2302353382110596,0.012864691205322742,766,770,733,42.260,2,0
1739373777.9436693,0.13569820219824155,0.9768854956465511,0.21053682065832802,-1.5554404293620498,-1.4568237319303226,1.270900292435534,0.20390044883616773,-0.0014911897611093183,0.0008048310462085905,-0.0012473197017827168,0.0019990886069537264,0.0010359381908308276,0.00010474418753837463,-0.0013991750615906916,-0.1555902659893036,-48.09170913696289,3.22795033454895,15.871650695800781,-1.0090230703353882,-1.2366440296173096,0.03300629183650017,767,769,734,42.369,1,0
1739373777.953696,0.13570362518060639,0.9768848103682745,0.21053860337134872,-1.5554442918406082,-1.456829234186551,1.2708960214740839,0.2039060082987474,0.0001462202437679894,0.00031982223822264646,-0.0003438266466036312,-0.00043079117906031776,-0.0008804957382735922,-0.001100826558298128,0.0005447700675170225,-0.2309686839580536,-48.06790542602539,3.20414662361145,15.923225402832031,-0.9897969961166382,-1.2366440296173096,-0.013685601763427258,768,770,733,42.369,1,0
1739373777.9646966,0.13570361351586566,0.9768858104770113,0.21053682069433027,-1.5554425097248212,-1.4568292355333061,1.27089758014582,0.2039004882046677,0.0005234325743395092,9.308048281024585e-05,-0.0008744496240454194,0.0002675979364686274,-0.0009239831538818358,0.00013620676130285045,-0.0014413376011346646,-0.2309686839580536,-48.09170913696289,3.22795033454895,15.899421691894531,-0.9897969961166382,-1.2366440296173096,0.03300629183650017,768,770,733,42.477,1,0
1739373777.974702,0.135703628096594,0.9768857064715029,0.21054068650941754,-1.5554426155634768,-1.4568284727050496,1.2709016315982455,0.20389912658848733,0.0005161801774818296,-8.75517345447302e-05,0.0012092662552834986,0.00014178377545498823,-0.0005957080567057858,0.0006057169231439461,-0.0005711737870389751,-0.2309686839580536,-48.09170913696289,3.1763756275177,15.899421691894531,-0.9962056875228882,-1.2558701038360596,0.026597600430250168,769,769,733,42.369,1,0
1739373777.9856224,0.1356999147190386,0.976882382487501,0.21053682037032861,-1.5554403923868643,-1.4568291326168394,1.2709010630161073,0.20390997466434957,-0.0011383747146533742,-0.0009746984962372953,-0.0007866705702766378,0.0018850194575676976,-0.0011066541489809158,0.0007480395981383494,0.0012265706526853617,-0.1793939769268036,-48.04410171508789,3.22795033454895,15.871650695800781,-0.9962056875228882,-1.2430527210235596,-0.020094294100999832,768,769,733,42.369,1,0
1739373777.9965909,0.135699914827029,0.9768852358479232,0.21053681972226673,-1.5554459247290657,-1.456827719409325,1.270896923041175,0.20390604814867347,-0.0007260405053626199,6.557798311336094e-05,-0.0004486959434717881,-0.0008564847677860726,-0.0007086701395400112,-0.0014575838863508652,0.0008939454438812882,-0.1793939769268036,-48.11948013305664,3.22795033454895,15.947029113769531,-1.0026143789291382,-1.2430527210235596,-0.013685601763427258,768,771,733,42.369,1,0
1739373778.0066304,0.13570191233585643,0.9768878054268701,0.210538603263326,-1.5554417496877075,-1.4568268454615103,1.270900658067971,0.20390678356640474,-0.0003051746465663693,0.0007262803006789354,-3.788345836212953e-05,0.0007577536654292179,-0.00134604118496774,4.732805903926704e-06,0.000230679096114334,-0.2071649730205536,-48.11948013305664,3.20414662361145,15.923225402832031,-1.0090230703353882,-1.2366440296173096,-0.020094294100999832,766,761,734,42.260,1,0
1739373778.0166636,0.13569991439499607,0.9768906664933354,0.2105386033713475,-1.555444292778703,-1.4568288640684828,1.2709011795214658,0.2039044924935247,-0.000543334562408068,0.0007383169130793573,-0.0002934401724337521,0.0004886194253363213,-0.0010640737244096143,-0.002639259414060829,-0.0009670684133464655,-0.1793939769268036,-48.11948013305664,3.20414662361145,15.923225402832031,-0.9897969961166382,-1.2430527210235596,-0.0008682189509272575,770,770,733,42.477,1,0
1739373778.0266924,0.13569999345601655,0.9768878056278548,0.2105386033713493,-1.5554442918406242,-1.456827249741096,1.2709007358242403,0.2039076318568267,0.0007684560193802223,0.0011134071059202121,-0.0003443997241142256,0.0005453159692605446,-0.0009064375082663942,0.0006378247203087267,-6.255882277504958e-05,-0.1793939769268036,-48.11948013305664,3.20414662361145,15.923225402832031,-1.0026143789291382,-1.2366440296173096,-0.027418512850999832,765,771,732,42.260,1,0
1739373778.036724,0.13569820219962436,0.9768824619609339,0.2105386033713493,-1.555442509938816,-1.4568276029521292,1.2709022903955705,0.20390213099830273,-0.0018823826493049281,-0.0006167488353878356,-0.00018493634457927865,0.00033178130839143003,-0.0006560604367765671,0.0013011991350127571,-0.00038039523913586666,-0.1555902659893036,-48.04410171508789,3.20414662361145,15.899421691894531,-1.0026143789291382,-1.2494614124298096,0.019273381680250168,768,769,733,42.369,1,0
1739373778.048661,0.13570363382115505,0.9768895179915666,0.2105386033713493,-1.5554422255462603,-1.4568262623015984,1.2708993631404542,0.20390525063944434,0.0009357005038700592,0.002235441051321385,-0.0002973788835703979,-5.422940662359459e-05,0.00048536655237783237,-0.0005393349759989507,0.0008889213538467043,-0.2309686839580536,-48.14328384399414,3.20414662361145,15.923225402832031,-1.0026143789291382,-1.2366440296173096,-0.0072769103571772575,768,769,733,42.477,1,0
1739373778.0606575,0.13570191168782972,0.976889517028141,0.21053658448333062,-1.555442509159701,-1.4568272473056234,1.2709004564064825,0.20390293991337852,-1.1562516186009798e-05,0.0016694135057059925,-0.0005589744463424568,0.0008765965584654845,-0.00032663590098817,0.000334907380147502,-0.00014005686615578203,-0.2071649730205536,-48.14328384399414,3.22795033454895,15.899421691894531,-0.9962056875228882,-1.2430527210235596,0.03941498324275017,769,769,733,42.260,1,0
1739373778.072588,0.13570362518060455,0.9768860459481111,0.21053860466698715,-1.5554425091635893,-1.4568277014761963,1.2709002660982032,0.20389937623412882,0.0006367775457543376,0.0003883743058434262,-0.00015475665656279754,-0.00010560959421298518,0.0007688800802603618,1.9787422714528412e-05,-0.0014311038343528466,-0.2309686839580536,-48.09170913696289,3.20414662361145,15.899421691894531,-1.0026143789291382,-1.2366440296173096,0.03941498324275017,768,770,733,42.369,0,0
1739373778.0826864,0.13570188987042803,0.9768867525384028,0.21053860337135663,-1.5554442918406084,-1.4568283601355598,1.270899193556719,0.20390676595760246,0.0003961299940671349,0.0017060295697789514,0.0010259936780184899,-0.0010386298340632296,-0.001148012328689193,-0.0003655751076821201,0.001965912859921101,-0.2071649730205536,-48.09170913696289,3.20414662361145,15.923225402832031,-0.9962056875228882,-1.2366440296173096,-0.020094294100999832,767,769,733,42.369,1,0
1739373778.0936778,0.13570362503646857,0.9768877794753416,0.21053684683199006,-1.5554425091635893,-1.4568260029445723,1.27089831144456,0.2038978599639844,0.0005971896954725183,0.00046931883721965193,-0.0006372230466535344,0.0010395374743249685,0.0004606177627919195,-4.108593396299451e-05,-0.0024181627739672936,-0.2309686839580536,-48.11948013305664,3.22795033454895,15.899421691894531,-0.9897969961166382,-1.2430527210235596,0.019273381680250168,767,770,732,42.369,1,0
1739373778.1037266,0.13569978676087086,0.976883158993801,0.21053860337267724,-1.5554425130881748,-1.4568277206949176,1.2708974608178099,0.20390362735507037,-0.00022882513539272803,-0.0007501352674383068,-0.00030785917224164793,0.00047818367694658367,-0.0021364878579637307,-0.0005497974177040036,-0.0020833459114930177,-0.2071649730205536,-48.06790542602539,3.20414662361145,15.899421691894531,-1.0026143789291382,-1.2366440296173096,0.0064559997990727425,767,769,734,42.369,1,0
1739373778.1146631,0.1357036251766061,0.9768830977420475,0.21053647747235235,-1.5554406677923203,-1.4568274007207263,1.2708965198643267,0.20390125977576076,0.0009863867527981798,-0.0013149794687184612,0.00011206469456606874,0.0010522784417949104,3.9018906854513315e-05,-0.0006095488477293815,-0.0006102082832875481,-0.2309686839580536,-48.04410171508789,3.20414662361145,15.871650695800781,-0.9962056875228882,-1.2366440296173096,0.026597600430250168,767,770,732,42.477,1,0
1739373778.1246893,0.13570120402687613,0.9768858075416467,0.21053860333534705,-1.5554460745216652,-1.4568268105461268,1.2709011671769606,0.2039014043201278,-0.00011587625957109032,0.00015182557131833158,0.0001234779445602215,-0.001006768496256851,-0.0013785314366529912,0.0017479527963798834,0.00015674727831989062,-0.2071649730205536,-48.09170913696289,3.20414662361145,15.947029113769531,-0.9833883047103882,-1.2430527210235596,0.026597600430250168,767,769,734,42.260,1,0
1739373778.1356688,0.13570126306660948,0.9768843334273818,0.21054060150801962,-1.5554442890061855,-1.4568261895529466,1.2709008741517318,0.20390676596049703,0.0006807094979271939,-6.863507724751106e-05,0.0010772501819822822,-0.0007929655763106064,0.00033793244256107567,0.0006355729105338316,0.0016765410043357283,-0.2309686839580536,-48.06790542602539,3.1763756275177,15.923225402832031,-1.0026143789291382,-1.2494614124298096,-0.020094294100999832,767,769,733,42.369,1,0
1739373778.1466017,0.13570191261053868,0.9768858078579286,0.21053705625682786,-1.5554425081137868,-1.4568280854060285,1.270897878217238,0.20390676644866162,1.3350549539888366e-05,0.00037072162505214705,-0.0003872111910477356,0.00033625135345803457,-0.00040806187982352917,0.0003985892400795672,0.00040956235841765583,-0.2071649730205536,-48.09170913696289,3.22795033454895,15.899421691894531,-0.9962056875228882,-1.2494614124298096,-0.020094294100999832,767,769,732,42.260,1,0
1739373778.1567152,0.13569991471901965,0.9768803835842581,0.21054065346149944,-1.5554425063291129,-1.4568287114277287,1.2708976812707413,0.2039024347674264,-0.00014161296967234996,-0.002894142345548809,0.0018613227197315327,0.000811774074657977,-0.0001958427937622429,-0.0009042750371917991,-0.0001814925677384408,-0.1793939769268036,-48.01633071899414,3.20414662361145,15.899421691894531,-0.9897969961166382,-1.2229111194610596,0.026597600430250168,768,770,732,42.369,1,0
1739373778.1675959,0.13570191654812208,0.9768878054703851,0.21053860345921227,-1.5554459979882016,-1.4568281747472156,1.2709006064076702,0.2039013647083428,0.0001380896347193825,0.0011447744193661255,0.0003646235096600453,-7.658149300577216e-05,-0.0015891766338757803,0.001682440516794573,3.0057827310085185e-05,-0.2071649730205536,-48.11948013305664,3.20414662361145,15.947029113769531,-0.9833883047103882,-1.2366440296173096,0.026597600430250168,770,769,732,42.369,1,0
1739373778.1786873,0.13570285750393968,0.9768857815291538,0.2105428090602034,-1.5554424836524863,-1.4568252466002358,1.270901520620382,0.2039090638238724,0.0008356880806169294,0.0008080314805324696,0.002473809506270425,0.0012508959196446596,-0.0004209412905069542,0.0021603337113347536,0.0020031204820745016,-0.2071649730205536,-48.09170913696289,3.1763756275177,15.899421691894531,-0.9962056875228882,-1.2430527210235596,-0.027418512850999832,767,771,732,42.260,1,0
1739373778.1896164,0.13570191266165307,0.9768863467761173,0.21054139179820416,-1.5554425063291182,-1.4568248785746625,1.270902291149927,0.2039056071661092,0.000534066254197723,-9.312748478869658e-06,0.0007722476226515007,-9.444022089404128e-05,0.0011992371006052233,0.001595714214141562,-7.167600954919733e-05,-0.2071649730205536,-48.06790542602539,3.1763756275177,15.899421691894531,-1.0163472890853882,-1.2494614124298096,-0.0072769103571772575,769,770,732,42.369,1,0
1739373778.1996303,0.13570191265987522,0.9768858163979854,0.21053681195777557,-1.5554442947839997,-1.4568213484742651,1.2708972248603683,0.20390286942798447,-0.00032802001013144857,0.0004048986116191489,-0.0001887680153884798,-0.0014858791855716872,0.0019407597499595487,-5.258766282289285e-05,-0.0013996111479763437,-0.2071649730205536,-48.09170913696289,3.22795033454895,15.923225402832031,-1.0026143789291382,-1.2366440296173096,0.012864691205322742,768,770,733,42.477,1,0
1739373778.2096953,0.13570190391131964,0.9768895199717305,0.2105346968234971,-1.5554442928218046,-1.4568232725271133,1.2708987407664114,0.20391077073430247,0.0006449862999505835,0.0015187761075850454,-0.0009267283509407991,-3.181874388757232e-05,0.0005241286291668689,0.0009624676802552389,0.00044903707760092276,-0.2071649730205536,-48.14328384399414,3.25175404548645,15.923225402832031,-1.0090230703353882,-1.2494614124298096,-0.05396880581974983,768,773,732,42.369,1,0
1739373778.221096,0.13569607629924457,0.9768840950088138,0.21054068315927887,-1.5554423050191213,-1.4568241880113937,1.270900304250837,0.2039055625514942,-0.00112775509868421,-0.0001367455306064022,0.000914104354936754,-0.0001806386336662273,0.000680983894871505,0.0006805379654661081,0.0001829568334848551,-0.1555902659893036,-48.06790542602539,3.1763756275177,15.923225402832031,-1.0026143789291382,-1.2430527210235596,-0.0008682189509272575,768,771,731,42.477,1,0
1739373778.2316737,0.13570016254675948,0.9768840949018052,0.2105406831612049,-1.555444280456708,-1.4568233063533076,1.2709022724621972,0.2039012458707838,0.00021642682625328243,-0.00011296654046562442,0.0004929835411443799,-0.00013086834080465432,0.0014845042927295845,0.00036240451819116856,-0.00031761324936763967,-0.1793939769268036,-48.06790542602539,3.1763756275177,15.923225402832031,-1.0026143789291382,-1.2494614124298096,0.026597600430250168,768,771,732,42.260,0,0
1739373778.2426863,0.13569999313340045,0.9768878054703863,0.21053852463434944,-1.5554413965434892,-1.4568283150506915,1.2709015278370697,0.20390600829941413,0.0007168627435328039,0.00054910885888521,-0.00038212738358390033,-0.00046451001864772064,0.0012709474510659495,0.0013927610076107564,0.0012180893653627358,-0.1793939769268036,-48.11948013305664,3.20414662361145,15.899421691894531,-0.9962056875228882,-1.2430527210235596,-0.013685601763427258,767,770,733,42.477,1,0
1739373778.2546575,0.13570120402731883,0.9768858075295338,0.2105368207298881,-1.5554425091573085,-1.4568260397675907,1.270900719841158,0.20390661865424708,0.0003388070419368969,0.0009093478117398904,-0.001395921287242943,0.0003600174676231759,0.001056718569791944,-2.415287585127079e-05,0.00027851168575404226,-0.2071649730205536,-48.09170913696289,3.22795033454895,15.899421691894531,-0.9897969961166382,-1.2366440296173096,-0.013685601763427258,767,769,733,42.477,2,0
1739373778.2647052,0.1356977888160249,0.976883393434607,0.21053860337134953,-1.5554460745176275,-1.4568269631272257,1.2708960213204565,0.20390762319331882,-0.0012745054638360945,-0.0005014236187455912,-0.0002153143007256523,-0.00027372537963146325,-0.0015133445162299954,-0.0024035572844453654,-0.0009679321309078946,-0.1793939769268036,-48.06790542602539,3.20414662361145,15.947029113769531,-1.0090230703353882,-1.2366440296173096,-0.027418512850999832,768,769,733,42.369,1,0
1739373778.275655,0.1356998806848609,0.9768877707992532,0.21054072912633717,-1.5554425090236177,-1.4568271968812365,1.2708960621548457,0.20389942721135665,-0.0010609121727379316,0.00020521369420064195,-0.000522617265225642,-8.781886736969536e-05,0.0009050907006764664,0.0003269816978921522,-0.0023992272125967296,-0.1793939769268036,-48.11948013305664,3.20414662361145,15.899421691894531,-1.0026143789291382,-1.2366440296173096,0.03300629183650017,768,770,733,42.369,1,0
1739373778.2856612,0.13569778881944877,0.9768800395643509,0.21053860351535603,-1.5554433734875606,-1.4568290617444366,1.2708992398856995,0.2039021117440104,-0.0010632489732070143,-0.0026027271068649474,0.0004288606873896353,0.00034502284128724376,-0.0007645904870820913,-0.0002847692122057184,-8.387694326050462e-05,-0.1793939769268036,-48.04410171508789,3.20414662361145,15.923225402832031,-0.9897969961166382,-1.2366440296173096,0.019273381680250168,768,769,733,42.260,1,0
1739373778.2966063,0.13569820204228103,0.9768858074806421,0.21053682080233796,-1.5554412816782197,-1.4568267887720907,1.2708960096837,0.20390124635380502,-0.0010274510276892272,0.00025972266885680516,-0.00021951502736082713,3.0534556079829674e-05,0.0002092978099686439,-0.0011412980567578413,-0.0012520124669454058,-0.1555902659893036,-48.09170913696289,3.22795033454895,15.923225402832031,-1.0090230703353882,-1.2366440296173096,0.026597600430250168,766,770,731,42.369,1,0
1739373778.306623,0.13570362518060372,0.976885807529533,0.21053860337135114,-1.5554415367304946,-1.4568276635217472,1.2708976823997475,0.20390362708203327,0.0006817749026670947,0.001023711386559489,0.00029187366922485625,0.0005417029524379021,-0.001252041774290299,0.00010529344023915986,0.0007620181817637172,-0.2309686839580536,-48.09170913696289,3.20414662361145,15.923225402832031,-1.0026143789291382,-1.2494614124298096,0.0064559997990727425,768,769,735,42.369,0,0
