IITGN-Robotics/Franka_IITGN_ROBOTICS/franka_ros/franka_iitgn/data/s_b_007.csv
time,fr3_joint1_pos,fr3_joint2_pos,fr3_joint3_pos,fr3_joint4_pos,fr3_joint5_pos,fr3_joint6_pos,fr3_joint7_pos,fr3_joint1_vel,fr3_joint2_vel,fr3_joint3_vel,fr3_joint4_vel,fr3_joint5_vel,fr3_joint6_vel,fr3_joint7_vel,fr3_joint1_eff,fr3_joint2_eff,fr3_joint3_eff,fr3_joint4_eff,fr3_joint5_eff,fr3_joint6_eff,fr3_joint7_eff,flexpin1,flexpin2,flexpin3,Force,ContactMic,ContactMic_gt
1739375961.2511892,0.12325209679069017,0.9884653703560817,0.22990526932024566,-1.538566608375494,-1.4617347784669061,1.2488525205232555,0.20857516040185337,0.00022233686400809538,0.0034056019753008217,0.000608508530151575,0.0026609275077673303,0.000761008910005674,0.0014475738604157488,6.873475663264725e-05,0.1935308277606964,-48.83359146118164,4.041243553161621,16.12158966064453,-1.0163472890853882,-1.3941147327423096,-0.027418512850999832,,,,,,,,,
1739375961.2612221,0.12325103022756037,0.9884402711353942,0.22990134333485499,-1.538575756575448,-1.4617340210542575,1.2488478263611555,0.20856677126702458,-0.000675825498363476,-0.002486114112481627,-0.0002533297289259353,0.0004715837882827299,-0.001060038427400783,-0.0002449009305544048,-0.0015071496276784296,0.1935308277606964,-48.60348892211914,4.065047264099121,16.29218292236328,-1.0227559804916382,-1.3812973499298096,0.019273381680250168,,,,,,,,,
1739375961.273253,0.12324787338294593,0.9884543402729696,0.22990005262676189,-1.5385721233968503,-1.4617347782177077,1.24884991830858,0.208572578709431,-0.0017096423661244575,-0.0029918185405796638,-0.0001798139121273149,-0.0020439885794639578,0.0004003348429397457,0.00021961258051331819,-0.0018061326634786455,0.1935308277606964,-48.78598403930664,4.041243553161621,16.24457550048828,-1.0163472890853882,-1.3877060413360596,0.0064559997990727425,,,,,,,,,
1739375961.28327,0.12324855442382204,0.9884605354877427,0.22990384239905517,-1.5385690474311216,-1.4617332648840669,1.2488516052583893,0.2085767620050262,-0.00034830980341547574,0.00042499546324524073,9.770533418061375e-05,-0.0004834076594301703,0.0005718402272175249,0.0001665661168531354,0.002431116293731547,0.1935308277606964,-48.88516616821289,4.065047264099121,16.24457550048828,-1.0291646718978882,-1.4142563343048096,-0.0008682189509272575,,,,,,,,,
1739375961.2952213,0.12325179136346175,0.9884524975588467,0.22990112039465405,-1.5385651477359965,-1.461736562683039,1.2488499829849269,0.2085766889958943,0.0004446949583220988,0.0012737860570891332,-0.0009074419601864502,0.0006525040841677817,-0.001518678080635614,0.0007514761470500128,0.0017878402694431832,0.1419561207294464,-48.73440933227539,4.041243553161621,16.19300079345703,-1.0026143789291382,-1.4005234241485596,-0.027418512850999832,,,,,,,,,
1739375961.3052316,0.12324784366997509,0.9884526937367838,0.22990466359782127,-1.5385699633022107,-1.4617356619963302,1.2488488194239535,0.20857269732563852,-0.0002479666382443388,-0.0007219146438101179,0.00019529096380302985,-0.0016375662981281376,-0.00021202829797515956,0.00010594161836062721,0.0016471332786779157,0.1935308277606964,-48.78598403930664,4.065047264099121,16.26837921142578,-1.0090230703353882,-1.3877060413360596,0.0064559997990727425,,,,,,,,,
1739375961.316166,0.12324783392248181,0.9884574934366429,0.22990432117571388,-1.538569397064704,-1.4617399891279308,1.2488549791981864,0.20857031610858145,0.0007571949016596249,0.0005098710677483598,0.0015047966851972983,-0.0007945317849648721,-8.135243577166374e-05,-0.0003644136531929097,0.0008588022376706402,0.1935308277606964,-48.88516616821289,4.065047264099121,16.29218292236328,-1.0090230703353882,-1.4069321155548096,0.026597600430250168,,,,,,,,,
1739375961.3271568,0.12324954647928107,0.988451988157446,0.2299041963384769,-1.5385668469974176,-1.461733262922076,1.2488563146692537,0.20857202801411,-3.177742963504307e-05,0.00027573855249333297,-0.0002197368900385155,0.00022625140955722387,0.0013280577771782542,0.002146055570976503,-0.0010420805638393935,0.1697271168231964,-48.80978775024414,4.041243553161621,16.21680450439453,-1.0291646718978882,-1.4142563343048096,-0.0008682189509272575,,,,,,,,,
1739375961.337218,0.12324962536416012,0.98844754865994,0.22990247838681735,-1.5385658580546935,-1.4617339033166865,1.2488516109826449,0.20856885928607435,0.0010114290466906482,-0.0007805506826972569,0.000535940174061488,0.000465156347432078,0.0008979198804058528,-0.0016767292060657355,-0.003140657472934273,0.1697271168231964,-48.73440933227539,4.092818260192871,16.21680450439453,-1.0227559804916382,-1.4142563343048096,0.026597600430250168,,,,,,,,,
1739375961.3472548,0.12324609515740219,0.9884519882453602,0.22990736638151407,-1.5385620487484961,-1.4617332628955628,1.248853135838701,0.20857668895316564,7.603948383115756e-05,-0.002179063163028567,0.0013668383673414186,0.0009703350706861613,0.0006445058209573944,0.00114479599066085,0.00026619502634518265,0.2173345386981964,-48.80978775024414,4.013472557067871,16.19300079345703,-1.0291646718978882,-1.4142563343048096,-0.027418512850999832,,,,,,,,,
1739375961.358213,0.12324954511096194,0.9884502452133094,0.22990313903335918,-1.5385697335511057,-1.4617347801503884,1.2488477148584998,0.20857507854317534,0.0006905000437531099,-0.0006622297166260693,-6.172876547257117e-05,-0.0005610163464841297,-0.00033331874553613774,-0.0012774751690778666,0.00022516222072697424,0.1697271168231964,-48.78598403930664,4.041243553161621,16.26837921142578,-1.0163472890853882,-1.3812973499298096,-0.013685601763427258,,,,,,,,,
1739375961.370219,0.12324611261716693,0.98845104694502,0.22990218548107383,-1.5385705421362827,-1.4617332628975592,1.2488504556744138,0.20856798003448507,-0.0002571530860749413,0.0006707539538799076,0.0003865547856225964,-0.0010379572629882787,0.0009317737207422292,0.0011595681881232146,-0.0018792139408332408,0.2173345386981964,-48.78598403930664,4.065047264099121,16.26837921142578,-1.0291646718978882,-1.3941147327423096,0.019273381680250168,,,,,,,,,
1739375961.380229,0.12324867374170911,0.988454367989488,0.2299077130937693,-1.538571500327828,-1.4617348988987142,1.2488511589140285,0.20857507852517432,-0.0002692817825718347,0.0002479357463859867,0.0011919354959716794,-0.001981869711605379,0.00047414253206613826,0.0003914241518258797,0.003016874133980203,0.1419561207294464,-48.83359146118164,3.98966908454895,16.29218292236328,-1.0163472890853882,-1.4005234241485596,-0.013685601763427258,,,,,,,,,
1739375961.3911908,0.12324923144298797,0.9884537689990139,0.2299053348863112,-1.5385705153545297,-1.4617356446122483,1.2488534629149781,0.208575835717407,0.0009654964287567392,0.00018379386675936748,0.00036537652231662587,-0.00045732454254957975,-0.00047873998801734984,0.0011995313220725318,0.0009788375432343084,0.1697271168231964,-48.83359146118164,4.013472557067871,16.26837921142578,-1.0090230703353882,-1.3941147327423096,-0.020094294100999832,,,,,,,,,
1739375961.4012308,0.12324643767645027,0.9884519535626884,0.2299052684751993,-1.5385693836041054,-1.4617391247205622,1.2488503755152809,0.20857246148278244,-0.0003971431858376685,0.00030817878899896587,0.0010983826912609163,6.396782681074515e-05,-0.0009830638143259417,0.0011135429496904002,0.0009163839977982488,0.1697271168231964,-48.80978775024414,4.013472557067871,16.29218292236328,-1.0163472890853882,-1.4005234241485596,0.0064559997990727425,,,,,,,,,
1739375961.4112277,0.12325325544750648,0.9884520691181901,0.2299013539216495,-1.538561853137415,-1.4617347230927427,1.248851092410836,0.20856931142110485,0.0020311050794576705,0.0001812751041509394,-0.0011762767925158663,0.0003046801690221541,0.0002500287876714151,-0.00026297747183027603,-0.00045613673664317604,0.11815241724252701,-48.80978775024414,4.065047264099121,16.19300079345703,-1.0163472890853882,-1.4069321155548096,-0.0008682189509272575,,,,,,,,,
1739375961.4222286,0.12324741018263455,0.9884520574561193,0.2299013548973825,-1.5385637122339628,-1.4617356576891702,1.2488562491837165,0.20856636957600608,-0.0002613622297335793,3.988471147055645e-06,-0.0017849192284230013,0.0015835069006228067,0.00020878457784371374,0.0005741721306889512,-0.0017416486651200133,0.1419561207294464,-48.80978775024414,4.065047264099121,16.21680450439453,-1.0090230703353882,-1.4142563343048096,0.03300629183650017,,,,,,,,,
1739375961.4332316,0.12324780473727398,0.9884502408247858,0.2299085152266417,-1.5385693926995587,-1.461734062771225,1.2488549953742962,0.20857269293358138,0.00046718147311164415,-0.0006479494497705358,0.00021834410704905743,-0.0012717122005522637,0.0008297068880792126,-0.0005890282905780021,-0.00027284099569688513,0.1935308277606964,-48.78598403930664,4.041243553161621,16.29218292236328,-1.0227559804916382,-1.4069321155548096,0.0064559997990727425,,,,,,,,,
1739375961.443252,0.12324536261703858,0.9884519534539444,0.22990633398209268,-1.5385637345608134,-1.461733262898263,1.2488524485638444,0.20857507854317517,-0.001803594249440802,-0.00014456875413869884,0.0004579805092437918,0.0009271390307467953,0.000900360473984666,0.0012916446182919409,0.0013251275114572235,0.1935308277606964,-48.80978775024414,4.041243553161621,16.24457550048828,-1.0291646718978882,-1.3941147327423096,-0.013685601763427258,,,,,,,,,
1739375961.4542146,0.12324944097854784,0.9884536630312382,0.22990550692955672,-1.5385679387609938,-1.4617358643467875,1.2488497493209973,0.20857193966578208,0.0008998482850934922,0.001332522681636869,3.99650507444737e-05,0.0003539261296131082,-0.0005663362070280117,-0.0003840739522076401,0.0012227106144379793,0.1697271168231964,-48.83359146118164,4.065047264099121,16.24457550048828,-1.0163472890853882,-1.3941147327423096,0.012864691205322742,,,,,,,,,
1739375961.465159,0.12324297048104996,0.9884503042174411,0.22990558716116719,-1.5385637917193724,-1.4617380425706399,1.2488516497045647,0.2085769551191633,-0.0014369061763416441,-0.0011062516542636224,0.0008667890458458464,0.0010259769087447488,-0.00020335111738370345,-0.001305052434175951,0.001289928317129624,0.2173345386981964,-48.75821304321289,4.065047264099121,16.21680450439453,-1.0163472890853882,-1.3877060413360596,-0.020094294100999832,,,,,,,,,
1739375961.4751902,0.12324468298501767,0.9884518741229911,0.22990534971376062,-1.538565830290306,-1.4617367304648452,1.2488492284473665,0.20857431944402754,9.298748641534886e-05,-0.0006504942257363838,9.744485800352318e-06,9.526155106127961e-05,0.00014132301129696602,-0.0005643854484362568,-0.0002703639643601777,0.1935308277606964,-48.80978775024414,4.065047264099121,16.24457550048828,-1.0090230703353882,-1.3941147327423096,-0.0072769103571772575,,,,,,,,,
1739375961.4852226,0.12324847023947806,0.9884557723251083,0.229905493919379,-1.5385724568204642,-1.4617373325992757,1.2488488736898822,0.20857288636303292,0.0002716025501120785,0.0009741636029702391,0.0006145199128833073,-0.001448838136101123,-0.0006182294642778472,-0.00012071766597332711,-0.0004007859666416177,0.1419561207294464,-48.83359146118164,4.013472557067871,16.29218292236328,-1.0227559804916382,-1.3877060413360596,0.012864691205322742,,,,,,,,,
1739375961.4971528,0.1232464376284289,0.9884502665450862,0.22990533455831239,-1.5385637126152782,-1.4617340206315041,1.2488501385171025,0.20857507871110867,0.0006466141934108443,7.09745112045734e-05,0.0005046708095667117,0.00035348206151828397,0.0006664758767621574,-6.66512802571315e-05,0.0019062070625845465,0.1697271168231964,-48.78598403930664,4.013472557067871,16.21680450439453,-1.0227559804916382,-1.4005234241485596,-0.013685601763427258,,,,,,,,,
1739375961.5072105,0.12324732868481628,0.988450241254352,0.22990846444389154,-1.5385636868336057,-1.461734676992294,1.2488493813939623,0.2085750785432505,-0.0004200812854926801,-0.00010237371477765574,-3.079170850101302e-05,0.0012322033706871718,-0.0014477868577794494,0.00019796267604945344,0.0016985351041175218,0.1697271168231964,-48.78598403930664,4.041243553161621,16.21680450439453,-1.0026143789291382,-1.3941147327423096,-0.013685601763427258,,,,,,,,,
1739375961.517233,0.12324835555199774,0.9884501614603608,0.22990455879151148,-1.5385620179691386,-1.4617347841480517,1.2488507398401443,0.20857194551632183,0.0008087153681194406,-0.0007559382335220875,-0.00017507347812336976,0.001874794410202499,0.00020629846718462648,-0.000537696848910972,0.00038101741034719404,0.1419561207294464,-48.78598403930664,4.065047264099121,16.19300079345703,-1.0163472890853882,-1.4069321155548096,0.012864691205322742,,,,,,,,,
1739375961.528186,0.12324940680230896,0.9884573793247442,0.22990806804849093,-1.538565792024749,-1.4617347782177383,1.2488507786526553,0.20857745976078174,0.0006847346393926493,0.001794938979933984,0.0014627937163128265,-0.00019172276462073312,8.956675250090603e-05,-0.000524708259020824,0.0017102387100727296,0.1419561207294464,-48.88516616821289,3.98966908454895,16.24457550048828,-1.0163472890853882,-1.4069321155548096,-0.03382720425724983,,,,,,,,,
1739375961.5382164,0.12324335761404662,0.9884559845869331,0.22990321713369852,-1.53856579202425,-1.461733549607347,1.2488507934579984,0.20857539153194363,-0.0012818028520205096,0.001823545078598953,-0.0019212132020221032,0.0008514163827129565,0.001657479517412941,-0.00037995041429839566,0.0003689521600546125,0.2411382496356964,-48.86136245727539,4.092818260192871,16.24457550048828,-1.0227559804916382,-1.4069321155548096,-0.0072769103571772575,,,,,,,,,
1739375961.5482266,0.12324710428231253,0.9884519521511816,0.22990984886424778,-1.5385658185152031,-1.4617347828449396,1.2488544434844224,0.20856717724924556,-0.00036598054247533865,-0.0008507684502913949,0.0004858054563150659,0.00026450880049640164,0.0001763923412179625,0.0006097217205648229,-0.002783005653946501,0.1697271168231964,-48.80978775024414,4.065047264099121,16.24457550048828,-1.0163472890853882,-1.4069321155548096,0.05314789339900017,,,,,,,,,
1739375961.5591547,0.1232467797617379,0.9884515113771404,0.22990680388966858,-1.5385655634172846,-1.4617383986480064,1.2488492253457586,0.20857037437459747,-0.0007346692451210095,0.0002192170461499186,0.000698451132066546,0.00012657266632165517,-0.0009296574334057596,-0.0014333109299974984,2.222225150563334e-05,0.1935308277606964,-48.83359146118164,4.065047264099121,16.24457550048828,-1.0163472890853882,-1.3941147327423096,-0.0008682189509272575,,,,,,,,,
1739375961.5692155,0.12324687642381006,0.988451953417458,0.22990479892966967,-1.5385619295535036,-1.461735639815599,1.2488504411389008,0.20857250021959092,0.000625858092426857,6.972646398754431e-05,-0.0013508360785118212,0.002459768984868931,-1.4513518022774106e-05,0.0006505124313063322,0.000469891980582215,0.1935308277606964,-48.80978775024414,4.065047264099121,16.19300079345703,-1.0090230703353882,-1.3941147327423096,-0.0008682189509272575,,,,,,,,,
1739375961.5801833,0.12324908960742874,0.9884501378583327,0.22990455767450982,-1.5385637349962804,-1.4617341829554549,1.2488498979788258,0.20857015715848704,0.0008592953508430153,-0.00022073056995690815,-0.0005225569947013415,0.00043233287027158137,-0.0001566687379603999,-0.0006151904781331535,-0.0019125419629970205,0.1697271168231964,-48.78598403930664,4.065047264099121,16.24457550048828,-1.0227559804916382,-1.3877060413360596,0.026597600430250168,,,,,,,,,
1739375961.5902123,0.1232433810851562,0.9884563660678726,0.22990879390241656,-1.5385693244801015,-1.461737401116689,1.2488507958879962,0.20857269732496317,-0.0011050973011941545,0.0019831409840799963,0.0008236930348741222,-0.00042048042932330595,8.987106734655328e-06,-0.00014459256449613682,-0.0007434964730868238,0.2411382496356964,-48.86136245727539,4.041243553161621,16.29218292236328,-1.0227559804916382,-1.4069321155548096,0.0064559997990727425,,,,,,,,,
1739375961.6011486,0.12324467277192529,0.9884474059146096,0.22990350759005587,-1.5385693450956026,-1.461734020631891,1.2488507963647506,0.20857356468572777,-0.00045433379573511947,-0.000452577446609475,-0.0016934798136540856,-0.0004698531999015893,-0.00014254891877527056,-0.0015760101769874964,-4.9829688416259016e-05,0.1935308277606964,-48.78598403930664,4.041243553161621,16.29218292236328,-1.0227559804916382,-1.4069321155548096,-0.0008682189509272575,,,,,,,,,
1739375961.6112235,0.12324492059993325,0.9884502409922012,0.2299049140829372,-1.5385658714969015,-1.4617340205576277,1.2488551366664333,0.20857583636597776,-0.0008187846553371913,-6.0882089302269854e-05,0.00030031920007790537,0.0010068571286787522,-9.096263873796675e-05,0.0006201880197550314,0.0013810504620737126,0.1935308277606964,-48.78598403930664,4.065047264099121,16.24457550048828,-1.0227559804916382,-1.4069321155548096,-0.020094294100999832,,,,,,,,,
1739375961.6212544,0.12324644810911273,0.9884530489742587,0.22990490144109313,-1.538568653048545,-1.4617392434150445,1.248855153698023,0.20856955844850586,0.0003481220473774845,0.00044717913888499104,-0.0008923743004181266,-0.00031909975069895877,-0.001192831820838667,0.00155046165437895,-0.0012650448461293696,0.1697271168231964,-48.78598403930664,4.065047264099121,16.24457550048828,-1.0163472890853882,-1.4069321155548096,0.03300629183650017,,,,,,,,,
1739375961.6331947,0.1232460032967434,0.9884535824840672,0.22990764374124173,-1.538565792076739,-1.4617340075008805,1.248851447380966,0.2085772185160949,7.921598422358696e-05,0.0009283069685736943,0.0009419222783261915,0.00030811252134247254,0.00043149435799320934,-0.0008300098844311993,0.00109204363577549,0.2173345386981964,-48.83359146118164,4.065047264099121,16.24457550048828,-1.0227559804916382,-1.4005234241485596,-0.020094294100999832,,,,,,,,,
1739375961.6442866,0.12324706767356779,0.988448207846048,0.22990847383528537,-1.5385638316937107,-1.4617332622515014,1.2488477100253945,0.20857522403765025,0.00037949810221950936,0.0002963477064897591,-0.00025488328811435347,0.0002695132971189569,0.0006523226080561108,-0.0023564676384266355,0.0013766213974899036,0.1697271168231964,-48.78598403930664,4.041243553161621,16.24457550048828,-1.0291646718978882,-1.3812973499298096,-0.013685601763427258,,,,,,,,,
1739375961.655221,0.12324529869949792,0.9884482431235484,0.22990559092958637,-1.538563712223328,-1.4617345844768044,1.2488493464540433,0.20857118346927012,-5.166582262731653e-06,-0.0015317168417307912,0.00019240797852196394,0.0011616629599778036,0.0007569838488128137,0.0004271488526384688,-0.0011337099180325893,0.2173345386981964,-48.75821304321289,4.065047264099121,16.21680450439453,-1.0090230703353882,-1.3941147327423096,0.019273381680250168,,,,,,,,,
1739375961.666162,0.12324456601839746,0.988449923041777,0.2299064214114249,-1.5385637241171672,-1.4617347394624962,1.2488530594306884,0.20857543396354702,-0.0011098118077165365,-0.000981141408956024,0.00012869142382586335,8.871321123353894e-05,-0.0010036354847989001,0.0017082168243886756,0.0005953792941193195,0.1935308277606964,-48.78598403930664,4.041243553161621,16.21680450439453,-1.0163472890853882,-1.3877060413360596,-0.013685601763427258,,,,,,,,,
1739375961.677201,0.12324644907606214,0.9884556374227828,0.22990637159924207,-1.5385637122344613,-1.4617332499809206,1.2488507784632397,0.20857745992527008,-7.747035037179191e-05,0.0004604700686882173,0.0010526596616324618,0.0012289851391047973,0.001655492705228208,0.0006638026049375723,0.00037089832215216447,0.1697271168231964,-48.86136245727539,4.041243553161621,16.21680450439453,-1.0291646718978882,-1.4069321155548096,-0.03382720425724983,,,,,,,,,
1739375961.687263,0.12324559413178339,0.9884510709826343,0.22990634523099276,-1.5385693889203282,-1.46173418146542,1.2488523091878907,0.20857031610858426,0.0010602877392637833,0.00048531423020126477,0.00012106752505744456,-0.0009572038846680151,9.292587166366782e-06,0.0011384385416567597,-0.0018588407236336405,0.1935308277606964,-48.78598403930664,4.041243553161621,16.29218292236328,-1.0227559804916382,-1.4069321155548096,0.026597600430250168,,,,,,,,,
1739375961.6973047,0.12324840440483877,0.9884482426793701,0.2299083068513091,-1.5385655084074505,-1.4617365346965219,1.2488516240114278,0.2085719396657821,0.0003419005864912776,-0.0024522178683115048,0.0018078678479677927,-0.00028664684364467364,-0.0010694221027407794,0.00034269497705400026,-0.0006098300418342988,0.1697271168231964,-48.75821304321289,4.013472557067871,16.26837921142578,-1.0291646718978882,-1.4142563343048096,0.012864691205322742,,,,,,,,,
1739375961.7082024,0.12324464508552231,0.9884461058556029,0.22990807535926244,-1.5385675835199222,-1.4617356441334066,1.2488539325831374,0.20857670226318537,-0.0005898193077977008,-0.0013561264803770494,0.0008992042627931863,-0.0004841757981503069,-0.0001764590842439043,0.0005305961896455923,0.001665094304444816,0.1935308277606964,-48.75821304321289,4.013472557067871,16.26837921142578,-1.0090230703353882,-1.4206650257110596,-0.027418512850999832,,,,,,,,,
1739375961.7182267,0.12325041065350295,0.9884516441931083,0.2299045586411893,-1.5385675760096134,-1.4617358643467877,1.248852376018808,0.20856955844850586,0.0017126302001793338,-0.0004402094370063995,-0.0008287296898730616,-0.0015588857734011082,0.00010839501680027106,-0.0010265441680672245,-0.001435615967872957,0.11815241724252701,-48.80978775024414,4.065047264099121,16.26837921142578,-1.0163472890853882,-1.4206650257110596,0.03300629183650017,,,,,,,,,
1739375961.7282438,0.1232474809078482,0.98845369196982,0.22990842404373144,-1.5385619295573973,-1.4617347782360988,1.2488515273015344,0.20857698733874938,0.0004195134693465765,0.00012110571086303905,0.00141240951400212,0.001457000324625875,0.0007349557610238847,-0.0008072050678980643,0.0003527959097066462,0.1935308277606964,-48.83359146118164,4.013472557067871,16.19300079345703,-1.0163472890853882,-1.4005234241485596,-0.03382720425724983,,,,,,,,,
1739375961.7383025,0.12324566879904184,0.9884519531282182,0.22990842111406815,-1.538564669211795,-1.461736641965806,1.2488484662897523,0.20856793486719086,0.00043007626080835836,-0.00015030383829451693,0.001535306889863286,0.00031951233210031127,-0.0009244932796997651,-0.0026440037420275933,-0.0011250119362808066,0.1935308277606964,-48.80978775024414,4.013472557067871,16.26837921142578,-1.0291646718978882,-1.3877060413360596,0.04673920199275017,,,,,,,,,
1739375961.750139,0.12324293255516314,0.9884498077223995,0.22990925306710464,-1.53856192995298,-1.4617328448932196,1.2488542346373408,0.20857670208266918,-0.0014540872197606742,-0.0014043948618783363,0.0016781047444569285,0.0008321095190536632,-0.0003288990296292339,0.0007487723892836518,0.0008814863551724721,0.2173345386981964,-48.80978775024414,3.98966908454895,16.19300079345703,-1.0163472890853882,-1.4005234241485596,-0.027418512850999832,,,,,,,,,
1739375961.7602458,0.12324639550510658,0.9884557719933467,0.2299084562662991,-1.5385655634171371,-1.4617347743427702,1.2488501566812718,0.2085736816965225,-2.931824199083169e-05,0.0013904957608162072,0.000795552518515055,0.00020065653070008897,-0.00027544801181151473,0.00012552311295317513,-0.0002563122859544371,0.1697271168231964,-48.83359146118164,4.013472557067871,16.24457550048828,-1.0163472890853882,-1.4005234241485596,-0.0008682189509272575,,,,,,,,,
1739375961.7712178,0.12324747993019856,0.9884533596865174,0.22990447943380177,-1.5385675746999783,-1.4617346604801131,1.2488499829859148,0.20857475540905898,0.0015990755844531275,-0.0002593192837987495,-0.00033055116654732964,-0.00032616668270894094,0.0015194343777842191,-0.0006563501324556298,0.002407005315942258,0.1935308277606964,-48.83359146118164,4.065047264099121,16.26837921142578,-1.0163472890853882,-1.4005234241485596,-0.0072769103571772575,,,,,,,,,
1739375961.781252,0.12323921042041225,0.9884536659694904,0.22990455864570322,-1.5385648186973246,-1.4617348993933499,1.2488546146420567,0.20858108546291912,-0.0023436750805739667,-0.0004171250210929729,-0.0003275545497607468,0.00048032543514057394,-0.0011977452932673985,0.0006985885809742831,0.0023254638559794,0.2689092457294464,-48.83359146118164,4.065047264099121,16.26837921142578,-1.0163472890853882,-1.4005234241485596,-0.027418512850999832,,,,,,,,,
1739375961.79228,0.12324122456948486,0.9884518823208311,0.2299024916253831,-1.53856580083901,-1.4617340205583105,1.248855389609362,0.2085767021254146,-0.0016335908542466186,0.0005709268949340692,-0.0017541986579601783,0.0004305378978960575,0.0007415210889706052,0.0014965280751905628,0.00021196305210186743,0.2411382496356964,-48.80978775024414,4.092818260192871,16.24457550048828,-1.0227559804916382,-1.4069321155548096,-0.027418512850999832,,,,,,,,,
1739375961.8031757,0.12324566995107447,0.9884536659742759,0.22990456157692898,-1.538567937900528,-1.461734776279638,1.24885588506672,0.20856955844850325,-0.00027171737564239733,0.000943772388771976,-0.00180197835342249,0.00017539106427849797,0.00037729661789606087,-0.00010493220141174,-0.0025895951970170963,0.1935308277606964,-48.83359146118164,4.065047264099121,16.24457550048828,-1.0163472890853882,-1.4142563343048096,0.03300629183650017,,,,,,,,,
1739375961.8142092,0.12324464509132439,0.9884557706972641,0.22990561348800312,-1.5385657650245559,-1.4617347780561667,1.2488549928364727,0.20857432283335112,-0.0014494654241524346,0.0013198258335021154,0.00010325632011887757,-0.0008896175118861495,0.0009751935560461995,0.0003359007654635194,0.0006918355205220422,0.1935308277606964,-48.83359146118164,4.065047264099121,16.24457550048828,-1.0163472890853882,-1.4069321155548096,-0.0072769103571772575,,,,,,,,,
1739375961.82424,0.12324488132097006,0.988450239927611,0.22990751233775786,-1.5385657920240974,-1.461736730244019,1.248852169508908,0.20857118406451633,-0.0008208513736319165,-0.00033862966286935116,-0.0006574990780743315,7.927993530437927e-06,0.00021154951718710066,-9.341241319524089e-05,0.0003613789928511568,0.1935308277606964,-48.78598403930664,4.065047264099121,16.24457550048828,-1.0090230703353882,-1.4069321155548096,0.019273381680250168,,,,,,,,,
1739375961.8351672,0.12324570689072811,0.9884529510399267,0.2299059176951477,-1.5385668859364847,-1.4617335913726837,1.2488551492709747,0.20857138285700572,0.00037928807142251203,-1.4273259591425697e-05,-0.0006511459986897098,-0.0007655836786472411,0.0006971458564350582,0.0007977044042429802,-0.0016714555342548392,0.1935308277606964,-48.83359146118164,4.092818260192871,16.26837921142578,-1.0355733633041382,-1.4069321155548096,0.026597600430250168,,,,,,,,,
1739375961.8461893,0.12324750628965203,0.9884536662916339,0.22990458648158782,-1.538563712230506,-1.4617347783893795,1.2488516448977902,0.20857585376107904,0.000625743121844146,0.00034735832462892246,0.0002863423538272562,0.00063553387334967,0.0008433766881455149,-0.0003965475241025622,0.0011094292851975363,0.1935308277606964,-48.83359146118164,4.065047264099121,16.21680450439453,-1.0163472890853882,-1.4142563343048096,-0.020094294100999832,,,,,,,,,
1739375961.8562083,0.12324472385942284,0.9884490923219862,0.22990740642498866,-1.5385658037980068,-1.461734021054259,1.248852457946491,0.20857969949485164,-0.0012668766493929388,-0.0006290840689371455,0.0006538501826201897,0.0002480072123647205,0.0011028094517237753,0.0002623337739713282,0.0010919829159662057,0.1935308277606964,-48.80978775024414,4.065047264099121,16.24457550048828,-1.0227559804916382,-1.3812973499298096,-0.013685601763427258,,,,,,,,,
1739375961.8662424,0.12324725406525641,0.9884502408847615,0.22990457052303248,-1.5385663845048465,-1.461735140260741,1.2488549952670058,0.20857310986716834,0.00045166887529679063,0.00011687717303066419,-5.4093116344141554e-05,0.000263972150719443,-0.00045130195550065406,0.0016398466107380497,0.0005860901141080792,0.1935308277606964,-48.78598403930664,4.065047264099121,16.29218292236328,-1.0163472890853882,-1.4069321155548096,0.0064559997990727425,,,,,,,,,
1739375961.8772104,0.12324635760942704,0.9884497950388281,0.22990839474567643,-1.538563640704286,-1.461735644116981,1.2488493808787497,0.20857269732818925,-5.440178148182005e-05,-0.0009062742020910077,0.0005644381814118667,0.0007580316029079457,-0.0006211371312783694,-0.0016296592349059626,0.0003080230862059868,0.1697271168231964,-48.80978775024414,4.013472557067871,16.21680450439453,-1.0090230703353882,-1.3941147327423096,0.0064559997990727425,,,,,,,,,
1739375961.8882596,0.1232429325532369,0.98844980767455,0.22990351601056425,-1.5385657994894415,-1.4617340205576266,1.24885155335843,0.2085735238545929,-0.000714586670677527,-0.0007471717685984061,-0.001160687489392451,0.0003972185921044928,-0.00014820516124003095,-2.6686034101813592e-05,-0.0018348925020224742,0.2173345386981964,-48.80978775024414,4.092818260192871,16.24457550048828,-1.0227559804916382,-1.4005234241485596,-0.0008682189509272575,,,,,,,,,
1739375961.8991587,0.1232446479901532,0.9884482439432261,0.22990859283634965,-1.538567574701311,-1.461733261443998,1.248851811974244,0.20857670356308308,4.039688534309934e-05,-0.0011323634064237516,0.001036067989145138,-0.0008707034625063052,0.0015763470512400886,-0.00047343375233126146,0.002305491369608429,0.1935308277606964,-48.75821304321289,4.041243553161621,16.26837921142578,-1.0291646718978882,-1.4069321155548096,-0.027418512850999832,,,,,,,,,
1739375961.9102125,0.12325018178701887,0.9884532792936905,0.22990479599996363,-1.53856579202425,-1.461734025027269,1.2488540925500393,0.20857686885470475,0.0018718954975203016,0.0006253030912684193,-0.0011606426983356822,7.107706896950395e-05,0.000572140481504604,-0.0015467700588971604,0.0010910329412365648,0.11815241724252701,-48.86136245727539,4.065047264099121,16.24457550048828,-1.0227559804916382,-1.4069321155548096,-0.027418512850999832,,,,,,,,,
1739375961.920212,0.1232467722696893,0.9884482426518519,0.22990645656468406,-1.5385637122343943,-1.4617321564944523,1.2488513992463122,0.20857363358224212,0.0001088799183496191,-0.0006747850619364042,-0.000462635502617032,0.0002889831453737669,0.0010662346456603777,-0.00032134348257759375,0.00027369208513039456,0.1935308277606964,-48.75821304321289,4.041243553161621,16.21680450439453,-1.0355733633041382,-1.4005234241485596,0.026597600430250168,,,,,,,,,
1739375961.9302206,0.1232446452179991,0.9884556639155248,0.22990634132601537,-1.53856579202425,-1.461734782681466,1.2488499859160356,0.2085769686650988,-0.0007463150619057634,0.0024888294337067373,-0.00014746073610160228,7.237921831606753e-05,-0.00021678774501495034,0.0005157446813760234,0.0004187851116494191,0.1935308277606964,-48.86136245727539,4.041243553161621,16.24457550048828,-1.0163472890853882,-1.4005234241485596,-0.020094294100999832,,,,,,,,,
1739375961.9403057,0.12324710219398453,0.9884527093569218,0.22990866135852092,-1.5385636357049737,-1.4617343826007296,1.2488516094494115,0.20857864451422445,0.0004456994214145381,0.0008149001741230601,0.0009306849339285464,0.000730948086852192,-0.0004490740202387879,-0.00014058661125758215,0.0009614156241833413,0.1697271168231964,-48.83359146118164,4.013472557067871,16.21680450439453,-1.0227559804916382,-1.4142563343048096,-0.03382720425724983,,,,,,,,,
1739375961.952214,0.12324464507817129,0.9884536659692773,0.22990843283452436,-1.5385675633631448,-1.461735644116981,1.2488501167115733,0.20857031611526944,9.43052198268987e-06,0.0016727812010648145,-9.161852322378083e-05,-0.0003095977804247735,0.0007250047708925142,-0.0004466091550050948,-0.0011220682968197798,0.1935308277606964,-48.83359146118164,4.013472557067871,16.26837921142578,-1.0090230703353882,-1.4005234241485596,0.026597600430250168,,,,,,,,,
1739375961.9631388,0.12324668118274273,0.9884475349862065,0.22990876520410922,-1.5385672685835656,-1.461734740958367,1.2488536446397556,0.20857436053682946,0.0007448407849188839,-0.0005450654782133168,0.0014418391516564594,-0.00011932721523053938,0.0008279552495447062,0.00033706828381010524,-0.002033462785331267,0.1697271168231964,-48.75821304321289,4.013472557067871,16.26837921142578,-1.0163472890853882,-1.4005234241485596,-0.0072769103571772575,,,,,,,,,
1739375961.9731576,0.12324709247884481,0.9884516254120044,0.22990526929510127,-1.5385675746960845,-1.4617356485839732,1.2488516225933246,0.2085735676116692,0.0007593885791268343,0.00040558987312721705,-0.0007750261328628045,-0.0010542031763124656,-0.0007153402208559845,-0.0006523233927361671,0.0008468450427558075,0.1697271168231964,-48.80978775024414,4.065047264099121,16.26837921142578,-1.0090230703353882,-1.4142563343048096,-0.0008682189509272575,,,,,,,,,
1739375961.9831727,0.12324254424753105,0.988447768329675,0.22990461177251623,-1.538565758011174,-1.461735657524014,1.2488492301703118,0.20857589340878976,-0.00010172175961853047,-0.0013796857870468254,-0.0012540323013532561,-0.00019508100671486466,0.0008148137191313605,-0.00144778637955726,0.0009004076118910992,0.1935308277606964,-48.78598403930664,4.092818260192871,16.24457550048828,-1.0090230703353882,-1.3941147327423096,-0.020094294100999832,,,,,,,,,
1739375961.9931848,0.12324432861867116,0.988450237947902,0.22990806797609967,-1.5385636868330277,-1.461734778217932,1.2488534810135274,0.20857031610955024,-0.000754349452993747,-0.0004216234002656218,0.0008602036740761752,9.395381028713093e-05,-0.00010321455130271065,9.958077851331988e-05,-0.0012613034211849594,0.1935308277606964,-48.78598403930664,3.98966908454895,16.21680450439453,-1.0163472890853882,-1.4206650257110596,0.026597600430250168,,,,,,,,,
1739375962.0032175,0.12324393312424066,0.9884556638064637,0.22991020666672532,-1.5385654859061377,-1.4617324652005492,1.2488510457105992,0.20857782842907843,-0.0005865119452857456,0.0007836697067685878,0.0017033856591333954,0.0013733177456731129,0.0005388021086750769,2.0715193565496186e-05,0.0016244317436308823,0.1935308277606964,-48.86136245727539,3.98966908454895,16.24457550048828,-1.0090230703353882,-1.4005234241485596,-0.0008682189509272575,,,,,,,,,
1739375962.013244,0.12324496000991063,0.9884522536847478,0.22990873753368748,-1.538564030120649,-1.4617356862746238,1.2488510805948894,0.20857584066357443,-0.0003339384619875633,7.278789283843209e-05,0.001149480120101307,0.0006110468077238729,-0.0004785536105370359,0.000658696116465234,0.0017667581437174843,0.1935308277606964,-48.80978775024414,4.013472557067871,16.21680450439453,-1.0090230703353882,-1.4005234241485596,-0.020094294100999832,,,,,,,,,
1739375962.0242124,0.12325006806108088,0.9884536630363225,0.22990602490970316,-1.5385637123487939,-1.4617340205583405,1.248854395534958,0.2085719417785525,0.0012988722367190289,0.00040319403949090604,-0.00023028805319369464,0.0006681062854509906,0.00047105214710711936,0.0006713123088825941,-0.001405525582478463,0.11815241724252701,-48.83359146118164,4.041243553161621,16.21680450439453,-1.0227559804916382,-1.4069321155548096,0.012864691205322742,,,,,,,,,
1739375962.0351715,0.1232456457943402,0.9884520306556283,0.2299053140806672,-1.538565825945806,-1.4617343826190476,1.2488531604526438,0.20857863345037728,-0.00035932892095153797,0.00038376516104553763,5.84177362443532e-06,3.414485846722407e-05,0.00047393510813390275,-0.0015470190864313568,0.0008248375994710667,0.1697271168231964,-48.80978775024414,4.041243553161621,16.24457550048828,-1.0227559804916382,-1.4005234241485596,-0.013685601763427258,,,,,,,,,
1739375962.046178,0.12324496001794943,0.9884502409336509,0.22990634034166085,-1.5385675745964815,-1.4617356442825244,1.2488561974102108,0.20857658406940977,-0.00023635782223202642,0.00011210303862760665,-0.0010560157696882454,-0.0008519703998300791,0.0009373449495881114,0.001890999705210295,0.0009254180340264961,0.1935308277606964,-48.78598403930664,4.041243553161621,16.26837921142578,-1.0090230703353882,-1.4142563343048096,-0.027418512850999832,,,,,,,,,
1739375962.0571675,0.12324562891022048,0.9884527119733122,0.22990551184878347,-1.5385627821940935,-1.461737332527044,1.24885073975573,0.2085758493664861,0.0006308404148502185,-0.0006729476419173927,0.00013259552478435974,0.0011097347671363516,0.00030637025615806485,-5.547821157510848e-05,0.0010664198915122998,0.1935308277606964,-48.83359146118164,4.065047264099121,16.24457550048828,-1.0227559804916382,-1.4069321155548096,-0.020094294100999832,,,,,,,,,
1739375962.0671709,0.12324422166974452,0.988448015567971,0.22990633710825534,-1.538567524506851,-1.461735650296125,1.2488545732966123,0.20857486696148778,-0.0001647800806149362,-0.0006765254946445936,4.643032157996749e-05,9.734637346255682e-05,-0.0006873616641884224,0.0017937738195560322,0.0009768896063128676,0.1697271168231964,-48.78598403930664,4.041243553161621,16.26837921142578,-1.0090230703353882,-1.4005234241485596,-0.0008682189509272575,,,,,,,,,
1739375962.0782685,0.12324677229299222,0.9884516355499452,0.22990531295995262,-1.5385650947559135,-1.46173477821774,1.248851056215445,0.20857431215560232,0.0001499802484309753,0.0004212754248658221,-0.0014190655228746834,0.0014142567414142967,-0.00030872424242063133,-0.00048803862317592606,-9.073679352153321e-07,0.1935308277606964,-48.80978775024414,4.041243553161621,16.24457550048828,-1.0163472890853882,-1.4005234241485596,-0.0072769103571772575,,,,,,,,,
1739375962.0892386,0.123248364296116,0.9884519436406876,0.2299045674306762,-1.5385691282221554,-1.4617343826006541,1.24885240494516,0.20857285529038413,0.0019019128295040756,-0.00015204647199988154,7.488136340029028e-05,-0.0004871943409231743,0.00028412045568803983,-0.00039630291241308244,0.00024533894783414245,0.1419561207294464,-48.80978775024414,4.065047264099121,16.29218292236328,-1.0227559804916382,-1.3941147327423096,0.0064559997990727425,,,,,,,,,
1739375962.0992455,0.12324421047452168,0.9884519534537801,0.22990374122958557,-1.5385714011023917,-1.4617356485907356,1.2488543771211915,0.20857224826935664,-0.0010640041070712983,-0.0003515395050156203,-0.00044398123331043,-0.0007145634865556691,-0.00023339443260805704,0.0013794834673797672,-0.0007689168179854031,0.1697271168231964,-48.80978775024414,4.065047264099121,16.29218292236328,-1.0090230703353882,-1.4005234241485596,0.019273381680250168,,,,,,,,,
1739375962.1101818,0.1232485918784405,0.988454367984938,0.22990657863423877,-1.5385655624475254,-1.4617283873659868,1.2488535143831443,0.2085800198502671,0.0010047300505793917,0.0015879720136774556,-0.0006842758441762042,0.00016083321840985022,0.00239371360587107,-0.0006828726418364564,0.002506383076927571,0.1419561207294464,-48.83359146118164,4.041243553161621,16.24457550048828,-1.0355733633041382,-1.4005234241485596,-0.027418512850999832,,,,,,,,,
1739375962.1202273,0.1232464373077633,0.9884502399639573,0.22990564436053854,-1.5385675737525732,-1.4617364601460743,1.2488527181208762,0.20857300760798606,0.0004255643201505965,-0.00018891026908147897,-0.0006072723132959746,-0.00016443230161432716,-0.000631001209120368,-0.0011299329254547412,0.00038454433086448925,0.1697271168231964,-48.78598403930664,4.092818260192871,16.26837921142578,-1.0026143789291382,-1.4206650257110596,0.012864691205322742,,,,,,,,,
1739375962.130265,0.1232448842025028,0.9884502399520522,0.22990251840900633,-1.5385667171132662,-1.461736521782414,1.2488520550327946,0.20856986706737812,-0.0004851310794143839,-0.0003021808668285087,-0.0017568045452035317,-0.0010699166911212667,-0.000594021691355322,7.314046523570605e-06,-0.0011037277639126435,0.1935308277606964,-48.78598403930664,4.092818260192871,16.29218292236328,-1.0291646718978882,-1.3877060413360596,0.03941498324275017,,,,,,,,,
1739375962.14118,0.12324464507531789,0.9884547229032243,0.22990459684333833,-1.5385636356550765,-1.461739122973156,1.2488516051627807,0.2085770899033372,0.00044100368398394964,0.0007617416382598791,-0.00047901690651701686,0.0005531500580738438,-0.0006508461676522647,-0.0014999280891713567,-0.002859842639759362,0.1935308277606964,-48.80978775024414,4.065047264099121,16.21680450439453,-1.0163472890853882,-1.4142563343048096,-0.03382720425724983,,,,,,,,,
1739375962.151191,0.12324464507396807,0.9884571381583852,0.2299035316360905,-1.5385645900499805,-1.4617336242043917,1.2488528367302656,0.2085703467747604,0.0003515244256120253,0.0015103583681037704,-0.0013379924533262171,0.00041384917120453854,0.0004024414721417359,0.0015619518691193353,-0.0007874402570885359,0.1935308277606964,-48.88516616821289,4.041243553161621,16.26837921142578,-1.0291646718978882,-1.4142563343048096,0.03941498324275017,,,,,,,,,
1739375962.1612246,0.1232436411862358,0.9884509968321554,0.2299069667965912,-1.538565827189997,-1.461733970222455,1.2488543256052858,0.20857746417483494,0.000243393183361676,8.339088921102496e-05,-0.0005086635785836181,-0.0007220201070214057,0.0004761100263898001,0.0014101785236714476,5.622929646625105e-05,0.2173345386981964,-48.80978775024414,4.065047264099121,16.24457550048828,-1.0227559804916382,-1.4069321155548096,-0.03382720425724983,,,,,,,,,
1739375962.172193,0.1232484043900998,0.9884488232680302,0.22990831580194987,-1.5385674729891563,-1.4617349123076204,1.248852362934964,0.20857118200582214,0.00010937317675098802,-0.0013551317311972348,-0.0009602888512465807,-0.0012161247170370596,0.0004282974062261057,-0.00015004651840722983,-1.943600518389732e-05,0.1697271168231964,-48.80978775024414,4.013472557067871,16.26837921142578,-1.0163472890853882,-1.4206650257110596,0.019273381680250168,,,,,,,,,
1739375962.1832008,0.12324464519352908,0.9884490835830093,0.22990637203224173,-1.5385598632624486,-1.4617335476700366,1.2488555983516134,0.20857466913761874,-0.0003314632045890057,-0.0010158783585252386,-0.0007503249386025234,0.002296001954894935,0.0017336764097516807,0.0013191278132016716,0.00021419511688927856,0.1935308277606964,-48.80978775024414,4.041243553161621,16.19300079345703,-1.0227559804916382,-1.4206650257110596,-0.0008682189509272575,,,,,,,,,
1739375962.19422,0.12324667545888596,0.9884480966981375,0.22990947877664883,-1.53855986322803,-1.4617325052294614,1.248854840907835,0.20857717829488914,0.0009258367039481855,-0.0018621138722633112,0.0020126374824051873,0.000581731008459679,0.0021909349287197307,0.0005846442820666797,0.0015266665923673413,0.1697271168231964,-48.78598403930664,4.013472557067871,16.19300079345703,-1.0355733633041382,-1.4142563343048096,-0.027418512850999832,,,,,,,,,
1739375962.2061884,0.12324643600676252,0.9884534275520636,0.2299072498813183,-1.5385672345549586,-1.461734022544145,1.248849347429157,0.208577514095824,0.0002241608388510602,0.0008011898524595076,0.000768721487004788,-0.0010435424853130083,0.0010882774380090387,-0.001441298238090206,0.0008004761239986611,0.1697271168231964,-48.83359146118164,4.041243553161621,16.26837921142578,-1.0227559804916382,-1.3941147327423096,-0.03382720425724983,,,,,,,,,
1739375962.2162762,0.12324835553688017,0.9884528028885435,0.22990455866243117,-1.5385657920184894,-1.4617340250273272,1.248850740647097,0.2085745811529722,0.0013944826568434016,1.0976381249684273e-06,0.00013914879680650363,-0.0003271287896452474,0.0004582453555617527,-0.0015490223680631374,-0.0011920601442023601,0.1419561207294464,-48.86136245727539,4.065047264099121,16.24457550048828,-1.0227559804916382,-1.4069321155548096,0.026597600430250168,,,,,,,,,
1739375962.2272604,0.12325006794723586,0.9884527083582788,0.22990950552125552,-1.5385684389902494,-1.461737279165607,1.2488538346941862,0.20857519112932535,0.0015192467359054376,0.0005044889463106872,0.0014837818464512888,-0.0012969109807628486,-0.0011794242644257587,0.0005036676849297762,0.000804861106403763,0.11815241724252701,-48.83359146118164,4.041243553161621,16.29218292236328,-1.0227559804916382,-1.3941147327423096,0.012864691205322742,,,,,,,,,
1739375962.2381783,0.12324464105903832,0.9884515113609305,0.22990632868179678,-1.5385637122188411,-1.461735650129678,1.248849981770966,0.20858006524099484,-0.0015328844828865844,0.0013106625757527291,0.000889250852124604,0.0011171182090528925,0.00019845099457565626,-0.002048876171056299,0.0019991433445200263,0.1935308277606964,-48.83359146118164,4.041243553161621,16.21680450439453,-1.0090230703353882,-1.4005234241485596,-0.027418512850999832,,,,,,,,,
1739375962.2482164,0.12324461870563541,0.9884509202946073,0.22990602631492355,-1.538567888463548,-1.4617372809314269,1.2488492805597584,0.20857432724024094,-0.0005759603763373757,-0.0011707068952935887,1.6859727849840656e-05,-0.0007316405311810571,-0.0007892429648289313,-0.00041604149528567865,0.00138622101425465,0.1935308277606964,-48.80978775024414,4.041243553161621,16.26837921142578,-1.0227559804916382,-1.3941147327423096,-0.0072769103571772575,,,,,,,,,
1739375962.2582479,0.12324677097162534,0.9884556677149486,0.22990848983701698,-1.5385675747172094,-1.461734778383349,1.2488515518530383,0.2085735637109608,-0.0006218555763196797,0.0018365044869090104,0.00035196228515756736,-0.0015727423808279718,0.0007503117506210099,-0.0012908092337466474,-0.0014483310303229468,0.1935308277606964,-48.86136245727539,4.041243553161621,16.26837921142578,-1.0163472890853882,-1.4005234241485596,-0.0008682189509272575,,,,,,,,,
1739375962.2692277,0.12324488229703194,0.9884512342615176,0.22990843032938818,-1.5385665034890923,-1.4617351081765984,1.248852116759273,0.20857939040633106,-0.0004919629588447435,-0.0007663823973635122,0.0004920874519255029,8.027049534923463e-05,-0.00035920230641776576,5.964976345637814e-05,0.0009530778932616774,0.1935308277606964,-48.80978775024414,4.013472557067871,16.24457550048828,-1.0227559804916382,-1.4142563343048096,-0.020094294100999832,,,,,,,,,
1739375962.2801461,0.12325014679408644,0.9884460939506021,0.22991198677568878,-1.538565792028266,-1.4617389025083245,1.2488492827160533,0.20857543544623727,0.0016291284735467605,-0.0011046335211975114,0.0014894798473946947,0.0004252648414404113,-6.75922813686444e-05,0.0005539193775548566,0.0005830379298022994,0.11815241724252701,-48.75821304321289,3.96586537361145,16.24457550048828,-1.0090230703353882,-1.3941147327423096,-0.013685601763427258,,,,,,,,,
1739375962.290171,0.12324867048488525,0.9884529495923832,0.22991150620618678,-1.5385651032594658,-1.4617347799283185,1.2488501050841432,0.2085769346026623,0.0010263175267273582,0.00047572422422375964,0.0018299847127704071,-0.0003016668203659047,0.00015359709501431423,-0.0008164180542813479,0.001742510869322239,0.1419561207294464,-48.83359146118164,4.013472557067871,16.24457550048828,-1.0163472890853882,-1.4005234241485596,-0.0008682189509272575,,,,,,,,,
1739375962.3002598,0.12324835554088595,0.9884498853486937,0.22990630339726284,-1.5385655080803162,-1.4617360530320016,1.2488507391935466,0.20857392081317158,0.0007621182129304081,0.00011319806087263447,0.0002691980715692305,0.00021435233040991428,-0.0008047075142632629,-0.001208107803920216,0.00022490721120776785,0.1419561207294464,-48.80978775024414,4.041243553161621,16.26837921142578,-1.0026143789291382,-1.4069321155548096,-0.0008682189509272575,,,,,,,,,
1739375962.3112147,0.123241247250234,0.9884519277689405,0.2299045586468306,-1.5385676010405844,-1.4617332628955797,1.24885461399601,0.2085719796464889,-0.0013423418831896548,0.00016459156570609548,-0.0007782628179577871,-0.00034856238713653395,0.001033011507037444,0.0013514513827066349,-0.00020886798097353299,0.2411382496356964,-48.80978775024414,4.065047264099121,16.26837921142578,-1.0291646718978882,-1.4005234241485596,0.012864691205322742,,,,,,,,,
1739375962.3222272,0.12324464917787757,0.9884519492021668,0.22990628915106062,-1.538563711919607,-1.4617389029988146,1.2488493474492188,0.20857979760849923,-2.4742422846185056e-06,0.0006091864034876019,0.0004651096014152698,0.0021796284803842266,-0.0019465232568786491,0.0013514601539666299,0.0003954270357429693,0.1935308277606964,-48.80978775024414,4.013472557067871,16.21680450439453,-1.0090230703353882,-1.3941147327423096,-0.04023589566349983,,,,,,,,,
1739375962.333171,0.12324564565035422,0.9884502408241748,0.22990562933149009,-1.5385675835315848,-1.4617347762980344,1.248851651586528,0.2085782792849526,-0.00021650718188047255,-0.0012010283526468007,-0.0002781186619033073,0.0004412592544941363,0.0008337251847453137,0.001404258154702142,0.0007048695541124761,0.1697271168231964,-48.78598403930664,4.041243553161621,16.26837921142578,-1.0163472890853882,-1.3877060413360596,-0.013685601763427258,,,,,,,,,
1739375962.3432083,0.12324679720657478,0.9884515230963947,0.22990841676139911,-1.5385654947370353,-1.4617352609417091,1.2488510475221675,0.20857351689556916,0.00026042029311979263,0.0006895519524228334,0.0014660254349983376,0.00048743760462610267,-0.0005554691355779231,-0.0009328315144347699,6.917772564461722e-05,0.1935308277606964,-48.83359146118164,4.013472557067871,16.24457550048828,-1.0163472890853882,-1.4005234241485596,0.026597600430250168,,,,,,,,,
1739375962.3541555,0.1232447475709986,0.9884495256653811,0.2299045586470201,-1.5385648732496118,-1.461737278947599,1.248852420234306,0.2085761448221857,-0.0002715525652892465,-0.00012010023747080479,-0.0006447511639537904,-0.00022924850018237884,-0.00037586475064718444,-0.000648914427019638,0.00012857675649890636,0.1935308277606964,-48.78598403930664,4.065047264099121,16.24457550048828,-1.0227559804916382,-1.3941147327423096,-0.013685601763427258,,,,,,,,,
1739375962.3642108,0.1232463614846819,0.9884481277500531,0.22990539249895248,-1.5385675718512863,-1.4617332629527295,1.248851217749238,0.20858113829048588,0.00039606115169383703,-0.002009714977098481,-0.0010610312334339762,-0.0010207974497785984,0.0009230255078028904,-0.000557682623578646,0.0011383205995873207,0.1697271168231964,-48.75821304321289,4.041243553161621,16.26837921142578,-1.0291646718978882,-1.4005234241485596,-0.027418512850999832,,,,,,,,,
1739375962.3752143,0.12324677194504867,0.9884480950199975,0.2299063794062664,-1.5385693925595711,-1.4617343823853135,1.2488528785881112,0.2085767554848021,-0.0005372206505166801,-0.001040713951157192,0.00022866503182295537,-0.002483920123939459,0.0005191081480725276,-0.0007158953992379418,0.0016956751781614752,0.1935308277606964,-48.78598403930664,4.041243553161621,16.29218292236328,-1.0227559804916382,-1.3941147327423096,-0.027418512850999832,,,,,,,,,
1739375962.3852186,0.12324848363772178,0.9884519533085888,0.22991020279712387,-1.538563631926339,-1.4617339727056122,1.2488507437755034,0.20857148493567387,0.0010821853690399642,0.000562747682621912,0.0019084123871282513,0.00042327247355545286,-0.0005691207746096254,0.000260592092982002,-0.0019024427203415844,0.1697271168231964,-48.80978775024414,3.98966908454895,16.21680450439453,-1.0227559804916382,-1.4069321155548096,0.019273381680250168,,,,,,,,,
1739375962.3952882,0.12324464521797959,0.9884556276131106,0.22990658054299093,-1.5385614160354846,-1.4617357112960983,1.2488493464541126,0.20857777324211793,0.00022899639502358597,0.0016210185517968796,-0.0005487859013113988,0.0007645806487672767,-0.00010074047944738299,-0.0007670240277304688,0.0021195861515696406,0.1935308277606964,-48.86136245727539,4.065047264099121,16.21680450439453,-1.0355733633041382,-1.3941147327423096,-0.027418512850999832,,,,,,,,,
1739375962.4062047,0.12324843427255296,0.9884556639153256,0.22990447969821065,-1.5385606396719291,-1.4617347782909842,1.248850740807202,0.20858010141547018,0.000894191743515402,-6.899330009791144e-05,-0.00036326777592970126,0.0014534205897869165,-0.00013252418414454344,-0.000586577054486672,0.0009210379687784819,0.1419561207294464,-48.86136245727539,4.065047264099121,16.21680450439453,-1.0163472890853882,-1.4069321155548096,-0.020094294100999832,,,,,,,,,
1739375962.4171422,0.12324461870610255,0.9884536659746774,0.2299063413236181,-1.5385693572559644,-1.461736401775016,1.2488524033240467,0.2085693565964265,-2.2916941087988945e-05,0.0009178311774550831,0.00045489091776629336,-0.0013950996616847139,-0.0005800897020950835,-0.00022056343620062874,-0.002718733758487895,0.1935308277606964,-48.83359146118164,4.041243553161621,16.29218292236328,-1.0026143789291382,-1.3941147327423096,0.04673920199275017,,,,,,,,,
1739375962.42724,0.12324635759425266,0.9884482033104403,0.2299045586470447,-1.5385648695770358,-1.4617356442804805,1.2488507392452985,0.20857818371092934,-0.000244524828384467,-0.0009225155954159742,-0.001220751384825329,0.00122518716354329,6.0517059150641474e-05,-0.002535390005794111,0.0005951933950265409,0.1697271168231964,-48.75821304321289,4.065047264099121,16.24457550048828,-1.0090230703353882,-1.4069321155548096,-0.0008682189509272575,,,,,,,,,
1739375962.4382544,0.1232463588907815,0.9884487917093966,0.22990530122784428,-1.538566582757035,-1.461737278944875,1.2488544040761416,0.20857407668820951,0.0007704895802739791,-0.0006324822756277817,-0.0011454329870632936,-0.0016922195029287917,-0.0006651651507289934,0.00046099131596742785,0.00021368256117352175,0.1697271168231964,-48.80978775024414,4.065047264099121,16.26837921142578,-1.0227559804916382,-1.4069321155548096,-0.0008682189509272575,,,,,,,,,
1739375962.4491704,0.12324518919000105,0.9884498076325475,0.22990883307928836,-1.5385634741022713,-1.4617347916450998,1.248854377088008,0.20857031616565166,-0.0014122857328596294,-0.0004708555327852673,0.00018186805983046774,-0.0005496930493603378,0.0009642445595463117,0.0010404041386315231,-0.002697696010832541,0.2173345386981964,-48.80978775024414,4.041243553161621,16.21680450439453,-1.0163472890853882,-1.4005234241485596,0.026597600430250168,,,,,,,,,
1739375962.4592288,0.12324364219651388,0.9884536645211263,0.22990669886280976,-1.5385671805374066,-1.4617315993035442,1.248854395230384,0.20857812443188817,-0.00129944051781831,0.0011762390255586263,-0.0011898837649173427,-0.0008233650977231143,0.0009096048798181131,0.001202677867069452,0.0007483904540934699,0.2173345386981964,-48.83359146118164,4.065047264099121,16.29218292236328,-1.0163472890853882,-1.4005234241485596,-0.027418512850999832,,,,,,,,,
1739375962.4712126,0.1232511939598011,0.9884511556365468,0.22990842550263396,-1.5385645560285068,-1.4617317477801708,1.2488539181307576,0.208582198922654,0.001401687230520557,0.0003157816736674856,0.0006868202257688975,0.00045350936638299095,0.0018490389647155179,0.00026821621879522293,0.0023493181200915777,0.1419561207294464,-48.80978775024414,4.013472557067871,16.26837921142578,-1.0419820547103882,-1.4069321155548096,-0.03382720425724983,,,,,,,,,
1739375962.4821386,0.1232504811263563,0.9884514937150111,0.22990669462483945,-1.5385637170693127,-1.4617356446115672,1.248851453248009,0.20857671550804624,0.0018279336858130716,0.0005459271261215504,-0.0012249142393729034,0.0003915482876351593,0.0008839079024981763,-0.0005675405169875826,-0.0003016225302725603,0.1419561207294464,-48.83359146118164,4.065047264099121,16.24457550048828,-1.0090230703353882,-1.4005234241485596,-0.027418512850999832,,,,,,,,,
1739375962.4931588,0.12324670754891995,0.988451166873477,0.22990490144713147,-1.538566598178279,-1.461736347126008,1.2488542351660554,0.20857358116701316,0.0006487703456101679,-0.0004669480204022688,-0.00024399414943928783,-0.0016647752459210343,-0.0009809528042558852,0.0011020222104615733,0.0005444517471889479,0.1697271168231964,-48.83359146118164,4.065047264099121,16.29218292236328,-1.0163472890853882,-1.4005234241485596,0.03941498324275017,,,,,,,,,
1739375962.5032463,0.12324624584552936,0.9884545124275508,0.22990705327423724,-1.5385672812741957,-1.4617358643733571,1.248853160679305,0.20857695536263443,0.0005417349651382347,0.001307533370937852,-0.0005397254088110796,-0.0002824472545263923,-0.0005241575134617961,0.00031050639156217027,0.0002861310539414828,0.1419561207294464,-48.88516616821289,4.041243553161621,16.29218292236328,-1.0163472890853882,-1.4005234241485596,-0.020094294100999832,,,,,,,,,
1739375962.514219,0.12324935707153173,0.9884518470379008,0.22990562217289756,-1.5385657821095462,-1.4617324521247284,1.248848981431975,0.20857676206618514,0.0001102656412937603,-0.0008753470510231997,-0.0006908736855443836,0.0007400775534466729,0.0008927931853372733,-0.0006939780356670956,-0.0007501281703097015,0.11815241724252701,-48.80978775024414,4.065047264099121,16.24457550048828,-1.0090230703353882,-1.3877060413360596,-0.0008682189509272575,,,,,,,,,
1739375962.5251808,0.12324364118222228,0.9884498063779384,0.22990696988850093,-1.5385651994547558,-1.4617347781996861,1.2488503377782112,0.2085783299987677,-0.00033037818410835973,-0.0005139396200082901,-0.000696886150532105,-2.9667933308266106e-05,0.00039542518086542493,0.002263125403487971,0.0007087061006833964,0.2173345386981964,-48.80978775024414,4.065047264099121,16.26837921142578,-1.0163472890853882,-1.3941147327423096,-0.013685601763427258,,,,,,,,,
1739375962.5362356,0.1232463614949468,0.9884534607696993,0.2299063417989446,-1.5385637117742548,-1.4617326903986958,1.248850289342492,0.20857130508472707,0.0008795843344744668,0.0008683136334467261,-0.00048160586748134703,0.001315129814696084,0.0004384974483479594,-2.9425226703767545e-05,-0.0014911359002792292,0.1697271168231964,-48.83359146118164,4.041243553161621,16.21680450439453,-1.0163472890853882,-1.3941147327423096,0.019273381680250168,,,,,,,,,
1739375962.548225,0.12324224361351149,0.9884502370082432,0.229905563949452,-1.5385637219156731,-1.461735643931558,1.2488554617782084,0.20858077750455797,-0.0012897639889425775,-0.0006953495007387616,-0.0004525401166185245,0.0005473039421583907,-0.000567156121054133,0.0005672043079097798,8.556043999079503e-05,0.2411382496356964,-48.78598403930664,4.092818260192871,16.24457550048828,-1.0090230703353882,-1.4069321155548096,-0.03382720425724983,,,,,,,,,
1739375962.5602262,0.1232425092427896,0.9884515187902466,0.22990634134192575,-1.5385653974056175,-1.4617374879040979,1.2488551509705903,0.20857584206022065,-0.0002691238467866833,-0.00034711529723255335,0.0010716449931972862,-0.00034062683358460945,-0.00024293837902600334,0.0009305070891756596,0.00015218681355405215,0.1935308277606964,-48.83359146118164,4.041243553161621,16.26837921142578,-1.0026143789291382,-1.4142563343048096,-0.020094294100999832,,,,,,,,,
1739375962.5711453,0.12325004103083505,0.9884483975188822,0.22990447954211493,-1.538567537849673,-1.461735804953213,1.248854978306941,0.20857407814282988,0.0009728281500860872,-0.0010853177381825003,-0.00023167524469049061,-0.00034029372057936406,-0.0006749079782644425,0.0008864728046823207,-0.0017134660922541111,0.11815241724252701,-48.75821304321289,4.065047264099121,16.26837921142578,-1.0090230703353882,-1.4069321155548096,-0.0008682189509272575,,,,,,,,,
1739375962.5812116,0.12324835553509458,0.9884553460267086,0.22990842111257967,-1.5385654858009654,-1.461739004999189,1.248855979054672,0.20856884240098314,0.00012682477618057323,0.0015869389707385106,0.0006840989988045537,0.00029129257509447407,-0.0011989486724430444,0.0029248203193030053,-0.001191483532189828,0.1419561207294464,-48.86136245727539,4.013472557067871,16.24457550048828,-1.0163472890853882,-1.4142563343048096,0.03941498324275017,,,,,,,,,
1739375962.5922353,0.12324464105904015,0.9884536659728829,0.2299063414325753,-1.5385645642273997,-1.4617316132328078,1.248850784276203,0.20857682707493472,-0.0005290168588135344,0.0009580707819749638,0.0009615758094059241,0.0014688654437440478,-0.0004160600855219625,-0.000144029441645403,0.0017423677567861172,0.1935308277606964,-48.83359146118164,4.041243553161621,16.26837921142578,-1.0163472890853882,-1.4069321155548096,-0.027418512850999832,,,,,,,,,
1739375962.6032915,0.12324635763067882,0.9884533467750434,0.22990635434545198,-1.5385652022372476,-1.461734060766763,1.248849985892281,0.2085713867580594,-0.0004386548503994366,3.201154838309488e-05,0.0004907509880655357,-0.0007323426519051459,0.0009999202883988988,0.0005196812377014574,-0.0015427207384383552,0.1697271168231964,-48.83359146118164,4.041243553161621,16.26837921142578,-1.0227559804916382,-1.4005234241485596,0.026597600430250168,,,,,,,,,
1739375962.6142533,0.12324635856676114,0.9884459873349496,0.22990634230074133,-1.5385637224621673,-1.4617340206130347,1.2488531735277406,0.20857585592796762,-0.00025429307829432924,-0.0017523362170730693,-5.5534776198660183e-05,-0.0003541469736649493,0.001208529904840947,0.00011883947241022447,0.0009841888370432062,0.1697271168231964,-48.75821304321289,4.041243553161621,16.24457550048828,-1.0227559804916382,-1.4005234241485596,-0.020094294100999832,,,,,,,,,
1739375962.625228,0.12324535662315766,0.9884532797170063,0.22990634132406926,-1.5385606170328174,-1.4617360047044148,1.2488516065602557,0.20856880078853612,0.0003990131885352552,0.0014212447271471581,-0.0003603129670584647,0.0018844265827671416,-0.00033580333453886354,-0.0009438732917937621,-0.0024647735296220736,0.1935308277606964,-48.86136245727539,4.041243553161621,16.21680450439453,-1.0090230703353882,-1.4142563343048096,0.03941498324275017,,,,,,,,,
1739375962.636218,0.1232457683853318,0.9884536645076683,0.22990630030669276,-1.5385657910269768,-1.4617352914008928,1.2488497122641886,0.20857682203673505,0.0006157179234878873,0.0007259361606125537,-0.0002575439065483167,-0.00045724283195449104,0.0003520633883173757,-0.0008654148116547035,0.0026340585896942755,0.2173345386981964,-48.83359146118164,4.041243553161621,16.24457550048828,-1.0090230703353882,-1.3941147327423096,-0.027418512850999832,,,,,,,,,
1739375962.6481583,0.12325048145055759,0.9884539711815425,0.22990634085361542,-1.5385648355639565,-1.461736226553367,1.2488501055704204,0.20857195916825827,0.0006451061276740544,0.00019995270682891467,0.00043963805419142913,0.000852585687550705,0.00020857374201280646,-0.00011860406529982118,-0.0016795644766710066,0.1419561207294464,-48.80978775024414,4.041243553161621,16.24457550048828,-1.0163472890853882,-1.4005234241485596,0.012864691205322742,,,,,,,,,
1739375962.6581995,0.12324635467688784,0.9884502320052712,0.2299063413240611,-1.5385668604212785,-1.4617380367786719,1.2488522719339712,0.20857360726476598,-0.00041651258849367194,-0.00110791741213917,0.0011274625419016944,-0.0013490129052647726,-0.0014808442367010277,0.0016436874272247617,-0.001429158715986639,0.1697271168231964,-48.78598403930664,4.041243553161621,16.26837921142578,-1.0163472890853882,-1.4069321155548096,-0.0008682189509272575,,,,,,,,,
1739375962.6692066,0.12324445797257794,0.9884494603608527,0.22990455571723248,-1.5385667810238095,-1.4617351081949927,1.248849981540028,0.2085751390986936,-0.0006802804582628056,-0.001216648249771912,-0.00030014186109646694,0.0005152067077868891,0.00046732253438792843,0.0005375187906652714,-0.0003002237847766284,0.1697271168231964,-48.80978775024414,4.065047264099121,16.26837921142578,-1.0227559804916382,-1.4005234241485596,0.012864691205322742,,,,,,,,,
1739375962.6792138,0.12324706619552793,0.9884502394737829,0.2299088228749599,-1.5385627988601422,-1.4617332629159674,1.248851394382215,0.20857841607135916,0.001026116358337869,-0.00030607101419156306,0.0008447967712682743,0.001126325687502246,0.0003907033821975142,-0.0010966253917226525,0.0017105160307138974,0.1697271168231964,-48.78598403930664,4.041243553161621,16.24457550048828,-1.0291646718978882,-1.4005234241485596,-0.04023589566349983,,,,,,,,,
1739375962.6892254,0.12324293256523702,0.9884536659746527,0.2299065757510662,-1.538564716607408,-1.4617347782177053,1.2488527560223222,0.20857721987680153,-0.0007132703572663101,0.0006971765270883558,-2.5650737247607147e-05,-0.0001240237301408105,0.00010788381556859744,-0.000498685763036869,0.0015462780095316594,0.2173345386981964,-48.83359146118164,4.041243553161621,16.26837921142578,-1.0163472890853882,-1.3941147327423096,-0.027418512850999832,,,,,,,,,
1739375962.7011983,0.12324832084583547,0.9884577316816022,0.2299105572738818,-1.538564585803599,-1.4617349889241764,1.2488500343636404,0.2085732325903828,0.0007026611237968826,0.0016148358510858108,0.0001998716137689194,-0.00014123967550298827,0.0009121079056139654,-0.00076633536689488,-0.0003994073622676248,0.1419561207294464,-48.86136245727539,4.013472557067871,16.26837921142578,-1.0026143789291382,-1.4005234241485596,0.03300629183650017,,,,,,,,,
1739375962.713194,0.12324643633163382,0.9884518435813271,0.22990458503143105,-1.5385626829016494,-1.461734066741527,1.2488530179934603,0.208579738577295,0.00025930365780209004,-0.0005090433213638752,-0.0008623772712857442,0.0011072967522552913,-0.0001666840775238961,-0.0003862024592673336,0.0008321528540743688,0.1697271168231964,-48.80978775024414,4.065047264099121,16.21680450439453,-1.0227559804916382,-1.4142563343048096,-0.013685601763427258,,,,,,,,,
1739375962.7251666,0.1232483584518856,0.9884502286747346,0.22990533937879165,-1.538563601689961,-1.4617363512378978,1.2488539202080735,0.20857691569096037,0.0009579139462243152,-0.0003114613608676408,-0.0018444945836357876,0.00047956594552360206,0.00018334037304589608,0.0007100186857150016,0.0004411942121428337,0.1419561207294464,-48.78598403930664,4.092818260192871,16.21680450439453,-1.0291646718978882,-1.4069321155548096,-0.020094294100999832,,,,,,,,,
1739375962.7361305,0.12324635759471567,0.9884501256666113,0.2299070470503667,-1.5385634813857652,-1.4617355913200454,1.2488502835273838,0.2085723674504366,1.5486019111143786e-05,-0.0011243319949636142,0.0004007275012719499,0.0003475027816853886,0.0004927705271059338,-0.0019888976984112432,-0.0003954667935503925,0.1697271168231964,-48.78598403930664,4.065047264099121,16.21680450439453,-1.0090230703353882,-1.3941147327423096,0.019273381680250168,,,,,,,,,
1739375962.7461994,0.12324635770270606,0.9884534275554476,0.2299045854996185,-1.5385637109733474,-1.4617357840026999,1.2488553314471798,0.20856830933242762,-0.0007908681561115058,-0.0009235048162616127,0.0005732388202144799,0.0006812043897799527,-0.001007490194811622,-0.00014714589400012553,-0.0015194401411544106,0.1697271168231964,-48.83359146118164,4.065047264099121,16.21680450439453,-1.0090230703353882,-1.4069321155548096,0.04673920199275017,,,,,,,,,
1739375962.757199,0.1232467709729656,0.9884545980260879,0.22990248287226858,-1.5385667201887523,-1.4617364017758052,1.2488508963623097,0.20857122171575748,-0.0005606143867426057,7.133051240724672e-05,-0.001527643568850824,0.0002454422067287694,-0.0014836123360370203,-0.0006657954196983029,-0.0009928456237054861,0.1935308277606964,-48.83359146118164,4.092818260192871,16.24457550048828,-1.0026143789291382,-1.4069321155548096,0.019273381680250168,,,,,,,,,
1739375962.7672524,0.12324464518197487,0.9884490924783501,0.22990283466680986,-1.5385663727780459,-1.461733624940576,1.2488553706950398,0.2085754910083187,-0.0015767906213364615,-0.0013834969316084723,8.186414804712086e-05,-0.0008949934259488517,-0.00018672186425669685,-0.0009285850042454511,0.0005052859297112702,0.1935308277606964,-48.80978775024414,4.092818260192871,16.29218292236328,-1.0291646718978882,-1.4069321155548096,-0.013685601763427258,,,,,,,,,
1739375962.7781954,0.12324464896221553,0.9884501575196194,0.22990645074189883,-1.5385636828235298,-1.46173477827493,1.2488531032779897,0.20857583625993803,0.00041658189350025226,-0.0007154402207636579,-0.0008756900125744668,0.00017091007352774043,0.001279227600999569,0.0006344882946631618,-0.0002821401093156977,0.1935308277606964,-48.78598403930664,4.041243553161621,16.21680450439453,-1.0163472890853882,-1.3877060413360596,-0.020094294100999832,,,,,,,,,
1739375962.7881987,0.12324636180703254,0.9884545930476116,0.22990473296975078,-1.538568362180388,-1.461734778217706,1.248853179904963,0.20857123466067246,-0.0002680547023412173,0.0011575307622251484,-0.0014043610898306733,-0.00040484257634654523,0.001051449619558871,-0.000496575199715527,-0.0017676515316992884,0.1697271168231964,-48.83359146118164,4.092818260192871,16.29218292236328,-1.0163472890853882,-1.4005234241485596,0.019273381680250168,,,,,,,,,
1739375962.7991273,0.12324293590145735,0.9884536571461041,0.22990853827447888,-1.5385668764865355,-1.4617347775900764,1.2488531619053325,0.20857508446611725,-0.0006514957119091612,0.000637407139986795,0.0008072841199504736,-4.5949203955353525e-05,-0.00042077413871891055,-0.001387287119455806,-0.0010645925236590491,0.2173345386981964,-48.83359146118164,4.013472557067871,16.26837921142578,-1.0163472890853882,-1.4005234241485596,-0.013685601763427258,,,,,,,,,
1739375962.8092272,0.12324846051827547,0.9884502379896263,0.22990634132604787,-1.5385609458257417,-1.4617340191040658,1.2488513987967256,0.20857038043425494,0.0014555032535847647,-0.0008019619668960465,0.00045367005066188087,0.0012747720681472248,0.000900712096623899,-0.0007560616519284393,-0.0009578409213914978,0.1419561207294464,-48.78598403930664,4.041243553161621,16.21680450439453,-1.0227559804916382,-1.4005234241485596,0.03941498324275017,,,,,,,,,
1739375962.820262,0.12324635773930098,0.9884523116427094,0.22990479465969532,-1.538561586576578,-1.4617340207783425,1.2488531606691051,0.20857717670753811,0.00042367702081562214,-0.0004683698645125365,-0.001009295989675539,0.001181046554590489,0.0005860147608480475,0.000123097706557951,0.0014861799708440115,0.1697271168231964,-48.78598403930664,4.065047264099121,16.19300079345703,-1.0227559804916382,-1.4005234241485596,-0.027418512850999832,,,,,,,,,
1739375962.8312156,0.12324635748618845,0.9884502154525939,0.22990767010894889,-1.5385633802900336,-1.461732545464474,1.2488503353003837,0.20857436183962855,0.00022266839807375243,-0.0001780432054732176,0.0007197005745167082,0.001143734752980994,-0.00017222157915099828,-0.0008933055096037454,-0.0009205322128090944,0.1697271168231964,-48.78598403930664,4.065047264099121,16.21680450439453,-1.0355733633041382,-1.4005234241485596,-0.0072769103571772575,,,,,,,,,
1739375962.8421605,0.1232476768608058,0.9884502409327836,0.22990918926274076,-1.5385636101895455,-1.4617332628982296,1.248849380860715,0.20858346748571333,-0.00027862619517469983,-0.0005315847988538886,0.0014230094844134111,0.0004227521282551234,-0.00010244998327418745,-0.00012795706330733913,0.0019468058207528925,0.1935308277606964,-48.78598403930664,4.041243553161621,16.21680450439453,-1.0291646718978882,-1.3941147327423096,-0.04756011441349983,,,,,,,,,
1739375962.8531334,0.1232436412039414,0.988451950510507,0.22990705338230236,-1.5385668830902053,-1.4617380366049526,1.2488500227873751,0.2085774426274415,0.00020153873958690313,-0.00025182443082080844,1.1818642982313837e-05,0.00026024135931578755,-0.0012803067773876297,-0.001217011904875933,-2.0719679362272915e-05,0.2173345386981964,-48.80978775024414,4.041243553161621,16.26837921142578,-1.0163472890853882,-1.4005234241485596,0.0064559997990727425,,,,,,,,,
1739375962.8631346,0.12324464519397593,0.9884508049516784,0.22990701221406584,-1.5385636989486349,-1.4617332627912236,1.2488539617130483,0.2085782194513691,-0.001080585107375606,-0.00036139186800531196,0.00045702180888465343,0.0009619378691157888,0.0003907055698345816,0.0004352741923923556,0.0015187262814909735,0.1935308277606964,-48.83359146118164,4.065047264099121,16.24457550048828,-1.0291646718978882,-1.4069321155548096,-0.04023589566349983,,,,,,,,,
1739375962.8732197,0.12324465371401402,0.9884502408847634,0.22990666657477096,-1.5385651002846177,-1.4617347782177033,1.2488523671639893,0.20857349753453727,-0.0007392809023868958,-0.0011684892644116414,0.0006375035504583807,0.00043345344035935514,0.0004989687561819974,-0.0006184805600822384,-0.0009514257561261113,0.1935308277606964,-48.78598403930664,4.041243553161621,16.24457550048828,-1.0163472890853882,-1.4206650257110596,0.012864691205322742,,,,,,,,,
1739375962.8842041,0.12324835553560103,0.9884480961289799,0.22990456841492146,-1.5385652702764885,-1.4617340205576266,1.2488534682380408,0.2085778757449175,0.0008883880102716102,-0.0016494292224560395,-0.0013562317447952308,-7.063098937518049e-05,0.0011372084894355487,0.000925874871570552,0.0007450684776134843,0.1419561207294464,-48.78598403930664,4.065047264099121,16.26837921142578,-1.0227559804916382,-1.3941147327423096,-0.0072769103571772575,,,,,,,,,
1739375962.8951674,0.1232463588907815,0.9884519181205679,0.22990634179433567,-1.538563415680005,-1.4617347784384294,1.2488492284712487,0.2085706778870227,0.0008483149268530648,-0.0007032214002406675,0.0002841494019469278,0.0008187385044850576,0.0005909968993151804,0.00020830809759575958,-0.0015844108523569438,0.1697271168231964,-48.80978775024414,4.041243553161621,16.24457550048828,-1.0163472890853882,-1.3941147327423096,0.026597600430250168,,,,,,,,,
1739375962.9061854,0.12324635661811709,0.9884480951654048,0.22990479596184205,-1.5385637108294283,-1.4617340205576301,1.2488561968539915,0.20858248832096413,-0.00016746382105553348,-0.0004503624113971514,0.00012461421512905367,0.0010969487467776579,0.00040961405210654725,0.0011280381298541082,0.0009036014306667891,0.1697271168231964,-48.78598403930664,4.065047264099121,16.21680450439453,-1.0227559804916382,-1.4142563343048096,-0.04023589566349983,,,,,,,,,
1739375962.9161968,0.12324456694109442,0.9884536391082237,0.22990842111525897,-1.5385672314211445,-1.4617351402607326,1.2488492633584156,0.20857084777340387,-0.0008522698276106659,0.000602421080428447,0.00038420261707748193,-0.00010240873141186698,9.771454190634921e-05,-0.0008816694204601414,-0.0007601198337147389,0.1935308277606964,-48.83359146118164,4.013472557067871,16.26837921142578,-1.0163472890853882,-1.3941147327423096,0.026597600430250168,,,,,,,,,
1739375962.9272232,0.12324464500101767,0.9884535142235812,0.22990247491460233,-1.5385616370149207,-1.4617347916287498,1.2488514137631077,0.20857588154812223,-0.0008962124544315959,0.0007004526750796091,-0.0010311890297254266,0.0005831206893258189,-0.0004977848783267287,0.00032709287411149235,-0.00015266548263718569,0.1935308277606964,-48.86136245727539,4.092818260192871,16.21680450439453,-1.0163472890853882,-1.4005234241485596,-0.020094294100999832,,,,,,,,,
1739375962.9382129,0.12324835557155413,0.9884570320417346,0.22990349365508045,-1.5385648183706742,-1.461734020557702,1.24884999655948,0.20857786792047764,0.0012188637351035708,0.0021166595130299006,-0.001327420631675685,-0.0010496050302073031,0.0002704583097215787,-0.00032054153372632055,0.0005854229759256009,0.1419561207294464,-48.88516616821289,4.041243553161621,16.26837921142578,-1.0227559804916382,-1.4005234241485596,-0.0008682189509272575,,,,,,,,,
1739375962.9491434,0.12324465382252375,0.9884497630766276,0.2299053261845403,-1.5385663713506084,-1.4617340212749805,1.248850896820988,0.20857559634031667,-0.0004915354101310413,-0.0011097272056865327,-0.0012105144593977718,-0.0007307860254222566,-0.0005501912200165691,0.00018781849981365747,-0.0006355245410591475,0.1935308277606964,-48.78598403930664,4.092818260192871,16.29218292236328,-1.0227559804916382,-1.4069321155548096,-0.013685601763427258,,,,,,,,,
1739375962.960189,0.12324422305772643,0.9884519533058937,0.22990248212860928,-1.5385665769675236,-1.4617348333436022,1.2488547861573722,0.20857682496492788,-0.0009589133006101111,0.000749499701445953,-0.0013119036004786149,6.967651245053077e-05,-0.00022337230432010972,0.0007272068056861304,0.0006652243133596504,0.1697271168231964,-48.80978775024414,4.092818260192871,16.26837921142578,-1.0163472890853882,-1.4142563343048096,-0.027418512850999832,770,746,745,38.242,0,0
1739375962.971137,0.12324848334903604,0.9884534828270451,0.22990487799663148,-1.538566652552096,-1.4617332628984818,1.2488501009378732,0.20857003721975256,0.00033800916344954747,0.0007519616126452759,-0.00037433760835436404,-0.0007377591111043425,-5.474364200183853e-05,-0.00019554750032387092,-0.0009114021698007181,0.1697271168231964,-48.86136245727539,4.065047264099121,16.26837921142578,-1.0291646718978882,-1.4005234241485596,0.03300629183650017,768,747,744,38.133,0,0
1739375962.9812143,0.12324753202265618,0.9884536538252205,0.2299055652533926,-1.5385636743319036,-1.4617343249845878,1.2488542389807205,0.2085743608645621,0.0003995756753933777,-0.00023311052281290145,5.6669018976675885e-05,-0.00012121451404010315,0.0006594902435725435,0.0010184668928662132,-0.0013814301058267249,0.1935308277606964,-48.83359146118164,4.092818260192871,16.21680450439453,-1.0163472890853882,-1.4005234241485596,-0.0072769103571772575,769,743,744,38.025,0,0
1739375962.9921792,0.12324835565985602,0.9884556599908763,0.22990634137765706,-1.5385693277741006,-1.461734020555068,1.2488532971573554,0.2085767080056075,0.0012988858382283054,0.0004203930938618166,5.377814929339924e-06,-0.0012402901230100381,0.0008840733886267084,0.0002013137115790601,-0.00054250279876297,0.1419561207294464,-48.86136245727539,4.041243553161621,16.29218292236328,-1.0227559804916382,-1.4005234241485596,-0.027418512850999832,769,744,745,38.133,1,0
1739375963.0022807,0.12324464507397012,0.9884472889909303,0.2299045586470456,-1.5385666181355009,-1.4617364077345716,1.2488549148787471,0.208575184440228,-0.0002223339939981362,-0.0009517861355550467,0.00012818063936706164,0.0004281070171442693,0.00029889386977748143,-0.0006010226220371823,-0.00019191400634063261,0.1935308277606964,-48.75821304321289,4.065047264099121,16.26837921142578,-1.0026143789291382,-1.4142563343048096,0.012864691205322742,769,745,744,38.133,1,0
1739375963.0131934,0.12324816837005931,0.988453665969292,0.22990634262620252,-1.5385647618635647,-1.4617347651909676,1.2488539202240987,0.20857779633833953,0.0010875591143999842,0.001051775668397113,0.0007972262949433437,0.0006480102777240629,-0.0005428158334530856,-0.0012358320887614063,0.0021910244478630233,0.1697271168231964,-48.83359146118164,4.041243553161621,16.24457550048828,-1.0163472890853882,-1.4069321155548096,0.012864691205322742,769,746,744,38.133,0,0
1739375963.0232086,0.12324464510463365,0.9884499200983369,0.22990879487904817,-1.538563403159865,-1.4617325052372492,1.248851657631872,0.20857932704057136,0.0001402358689476816,-0.0006518620197115099,0.0008425612892179366,0.0015134324983009785,-0.000548698357544076,0.00027875995722160337,0.0002353594809592396,0.1935308277606964,-48.78598403930664,4.041243553161621,16.21680450439453,-1.0355733633041382,-1.4142563343048096,-0.027418512850999832,768,744,745,38.242,1,0
1739375963.0332177,0.12324835553555277,0.9884519533394966,0.2299063414741265,-1.538569323359978,-1.4617356441149374,1.2488510805777573,0.20857119976440164,0.000618085953861951,0.0006201339539633084,0.0005773917471195665,-0.0010322100028118144,-0.0004470954111037401,-0.0006815495772061666,-0.0008358725432126935,0.1419561207294464,-48.80978775024414,4.041243553161621,16.29218292236328,-1.0090230703353882,-1.4005234241485596,0.019273381680250168,770,745,745,38.025,0,0
1739375963.043275,0.12324635899878836,0.9884516355625056,0.22990565997995904,-1.5385634167772166,-1.4617356441149374,1.248850752292019,0.2085703979860746,-0.000456380599947287,0.000550518869212327,-0.0005764349776716919,0.000758340243174142,-0.00010179013214123192,-0.0004349146313946035,-0.001914605906360306,0.1697271168231964,-48.80978775024414,4.041243553161621,16.24457550048828,-1.0090230703353882,-1.4069321155548096,0.03941498324275017,768,745,744,38.025,1,0
1739375963.0541778,0.12324245681987625,0.988450810636949,0.2299045683730687,-1.5385691245222806,-1.4617340205576266,1.2488533319647668,0.20857671527340102,-0.00041500825267123194,0.0009487442658829748,-0.0006150450661937384,-0.001777281194897019,0.0008631588118490504,-0.00015870626295643115,2.764498657720064e-05,0.2173345386981964,-48.83359146118164,4.065047264099121,16.29218292236328,-1.0227559804916382,-1.4005234241485596,-0.027418512850999832,769,744,745,38.133,1,0
1739375963.0641813,0.12324906804874157,0.9884473755012597,0.22990428069186583,-1.5385675652492488,-1.4617380366049526,1.248851092460904,0.20857635462648805,0.0016580552866286556,-0.0015186719144236341,-0.0008021582098758993,-0.0011633544509519927,-0.0016677177006676441,-0.0007062880164815251,0.0006513203662254454,0.1419561207294464,-48.78598403930664,4.092818260192871,16.26837921142578,-1.0163472890853882,-1.4069321155548096,-0.020094294100999832,770,744,745,38.133,1,0
1739375963.0742073,0.12324847373972195,0.988449463255816,0.2299045586775589,-1.5385635979125072,-1.4617364018301966,1.248851093863697,0.2085788996523643,-0.00018068921207207007,-0.001916807338238773,-0.0009997793688407604,0.0008761722913774197,-0.0014736951748180204,0.0003172171778852704,0.0021348237882575128,0.1697271168231964,-48.80978775024414,4.065047264099121,16.21680450439453,-1.0026143789291382,-1.4069321155548096,-0.03382720425724983,770,747,744,38.133,1,0
1739375963.086228,0.12324440809514489,0.9884535179889063,0.22990563328611205,-1.5385690512599608,-1.4617329609194973,1.2488499875629195,0.20857580686560667,-0.0009109221368980263,0.0015294212597792866,0.0006455976056550976,-0.0010400947371235962,0.0005635275728977007,-0.0010973658951703436,-0.0009529789342623393,0.1935308277606964,-48.86136245727539,4.041243553161621,16.29218292236328,-1.0227559804916382,-1.4005234241485596,0.019273381680250168,770,745,744,38.133,1,0
1739375963.0962484,0.12324464518063712,0.9884517148778983,0.22990631603687256,-1.5385648083027124,-1.4617340205516447,1.248850739352994,0.2085771776998184,-0.0011521340564805249,0.0005775401767652681,-9.490577368795428e-05,0.00010556393075102603,-0.0008584533245227801,-0.001564975716104226,-0.0003501787761415636,0.1935308277606964,-48.80978775024414,4.041243553161621,16.26837921142578,-1.0227559804916382,-1.4069321155548096,-0.027418512850999832,769,745,744,38.133,1,0
1739375963.1071663,0.12324636637925764,0.9884547062789429,0.22990768327354355,-1.5385675660774047,-1.461734778217705,1.2488547840030755,0.20857584254420747,0.00042659398013531987,-6.20434293338016e-05,-0.0008463524576637796,-0.0005582722187354364,-0.0003931730962725363,-0.0004977715752201609,0.0011471531164060449,0.1697271168231964,-48.86136245727539,4.065047264099121,16.26837921142578,-1.0163472890853882,-1.4142563343048096,-0.020094294100999832,768,744,745,38.133,1,0
1739375963.117199,0.12324295890705907,0.9884504870440717,0.22991166207342925,-1.5385644880144977,-1.4617372117968277,1.2488486423061396,0.20857819733821942,-0.0018161479055595043,2.897964880186245e-05,0.0023885689219988494,-4.047132240100887e-05,-0.0025315612036689444,-0.0007095425109486293,0.002190484121471271,0.2173345386981964,-48.83359146118164,4.041243553161621,16.26837921142578,-1.0355733633041382,-1.3877060413360596,-0.0008682189509272575,770,744,745,38.133,1,0
1739375963.1281939,0.12324835683178333,0.9884519533996624,0.22990490584174264,-1.53856550702477,-1.4617340162235444,1.2488516463274395,0.20857983072448485,0.0008466140017539855,0.0009552630518943933,-0.0004213997715415283,-0.0009228047809184494,0.0011549777197714392,-0.001806797275186739,-4.941360527163496e-05,0.1419561207294464,-48.80978775024414,4.065047264099121,16.26837921142578,-1.0227559804916382,-1.4142563343048096,-0.013685601763427258,769,745,744,38.133,1,0
1739375963.1391237,0.12324635759470652,0.9884547062802894,0.22990455864900464,-1.538564810672284,-1.461733262897524,1.2488512543944963,0.20857529708984418,0.0005155186957013944,0.0009469150860436348,-0.000578308557468185,-0.00033553352607555893,0.0001803095320257123,0.0003678567967111315,-0.0006368907640530807,0.1697271168231964,-48.86136245727539,4.065047264099121,16.26837921142578,-1.0291646718978882,-1.4069321155548096,0.012864691205322742,768,745,743,38.133,1,0
1739375963.1491992,0.12324635953428031,0.9884508049355105,0.2299025843304289,-1.5385655069953852,-1.461734778217705,1.2488539202141398,0.20858112955347702,-5.841931709304416e-05,-4.461241028250804e-05,-0.001585146987822726,-0.0003117175023875989,-0.0014976574892636,0.0003939488283082683,0.0016391265270056256,0.1697271168231964,-48.83359146118164,4.092818260192871,16.26837921142578,-1.0163472890853882,-1.4069321155548096,-0.027418512850999832,770,743,738,38.025,2,0
1739375963.1601846,0.12324635759471014,0.9884525405085706,0.22990424372379556,-1.5385633711471567,-1.4617360997969646,1.248851095453338,0.20856846216899375,-0.0001467706869699345,-0.00017313672851811322,-8.030481103881516e-05,0.0009953712210300776,-0.0006906210407875268,0.0006497791756862658,-0.002979790380410268,0.1697271168231964,-48.80978775024414,4.041243553161621,16.21680450439453,-0.9962056875228882,-1.4005234241485596,0.04673920199275017,768,747,744,38.133,2,0
1739375963.1702077,0.12324635726916451,0.9884502396349616,0.22990642321477114,-1.5385675718610694,-1.4617356440969922,1.2488516495051223,0.20858007787102995,9.259469145798304e-05,-0.00038483398320518774,-0.00011807735549379978,-0.0010493037570777838,0.0009965344141723168,-0.0013353446348093423,0.0007186671246055194,0.1697271168231964,-48.78598403930664,4.041243553161621,16.26837921142578,-1.0090230703353882,-1.3877060413360596,-0.027418512850999832,766,743,745,38.133,1,0
1739375963.1811929,0.1232446333547173,0.9884519524727925,0.2299064214060599,-1.5385636740221573,-1.4617356454433206,1.248853175785821,0.20858492291037206,-0.0004400139518158663,-0.000306131192729194,0.00041502979552289173,3.6683994459517366e-05,0.00011896797040175566,9.354875680529318e-05,0.0025882590828386156,0.1935308277606964,-48.80978775024414,4.041243553161621,16.21680450439453,-1.0090230703353882,-1.3877060413360596,-0.06037749722599983,768,745,744,38.133,0,0
1739375963.193192,0.12324558991790051,0.9884501662025574,0.22990679999001143,-1.5385657114004472,-1.4617315993033244,1.248853278371425,0.2085814996218396,0.00017791608432335274,-0.0002196538861969924,0.0005383718846882217,0.0013755069866619551,0.00035306462959171865,0.0007583420626255889,0.002443640183831603,0.1935308277606964,-48.78598403930664,4.065047264099121,16.24457550048828,-1.0163472890853882,-1.4005234241485596,-0.027418512850999832,768,746,744,38.025,1,0
1739375963.2041361,0.12324835553733014,0.9884519524363206,0.2299045557335068,-1.5385655083951004,-1.4617347782117232,1.2488517671029349,0.2085747427183331,0.0007269941808379541,-0.0013649835785618214,-5.713415069081966e-05,-0.0004200394213530524,-0.00033864963365828497,0.0008053302035075152,0.00015323825056476662,0.1419561207294464,-48.80978775024414,4.065047264099121,16.26837921142578,-1.0163472890853882,-1.4142563343048096,0.019273381680250168,767,745,744,38.133,1,0
1739375963.2151918,0.12324564608235851,0.9884501261390671,0.22990735599556106,-1.5385634826111396,-1.4617346212342783,1.2488542719673181,0.20858011950888872,-0.0005571202887868698,-0.0010966667918844257,0.001354413115691825,0.0008229307018193909,-1.9183654677298473e-05,0.0005957246303338925,0.0013386378264199983,0.1697271168231964,-48.78598403930664,3.98966908454895,16.21680450439453,-1.0163472890853882,-1.4069321155548096,-0.020094294100999832,768,744,745,38.133,2,0
1739375963.2252264,0.1232463575906827,0.9884536627035413,0.22990527024980237,-1.5385668849903809,-1.4617341410224087,1.2488516588899883,0.20857511357534778,-0.0008084654646720779,0.0008447191802212464,-0.0009233662513567256,-0.0007260164241141097,0.0009273874992759135,-0.0020981905500605425,0.0003827822361399979,0.1697271168231964,-48.83359146118164,4.065047264099121,16.26837921142578,-1.0227559804916382,-1.4142563343048096,0.026597600430250168,767,745,744,38.242,2,0
1739375963.2362485,0.12324919309875688,0.9884534938904603,0.22990645819503466,-1.538564475413315,-1.4617356441156173,1.2488553703643472,0.20857936316977274,0.0007527658223261236,0.0015598869623574658,0.0005311347099044234,0.0006732437011600947,-7.262158135930101e-05,0.0006362353563039746,0.00011729152583919527,0.1697271168231964,-48.83359146118164,4.041243553161621,16.26837921142578,-1.0090230703353882,-1.4069321155548096,-0.013685601763427258,769,746,744,38.133,1,0
1739375963.2471354,0.12324827644662896,0.9884510995285442,0.22990634132472348,-1.5385657794093188,-1.461734739468478,1.248852442542202,0.20857412504425887,0.0013215860973431809,-0.0006140816831261619,0.0010843832686434412,0.00043718304355951445,0.0005467958827522859,-0.0006375888126432912,-0.0007251665947280063,0.1419561207294464,-48.80978775024414,4.041243553161621,16.24457550048828,-1.0163472890853882,-1.3941147327423096,0.0064559997990727425,768,744,744,38.133,1,0
1739375963.258226,0.12324635339830406,0.9884499230369558,0.22990919054835718,-1.538566545770663,-1.4617368845540146,1.2488523134583753,0.2085751140467729,0.00017219086025442186,-0.0006244761430584759,0.00114430967420711,-0.0005986176287033408,-0.0013352206287419888,0.0006998851472208203,-0.0009136929042999114,0.1697271168231964,-48.78598403930664,4.041243553161621,16.26837921142578,-1.0026143789291382,-1.4069321155548096,0.026597600430250168,769,745,745,38.242,1,0
1739375963.2692113,0.12324464507394432,0.9884509997778353,0.22990455963973272,-1.5385628064262362,-1.4617356441176628,1.248852666189253,0.20857493659942575,-0.0006838222857022051,-0.00018695037616975387,-0.0006427414776062861,0.0012870350970046887,-0.0005444824200312225,0.00025129941517277064,-0.001302217451873139,0.1935308277606964,-48.80978775024414,4.065047264099121,16.24457550048828,-1.0090230703353882,-1.4142563343048096,0.026597600430250168,768,746,745,38.133,1,0
1739375963.2801974,0.1232465962878378,0.9884556634633148,0.2299095343853482,-1.5385672426033041,-1.4617344250049953,1.2488536194252113,0.20858134165693273,0.001218114466791396,0.0010585716431709901,-1.491137667420472e-05,-0.00014661500908489265,0.0013048486959296379,0.0012164091700697748,0.0011462068214155054,0.1697271168231964,-48.86136245727539,4.041243553161621,16.26837921142578,-1.0163472890853882,-1.3941147327423096,-0.027418512850999832,766,744,744,38.133,1,0
1739375963.2902057,0.12324635759604663,0.9884508620170632,0.22990764375733158,-1.5385641601076891,-1.461732921885955,1.2488510411943181,0.2085781245122493,-0.0005248471893937537,-0.0007862941611186918,8.685267128860272e-05,0.0008164373835936815,0.0007512400179022334,-0.0016583097321432067,0.000791096029754236,0.1697271168231964,-48.78598403930664,4.065047264099121,16.21680450439453,-0.9962056875228882,-1.4005234241485596,-0.027418512850999832,769,745,747,38.133,1,0
1739375963.3012128,0.12324919212669519,0.9884547232337847,0.22990752508124224,-1.5385657664119927,-1.4617347774939262,1.248855389104673,0.208570316604156,0.0010407041373336086,8.296642639382006e-05,0.0009085323474724509,-0.0001872287781889765,0.0007735823661995624,0.0015629621147725322,-0.001743590129526162,0.1697271168231964,-48.80978775024414,4.065047264099121,16.24457550048828,-1.0163472890853882,-1.4069321155548096,0.026597600430250168,768,746,745,38.133,1,0
1739375963.3122213,0.1232446451259713,0.9884480686906855,0.22990842149237015,-1.5385672822655863,-1.4617355894107416,1.2488508962011298,0.20857353263774414,-0.001186548993389879,-7.519784754111047e-05,0.0001552999969427371,-0.0014638504026565644,-0.0019309431667579053,-0.00016239581884573925,-0.0027617290968405817,0.1935308277606964,-48.78598403930664,4.013472557067871,16.29218292236328,-1.0227559804916382,-1.4069321155548096,0.012864691205322742,769,745,744,38.133,1,0
1739375963.3222334,0.1232467486009097,0.9884519534171592,0.22990634164960486,-1.5385636232823534,-1.461732505454121,1.2488532786705095,0.20857425717173828,-0.00015082236961356165,0.0002722135747012702,0.0005592784594525966,0.001196244096894468,-0.00033223361030960193,-0.00016439077548271818,0.00017873857792671425,0.1935308277606964,-48.80978775024414,4.041243553161621,16.21680450439453,-1.0090230703353882,-1.4005234241485596,0.0064559997990727425,770,745,745,38.133,1,0
1739375963.3341215,0.12324835558342902,0.9884519138810407,0.22990850659997425,-1.5385651924207413,-1.4617371728263773,1.248852409156851,0.20857277699093008,0.0009889309545548573,0.0006874754445230255,0.0009772666926119947,0.0007451423377668222,-0.0012618956269565343,-0.00037601729178331184,-0.0010044841324919926,0.1419561207294464,-48.80978775024414,4.041243553161621,16.26837921142578,-0.9962056875228882,-1.3941147327423096,0.019273381680250168,770,746,742,38.025,1,0
1739375963.3441648,0.1232463605108852,0.988448943584741,0.2299083947822785,-1.538564412601061,-1.4617356439536584,1.2488554925162072,0.20857616238274762,4.357037641938926e-05,-0.0018061918965435715,0.0008331893288440028,0.0013586227150213437,-0.0012381886218739446,0.0021522919595625073,0.00048654479449627394,0.1697271168231964,-48.75821304321289,4.013472557067871,16.24457550048828,-1.0090230703353882,-1.4069321155548096,-0.013685601763427258,770,745,745,38.133,0,0
1739375963.3542051,0.12324488128498413,0.9884551221937422,0.22990059114082798,-1.538566405232973,-1.4617371594350932,1.2488521541686985,0.20858083411983383,0.0007480348692361506,-0.00016033787049087565,-0.001777572538667403,0.0009711612525694676,-0.00024703311042167096,0.0009790346728033427,0.000722257641105621,0.1935308277606964,-48.88516616821289,4.116621971130371,16.24457550048828,-0.9962056875228882,-1.4069321155548096,-0.03382720425724983,770,745,745,38.242,1,0
1739375963.364227,0.12324454252091371,0.9884515201692897,0.22990396817439104,-1.538567574291739,-1.4617340205576266,1.2488519747331261,0.20857382419917872,-0.00013217168887438098,-0.0006212383622463989,-0.0002435026469028523,-0.0011569690496276122,-0.0017520941885173194,0.0013093129939466667,-0.00031315283653079735,0.1935308277606964,-48.83359146118164,4.041243553161621,16.26837921142578,-1.0227559804916382,-1.4069321155548096,0.03300629183650017,771,749,744,38.133,1,0
1739375963.3751845,0.1232445659684593,0.9884490124736204,0.22990770915615466,-1.5385646249202323,-1.4617332673672152,1.2488522048615935,0.20857079511851714,-0.0010784233736769332,-0.0006236323242615861,0.002086127753774215,0.00026001053218246425,0.0001894574558148875,0.002046285525082535,-0.0033035358976291128,0.1935308277606964,-48.80978775024414,4.013472557067871,16.26837921142578,-1.0291646718978882,-1.4069321155548096,0.026597600430250168,771,746,744,38.133,1,0
1739375963.3852367,0.1232439331282602,0.9884519529680754,0.22990420124695124,-1.5385643504908417,-1.4617339805207816,1.2488519597797678,0.2085772949004692,-0.0010591937892403746,-0.0007965495399140129,0.00026992634837729666,0.000259700118980545,-0.0012110853174169037,0.0017986012016865097,0.0003282577364958739,0.1935308277606964,-48.80978775024414,4.041243553161621,16.21680450439453,-0.9962056875228882,-1.4142563343048096,-0.0008682189509272575,770,746,745,38.242,1,0
1739375963.396131,0.12324316843468283,0.988448853903399,0.22990657815655555,-1.5385665144556422,-1.4617341012749765,1.2488550959680604,0.20857669834252285,-0.0007753348456417553,-0.0006204788955035754,0.001131423541223781,-0.00014990997631361485,-9.99277666641325e-05,0.0003059331332486453,-1.0905912769219537e-05,0.2173345386981964,-48.80978775024414,4.041243553161621,16.29218292236328,-1.0227559804916382,-1.4069321155548096,0.012864691205322742,769,747,745,38.242,1,0
1739375963.4061375,0.12324464507796268,0.9884573760567218,0.22990842209453416,-1.5385609193348062,-1.4617340207245366,1.2488534624975973,0.20858265854862343,-0.0008125686216880782,0.0005986216217943193,0.0009443416406284769,0.0009312145088000462,0.00022285235951418437,0.00014592361559884252,0.0016930922999103914,0.1935308277606964,-48.88516616821289,4.013472557067871,16.21680450439453,-1.0227559804916382,-1.3941147327423096,-0.04023589566349983,771,747,745,38.025,1,0
1739375963.4171762,0.12325006837976801,0.9884519442965776,0.2299101949836519,-1.53856279383059,-1.4617356500744942,1.248852158041927,0.20857681473979542,0.0017495423381834,0.0010310548532606698,0.0013894918479572913,0.0009883681158427355,-0.000368418859387459,0.0020533828820118592,-0.00016459031359529125,0.11815241724252701,-48.80978775024414,3.98966908454895,16.21680450439453,-1.0090230703353882,-1.4069321155548096,-0.0008682189509272575,770,747,746,38.133,1,0
1739375963.427201,0.12324467131964012,0.9884502143330905,0.22990247896555185,-1.538564589933339,-1.4617332628976492,1.2488549540924818,0.2085718563182328,-0.0010401742992654913,-0.0008380859340341483,-0.0015253789799245148,-0.00030359824020303284,0.0004342448569378266,-0.0003885199964223673,-0.0012652822351682017,0.1935308277606964,-48.78598403930664,4.092818260192871,16.26837921142578,-1.0291646718978882,-1.4142563343048096,0.026597600430250168,769,747,744,38.242,1,0
1739375963.4372368,0.12324456596948269,0.9884509909488617,0.2299063413240656,-1.5385647629731822,-1.4617340205576266,1.2488516634489177,0.2085766642281177,-0.00042997710304000937,8.279689328471773e-05,0.0005963944586291004,0.0009295092703162338,0.0007069119111750104,-3.5075172903701365e-05,0.000731622828244972,0.1935308277606964,-48.80978775024414,4.041243553161621,16.24457550048828,-1.0227559804916382,-1.4142563343048096,-0.013685601763427258,772,746,748,38.133,1,0
1739375963.4482052,0.12324638517200387,0.9884536570299101,0.2299091418477241,-1.5385672643786328,-1.4617382455641765,1.2488522891608627,0.20857904591602952,-0.0003855499616954336,0.0015221274466430937,0.000519424466140108,-0.00020031999865739223,-0.00041127082698542777,-0.0002633476288250504,0.00101731899937529,0.1697271168231964,-48.83359146118164,4.013472557067871,16.26837921142578,-0.9962056875228882,-1.4069321155548096,-0.03382720425724983,770,747,745,38.133,1,0
1739375963.4591417,0.12324273709460967,0.9884549452802384,0.22990455275531832,-1.5385692464141254,-1.4617337185857069,1.2488515578346144,0.208578795811805,-0.0005752348183392369,0.0017624560449614173,-0.0007922546582588391,-0.0011852243607124433,0.0003208546591920103,0.0015023743939515117,-9.796387008184182e-05,0.1935308277606964,-48.86136245727539,4.065047264099121,16.29218292236328,-1.0163472890853882,-1.4005234241485596,-0.013685601763427258,768,747,744,38.133,1,0
1739375963.4691534,0.12324430225362709,0.9884453731269248,0.22990634132396398,-1.538559528799232,-1.4617332673492704,1.2488507398641713,0.20858285761185325,-0.0016403135633374726,-0.001437439705416265,-0.0007143721497251125,0.002186420074257676,-3.0917640147785626e-05,-0.0007350159580690756,0.0021671907042600715,0.1935308277606964,-48.75821304321289,4.041243553161621,16.19300079345703,-1.0291646718978882,-1.4069321155548096,-0.04023589566349983,769,747,743,38.133,1,0
1739375963.4812012,0.1232484867319667,0.9884508058985048,0.22990877706801813,-1.5385691276365028,-1.4617372789448992,1.2488510956507255,0.20858296098880205,-4.558134392971386e-05,-0.00029098931037520163,0.0010685155057014524,-0.0006628198662208014,-0.0006777851511041719,-0.0007677397101940392,0.001967950470816325,0.1697271168231964,-48.83359146118164,4.013472557067871,16.29218292236328,-1.0227559804916382,-1.4005234241485596,-0.04023589566349983,769,747,744,38.133,1,0
1739375963.4912632,0.12324489299772973,0.9884536538213876,0.22990591746346029,-1.5385648196408355,-1.461734778456823,1.2488546299913517,0.2085793628444385,-0.0003129583475417046,0.0004544009464292313,-0.000952915108879797,0.00048765579437747903,0.00015985116688283668,-0.0008656932770358138,0.00014003451739146494,0.1935308277606964,-48.83359146118164,4.092818260192871,16.26837921142578,-1.0163472890853882,-1.4005234241485596,-0.013685601763427258,768,746,745,38.025,1,0
1739375963.5022314,0.1232429326626432,0.9884498075413107,0.22990851692646788,-1.5385666563326708,-1.4617357636247188,1.248850099456692,0.20858133580650126,-0.0010171624065512608,-0.0006131450269545995,0.00037733091830862797,-0.0014713243755534846,0.000867704246185181,-0.0014756137997150314,0.0005007054444777178,0.2173345386981964,-48.80978775024414,4.041243553161621,16.26837921142578,-1.0355733633041382,-1.4005234241485596,-0.027418512850999832,769,746,742,38.242,0,0
1739375963.512243,0.12324505877625622,0.9884556635521404,0.22990842549122587,-1.5385683284671936,-1.4617347842324422,1.2488517288039602,0.20857650631593336,-0.0008805955215311373,0.0017599958544523891,0.0005122519755254162,-0.00012807837415413715,-9.482829034983042e-05,0.0008637023929220884,0.00034442364964556863,0.2173345386981964,-48.86136245727539,4.013472557067871,16.29218292236328,-1.0163472890853882,-1.4142563343048096,-0.013685601763427258,770,746,743,38.133,1,0
1739375963.5242546,0.12324636052288698,0.9884515113771457,0.22990701089989302,-1.5385654814915863,-1.4617308418639967,1.2488510805775657,0.20858061924442206,0.00026478482990668266,6.89911489636607e-05,-1.1035792371302745e-05,0.00024305461996963523,0.00027949940910655555,-0.00036208372937263165,0.00103478021691412,0.1697271168231964,-48.83359146118164,4.065047264099121,16.26837921142578,-1.0227559804916382,-1.4005234241485596,-0.020094294100999832,768,746,744,38.025,2,0
1739375963.535222,0.12324848446576342,0.988452594231688,0.22990563083113078,-1.5385644785626285,-1.4617390768316105,1.248854630704933,0.20857673175437438,0.0005586665443770818,0.0015405719791211554,0.0004419679595269857,0.0011029079702543042,-0.0015429704072901,0.0008327822776714328,-0.0016670203221739492,0.1697271168231964,-48.83359146118164,4.041243553161621,16.26837921142578,-1.0090230703353882,-1.4005234241485596,0.012864691205322742,770,745,746,38.133,0,0
1739375963.5461493,0.12324572817708532,0.9884519269569431,0.2299091114032461,-1.5385675629961701,-1.461734900463162,1.2488509138590693,0.2085713197372359,-0.0015080569074373382,0.0006807407443200785,0.0006137129931881212,-0.00047962752694035273,7.116650082081847e-05,-0.00043816025905438503,-0.0014502453618352694,0.2173345386981964,-48.80978775024414,4.041243553161621,16.26837921142578,-1.0163472890853882,-1.4069321155548096,0.019273381680250168,770,745,744,38.242,1,0
