IITGN-Robotics/Franka_IITGN_ROBOTICS/franka_ros/franka_iitgn/data/s_b_005.csv
time,fr3_joint1_pos,fr3_joint2_pos,fr3_joint3_pos,fr3_joint4_pos,fr3_joint5_pos,fr3_joint6_pos,fr3_joint7_pos,fr3_joint1_vel,fr3_joint2_vel,fr3_joint3_vel,fr3_joint4_vel,fr3_joint5_vel,fr3_joint6_vel,fr3_joint7_vel,fr3_joint1_eff,fr3_joint2_eff,fr3_joint3_eff,fr3_joint4_eff,fr3_joint5_eff,fr3_joint6_eff,fr3_joint7_eff,flexpin1,flexpin2,flexpin3,Force,ContactMic,ContactMic_gt
1739375704.9497354,0.11809635903727701,0.9856102166799854,0.23309825151685354,-1.5450924775472625,-1.4673877660149188,1.2509749710268223,0.2096024143132475,0.0005401905631456829,5.6566114135197685e-05,-0.00021109326618793964,0.0011073010878270752,-0.0009701846542959601,-1.2400064666611641e-05,0.00048093080448588917,-0.2071649730205536,-48.40115737915039,3.75956654548645,15.824043273925781,-0.9632467031478882,-1.4929916858673096,-0.06678618490695953,,,,,,,,,
1739375704.9598057,0.11809628012032096,0.9856060047371995,0.23309874703101421,-1.5450951003779227,-1.467388114849354,1.2509749710248284,0.20959927478818483,0.00041852183769830123,0.0008636749086284319,-0.001619003302242512,0.0014296998647674183,-0.00040845375882793026,1.4084046013237487e-05,-0.0013209240123112022,-0.2071649730205536,-48.37338638305664,3.7873375415802,15.824043273925781,-0.9632467031478882,-1.4929916858673096,-0.04023589566349983,,,,,,,,,
1739375704.9698055,0.1180942812011254,0.9856062798618207,0.23310086200253752,-1.545095338940529,-1.467388119227925,1.2509749710248284,0.20960475555343505,-3.070557714120734e-05,-8.468728907348514e-05,0.00010571245292364373,-0.0012549062540266063,0.00027479001778148344,0.00013319548226999175,0.001207627243403594,-0.1793939769268036,-48.34958267211914,3.75956654548645,15.824043273925781,-0.9632467031478882,-1.4929916858673096,-0.08692778646945953,,,,,,,,,
1739375704.97982,0.11809428217544178,0.9856147023336379,0.23310253931502578,-1.5450878531673053,-1.4673872262261929,1.2509765808960145,0.20960161730254512,-0.00016858814178888213,-0.0017845945812469397,0.0016784608229120793,0.0026224227104745235,0.00024592585895006236,0.00034630716963932187,0.000971387255341752,-0.1793939769268036,-48.22262954711914,3.73576283454895,15.748664855957031,-0.9696553945541382,-1.4664413928985596,-0.020094294100999832,,,,,,,,,
1739375704.9907646,0.11809264868395114,0.985608553233166,0.2331001884382703,-1.5450928304374683,-1.4673856916741583,1.250979528689828,0.20959921634517245,0.000323256301908374,-0.0025156566509443776,0.00027180036986073253,0.0005581775152441758,0.0006365775270027823,0.0013013672984170288,-0.0015493236111912682,-0.1555902659893036,-48.24643325805664,3.8111412525177,15.847846984863281,-0.9568380117416382,-1.4792587757110596,-0.027418512850999832,,,,,,,,,
1739375705.0017753,0.11809530814844735,0.9856166056331263,0.23310405985230814,-1.5450888663674227,-1.4673852269515444,1.250982126477826,0.20960091722041654,0.0007380771628423088,0.0007922712882452414,-0.000442858303986013,-0.00035891727811646843,0.0021249905883242697,0.00041924888880333507,0.0002338245277072209,-0.1793939769268036,-48.40115737915039,3.75956654548645,15.824043273925781,-0.9568380117416382,-1.4728500843048096,-0.013685601763427258,,,,,,,,,
1739375705.012755,0.1180932896925313,0.9856145015657243,0.23310657960816425,-1.5450840097100291,-1.467388871053223,1.2509850067663901,0.20959772596053325,-0.00037863869017353013,0.001662888676329958,0.0004948065706539703,0.0005068649530278059,-0.000617452563919925,0.000964544308201883,-0.0007320388529539678,-0.1555902659893036,-48.37338638305664,3.8111412525177,15.800239562988281,-0.9568380117416382,-1.4600327014923096,-0.013685601763427258,,,,,,,,,
1739375705.022802,0.11809085757922666,0.985607787304406,0.2331066286042268,-1.5450884532833036,-1.4673883652382427,1.2509846204820863,0.20960061383993006,-0.000674139398824184,0.0005953193039403548,0.0009283525190456873,-0.0004534651865984332,-0.0010617937412107257,-0.00029479460185778336,-0.0007425041271765419,-0.1317865550518036,-48.32181167602539,3.83891224861145,15.899421691894531,-0.9568380117416382,-1.4536240100860596,-0.020094294100999832,,,,,,,,,
1739375705.0337837,0.11809264872004006,0.9856125770998116,0.23310765514944662,-1.5450908393916305,-1.4673870547417647,1.250984621941942,0.20960838166621884,-0.0004068984030306929,0.0005545720798961185,-0.00011037439618320625,-0.0026358339813700535,-0.0001494808186022087,-0.0002785725204247241,0.003257759923093999,-0.1555902659893036,-48.34958267211914,3.83891224861145,15.947029113769531,-0.9632467031478882,-1.4536240100860596,-0.06678618490695953,,,,,,,,,
1739375705.0438678,0.11809222545469518,0.9856109259357343,0.23311044656504948,-1.5450829007235323,-1.4673841826354561,1.250985708071033,0.20960492252009838,0.0003624304322426904,-0.000438295403181957,0.0007769042847045988,0.0008977813707093235,-0.001410277567177196,-0.0006722931704442914,-0.0006282272181317622,-0.10798283666372299,-48.37338638305664,3.8111412525177,15.899421691894531,-0.9696553945541382,-1.4536240100860596,-0.04756011441349983,,,,,,,,,
1739375705.0548496,0.11809088349446203,0.9856059938382932,0.23310792757678178,-1.5450799897070593,-1.4673876291482308,1.250988732252003,0.20960568178071273,-5.125608699611226e-05,-0.0009807453957896184,-0.00013387991738985386,0.00027873656294913964,0.0003534732579722941,-0.0003513558528989786,0.0010638633127983594,-0.1317865550518036,-48.29800796508789,3.83891224861145,15.871650695800781,-0.9632467031478882,-1.4472153186798096,-0.05396880581974983,,,,,,,,,
1739375705.0658174,0.11808235634192363,0.9856075634411686,0.23310807000093153,-1.54508277159333,-1.467382651577791,1.2509895035079743,0.20960492347209758,-0.0028130650047806186,-0.0014521402237750332,-0.00016296732846071222,-0.001932548317228269,0.000946390494367023,0.00013643827627532847,-0.0010275665133126382,-0.05640812963247299,-48.34958267211914,3.86271595954895,15.899421691894531,-0.9696553945541382,-1.4536240100860596,-0.04756011441349983,,,,,,,,,
1739375705.07676,0.11808946320221243,0.9856125375385898,0.23311089385726966,-1.5450797145856074,-1.4673833685146411,1.2509887518627096,0.20960169973369966,-0.0005760467722475133,-0.00028809868587225795,-0.0008176095297071789,0.001258578451557913,-0.00012466607990953887,-0.0005930538452833895,0.00029202646082922257,-0.10798283666372299,-48.34958267211914,3.83891224861145,15.871650695800781,-0.9632467031478882,-1.4472153186798096,-0.0072769103571772575,,,,,,,,,
1739375705.086818,0.11808714960026967,0.9856097043509287,0.23311090264787274,-1.5450794054826649,-1.4673870595093668,1.2509887518627436,0.20960405808694485,-0.0009028912373773909,0.0007129533650117204,3.962202351833957e-05,0.000719565938447544,-0.001347059074927891,0.0004451985288961025,7.123788835197756e-05,-0.08021184056997299,-48.34958267211914,3.83891224861145,15.871650695800781,-0.9632467031478882,-1.4472153186798096,-0.04023589566349983,,,,,,,,,
1739375705.0977867,0.11808943944355758,0.9856096768487185,0.2331108938993673,-1.5450842897572452,-1.467381901799857,1.2509887518627436,0.20960336030584234,-0.0005555496108527935,-0.001262565202469548,0.00033148382469136206,-0.0011311338753528547,0.0015045949961286279,-0.0002276281701747307,-0.0015891772982203197,-0.1317865550518036,-48.34958267211914,3.83891224861145,15.923225402832031,-0.9769796133041382,-1.4472153186798096,-0.0072769103571772575,,,,,,,,,
1739375705.107815,0.11808739217975754,0.9856135360994726,0.23310921577091911,-1.545081791838337,-1.4673870076313416,1.2509887518627436,0.20960508197687217,-0.0008619100494122697,3.315038004817768e-05,-0.0002211640899095189,-0.0007128211834838854,-0.000950803727289214,0.00010722484039659876,0.0013890920857155772,-0.08021184056997299,-48.37338638305664,3.86271595954895,15.899421691894531,-0.9696553945541382,-1.4472153186798096,-0.04756011441349983,,,,,,,,,
1739375705.1178417,0.11809546642712544,0.9856096691810912,0.23311238710831617,-1.5450797116003039,-1.4673861260441683,1.2509871283054328,0.20960643928096026,0.0007696017315904338,0.0005868418827230786,-4.937876662013292e-05,0.00024203978506068984,0.00023123761605503389,-0.0002968650572265905,0.0010233495331118938,-0.1793939769268036,-48.34958267211914,3.7873375415802,15.871650695800781,-0.9696553945541382,-1.4334824085235596,-0.06037749722599983,,,,,,,,,
1739375705.1288161,0.11808914461941382,0.9856095998103569,0.23310915009139338,-1.5450772397035857,-1.4673877120115657,1.2509887518627436,0.20961039718316002,-0.001033067783952512,-0.0007861522975812826,-0.001145964844340558,0.0010566584562222373,-9.401964511071404e-05,0.00046446421704993964,0.0018266767547785363,-0.10798283666372299,-48.34958267211914,3.86271595954895,15.847846984863281,-0.9632467031478882,-1.4472153186798096,-0.06678618490695953,,,,,,,,,
1739375705.1397605,0.11809429386745311,0.985613389253836,0.23311109036401303,-1.5450796860865987,-1.4673833908267007,1.2509887518627436,0.2096001615954764,0.0010221729889906795,0.00018278797860702176,-0.002032525007348456,0.0007180660067898836,0.0010465914329996205,-2.3553999971132506e-05,-0.0003202955498267933,-0.1793939769268036,-48.40115737915039,3.83891224861145,15.871650695800781,-0.9632467031478882,-1.4472153186798096,-0.0072769103571772575,,,,,,,,,
1739375705.1498363,0.11809093702949165,0.9856133882731465,0.23311366541900538,-1.5450853454060658,-1.4673838626682367,1.2509887518627436,0.20960568161820708,-0.0007518402348166,0.00020153563311124756,-0.001160613460989814,-0.00048727386176169313,0.001073005245235034,-5.5356750389927716e-05,0.00017927328214130606,-0.1317865550518036,-48.40115737915039,3.88651967048645,15.947029113769531,-0.9632467031478882,-1.4472153186798096,-0.05396880581974983,,,,,,,,,
1739375705.1607726,0.1180871471414499,0.9856076015485602,0.23311162645218475,-1.5450776451659083,-1.4673879825701983,1.2509892988163502,0.20960170321181598,-0.0013468174670656524,-0.0017395914817139972,-0.0018315364396504152,-0.0002206168039353738,-0.0009622556327996682,-2.680059958195581e-05,8.99983978697668e-06,-0.08021184056997299,-48.32181167602539,3.9142906665802,15.871650695800781,-0.9632467031478882,-1.4398910999298096,-0.020094294100999832,,,,,,,,,
1739375705.1708107,0.11808546922713677,0.9856076283591794,0.2331168851566588,-1.5450766127051927,-1.4673841761909456,1.2509885411801986,0.20960720278890843,-0.001089402566160939,-0.0007196923234785958,-0.00021985034315959889,0.0004662227576334732,-0.000245299186639912,0.0005407876794140589,0.0003729538428673782,-0.05640812963247299,-48.32181167602539,3.88651967048645,15.871650695800781,-0.9696553945541382,-1.4334824085235596,-0.06678618490695953,,,,,,,,,
1739375705.1808162,0.11808914472158191,0.9856133882722575,0.23311370629610595,-1.5450769213908957,-1.4673866872655073,1.250989550229692,0.20960266121426727,1.4925449483423247e-05,0.0009361582373915733,-0.001011841501441833,0.0007712778437711239,0.00021506678994682993,-0.00038557023255849504,0.00028535539492679,-0.10798283666372299,-48.40115737915039,3.88651967048645,15.847846984863281,-0.9632467031478882,-1.4270737171173096,-0.027418512850999832,,,,,,,,,
1739375705.1918073,0.11809088347707121,0.9856126949861895,0.23311478028629112,-1.5450822586092068,-1.4673831079872512,1.2509926366701807,0.20960806494851822,0.000460107617105632,0.0009694954988496466,0.0002782336589562702,0.0003006331930967113,0.0010417179995469974,0.001967079263380577,0.0005378635863160861,-0.1317865550518036,-48.40115737915039,3.86271595954895,15.947029113769531,-0.9696553945541382,-1.4398910999298096,-0.07411040365695953,,,,,,,,,
1739375705.2028158,0.11809085431970254,0.9856114168114893,0.2331161778093529,-1.5450807820030898,-1.4673873464758174,1.2509883615184008,0.20960254274077422,0.0012734682148392213,6.978842844766324e-05,9.139244705901777e-06,-0.0011291421394785685,0.0013977539044496344,-0.0005823040705192182,-0.00038832385943153965,-0.1317865550518036,-48.37338638305664,3.86271595954895,15.923225402832031,-0.9696553945541382,-1.4398910999298096,-0.027418512850999832,,,,,,,,,
1739375705.2137709,0.1180893813756179,0.9856077592009388,0.23311465701381118,-1.5450807982834798,-1.4673848167617625,1.2509888696012084,0.20960417702186984,0.0006083175644005525,-0.0007330508904145516,0.00028328180163084013,0.0007519282938156225,0.0003825769149703408,-0.0010633289556836122,0.00021971116947712774,-0.10798283666372299,-48.32181167602539,3.88651967048645,15.899421691894531,-0.9632467031478882,-1.4472153186798096,-0.04023589566349983,,,,,,,,,
1739375705.223873,0.11808867109094924,0.9856114256548913,0.23311336206433253,-1.5450787261023486,-1.467385567727749,1.2509882919925406,0.20960016640070364,-4.531186478762064e-05,0.0006274732146976902,-7.014799470765407e-05,0.00032109019636859657,-0.00039578889309472263,-0.0009245369207991763,-0.0015530074595716755,-0.10798283666372299,-48.37338638305664,3.86271595954895,15.899421691894531,-0.9833883047103882,-1.4398910999298096,-0.0072769103571772575,,,,,,,,,
1739375705.2348192,0.11809369828605716,0.9856076692963139,0.23311394461284143,-1.5450816770161282,-1.4673838235014949,1.2509888087150007,0.20960719742549466,0.0014535656223364076,-0.0006974473229888628,-0.00048613621495807876,-0.0017793943450345876,0.001093955295792158,-0.001405160401507744,0.0005541175800888434,-0.1317865550518036,-48.32181167602539,3.88651967048645,15.899421691894531,-0.9632467031478882,-1.4472153186798096,-0.06678618490695953,,,,,,,,,
1739375705.2457647,0.11808906570780223,0.9856133796062769,0.2331144656666857,-1.5450786920004669,-1.4673881128511472,1.250987167766951,0.2096056821057536,-0.0003118347677225474,0.001052059806572405,0.0008023859658533805,-0.0003609415632305175,-0.00010284026160687214,-0.0003382545036463304,0.0005380444555272703,-0.10798283666372299,-48.40115737915039,3.86271595954895,15.899421691894531,-0.9632467031478882,-1.4334824085235596,-0.05396880581974983,,,,,,,,,
1739375705.25584,0.11808709266630654,0.9856133060989425,0.2331172254698386,-1.5450766972964365,-1.4673849344992527,1.2509910795192616,0.20960487578863224,0.0003790913157010129,-8.741394690688347e-05,0.0020068845173839022,0.00022737236227655293,0.0001847161406376047,0.00017062752713039296,-0.0016265512449416338,-0.10798283666372299,-48.40115737915039,3.8111412525177,15.871650695800781,-0.9632467031478882,-1.4536240100860596,-0.020094294100999832,,,,,,,,,
1739375705.2667303,0.11808810985960635,0.9856093628819246,0.2331123351070191,-1.545076943786737,-1.4673870201106451,1.2509903347878242,0.2096056860241688,-0.0005374532049107934,-0.0018045636016972505,-0.0007290141538076843,9.985338453242381e-06,-0.00039388200407415596,2.9316879533681856e-05,-6.530465146037184e-05,-0.10798283666372299,-48.34958267211914,3.86271595954895,15.871650695800781,-0.9632467031478882,-1.4472153186798096,-0.05396880581974983,,,,,,,,,
1739375705.2768173,0.11809126669225968,0.9856114168178968,0.23312047273597258,-1.545080445802512,-1.4673853896782576,1.2509875992825195,0.2096006924597953,-0.0005583529076122446,0.00011726974846388942,0.0027903148600374713,-0.0006047088318457301,0.0007656160811125319,-0.0009001372321363928,-0.000641495491027623,-0.10798283666372299,-48.37338638305664,3.83891224861145,15.923225402832031,-0.9504293203353882,-1.4334824085235596,-0.0072769103571772575,,,,,,,,,
1739375705.2878022,0.11809085422297641,0.9856113903324264,0.23311609921043114,-1.5450811633902637,-1.4673845695804515,1.2509906611350468,0.20960721221732861,0.00039082549625858807,-4.237204038390647e-05,-0.0008648379243245413,-0.0012872580621027985,-0.0003705033026535074,0.00043637748234053145,2.36551363462916e-05,-0.1317865550518036,-48.37338638305664,3.86271595954895,15.923225402832031,-0.9632467031478882,-1.4334824085235596,-0.06678618490695953,,,,,,,,,
1739375705.2978806,0.11809016181612764,0.9856144076139182,0.23311655741874293,-1.5450743910478555,-1.4673886128284899,1.2509905756391555,0.20959880168532433,0.0009646685064033801,0.0010165925975012136,0.0008512893620913641,0.0012493534138359904,-0.001282198917429759,-0.0004211450463200825,-0.0016086385167685582,-0.10798283666372299,-48.42496109008789,3.86271595954895,15.871650695800781,-0.9769796133041382,-1.4536240100860596,-0.0008682189509272575,,,,,,,,,
1739375705.3087668,0.11808843418161354,0.9856143987822961,0.23311194697739618,-1.5450743872294526,-1.4673873552551924,1.2509882980400395,0.20960719839942396,-0.00042284977433033595,0.0003577433110942452,-0.001909149336254553,0.001489666371138053,-0.0007892478001218788,-0.0009128148319187522,0.00011316501050113851,-0.10798283666372299,-48.42496109008789,3.9142906665802,15.871650695800781,-0.9696553945541382,-1.4398910999298096,-0.06678618490695953,,,,,,,,,
1739375705.3188565,0.11808543543822375,0.9856096781267059,0.2331158460620134,-1.5450756230124472,-1.467386937491493,1.2509904307785702,0.20960091918334237,-0.0014070190388510793,-0.0006742368990293583,-0.0004061253294991354,0.0013700056082369308,0.0006334853818262078,0.00042567844794044653,-0.0017351658207599538,-0.05640812963247299,-48.34958267211914,3.86271595954895,15.871650695800781,-0.9632467031478882,-1.4334824085235596,-0.013685601763427258,,,,,,,,,
1739375705.3297415,0.11809249159984321,0.9856136276728572,0.23311764180848793,-1.5450757249562774,-1.4673831215551327,1.2509921659359355,0.20960755235821135,0.0017917284789730665,0.0010787021551535853,-7.001202715123552e-05,0.0010289513268364168,0.00025226423934663727,-0.0006128979412791714,0.0020720227050118577,-0.1555902659893036,-48.40115737915039,3.83891224861145,15.899421691894531,-0.9696553945541382,-1.4398910999298096,-0.06678618490695953,,,,,,,,,
1739375705.3397522,0.11809085648311878,0.9856105802361413,0.23311403624078494,-1.5450763645204628,-1.467383509786809,1.2509917600350204,0.20960518439532225,0.0009474552620843363,-0.0006271392568166603,-0.0002444925189715465,-0.0009556938072868772,0.0005969791650024774,-8.098263640781464e-06,-0.00084034181395983,-0.1317865550518036,-48.40115737915039,3.88651967048645,15.871650695800781,-0.9632467031478882,-1.4334824085235596,-0.013685601763427258,,,,,,,,,
1739375705.3497674,0.11808910661373459,0.9856133102244355,0.23311835136503908,-1.5450774797103712,-1.4673861409263176,1.2509924973513527,0.20960723650129712,0.0004395359032729692,0.00017370883550714886,0.000497163520373453,-9.348020081867542e-05,0.0003504568915265687,0.0020633375017019276,-0.0009678729334449404,-0.10798283666372299,-48.40115737915039,3.86271595954895,15.923225402832031,-0.9769796133041382,-1.4398910999298096,-0.06678618490695953,,,,,,,,,
1739375705.3618305,0.11808612037434055,0.9856103759603572,0.2331137067308332,-1.5450775834381487,-1.4673841690311766,1.2509926480374893,0.20960892005469037,-0.00023600499167810855,-0.0008939145486854039,-0.0002812807604116508,0.0004641735243064877,0.0003313335005997744,0.0009399504656547637,0.002334775287999238,-0.08021184056997299,-48.37338638305664,3.88651967048645,15.899421691894531,-0.9696553945541382,-1.4398910999298096,-0.05396880581974983,,,,,,,,,
1739375705.3718617,0.11808470015225847,0.9856150978635381,0.23311371067526532,-1.5450789513740255,-1.4673864910766254,1.2509889894523707,0.2096056836408385,-0.0010951381464296907,0.0018426164196816252,-0.00031765559994916567,-0.0005269663037230374,-0.0007008552089546682,-0.0014559515891961682,0.0013480850824210704,-0.08021184056997299,-48.42496109008789,3.88651967048645,15.947029113769531,-0.9769796133041382,-1.4398910999298096,-0.05396880581974983,,,,,,,,,
1739375705.3827877,0.11808540639535439,0.9856172378942301,0.23311766117753005,-1.5450764544427433,-1.467383407787008,1.2509894230328311,0.2096049283460666,-0.0012901234591696095,0.0013898273562863745,0.0005346131409714017,0.0006725521224231743,0.0018135574304318546,0.0006623773378950002,0.0007011511423494076,-0.05640812963247299,-48.42496109008789,3.86271595954895,15.899421691894531,-0.9632467031478882,-1.4398910999298096,-0.04756011441349983,,,,,,,,,
1739375705.3927965,0.11808629468884162,0.9856151003779353,0.233116920526531,-1.5450763476501557,-1.467384417008877,1.2509926528653021,0.20960568161823062,-8.135029803328978e-05,0.0011397971522125977,-9.618665000627027e-05,0.0013557478927358458,0.0007981068953662732,0.0011199160420878786,0.00013108414864685926,-0.10798283666372299,-48.42496109008789,3.88651967048645,15.899421691894531,-0.9632467031478882,-1.4398910999298096,-0.05396880581974983,,,,,,,,,
1739375705.403769,0.11808835524264676,0.9856133536059541,0.2331165616575161,-1.5450772237472836,-1.4673859443354824,1.2509911344409366,0.20960964001106705,0.00025085073817375113,0.0007008746273409203,-0.0003639828614798394,-0.0010664557827213604,0.0001290469387581614,-0.0008323967573019191,0.00022863313654591455,-0.10798283666372299,-48.40115737915039,3.86271595954895,15.923225402832031,-0.9696553945541382,-1.4270737171173096,-0.06037749722599983,,,,,,,,,
1739375705.4157257,0.11808722558838446,0.985611168102418,0.23312048878146277,-1.5450762692102287,-1.4673887192505788,1.2509918569466154,0.20959952240883054,-0.00032474540473119505,-0.00011991976995121662,0.000461952013379262,0.0009922915159348374,-0.002552334090545336,-0.00033899843205849247,-0.0012575194911574467,-0.08021184056997299,-48.37338638305664,3.83891224861145,15.871650695800781,-0.9568380117416382,-1.4334824085235596,-0.0008682189509272575,,,,,,,,,
1739375705.4257374,0.11808903938522104,0.9856113855888148,0.23311861893987318,-1.5450775837545963,-1.4673850427281543,1.2509934809882446,0.20960417658916572,0.0006846479989822993,-0.0012033018869589027,0.00043091075478599635,-0.0002548362076339395,9.847124493606962e-05,0.0009020531749682904,-0.001373328644877651,-0.10798283666372299,-48.37338638305664,3.86271595954895,15.899421691894531,-0.9504293203353882,-1.4472153186798096,-0.04023589566349983,,,,,,,,,
1739375705.435817,0.11808714666652953,0.9856151007936201,0.23311872020240726,-1.5450804610028712,-1.4673879838144883,1.2509876581225035,0.2096040257955775,0.000522330353146341,0.000900628552160259,0.0006429932240832108,-0.0010149733231312418,-0.0007726642269621024,-0.002527232258025412,-0.0004984809346449431,-0.08021184056997299,-48.42496109008789,3.86271595954895,15.923225402832031,-0.9632467031478882,-1.4334824085235596,-0.0008682189509272575,,,,,,,,,
1739375705.446802,0.1180870416604409,0.9856122400050732,0.23311774997127693,-1.545080382938846,-1.46738569781137,1.250991896653088,0.2096049636378767,0.0002634970029256539,0.00012110838009166602,-0.000273635802168435,-0.001420375625623406,-0.00228243440502591,0.0009325572044728195,-0.0016947028926007622,-0.08021184056997299,-48.37338638305664,3.86271595954895,15.923225402832031,-0.9568380117416382,-1.4334824085235596,-0.04756011441349983,,,,,,,,,
1739375705.4577925,0.11808714662356283,0.9856126480572783,0.23311716008480124,-1.5450756185906054,-1.4673853814361595,1.25098947536887,0.20960305649718888,3.5512454614996386e-05,-0.0002723507852216535,-3.3059714369518994e-05,0.0007578670702916059,0.00011913017929797686,-0.0011540028125789073,-0.0020930286535709797,-0.08021184056997299,-48.42496109008789,3.88651967048645,15.871650695800781,-0.9504293203353882,-1.4398910999298096,-0.013685601763427258,,,,,,,,,
1739375705.4678,0.11808914461272622,0.9856089483923236,0.23311473956492026,-1.5450757235547359,-1.4673831227992735,1.2509935181347502,0.20960140634933777,0.0007548401145544531,-0.0005866781524901185,0.00024542843193497667,-4.397423344888621e-05,0.0005566283943637821,0.0008889112992959706,-0.00048231076353915433,-0.10798283666372299,-48.34958267211914,3.88651967048645,15.899421691894531,-0.9696553945541382,-1.4472153186798096,-0.013685601763427258,,,,,,,,,
1739375705.4797661,0.11808872481246024,0.9856113518239358,0.23311680615814728,-1.5450732744626556,-1.4673873615419504,1.2509926523990222,0.20960401707766965,0.00021820995655875118,-0.0007466747663016044,-0.0010221040004219696,0.0008133458192766394,-0.0010180239999502052,-3.2036022610405826e-05,0.0009460285937382322,-0.1317865550518036,-48.37338638305664,3.88651967048645,15.871650695800781,-0.9696553945541382,-1.4398910999298096,-0.027418512850999832,,,,,,,,,
1739375705.490788,0.1180854339947618,0.9856114694839269,0.23311719912183226,-1.545077148975358,-1.4673834081100967,1.2509906680666458,0.20960266171003583,-0.0004266303305346133,0.0008414948069721498,0.0006270562458673265,-0.0006401551735762021,0.0002065936441823573,0.0010815545107416425,0.0008126695966390846,-0.05640812963247299,-48.37338638305664,3.88651967048645,15.923225402832031,-0.9632467031478882,-1.4270737171173096,-0.027418512850999832,,,,,,,,,
1739375705.5018222,0.1180892424258547,0.985606739898553,0.23312048094595322,-1.5450714916593948,-1.4673863192799481,1.250992654172929,0.20960643927895578,0.00011016266473616582,-0.002700648494448804,0.0015107563735426398,0.0012839207271087096,-0.000510053023281576,0.0009153330899796014,0.0006598710890757355,-0.08021184056997299,-48.32181167602539,3.83891224861145,15.847846984863281,-0.9769796133041382,-1.4398910999298096,-0.06037749722599983,,,,,,,,,
1739375705.512739,0.11808372120131994,0.985609047807774,0.23311859871084106,-1.5450790293309526,-1.4673873556815582,1.2509926543370928,0.20960716905503798,-0.0030088421811138195,-6.906929244472913e-05,0.0001818955728690253,-0.0022220284875843427,-0.0005627135623846619,0.001905165375244017,0.0009060813847421301,-0.03260441869497299,-48.37338638305664,3.86271595954895,15.947029113769531,-0.9696553945541382,-1.4398910999298096,-0.027418512850999832,,,,,,,,,
1739375705.522762,0.1180850153727808,0.9856141025262193,0.2331195245321423,-1.5450755983958344,-1.4673817469218857,1.2509926499764423,0.20960721456788842,-0.00012757611642567912,0.001684301863546045,0.0003017513842411375,0.0007545813491145957,0.0020516295738081617,0.0005844652496408917,0.0013652545349052082,-0.08021184056997299,-48.40115737915039,3.86271595954895,15.899421691894531,-0.9769796133041382,-1.4398910999298096,-0.06678618490695953,,,,,,,,,
1739375705.5327685,0.11808903014664889,0.9856101590759587,0.2331169336554795,-1.5450753551101384,-1.4673881133333282,1.2509887119483518,0.2096012723423225,-0.0006048448983480396,-9.081906710034667e-05,-0.0009772870067742121,8.210058003875112e-05,-0.0011067885378343327,-0.00021426042326402092,-0.003177292028388223,-0.10798283666372299,-48.34958267211914,3.88651967048645,15.899421691894531,-0.9632467031478882,-1.4334824085235596,-0.013685601763427258,,,,,,,,,
1739375705.544776,0.11809014392166747,0.9856105426786994,0.2331194168481691,-1.5450767383540769,-1.4673881177743664,1.2509917789214668,0.2096025473473235,0.0011368806565534026,-0.0008843036880115068,0.0005062513204595377,-0.0005704418642175909,-0.0006009276585973393,0.0010663479198651986,-0.0017527329721132587,-0.1317865550518036,-48.40115737915039,3.86271595954895,15.947029113769531,-0.9632467031478882,-1.4334824085235596,-0.027418512850999832,,,,,,,,,
1739375705.554783,0.11808606539196323,0.9856131542179805,0.23311766797348282,-1.545075142112239,-1.467388387041587,1.2509918574304932,0.20960568161823184,-0.00010487046601400523,0.00026696220508234394,-8.64126324670166e-06,-6.530226649318184e-05,-0.0021064735612255424,-0.0007411299629356925,-0.000757120883634658,-0.10798283666372299,-48.40115737915039,3.9142906665802,15.899421691894531,-0.9568380117416382,-1.4334824085235596,-0.05396880581974983,,,,,,,,,
1739375705.5657187,0.11808544781050914,0.9856112305881765,0.23311579039519437,-1.5450749909971264,-1.467388074165127,1.2509911388552095,0.20960334005447503,-0.00046778418780559703,0.00047410134099996773,-0.0009318304537264009,-0.0005218314222997462,-0.0007335430991126676,0.0003988407303849353,-0.0008379447201461513,-0.05640812963247299,-48.40115737915039,3.9142906665802,15.923225402832031,-0.9632467031478882,-1.4270737171173096,-0.03382720425724983,,,,,,,,,
1739375705.5757263,0.11808914461296001,0.9856103461921263,0.23311598387158328,-1.5450753452218593,-1.467386437527866,1.250988717762624,0.2096057217600806,0.0007423917485843889,0.00022040830724344939,-0.0015786175545625118,2.621974831810861e-05,-3.775931681543489e-05,-0.00042682635200577647,0.0013872008768716446,-0.10798283666372299,-48.40115737915039,3.88651967048645,15.899421691894531,-0.9769796133041382,-1.4334824085235596,-0.05396880581974983,,,,,,,,,
1739375705.5858636,0.11808543415114445,0.98561339662394,0.23311689827718285,-1.5450753632457324,-1.4673859356340955,1.2509926542832581,0.20960417702254966,-6.10856943430594e-05,0.0013603046900414481,0.00012304340120604837,0.0005259058449581845,0.0004185087089788182,0.0007185134027499421,-0.001958353765257702,-0.05640812963247299,-48.40115737915039,3.88651967048645,15.899421691894531,-0.9696553945541382,-1.4398910999298096,-0.04023589566349983,,,,,,,,,
1739375705.5968325,0.11808497661599052,0.9856130488772699,0.23311656180274554,-1.5450753246178364,-1.4673848879777034,1.2509918835950622,0.20960888235166025,-0.0009602519480154132,0.0006722817220316912,0.0002330387494521249,0.00012799445736697587,-0.000426018620197142,0.001443555217725868,0.0012373167806885156,-0.08021184056997299,-48.40115737915039,3.86271595954895,15.899421691894531,-0.9632467031478882,-1.4334824085235596,-0.05396880581974983,,,,,,,,,
1739375705.607754,0.11808809218818817,0.9856114739053476,0.2331197719025952,-1.5450732654678436,-1.4673876068775193,1.250992183386592,0.2096045453350482,0.00021565854254575146,-0.0006956454508559939,0.0011431021364059063,-7.606441744315128e-05,-0.0015686955676913544,0.00020317548296215735,-0.00028705569860204767,-0.10798283666372299,-48.34958267211914,3.83891224861145,15.871650695800781,-0.9632467031478882,-1.4398910999298096,-0.04023589566349983,,,,,,,,,
1739375705.6177998,0.11808531722525556,0.9856136228499399,0.2331175648370433,-1.5450789106498712,-1.4673871914996004,1.250993520231667,0.20960568162095652,-0.0010419744955890596,0.0012639738718527934,-0.00041355576910442036,-0.0016291466950193168,-0.00147833456342969,0.001158592719602508,-0.0009638348482353906,-0.05640812963247299,-48.40115737915039,3.9142906665802,15.947029113769531,-0.9696553945541382,-1.4472153186798096,-0.05396880581974983,,,,,,,,,
1739375705.6297545,0.11808326708977078,0.9856131187862385,0.23311768011861175,-1.5450782002621815,-1.4673853182939798,1.2509915421558142,0.20960097232572025,-0.0014437364427360637,0.0005002420226168473,-0.0017654426190188547,-0.0002844499369751335,0.00015897435972886853,-0.00048466452052860323,-0.0013280425655045924,-0.05640812963247299,-48.40115737915039,3.9142906665802,15.947029113769531,-0.9769796133041382,-1.4398910999298096,-0.013685601763427258,,,,,,,,,
1739375705.6398017,0.11808692144439717,0.9856113890467862,0.23311885204192007,-1.5450753419836503,-1.4673835095289567,1.2509918966707365,0.2096006354172582,0.000336734728641335,-0.00014741484895763665,-0.0008689426186167619,0.00027838556538976867,0.0009821034792493102,-0.000677823604524654,-0.0016106860921241708,-0.08021184056997299,-48.37338638305664,3.86271595954895,15.899421691894531,-0.9632467031478882,-1.4334824085235596,-0.0072769103571772575,,,,,,,,,
1739375705.6507313,0.11808914024500243,0.9856095874007131,0.23312181723239025,-1.5450753501275232,-1.4673888311559262,1.2509918966770148,0.20960256175766775,0.0006488500023001239,0.0009660351014266665,0.000488340599661941,-0.0005975819045753005,-0.00213885384248231,-2.7841031508315908e-05,-0.001084609679044085,-0.10798283666372299,-48.34958267211914,3.86271595954895,15.899421691894531,-0.9568380117416382,-1.4334824085235596,-0.027418512850999832,,,,,,,,,
1739375705.6607683,0.11808542245892775,0.9856113643273036,0.23311768108929856,-1.5450752618605517,-1.4673911498659398,1.2509911390169366,0.20959853991707458,-0.0009030548581088314,0.00016045552650905727,-0.0009241671653188424,0.00019204795953252636,-0.002525952847876843,-0.0004575592979989009,-0.0015707415838045857,-0.05640812963247299,-48.37338638305664,3.9142906665802,15.899421691894531,-0.9376119375228882,-1.4270737171173096,0.0064559997990727425,,,,,,,,,
1739375705.6708193,0.11808345856033242,0.9856116286434182,0.23311795423669118,-1.5450758186912688,-1.4673868507257126,1.250993149579013,0.20960063590453623,-0.0006429083269919663,-0.00027356786559840047,0.0008235660503008381,0.0005230925259836658,0.0005275579482564635,-7.380942312844421e-05,-0.002185277386222391,-0.03260441869497299,-48.37338638305664,3.9142906665802,15.947029113769531,-0.9696553945541382,-1.4472153186798096,-0.0072769103571772575,,,,,,,,,
1739375705.680855,0.11808711126962859,0.9856113813458365,0.23311795521427867,-1.5450732741358015,-1.467384148486194,1.2509917789373524,0.2096067114904651,-0.0004893340921070464,0.0005261252968228754,-0.0001596924660487298,0.0006480996146838576,0.0019276659098250769,0.00033165236979221534,-0.0016790560890612702,-0.08021184056997299,-48.37338638305664,3.9142906665802,15.871650695800781,-0.9568380117416382,-1.4334824085235596,-0.04756011441349983,,,,,,,,,
1739375705.6918085,0.11808172358110113,0.9856133882730792,0.23312016982055905,-1.545074312111021,-1.4673865318705541,1.2509918965148445,0.2096071990607077,-0.0008867464343608636,0.000621448485050778,-0.00038115221076222294,0.00112000744057193,-0.00036777795175778577,-0.00014592181343189918,-0.0005089470225802253,-0.004833422601222992,-48.40115737915039,3.9142906665802,15.899421691894531,-0.9632467031478882,-1.4334824085235596,-0.06678618490695953,,,,,,,,,
1739375705.7027712,0.11808306608916173,0.9856129947274133,0.233117646660978,-1.5450764210678507,-1.4673849396585787,1.250991896677014,0.20960513813554912,-0.00029707365528275055,0.0024114114403969364,-0.0019368764439974286,-0.00031685491583232966,0.00013087814533943685,6.054509747549299e-05,-0.0010670225056988514,-0.05640812963247299,-48.42496109008789,3.88651967048645,15.923225402832031,-0.9632467031478882,-1.4334824085235596,-0.04023589566349983,,,,,,,,,
1739375705.7137742,0.11808698867223255,0.9856113903203881,0.23311987849326177,-1.5450728894446786,-1.4673832578964348,1.2509911390169366,0.20960838238254823,0.000397517544219053,0.0006712807633685214,-0.0010265599148789675,-0.0009291076046404215,0.0012789298704395683,-0.000334053446474267,-0.00036472967256226526,-0.08021184056997299,-48.37338638305664,3.88651967048645,15.899421691894531,-0.9769796133041382,-1.4270737171173096,-0.06678618490695953,,,,,,,,,
1739375705.7247338,0.11809085713132017,0.9856150218297438,0.2331177516276035,-1.54507570505614,-1.4673888703729727,1.2509926543370933,0.20960733874076606,0.0014714210994240197,0.0016990102305338328,-0.00022180951673019198,-0.0005339923242632738,-0.00025033167248808596,0.00023347694273170654,0.0008634087964598989,-0.1317865550518036,-48.42496109008789,3.88651967048645,15.947029113769531,-0.9568380117416382,-1.4398910999298096,-0.027418512850999832,,,,,,,,,
1739375705.7367918,0.11808713779462032,0.9856112519619212,0.2331204941369293,-1.5450721620376755,-1.4673874451410236,1.2509911384785846,0.20961030092555555,-0.00017686732075407465,-0.0007614333015724773,0.0007657866420148539,0.00013755544516384267,-6.125639091702047e-05,-0.001490754067940992,0.0025527998401977505,-0.08021184056997299,-48.40115737915039,3.83891224861145,15.899421691894531,-0.9568380117416382,-1.4270737171173096,-0.08051909506320953,,,,,,,,,
1739375705.7478256,0.11808913536256384,0.985611043608969,0.23312119888013308,-1.5450753540461708,-1.4673878165832372,1.2509935202343245,0.2096075844613272,0.00010563325721269171,-0.0006892721747627054,0.0006485205578684557,-0.0006208734288705897,-0.000732588868382412,0.0008497281053171928,0.001547717138567321,-0.10798283666372299,-48.37338638305664,3.83891224861145,15.899421691894531,-0.9568380117416382,-1.4472153186798096,-0.03382720425724983,,,,,,,,,
1739375705.7589064,0.11808903505425046,0.9856133912106974,0.23311658095190604,-1.545076048172075,-1.4673877616366329,1.2509918966770148,0.20960422926173347,-9.803778410180566e-07,0.0006234838071091028,-0.00016992014173306794,-0.0006659304240451123,-0.0004591088888463756,0.0006060912900229731,0.0005096318081008273,-0.10798283666372299,-48.40115737915039,3.9380943775177,15.947029113769531,-0.9632467031478882,-1.4334824085235596,-0.04023589566349983,,,,,,,,,
1739375705.7698262,0.11808598744915123,0.9856094436535792,0.23312551008652338,-1.5450729178100597,-1.4673887589882797,1.2509903813568581,0.20959869641836862,0.000545762695742874,0.0003970572960196382,0.0015097352699288066,0.001009919480862587,-0.0012288988951460558,0.00010643124677016299,-0.002059952286504509,-0.10798283666372299,-48.34958267211914,3.8111412525177,15.871650695800781,-0.9568380117416382,-1.4206650257110596,0.0064559997990727425,,,,,,,,,
1739375705.7807944,0.11808448285963483,0.9856133882718081,0.2331187426889334,-1.54507213559921,-1.4673888766720218,1.2509918966770148,0.2096054934483775,-0.0008313970634008827,0.0008295313630287272,-0.00037369229801685947,0.001223517700578789,-0.0019122933762337488,0.0005351699468879573,-6.698381798279237e-05,-0.05640812963247299,-48.40115737915039,3.86271595954895,15.899421691894531,-0.9568380117416382,-1.4334824085235596,-0.04023589566349983,,,,,,,,,
1739375705.7917407,0.11808808940482869,0.9856135348155195,0.23311905212436845,-1.5450725237034837,-1.4673859791757837,1.2509918947389478,0.20960674788717631,0.00021940693656418618,-0.0008238907703115085,-0.00038401419674485013,0.0005039761039982226,0.00039529997527578645,-7.891900763415833e-05,0.00157304792968105,-0.10798283666372299,-48.37338638305664,3.88651967048645,15.871650695800781,-0.9769796133041382,-1.4334824085235596,-0.05396880581974983,,,,,,,,,
1739375705.8017826,0.11808501578795488,0.9856113903685939,0.23311771023719488,-1.545074247930726,-1.467387304870665,1.2509911390169037,0.2096040848635623,0.0008868370777595279,-0.0010200361996485067,-0.0011803518623876663,-0.00021737265983295232,-0.0010906679339689226,2.3607852515328682e-05,-0.0009942594180864625,-0.08021184056997299,-48.37338638305664,3.9142906665802,15.923225402832031,-0.9696553945541382,-1.4270737171173096,-0.027418512850999832,,,,,,,,,
1739375705.8117871,0.11808616053872145,0.9856151004728706,0.2331190512616701,-1.5450739573773302,-1.4673864037875457,1.250991896192498,0.20959941759276826,-0.00018935584136736672,0.0020010311829469244,-0.0008729414132229897,-0.0002463199747463821,0.0001850121485880443,-0.00030734146995691354,-0.001424641468440973,-0.08021184056997299,-48.42496109008789,3.88651967048645,15.923225402832031,-0.9504293203353882,-1.4334824085235596,-0.0008682189509272575,,,,,,,,,
1739375705.8227994,0.11808643497025556,0.9856151006868619,0.23312470612162722,-1.545074607926888,-1.4673831185826303,1.250991139016934,0.20960563770670246,-0.000607127961516707,0.0008629094782891442,0.0018874789361685647,-0.00028104523355120664,-0.0001798515807428482,-0.00035852558099212046,0.0011275481979679458,-0.08021184056997299,-48.42496109008789,3.83891224861145,15.899421691894531,-0.9696553945541382,-1.4270737171173096,-0.04023589566349983,,,,,,,,,
1739375705.8338184,0.11808539582604455,0.9856092839805023,0.23311806619522246,-1.5450728518245893,-1.4673857784103836,1.2509918947389478,0.20960918175385224,-0.0002431112979940582,-0.0007065330157129289,-0.0008655971158466212,0.0010129526200740775,0.0005689169049504597,-4.2908787158308346e-05,0.001001468205944453,-0.05640812963247299,-48.37338638305664,3.9142906665802,15.899421691894531,-0.9696553945541382,-1.4334824085235596,-0.07411040365695953,,,,,,,,,
1739375705.8447235,0.11808248744346304,0.9856094437605692,0.2331200467240151,-1.545078812992212,-1.4673845205890037,1.2509911390169255,0.2096086801561212,-0.0004455398746801828,-0.0006849452789392281,6.074909288656371e-05,-0.001271088015437565,-0.001056578493649767,-0.00012100290149003878,0.0018209603056658634,-0.05640812963247299,-48.34958267211914,3.88651967048645,15.947029113769531,-0.9568380117416382,-1.4270737171173096,-0.04023589566349983,,,,,,,,,
1739375705.8547509,0.1180877777590946,0.9856153016523721,0.23311511970953602,-1.5450730226873102,-1.4673849249715352,1.2509903813568581,0.209602542981529,0.0009398094328308285,0.00043469513433824563,-0.001908406021522589,-0.0010302541160484245,0.00159205325662457,0.000301542707758964,-0.0009515451657014331,-0.1317865550518036,-48.42496109008789,3.9142906665802,15.871650695800781,-0.9504293203353882,-1.4206650257110596,-0.027418512850999832,,,,,,,,,
1739375705.8657248,0.11808225052037617,0.98561795015749,0.2331201133682106,-1.545076857788643,-1.4673852102920644,1.2509926543370933,0.20960331795244008,-0.0007884547929655249,0.0010312885354782232,-0.0004673542190308629,-0.0014080456768852316,0.0018051623520497699,-5.600530389863575e-05,-8.696458603662778e-05,-0.05640812963247299,-48.42496109008789,3.88651967048645,15.923225402832031,-0.9833883047103882,-1.4398910999298096,-0.03382720425724983,,,,,,,,,
1739375705.8758397,0.11808704110117318,0.9856095955465924,0.23312012253101866,-1.5450730891286089,-1.4673847831656506,1.2509911385324197,0.20960736124067894,-0.0002059258626745843,-0.0011393329114281002,-0.0007596736578721504,-0.0010100770423448566,0.00010408934025715677,0.00031206959608041734,0.0022338354423478432,-0.08021184056997299,-48.34958267211914,3.88651967048645,15.899421691894531,-0.9632467031478882,-1.4270737171173096,-0.06678618490695953,,,,,,,,,
1739375705.8858516,0.11808714277275618,0.9856092024470534,0.23312014043557758,-1.5450700557730097,-1.4673848042529005,1.2509918966770066,0.20960565812328963,0.00042174272154509756,-0.0005671936437165268,-5.663863221553121e-05,0.0003975807176986954,-0.0002743170826383513,0.00019499012402556293,-0.00128421709737359,-0.08021184056997299,-48.37338638305664,3.88651967048645,15.871650695800781,-0.9897969961166382,-1.4334824085235596,-0.013685601763427258,,,,,,,,,
1739375705.8968015,0.11808137159449751,0.9856126775837252,0.23311769146213074,-1.5450721354376986,-1.4673849101693377,1.2509935202343256,0.2096112768125749,-0.001858973314054417,0.0003628274054049337,-0.0011916266338382327,0.00011592577847411559,0.000679284755286446,0.0006801607357450994,0.00028288228235812335,-0.004833422601222992,-48.40115737915039,3.9142906665802,15.899421691894531,-0.9769796133041382,-1.4472153186798096,-0.07411040365695953,,,,,,,,,
1739375705.9077866,0.11808427920419029,0.9856163937164893,0.23311625560937194,-1.545072170758969,-1.4673876308082165,1.2509918923163639,0.20960092135044148,0.00013841399886350048,0.0012725612604236763,-0.0006534075015751381,0.0004140106421979693,-0.0014600908050354132,-0.00011992752667329813,-0.0014210657094253227,-0.08021184056997299,-48.45273208618164,3.9380943775177,15.899421691894531,-0.9632467031478882,-1.4334824085235596,-0.013685601763427258,,,,,,,,,
1739375705.9188063,0.11808418760667358,0.9856093902256621,0.23311704299861294,-1.5450739210583557,-1.4673844807033047,1.2509942778943794,0.2095997607460973,-0.0005255697782553018,-0.0008600265704330392,-4.4830654706254233e-05,0.0007160230904731356,0.0017009735926973029,0.0011380232388308758,-0.002105664758291087,-0.08021184056997299,-48.37338638305664,3.88651967048645,15.923225402832031,-0.9568380117416382,-1.4536240100860596,-0.0008682189509272575,,,,,,,,,
1739375705.9297945,0.11808714275784002,0.9856133179524026,0.23312011372424968,-1.5450767801188294,-1.4673852269985437,1.2509918923163639,0.20960139329573782,0.0004178166627758392,-3.1180868809842655e-06,-0.00013347548814216114,-0.0007434167621121218,-0.0006898908257575538,2.0765370933514578e-07,-0.0013655868241473422,-0.08021184056997299,-48.40115737915039,3.88651967048645,15.923225402832031,-0.9568380117416382,-1.4334824085235596,-0.013685601763427258,,,,,,,,,
1739375705.9407246,0.11808913162160127,0.9856096658274345,0.23311803395172845,-1.5450768596441673,-1.4673883675864863,1.2509926543370686,0.20961012266809,0.000578527891466046,-0.001094398906327658,-0.0004441814194743747,-0.0013493342520841316,-0.0024881602950470962,0.0002272835734200971,0.0024633958855489013,-0.10798283666372299,-48.34958267211914,3.9142906665802,15.923225402832031,-0.9568380117416382,-1.4398910999298096,-0.05396880581974983,,,,,,,,,
1739375705.9507902,0.11808318881894792,0.9856150721767242,0.2331239447661522,-1.5450739220559078,-1.467384284904585,1.2509926543370933,0.2096071697301678,-0.001060120992499111,0.0014670750503545282,0.0007414540778623945,3.545436033247656e-05,0.0003231980025141725,0.00039081587093810146,0.0011708524984011793,-0.05640812963247299,-48.45273208618164,3.86271595954895,15.923225402832031,-0.9568380117416382,-1.4398910999298096,-0.027418512850999832,,,,,,,,,
1739375705.9618285,0.11808298466556069,0.9856129860848457,0.2331204565411762,-1.5450725193065156,-1.4673877647346623,1.2509926543370933,0.2096026421630266,-4.915614515432225e-05,0.0005445078826295574,-0.0006609446534653954,0.0018616398897837885,0.0003242518823619627,0.0001612010196514192,-4.51237480590381e-05,-0.05640812963247299,-48.42496109008789,3.88651967048645,15.871650695800781,-0.9568380117416382,-1.4398910999298096,-0.0008682189509272575,,,,,,,,,
1739375705.9727979,0.11808880257196722,0.9856075688798949,0.23312164934667662,-1.5450739210720639,-1.4673845733127642,1.2509918966770148,0.20960256031063795,0.0009023152294688697,-0.0005010207443168512,0.0002792734026158897,-0.0006434491965426085,-0.0010113620087167448,-5.781764077138355e-05,-0.0009382633922212355,-0.10798283666372299,-48.34958267211914,3.88651967048645,15.923225402832031,-0.9632467031478882,-1.4334824085235596,-0.027418512850999832,,,,,,,,,
1739375705.9838207,0.1180840679223287,0.9856095969095695,0.23311871339987486,-1.5450757392018182,-1.4673833566774697,1.2509918966770148,0.209599930195823,-0.0002972624973832606,-0.0014726111536644759,-0.001710152123804461,-0.0014964327961900065,0.0015153428089002266,-0.0005423698997505725,-0.0023763139039205622,-0.08021184056997299,-48.34958267211914,3.86271595954895,15.947029113769531,-0.9632467031478882,-1.4334824085235596,-0.0008682189509272575,,,,,,,,,
1739375705.9947946,0.11808630340452836,0.9856076683145115,0.23312153897923188,-1.5450700556480594,-1.467387304314175,1.2509911390169366,0.2096114640970588,-0.00017534624916229415,-0.0004801949952966707,-0.0004924059562584017,0.0013704488742450952,0.00037305733699135256,-0.00028641294105035,0.0011161678779995985,-0.10798283666372299,-48.32181167602539,3.9142906665802,15.871650695800781,-0.9696553945541382,-1.4270737171173096,-0.06678618490695953,,,,,,,,,
1739375706.0047982,0.11808598675168601,0.9856161451873658,0.2331183625841008,-1.5450785630138644,-1.467388700845973,1.2509903813568581,0.20960028153156865,-0.0009232660577435498,0.0015633830150852451,-0.0009259489683554017,-0.0014722026381660271,0.00024587026365009365,4.74153977639421e-05,-0.001519488317049502,-0.10798283666372299,-48.40115737915039,3.9142906665802,15.947029113769531,-0.9568380117416382,-1.4206650257110596,-0.0072769103571772575,,,,,,,,,
1739375706.0157511,0.11808501535496185,0.985608737854522,0.23312331342391232,-1.545073088946478,-1.467382730340453,1.2509911390169366,0.209604071225287,0.0010186926179684356,-0.00010154274683947073,-0.0002537650583653273,0.0005306665935492278,0.0028360787199608415,-3.5751704529992916e-05,-0.0011798920404027563,-0.08021184056997299,-48.34958267211914,3.88651967048645,15.899421691894531,-0.9696553945541382,-1.4270737171173096,-0.04023589566349983,,,,,,,,,
1739375706.0257807,0.11808913147727011,0.9856151715840092,0.23312319013947747,-1.545075700807884,-1.4673850304135607,1.2509911390169366,0.20960963806111008,0.0010692791411052165,0.0020518002314012566,0.0006279712086350749,-0.0006633818584594721,0.0007554175279549789,3.948001339451916e-06,0.0003528733441850898,-0.10798283666372299,-48.42496109008789,3.88651967048645,15.947029113769531,-0.9769796133041382,-1.4270737171173096,-0.06037749722599983,,,,,,,,,
1739375706.0368593,0.11808430118669874,0.9856106868957832,0.2331201152057713,-1.5450721354376982,-1.4673873069916556,1.2509911390169366,0.20960301670668627,0.0014640217083335203,-0.0009383673458759738,-0.00047406403225515347,0.0006018515085735106,-0.0003320980256592757,-0.00018465198520536036,-7.912375234806919e-05,-0.08021184056997299,-48.37338638305664,3.88651967048645,15.899421691894531,-0.9568380117416382,-1.4270737171173096,-0.027418512850999832,,,,,,,,,
1739375706.047798,0.11808406577909887,0.9856133878411693,0.23311802959546019,-1.545076299357069,-1.4673860849695435,1.2509911383709142,0.2096009192401648,0.00023492076180882935,0.0006754010962979409,-0.0007192997362396789,-0.001172002752255868,-8.178029486811348e-05,-0.00030663469239239956,-0.0017126128087265587,-0.08021184056997299,-48.40115737915039,3.9142906665802,15.923225402832031,-0.9504293203353882,-1.4270737171173096,-0.013685601763427258,,,,,,,,,
1739375706.0587544,0.11808508304913133,0.9856108172240311,0.2331222482785817,-1.5450739179828044,-1.4673850254114453,1.2509911390169328,0.20960097671362535,-0.0001682350702426056,0.00020503006709761423,0.0007997963300004135,-8.155894056199975e-05,0.0015653380905743693,2.481785834424856e-05,-0.0020621712169149047,-0.05640812963247299,-48.40115737915039,3.88651967048645,15.923225402832031,-0.9769796133041382,-1.4270737171173096,-0.013685601763427258,,,,,,,,,
1739375706.069836,0.11809073891295549,0.9856133882229504,0.23311909942593684,-1.5450757007917355,-1.4673837062411033,1.2509911390169366,0.20960755382117105,0.0014548427079710676,0.0009084122746061299,0.0004956037672113389,2.109301173254508e-05,0.0026171112087603637,-8.903864059635086e-06,0.0009971337064303735,-0.1317865550518036,-48.40115737915039,3.9380943775177,15.947029113769531,-0.9632467031478882,-1.4270737171173096,-0.06678618490695953,,,,,,,,,
1739375706.0807452,0.11808609034999984,0.9856076759117868,0.23311803400397696,-1.5450739141901315,-1.4673874189522198,1.2509926485228922,0.20960418309111087,-0.0002033630011829087,-0.0011301630509462258,-0.0008488538449410083,0.0005522579649636199,-0.0006922767056097606,-4.419706155581518e-06,0.0007243286530875929,-0.08021184056997299,-48.32181167602539,3.9142906665802,15.923225402832031,-0.9568380117416382,-1.4398910999298096,-0.04023589566349983,,,,,,,,,
1739375706.0917583,0.1180836865123795,0.9856140948620515,0.23312331732847374,-1.545072135437676,-1.4673878171878334,1.2509926543370604,0.20960568161891166,0.00015988047576498009,0.0007512402444496877,0.00037812794730804003,0.00018168123174248306,-0.0008630260525977133,0.0008535148286139984,-0.0009742648823275007,-0.03260441869497299,-48.40115737915039,3.88651967048645,15.899421691894531,-0.9568380117416382,-1.4398910999298096,-0.05396880581974983,,,,,,,,,
1739375706.1017861,0.11808629912703122,0.9856147858053383,0.23312115236001144,-1.5450736002232783,-1.4673856934335376,1.25098962369678,0.20961325521953794,6.526167188407935e-05,0.0009589120132528083,0.000637200346347515,0.000655393428397533,-1.1678428328185087e-05,-0.000486542261585128,0.001292973109211157,-0.10798283666372299,-48.42496109008789,3.88651967048645,15.923225402832031,-0.9568380117416382,-1.4142563343048096,-0.08692778646945953,,,,,,,,,
1739375706.1127672,0.11808509113381464,0.985612284048581,0.2331222495805516,-1.5450735737305306,-1.4673889792855397,1.2509903813568581,0.20960675001252554,0.00021312219316493408,0.00038392799223308167,0.0006212490836715193,0.00042923030684272994,-8.086966669474538e-05,-0.0004350847973684161,0.0008857459703298128,-0.05640812963247299,-48.42496109008789,3.88651967048645,15.923225402832031,-0.9440206289291382,-1.4206650257110596,-0.05396880581974983,,,,,,,,,
1739375706.1228056,0.11808679590622287,0.9856113816177817,0.23312225058746328,-1.5450700526985712,-1.4673838800054821,1.2509918966770148,0.2096055411278057,0.00026341196737508766,0.0009444784297420397,0.0003438315743674643,0.0012596027416715738,-0.001040691723960067,0.0001181250773976715,7.126699514261778e-05,-0.08021184056997299,-48.37338638305664,3.88651967048645,15.871650695800781,-0.9632467031478882,-1.4334824085235596,-0.013685601763427258,,,,,,,,,
1739375706.1328387,0.1180846157055688,0.985612983207207,0.23312307625196702,-1.5450738121508543,-1.4673844163176593,1.2509926543370933,0.2096086362038657,-0.0012058695034497752,0.0008221147031326135,0.0006731621841886594,-0.00026296712902069654,1.3175806531546283e-05,0.0005015905311578824,0.0018094884030946112,-0.05640812963247299,-48.42496109008789,3.88651967048645,15.923225402832031,-0.9632467031478882,-1.4398910999298096,-0.04756011441349983,,,,,,,,,
1739375706.1437771,0.11808127410155012,0.9856067916147457,0.23312177939448858,-1.54507391778707,-1.4673870581153672,1.2509918443492059,0.2096082680951953,-0.0006706953049580449,-0.0013022228817288375,7.545956822690395e-05,-0.00016914969541201958,4.185318218355548e-05,-0.0002564978022486175,0.0014231976484243936,-0.03260441869497299,-48.34958267211914,3.88651967048645,15.923225402832031,-0.9632467031478882,-1.4334824085235596,-0.06678618490695953,,,,,,,,,
1739375706.1547651,0.11808061594852362,0.9856133882211714,0.23312039049164424,-1.5450721354376962,-1.467382651413062,1.2509918966767195,0.209608879006677,-0.0012414032230106788,0.0012212588628842324,-6.332294197411499e-05,0.0003640940373831374,0.0009182675213150174,4.415172964056924e-05,0.0005470452301939712,-0.03260441869497299,-48.40115737915039,3.88651967048645,15.899421691894531,-0.9696553945541382,-1.4334824085235596,-0.08051909506320953,,,,,,,,,
1739375706.165724,0.11808713460250822,0.9856120317860402,0.2331233160310215,-1.5450759388832664,-1.467385620193224,1.2509911390169366,0.20960583958376974,0.0004731632301697973,0.0003664622311118882,0.0006214833934985232,-0.0008117438184550849,0.0011272999881939113,9.640121268361131e-05,-0.0010281752470882868,-0.08021184056997299,-48.42496109008789,3.88651967048645,15.947029113769531,-0.9833883047103882,-1.4270737171173096,-0.05396880581974983,,,,,,,,,
1739375706.1758626,0.11808619918719256,0.9856170982893998,0.233117200264094,-1.5450692227218983,-1.4673881003311315,1.2509911390169366,0.2096042423449534,0.001620099529334936,0.0022399437459487926,-0.0010065291003139908,0.0018648573147753244,-0.0006074393770572077,-8.880900388446077e-05,-0.0013602605806044387,-0.08021184056997299,-48.45273208618164,3.9380943775177,15.847846984863281,-0.9632467031478882,-1.4270737171173096,-0.013685601763427258,,,,,,,,,
1739375706.1867933,0.1180869755980007,0.9856075703541285,0.23312155523029404,-1.5450696704762135,-1.4673826065203932,1.2509903813568581,0.20960297318278837,0.0019570325556691305,-0.0008881766337272621,0.0006212853985528115,0.0015410004592997994,0.0024490828739521246,-0.0009382342202413861,0.0007465638620080554,-0.10798283666372299,-48.34958267211914,3.86271595954895,15.899421691894531,-0.9696553945541382,-1.4206650257110596,-0.05396880581974983,,,,,,,,,
1739375706.1968493,0.1180825812676829,0.9856126848362123,0.2331176840037288,-1.5450756994417967,-1.46738543385241,1.2509911390169366,0.20960169434925768,0.0001885124344685749,0.0020897153094949876,-0.0013330187283368449,-0.00103801658819161,0.0001821811180883525,-0.00010261308764779645,-0.0021509542700299472,-0.05640812963247299,-48.40115737915039,3.9142906665802,15.947029113769531,-0.9769796133041382,-1.4270737171173096,-0.020094294100999832,,,,,,,,,
1739375706.2068584,0.11808609001366213,0.9856147614930386,0.23311802519724661,-1.5450771524953413,-1.4673864370261305,1.2509918966770148,0.20960541101585733,-0.0003802584292639926,0.0009592442135465981,-0.0010775833259176729,-0.0019190423211091438,-3.2102726220171562e-06,-0.0009795416994360694,0.0009834460472440175,-0.08021184056997299,-48.42496109008789,3.9142906665802,15.970832824707031,-0.9769796133041382,-1.4334824085235596,-0.04756011441349983,,,,,,,,,
1739375706.217747,0.11808348190246876,0.9856133786057784,0.23312306699224705,-1.5450713098556288,-1.4673835122270316,1.2509911383709142,0.20960842037088812,-5.3137679594245546e-05,0.0009838937529133094,0.0007373829897039998,0.0018174917410776017,0.0009419039408476439,-0.00043617116487226066,0.0004167140696465984,-0.03260441869497299,-48.40115737915039,3.88651967048645,15.899421691894531,-0.9632467031478882,-1.4270737171173096,-0.07411040365695953,,,,,,,,,
1739375706.2294269,0.11808398936280545,0.9856112475751199,0.2331179880039404,-1.5450766888808527,-1.467386883684234,1.2509903813568544,0.20960725684551637,-0.000626506049692948,0.0008325626415672063,-0.0012925612520467812,-0.0023509721163545334,-0.00023914182805964134,-0.0002774988968171823,-0.0010870040573864735,-0.08021184056997299,-48.40115737915039,3.88651967048645,15.970832824707031,-0.9632467031478882,-1.4206650257110596,-0.04023589566349983,,,,,,,,,
1739375706.2397962,0.11808594928820561,0.9856113777658253,0.2331204561575905,-1.545072827009398,-1.4673817863223728,1.2509926543370933,0.20960504412893607,-0.00010169254814985603,0.0010217551398410884,0.0005609596136516591,-0.00044484973320892953,0.002446787698858629,0.0004930659260672043,-0.0007508993676903815,-0.10798283666372299,-48.37338638305664,3.88651967048645,15.947029113769531,-0.9769796133041382,-1.4398910999298096,-0.04756011441349983,,,,,,,,,
1739375706.2507825,0.11808398072147056,0.9856082439295647,0.23312295994237003,-1.5450721226302333,-1.4673873092134782,1.2509904838261756,0.20960565677572915,-0.0008143817949694745,0.0006304914691574639,0.0009237367829491086,0.00016768216214260007,-0.0008161393712629264,-0.0008246891108617884,0.0006621611260224168,-0.08021184056997299,-48.37338638305664,3.86271595954895,15.899421691894531,-0.9696553945541382,-1.4334824085235596,-0.04023589566349983,,,,,,,,,
1739375706.2607915,0.11808606263589341,0.9856112478489387,0.23312295995844795,-1.545071066969034,-1.4673873480005157,1.2509879600786218,0.2096064993730091,0.00010316459141991531,-0.0003744361540745242,0.0003338015004566788,0.0016795719779080834,-0.0012575037533001225,-0.0011494841848577657,-0.0005175877599887784,-0.10798283666372299,-48.40115737915039,3.86271595954895,15.899421691894531,-0.9696553945541382,-1.4270737171173096,-0.03382720425724983,,,,,,,,,
1739375706.2727737,0.11808642456554021,0.9856105800773411,0.2331229980211163,-1.5450689564809397,-1.4673849271776978,1.250990381338913,0.2096020402297961,0.0008583835708882142,5.715727038679841e-05,0.00015515334812735463,0.0015436504566587578,-0.0012083709943114718,0.00011117276391837527,-0.000563953885820557,-0.08021184056997299,-48.40115737915039,3.88651967048645,15.899421691894531,-0.9632467031478882,-1.4206650257110596,-0.013685601763427258,,,,,,,,,
1739375706.2837849,0.11808899479021125,0.985611352449896,0.23311692975506731,-1.5450738355470814,-1.4673857779457895,1.250994277894404,0.20960879721688078,0.0016011457896400291,-0.0005194121011456314,-0.0006287195987784972,-0.0005452474740692227,0.0006003467944652821,0.000517258190661934,0.00192928553883961,-0.10798283666372299,-48.37338638305664,3.88651967048645,15.923225402832031,-0.9696553945541382,-1.4536240100860596,-0.04023589566349983,,,,,,,,,
1739375706.2947104,0.1180822263488707,0.9856083478596103,0.2331180343317988,-1.5450709766372956,-1.4673842439299376,1.2509918966770148,0.20959944408528847,-0.0009542318260558111,-0.00019058825638789453,0.0005156152719886695,0.0007106198775572211,0.0012773647546421127,-3.066382748262298e-06,-0.0016333867531868192,-0.05640812963247299,-48.37338638305664,3.9142906665802,15.923225402832031,-0.9568380117416382,-1.4334824085235596,-0.0008682189509272575,,,,,,,,,
1739375706.304829,0.11808227693344873,0.9856130632703537,0.23312011406712524,-1.5450728384107777,-1.4673827681091287,1.250994277894404,0.20960684873866836,-0.0012677590770265531,-0.0003337288754327051,0.0004437147316940309,0.0009556562928077585,0.0002730457012622424,0.0002715957560581382,-0.00014824373900361606,-0.05640812963247299,-48.40115737915039,3.88651967048645,15.947029113769531,-0.9696553945541382,-1.4536240100860596,-0.027418512850999832,,,,,,,,,
1739375706.3157883,0.11808318880119867,0.9856096479217571,0.23311934548194468,-1.5450738911715407,-1.4673842322307098,1.2509935202343256,0.20960171635895677,-0.00028695641745487806,-0.0009667469560227324,-0.000585786297041334,-0.0006902842081658049,9.327387610498741e-05,0.00024188929289072682,-0.0011081722898984407,-0.05640812963247299,-48.34958267211914,3.9380943775177,15.923225402832031,-0.9568380117416382,-1.4472153186798096,-0.020094294100999832,,,,,,,,,
1739375706.326815,0.118082949481317,0.9856133522861525,0.2331215802281587,-1.5450699631793807,-1.46738806229793,1.2509918966770148,0.20960092557579704,0.00015802416046721275,0.0017202288460634934,-0.00013356528259707246,0.00011945602729927709,0.0013114779485505583,-0.000424272542646691,-0.000888775973184739,-0.05640812963247299,-48.40115737915039,3.86271595954895,15.899421691894531,-0.9632467031478882,-1.4334824085235596,-0.013685601763427258,,,,,,,,,
1739375706.3378012,0.11808605744295449,0.9856106767304228,0.2331219007572808,-1.545071656087562,-1.4673877660149186,1.2509926543370933,0.20960382700360114,0.0003662478455467251,-0.00038097129440106583,0.0010741625170978745,8.711634187465666e-05,0.0008377014797538306,0.0001376409894401641,0.001039038285056586,-0.10798283666372299,-48.37338638305664,3.86271595954895,15.923225402832031,-0.9632467031478882,-1.4398910999298096,-0.03382720425724983,,,,,,,,,
1739375706.3478067,0.11808419882953698,0.9856091711931066,0.23312190618471734,-1.545071771328051,-1.4673864556277367,1.2509943179313245,0.20961092666592457,-0.0004945711050227486,0.00064285314385447,0.00010566669468316345,-0.0011477063035091354,-0.0017625151430391418,0.0006038061864377557,0.0042057033813333875,-0.08021184056997299,-48.37338638305664,3.86271595954895,15.923225402832031,-0.9504293203353882,-1.4270737171173096,-0.06678618490695953,,,,,,,,,
1739375706.3587394,0.11808326382601383,0.9856109352370948,0.23311731512213324,-1.5450714181415304,-1.4673870549958838,1.2509918954567505,0.20960418143082907,-0.0006095269147791403,-0.0011886846512619517,-0.0014165429947507258,0.00019618497897901023,-0.00072428418830926,-7.458615011256668e-05,-0.00030051087890082206,-0.05640812963247299,-48.40115737915039,3.9380943775177,15.923225402832031,-0.9632467031478882,-1.4334824085235596,-0.04023589566349983,,,,,,,,,
1739375706.3687837,0.11808501147345174,0.9856105829118996,0.23312319597171,-1.5450714158033145,-1.4673849257823046,1.2509911390168744,0.209608895033426,-0.00045768613042022454,-0.00020621613107059845,4.4280202928329024e-05,-0.000189509749643275,0.0005060526103598018,-0.0006265883534258068,0.00010472861443383964,-0.08021184056997299,-48.37338638305664,3.88651967048645,15.899421691894531,-0.9769796133041382,-1.4270737171173096,-0.05396880581974983,,,,,,,,,
1739375706.3787963,0.11808714554114386,0.9856067542087005,0.2331247455646676,-1.5450727209006532,-1.4673845863921324,1.2509911390169366,0.20960173022073517,0.0014388613765771632,-0.0025136363560025726,0.0016006130410553098,-0.001129564946144039,0.00020042949663413856,-0.00026379588763782277,-0.000899526887267253,-0.08021184056997299,-48.34958267211914,3.83891224861145,15.947029113769531,-0.9632467031478882,-1.4270737171173096,-0.020094294100999832,,,,,,,,,
1739375706.3897967,0.11808395053518199,0.9856105798589252,0.2331202607691647,-1.5450710304386381,-1.4673811287289524,1.2509926543370933,0.2096050438944935,-6.254313560708553e-05,0.0008025976971956922,0.00035152736513760827,0.0005052667212631217,0.0020408419170859986,0.0001565164965516662,-0.0012811622529876718,-0.08021184056997299,-48.40115737915039,3.88651967048645,15.923225402832031,-0.9833883047103882,-1.4398910999298096,-0.04756011441349983,,,,,,,,,
1739375706.399824,0.1180867925018695,0.98561306359531,0.23311961319436333,-1.5450728118117194,-1.4673856185798764,1.2509910212793667,0.20960718124569358,0.0010745026375917747,-0.00034364314936355573,4.568729101451537e-05,0.00023513516158177886,-8.471572099896378e-05,-0.0004638949569659757,-0.0013822532191904119,-0.08021184056997299,-48.40115737915039,3.88651967048645,15.947029113769531,-0.9833883047103882,-1.4270737171173096,-0.027418512850999832,,,,,,,,,
1739375706.4107482,0.11808766099530935,0.9856092581922845,0.23312085092957494,-1.5450728494846067,-1.4673873557529962,1.2509911390162718,0.2096065051143156,0.00020974436944316388,-0.00015465219606583145,0.0016611212767385039,0.0006228977590039931,-0.0008600483681195661,-0.0003719495986509304,-0.0007480567446378708,-0.1317865550518036,-48.37338638305664,3.86271595954895,15.923225402832031,-0.9696553945541382,-1.4270737171173096,-0.03382720425724983,,,,,,,,,
1739375706.4207494,0.11808692199699933,0.9856082348283539,0.23312192309474233,-1.5450742692149988,-1.4673874504706215,1.2509911520988888,0.20960234725683127,0.0007842522379583822,-6.356507779319951e-05,0.00026100375080851486,-0.001056650436946416,-0.0009304464547666975,-0.0005980906348590353,-0.002836327991138186,-0.10798283666372299,-48.37338638305664,3.86271595954895,15.970832824707031,-0.9568380117416382,-1.4270737171173096,-0.013685601763427258,,,,,,,,,
1739375706.4317827,0.11808398678947733,0.9856106754645095,0.23312014011004462,-1.5450739063228156,-1.4673858265569242,1.2509935202343994,0.20960093235509353,-0.0008063943917998228,-0.0016337744406290074,-0.0012203336585505928,-0.0004197205216956844,-0.0002875064769345194,0.0004409817032069365,-0.0023252720445882122,-0.08021184056997299,-48.37338638305664,3.88651967048645,15.923225402832031,-0.9696553945541382,-1.4472153186798096,-0.013685601763427258,750,755,679,38.676,0,0
1739375706.441849,0.1180832112124849,0.9856103423404396,0.23312123330800658,-1.5450717592649539,-1.4673841297631711,1.2509911390169366,0.20960408923407894,-0.0006991797718493742,-0.001519336040779613,-0.0008606282145588262,0.0007007917590131042,-0.0009111399044573747,-0.00023082723219853966,9.490429215508792e-05,-0.05640812963247299,-48.40115737915039,3.9142906665802,15.923225402832031,-0.9696553945541382,-1.4270737171173096,-0.027418512850999832,751,755,676,38.676,0,0
1739375706.4528136,0.11808610744332634,0.9856113556122433,0.23311945361369107,-1.5450753827427557,-1.4673844674069714,1.2509918966770148,0.2096040961219411,4.988792410850931e-05,-0.000889473253549952,-0.0009063673307902031,-0.0019261830602371733,0.001388307630214225,-6.378698942921925e-05,-0.0002721979236474636,-0.08021184056997299,-48.37338638305664,3.9380943775177,15.947029113769531,-0.9632467031478882,-1.4334824085235596,-0.027418512850999832,751,753,681,38.785,0,0
1739375706.4638028,0.11808368330469704,0.9856072209360641,0.23312092160568398,-1.545069985745302,-1.4673868857476076,1.2509903813748031,0.20960528106066129,8.796562218980886e-05,-0.001543716976269584,-0.0009296077592686309,-0.00022232484840534102,0.0001980511403035113,-0.0003331881286367957,-0.0005272659624321492,-0.03260441869497299,-48.34958267211914,3.9142906665802,15.899421691894531,-0.9696553945541382,-1.4206650257110596,-0.04756011441349983,751,755,682,38.785,0,0
1739375706.4757833,0.11808232960153336,0.9856132726663505,0.23311828444888855,-1.5450720290983624,-1.4673885236726323,1.2509918982920707,0.20960932502866292,0.0003148772083017468,-0.0001435100328491003,-0.0003420612706988738,0.0007042281373531219,-0.0021701987268727563,0.000364428230634986,0.0015491504448424053,-0.05640812963247299,-48.40115737915039,3.9142906665802,15.899421691894531,-0.9568380117416382,-1.4334824085235596,-0.04756011441349983,751,754,680,38.785,1,0
1739375706.4867492,0.11808639695896869,0.9856158144329792,0.2331183768487406,-1.545077480379761,-1.4673846250734432,1.250992641255144,0.20960833627636152,3.2084908761477975e-05,0.0025392858347057304,-3.747680020372565e-05,-0.001960176216150495,0.00018260767248732363,-0.00034571229778086797,0.0012217290106793946,-0.08021184056997299,-48.42496109008789,3.9142906665802,15.970832824707031,-0.9568380117416382,-1.4398910999298096,-0.04023589566349983,752,753,681,38.676,0,0
1739375706.4977107,0.11808476590324729,0.9856125706739873,0.23312089052057347,-1.5450728540795808,-1.4673867019924582,1.2509918966769409,0.20960518863884364,0.00020278360287984815,0.0008861761610642037,-0.0012435182956945048,-0.001150687079255682,-0.00032426373647439436,-0.00024459684299061674,-0.0013721047190419795,-0.08021184056997299,-48.40115737915039,3.9142906665802,15.923225402832031,-0.9632467031478882,-1.4334824085235596,-0.013685601763427258,752,756,679,38.785,1,0
1739375706.5078428,0.11808903793708729,0.9856106873451931,0.23312123769550572,-1.5450677911438948,-1.4673829628735178,1.2509903813568581,0.20960732335406973,0.0009515023653244882,-0.0005441372007420525,-0.0008749002220970261,0.0007202380289977254,0.0011801771938370399,-0.0007390281225174062,0.0009493082546256958,-0.10798283666372299,-48.37338638305664,3.9142906665802,15.871650695800781,-0.9769796133041382,-1.4206650257110596,-0.027418512850999832,753,756,679,38.785,0,0
1739375706.518755,0.11808319513233534,0.9856090498581797,0.2331219008133214,-1.5450709388797834,-1.4673885221619398,1.2509911390169366,0.2096050841163555,-0.0006608272844964199,-0.001871200149462723,3.0142017069516845e-05,-0.00013457194658188384,-0.000824543244642959,-0.00023555793520478645,-0.001007642387469665,-0.05640812963247299,-48.37338638305664,3.86271595954895,15.923225402832031,-0.9568380117416382,-1.4270737171173096,-0.04756011441349983,751,755,680,38.785,0,0
1739375706.5298164,0.11808448564347086,0.9856104982231636,0.2331211435525171,-1.5450699504078116,-1.4673886338036772,1.250992706664902,0.20960893451920548,-0.0008354948987635926,-0.0005325960633723518,-0.000578932290807995,0.0006562470894028557,-0.0026104795728847923,0.0003856673289558022,0.0007119446746390443,-0.05640812963247299,-48.40115737915039,3.88651967048645,15.899421691894531,-0.9504293203353882,-1.4398910999298096,-0.05396880581974983,749,756,680,38.785,0,0
1739375706.5398195,0.1180837099330641,0.9856102690496955,0.23312342242546485,-1.5450723830509652,-1.4673818845190927,1.2509918574314534,0.20960844327547976,-0.0012269491685334595,0.0009011063117991512,8.728292008402497e-05,0.00024949257506986903,0.0004619488580826375,0.0002562596326886622,0.0006065265827581083,-0.03260441869497299,-48.40115737915039,3.88651967048645,15.947029113769531,-0.9769796133041382,-1.4334824085235596,-0.04023589566349983,750,755,681,38.785,1,0
1739375706.5507407,0.1180860856232823,0.9856087416732592,0.23312507376437175,-1.5450689433136127,-1.4673825137947443,1.250991139016715,0.20960578120175427,-0.0006346064250810615,-0.0002657115109647235,0.0016877843404732226,0.0008891209285753522,0.0017055640020818088,-0.000336540541236955,-0.00026608638711245804,-0.08021184056997299,-48.34958267211914,3.86271595954895,15.899421691894531,-0.9833883047103882,-1.4270737171173096,-0.027418512850999832,748,757,679,38.785,0,0
1739375706.5617335,0.11808469881686537,0.9856096515605788,0.2331239997557808,-1.5450689197304692,-1.4673831229433179,1.2509926543370933,0.20960539982030757,-0.0003228504254253968,-0.0009033403167926871,0.0004422822374342047,0.0019102397431570858,0.0005379275307901824,0.00019532872393592082,0.0004989139928639613,-0.08021184056997299,-48.37338638305664,3.88651967048645,15.899421691894531,-0.9696553945541382,-1.4398910999298096,-0.04756011441349983,750,758,680,38.785,1,0
1739375706.5718899,0.11808426606933389,0.9856112822129015,0.2331233592714739,-1.5450728030848626,-1.4673862868379413,1.2509926543370933,0.20960492607888118,-0.0006109046121167275,0.0006183894867388842,-0.0001091893609498684,-0.0007705906730978999,3.212229858752226e-05,-0.0001470887746816832,-0.0014829893065616527,-0.08021184056997299,-48.40115737915039,3.9142906665802,15.947029113769531,-0.9696553945541382,-1.4398910999298096,-0.04756011441349983,748,756,676,38.893,2,0
1739375706.5838034,0.11808677693143595,0.985612573582667,0.23312331750321713,-1.545069155643336,-1.4673849382079223,1.2509911390169366,0.20960262166003,0.0010060774034427317,0.0018518687419122272,-0.0001870641863089042,-0.0005506442255281702,-0.000490445960578653,-0.00022427374884427867,-0.002517679705723132,-0.10798283666372299,-48.40115737915039,3.88651967048645,15.899421691894531,-0.9632467031478882,-1.4270737171173096,-0.0008682189509272575,748,756,679,38.785,0,0
1739375706.5948174,0.11808200262007916,0.985603858282986,0.23312509579162688,-1.5450707347865185,-1.467385396192973,1.2509926543370933,0.2096081878815202,-0.00221246409719493,-0.0030443948147169317,0.0008436391950605203,-0.0003323579113711726,-0.0012110796202431395,1.0752621623403246e-05,7.366127703288257e-05,-0.05640812963247299,-48.29800796508789,3.86271595954895,15.923225402832031,-0.9504293203353882,-1.4398910999298096,-0.07411040365695953,749,756,677,38.568,1,0
1739375706.6058025,0.11808371728155898,0.9856140780607238,0.2331251001320811,-1.5450742690696382,-1.467386338607457,1.2509903814106933,0.20960401772704823,-0.00038873111908482904,0.00045054795568054114,0.0007967088010905906,-0.0007416781748781136,-0.00013126262866864843,-0.0004907124158434254,-0.0004407841716797063,-0.03260441869497299,-48.42496109008789,3.86271595954895,15.970832824707031,-0.9769796133041382,-1.4206650257110596,-0.027418512850999832,749,756,679,38.676,1,0
1739375706.6167073,0.11808395450492057,0.9856112693968806,0.23312085207234726,-1.5450679054654959,-1.4673851727565979,1.250991896677015,0.20960489096501633,-0.0004282248426206298,0.0005508813671878319,-0.0004958257635409892,0.0008601394264651407,-0.00026578389008940194,0.00048641844432897847,-0.0012335607850437996,-0.08021184056997299,-48.40115737915039,3.88651967048645,15.871650695800781,-0.9568380117416382,-1.4334824085235596,-0.020094294100999832,750,755,676,38.676,0,0
1739375706.626757,0.11808337081650988,0.9856105715294105,0.2331229996191192,-1.545072482159013,-1.4673865709727023,1.2509918966770148,0.2096075252578974,-0.0010756792068452891,-0.0010381230181889403,0.00047222502319138127,1.2176308509693405e-05,0.000847863020354383,-0.000567948863788019,0.0015953466151792171,-0.03260441869497299,-48.40115737915039,3.88651967048645,15.947029113769531,-0.9632467031478882,-1.4334824085235596,-0.06037749722599983,750,755,680,38.676,1,0
1739375706.636807,0.11808265635383564,0.9856123729266377,0.2331243882185085,-1.5450725218228403,-1.467387357019495,1.2509935202343256,0.20960889374542935,-0.00041176031309229607,0.0001405394107613703,0.001054263282570652,-0.0006922453166482167,-0.00035874489645217284,0.0006737697221287049,-5.918461825695134e-05,-0.03260441869497299,-48.40115737915039,3.86271595954895,15.947029113769531,-0.9696553945541382,-1.4472153186798096,-0.05396880581974983,749,755,679,38.785,2,0
1739375706.6477866,0.11808711612473757,0.9856150892209417,0.23312330868974723,-1.5450707007727666,-1.4673864543251327,1.2509919010376656,0.20960488010094427,0.0008233098817780925,0.0012790125679442695,-2.6873657981062307e-05,-0.00018565447777706349,0.00020965325683594392,7.106255007472379e-05,-0.0008850708284717702,-0.08021184056997299,-48.42496109008789,3.88651967048645,15.923225402832031,-0.9769796133041382,-1.4334824085235596,-0.03382720425724983,752,753,680,38.893,0,0
1739375706.6577969,0.11808594934194268,0.9856065288409004,0.23312296591372536,-1.545068917768034,-1.4673838294405401,1.250991139016961,0.20961107443148247,2.3223715707662465e-05,-0.0005380702995636187,0.0005418344060830523,0.00042303214393532216,1.656704378518186e-05,-0.00046950120698360136,0.002102693369595165,-0.10798283666372299,-48.34958267211914,3.88651967048645,15.899421691894531,-0.9696553945541382,-1.4270737171173096,-0.06037749722599983,752,754,680,38.785,1,0
1739375706.668799,0.11808255757761074,0.9856085781005576,0.23312124108361548,-1.5450716541193676,-1.4673875959299223,1.2509903813568581,0.2096060392315272,-0.0013174357957263867,-0.0011537832700010567,-0.0010503279414198923,-0.0008499625493963645,0.0008360719507259372,-0.00035003158349392613,0.0004676385654961176,-0.05640812963247299,-48.37338638305664,3.9142906665802,15.923225402832031,-0.9632467031478882,-1.4206650257110596,-0.05396880581974983,750,754,681,38.893,1,0
1739375706.6797888,0.11808680419566639,0.985616863716776,0.23312359258472864,-1.5450724821463075,-1.4673880778795665,1.2509926717796962,0.2096088209847966,-0.00030760262999794967,0.0015375694624491184,0.0005254395421484741,0.00017804470555822532,-0.0019845932397115533,0.0008342714460879539,-0.0002337298637047347,-0.08021184056997299,-48.45273208618164,3.88651967048645,15.947029113769531,-0.9632467031478882,-1.4398910999298096,-0.08051909506320953,753,751,681,38.785,0,0
1739375706.6907132,0.11808542133853785,0.9856075419271487,0.23312722183685877,-1.5450724911165912,-1.467385785865336,1.2509926543910268,0.20960510147867406,-0.000210148082132437,-0.00011431133422952987,0.0017895695738023706,0.0002276773195847643,0.001150850544838757,0.0003909334139800655,-0.000314436751741283,-0.05640812963247299,-48.34958267211914,3.86271595954895,15.947029113769531,-0.9696553945541382,-1.4398910999298096,-0.04756011441349983,748,756,681,38.676,1,0
1739375706.7017174,0.11808223823075861,0.9856112820146875,0.23312322963280502,-1.5450724909713882,-1.4673856197617894,1.2509911390169375,0.20960254274374476,-0.0008809563108575257,-0.0016207013786182771,0.0017204267544301776,-0.0008908096456511725,0.00019262130104518138,-0.00021984633199016308,-0.0013789652356139541,-0.05640812963247299,-48.37338638305664,3.88651967048645,15.947029113769531,-0.9833883047103882,-1.4270737171173096,-0.027418512850999832,749,747,681,38.785,1,0
1739375706.711768,0.11808255353592986,0.9856110666287174,0.23311941563417266,-1.5450689462213225,-1.4673885749093096,1.2509903813568581,0.20960140645743763,-0.0009459072298425659,-0.0008299367436970775,-0.00011118715275584574,-0.0003972821061814886,-0.0017230913085711122,-0.0006321235024074919,-0.002633207794789524,-0.05640812963247299,-48.37338638305664,3.9380943775177,15.899421691894531,-0.9504293203353882,-1.4206650257110596,-0.013685601763427258,746,754,680,38.785,1,0
1739375706.7227488,0.11808305446641673,0.9856129832018726,0.23312088308492862,-1.5450746321602633,-1.4673862973896405,1.2509926543370933,0.2096049678454276,-0.0011452001100359422,0.0008299648962538705,-0.0005307629376342018,-0.0003407829540642358,-0.0010081982358488724,0.00032370342459903687,-0.0016156217176901144,-0.03260441869497299,-48.42496109008789,3.9142906665802,15.947029113769531,-0.9696553945541382,-1.4398910999298096,-0.04756011441349983,748,752,681,38.785,1,0
1739375706.7327604,0.11808396207907139,0.9856096777995919,0.2331208389041077,-1.5450706994760361,-1.467385174689544,1.2509911404704868,0.2096082821681861,9.446340218381591e-05,-2.1531954050328574e-05,-0.0007127553742535044,0.0006313607166026858,0.0019484720903435364,-0.000213349584455717,-0.0006203409129489895,-0.08021184056997299,-48.34958267211914,3.88651967048645,15.923225402832031,-0.9568380117416382,-1.4270737171173096,-0.04756011441349983,748,754,682,38.785,1,0
1739375706.7427723,0.11808673634726258,0.9856104675637735,0.23311934071971474,-1.545077001169273,-1.4673822037211934,1.2509926543371177,0.2096091934463745,-0.0008766957180818153,-0.0005278508931570674,-0.0019308370667941673,-0.0019595811342830883,0.0014363120412734971,-0.0002895733233710097,0.0003520516189956255,-0.05640812963247299,-48.40115737915039,3.9380943775177,15.994636535644531,-0.9833883047103882,-1.4398910999298096,-0.04756011441349983,749,754,681,38.785,0,0
1739375706.7527761,0.11808542248120245,0.9856104641973903,0.23312510448659846,-1.5450707004611963,-1.4673871849824158,1.2509918966770148,0.20960405959583422,0.0010903518441388578,0.00046239675136105737,0.0009560946983250218,-2.259076123175348e-05,8.296581773469021e-05,0.0008486616149406418,-0.0006323755122474537,-0.05640812963247299,-48.40115737915039,3.86271595954895,15.923225402832031,-0.9696553945541382,-1.4334824085235596,-0.04023589566349983,748,753,681,38.893,1,0
1739375706.7628145,0.11808460553494557,0.9856137534906931,0.23312099745685677,-1.5450782050359422,-1.4673841689225182,1.2509935202343256,0.20960897845983184,0.0005455270202145275,0.000893812102666946,-0.001021154076149876,-0.0027742358991742267,0.0017661048203270644,0.00025055441541374805,0.0010623193384266681,-0.05640812963247299,-48.40115737915039,3.9142906665802,15.994636535644531,-0.9696553945541382,-1.4472153186798096,-0.08051909506320953,749,751,681,38.785,1,0
1739375706.773718,0.1180822771635276,0.9856094404576003,0.23312118133124546,-1.5450706994760786,-1.4673863016963786,1.2509918966770148,0.20960016152413097,-0.0011252333354918192,-0.0010398120257124723,5.51918617485684e-05,8.430725180666085e-06,1.206306748295848e-05,0.0002881081864616154,-0.0017903250742489123,-0.05640812963247299,-48.34958267211914,3.88651967048645,15.923225402832031,-0.9696553945541382,-1.4334824085235596,-0.0072769103571772575,750,752,681,38.785,1,0
1739375706.783789,0.11808464348066242,0.9856130412763843,0.2331273046595691,-1.5450668369970249,-1.4673837571057124,1.2509879601025484,0.2096025139429418,-0.00017981575649122128,0.0012345308897174152,0.00045761229785248696,0.0008530414213512408,-0.0009764751734896964,-0.0009285459388074623,-0.0017451258043326451,-0.05640812963247299,-48.40115737915039,3.86271595954895,15.871650695800781,-0.9632467031478882,-1.4270737171173096,-0.013685601763427258,750,760,682,38.676,1,0
1739375706.7947767,0.11808469978379785,0.985614754116251,0.23312510031359998,-1.5450689139524572,-1.4673870065421164,1.2509903811415173,0.20960797354644164,0.00040496190552890014,0.0012534324654044997,0.0009623421668147607,0.00082245496251452,0.0004380907019913023,-0.00021450073156962336,-0.0007692019714172056,-0.08021184056997299,-48.42496109008789,3.86271595954895,15.899421691894531,-0.9632467031478882,-1.4206650257110596,-0.03382720425724983,750,750,680,38.676,0,0
1739375706.804802,0.1180839513513629,0.9856111433802084,0.23312304100377781,-1.5450706881261913,-1.4673881172836016,1.2509918966770135,0.20960732124962292,-0.0014591482914901852,0.000539333549283985,-0.002067412735494218,0.0004432848918609974,-0.0003462150361182634,0.00035158150695899617,0.0006835550556750686,-0.08021184056997299,-48.37338638305664,3.88651967048645,15.923225402832031,-0.9632467031478882,-1.4334824085235596,-0.027418512850999832,750,753,680,38.785,0,0
1739375706.8167844,0.11808913192836332,0.9856102335589594,0.2331264362957277,-1.5450706994638352,-1.4673855616464533,1.2509918966770148,0.20961042079905687,0.0018039182389718263,-5.957601973657282e-05,0.0005035783458836969,-0.0001917593879756405,-0.0004959163383182351,0.00019153793164127013,-0.0010199244258673262,-0.10798283666372299,-48.40115737915039,3.88651967048645,15.923225402832031,-0.9833883047103882,-1.4334824085235596,-0.05396880581974983,750,751,680,38.893,1,0
1739375706.8277872,0.118081131112468,0.9856084773208008,0.23312089635931615,-1.5450724850843576,-1.4673871856341245,1.2509918966770148,0.2096008320538351,-0.0016135850481420317,-0.0006839890154615214,-0.00024396207497368917,-0.0008074792721487828,-0.0002782751302043203,-0.0002834116404335242,-0.004015757427000912,-0.03260441869497299,-48.37338638305664,3.9142906665802,15.947029113769531,-0.9696553945541382,-1.4334824085235596,-0.0008682189509272575,750,752,681,38.785,1,0
1739375706.838706,0.11808703750272026,0.9856139874943007,0.2331233301222626,-1.545072845231161,-1.4673861355640627,1.2509918966770148,0.2096031160548126,0.0009698235536857181,0.001054172695665451,0.0004310565000488515,-0.0012189432729598152,-0.00022617279386286343,0.0002479152386937005,-0.0017526507484887683,-0.08021184056997299,-48.40115737915039,3.88651967048645,15.923225402832031,-0.9440206289291382,-1.4334824085235596,-0.0008682189509272575,749,753,681,38.893,1,0
1739375706.8487813,0.11808223819427294,0.9856090490174878,0.23311739792833291,-1.5450648592656755,-1.4673825997132366,1.2509911390169366,0.20960422991436958,-2.2203424445693697e-05,-0.0009538183018753141,-0.0015641263448789551,0.0024052390118862684,0.0011712591491824585,-0.0004494465237211782,-0.0011096394990400744,-0.05640812963247299,-48.37338638305664,3.9380943775177,15.847846984863281,-0.9696553945541382,-1.4270737171173096,-0.04023589566349983,750,754,680,38.785,1,0
1739375706.8597808,0.11808224997710193,0.9856133881172499,0.23312300199580047,-1.5450668373229726,-1.467386990670337,1.2509922498897246,0.20960730085566723,-0.0006420685624453127,-0.000833476967783395,-0.0010939133737942273,-0.00018568455830348567,-0.0002999669061645538,1.1519772447034297e-05,0.0007159067880122048,-0.05640812963247299,-48.40115737915039,3.88651967048645,15.871650695800781,-0.9696553945541382,-1.4334824085235596,-0.027418512850999832,753,755,680,38.785,0,0
1739375706.8707824,0.11808329413725883,0.9856066266366328,0.2331243015037776,-1.5450706993589225,-1.4673874444390844,1.2509918966790088,0.20960655825739347,-0.00035850706620696904,-0.002957665607258743,0.00029329049544192125,-0.0006739603669640354,-7.72641102658074e-05,-0.0011391054997229614,0.0011541346334344974,-0.05640812963247299,-48.34958267211914,3.88651967048645,15.923225402832031,-0.9568380117416382,-1.4334824085235596,-0.03382720425724983,750,753,681,38.785,1,0
1739375706.8817508,0.1180864056976685,0.9856126602452653,0.23312260899035053,-1.5450728452311104,-1.4673833510905399,1.2509914409949874,0.20960604505911007,0.0002098598557177502,-0.0011579037084981062,-0.001345276877547095,-0.0004047145307914364,0.0007045617088018804,0.0004010767176878088,-0.000861367876699692,-0.08021184056997299,-48.40115737915039,3.9380943775177,15.923225402832031,-0.9632467031478882,-1.4206650257110596,-0.04756011441349983,750,755,680,38.785,0,0
1739375706.8917778,0.11808258865349325,0.98561107820839,0.233124395983349,-1.5450707025526935,-1.4673864424710175,1.2509918966949598,0.20960773075620295,0.00047544168365044534,-0.001546154032964105,-0.00018603886796908552,0.0004569389441825288,-0.001380132495203647,0.00022361621166857746,0.00024091508501251257,-0.05640812963247299,-48.37338638305664,3.9142906665802,15.923225402832031,-0.9504293203353882,-1.4334824085235596,-0.04023589566349983,751,755,682,38.785,0,0
1739375706.902711,0.11808021971006244,0.9856133757170007,0.23312426235306805,-1.545070700445063,-1.4673881191560953,1.2509903813568581,0.20960626142953576,-0.001449018677030095,-0.00010301327783142933,0.00043423177285377825,-0.00012776910263400727,-0.0009419402956733624,-0.0005115697207595117,-0.0009459952425630269,-0.05640812963247299,-48.40115737915039,3.88651967048645,15.923225402832031,-0.9632467031478882,-1.4206650257110596,-0.027418512850999832,752,755,683,38.676,0,0
1739375706.9127212,0.11808318584380194,0.9856105762066467,0.23312219422612596,-1.5450690227507096,-1.467382082692091,1.2509903813568581,0.2096061497091794,0.0006053408052291358,0.000799771655825987,3.872069394369451e-05,0.000914931085378566,5.9877363778555845e-05,-0.0012955083306227695,0.0012139312600019632,-0.05640812963247299,-48.37338638305664,3.9142906665802,15.899421691894531,-0.9769796133041382,-1.4206650257110596,-0.04756011441349983,751,757,680,38.785,1,0
1739375706.9227338,0.11808808017009055,0.9856126852861049,0.2331208300968694,-1.5450742648197318,-1.467383816284087,1.2509903813568581,0.20960569545273844,0.0010396336081218852,-0.0003419390910479209,-0.0006615043172312268,-0.0011541226289860287,-3.16462967901906e-05,-0.0008229016682880364,-0.0007761042535073916,-0.10798283666372299,-48.40115737915039,3.88651967048645,15.970832824707031,-0.9696553945541382,-1.4206650257110596,-0.05396880581974983,752,755,680,38.785,0,0
1739375706.9327738,0.11808337081649022,0.9856140780765313,0.23312260542049992,-1.5450689197303196,-1.4673844541631438,1.2509911390169366,0.2096057127262476,0.00023794695312718737,0.0006009687023658151,-0.0003537508415896067,0.0006565491454829317,0.0005285796237934345,0.00042891691242889773,-2.6754395806381738e-05,-0.03260441869497299,-48.42496109008789,3.88651967048645,15.899421691894531,-0.9632467031478882,-1.4270737171173096,-0.013685601763427258,751,754,680,38.785,1,0
1739375706.9427972,0.1180831878787944,0.9856083381886147,0.23311731528082577,-1.5450706994639158,-1.467385984000263,1.2509911390169366,0.2096071653984245,-0.0005757720924564419,-0.0005092103318623338,-0.0015719058721109197,6.608448765567856e-05,-0.00011478103978257307,-0.00036197906479635514,-0.0005030739795400074,-0.05640812963247299,-48.37338638305664,3.9380943775177,15.923225402832031,-0.9769796133041382,-1.4270737171173096,-0.027418512850999832,752,754,681,38.785,0,0
1739375706.9537418,0.11808150746426256,0.9856087066498064,0.23312331747916187,-1.5450689934253168,-1.467382599734377,1.2509911404704868,0.2096056555010259,-0.0003981452680854002,-0.001062067898416236,-0.00029987771254886,0.0007126294678704143,0.0022226778531322824,0.00039607910507696734,-4.498808398421464e-05,-0.03260441869497299,-48.34958267211914,3.88651967048645,15.899421691894531,-0.9696553945541382,-1.4270737171173096,-0.04023589566349983,752,755,680,38.893,0,0
1739375706.9637783,0.11808360748770771,0.9856110754223388,0.23312028844222749,-1.5450706966307741,-1.4673845794668363,1.250991139016961,0.20961088132763472,-0.0005786718807566322,-0.000420152966688869,-0.0009662249916048295,-0.0005164212320718136,0.0014135384037728318,-0.0007535832548203337,0.0026298813151525748,-0.03260441869497299,-48.37338638305664,3.9142906665802,15.923225402832031,-0.9568380117416382,-1.4270737171173096,-0.06037749722599983,756,752,683,38.785,0,0
1739375706.9757085,0.11808518428824104,0.9856148292325587,0.23312513807330862,-1.545068916786864,-1.467381768162628,1.2509911390169366,0.20961199348466628,0.00016296658217996234,0.0014363685529755147,-8.472041064368381e-05,0.00046300867538793524,0.0018811956180798395,-0.001000524160253897,0.0009338444495263362,-0.05640812963247299,-48.42496109008789,3.86271595954895,15.899421691894531,-0.9769796133041382,-1.4270737171173096,-0.06678618490695953,756,753,681,38.785,1,0
1739375706.9857535,0.11808398979578509,0.9856104279600248,0.23312125033840167,-1.54506891678688,-1.467385697893118,1.2509918966770148,0.20960721597925294,-0.0008089375830697874,0.0005302787248299992,-0.0008925243137984675,0.0018076296879760358,0.0004961716288188643,-0.000575278363819998,-0.00032974640520653023,-0.08021184056997299,-48.37338638305664,3.9142906665802,15.899421691894531,-0.9568380117416382,-1.4334824085235596,-0.06678618490695953,758,754,682,38.785,1,0
1739375706.9957829,0.11808608134777712,0.9856103676343647,0.2331233894122166,-1.5450710367293494,-1.4673896340097532,1.2509911390169366,0.20960567144705902,-0.0002417705128479911,-0.0018896747768214512,0.0006180064073563415,-6.968864639276867e-05,-0.0006465044814019299,-4.894049032585265e-05,-0.00020687098964728258,-0.08021184056997299,-48.37338638305664,3.9142906665802,15.899421691894531,-0.9504293203353882,-1.4270737171173096,-0.013685601763427258,756,755,681,38.785,1,0
1739375707.0067148,0.11808542977867581,0.9856160458740462,0.23312578459605043,-1.545070702314327,-1.4673862605843098,1.2509911390169366,0.20960563968363155,0.00042763510449491315,0.0011574521917725158,0.0010635957258113918,-0.001037646979047181,-0.00062606163086156,0.0004106679664510665,0.0007626884751145563,-0.05640812963247299,-48.45273208618164,3.88651967048645,15.923225402832031,-0.9696553945541382,-1.4270737171173096,-0.04023589566349983,758,755,680,38.785,1,0
1739375707.0168233,0.11808500769524663,0.9856129561905067,0.23312113235348741,-1.5450689530029402,-1.467384924504857,1.2509918966770148,0.20960575525495553,-5.752838963943966e-05,0.0010317522716985182,-0.0004941987534741558,0.0006034016010916981,-0.001189224810199748,0.0009149554078655241,-0.000870440439293318,-0.08021184056997299,-48.42496109008789,3.9142906665802,15.871650695800781,-0.9504293203353882,-1.4334824085235596,-0.027418512850999832,759,753,679,38.676,1,0
1739375707.027749,0.11808396308923198,0.9856132741622597,0.23312052579282116,-1.5450689158460542,-1.4673862971340437,1.2509911390169366,0.20961279456780718,0.0004058447054887408,-0.0003010126600617607,7.083203977769706e-05,0.0009894878810785446,0.0003043640696830909,-1.7506699676403002e-06,0.0024268484561116134,-0.08021184056997299,-48.40115737915039,3.9142906665802,15.899421691894531,-0.9504293203353882,-1.4270737171173096,-0.08692778646945953,756,754,681,38.676,1,0
1739375707.0387704,0.11808224077528241,0.9856131538397874,0.23312123768932902,-1.5450706994638834,-1.4673881039899057,1.2509926543370933,0.20960569548645047,0.00022982789464532963,0.00027702928922241076,-0.0008914215594384495,-0.0003581770812696054,-0.0004560320302744917,0.00019098288280008227,-0.001509903335994632,-0.05640812963247299,-48.40115737915039,3.9142906665802,15.923225402832031,-0.9632467031478882,-1.4398910999298096,-0.05396880581974983,754,753,680,38.785,1,0
1739375707.0487888,0.118082474759325,0.9856123737933299,0.23312576125442244,-1.5450742648179372,-1.467384935952825,1.2509918966770148,0.20961123596254613,-0.0005925585551263901,-5.796658839182591e-05,0.0016880091377615282,-0.0015823396070568708,0.0008345288030344721,8.385467186673231e-05,0.001475765669475511,-0.05640812963247299,-48.40115737915039,3.88651967048645,15.970832824707031,-0.9632467031478882,-1.4334824085235596,-0.06037749722599983,752,755,682,38.785,0,0
1739375707.060753,0.11808060425363935,0.9856131528730161,0.23312253748189996,-1.5450703933462175,-1.467386456191472,1.2509911390169366,0.20960934867257008,-0.0006873133760369,-0.00046950118920314305,0.0006944394571520012,-0.0002708595017789404,0.0004895832919380541,-0.0007501600841037554,0.0026068566177368255,-0.03260441869497299,-48.40115737915039,3.9380943775177,15.923225402832031,-0.9769796133041382,-1.4270737171173096,-0.04756011441349983,753,754,682,38.676,1,0
1739375707.070759,0.11808702861565153,0.9856133757530996,0.23312332139688827,-1.545070778900038,-1.4673882079690699,1.2509903813568581,0.20960723645404303,0.0022425597413954484,-9.653490447310716e-05,0.0003747440108143842,0.0003439419810559126,-0.0025174770385565366,-0.00031168225557993604,0.001438640591045176,-0.08021184056997299,-48.40115737915039,3.88651967048645,15.923225402832031,-0.9504293203353882,-1.4206650257110596,-0.06678618490695953,753,754,683,38.785,1,0
1739375707.0818384,0.1180839854661607,0.9856112792463486,0.23312510027628877,-1.5450724821413668,-1.467388119004556,1.2509903813568581,0.20960325670614563,0.0011281172451195521,-4.6331874801558274e-05,0.0008714092292940929,-0.0004913110345008656,-0.001475227299392527,-0.0005692757526643085,-0.0016756543134236223,-0.08021184056997299,-48.40115737915039,3.86271595954895,15.947029113769531,-0.9632467031478882,-1.4206650257110596,-0.020094294100999832,752,755,683,38.785,1,0
1739375707.0928235,0.11808193110932352,0.9856103370863124,0.2331191018682814,-1.5450706994638994,-1.4673820351720606,1.2509903813568581,0.20960849927953626,-0.00044569776910481174,-0.000873864719433009,-0.001551493342372385,0.00022380271626882257,0.001879269375125111,-0.0013022306285764235,-0.0002611578726481855,-0.08021184056997299,-48.40115737915039,3.9142906665802,15.923225402832031,-0.9833883047103882,-1.4206650257110596,-0.04023589566349983,751,758,682,38.893,2,0
1739375707.1038396,0.11808123560862194,0.9856124483903168,0.23311945468677464,-1.5450760476820335,-1.4673873557327677,1.2509935202343256,0.20959902357061574,-0.0005020970434561724,0.0005562864049833763,-0.0014392956676889453,-0.0016625423722615232,-0.0008006025883706392,0.0008788275504775802,-0.0018992770671409538,-0.03260441869497299,-48.40115737915039,3.9380943775177,15.994636535644531,-0.9696553945541382,-1.4472153186798096,0.012864691205322742,755,752,684,38.785,1,0
1739375707.1138458,0.1180825100277535,0.985614161875332,0.23312335637370418,-1.5450706626164037,-1.4673865314664656,1.2509918966770148,0.2096030181181471,0.0005667173023741528,0.0012351651235076662,4.1563608253071766e-05,0.0005989042521787002,-0.0005718325682517,-0.00022697338464155352,-0.0007381465307952797,-0.05640812963247299,-48.42496109008789,3.88651967048645,15.923225402832031,-0.9632467031478882,-1.4334824085235596,-0.027418512850999832,754,756,683,38.893,0,0
1739375707.1247733,0.11808294717329952,0.9856103105826158,0.2331232341550185,-1.5450683257914977,-1.4673860452211434,1.2509911390169366,0.2096043681323699,-0.00045650907779782885,-0.0007865806398580498,-0.0006415181731018128,0.0010723804683251056,0.0002189935094812249,-0.00019344133523403604,-0.0005866474076565687,-0.05640812963247299,-48.40115737915039,3.88651967048645,15.923225402832031,-0.9504293203353882,-1.4270737171173096,-0.03382720425724983,751,755,683,38.785,1,0
1739375707.1357634,0.11808515793177163,0.9856133877921006,0.2331234354342599,-1.5450706227811077,-1.4673888592098225,1.2509918966770148,0.2096029391208332,-0.0007815804347327944,0.00027436427553457685,0.0007949411939721066,-0.00025495969090004596,-0.0010457371005504594,0.001189309707340943,-0.002160682629278441,-0.05640812963247299,-48.40115737915039,3.88651967048645,15.923225402832031,-0.9568380117416382,-1.4334824085235596,-0.027418512850999832,754,755,684,38.785,1,0
1739375707.1457758,0.11808149870638748,0.985612452116783,0.23312649321756873,-1.5450724821404855,-1.4673879491624713,1.2509911390169366,0.20961046069883618,0.0001493339389293649,0.0004109423929709696,0.0008725738851332485,-0.0008391902314911012,-0.0007216851057287592,-0.0011367577870137887,0.0006754758809737028,-0.03260441869497299,-48.40115737915039,3.88651967048645,15.947029113769531,-0.9632467031478882,-1.4270737171173096,-0.05396880581974983,752,752,685,38.893,0,0
1739375707.156766,0.1180829689705568,0.9856133505690775,0.2331219377068838,-1.5450688912770734,-1.467384927069144,1.2509918966770148,0.20960540443359588,3.152818378927846e-05,0.0006449012095744125,-0.0006349699303267617,0.00042644579088097943,0.00026842169846392415,0.00031246506901172445,-0.0008571590978881208,-0.03260441869497299,-48.40115737915039,3.9142906665802,15.899421691894531,-0.9632467031478882,-1.4334824085235596,-0.04756011441349983,752,753,684,38.893,1,0
1739375707.167813,0.11808295987412996,0.9856142778533391,0.2331251001801145,-1.5450688912766413,-1.467382638767557,1.2509926543370933,0.2096057407818001,-0.00015459009812954753,5.3826587157362535e-05,0.0001323636129048982,0.001500123337586719,0.00014893386819612897,0.00028052304015953094,0.00011379283687547738,-0.05640812963247299,-48.45273208618164,3.86271595954895,15.899421691894531,-0.9696553945541382,-1.4398910999298096,-0.05396880581974983,755,753,683,38.785,1,0
1739375707.1788125,0.1180822379977726,0.9856129909058629,0.23312518326153642,-1.5450742648178892,-1.4673865879128514,1.2509926543370933,0.20960611496555526,-0.0009938034464924569,0.0006219112860029593,0.00047049484297676024,-0.0013642348495070738,0.0012135383681267384,-5.728196050232073e-05,-0.0011989730466208568,-0.05640812963247299,-48.42496109008789,3.86271595954895,15.970832824707031,-0.9632467031478882,-1.4398910999298096,-0.020094294100999832,751,752,683,38.785,0,0
1739375707.190784,0.11808227715016278,0.9856130748300266,0.23312519186655184,-1.5450688402574597,-1.4673870078620006,1.2509935203958311,0.2096060799414305,0.00011175075026727244,0.0012206043976166476,-7.104964414850071e-05,0.0014180726001945467,-0.0011695050045940757,0.00019212350289781914,0.0003029577883751017,-0.05640812963247299,-48.40115737915039,3.86271595954895,15.899421691894531,-0.9696553945541382,-1.4472153186798096,-0.020094294100999832,752,754,683,38.785,1,0
1739375707.200792,0.11808223828532705,0.9856113084774594,0.2331234000084937,-1.5450706956842366,-1.467382716988322,1.250990381356859,0.209611178782046,-0.00029067015539182563,-0.00037924380174899014,0.0016953235942372379,-0.00015004496305132662,0.0012761608861160147,-0.00014464514366526758,-0.00013715577515458648,-0.05640812963247299,-48.37338638305664,3.88651967048645,15.923225402832031,-0.9696553945541382,-1.4206650257110596,-0.06037749722599983,751,753,684,38.893,1,0
1739375707.2117095,0.11808611176795022,0.9856110435174179,0.23312158022760182,-1.545072482140897,-1.4673838411880162,1.2509926543370933,0.2096002056457286,0.0006964917155669112,-0.0004385442037849388,-0.0007327033245419384,-0.0010255410313235954,0.0004514079152787869,0.0005828998094815754,-0.001852730260204695,-0.08021184056997299,-48.37338638305664,3.9142906665802,15.947029113769531,-0.9632467031478882,-1.4398910999298096,-0.0072769103571772575,751,754,681,38.785,1,0
1739375707.2218242,0.11808227166857385,0.98561056738652,0.23312332916178224,-1.5450717933761342,-1.4673830773983305,1.250991909758967,0.20960579872936605,0.0005290623399068637,-0.0006987596873323793,0.0008181012804333717,-0.0006358809780107576,0.0002015145792419857,0.00023023869251691714,0.0002109559855538508,-0.05640812963247299,-48.40115737915039,3.88651967048645,15.947029113769531,-0.9696553945541382,-1.4334824085235596,-0.027418512850999832,753,751,683,38.893,1,0
