IITGN-Robotics/Franka_IITGN_ROBOTICS/franka_ros/franka_iitgn/data/s_b_004.csv
time,fr3_joint1_pos,fr3_joint2_pos,fr3_joint3_pos,fr3_joint4_pos,fr3_joint5_pos,fr3_joint6_pos,fr3_joint7_pos,fr3_joint1_vel,fr3_joint2_vel,fr3_joint3_vel,fr3_joint4_vel,fr3_joint5_vel,fr3_joint6_vel,fr3_joint7_vel,fr3_joint1_eff,fr3_joint2_eff,fr3_joint3_eff,fr3_joint4_eff,fr3_joint5_eff,fr3_joint6_eff,fr3_joint7_eff,flexpin1,flexpin2,flexpin3,Force,ContactMic,ContactMic_gt
1739374384.6412752,0.12549649951602726,0.986141488368143,0.22551626021788057,-1.542713345968108,-1.4619213348690063,1.2539739019491327,0.20261644572790116,0.0008422685387885105,-0.0008650190314188149,0.0018525899878266022,0.0007130609130096056,-0.00011467187020163764,-0.0010665206149228898,0.0013681973164084878,-0.6792718768119812,-48.27420425415039,3.45805287361145,16.09381866455078,-1.0163472890853882,-1.3153793811798096,-0.05396880581974983,,,,,,,,,
1739374384.65225,0.12547861270943306,0.9861390685329291,0.22555494862655878,-1.5427165123244375,-1.461917439501748,1.2539680703758094,0.20261487680238768,-0.001371875963077274,-0.001132964510070915,0.0011637557907689547,-0.0012534679097078727,0.000604585499432299,-0.0020336279725984346,0.0005565261774616225,-0.3817255198955536,-48.27420425415039,3.5334312915802,16.12158966064453,-1.0227559804916382,-1.2760117053985596,-0.04023589566349983,,,,,,,,,
1739374384.6622524,0.12547466943394944,0.9861352341307881,0.22556121001073529,-1.5427152592999076,-1.4619209385284373,1.2539674644617014,0.202615232279512,-0.0006486377665730605,-0.0018275388276895903,0.0006592042433573519,-0.0017785426604367222,0.0011213104555828463,2.7259425887262323e-05,-2.0515797400109947e-05,-0.3301508128643036,-48.19485855102539,3.58500599861145,16.09381866455078,-1.0227559804916382,-1.2888290882110596,-0.0072769103571772575,,,,,,,,,
1739374384.674275,0.12547755645290792,0.9861410957879155,0.22556443842356885,-1.54271157916848,-1.4619174547006968,1.2539676575115475,0.20261801597420953,0.0013532530328367654,0.0005205411627496414,0.0011423586334617275,-0.00044314676710008696,0.0008056806641251533,-0.00035426718815719394,0.0007408852479471341,-0.3301508128643036,-48.27420425415039,3.5572350025177,16.04621124267578,-1.0163472890853882,-1.3025619983673096,-0.06678618490695953,,,,,,,,,
1739374384.6862288,0.12547292191991505,0.9861357770713437,0.22556759331230863,-1.5427161723006264,-1.4619172763791917,1.2539678120163098,0.2026201664552759,-0.0002449394896953345,-0.0005123944286366691,-0.00019296752425162047,-0.0020541980900288265,0.0018628616955414267,0.0002632299602605772,0.0009776132589753958,-0.3063471019268036,-48.19485855102539,3.58500599861145,16.14539337158203,-1.0227559804916382,-1.2952377796173096,-0.05396880581974983,,,,,,,,,
1739374384.6972408,0.12547078316513813,0.9861391664711577,0.22557079592462526,-1.5427066516891736,-1.461921276079771,1.2539683774308397,0.2026181296824859,0.00032381963693293243,0.00190833587488717,0.0001663474647227161,0.000918742086783005,-0.0002938122420052438,0.0008012224591410492,-0.00044202808870231775,-0.3063471019268036,-48.24643325805664,3.58500599861145,16.04621124267578,-1.0163472890853882,-1.3089706897735596,-0.027418512850999832,,,,,,,,,
1739374384.7081857,0.12547283891267327,0.9861445984632577,0.22557563153121413,-1.5427160692243234,-1.4619158186991974,1.253965994700086,0.20261819298242098,0.000800494424636219,0.0003686898418593814,0.0006703608262367842,-0.0007201122134105214,-7.280692181603525e-05,-0.0007710270040911356,-2.6668774688120927e-05,-0.3063471019268036,-48.32181167602539,3.5334312915802,16.14539337158203,-1.0291646718978882,-1.2888290882110596,-0.06678618490695953,,,,,,,,,
1739374384.7202458,0.1254745484709886,0.9861402377766781,0.22557393224078703,-1.5427142865974175,-1.4619208855906085,1.2539645191103,0.20261969397886329,0.0008455960217775604,-0.0012254047192392867,0.00203202082646223,0.00022319091705986764,-0.0007803005925577284,-0.0004336771640121858,-0.00034554924013041074,-0.3301508128643036,-48.27420425415039,3.5572350025177,16.12158966064453,-1.0227559804916382,-1.2760117053985596,-0.04023589566349983,,,,,,,,,
1739374384.7312837,0.12547288253787195,0.9861449833488048,0.22556726325459192,-1.5427104751501568,-1.461917314350996,1.2539628558228402,0.20261500609437674,0.000348737098077779,0.0014249174044220398,-0.0015950827560478474,-9.642684709492474e-05,0.0002201463827173531,-2.017051601939024e-05,-0.0011933541971561774,-0.3063471019268036,-48.29800796508789,3.63261342048645,16.07001495361328,-1.0227559804916382,-1.2622787952423096,-0.0008682189509272575,,,,,,,,,
1739374384.7421966,0.12547280184153398,0.9861411735168724,0.2255681900822467,-1.542714363127126,-1.4619199341939448,1.2539617961844864,0.20261851355576774,-0.0002834694769028608,0.0005033039117324796,-0.000896511868046805,-0.0014597777753176996,0.00037174125335645114,0.0007160593154369386,0.0007364475138748253,-0.3063471019268036,-48.27420425415039,3.63261342048645,16.12158966064453,-1.0291646718978882,-1.2622787952423096,-0.027418512850999832,,,,,,,,,
1739374384.7531831,0.12547112346548747,0.9861374630077829,0.22556797943036339,-1.542709812876758,-1.4619210560327447,1.2539641207074341,0.20262270602001403,0.00023388941028192455,-0.0008681694841773957,-0.001483338620133108,0.0004814194747722317,-0.00088966451366485,-0.0007808866934476906,0.0015510301029337743,-0.2825433909893036,-48.22262954711914,3.63261342048645,16.07001495361328,-1.0090230703353882,-1.2824203968048096,-0.05396880581974983,,,,,,,,,
1739374384.7641747,0.12547120647702628,0.9861390975273737,0.22557461579807575,-1.5427115788974644,-1.4619226238854954,1.2539659539943748,0.20261830343191026,0.0009225235034466805,-0.0007259340436759057,0.0015197747965463614,-0.0011273341871037824,-0.00037255770917067724,0.0008052532057530345,-0.0010648926441605543,-0.2825433909893036,-48.24643325805664,3.58500599861145,16.04621124267578,-1.0090230703353882,-1.2888290882110596,-0.027418512850999832,,,,,,,,,
1739374384.774237,0.1254711796751387,0.9861389145604156,0.22557417739690272,-1.5427161455378031,-1.461923060730986,1.2539663584473555,0.20261818462810588,0.0010707578529418026,-5.507455273913431e-06,0.000364497332827205,-0.001470202122363398,0.0005096116791399703,-0.0006385623492668608,0.0011761950272797589,-0.2825433909893036,-48.24643325805664,3.5572350025177,16.14539337158203,-1.0026143789291382,-1.2952377796173096,-0.027418512850999832,,,,,,,,,
1739374384.7861767,0.12547260245788808,0.9861411733618783,0.22557220560370572,-1.5427084343310498,-1.4619146615100516,1.2539667523055853,0.20261834746622612,0.0003612991193024601,0.0008053415924887368,6.85358232846386e-05,0.0011857124309818544,0.0018161703728883003,0.00013340035182255784,0.00020302656906190202,-0.3063471019268036,-48.27420425415039,3.58500599861145,16.07001495361328,-1.0355733633041382,-1.2952377796173096,-0.020094294100999832,,,,,,,,,
1739374384.7972476,0.1254712035458958,0.9861438936116368,0.22557325584007853,-1.5427142525731095,-1.4619206837911651,1.2539667523601612,0.20261964722929024,0.0011206978697148073,0.0018652911194872556,0.00042071225417014343,-0.0007153024638997593,-0.00027104111521223376,0.0005972304135982663,-0.0019616272401881234,-0.2825433909893036,-48.32181167602539,3.60880970954895,16.12158966064453,-1.0227559804916382,-1.2952377796173096,-0.04023589566349983,,,,,,,,,
1739374384.8072817,0.12547562902080947,0.9861405445252841,0.22557406697539445,-1.542707745600635,-1.461919094424624,1.253962733724395,0.2026150587489705,0.0015468437814544155,-0.0007038869078668478,0.0005685100070519505,0.0007944601919413639,-0.0004905521402162908,-0.0010737381495803816,-0.002156754377766016,-0.3539545238018036,-48.29800796508789,3.58500599861145,16.07001495361328,-1.0026143789291382,-1.2622787952423096,-0.0008682189509272575,,,,,,,,,
1739374384.8181696,0.1254729180095131,0.9861391753818635,0.2255742134618991,-1.5427102168914266,-1.4619208804104664,1.2539635996195597,0.20262170405099778,0.0009897848250186914,-0.0013537665484052886,0.001029349930907061,9.28313885326077e-06,-0.0007674529076142208,0.00040380219020561047,-0.00026592122064387016,-0.3063471019268036,-48.24643325805664,3.5572350025177,16.09381866455078,-1.0227559804916382,-1.2696030139923096,-0.027418512850999832,,,,,,,,,
1739374384.8281724,0.12547112737254837,0.9861392101956846,0.22557107098849227,-1.5427105005204214,-1.4619213343693036,1.2539644793778588,0.2026241995758084,-3.784289401985094e-05,-3.177672717033319e-05,-0.0006462545270018555,0.0004252499618545289,-0.0008963789571035836,0.00033658428940050043,0.0008654966451723277,-0.2825433909893036,-48.24643325805664,3.60880970954895,16.07001495361328,-1.0163472890853882,-1.2760117053985596,-0.04756011441349983,,,,,,,,,
1739374384.8382347,0.12546983390551755,0.9861409394661423,0.2255750111590184,-1.5427121332220122,-1.4619166573082025,1.2539632507695686,0.20261865891907932,-0.0009176895739984044,-0.0009643426620736563,0.000826274691987998,-0.00018376261561059486,0.0013941003986914242,-0.00043152521357913895,0.0008886200685863251,-0.3063471019268036,-48.27420425415039,3.58500599861145,16.09381866455078,-1.0227559804916382,-1.2696030139923096,-0.027418512850999832,,,,,,,,,
1739374384.8492687,0.12547455239661207,0.9861389634357438,0.22557318863964765,-1.5427113648435502,-1.4619208983378935,1.2539651977914898,0.20261419307139975,0.0003863829901753258,0.0004798736288566393,-0.0011639937185410338,0.0005499119407202167,-0.0005117216389649475,0.0013895298750176413,-0.0018487760054327286,-0.3301508128643036,-48.27420425415039,3.60880970954895,16.09381866455078,-1.0227559804916382,-1.2824203968048096,0.0064559997990727425,,,,,,,,,
1739374384.8601732,0.12547088864667874,0.9861374617113376,0.2255750040883094,-1.542712288324464,-1.4619178497927776,1.2539676182033372,0.20261867368750577,0.0003982695015345922,-0.0008108825730423462,6.44163242115925e-05,-0.0004102183474678783,0.00032180725776088313,0.0005617009810114457,-0.001326509766659991,-0.2825433909893036,-48.22262954711914,3.5572350025177,16.12158966064453,-1.0090230703353882,-1.3025619983673096,-0.027418512850999832,,,,,,,,,
1739374384.870222,0.12547220704847545,0.9861388622399622,0.22557712984374254,-1.5427095282431413,-1.461919196196725,1.2539655237498029,0.20262135708955034,0.0006654745078400561,-0.0004279744655648379,0.00044120663742770424,-0.00041900867107098124,0.0003534087910997775,-0.00027452099413339214,-0.0011423783373416744,-0.3063471019268036,-48.24643325805664,3.5572350025177,16.09381866455078,-1.0291646718978882,-1.2888290882110596,-0.027418512850999832,,,,,,,,,
1739374384.8812704,0.12546918215627498,0.9861404714538007,0.2255750501978937,-1.5427143517429205,-1.461915911054603,1.2539620188717846,0.20261659034473373,-0.0004643508863551971,0.0018800602220711829,-0.00018250224902441548,-0.0012548492232019163,0.0007640957397266465,-0.0019899770360988227,-0.001657687678893691,-0.2547723948955536,-48.27420425415039,3.58500599861145,16.12158966064453,-1.0291646718978882,-1.2824203968048096,-0.0008682189509272575,,,,,,,,,
1739374384.8932166,0.12547120646538842,0.9861390936741447,0.2255750472937678,-1.5427122493243175,-1.4619211128998533,1.2539596769021721,0.2026233453794101,-0.0004578544007756823,-0.00038926960854789266,4.659590559268382e-05,-0.0005974302702929212,0.0010153609100579674,-0.0011242770060852665,0.0005722364700721609,-0.2825433909893036,-48.24643325805664,3.58500599861145,16.09381866455078,-1.0090230703353882,-1.2622787952423096,-0.03382720425724983,,,,,,,,,
1739374384.9032838,0.12547283978478468,0.9861411736828998,0.22557512930280954,-1.5427143373023353,-1.4619173330182476,1.2539636024569478,0.20262444042465463,0.0004969417007337443,0.0005962329011537041,0.0009853099362208098,-0.0005970625372486353,0.0016916685829274655,-0.00024306100393017415,0.0031596165325762813,-0.3063471019268036,-48.27420425415039,3.58500599861145,16.12158966064453,-1.0163472890853882,-1.2696030139923096,-0.04023589566349983,,,,,,,,,
1739374384.9132957,0.12547096818475997,0.9861409394659503,0.22557611529968932,-1.542712257722192,-1.46191869412247,1.253964479377907,0.2026242829493275,-0.0003272267655938188,0.0006951432986361997,0.000584120930788988,-0.000576405274769388,-0.0012376339574054337,0.0012035071425691851,0.0015863528982577515,-0.2825433909893036,-48.27420425415039,3.60880970954895,16.09381866455078,-1.0026143789291382,-1.2760117053985596,-0.04023589566349983,,,,,,,,,
1739374384.9242475,0.12547120636763817,0.9861429511145576,0.22557504114139582,-1.5427122829173556,-1.4619185184001515,1.2539614422719192,0.2026205612771186,-0.0005191520942080842,0.0016678236105244517,-0.00022578879065496076,-0.0014910711458708402,-0.00011366408803965647,0.00041984960153283073,-0.0005343978656530183,-0.2825433909893036,-48.29800796508789,3.58500599861145,16.09381866455078,-1.0163472890853882,-1.2622787952423096,-0.0072769103571772575,,,,,,,,,
1739374384.9342458,0.12546812138522734,0.9861393312131103,0.2255733476019508,-1.542709528278257,-1.4619216371488244,1.253964461380991,0.20261970002680343,-0.00017425529202133263,0.00027884669714471215,-0.00011590788265268027,-0.00026499110266296717,-0.00015171516180258605,0.0008942387402124596,-0.0024231737531579685,-0.2825433909893036,-48.24643325805664,3.60880970954895,16.09381866455078,-1.0163472890853882,-1.2760117053985596,-0.04023589566349983,,,,,,,,,
1739374384.9442513,0.1254698296565977,0.9861411733632482,0.22557505410476447,-1.5427140029649642,-1.4619170566792756,1.2539638110532767,0.20261895528692442,-0.0012521498346100557,0.0008996166819284235,-0.0002269040923038131,-0.0013939541590805406,7.363077754985554e-05,0.000755938597448388,-0.0011083159446133159,-0.3063471019268036,-48.27420425415039,3.58500599861145,16.14539337158203,-1.0163472890853882,-1.2824203968048096,-0.03382720425724983,,,,,,,,,
1739374384.9542646,0.12547196968675028,0.9861370608309367,0.22557508535570886,-1.542714354587712,-1.4619184250351258,1.2539658769383641,0.2026259103269378,-0.00018563480200542708,-0.00019708833917964183,-0.0003949460260890048,-0.00276167392542057,-0.000264636868881089,2.7147714270706657e-05,0.0007175270638637857,-0.3063471019268036,-48.24643325805664,3.58500599861145,16.12158966064453,-1.0163472890853882,-1.2888290882110596,-0.05396880581974983,,,,,,,,,
1739374384.9652858,0.12547048570216068,0.986141872578759,0.22557507671108662,-1.5427115975160217,-1.461917430844007,1.2539652370393402,0.2026292164571173,-1.8090897487596622e-05,0.0012125519444061905,-0.00030667724644264374,0.0003040803511615931,-0.000410205854729447,0.0002291661088897701,0.0008022929305888145,-0.2825433909893036,-48.27420425415039,3.58500599861145,16.09381866455078,-1.0163472890853882,-1.2824203968048096,-0.08051909506320953,,,,,,,,,
1739374384.9753077,0.12547291887750814,0.9861374543528288,0.2255757621427133,-1.5427104709398292,-1.4619180697857068,1.253965237040005,0.20261943576220104,-0.0005021143756908794,-0.0006679528894650108,-0.000541081721523804,-0.000860557115611783,0.0011003968993607634,-0.0002586900643971782,-0.0010395883651697672,-0.3063471019268036,-48.22262954711914,3.58500599861145,16.07001495361328,-1.0163472890853882,-1.2824203968048096,-0.03382720425724983,,,,,,,,,
1739374384.986257,0.12547038613007414,0.9861391726395338,0.22557219722629135,-1.542712293998327,-1.4619190585691437,1.2539634197417973,0.2026259240344867,-0.0008092624404337717,0.00018473177283558575,-0.00028290374797912583,-0.0006919062718842852,0.00020673612982735357,0.00037545955507899673,0.001480362727948057,-0.2825433909893036,-48.24643325805664,3.63261342048645,16.12158966064453,-1.0090230703353882,-1.2760117053985596,-0.05396880581974983,,,,,,,,,
1739374384.9971864,0.1254729189935952,0.9861391747081837,0.2255750853596641,-1.5427094689187506,-1.461917802096779,1.2539636039762965,0.20261888083965932,0.00040985181071657995,-0.0009351565651476294,-0.0002133004612759745,0.0011316518707245402,0.0003571342259819858,0.0008882522189957399,-0.0017563362320381483,-0.3063471019268036,-48.24643325805664,3.58500599861145,16.07001495361328,-1.0090230703353882,-1.2696030139923096,0.0064559997990727425,,,,,,,,,
1739374385.007189,0.12547462761254094,0.986141173469353,0.22557713291815937,-1.542710500642923,-1.4619171043292567,1.2539605365047486,0.20261711396139334,0.001069662958688476,0.0009159439013923821,0.0007618300563516699,0.0004689432991837393,0.0015991467086175263,-8.495119638196849e-05,-0.002574865141916354,-0.3301508128643036,-48.27420425415039,3.5572350025177,16.07001495361328,-1.0163472890853882,-1.2696030139923096,0.012864691205322742,,,,,,,,,
1739374385.0172706,0.12547283696341793,0.9861388331141723,0.22557366478771973,-1.5427083965737365,-1.461921470475232,1.2539641243741024,0.20261969120259746,0.00030836717578813067,-0.0001638764016529411,-0.0015340722598663542,0.0002921163631776231,-0.0006456664366393278,0.00045498678833650935,-0.0014311184982014182,-0.3063471019268036,-48.27420425415039,3.63261342048645,16.07001495361328,-1.0090230703353882,-1.2824203968048096,-0.027418512850999832,,,,,,,,,
1739374385.0282457,0.12547096916224243,0.9861382613779269,0.225573267677865,-1.542712053702283,-1.4619179585487394,1.2539632317056286,0.2026264841903961,-7.17464355692182e-05,-0.001367280365593822,-5.606533495534066e-06,-0.0007237304163087431,0.0012727913656968147,0.00029243924277460106,0.0005845915728917983,-0.2825433909893036,-48.27420425415039,3.60880970954895,16.09381866455078,-1.0090230703353882,-1.2696030139923096,-0.06037749722599983,,,,,,,,,
1739374385.0392652,0.12547120643998472,0.9861391668452816,0.2255750541043133,-1.5427104968448757,-1.4619208987775227,1.253962057638334,0.20261980421191259,0.000622075822197998,0.0003424402163330608,-0.0005703274333103346,0.00022647788066936447,0.0007709480261878625,0.0003286135477378364,-0.0009131424713438716,-0.2825433909893036,-48.24643325805664,3.58500599861145,16.07001495361328,-1.0227559804916382,-1.2824203968048096,-0.0008682189509272575,,,,,,,,,
1739374385.0493093,0.12546706879712047,0.9861407536377966,0.22557508535570886,-1.5427122832323714,-1.4619169837281851,1.2539658376628133,0.20262520588962693,-0.0012627843404648307,0.001204960766763278,-0.0012716538761575963,0.00031653607167917536,0.00040359655646551065,-0.0009899041219986796,0.0014823585908735261,-0.2547723948955536,-48.29800796508789,3.58500599861145,16.09381866455078,-1.0163472890853882,-1.2888290882110596,-0.04756011441349983,,,,,,,,,
1739374385.0602157,0.12547119763980882,0.9861391754094792,0.22557930112348326,-1.5427119772197322,-1.4619209995927303,1.2539651977932618,0.20262287007614982,-0.0008289344568765071,-0.0001468476684858581,0.0006624427472114688,0.00045385325622061395,0.0005484590447656944,-0.0008175869379165989,0.000890406199189741,-0.2825433909893036,-48.24643325805664,3.5572350025177,16.09381866455078,-1.0227559804916382,-1.2824203968048096,-0.05396880581974983,,,,,,,,,
1739374385.0702364,0.12546920853649218,0.9861370406084187,0.22557893906984905,-1.542711593307703,-1.461922310158003,1.2539637197811164,0.20262131953385312,-0.00040121843125201983,-0.00044572899603115355,0.0005751862846253969,0.0011597924647492488,-0.002299753122142374,3.567948243295973e-05,-0.0006011142852217504,-0.2547723948955536,-48.24643325805664,3.5334312915802,16.09381866455078,-1.0026143789291382,-1.2696030139923096,-0.013685601763427258,,,,,,,,,
1739374385.0812025,0.12547291606841388,0.986141069455795,0.2255750501980452,-1.5427121784598692,-1.4619210594496646,1.2539614298898136,0.20262592843284044,0.0006746165394987292,-5.753081192036083e-05,-0.00039353152546105425,0.001242678720914683,-1.7521040036068804e-05,-0.000156185165799264,0.0013264403085048928,-0.3063471019268036,-48.27420425415039,3.58500599861145,16.09381866455078,-1.0090230703353882,-1.2622787952423096,-0.05396880581974983,,,,,,,,,
1739374385.0922246,0.12547463151894075,0.9861427731785343,0.22557505312770834,-1.5427115604189914,-1.4619193710217577,1.253963668899473,0.20262718926683834,0.0017160170119842589,0.00016980340914438387,6.615409216243452e-05,0.00035228523155712827,0.0007929174181916783,-0.00021854346736379377,0.0008273090936297738,-0.3301508128643036,-48.29800796508789,3.58500599861145,16.09381866455078,-1.0090230703353882,-1.2696030139923096,-0.06678618490695953,,,,,,,,,
1739374385.1022933,0.1254746311934226,0.9861404685682646,0.22557784290877353,-1.5427101935856633,-1.4619201754106481,1.2539636693911447,0.20262532435614683,0.0008068936348705259,-0.00034993698623504374,0.001355931534645819,0.0002481699190884131,-0.0007308809841631376,0.0006295313048720055,-0.00023490538917000171,-0.3301508128643036,-48.27420425415039,3.5572350025177,16.07001495361328,-1.0291646718978882,-1.2696030139923096,-0.04756011441349983,,,,,,,,,
1739374385.1132367,0.12546835870002046,0.9861373840396863,0.22557434434460394,-1.542715828347182,-1.4619198523068342,1.253965178413183,0.20262337166788155,6.939218032777253e-05,-0.00010363377335323876,-0.0006676788528795476,-0.00033407782365257573,-0.0006953828651090695,-0.0002813741097016379,-0.00041169622422947366,-0.2825433909893036,-48.22262954711914,3.63261342048645,16.14539337158203,-0.9962056875228882,-1.2824203968048096,-0.06678618490695953,,,,,,,,,
1739374385.1241667,0.12546921325419375,0.9861391494206905,0.2255772133407744,-1.5427104203149595,-1.461918727944698,1.2539605369909281,0.20262131956439364,-0.0006683486200533493,-0.000187834640222658,0.00042059880839858245,0.000643874544133359,-0.0008697201147625849,0.0004706877996469906,-0.0005854795870345489,-0.2547723948955536,-48.24643325805664,3.5572350025177,16.07001495361328,-1.0026143789291382,-1.2696030139923096,-0.013685601763427258,,,,,,,,,
1739374385.1342635,0.12547284021739677,0.9861411734689247,0.2255732938905986,-1.5427101915318948,-1.4619171102916608,1.2539644735117919,0.20262604253199232,5.017961570588436e-05,0.0005000945229705963,-0.00025444498093771207,0.0003339459895882115,4.622692197609374e-05,0.00014157747761599628,-0.0014281955409414105,-0.3063471019268036,-48.27420425415039,3.60880970954895,16.09381866455078,-1.0163472890853882,-1.2760117053985596,-0.05396880581974983,,,,,,,,,
1739374385.1452491,0.12547259964824997,0.9861333502623568,0.22557824499549767,-1.5427101916964825,-1.4619183233310955,1.2539652325178154,0.20262212119232692,-0.00043450388667824595,-0.002818082500174889,-0.0002679730787337157,0.0013077276123117298,-0.0007411958930185523,0.002221603866523491,-0.000990905339423497,-0.3063471019268036,-48.19485855102539,3.58500599861145,16.07001495361328,-1.0090230703353882,-1.2824203968048096,-0.04756011441349983,,,,,,,,,
1739374385.1561909,0.12547221580061074,0.9861400663813928,0.22557951338993776,-1.5427084310749688,-1.4619178025892583,1.253963717359172,0.2026300285136278,-0.0004792819130236173,0.0008322843118809579,0.00015613993352986584,0.0007543711929561796,0.0006571571883833192,0.0007992320243537105,0.0028531398242423794,-0.3063471019268036,-48.29800796508789,3.5572350025177,16.07001495361328,-1.0090230703353882,-1.2696030139923096,-0.06037749722599983,,,,,,,,,
1739374385.1672647,0.12546920809068687,0.9861410665311654,0.22557635265350218,-1.5427104911772702,-1.4619214304109331,1.2539602364666846,0.20262131964225083,0.0005578416582505761,0.0008414878244315249,-0.0006776903072423854,0.0011058500776373614,-0.0013069273956986744,-0.00013336329700559937,-0.001052269048026383,-0.2547723948955536,-48.27420425415039,3.60880970954895,16.07001495361328,-1.0090230703353882,-1.2760117053985596,-0.013685601763427258,,,,,,,,,
1739374385.177325,0.1254729102087819,0.9861382337351596,0.2255717222108944,-1.5427095823071895,-1.4619198147392685,1.2539647136900622,0.20262207724843706,0.0006037712164107219,-0.0005374785153077167,-0.0013833987716497104,0.0019154901258135626,-0.00037120445292836504,0.0002944890745398552,-0.0005486028216727071,-0.3063471019268036,-48.24643325805664,3.63261342048645,16.07001495361328,-1.0026143789291382,-1.2824203968048096,-0.020094294100999832,,,,,,,,,
1739374385.18828,0.125472918889698,0.98613938337523,0.2255782407638445,-1.5427095271801068,-1.4619178142870417,1.2539582626028536,0.20262379691721458,0.0001470723699932628,0.0009064847314075146,0.00032917574540661655,0.0004272232136332623,0.001982764083853481,-0.00024347054401741757,0.00016846731042461868,-0.3063471019268036,-48.24643325805664,3.58500599861145,16.09381866455078,-1.0090230703353882,-1.2622787952423096,-0.03382720425724983,,,,,,,,,
1739374385.1983106,0.12547268070682713,0.9861411734799266,0.22557793329521286,-1.5427120158168197,-1.461919846419273,1.2539618815281606,0.2026253243679406,0.0003333721499452802,0.0008569949676621304,0.0003241990071451429,0.0001595596652061151,-8.371208033879931e-05,-0.0006288337111025946,0.000923084592820113,-0.3063471019268036,-48.27420425415039,3.58500599861145,16.09381866455078,-1.0227559804916382,-1.2824203968048096,-0.04756011441349983,,,,,,,,,
1739374385.210231,0.12547120654888286,0.9861369914609259,0.22558032494736835,-1.542716137300517,-1.4619193841563543,1.2539603793375511,0.2026215078132523,-0.0004555160525286544,1.7074135710145357e-05,0.000542305234265274,-0.002032386559284459,-0.001507681912640913,0.0011101524938841095,-0.0007232320610327417,-0.2825433909893036,-48.24643325805664,3.5572350025177,16.14539337158203,-1.0090230703353882,-1.2696030139923096,-0.027418512850999832,,,,,,,,,
1739374385.2211688,0.12547460515064776,0.9861390545508961,0.22557647127048414,-1.5427101915332075,-1.4619182832775834,1.2539616975021717,0.20262532435495512,0.001347134722566428,0.0002059814050416191,0.0004115216968714517,0.0009864336227475088,0.00018304735389617954,0.0010465630291389813,0.0008285967591939636,-0.3301508128643036,-48.27420425415039,3.60880970954895,16.09381866455078,-1.0090230703353882,-1.2888290882110596,-0.04756011441349983,,,,,,,,,
1739374385.2312317,0.12547196876231564,0.9861407708169059,0.22557754200318467,-1.54271039860936,-1.4619179583100235,1.2539644662198814,0.20262243156493562,-0.0002370112621424452,0.0005352271474703825,0.00047343653127838347,-0.00017779596828444694,-7.871212744072265e-05,0.000834374069633394,-0.0007452749730947893,-0.3063471019268036,-48.29800796508789,3.58500599861145,16.07001495361328,-1.0090230703353882,-1.2760117053985596,-0.020094294100999832,,,,,,,,,
1739374385.242212,0.12547120647213078,0.986140470484189,0.22557714441623253,-1.5427103863380927,-1.4619193041745875,1.253965876962439,0.2026268401712453,0.0007749807922846529,0.0002386802779746857,5.434796716395911e-05,0.0004503770675433822,-0.0003306263510453902,-0.00031836412418474703,0.0024565311337444405,-0.2825433909893036,-48.27420425415039,3.60880970954895,16.07001495361328,-1.0090230703353882,-1.2888290882110596,-0.06037749722599983,,,,,,,,,
1739374385.2522688,0.1254729186726913,0.9861410944933446,0.2255782539589526,-1.5427136734157423,-1.4619179230721084,1.2539609472508348,0.20262759880095313,0.0007634864441436632,-0.0014268896523090616,0.0015789217584783494,-0.0015176448192270907,0.00046841342645607015,0.00023072585638964763,0.0020508679903838514,-0.3063471019268036,-48.27420425415039,3.58500599861145,16.12158966064453,-1.0090230703353882,-1.2760117053985596,-0.06678618490695953,,,,,,,,,
1739374385.2642832,0.1254683469807716,0.9861428856686599,0.22557645922575026,-1.542712205859293,-1.4619232601295247,1.25396447866013,0.2026260820231442,-0.0012523658072508272,0.00045870683066695083,4.9662951561547385e-05,-6.437885657137695e-05,0.0003677076981777663,0.0011582313858488089,-0.0008144319410666667,-0.2825433909893036,-48.29800796508789,3.60880970954895,16.09381866455078,-1.0026143789291382,-1.2760117053985596,-0.05396880581974983,,,,,,,,,
1739374385.2762187,0.1254728926245355,0.9861428599540516,0.2255761431194862,-1.5427097777424184,-1.4619209249537164,1.253963250715732,0.20261887841166154,-0.00013481428376200302,0.0006273629910955645,-0.0004540926523940712,6.36458541462028e-05,-0.0011890344637373541,0.0011571670332149618,-0.0016109413554614208,-0.3063471019268036,-48.29800796508789,3.60880970954895,16.07001495361328,-0.9962056875228882,-1.2696030139923096,-0.020094294100999832,,,,,,,,,
1739374385.2862303,0.12547120647734603,0.9861425479850108,0.22557825394570039,-1.5427120499308489,-1.461922187417835,1.2539650794078971,0.2026186780841404,0.0004552083343553068,0.0003360700709543977,0.0005082288539118106,3.674766440033743e-05,0.0007729649191575668,0.0012166964661613142,-0.0009229085890958391,-0.2825433909893036,-48.29800796508789,3.58500599861145,16.09381866455078,-1.0026143789291382,-1.2824203968048096,-0.027418512850999832,,,,,,,,,
1739374385.2971828,0.12547049453312675,0.986142149310756,0.22557429897754394,-1.542710500659078,-1.461917742936306,1.2539644793790368,0.202620561416548,0.00045990795764916923,-0.0002524451836732512,-0.0010592557349932918,0.00032023739542262256,0.0012785865539545634,0.000597983240175211,-0.0008933221618252987,-0.2825433909893036,-48.29800796508789,3.60880970954895,16.07001495361328,-1.0227559804916382,-1.2760117053985596,-0.0072769103571772575,,,,,,,,,
1739374385.3072014,0.1254707831530648,0.9861365237717026,0.22557251745736412,-1.5427104657025121,-1.4619184368131475,1.2539655189046361,0.20262370080573824,0.0005840132213698625,-0.0015812287443220724,-0.0026418653801319235,0.0008538708010381543,0.0005275182631855499,0.0013528185796600931,-0.0003878326712884426,-0.3063471019268036,-48.22262954711914,3.63261342048645,16.07001495361328,-1.0163472890853882,-1.2888290882110596,-0.03382720425724983,,,,,,,,,
1739374385.3172352,0.12547268121321972,0.9861373821018055,0.22557647014864973,-1.5427087151483614,-1.4619185569964468,1.2539645803876363,0.20262608639741375,0.00019705006110508615,0.0003207455137141472,-0.00070231188558157,0.0007807476310222269,-0.0005961363263886572,0.0016698301137076715,0.0012670572113796707,-0.3063471019268036,-48.22262954711914,3.60880970954895,16.04621124267578,-1.0163472890853882,-1.2888290882110596,-0.05396880581974983,,,,,,,,,
1739374385.3273082,0.1254712061479333,0.9861392985517039,0.22557647127051475,-1.5427104663323359,-1.4619212750526516,1.2539636693680878,0.2026292708717055,0.000603417212234046,0.0006819964684368746,-0.0007800889888473811,0.0006099725074154663,0.0001628803266696418,0.0009348020424386273,0.0005016262739977217,-0.2825433909893036,-48.27420425415039,3.60880970954895,16.07001495361328,-1.0163472890853882,-1.2696030139923096,-0.05396880581974983,,,,,,,,,
1739374385.3392215,0.12547291888971268,0.986140938242725,0.22557639216560396,-1.542712052489216,-1.4619222007631432,1.2539643440379526,0.20262759741485684,0.000688071574715565,0.0010488419936411628,0.0003570162527771157,-3.745883328718931e-05,-0.0009874054398125228,0.00027132725079437303,0.0011997393255971521,-0.3063471019268036,-48.27420425415039,3.60880970954895,16.09381866455078,-1.0090230703353882,-1.2760117053985596,-0.06678618490695953,,,,,,,,,
1739374385.3502104,0.12547291867269078,0.9861410916149909,0.22558032494752517,-1.5427122027125244,-1.4619178426174253,1.253962185262639,0.20262759734285266,0.0010166405926710347,-2.177936318860168e-05,0.00096441195379733,0.00105890592003511,-0.0005203787369702122,-0.0017392135159963948,0.0010832771912940012,-0.3063471019268036,-48.27420425415039,3.5572350025177,16.09381866455078,-1.0090230703353882,-1.2696030139923096,-0.06678618490695953,,,,,,,,,
1739374385.3611577,0.12547439420416728,0.986140674994665,0.22558032494795519,-1.5427143602926954,-1.46192001730271,1.2539650626110843,0.20262243586698453,0.0010353798197510308,0.0007313954696754165,0.001006195097001397,-0.0010593380628899666,-0.0002303686725738595,0.0009974549347961457,-0.001069871047667181,-0.3301508128643036,-48.29800796508789,3.5572350025177,16.12158966064453,-1.0026143789291382,-1.2824203968048096,-0.020094294100999832,,,,,,,,,
1739374385.3711967,0.12546849268183846,0.9861383694792897,0.22558009642247012,-1.5427172397164761,-1.461916934506594,1.2539606315438492,0.20262298223943492,-0.0011460500985473183,-0.001991161801988445,0.001361248381594103,-0.0023837714437646954,0.0008515216286767032,-0.00018082090723212367,-0.0005568076551844597,-0.2547723948955536,-48.24643325805664,3.5572350025177,16.16919708251953,-1.0163472890853882,-1.2824203968048096,-0.020094294100999832,,,,,,,,,
1739374385.3821914,0.125474632486978,0.9861390664710576,0.2255742210287312,-1.5427143620386028,-1.4619169344818308,1.2539617940050807,0.20262532436816633,0.0008230974203317993,-1.394770823826119e-05,-0.0013695619327441615,-0.0013504900792412622,0.0019379424201481565,0.000500546233703653,-0.00024851777324613516,-0.3301508128643036,-48.27420425415039,3.60880970954895,16.12158966064453,-1.0163472890853882,-1.2622787952423096,-0.04756011441349983,,,,,,,,,
1739374385.3922226,0.12547120647751128,0.9861418368444318,0.22557738327877555,-1.5427115180431916,-1.4619181954246068,1.2539621344249976,0.2026268396832144,-8.900407817983208e-05,0.0005603832826044644,0.0003067055331968289,0.00041347041320814975,0.0004952114422727117,-0.0025262066580395153,0.0022746584842780735,-0.2825433909893036,-48.29800796508789,3.58500599861145,16.09381866455078,-1.0163472890853882,-1.2696030139923096,-0.06037749722599983,,,,,,,,,
1739374385.4022305,0.12547291606841388,0.9861388596542779,0.225578196912955,-1.5427160664274855,-1.4619203642277185,1.2539624625461046,0.20262294314566856,0.0005336484343541559,-6.635099439163529e-05,0.0007341824558818598,-0.0012541486442268573,0.00013482268159600844,0.0001324992020614334,0.00034234881427392083,-0.3063471019268036,-48.24643325805664,3.5572350025177,16.14539337158203,-1.0163472890853882,-1.2888290882110596,-0.027418512850999832,,,,,,,,,
1739374385.4131777,0.12546897122180284,0.986139534477099,0.22558033229057073,-1.5427143628109898,-1.4619218130987301,1.2539630648542144,0.20261980426809104,-0.00135665316589363,0.0011813821510584647,5.676678134469842e-05,-0.0016779450170324491,-0.00048715573422122946,-0.000436003588002352,-0.001973390135539076,-0.2547723948955536,-48.27420425415039,3.5572350025177,16.12158966064453,-1.0163472890853882,-1.2760117053985596,-0.0008682189509272575,,,,,,,,,
1739374385.4242294,0.12546611172379135,0.9861344320461365,0.22557825394754466,-1.542711608629364,-1.4619217752139197,1.2539617152786684,0.20262131958824772,-0.0014794163103790917,-0.000585618729308733,0.0003299402904761877,0.00019158925569481052,-0.0026701919106948665,-0.0012747560576089109,-0.001031802609154734,-0.2547723948955536,-48.22262954711914,3.58500599861145,16.12158966064453,-1.0163472890853882,-1.2888290882110596,-0.013685601763427258,,,,,,,,,
1739374385.4351602,0.1254712064600133,0.9861428595446184,0.22557825394755282,-1.5427101022858718,-1.4619178426199109,1.2539644788712525,0.20262608202313598,-0.000697820177189964,0.0002851502157817295,-0.001542675442589619,0.0006168543218080105,-3.3744607988526326e-05,-0.0005542611885825701,-0.0007266307003973593,-0.2825433909893036,-48.29800796508789,3.58500599861145,16.09381866455078,-1.0090230703353882,-1.2760117053985596,-0.05396880581974983,,,,,,,,,
1739374385.4451926,0.12547428742878933,0.9861384706291727,0.22557614606137794,-1.542712279230936,-1.4619218657585078,1.2539592059579452,0.20262084569452876,-0.0005830800859902049,3.327904060047393e-05,-0.00042338074334055285,-8.418964997166192e-05,-0.0011718082540326702,-0.0011590872348590576,-0.0019065716488813754,-0.3301508128643036,-48.24643325805664,3.60880970954895,16.09381866455078,-1.0026143789291382,-1.2622787952423096,-0.013685601763427258,,,,,,,,,
1739374385.4552333,0.12547196972158697,0.9861402374198733,0.22557825393103048,-1.5427101405134334,-1.4619201214196162,1.2539635849006927,0.2026212010907417,-0.0009312972798454257,0.0009626691149834654,9.113184981711537e-05,0.00013162360921422544,0.0005521939822515683,2.5928899841840892e-05,-0.000955702441189783,-0.3063471019268036,-48.27420425415039,3.58500599861145,16.09381866455078,-1.0291646718978882,-1.2696030139923096,-0.013685601763427258,,,,,,,,,
1739374385.465238,0.1254691821629732,0.986142575478218,0.22557539719034309,-1.5427099108083056,-1.461916657089185,1.2539589664563635,0.20262445868117004,-0.0011332255811817519,0.0010022687521647564,-0.0010639394138537068,0.0013392705099006278,0.0012284806877579924,-0.0012685136238640437,-0.0005647688566049645,-0.2547723948955536,-48.29800796508789,3.63261342048645,16.09381866455078,-1.0227559804916382,-1.2696030139923096,-0.04023589566349983,,,,,,,,,
1739374385.4766462,0.12546920712584264,0.9861390669731764,0.22557825391538233,-1.5427104921437336,-1.4619161768796445,1.2539584558991774,0.20262294314566978,-0.0015560636917405207,0.0001566946687978277,0.0011759927412921495,0.0008710981013122783,0.0014722255011138058,-0.0007381543231160547,-0.0009401438656531905,-0.2547723948955536,-48.27420425415039,3.58500599861145,16.07001495361328,-1.0227559804916382,-1.2622787952423096,-0.027418512850999832,,,,,,,,,
1739374385.4872327,0.12546919877057722,0.9861411643389101,0.22557819790430336,-1.5427114807756526,-1.4619212196743745,1.2539608225333947,0.20262608202313598,-0.0010485712157107712,0.000387669011803836,0.00013602444984765424,0.0012999503139045079,-0.0004642323810088465,0.0003579654275535505,-0.00014941741901869178,-0.2547723948955536,-48.27420425415039,3.5572350025177,16.09381866455078,-1.0090230703353882,-1.2824203968048096,-0.05396880581974983,,,,,,,,,
1739374385.4991734,0.12547094274614984,0.9861443645073918,0.2255764964270658,-1.5427122830209687,-1.4619186921355687,1.2539656414072866,0.20261980426809104,-0.00018065609158737588,0.001816909849492876,-0.0005377881384484745,0.0008641982156363343,-0.00023539604162861865,-9.729283788969194e-05,-0.0013689757870811148,-0.2825433909893036,-48.32181167602539,3.60880970954895,16.09381866455078,-1.0026143789291382,-1.2888290882110596,-0.0008682189509272575,,,,,,,,,
1739374385.5092087,0.12546907064290166,0.9861390713830095,0.2255776479105152,-1.5427083490184161,-1.4619234349432322,1.253959874530753,0.20262759750486256,-0.0007417607672183431,-0.0012610986345862102,-0.00013899861311284092,0.0013445041991679881,-0.0011588629082986384,-0.0007591193600071627,0.0014416918021238534,-0.2825433909893036,-48.24643325805664,3.60880970954895,16.07001495361328,-1.0026143789291382,-1.2760117053985596,-0.06678618490695953,,,,,,,,,
1739374385.520176,0.12547463137427517,0.9861407501052643,0.22557373544786738,-1.542709501647325,-1.4619210458616527,1.2539636039042947,0.20262306125117113,0.0015231647272586943,0.0008488887992241913,-0.0021437812826693298,0.000827762469181039,0.0006143408109406801,-0.0006459018852797975,-0.0007413563418322935,-0.3301508128643036,-48.29800796508789,3.63261342048645,16.07001495361328,-1.0227559804916382,-1.2696030139923096,-0.027418512850999832,,,,,,,,,
1739374385.5302613,0.12547120354768185,0.9861391668496633,0.22558033373202785,-1.5427084087106255,-1.4619161904789635,1.253962057909611,0.20262526445814838,-0.0006166751723349306,9.419839023465642e-05,0.0008231873958841656,0.001385385681282964,0.002694303268959663,5.3844538260978644e-05,-0.0004657820949996506,-0.2825433909893036,-48.24643325805664,3.5572350025177,16.07001495361328,-1.0227559804916382,-1.2824203968048096,-0.07411040365695953,,,,,,,,,
1739374385.5411851,0.1254704945331102,0.9861403674575371,0.2255764712705337,-1.5427120438693531,-1.4619199245860937,1.2539585998095493,0.20262567866149991,-0.0006753162775861724,8.992155453621341e-05,-0.00014500678222565113,-0.00045478635755751413,0.00037463436960222057,-0.0009411808247350422,-0.0001718893070733438,-0.2825433909893036,-48.27420425415039,3.60880970954895,16.09381866455078,-1.0291646718978882,-1.2622787952423096,-0.04756011441349983,,,,,,,,,
1739374385.5511954,0.12546907063233362,0.9861419499627673,0.22557647170256118,-1.5427122968288625,-1.461918883604718,1.2539609457272025,0.20262288762081085,-0.0011192654103680149,0.00033544125583494043,0.0002565157114775485,-0.0011739362697307419,0.00035663083645631874,9.081556923543811e-05,0.0010112767523716383,-0.2825433909893036,-48.29800796508789,3.60880970954895,16.12158966064453,-1.0090230703353882,-1.2760117053985596,-0.05396880581974983,,,,,,,,,
1739374385.5612352,0.1254674920733236,0.9861428773074531,0.22558033373741568,-1.542709527823371,-1.4619226834258912,1.2539644662381317,0.2026275966386948,-0.0011014197655636218,0.0011902403704849365,0.0012180268704158831,0.0003452775257598158,-0.0018384701414807325,0.002137494861376046,0.0010038584732279458,-0.2309686839580536,-48.29800796508789,3.5572350025177,16.09381866455078,-1.0090230703353882,-1.2760117053985596,-0.06678618490695953,,,,,,,,,
1739374385.5722318,0.12547291476625286,0.986141134807573,0.22558009349280678,-1.5427102707416434,-1.461923074140996,1.2539655237497296,0.2026237008057429,-8.608697607090111e-05,-0.00014242951559584744,0.0004937771951632571,-6.0633349711769024e-05,-0.0021104241829802512,0.001987828366351249,-0.0007683043424122993,-0.3063471019268036,-48.27420425415039,3.5572350025177,16.07001495361328,-1.0026143789291382,-1.2888290882110596,-0.03382720425724983,,,,,,,,,
1739374385.5831563,0.12546920853657018,0.9861428850264663,0.22557670747746486,-1.5427104238121456,-1.4619197950109535,1.25396411925189,0.20262195877500644,-0.0006579352850941319,0.00014085594901797375,0.00019718295013327713,0.0002565675541440697,0.001484454744468239,0.0008235426968866017,-0.0010773359694693048,-0.2547723948955536,-48.29800796508789,3.60880970954895,16.07001495361328,-1.0227559804916382,-1.2824203968048096,-0.020094294100999832,,,,,,,,,
1739374385.5931995,0.12547096916270553,0.986139150170113,0.2255748984375378,-1.5427094404107322,-1.4619179590450762,1.2539650798887627,0.20262445846515645,0.00052680876441546,0.001000647892897531,-0.0005862293707470899,0.0006203380980207795,-0.0018200818232644296,-0.0009471969780736916,-0.000958461447838436,-0.2825433909893036,-48.24643325805664,3.63261342048645,16.09381866455078,-1.0090230703353882,-1.2824203968048096,-0.04023589566349983,,,,,,,,,
1739374385.6032076,0.12546636075515027,0.9861362625225446,0.22557825395110653,-1.5427121944773494,-1.4619223019986491,1.253965936555412,0.20263347269815696,-0.001320067187694222,-0.0008411183082014872,0.0004302424859114483,0.0008339186037598081,-0.0025288728115128545,0.000537671920300224,0.0021950045532325643,-0.2547723948955536,-48.24643325805664,3.58500599861145,16.09381866455078,-1.0090230703353882,-1.2888290882110596,-0.08051909506320953,,,,,,,,,
1739374385.6132436,0.12546919676916554,0.9861363548124401,0.22557825394755288,-1.5427105006588906,-1.4619169494570066,1.2539641242281652,0.20262922129568345,-0.00027490775852140586,-0.0010299403176495037,-3.35182392232594e-05,-0.0002130807840469486,0.0005160137773194332,0.00142151305722628,0.0010387832249240806,-0.2547723948955536,-48.24643325805664,3.58500599861145,16.07001495361328,-1.0163472890853882,-1.2760117053985596,-0.08051909506320953,,,,,,,,,
1739374385.6242235,0.1254701732121514,0.9861411436011557,0.22557819790430392,-1.542710496881165,-1.4619176206898232,1.2539630136609219,0.20263165165504082,-0.0008176663773194294,-0.00021527992343523444,-0.00023266286477781535,0.0016197046996485173,-0.00045697750674388845,0.00027070545590708047,0.0018852018299417288,-0.2825433909893036,-48.27420425415039,3.5572350025177,16.07001495361328,-1.0227559804916382,-1.2760117053985596,-0.07411040365695953,,,,,,,,,
1739374385.6342473,0.12546920493674768,0.9861391492066356,0.22557647123436322,-1.5427102170429983,-1.4619202077924711,1.2539619009558627,0.20261980448409742,0.00018978480310755824,-0.0004047873367574015,-0.0007719208029702773,-7.540428286909376e-05,-0.00010966252929875097,-0.0005602652534497281,-0.0023358300299540376,-0.2547723948955536,-48.24643325805664,3.60880970954895,16.09381866455078,-1.0163472890853882,-1.2824203968048096,-0.0008682189509272575,,,,,,,,,
1739374385.6451688,0.12547291899816512,0.9861365269936561,0.2255747935761806,-1.5427121979547964,-1.4619185178048075,1.2539589985940853,0.20262306125117205,0.0004163554680892877,-0.0010383285194893828,-0.0010793500969043734,-0.0006339677692749324,-0.0005579390893635857,8.959071955728419e-05,0.00022255662365395148,-0.3063471019268036,-48.22262954711914,3.63261342048645,16.09381866455078,-1.0163472890853882,-1.2696030139923096,-0.027418512850999832,,,,,,,,,
1739374385.6552188,0.12547077893317066,0.9861391408560566,0.22557828366658939,-1.542710193282488,-1.4619215504386194,1.2539632312007307,0.2026234053284576,0.00024379933626121402,-0.0002761666309835266,-0.0007185086366564277,0.0006189617711683256,-0.0005344855262905046,-0.0002629648162423315,-0.0008155719879038136,-0.3063471019268036,-48.24643325805664,3.60880970954895,16.07001495361328,-1.0090230703353882,-1.2696030139923096,-0.04023589566349983,,,,,,,,,
1739374385.6652822,0.12546920719826088,0.9861391754209291,0.22557470608043778,-1.5427087167184275,-1.461921067934746,1.2539602256375775,0.202626082005301,-0.0005352167266354289,0.0014623831009219618,-0.0019116587863073466,0.00036451108966924315,7.573070933589979e-05,0.0005121234092135757,7.260676480522484e-05,-0.2547723948955536,-48.24643325805664,3.63261342048645,16.04621124267578,-1.0090230703353882,-1.2760117053985596,-0.05396880581974983,,,,,,,,,
1739374385.6762624,0.12546906771457067,0.9861354831269921,0.2255764717026599,-1.5427139774357097,-1.4619196553332463,1.2539618946041193,0.20262132099216854,-0.001506133453248877,-0.0010723301921079986,-0.0007386941850604463,-0.0018582848018059114,0.0004488658927022743,-0.00011544676179505554,-0.00174255137889116,-0.2825433909893036,-48.22262954711914,3.60880970954895,16.14539337158203,-1.0026143789291382,-1.2824203968048096,-0.013685601763427258,,,,,,,,,
1739374385.6862898,0.12547657142503135,0.9861428830676375,0.22557825394756012,-1.5427115850878326,-1.4619197598891436,1.2539611259829047,0.2026256801376735,0.002099010123259719,0.0017981153518892385,0.0008671183139247365,-0.0004465967998861471,0.0005949883144714976,-0.0005110356418626012,-0.0006014762273038084,-0.3539545238018036,-48.29800796508789,3.58500599861145,16.09381866455078,-1.0291646718978882,-1.2760117053985596,-0.04756011441349983,,,,,,,,,
1739374385.6972206,0.125472918673975,0.9861402374556695,0.22557717990353277,-1.542712279414271,-1.4619205171136436,1.2539632452968377,0.20262967311342894,0.001231639755475138,6.261690985474855e-05,-0.0003126030818273816,-0.0004992557185698103,-0.0006745494151752733,-0.00021727272171940054,0.0032560754907135156,-0.3063471019268036,-48.27420425415039,3.60880970954895,16.09381866455078,-1.0227559804916382,-1.2760117053985596,-0.06037749722599983,,,,,,,,,
1739374385.708203,0.12547291899822427,0.9861399988726571,0.22557648391133645,-1.5427142752601357,-1.4619226232294453,1.2539590122100848,0.20262294467375938,0.00029284522602435816,0.00046935251612246267,-0.0008028408081775656,-0.0010510020395960093,0.0010857710541808208,-0.0009774486336125785,-0.00010099236686750697,-0.3063471019268036,-48.29800796508789,3.60880970954895,16.12158966064453,-1.0090230703353882,-1.2696030139923096,-0.027418512850999832,,,,,,,,,
1739374385.7202866,0.1254712025710786,0.986142882121892,0.22558128733003394,-1.542712257792119,-1.4619186749398816,1.2539643427196183,0.20262433999240412,-0.0007870885663779628,0.0011876293929653386,0.002222245489517334,-0.0015542521931026813,-0.00022604359948095033,0.000614339813328185,-0.0006277903775360384,-0.2825433909893036,-48.29800796508789,3.5572350025177,16.09381866455078,-1.0026143789291382,-1.2760117053985596,-0.04023589566349983,,,,,,,,,
1739374385.7312374,0.1254669671941198,0.9861426419289104,0.22557825391317665,-1.5427098840508036,-1.4619169455918235,1.253960785836714,0.20262401921777742,-0.0013566862774188593,0.001722450154643646,0.0002200455819948818,0.0010187485117456102,0.0004090035895421668,-0.0015945580679370124,-0.00032869937781100677,-0.2547723948955536,-48.29800796508789,3.58500599861145,16.09381866455078,-1.0163472890853882,-1.2760117053985596,-0.027418512850999832,,,,,,,,,
1739374385.7432604,0.12547291605576144,0.9861402018241578,0.2255775421471936,-1.542712205709671,-1.4619211749777157,1.2539591236350531,0.2026288175626586,0.00027702324472777976,0.00024634836638032524,-9.242065355135405e-05,-0.0007067097125230868,0.0009993232352046423,0.00043110344226584434,0.0002522366192668061,-0.3063471019268036,-48.27420425415039,3.58500599861145,16.09381866455078,-1.0090230703353882,-1.2696030139923096,-0.07411040365695953,,,,,,,,,
1739374385.754214,0.12547462272951512,0.9861373760170286,0.2255764712691944,-1.5427122833372686,-1.4619216908944253,1.2539645367087542,0.20262759734351898,0.0013851512460304849,-0.0004376102578197632,-0.0011278087088389952,-0.0006660282374350784,-0.000488105840559762,0.0007723205011033663,-0.0003482165835588223,-0.3301508128643036,-48.22262954711914,3.60880970954895,16.09381866455078,-1.0163472890853882,-1.2888290882110596,-0.06678618490695953,,,,,,,,,
1739374385.765258,0.12546810868923114,0.9861411734678937,0.2255821164144274,-1.5427101405136419,-1.4619225566819884,1.2539629297091677,0.20262683968321432,-0.0009230227754344682,0.001540166125740849,0.0016887442404678109,-0.0005328310008938116,-0.0009253525322075885,-0.0013641792208250794,0.0009147949655753935,-0.2825433909893036,-48.27420425415039,3.5334312915802,16.09381866455078,-1.0090230703353882,-1.2760117053985596,-0.06037749722599983,,,,,,,,,
1739374385.7762578,0.12546704789561625,0.9861384734825873,0.22557828908578414,-1.5427113019383556,-1.4619218274342725,1.253965193209409,0.20262375077666486,-0.000718896937089123,-0.0014587303972717041,-0.001012612025244495,2.756002922216531e-05,-0.00232228880486765,0.001082621877589946,-0.00045122826844181253,-0.2547723948955536,-48.24643325805664,3.58500599861145,16.12158966064453,-1.0026143789291382,-1.2824203968048096,-0.0072769103571772575,,,,,,,,,
1739374385.7872295,0.12547463138221035,0.9861411696161377,0.22558069527464594,-1.5427101942220176,-1.4619174127423356,1.2539620038417134,0.20262608202913635,0.00022698925550214107,0.00036273574955260655,-5.182356196845984e-05,0.0008159177985917087,0.0010170684142089045,0.00017266973104971002,0.00035725883367638883,-0.3301508128643036,-48.27420425415039,3.58500599861145,16.07001495361328,-1.0163472890853882,-1.2824203968048096,-0.05396880581974983,,,,,,,,,
1739374385.7991648,0.12547268168343595,0.9861411734693452,0.22557828024300308,-1.5427115815068109,-1.4619167153365549,1.2539635645028293,0.20262135749411275,0.00037145967453208626,0.001125673006894085,-0.0013047363480590938,0.0004796188875634177,-0.0003695947560797187,0.00023437942326051076,-0.0008933459995157124,-0.3063471019268036,-48.27420425415039,3.58500599861145,16.12158966064453,-1.0227559804916382,-1.2696030139923096,-0.013685601763427258,,,,,,,,,
1739374385.8091867,0.12547112737122545,0.9861397619855896,0.22558033388156595,-1.5427057368249475,-1.4619218656509472,1.2539597567404548,0.20262370080596087,0.00011550253329664215,-0.002221720722336351,0.0004568019156292524,0.003068579893451118,3.186983165218935e-06,-0.0007781184751113523,-0.0001230146258031466,-0.2825433909893036,-48.29800796508789,3.5572350025177,16.04621124267578,-1.0026143789291382,-1.2760117053985596,-0.03382720425724983,,,,,,,,,
1739374385.8192484,0.12547291867135174,0.9861382307951343,0.2255786234151998,-1.5427142864423848,-1.461916970295232,1.2539636688275444,0.20262684016924518,0.0007011129104589865,0.00040397635599336696,-0.0005341469326556397,-0.000862973775373199,0.0013415970476465758,0.0011990062379732156,-0.00016909696561714542,-0.3063471019268036,-48.24643325805664,3.60880970954895,16.12158966064453,-1.0163472890853882,-1.2696030139923096,-0.06037749722599983,,,,,,,,,
1739374385.8302417,0.12546920853663998,0.9861411432550875,0.2255764975283493,-1.5427143363572868,-1.4619221828049935,1.253958610971082,0.20262451095716125,-0.0013073639043278005,0.0008431039777732276,-0.00029677053673842234,-0.0006553484578900276,-0.0013479987912305424,0.0008296513551602666,-0.0005402217575659604,-0.2547723948955536,-48.27420425415039,3.60880970954895,16.12158966064453,-1.0090230703353882,-1.2622787952423096,-0.04023589566349983,,,,,,,,,
1739374385.842204,0.12547391566817284,0.9861400740969768,0.2255764702940779,-1.5427077451811935,-1.4619174715839645,1.253960236388961,0.20262608196926063,0.0007584559977423852,0.00040298640666996597,-0.0003305085343378083,0.0002492444500604396,-0.0015838574399850084,0.0009468903747669642,-0.00019574222463284818,-0.3301508128643036,-48.29800796508789,3.60880970954895,16.07001495361328,-1.0163472890853882,-1.2760117053985596,-0.05396880581974983,,,,,,,,,
1739374385.8522453,0.12547136064971157,0.9861363299154934,0.22558435701670268,-1.5427080292030375,-1.4619222002450427,1.2539624483200784,0.20261893837085831,-0.001199923596253565,-0.000818311065475183,0.002088586018342313,-0.00010021478487083732,-0.00044624800607332907,-0.00021001380798145322,-0.0029021694536406958,-0.2825433909893036,-48.24643325805664,3.5334312915802,16.04621124267578,-1.0090230703353882,-1.2622787952423096,0.0064559997990727425,,,,,,,,,
1739374385.8642213,0.12547289263078648,0.9861346433592861,0.22557962079917984,-1.542714096372686,-1.4619210177166821,1.253965584635108,0.2026222128510471,-0.000122822676512837,-0.0008280601210797006,0.00013785093423768994,-0.0007581688862058364,-0.00023158351941822674,0.0011370868412673364,-0.0008868295702313446,-0.3063471019268036,-48.22262954711914,3.60880970954895,16.12158966064453,-1.0227559804916382,-1.2888290882110596,-0.020094294100999832,,,,,,,,,
1739374385.8751657,0.1254692085365922,0.9861407526696611,0.22558139233055624,-1.5427122819721906,-1.4619185010816182,1.2539644749646692,0.20262683968346948,0.0003298522300593045,-0.00017187548752530218,0.001672498069563357,0.0005128377531125526,-0.0009876914565518024,0.0005485445171961921,-0.0002683302429992571,-0.2547723948955536,-48.29800796508789,3.5572350025177,16.09381866455078,-1.0163472890853882,-1.2760117053985596,-0.06037749722599983,,,,,,,,,
1739374385.885291,0.12547117717937276,0.9861388604918969,0.22557857020956204,-1.5427136714230612,-1.4619194204116193,1.2539644729196286,0.2026237006432319,-0.00039995583092936027,-0.000751326328667818,0.00016431857254406776,0.0007925591637282709,-0.0015728105359992446,0.0002131748135993114,-0.0019790948191309487,-0.2825433909893036,-48.24643325805664,3.58500599861145,16.12158966064453,-1.0090230703353882,-1.2760117053985596,-0.03382720425724983,,,,,,,,,
1739374385.8962216,0.1254711000274857,0.9861387280052335,0.22558038031636482,-1.5427099864710958,-1.4619218268647574,1.2539650655210393,0.20262131958824678,-0.000554932823712439,-0.0004714588787951733,0.0012048429242492197,0.00013397250478454028,-0.0006454881381781023,0.0006516933515095405,-0.0009667696040471936,-0.2825433909893036,-48.27420425415039,3.58500599861145,16.09381866455078,-1.0026143789291382,-1.2824203968048096,-0.013685601763427258,,,,,,,,,
1739374385.9062297,0.12547120647208668,0.9861411444558132,0.22557896268858252,-1.5427122832207218,-1.461917754780481,1.2539589991263849,0.20262258483873957,-0.0004843942183399907,0.00029580160554782623,0.0002291884169658895,-0.001568146676758976,0.0008781617543558772,-0.000665089286963734,0.0004055746724919448,-0.2825433909893036,-48.27420425415039,3.58500599861145,16.09381866455078,-1.0227559804916382,-1.2696030139923096,-0.04756011441349983,,,,,,,,,
1739374385.9182556,0.12547120354768268,0.9861401562326793,0.22557753002642658,-1.5427161428298946,-1.4619190410052485,1.2539624483171987,0.20262167736384623,-0.00043108049398626284,-0.0011786883666704835,-6.229093011778293e-05,-0.00196851808806917,-0.0003618702656907539,-0.0002428882700744021,-0.002553895581335371,-0.2825433909893036,-48.27420425415039,3.60880970954895,16.14539337158203,-1.0026143789291382,-1.2622787952423096,-0.0072769103571772575,,,,,,,,,
1739374385.9302187,0.12546917337888974,0.9861411730394629,0.22557825394954506,-1.5427101826100666,-1.4619209193048814,1.253961242107421,0.20262370080784578,-0.0015447846113075987,-0.00034369885401490353,-0.0003496903843330676,0.001499041028159123,0.0007769139869196326,-0.000419316222759167,-0.0011000050494536318,-0.2547723948955536,-48.27420425415039,3.58500599861145,16.09381866455078,-1.0227559804916382,-1.2760117053985596,-0.03382720425724983,,,,,,,,,
1739374385.9412708,0.1254749394239172,0.9861344209514304,0.22558108988363795,-1.5427122879057815,-1.4619174536342834,1.2539608225838712,0.20262300618524817,3.297491894071206e-05,-0.001654068519800555,0.0009374977329152402,-0.0010948984926355794,-0.0012214919944544462,-0.00042969202491632255,-0.00222352604748994,-0.3063471019268036,-48.22262954711914,3.58500599861145,16.12158966064453,-1.0163472890853882,-1.2824203968048096,-0.0008682189509272575,,,,,,,,,
1739374385.9531682,0.12547120648890026,0.986142183962665,0.22557920269580733,-1.5427103869568257,-1.4619206718437328,1.2539651187929985,0.2026261324982698,-0.00018824822835237912,-0.00011702438044159261,-0.00044923193343429527,0.0006256024988345951,-0.0002561977311546917,0.0017033471427609036,-0.00029174890029760826,-0.2825433909893036,-48.29800796508789,3.58500599861145,16.07001495361328,-1.0163472890853882,-1.2824203968048096,-0.027418512850999832,,,,,,,,,
1739374385.9631965,0.12547268179144364,0.9861408499051192,0.2255764829406302,-1.5427133529522046,-1.4619179585491193,1.2539644381953354,0.20262683975522172,-7.29142147945523e-05,0.0002009809180740623,-0.00011831688383078639,-0.0003106487744107883,0.00010337879865987413,0.0010009625307635158,0.0004178709514283776,-0.3063471019268036,-48.27420425415039,3.60880970954895,16.14539337158203,-1.0090230703353882,-1.2760117053985596,-0.06037749722599983,,,,,,,,,
1739374385.9732928,0.12547291899420898,0.9861409133530896,0.22557656199649256,-1.5427120168543573,-1.4619222625993538,1.2539608408573413,0.20262296064278087,0.0004867579719506325,0.0016128089395522772,-0.0011664595548470703,0.0008943166108257864,-5.0934284572169225e-05,-0.00024343720789949327,0.0007942107872226033,-0.3063471019268036,-48.27420425415039,3.60880970954895,16.09381866455078,-1.0090230703353882,-1.2824203968048096,-0.027418512850999832,,,,,,,,,
1739374385.984153,0.12547291899822607,0.9861428510004641,0.22557650140495944,-1.5427101320088688,-1.4619169762790933,1.2539652234487193,0.20262450843684196,0.001177995230659136,0.0001563128564931787,-0.0010926683055703574,6.962502148103757e-05,0.0019385744470465736,0.0027518123160628653,-0.0009614649104540676,-0.3063471019268036,-48.29800796508789,3.60880970954895,16.09381866455078,-1.0163472890853882,-1.2824203968048096,-0.013685601763427258,,,,,,,,,
1739374385.994255,0.12547290727897722,0.9861410945034721,0.22558064868693892,-1.542714275150859,-1.4619205367359278,1.2539594817130901,0.2026222108266751,0.00033578185958404566,0.0006661422135698047,0.0004411417236586901,-0.0010752739455646759,0.0007094688145937275,0.0016299410578757621,-0.00020663122614056583,-0.3063471019268036,-48.27420425415039,3.5572350025177,16.12158966064453,-1.0227559804916382,-1.2696030139923096,-0.05396880581974983,,,,,,,,,
1739374386.005254,0.12547291899820404,0.9861425709537949,0.22557650630135084,-1.5427097835162231,-1.4619215792607831,1.2539590121911277,0.20261736313828208,0.0007278862092652915,0.00116782171200947,-0.001908565000165061,0.0010877138418838982,-0.0020232434393423794,-0.001664237941583141,-0.0008735530516377662,-0.3063471019268036,-48.29800796508789,3.60880970954895,16.07001495361328,-1.0090230703353882,-1.2696030139923096,-0.0072769103571772575,,,,,,,,,
1739374386.0162404,0.1254746315189573,0.9861369621775123,0.22557658795414104,-1.5427104892836625,-1.4619221755661516,1.2539608393240678,0.20261996177803696,0.0005314023583458798,-0.0009727091452845063,-0.0008324654356666229,-0.00019716031025000802,0.00028809370661274234,0.0003537072297801532,-0.0011426694540771299,-0.3301508128643036,-48.24643325805664,3.60880970954895,16.07001495361328,-1.0026143789291382,-1.2824203968048096,-0.0008682189509272575,,,,,,,,,
1739374386.0271745,0.12547120354768268,0.9861428821256955,0.2255793380116075,-1.5427122628197778,-1.4619210545377892,1.2539594247851549,0.2026253245799605,-0.00033483827537093575,0.0009451684983747775,-0.0008525515406252657,-0.0005968732423131196,-0.0006173309690832216,-0.0015198991055723845,-0.00032442083083052196,-0.2825433909893036,-48.29800796508789,3.60880970954895,16.12158966064453,-1.0090230703353882,-1.2696030139923096,-0.04756011441349983,,,,,,,,,
1739374386.0371914,0.12547291899807725,0.9861403674573898,0.22557836328813236,-1.5427095250222127,-1.4619214170018313,1.2539645811464206,0.20262861778428323,1.672267693358458e-05,-2.7285520506687035e-05,3.136712203184283e-05,0.00047741575359417054,-0.000734211595317488,0.00030632188200419323,0.003058519533298704,-0.3063471019268036,-48.27420425415039,3.58500599861145,16.09381866455078,-1.0090230703353882,-1.2888290882110596,-0.07411040365695953,,,,,,,,,
1739374386.0472455,0.1254709664122318,0.9861421462765197,0.22558249477525388,-1.5427083546716933,-1.4619189694896462,1.2539644270441381,0.20262532387638504,-7.437472147551577e-05,0.0004143727535220063,0.0008781769155727789,0.0006543780783161627,-0.0005920752887183215,0.0014831696233419817,-0.0004912539055359984,-0.2825433909893036,-48.29800796508789,3.5572350025177,16.07001495361328,-1.0026143789291382,-1.2760117053985596,-0.04756011441349983,,,,,,,,,
1739374386.0582232,0.12546983379609739,0.9861427815564126,0.22558320666004056,-1.5427092221134895,-1.461917311426071,1.2539594642708822,0.20262056192816663,-0.0004570424475967788,0.00017307221683568154,0.0008179688330420726,0.0013019409991224605,0.0014235344542599478,0.0008826809708763053,-0.0013327367066093328,-0.3063471019268036,-48.29800796508789,3.5572350025177,16.09381866455078,-1.0163472890853882,-1.2696030139923096,-0.0072769103571772575,,,,,,,,,
1739374386.0682333,0.12547463146670912,0.9861417123598805,0.22557690399466235,-1.5427115825064848,-1.4619185952928004,1.2539658185868976,0.20262306125116838,0.001491579011560656,-0.0007368571025557386,-0.0007300874821773449,0.00034088953656529765,0.0012238748820629977,0.002231068280445031,0.00038492573306206005,-0.3301508128643036,-48.32181167602539,3.60880970954895,16.12158966064453,-1.0026143789291382,-1.2888290882110596,-0.027418512850999832,,,,,,,,,
1739374386.0792377,0.12547283566134504,0.9861389854622469,0.22557648045355946,-1.542714350794081,-1.4619184377800443,1.253959124139426,0.20262850309528216,-0.0005354219387748316,-0.0009819596666169467,-0.0016654793003146188,-0.00011230876795603187,-0.0008300724298788604,-4.059804264926816e-06,0.001814448473343734,-0.3063471019268036,-48.27420425415039,3.60880970954895,16.12158966064453,-1.0163472890853882,-1.2696030139923096,-0.07411040365695953,,,,,,,,,
1739374386.0902169,0.12547127631513524,0.986139067317039,0.22558132479871082,-1.5427122748339368,-1.4619178363274514,1.253959558931292,0.2026244715893335,0.0011568405959552083,-0.00035908119328402596,-0.0003005486735429911,-0.0005959943690376688,0.00040996160621860583,-0.0008454416345971003,0.00028834244551734564,-0.2825433909893036,-48.24643325805664,3.58500599861145,16.09381866455078,-1.0090230703353882,-1.2622787952423096,-0.04023589566349983,,,,,,,,,
1739374386.1012046,0.12547504488529765,0.9861363665242905,0.22558062484788563,-1.542710096923269,-1.461918016214872,1.2539593246523701,0.20262371457664605,0.0007001668626559573,0.00021971433425023372,0.0005630550442686825,5.573133528783295e-05,0.0009021744669748692,-0.0006361516615827667,-7.955356436551206e-05,-0.3063471019268036,-48.24643325805664,3.58500599861145,16.09381866455078,-1.0163472890853882,-1.2696030139923096,-0.03382720425724983,,,,,,,,,
1739374386.1132205,0.1254746751102113,0.986142102752917,0.22557899758815778,-1.5427084342137294,-1.461917747170867,1.2539611296754807,0.2026217920103248,0.0014029889779544917,0.001588338227300085,0.00040673740183167374,0.0009148604054762485,-0.0006840010984999421,-0.0006313674148420717,-0.0008816036283065867,-0.3301508128643036,-48.29800796508789,3.58500599861145,16.07001495361328,-1.0227559804916382,-1.2760117053985596,-0.013685601763427258,,,,,,,,,
1739374386.1242757,0.12547291899847218,0.9861442486247507,0.2255785804559794,-1.5427120524427518,-1.46192129258157,1.2539600661671297,0.20262445863050235,0.0009135724155476537,0.0009053833176963346,0.0007568073044727387,-0.00035184821907161,0.0012113868173092,-0.0005480303632418134,-0.0003832593102950467,-0.3063471019268036,-48.32181167602539,3.58500599861145,16.09381866455078,-1.0163472890853882,-1.2760117053985596,-0.04023589566349983,,,,,,,,,
1739374386.1352525,0.12547219810768237,0.9861390558703135,0.2255806948071645,-1.5427081027031273,-1.461921830009117,1.2539636932895593,0.2026260820411374,0.000583236158230355,-0.0005607134064930842,-5.6467920194586694e-05,0.0007998409813185003,0.0003133390186599345,0.0006551465813998449,-0.00035959558454769295,-0.3063471019268036,-48.27420425415039,3.58500599861145,16.07001495361328,-1.0026143789291382,-1.2824203968048096,-0.05396880581974983,,,,,,,,,
1739374386.1463096,0.12547291899415663,0.9861411720664461,0.22557883674252174,-1.542707744642915,-1.4619218171622135,1.2539619011334757,0.20262294314566864,0.0001838580019125287,0.0012916462996117204,-0.0011462534632396748,0.0015001246749186336,-0.0002090973319762774,-0.0005486685037679724,-0.0015326448086922348,-0.3063471019268036,-48.27420425415039,3.60880970954895,16.07001495361328,-1.0026143789291382,-1.2824203968048096,-0.027418512850999832,,,,,,,,,
1739374386.157187,0.12546920839195974,0.986140823766031,0.22558061945511754,-1.5427120534186596,-1.4619230247447677,1.2539643092957165,0.20262759880094486,0.0001986173056074392,0.0003892904197409222,0.0005487071938028629,-0.0006825026949518588,-0.001885207124649612,0.0007256983471518244,0.0008367168487020217,-0.2547723948955536,-48.27420425415039,3.58500599861145,16.09381866455078,-1.0026143789291382,-1.2760117053985596,-0.06678618490695953,,,,,,,,,
1739374386.168223,0.1254719697390661,0.9861437838263328,0.2255804188770858,-1.542714055745951,-1.4619200556188263,1.2539632507666882,0.20262927087165614,0.0007013510543793074,-0.000429687453062248,-0.0001852850018948132,-0.0010190315315824398,-0.001641824564599722,0.00048441402079450757,0.0012805798081215794,-0.3063471019268036,-48.32181167602539,3.58500599861145,16.12158966064453,-1.0026143789291382,-1.2696030139923096,-0.05396880581974983,,,,,,,,,
1739374386.179145,0.12547289262812997,0.9861407799221173,0.22557867624662564,-1.5427092986544457,-1.461916935974521,1.2539606401969194,0.20262294316967008,0.0002739975123216297,0.0010570063411844373,-0.0014628806882029583,0.0001438594519806912,0.0012445815903571592,-0.0010220126161400423,-0.0006366393134906699,-0.3063471019268036,-48.29800796508789,3.60880970954895,16.09381866455078,-1.0163472890853882,-1.2558701038360596,-0.027418512850999832,,,,,,,,,
1739374386.189262,0.1254711937811954,0.9861369911399329,0.22558036034443704,-1.5427122539978313,-1.4619216907042312,1.2539621328032329,0.20262196603045335,-0.001787497114140827,-0.0011061282100416963,0.00012611508621363117,-8.265070181790761e-05,-0.0017106733534518186,-0.0021573053914803707,-7.160706345126357e-05,-0.2825433909893036,-48.24643325805664,3.5572350025177,16.09381866455078,-1.0163472890853882,-1.2696030139923096,-0.0072769103571772575,,,,,,,,,
1739374386.1992667,0.12547014306345283,0.9861402373116958,0.2255805416412745,-1.5427102084343178,-1.4619194723837057,1.2539644265406926,0.20262450894655265,-0.0013682386351698615,0.00089416599257547,0.0008301337466877584,9.541996378104026e-05,0.0008301095798318959,0.0014356963080865905,0.00023195493838076657,-0.2825433909893036,-48.27420425415039,3.58500599861145,16.09381866455078,-0.9962056875228882,-1.2760117053985596,-0.013685601763427258,,,,,,,,,
1739374386.2102215,0.12547120643532136,0.9861371221086266,0.22558072980168561,-1.542711968704751,-1.46192291353739,1.2539601863997296,0.20261742306881605,-0.0001767565939765882,-0.0015002805658468467,0.0003230081115194523,0.0008385226012422839,-4.9298574253073886e-05,-0.002555373908654161,-0.0029886603725644218,-0.2825433909893036,-48.22262954711914,3.58500599861145,16.09381866455078,-1.0026143789291382,-1.2760117053985596,0.019273381680250168,,,,,,,,,
1739374386.2212577,0.12546907053587816,0.986139172526812,0.22558072983070032,-1.5427119391071622,-1.46191892680896,1.2539639670115157,0.2026247770400893,-0.0009260578688395729,6.852350740562145e-06,0.00133973029312135,0.0014957293508721904,-0.0004704040364500546,0.0016368873634238978,-0.0003785433999095555,-0.2825433909893036,-48.24643325805664,3.58500599861145,16.09381866455078,-1.0090230703353882,-1.2760117053985596,-0.03382720425724983,,,,,,,,,
1739374386.2312667,0.1254689701970204,0.9861428850271041,0.22557787740198318,-1.542708213186242,-1.4619183233364617,1.2539628557658884,0.20262922090623836,-0.0002960714182542244,0.0005221672076128633,0.0002481352230923634,-8.570124615587605e-05,-0.00019237981413887435,-0.00017336702886788043,0.0015072420228694676,-0.2547723948955536,-48.29800796508789,3.63261342048645,16.07001495361328,-1.0090230703353882,-1.2622787952423096,-0.08051909506320953,,,,,,,,,
1739374386.2422194,0.1254743590450759,0.9861390287768347,0.22558131373763926,-1.5427119903873874,-1.4619186131679864,1.2539611783673177,0.20262620498894446,0.0009410356835840987,0.000737876392978166,0.00024010198550291332,-0.0010655094096908412,-0.0006840480474382495,-0.00016246077080303887,-0.000363881045001365,-0.3301508128643036,-48.27420425415039,3.5572350025177,16.12158966064453,-1.0026143789291382,-1.2760117053985596,-0.05396880581974983,,,,,,,,,
1739374386.2531607,0.12547460514910924,0.9861409390971816,0.22557958133355804,-1.5427122057098208,-1.4619222625969357,1.253959443687499,0.20262532436375177,0.0008043377977145472,0.0002465197900051729,0.001137971695781839,-0.00024649797940280076,-0.0012311728320590206,-0.003525082607997993,1.836061539998887e-06,-0.3301508128643036,-48.27420425415039,3.60880970954895,16.09381866455078,-1.0090230703353882,-1.2696030139923096,-0.04756011441349983,,,,,,,,,
1739374386.2632525,0.12547461947372715,0.986142781556619,0.2255806605108247,-1.5427120169003399,-1.4619214131637899,1.2539644597653021,0.20262292559404935,0.00047837916328145576,0.0003036065200322843,0.0014031662956489562,-0.0008387260574070526,0.00029501710059968674,0.0005892251760398227,-0.0016041679518279165,-0.3301508128643036,-48.29800796508789,3.5572350025177,16.09381866455078,-1.0163472890853882,-1.2760117053985596,-0.027418512850999832,,,,,,,,,
1739374386.2741513,0.1254712064774269,0.9861391630092228,0.22557954593962323,-1.5427122627133594,-1.4619201686896162,1.2539626857571262,0.20262060145858052,1.2524566314649449e-05,-0.0009469794714752867,-0.0003336934238445415,-3.954649960878772e-05,-0.0006813110381048564,-0.00017165129965765423,-0.001683519631251827,-0.2825433909893036,-48.24643325805664,3.60880970954895,16.12158966064453,-1.0026143789291382,-1.2622787952423096,-0.0072769103571772575,,,,,,,,,
1739374386.2861838,0.12547291769608732,0.9861445609546541,0.22557500366687772,-1.5427084245911737,-1.4619178541897027,1.2539637084754303,0.20262494384836605,0.000244128101234831,0.0012877141989514444,-0.0011734922806087523,0.0009026914859646284,0.0014240851263894795,0.0006436135812956291,0.0008849744385842975,-0.3063471019268036,-48.32181167602539,3.63261342048645,16.07001495361328,-1.0090230703353882,-1.2696030139923096,-0.04023589566349983,,,,,,,,,
1739374386.2962055,0.12546920853661978,0.9861418459742611,0.2255803612844931,-1.542714048471161,-1.461921274694999,1.2539626163754145,0.20262759929519572,-0.00041534686747671213,4.362623603661838e-05,-0.0011336876443729087,-0.002338180662780104,0.0004685849168914001,0.0008336095618549728,0.0004177944525238402,-0.2547723948955536,-48.29800796508789,3.5572350025177,16.12158966064453,-1.0163472890853882,-1.2696030139923096,-0.06678618490695953,,,,,,,,,
1739374386.3081808,0.12546841747528703,0.9861419466218735,0.225581167696631,-1.5427092977446173,-1.4619225711148396,1.2539633665490464,0.20262207773447072,-0.0005636774859436538,0.0008842066958496301,0.00015540840332399071,0.0014792611068108266,5.8554854710746456e-05,-0.00033459868813564864,-0.0013972417127368375,-0.2547723948955536,-48.29800796508789,3.58500599861145,16.09381866455078,-0.9962056875228882,-1.2696030139923096,-0.020094294100999832,,,,,,,,,
1739374386.318216,0.12547120614749466,0.9861411725010871,0.22557860718243078,-1.5427094403593193,-1.4619173330179251,1.253959769390608,0.20262927776577677,0.0003199259468959218,0.001054096961459781,0.00016550434143165304,-2.7519459170778614e-05,0.0006886732223839056,-0.0006890519091613222,0.000923130075150258,-0.2825433909893036,-48.27420425415039,3.58500599861145,16.09381866455078,-1.0163472890853882,-1.2760117053985596,-0.08051909506320953,,,,,,,,,
1739374386.329234,0.12547078312894927,0.986136987644678,0.22557965974299926,-1.542716120173455,-1.4619184324847005,1.253961260977753,0.20262447742134992,-0.00040118711566281847,-0.0010584128929276918,-0.0003829427628110763,-0.0025605223568060877,0.00030680311547904475,0.0006211758613395172,0.0008559502027334454,-0.3063471019268036,-48.24643325805664,3.60880970954895,16.14539337158203,-1.0163472890853882,-1.2760117053985596,-0.04023589566349983,,,,,,,,,
1739374386.3412366,0.1254711976760012,0.9861401291262515,0.22557929061538026,-1.5427112600755815,-1.4619188840334536,1.2539605427872922,0.20262449783443218,-0.0003684537888848069,-0.0003336868244423356,-0.00035408188362225557,0.0008033962547753059,0.0008261382223170728,0.0010714954722316162,-0.00036457587530467803,-0.2825433909893036,-48.27420425415039,3.58500599861145,16.09381866455078,-1.0090230703353882,-1.2696030139923096,-0.04023589566349983,,,,,,,,,
1739374386.3521898,0.12547120647747834,0.9861396422375311,0.22558096648175235,-1.542712295571249,-1.4619185003571944,1.2539609447001467,0.20262846518428218,0.00014892712314056963,0.0008399844033386793,-0.0009936517003488262,-0.0005465791955241133,-0.0007533357473991395,0.0010747101082136804,0.0005561622581927185,-0.2825433909893036,-48.24643325805664,3.58500599861145,16.12158966064453,-1.0163472890853882,-1.2824203968048096,-0.07411040365695953,,,,,,,,,
1739374386.3632226,0.12547264359587793,0.9861360554855454,0.22557963354665322,-1.5427142748985576,-1.4619213953838859,1.2539643042298092,0.20262608202314694,-0.0005176287028018874,-0.0013045719912807272,-0.0004814558213615031,-6.768627958219233e-05,-2.6892496856449226e-05,0.0003437331850200453,0.00032642548410993875,-0.3063471019268036,-48.24643325805664,3.60880970954895,16.12158966064453,-1.0163472890853882,-1.2760117053985596,-0.05396880581974983,,,,,,,,,
1739374386.3742254,0.12547291896050092,0.9861382046873836,0.22558041500263226,-1.5427122929482104,-1.4619211885773793,1.2539590057558392,0.20262370085975032,0.0002211258620568087,-0.0020562895361427224,-0.00011821702294488861,-0.0013004939733377322,-0.0013855143636732948,-0.001026993433748638,-0.0005559620538732066,-0.3063471019268036,-48.24643325805664,3.58500599861145,16.12158966064453,-1.0090230703353882,-1.2696030139923096,-0.03382720425724983,,,,,,,,,
1739374386.3846197,0.12547121036574116,0.9861435581581947,0.22557871514961794,-1.5427121823711536,-1.461918352404848,1.253963558196333,0.20261980426809192,3.074165212886467e-05,0.0006547644021210206,-0.000570951376884611,0.000748031508632578,-0.00012423910623941343,0.0016266359239849033,-0.0007578113943325654,-0.2825433909893036,-48.32181167602539,3.60880970954895,16.12158966064453,-1.0163472890853882,-1.2696030139923096,-0.0008682189509272575,,,,,,,,,
1739374386.3952775,0.12547320757793767,0.9861411345877544,0.22557857780078383,-1.5427101648914372,-1.4619229537715128,1.2539613004107804,0.2026202299078982,0.0009503519769414166,0.0009410823606273043,3.6740710331650356e-05,0.0008869341667190468,-0.0013664525021875825,-0.0008195317289375985,-0.0014561499022151781,-0.3063471019268036,-48.27420425415039,3.58500599861145,16.07001495361328,-1.0026143789291382,-1.2760117053985596,-0.027418512850999832,,,,,,,,,
1739374386.4062989,0.1254690706460195,0.9861427819883586,0.22557742583697785,-1.54271195072823,-1.46191833378414,1.2539641072531182,0.20262290808380365,0.00025124093279608236,0.0016569227942558528,-0.0012218759176741885,-0.0006170117934284742,0.0012260976849084388,-0.0007340054497859908,0.00025255533466431786,-0.2825433909893036,-48.29800796508789,3.60880970954895,16.09381866455078,-1.0090230703353882,-1.2760117053985596,-0.013685601763427258,,,,,,,,,
1739374386.4163282,0.12547463010830703,0.986140130559951,0.22557787732849688,-1.5427151496451814,-1.4619196441955256,1.2539615348286222,0.20262238699272792,0.0007075257457136701,0.001180829408466026,-0.0015138031265294763,-0.002041885394017993,-0.0009234258485709013,0.0006155790227155259,0.0003352487091580473,-0.3301508128643036,-48.27420425415039,3.63261342048645,16.14539337158203,-1.0026143789291382,-1.2824203968048096,-0.013685601763427258,760,811,750,40.197,0,0
1739374386.4272323,0.12547291574287653,0.986143817201608,0.22558348467549627,-1.5427101575417048,-1.461923313785257,1.25396400406203,0.2026223839978473,0.0008108457032921462,0.0013804112476841482,0.0012950703973736719,0.001210914137521218,-0.0012154000300801764,0.001303504877333156,-0.0002574773951703679,-0.3063471019268036,-48.32181167602539,3.5572350025177,16.07001495361328,-1.0026143789291382,-1.2760117053985596,-0.013685601763427258,760,810,750,40.197,0,0
1739374386.438175,0.12546920842811188,0.9861410568377373,0.22557829331583876,-1.5427102706502829,-1.4619169470159388,1.2539590727789616,0.2026206975367889,-0.0009823395629981906,0.0007966116604249308,-0.0012362275496532323,0.0011900263977110944,0.0003437014036992807,-0.0010108867033854067,-0.0008575066239098943,-0.2547723948955536,-48.27420425415039,3.58500599861145,16.07001495361328,-1.0163472890853882,-1.2696030139923096,-0.0072769103571772575,760,812,749,40.305,1,0
1739374386.4481914,0.1254711156533144,0.9861389414161209,0.22557939728500565,-1.5427133138969011,-1.4619217756280911,1.2539639684590378,0.20262567916788454,-0.0006037982641276496,-0.00039139448191739985,0.0001539687659796766,-0.0006126090050954235,-0.0003113576255721789,0.002168540731536949,0.0005887292970370677,-0.2825433909893036,-48.24643325805664,3.60880970954895,16.14539337158203,-1.0163472890853882,-1.2760117053985596,-0.04756011441349983,760,812,750,40.197,0,0
1739374386.4591556,0.12546749601539794,0.9861390287755185,0.2255796562292986,-1.542711279795722,-1.461919290460937,1.2539643164179093,0.20262685232050553,-0.0013734003144017363,-0.00040143207781240573,0.00033833956878832395,0.0009256215141032747,-5.44016927101507e-05,0.0008432181124672769,-5.202694631149167e-05,-0.2309686839580536,-48.27420425415039,3.60880970954895,16.09381866455078,-1.0090230703353882,-1.2760117053985596,-0.06037749722599983,760,813,752,40.522,0,0
1739374386.469258,0.1254745963612107,0.9861364143964653,0.22558144268797556,-1.5427104967591911,-1.4619226293001475,1.2539589666697168,0.20262759734306626,0.0016063723462579093,-0.0016305881594877154,0.00017877963968294805,0.00040275209926380744,-0.0017826927876095327,-0.00104947150361382,0.0013707771906063932,-0.3301508128643036,-48.22262954711914,3.58500599861145,16.07001495361328,-1.0090230703353882,-1.2696030139923096,-0.06678618490695953,760,817,749,40.088,1,0
1739374386.479288,0.1254712064768995,0.9861428076502073,0.22557836816480392,-1.5427140029804505,-1.4619192575723359,1.253963804566463,0.20262462085371358,-0.0002495765780580351,0.0011826705518107215,-0.0010430692919189822,-0.0002780384719403942,-0.001556328493200389,0.00046994658879158016,-5.676705576667144e-05,-0.2825433909893036,-48.29800796508789,3.58500599861145,16.14539337158203,-1.0090230703353882,-1.2824203968048096,-0.013685601763427258,759,813,749,40.197,1,0
1739374386.4902532,0.12547291896205556,0.9861371468298796,0.2255799750496724,-1.5427133640335629,-1.4619169320069083,1.2539605035515171,0.20262715811410353,0.00026974409243396037,0.00023840781357006076,2.3634911603316296e-05,-0.000776575217970361,0.0006095040509660871,-0.00019605947500070565,0.001596739800117907,-0.3063471019268036,-48.22262954711914,3.60880970954895,16.12158966064453,-1.0163472890853882,-1.2696030139923096,-0.05396880581974983,759,813,748,40.305,0,0
1739374386.5011494,0.12547120593291805,0.9861409269454603,0.22558144236579863,-1.5427141325535683,-1.4619202069954196,1.2539644656337854,0.20262370081182146,0.0009821622813483732,0.0018318887037739643,0.0006920580586498184,-0.0009377522508100401,0.0010237340124696697,0.0015016994120241485,-0.0002471755314055053,-0.2825433909893036,-48.27420425415039,3.58500599861145,16.12158966064453,-1.0163472890853882,-1.2760117053985596,-0.03382720425724983,761,812,750,40.197,1,0
1739374386.5112035,0.12547291758756654,0.9861463528143168,0.22557871138677638,-1.542714248381724,-1.461917795964867,1.2539597262703894,0.2026262453295062,-0.00017970862430254897,0.0037656165044006864,-7.876465533111307e-05,-0.00036724341940306084,0.00021887232637038206,-0.0006774298445913218,-0.00021873587991422727,-0.3063471019268036,-48.34958267211914,3.60880970954895,16.12158966064453,-1.0090230703353882,-1.2760117053985596,-0.05396880581974983,760,813,751,40.197,1,0
1739374386.5212147,0.12547109959358096,0.9861365150062615,0.2255796571867772,-1.5427101027193924,-1.4619188820384545,1.253961791097319,0.2026299923338814,8.698498457192805e-05,-0.0015141859648735401,-0.0004242715266205389,0.000774501249557306,0.0018307642259753148,-0.0011448190785199948,0.001541113244933731,-0.2825433909893036,-48.22262954711914,3.60880970954895,16.09381866455078,-1.0090230703353882,-1.2622787952423096,-0.08692778646945953,761,813,752,40.305,1,0
1739374386.5323954,0.12546825895134625,0.9861390287714886,0.22558065250984766,-1.5427142824913735,-1.4619233830231904,1.2539589548227237,0.20262771544842983,-0.0008396518531093123,2.159751198604399e-05,0.00031520269483670607,-0.0008767171760108814,-0.0006457489482811196,-0.0013553742972486644,0.0013393810629365188,-0.2547723948955536,-48.27420425415039,3.58500599861145,16.12158966064453,-1.0026143789291382,-1.2696030139923096,-0.06678618490695953,760,813,751,40.197,1,0
1739374386.543235,0.1254746305369928,0.9861381309491415,0.2255814427915871,-1.5427160427148203,-1.461917796488444,1.2539597305505286,0.20262370275053707,0.0015147837590688334,0.0001897385917491571,0.0005745774514998919,-0.0015230474799084242,0.0013480767740775904,0.00036627808648130296,0.0017503106850701835,-0.3301508128643036,-48.27420425415039,3.58500599861145,16.14539337158203,-1.0090230703353882,-1.2760117053985596,-0.03382720425724983,759,812,749,40.197,0,0
1739374386.5542288,0.12547174565390926,0.9861443264717894,0.2255813630869866,-1.5427092860908356,-1.4619229383127923,1.2539654663348998,0.2026221185610925,0.0003097140755333168,0.0006779651505794443,0.0009049018067442535,0.0002596454793821658,-0.0018145290052063486,0.0007201669304063138,0.00025178430721621765,-0.3301508128643036,-48.32181167602539,3.58500599861145,16.09381866455078,-1.0026143789291382,-1.2888290882110596,-0.020094294100999832,760,812,750,40.197,1,0
1739374386.5652099,0.12546907063896018,0.9861404713397083,0.22557963257713032,-1.5427091952337704,-1.4619215906649101,1.253960993964337,0.20262447596301406,-0.00036545767061283346,0.0005102847180078767,-4.488416683931409e-05,0.00033595101733514506,-0.00014350422358827956,-0.00015775461560009067,0.0006825151503029958,-0.2825433909893036,-48.27420425415039,3.60880970954895,16.09381866455078,-1.0090230703353882,-1.2824203968048096,-0.04023589566349983,761,810,750,40.088,1,0
1739374386.5752814,0.1254687528863619,0.9861380273044958,0.2255796055989178,-1.5427119417896376,-1.4619180097452624,1.253963415147784,0.20262928415677137,-0.0007774658842160176,-0.0004411921879176834,0.0006936659741681805,-0.0005408912451870895,0.001525500683400707,0.0014831111477864411,0.0009238839321122697,-0.2825433909893036,-48.27420425415039,3.58500599861145,16.09381866455078,-1.0163472890853882,-1.2760117053985596,-0.05396880581974983,760,811,750,40.197,1,0
1739374386.5861495,0.12547110055635832,0.9861367271594675,0.22557966108071992,-1.5427119418400068,-1.4619210721813818,1.253961142022554,0.20262102616775804,-0.0008588938606500456,-0.0010605320480301576,-0.0003821024111973054,-0.00012636914615060885,-0.0012198854869079829,8.729060685157204e-05,-0.002131230725540818,-0.2825433909893036,-48.24643325805664,3.60880970954895,16.09381866455078,-1.0090230703353882,-1.2760117053985596,-0.0008682189509272575,760,812,751,40.305,1,0
1739374386.5971408,0.1254746303970732,0.9861381304481058,0.2255813966869123,-1.5427076346019277,-1.4619228998148874,1.2539648314806469,0.20262557306724566,0.0007660034136635386,0.00018931939853956725,0.0004360024745471825,0.0018015070567327345,-0.001775264407596404,0.0009979561748275003,-0.0007771820319331691,-0.3301508128643036,-48.27420425415039,3.5572350025177,16.07001495361328,-1.0026143789291382,-1.2824203968048096,-0.013685601763427258,760,811,750,40.197,1,0
1739374386.6072588,0.1254711244427339,0.986137030820119,0.2255804978080405,-1.542707741668513,-1.4619179212991944,1.2539594288945868,0.20262683991725763,1.4802117591330782e-05,-3.492751067185075e-05,0.00047481629864283814,0.001283008859238266,0.0008618810553152961,-0.0011185846533266252,-0.00013017479544263834,-0.2825433909893036,-48.24643325805664,3.58500599861145,16.07001495361328,-1.0090230703353882,-1.2696030139923096,-0.06037749722599983,760,812,750,40.197,1,0
1739374386.618215,0.1254712064770318,0.9861381304141542,0.22557858104098946,-1.5427120271389927,-1.461919713500266,1.2539609804822995,0.2026225935949487,-1.7097124212960436e-05,-0.0004448848129133113,-2.0334088344267393e-05,-0.001150749428045965,0.0002717899673163336,-0.000729961545907715,0.0009865550286068596,-0.2825433909893036,-48.27420425415039,3.58500599861145,16.09381866455078,-0.9962056875228882,-1.2824203968048096,-0.06037749722599983,760,812,750,40.305,1,0
1739374386.6282864,0.1254729189982261,0.9861428859385637,0.22557787706952553,-1.5427161330975363,-1.4619221419224027,1.2539648648590567,0.20262683961130645,0.0003488978928596525,-0.0006318504019088053,-0.00010430561938115234,-0.0010543856827156118,-0.0003439350706545819,-0.00033434598918829833,0.0006628755157817529,-0.3063471019268036,-48.29800796508789,3.63261342048645,16.14539337158203,-1.0090230703353882,-1.2824203968048096,-0.06037749722599983,759,813,750,40.197,1,0
1739374386.6391697,0.12547289230438147,0.9861391754215161,0.22557753033178324,-1.5427122491842957,-1.461916930036672,1.2539596636088337,0.20262613451446881,9.802600749688191e-05,-0.0001583481620993191,-0.001091476703417032,-0.0007987765158620987,8.47617861172506e-05,-0.0003841912118303483,-0.0008874767836850964,-0.3063471019268036,-48.24643325805664,3.60880970954895,16.09381866455078,-1.0163472890853882,-1.2622787952423096,-0.05396880581974983,760,810,751,40.088,1,0
1739374386.6492038,0.12547333237603983,0.9861360464951233,0.22558143422743832,-1.5427065458699878,-1.4619178561671042,1.2539597242784948,0.20262750512239328,-4.282531857242747e-06,-0.0011774123724396697,0.00038792156500040584,0.0010966031247867827,0.0005553420312982907,-0.000916126358253786,0.0002367773548760827,-0.2825433909893036,-48.24643325805664,3.58500599861145,16.04621124267578,-1.0090230703353882,-1.2760117053985596,-0.05396880581974983,760,811,752,40.305,1,0
1739374386.6601598,0.12547289234038375,0.9861344943330849,0.22558144279590317,-1.5427075158712342,-1.4619169500438889,1.253960468830153,0.20262838432126545,0.0009539315996226132,-0.0011654029284195746,-0.001260728378756315,0.00044438225207119226,2.1813384429909973e-05,-6.788918904335271e-05,-0.0002479478609630193,-0.3063471019268036,-48.19485855102539,3.58500599861145,16.07001495361328,-1.0163472890853882,-1.2824203968048096,-0.07411040365695953,760,813,750,40.305,1,0
1739374386.670251,0.1254729189980756,0.986142848392848,0.22558352258590383,-1.542709492953617,-1.461917795964665,1.2539608249123506,0.20262374017380133,-0.00025778911286166253,0.0022940231529079234,0.0010001265879115372,0.0015127458856128357,0.0016499905484337045,-0.0010875720399115506,-0.0012339194177502571,-0.3063471019268036,-48.29800796508789,3.5572350025177,16.09381866455078,-1.0090230703353882,-1.2760117053985596,-0.03382720425724983,761,812,750,40.088,1,0
1739374386.6811767,0.12547120517535612,0.9861343301218491,0.22557966011902922,-1.5427122869176713,-1.4619221450609123,1.2539628493005037,0.20262294330834554,-0.0005305718340904947,-0.0017508049167561952,0.000713364337886753,-0.0004114005108180323,9.377193438710719e-05,-0.0008955598171636757,-0.0001728871150417291,-0.2825433909893036,-48.22262954711914,3.60880970954895,16.12158966064453,-1.0090230703353882,-1.2622787952423096,-0.027418512850999832,759,813,751,40.197,1,0
1739374386.6912413,0.12547096912652764,0.9861409365593303,0.22557966011902922,-1.5427120554403368,-1.4619179613116011,1.253963206517002,0.20262101163561058,0.0005217252639320628,0.0005917842263964279,-0.00019803500877117392,-0.0009290465417421726,-1.904698664300408e-05,0.0010363802032304248,-0.0004922961101521628,-0.2825433909893036,-48.27420425415039,3.60880970954895,16.12158966064453,-1.0090230703353882,-1.2696030139923096,-0.020094294100999832,761,808,750,40.305,1,0
1739374386.7022276,0.12547120647347534,0.9861408345963596,0.22557942390802957,-1.5427134433704217,-1.4619205183610804,1.2539593197149559,0.20261974499306049,-0.00021685930771971588,0.0004740176860836435,-0.000690148058017146,-0.0010104778630526793,-0.00018020154269166445,-0.0011091044177850666,-0.0021308006572184745,-0.2825433909893036,-48.27420425415039,3.60880970954895,16.12158966064453,-1.0227559804916382,-1.2696030139923096,-0.027418512850999832,760,811,750,40.197,1,0
1739374386.713176,0.125474695600391,0.9861428589191059,0.22558144279560383,-1.5427133792540946,-1.4619172936268077,1.2539609795830513,0.2026276543644557,0.0005471706429858224,0.0013641302517031137,0.001141874811658356,-0.00033279764086905636,0.002282102098736659,-0.0017178870284394847,0.0003104042516514608,-0.3301508128643036,-48.29800796508789,3.58500599861145,16.14539337158203,-1.0163472890853882,-1.2824203968048096,-0.06678618490695953,759,812,750,40.305,1,0
1739374386.7242107,0.12547120637006856,0.9861390712055429,0.2255824946510252,-1.5427120268277725,-1.4619185540722366,1.2539606059568207,0.20262407456444662,3.6422754504632564e-05,-0.0001662240597255571,0.0012815609366238552,0.000821001051627371,-5.522448916132032e-05,-0.0007194929148814533,-0.00013299083644062904,-0.2825433909893036,-48.24643325805664,3.60880970954895,16.09381866455078,-1.0026143789291382,-1.2824203968048096,-0.03382720425724983,760,812,749,40.197,1,0
1739374386.7351506,0.12547463151895707,0.9861411617588942,0.22558111921283372,-1.542711572643196,-1.4619212790533178,1.2539627721525286,0.20262343065332908,0.0009985710168260776,2.4138673263899023e-05,4.8719559846727644e-05,-0.0007598400423991186,-0.0010717204087304659,0.00023751247649115485,0.0013227966091443346,-0.3301508128643036,-48.27420425415039,3.58500599861145,16.12158966064453,-1.0163472890853882,-1.2888290882110596,-0.027418512850999832,760,811,750,40.197,0,0
1739374386.7451696,0.1254712064774949,0.9861364216014166,0.22558144289857524,-1.5427122627725849,-1.4619233828699862,1.2539647466544812,0.2026261363766978,-5.494793164598273e-05,-0.00226212634081937,9.068357818332211e-05,-0.00024209264016707073,-0.0023403608129292314,-0.0007355619601854865,3.3252570284302094e-06,-0.2825433909893036,-48.22262954711914,3.58500599861145,16.12158966064453,-1.0026143789291382,-1.2824203968048096,-0.027418512850999832,760,812,749,40.197,1,0
1739374386.755258,0.12547391957458914,0.986142569795001,0.22557965720284578,-1.5427122548526366,-1.4619210565304652,1.2539633761269853,0.20262342874457884,0.0006570755916504109,0.00023295126098091398,-0.00013080807799251652,-0.0005454458721904553,0.00012141036017108681,0.0006813303201855706,-2.5932355038990173e-05,-0.3301508128643036,-48.29800796508789,3.60880970954895,16.09381866455078,-1.0090230703353882,-1.2760117053985596,-0.027418512850999832,760,812,751,40.088,1,0
1739374386.7662084,0.1254729176840305,0.9861387512557693,0.2255828052042999,-1.5427143589276424,-1.461922156041983,1.2539623296352072,0.20262608203135962,0.0009253256855122205,0.0006807147866235719,0.00086309528440411,-0.000852292488346725,0.00036869631766225973,0.00021343185738584286,0.0005839655281953242,-0.3063471019268036,-48.27420425415039,3.5572350025177,16.12158966064453,-1.0090230703353882,-1.2888290882110596,-0.05396880581974983,761,811,749,40.088,1,0
1739374386.7781785,0.12547170169468336,0.986134419662904,0.2255771688076613,-1.5427102672928956,-1.4619186087219402,1.2539601870391537,0.202626081535591,0.0004977621395677672,-0.0010461420294205338,-0.0006818987557187896,0.00013076516795772783,-0.0004558492723440448,-0.001176043031516589,-0.0009898661061273001,-0.3301508128643036,-48.22262954711914,3.63261342048645,16.07001495361328,-1.0026143789291382,-1.2760117053985596,-0.05396880581974983,760,812,750,40.305,1,0
1739374386.790211,0.1254712063514135,0.9861389889918398,0.22557868027947497,-1.5427112896675133,-1.4619211750329126,1.2539651787104675,0.2026293391676722,-0.0010158622313111271,-0.0004024754857293209,-0.0007382427058126202,-0.00040787445163728597,-0.0008206869412574082,-0.0004014073339201205,0.0011858511977452706,-0.2825433909893036,-48.27420425415039,3.60880970954895,16.12158966064453,-1.0090230703353882,-1.2824203968048096,-0.08051909506320953,760,811,749,40.088,1,0
1739374386.8012798,0.1254709681861012,0.9861365865155874,0.2255777462118333,-1.542709875926721,-1.4619214214778444,1.2539603807973057,0.20262501642853314,-0.00039183135205458767,-7.638074927530689e-05,-0.00037243653953376735,0.0005047254235282156,-0.0010095238470555824,-0.00034923025963667383,0.0004993711278772925,-0.2825433909893036,-48.27420425415039,3.63261342048645,16.09381866455078,-1.0090230703353882,-1.2696030139923096,-0.05396880581974983,759,813,750,40.197,1,0
1739374386.812181,0.1254688333282559,0.9861407006483132,0.22557894856910427,-1.5427076649640823,-1.4619229534528633,1.2539651127695168,0.20262143768773225,-0.00042409347869199854,0.00013289991314771848,-0.0008041763626097766,0.0012480753462294166,-0.000487859816244413,0.0009556068271095369,-0.00014080090385370516,-0.2825433909893036,-48.29800796508789,3.60880970954895,16.07001495361328,-1.0026143789291382,-1.2824203968048096,-0.013685601763427258,759,813,750,40.305,1,0
1739374386.8231397,0.12547315418305466,0.9861410835435078,0.22557860793601503,-1.5427095156298423,-1.4619232602088255,1.253959324245136,0.2026254444133476,0.000506639342868959,0.00029420550522772974,-0.0011220427199111387,-0.0005716644066976058,0.00011599464135840656,0.0005372180692028,0.0007416964891823132,-0.3063471019268036,-48.27420425415039,3.58500599861145,16.09381866455078,-1.0026143789291382,-1.2696030139923096,-0.04756011441349983,759,811,750,40.197,1,0
1739374386.8332617,0.1254729306669497,0.9861400506631831,0.22557966007102062,-1.5427119644704472,-1.4619189161888138,1.253964477690399,0.20262608202516902,3.797529085649025e-05,0.00032916458497579297,-0.00034594556482332397,-0.0007880337880759958,0.00043173931064327553,0.0025227798163676724,0.00014453681618585535,-0.3063471019268036,-48.29800796508789,3.60880970954895,16.09381866455078,-1.0026143789291382,-1.2760117053985596,-0.05396880581974983,760,814,749,40.197,1,0
1739374386.84418,0.1254682591690386,0.9861381054085185,0.22558146907771692,-1.5427130467983716,-1.4619226902998315,1.2539597175493111,0.20262763057147054,-0.0016856242199205025,-0.0010261634879698295,0.00014849786035130147,3.3448856201310963e-05,-0.0009182436867053217,-6.47772242749959e-05,0.0028996974475539086,-0.2547723948955536,-48.27420425415039,3.58500599861145,16.14539337158203,-0.9962056875228882,-1.2760117053985596,-0.05396880581974983,760,812,750,40.197,1,0
1739374386.8542054,0.12547312846714825,0.9861428598338444,0.22557966012036448,-1.542714325177518,-1.4619197315499008,1.2539635630409454,0.20262557146491608,0.0006287405740317452,0.00037839286644507245,-0.00014131356095053316,-0.00036534401834103873,-0.0014075889814620488,0.0009428275110456918,5.3569521429393425e-06,-0.3063471019268036,-48.29800796508789,3.60880970954895,16.12158966064453,-0.9962056875228882,-1.2696030139923096,-0.013685601763427258,760,810,749,40.197,1,0
1739374386.864209,0.12546920842931272,0.9861369913894465,0.225580415218796,-1.5427077703060865,-1.461917796077287,1.25396117637452,0.20262294316967053,-0.00011084404078169565,-0.0006228956067445915,-0.0013772844399702814,0.00196966927972769,0.00042123259797318443,0.0005779954765982136,-0.0013858163399813133,-0.2547723948955536,-48.24643325805664,3.58500599861145,16.04621124267578,-1.0090230703353882,-1.2760117053985596,-0.027418512850999832,760,813,750,40.088,1,0
1739374386.8751857,0.1254712064774943,0.9861384388387503,0.22557965006859068,-1.5427119503048612,-1.4619210542966194,1.2539620386724661,0.20262532436305775,6.849890390331944e-05,9.916585116640929e-05,-0.0006183117340566993,-0.00038670884515309983,-9.206673436675059e-05,-0.000932207515815138,-0.00048582310619630384,-0.2825433909893036,-48.24643325805664,3.60880970954895,16.09381866455078,-1.0090230703353882,-1.2824203968048096,-0.04756011441349983,760,813,750,40.305,1,0
1739374386.88519,0.1254729189982261,0.9861424824098112,0.2255778861903955,-1.5427104638072568,-1.461916708932825,1.2539597111964382,0.20262255177656924,0.0011092954155579211,0.001496652925974435,-0.00020513323241199983,-0.000163531801014962,0.0018644281026130552,-0.00247923444438046,-0.0010616806935628972,-0.3063471019268036,-48.32181167602539,3.63261342048645,16.07001495361328,-1.0227559804916382,-1.2760117053985596,-0.020094294100999832,760,813,750,40.088,1,0
1739374386.8971424,0.1254711005702089,0.986140429388063,0.22557967178381932,-1.5427152175480516,-1.4619180168616042,1.2539622892460818,0.20262766189792536,-0.0006886423318770716,-1.8591620025616988e-05,-0.00044279863310862265,-0.0013603033849195637,0.0004641064561734207,-0.00012922626507706037,0.00043409980244063555,-0.2825433909893036,-48.29800796508789,3.60880970954895,16.14539337158203,-1.0163472890853882,-1.2696030139923096,-0.04023589566349983,760,814,750,40.197,1,0
1739374386.9081404,0.12547120642906825,0.9861417113940495,0.22558144279607023,-1.5427113402192476,-1.4619178377018829,1.2539633490519928,0.20262719494969036,0.0005305073029986298,0.0003611555953221834,0.0004169978639650856,0.0010138131006558434,0.0019720118470180356,0.00048035416931622586,0.00017082055278608903,-0.2825433909893036,-48.32181167602539,3.58500599861145,16.12158966064453,-1.0090230703353882,-1.2696030139923096,-0.027418512850999832,761,813,750,40.088,2,0
1739374386.9191806,0.1254729180216212,0.9861344083957247,0.22558352258590386,-1.5427094138003796,-1.4619221404264091,1.2539640069697855,0.2026189384428633,0.0005243397944845445,-0.0015474794732265437,0.0005006247637963993,0.0015456162409017754,0.0005876995140674249,0.0012651938147075,-0.0029248941861747344,-0.3063471019268036,-48.22262954711914,3.5572350025177,16.09381866455078,-1.0090230703353882,-1.2760117053985596,0.0064559997990727425,760,812,752,40.305,1,0
1739374386.9291868,0.12547120615194365,0.9861409124508594,0.2255798963300289,-1.5427112754472416,-1.4619189171759404,1.2539601056392362,0.20262687905171547,-0.0010668021465701394,-0.00029894475121803026,-0.00019230048916447424,-0.00018869730787188417,0.00020330789927410528,-0.00023124071380716503,0.0006293997635287312,-0.2825433909893036,-48.27420425415039,3.60880970954895,16.12158966064453,-1.0026143789291382,-1.2760117053985596,-0.06037749722599983,760,813,751,40.088,1,0
1739374386.9402263,0.1254704945210693,0.9861404597958932,0.22558139668735133,-1.5427119877233673,-1.4619221873302983,1.253963688767477,0.20262446041002277,-0.00018796205195934613,0.0011779803110605282,0.0009994306659470455,-0.00048314884351578064,-0.0005463231644594307,-0.0010275524517944197,0.00024803494630867097,-0.2825433909893036,-48.27420425415039,3.5572350025177,16.12158966064453,-1.0090230703353882,-1.2824203968048096,-0.04023589566349983,760,812,750,40.197,1,0
1739374386.9512272,0.12547291895803656,0.9861438873660909,0.2255835686830445,-1.5427114807623876,-1.4619154302778345,1.2539606445661802,0.2026256786795681,0.0005963820557517623,0.002896672976381819,0.0004202079712662856,0.00019295229465189943,0.0018165413772330188,0.0004177340866968176,0.0007926910183799092,-0.3063471019268036,-48.32181167602539,3.58500599861145,16.09381866455078,-1.0291646718978882,-1.2824203968048096,-0.04756011441349983,762,812,751,40.197,1,0
