IITGN-Robotics/Franka_IITGN_ROBOTICS/franka_ros/franka_iitgn/data02/joint_data.csv
time,fr3_joint1_pos,fr3_joint2_pos,fr3_joint3_pos,fr3_joint4_pos,fr3_joint5_pos,fr3_joint6_pos,fr3_joint7_pos,fr3_joint1_vel,fr3_joint2_vel,fr3_joint3_vel,fr3_joint4_vel,fr3_joint5_vel,fr3_joint6_vel,fr3_joint7_vel,fr3_joint1_eff,fr3_joint2_eff,fr3_joint3_eff,fr3_joint4_eff,fr3_joint5_eff,fr3_joint6_eff,fr3_joint7_eff,flexpin1,flexpin2,flexpin3,Force,ContactMic,ContactMic_gt
1739355996.8955173,0.36056611764320406,1.215039848305618,0.31984711568747887,-1.1261909453372738,-1.4252927673787945,1.0159880108089034,0.07555413359058921,-7.757226123283911e-05,-0.00044279217200852473,-0.0008173374466595045,-0.0005374885852913737,-0.0022786418663380335,0.0006166965552220946,0.0016441056111360596,0.9671514630317688,-52.54300308227539,5.893965721130371,17.87512969970703,-1.1793111562728882,-1.4536240100860596,-0.04756011441349983,,,,,,,,,
1739355996.9064453,0.36057353889342136,1.215033287175638,0.3198512961968665,-1.1261908892639505,-1.4252903595668098,1.0159848832926832,0.07554869552876627,0.001693284211600131,-0.0011946563984604349,0.0009020766960462154,-0.0011665115271101952,-0.0018304693180140126,0.0003556932797672773,2.8781092653971593e-05,0.8640020489692688,-52.49142837524414,5.842391014099121,17.87512969970703,-1.1664937734603882,-1.4600327014923096,-0.04023589566349983,,,,,,,,,
1739355996.9164917,0.36056589541354633,1.21503723731572,0.319847433735378,-1.1261887702272886,-1.4252891299209796,1.015989543023354,0.07554905031973061,-0.0003713694326050825,-0.0002830663374006078,-0.0003452649875836681,0.0007947339702822225,-0.0003908609774880467,0.003267995365989118,7.066542846686174e-05,0.9671514630317688,-52.54300308227539,5.893965721130371,17.84735870361328,-1.1729024648666382,-1.4664413928985596,-0.04023589566349983,,,,,,,,,
1739355996.9274395,0.3605698310478094,1.2150397372888757,0.31984815537006483,-1.1261866814321,-1.4252911558973251,1.0159848888798249,0.07554755050572064,0.0007720354160866887,0.00033429135024714597,0.0007930769070292071,0.0007964958300389904,-0.0015256536019264198,0.0006318100669520076,-0.0017081650188196743,0.9155767560005188,-52.57077407836914,5.870162010192871,17.82355499267578,-1.1866353750228882,-1.4600327014923096,-0.0008682189509272575,,,,,,,,,
1739355996.9375155,0.3605677049040935,1.2150392199236615,0.31984915027313104,-1.126193087014357,-1.4252876296083623,1.0159860883230283,0.0755456446967724,-0.00037965372655468055,-0.00017649136249341514,1.1033048905790144e-05,-0.0009483321599749836,0.0017565088079713165,-0.00018248990135587496,-0.0021513517936635317,0.9155767560005188,-52.54300308227539,5.842391014099121,17.87512969970703,-1.1866353750228882,-1.4472153186798096,0.012864691205322742,,,,,,,,,
1739355996.9475327,0.3605622209530543,1.2150372091453856,0.319831693710584,-1.1261977604384594,-1.4252871643368623,1.0159917132332232,0.07554968818247254,-0.0015276405541618829,-0.00048566057726775807,-0.002120670662473325,-0.001139033321955863,0.0004661579931274517,0.0011150221983151135,0.00025910736909388215,0.6418340802192688,-52.49142837524414,5.663863182067871,17.92273712158203,-1.2388204336166382,-1.4142563343048096,-0.013685601763427258,,,,,,,,,
1739355996.9575424,0.36056040450394716,1.2150416721797697,0.31981324071633405,-1.126195982214431,-1.4252861047428966,1.016006659641683,0.07555007345564561,-0.00038445705773231377,0.0009379728716215263,-0.00149020999193686,-0.0004933853796653049,0.00012048179630242968,0.00124699319347448,3.947995697423947e-06,0.5188482403755188,-52.51919937133789,5.640059471130371,17.89893341064453,-1.2388204336166382,-1.4472153186798096,-0.04023589566349983,,,,,,,,,
1739355996.968532,0.3605560003441247,1.2150409295872993,0.31979931943975154,-1.1261973659980842,-1.4252884859423411,1.0160195266685905,0.07554865460259143,0.0007999638536607162,-7.932975450598151e-05,-0.002171858310633998,-0.00038621323822183104,0.0003637746992360934,0.000922360693739819,-3.553942697133276e-05,0.4434697926044464,-52.54300308227539,5.640059471130371,17.84735870361328,-1.2186788320541382,-1.4472153186798096,-0.0008682189509272575,,,,,,,,,
1739355996.9785361,0.36054481553948153,1.2150372122402389,0.31979501756673634,-1.1262001602240843,-1.4252884859423411,1.0160313878039344,0.07554938983815714,-0.0018171866055598199,-0.0017503466653734628,-1.4829974465376775e-05,-0.0017460154339453407,-0.0002474249707768296,0.0016874488233301402,0.0007459617256182704,0.5188482403755188,-52.49142837524414,5.588484764099121,17.87512969970703,-1.2186788320541382,-1.4206650257110596,-0.020094294100999832,,,,,,,,,
1739355996.9895318,0.3605363083808418,1.2150367366757875,0.3197892921672554,-1.1261982884200916,-1.4252880412142799,1.0160425649990725,0.07554941227803992,-0.000981028338916909,-0.0005145769855122446,-0.0008972578436799552,-0.0010720826678031678,-0.0006504701748401635,0.0004807225940792215,0.0005694400115749259,0.5426519513130188,-52.49142837524414,5.616255760192871,17.87512969970703,-1.2324117422103882,-1.4270737171173096,-0.0072769103571772575,,,,,,,,,
1739355997.0005167,0.3605320696740047,1.215036207000157,0.31978435130970445,-1.126199563921803,-1.4252878460397964,1.016044957239683,0.07555191197186237,-0.0012578274137572875,-0.00040130311111804314,-0.000512695455068849,0.0003064900824274546,-0.00016268126753088175,-0.0007872760873284609,0.001062524202617256,0.5426519513130188,-52.44382095336914,5.616255760192871,17.87512969970703,-1.2250875234603882,-1.4069321155548096,-0.027418512850999832,,,,,,,,,
1739355997.0114594,0.3605247606560515,1.2150417104864217,0.31977232194768174,-1.1261984114566963,-1.4252877287674441,1.0160516388873961,0.07554753507836919,-1.6883123125546218e-05,0.0010416693430817742,-0.0016115147353963108,0.0005952786410420982,-0.0008582259091988696,0.0009863502499671147,7.83127200297089e-05,0.5664556622505188,-52.51919937133789,5.663863182067871,17.84735870361328,-1.2250875234603882,-1.4206650257110596,-0.027418512850999832,,,,,,,,,
1739355997.0215487,0.3605187995587255,1.2150379996982432,0.3197698452636049,-1.1262005177427399,-1.4252885261407702,1.0160508829664845,0.07554703152705049,0.0004094108181974515,-9.288742278442384e-05,-0.000712587981674021,0.00026259865686597254,-0.0002638334043728036,-0.0006379709777007981,-0.002088128212729844,0.5902593731880188,-52.46762466430664,5.663863182067871,17.87512969970703,-1.2452291250228882,-1.4142563343048096,0.012864691205322742,,,,,,,,,
1739355997.0335088,0.3605067644219911,1.2150417105958906,0.31976205463543844,-1.1262044461871203,-1.4252868580423257,1.0160519818504803,0.07555417471582437,-0.0010417931274167727,1.8408263840444762e-06,-0.0008241687788602249,-0.001652573062706403,-0.00022515825646129793,-0.0008261944718895511,0.0013374892417610594,0.6418340802192688,-52.51919937133789,5.640059471130371,17.89893341064453,-1.2324117422103882,-1.4142563343048096,-0.04756011441349983,,,,,,,,,
1739355997.043556,0.36049734021838525,1.2150447057654015,0.31975179019203037,-1.1262033880443345,-1.425289285146701,1.0160547854201294,0.07555092322010899,-0.0013294562866236913,0.0012495681790835969,-0.0015702013336394887,-0.000947506880357523,-0.0007981746443499547,-0.0005561974104698595,0.0013080884546403668,0.6418340802192688,-52.57077407836914,5.691634178161621,17.87512969970703,-1.2388204336166382,-1.4069321155548096,-0.020094294100999832,,,,,,,,,
1739355997.0554903,0.3604912963349223,1.2150434545092719,0.319746531216514,-1.1262029402095937,-1.4252909072146043,1.0160512530984052,0.07554853633136563,-0.0007828456716058881,0.0010829532732651674,0.000612164868366642,-0.0005517784536598981,-0.0016764252949239317,-0.0006660282435053599,-0.0012559872279653923,0.6894415020942688,-52.54300308227539,5.663863182067871,17.87512969970703,-1.2250875234603882,-1.4069321155548096,-0.0008682189509272575,,,,,,,,,
1739355997.0655282,0.3604859165617546,1.215047133578386,0.31974319326921913,-1.126205439593372,-1.425286823695471,1.0160547848825519,0.07554941179347782,-0.00018703619460757763,0.0005067271326478822,-0.0005016393069533366,0.00019114227812817223,-0.00033334433748107267,-1.9242828387972953e-05,-0.0001547743755180215,0.6656377911567688,-52.59457778930664,5.663863182067871,17.89893341064453,-1.2324117422103882,-1.4069321155548096,-0.0072769103571772575,,,,,,,,,
1739355997.0755656,0.36047921985996223,1.215047371669739,0.3197347466237862,-1.1262055190693803,-1.425285739522785,1.0160536745680462,0.07554718902810915,-2.950159431097145e-05,0.0008359499845937553,-0.0001564778042379967,5.0204098115239954e-05,0.0007032410060687172,-0.0005655170759608418,0.001275089851647851,0.6656377911567688,-52.59457778930664,5.691634178161621,17.89893341064453,-1.2452291250228882,-1.4005234241485596,0.012864691205322742,,,,,,,,,
1739355997.0864604,0.36047107349547824,1.215047160073194,0.31972834032736835,-1.1261988093169522,-1.4252859869940284,1.0160532701147054,0.07554389218886223,-0.0011494421587916759,0.0003623573125665655,-6.989970798331586e-06,0.00168495856937969,6.450821756470102e-06,-0.0011184902975535638,-0.0013596141568719981,0.6894415020942688,-52.59457778930664,5.691634178161621,17.84735870361328,-1.2388204336166382,-1.3941147327423096,0.03941498324275017,,,,,,,,,
1739355997.0964878,0.36046955408449277,1.2150454475849193,0.31971982742970545,-1.1262076108588122,-1.425286915358197,1.0160532701206872,0.0755446440048104,0.0005149700289809587,0.00032067851287147106,-0.0007402815129865432,0.00011050045273142996,0.0002585021173689806,-0.00040243535806944603,-0.0009020475102812502,0.6656377911567688,-52.57077407836914,5.691634178161621,17.89893341064453,-1.2324117422103882,-1.3941147327423096,0.03300629183650017,,,,,,,,,
1739355997.1064997,0.36046413047863096,1.2150434231170737,0.3197186904038146,-1.126203813063531,-1.4252867547484314,1.016054785440844,0.07554558512917649,-0.00010158001725432061,-0.0007243269240662367,0.00024936798462914256,0.0006290000104092206,-0.00029485408603239463,-0.00013065479675122238,-0.0008440304546645416,0.6656377911567688,-52.54300308227539,5.691634178161621,17.87512969970703,-1.2452291250228882,-1.4069321155548096,-0.0008682189509272575,,,,,,,,,
1739355997.1165645,0.36046544945469955,1.2150434500436427,0.3197176556886412,-1.1261990226079777,-1.4252868625703752,1.0160556513380763,0.07554540745436167,0.001405859273621936,0.00039869283789229,-1.9035632015887728e-05,0.002390169699590331,0.0006324021903778598,0.00024005865501516385,-0.002073246520855528,0.5902593731880188,-52.54300308227539,5.663863182067871,17.82355499267578,-1.2324117422103882,-1.4142563343048096,0.026597600430250168,,,,,,,,,
1739355997.1275358,0.36046337313893134,1.215046492469516,0.31971911904459255,-1.1262047518939182,-1.42528933596715,1.016054785440844,0.07554866773048173,-0.0010003902264777442,0.0007707975186661343,-0.0001459214932424543,0.00037647552289726604,-0.0004485637795787104,-0.00035623213388684844,-0.0011217647839792788,0.6180303692817688,-52.57077407836914,5.640059471130371,17.84735870361328,-1.2388204336166382,-1.4069321155548096,-0.0008682189509272575,,,,,,,,,
1739355997.1385229,0.3604600960603723,1.215048282086475,0.3197191977797899,-1.1262083860895467,-1.425286463770103,1.0160556513380763,0.0755466630519502,-0.00014254372467278464,0.0008837321492238084,0.00017388263124558585,-0.0005091675002573087,-0.00020996845963259646,-0.00013518611204057552,-0.0004148500051342843,0.5902593731880188,-52.57077407836914,5.640059471130371,17.89893341064453,-1.2388204336166382,-1.4142563343048096,0.012864691205322742,,,,,,,,,
1739355997.1485426,0.36045715282572094,1.2150407821530855,0.31971932900590067,-1.1262079264891969,-1.4252893010880234,1.016054785440844,0.07555042359759716,-0.00015283935980594127,7.413578710711529e-05,-0.00042244406008912927,0.0004027815603812653,5.1191224332810905e-05,-0.0005401486833759249,0.0018777593917722194,0.6180303692817688,-52.49142837524414,5.640059471130371,17.89893341064453,-1.2388204336166382,-1.4069321155548096,-0.03382720425724983,,,,,,,,,
1739355997.1594515,0.3604577461607121,1.215045421063515,0.31972129540599376,-1.126206835831329,-1.4252876876592135,1.0160564092134952,0.07554505555348032,0.00039119506768392725,-0.00040233681634172343,0.0013063771812111696,0.00035962329444440435,-0.0007413768979986815,0.00034796080287457387,-0.0021391024807773966,0.6180303692817688,-52.57077407836914,5.616255760192871,17.87512969970703,-1.2388204336166382,-1.4206650257110596,0.026597600430250168,,,,,,,,,
1739355997.1695533,0.36045703084367847,1.2150483615532868,0.3197155705549645,-1.1262065493834792,-1.425288906169286,1.016054027780769,0.07555011736195602,0.000614854109284092,0.0009722584621672916,-0.0011339116918238962,-0.0004583321011313446,-0.0003631084268681669,-0.0012326094505230975,-0.0006672448470954367,0.6180303692817688,-52.57077407836914,5.691634178161621,17.89893341064453,-1.2250875234603882,-1.4005234241485596,-0.013685601763427258,,,,,,,,,
1739355997.1795642,0.36045824296732465,1.2150419491732862,0.31972014262555,-1.126204768783105,-1.4252853528990224,1.016057116516724,0.07555016994012141,0.001038550471814616,-0.0003715344497150362,0.0008678453178485817,-5.4926852399655426e-05,0.00031089912087756014,0.0008108144315467113,0.0004088682180936093,0.5664556622505188,-52.51919937133789,5.640059471130371,17.87512969970703,-1.2452291250228882,-1.4142563343048096,-0.013685601763427258,,,,,,,,,
1739355997.1905272,0.36045381610944266,1.2150418166700692,0.31971943388856083,-1.1262103246131918,-1.42528686286958,1.0160540297271032,0.07555330881858936,0.00016442225189238226,-0.0025841929895938512,-0.0011322444191879158,-0.00038350590586873985,-0.0011373206159921718,-0.0019427990969164987,0.0019642648427237166,0.6180303692817688,-52.51919937133789,5.640059471130371,17.92273712158203,-1.2324117422103882,-1.4005234241485596,-0.04023589566349983,,,,,,,,,
1739355997.20053,0.3604538161053986,1.2150502725944388,0.3197155715256911,-1.1262085419815373,-1.4252866149210965,1.0160602445568865,0.07554865413406722,0.0003107769093828591,0.001191514702389193,-0.0005358581207658262,-0.0005452340129340075,-0.0007572749070145163,0.0007841996193214988,-0.0010235275989206585,0.6180303692817688,-52.59457778930664,5.691634178161621,17.89893341064453,-1.2388204336166382,-1.4142563343048096,-0.0008682189509272575,,,,,,,,,
1739355997.2105374,0.3604526938936511,1.2150448792068953,0.3197191977815678,-1.1262086185109583,-1.4252864768424551,1.0160557867575413,0.07554865462084691,0.0008665872635588523,0.00048532210280503163,0.00042575811279899414,-0.0005841390629153284,-0.00023008048689453003,0.00024519283276659893,-0.0005681857085532344,0.5902593731880188,-52.51919937133789,5.640059471130371,17.89893341064453,-1.2388204336166382,-1.4142563343048096,-0.0008682189509272575,,,,,,,,,
1739355997.220555,0.3604519994233097,1.2150485334165864,0.31971765131154817,-1.1262068358352355,-1.4252897222574161,1.0160593946509673,0.07555214940626688,-8.104871195723038e-05,0.0016375324311574471,-0.00018981121118703112,-7.084653329264239e-05,-0.0009136100403307466,0.0008852322136354303,0.001001310197623425,0.6418340802192688,-52.57077407836914,5.663863182067871,17.87512969970703,-1.2452291250228882,-1.4069321155548096,-0.027418512850999832,,,,,,,,,
1739355997.2314878,0.36044952575206923,1.2150418293685177,0.3197221615135851,-1.1262068358352355,-1.4252869075236212,1.0160578747411735,0.07555187636626218,-0.0008226294971997568,-0.0002837547205983885,0.002057854709118624,0.0008430833810159134,-0.00022326370663866546,0.0008090000667232077,0.00018977899200965068,0.6180303692817688,-52.51919937133789,5.616255760192871,17.87512969970703,-1.2324117422103882,-1.4206650257110596,-0.04023589566349983,,,,,,,,,
1739355997.2415447,0.3604506608919748,1.2150417195372387,0.31972120793703196,-1.1262047560453798,-1.4252853075132341,1.0160587505518428,0.07555016975449048,0.00012952181673133578,-0.0005635576570730465,0.0005758941779352456,0.001034504178071969,0.00036752122166037874,-0.0001342958243615755,9.852505877320592e-05,0.6180303692817688,-52.51919937133789,5.616255760192871,17.84735870361328,-1.2186788320541382,-1.4005234241485596,-0.013685601763427258,,,,,,,,,
1739355997.2515526,0.36045065705929036,1.2150465268099386,0.3197175725784006,-1.1262068358352355,-1.4252899518582263,1.0160604066269336,0.07554865462085199,-0.0004819232322091795,0.0004206217232751385,-0.001329640795139393,-0.00017819047651912334,-0.0004886885732257573,0.000372653473733975,-0.0011406781463980844,0.6180303692817688,-52.54300308227539,5.663863182067871,17.87512969970703,-1.2452291250228882,-1.4142563343048096,-0.0008682189509272575,,,,,,,,,
1739355997.2615962,0.36045169740117644,1.2150438653550004,0.3197212166682531,-1.126204831739009,-1.4252853473043618,1.01606038046358,0.07554688297400777,-0.0004646863034530717,-0.0008720538029317848,2.6052269720422145e-05,0.0001061988500178346,0.001479687197394651,-0.0005538197002026797,0.0005167233921939873,0.5902593731880188,-52.51919937133789,5.616255760192871,17.84735870361328,-1.2452291250228882,-1.4142563343048096,-0.0008682189509272575,,,,,,,,,
1739355997.272477,0.36045229738497353,1.2150434526721967,0.3197212166695865,-1.126203265715427,-1.4252861178607408,1.0160595538122044,0.07554866777456856,0.00073141659615287,9.275094606181643e-05,0.00019923971163436988,0.0009789599558264243,0.00014734451940733915,-0.00017854222347171643,-0.00014547633428713878,0.5902593731880188,-52.54300308227539,5.616255760192871,17.82355499267578,-1.2388204336166382,-1.4069321155548096,-0.0008682189509272575,,,,,,,,,
1739355997.2825236,0.3604511855479099,1.215043857671801,0.3197212166695865,-1.1262065284627611,-1.4252871685624489,1.0160595538124257,0.07555523659582088,0.0012812783066033994,-0.0012308931360659591,0.0002522395521503465,0.0009233041804360429,0.0008038269943294294,-0.0007559509784518762,0.0019223165179872545,0.5664556622505188,-52.51919937133789,5.616255760192871,17.87512969970703,-1.2388204336166382,-1.4069321155548096,-0.04756011441349983,,,,,,,,,
1739355997.2945666,0.3604530998095092,1.2150478145217718,0.31971872532356616,-1.1262093337662566,-1.4252855177822803,1.0160595538124257,0.07554941228692784,0.001151364622160278,0.0011520438068833457,0.0003346483672061149,-0.0008145065997142572,0.00040427966481512587,-0.00037124311446264807,-0.00012409187327069155,0.5426519513130188,-52.57077407836914,5.640059471130371,17.89893341064453,-1.2452291250228882,-1.4069321155548096,-0.0072769103571772575,,,,,,,,,
1739355997.3054621,0.36045294072091943,1.2150437763428454,0.3197213236765643,-1.1262047560494175,-1.4252869149291436,1.0160587961523473,0.07555417520336677,0.0012585949735096917,-0.0005591853203588436,-5.615648058027059e-05,0.0011993291926568434,-0.0002991425123190476,-0.0008074470751581408,0.0024701648433969135,0.5426519513130188,-52.54300308227539,5.640059471130371,17.84735870361328,-1.2324117422103882,-1.4005234241485596,-0.04756011441349983,,,,,,,,,
1739355997.3155608,0.3604500268591749,1.2150454603053282,0.31971505271720113,-1.1262070742538148,-1.4252904799114892,1.0160587961523473,0.07555013034893035,0.000216536607277348,0.0006742852344081282,-0.0005139611829130034,-0.00022144073043704285,-0.0009133764806202005,-0.00025669154151691353,0.00034823797378888806,0.5426519513130188,-52.57077407836914,5.663863182067871,17.87512969970703,-1.2388204336166382,-1.4005234241485596,-0.013685601763427258,,,,,,,,,
1739355997.325574,0.3604525462867136,1.215041949015137,0.319721216625579,-1.1262086979891517,-1.425291118454245,1.016060419709658,0.07554749613475328,0.0006709989919683392,-0.0017631449450039986,0.0003080286634487732,-0.0006897451360863712,-0.0011306708557247012,9.376843447662589e-05,-0.00044705418522534733,0.5426519513130188,-52.51919937133789,5.616255760192871,17.89893341064453,-1.2324117422103882,-1.4142563343048096,-0.027418512850999832,,,,,,,,,
1739355997.3375523,0.3604484915034832,1.215041719427557,0.3197215598915642,-1.1262096516598792,-1.4252854779084214,1.016060419709658,0.07554544648644036,0.0012817365365331403,-0.000372799456689282,0.0012228909389599156,-0.001696882439387265,-4.840459346554883e-05,0.00020865779872821213,-0.0011094682863387743,0.5902593731880188,-52.51919937133789,5.640059471130371,17.89893341064453,-1.2452291250228882,-1.4142563343048096,0.026597600430250168,,,,,,,,,
1739355997.348588,0.3604509097050268,1.2150424288435382,0.319717415108549,-1.1262087244780115,-1.4252882817142842,1.016061334353163,0.07555330378852088,0.001621757765988597,5.4208661914357126e-05,-0.0013233261840843828,-0.0007355525428049249,-0.0011475789454204956,0.00045880678245073417,0.0008000217960189859,0.5664556622505188,-52.51919937133789,5.663863182067871,17.89893341064453,-1.2324117422103882,-1.4206650257110596,-0.04023589566349983,,,,,,,,,
1739355997.3594677,0.3604466947798363,1.2150480885647748,0.31971963520801155,-1.1262104013352268,-1.4252876372594403,1.0160611773706225,0.07554540750631539,-0.0003003727585431862,0.001722739503091699,-0.0002853236914528189,-0.0011978546445727885,-0.0016571613783223,0.00012591752914009428,-0.002295778492182208,0.6180303692817688,-52.59457778930664,5.640059471130371,17.92273712158203,-1.2388204336166382,-1.4206650257110596,0.026597600430250168,,,,,,,,,
1739355997.3694813,0.360446598888486,1.215043423459846,0.31971489455189817,-1.1262082938188123,-1.4252847115289695,1.0160604197096583,0.07554586596208636,-0.0010291782846707225,0.0002963723347485082,-0.0014356043762904008,-2.5980250718706164e-06,0.0008491379777978337,-0.0001468273940326264,-0.0029453910167582453,0.5902593731880188,-52.54300308227539,5.663863182067871,17.87512969970703,-1.2516378164291382,-1.4142563343048096,0.019273381680250168,,,,,,,,,
1739355997.3814592,0.3604442613346433,1.2150463636124353,0.31971659940900715,-1.1262066180653003,-1.4252896045142338,1.016059553812426,0.07554937284881187,-0.0020968313214106927,0.0009263513578417007,0.00016094433508534385,-0.000678088826985294,-0.0009668719719542046,-0.00037278676115228037,-0.0004973269862187147,0.6180303692817688,-52.54300308227539,5.640059471130371,17.87512969970703,-1.2452291250228882,-1.4069321155548096,-0.0072769103571772575,,,,,,,,,
1739355997.3915408,0.3604484609933909,1.2150438918463304,0.31972121632956463,-1.126204769575993,-1.4252875369804945,1.0160604197096583,0.07555251172846683,6.457366900831062e-05,0.00016465209219241228,0.00032207338839746564,0.00018403109615305676,2.547488990330199e-05,-4.0386709689467406e-05,0.0013283532729607616,0.5902593731880188,-52.51919937133789,5.616255760192871,17.87512969970703,-1.2388204336166382,-1.4142563343048096,-0.03382720425724983,,,,,,,,,
1739355997.4025798,0.3604479600339916,1.215042455298336,0.3197194339925655,-1.1262086214440297,-1.425286157114681,1.0160604197096583,0.07554703545122664,-0.00022833950407068887,0.000344350740924588,-0.0003870734921247429,-1.06197317172679e-05,0.0003745380070577785,-0.0001231614784177392,-0.0008586204108799207,0.5664556622505188,-52.51919937133789,5.640059471130371,17.89893341064453,-1.2388204336166382,-1.4142563343048096,0.012864691205322742,,,,,,,,,
1739355997.4134912,0.36044819666452355,1.2150462452610098,0.3197194345326017,-1.1262093337680084,-1.425287679727692,1.0160604197096583,0.07555173791132509,0.0003028178341434864,0.00018260202585004934,0.00017795589620191757,-0.00013938943379431825,-0.0018599481830718098,0.0007177607848742841,0.0006958068536936863,0.5664556622505188,-52.57077407836914,5.640059471130371,17.89893341064453,-1.2388204336166382,-1.4142563343048096,-0.05396880581974983,,,,,,,,,
1739355997.42352,0.36044796002550394,1.2150419588398944,0.31972328727886823,-1.1262086185243674,-1.425284747868445,1.016059553812426,0.07555179783223895,-6.517279556401463e-05,-0.001243813430015017,0.0007176698477277808,-0.0006209310161462967,0.0016994009321230164,-0.0004104569057310254,0.001572438156055797,0.5664556622505188,-52.51919937133789,5.588484764099121,17.89893341064453,-1.2516378164291382,-1.4069321155548096,-0.027418512850999832,,,,,,,,,
1739355997.4345355,0.3604489077816802,1.2150464100544665,0.31972121569747297,-1.1262086185122546,-1.4252872170521849,1.0160611788232867,0.0755525555464403,0.0008925299301669333,0.0004205406158937767,0.00024314274089747804,-0.0002623904806541863,-0.0008648876043221731,8.014431019314225e-05,0.0006043523235189606,0.5664556622505188,-52.57077407836914,5.616255760192871,17.89893341064453,-1.2324117422103882,-1.4206650257110596,-0.03382720425724983,,,,,,,,,
1739355997.4455032,0.3604461680332556,1.2150417900743358,0.31972121666958103,-1.1262068480450578,-1.4252903437639883,1.0160611773697446,0.07554780773790169,-0.0004060009290735875,-0.00035994049143494954,0.00024119871715047673,-0.0004471529765223255,-0.0009827922958166601,0.0004448526320946579,-0.0007059147467622579,0.5902593731880188,-52.51919937133789,5.616255760192871,17.87512969970703,-1.2388204336166382,-1.4206650257110596,0.0064559997990727425,,,,,,,,,
1739355997.455529,0.3604496725408817,1.2150437675003625,0.3197213624788455,-1.1262068476091993,-1.4252853471366622,1.0160612951073065,0.07554867217279637,0.0007289520595086575,0.0008180000056580553,0.00020592294443305925,-0.0006240768555200354,0.0008132780266756593,3.074910357480677e-05,7.127926982483104e-05,0.5426519513130188,-52.54300308227539,5.616255760192871,17.87512969970703,-1.2452291250228882,-1.4206650257110596,-0.0008682189509272575,,,,,,,,,
1739355997.466469,0.36044624750076515,1.2150434231185685,0.31971943399339053,-1.1262068623262553,-1.4252861049402932,1.0160612951079708,0.0755470310636435,0.000188971226750766,-0.0007254807697288913,0.0001580658848800221,-0.00024401487381218455,0.0013330307707186356,0.00028172524247046236,-0.0007128385832686393,0.5902593731880188,-52.54300308227539,5.640059471130371,17.87512969970703,-1.2388204336166382,-1.4206650257110596,0.012864691205322742,,,,,,,,,
1739355997.476494,0.36044314805923683,1.2150407811234873,0.3197194301043205,-1.126206941799497,-1.4252861439708122,1.016060419711652,0.07554861519103355,-0.0007227465655031053,-0.0005011935463311986,0.0008124900797934595,-0.0010367378444675363,0.000764901334326617,0.00012480560086832333,-0.00047736837685434275,0.5902593731880188,-52.49142837524414,5.640059471130371,17.87512969970703,-1.2388204336166382,-1.4142563343048096,-0.0008682189509272575,,,,,,,,,
1739355997.4865308,0.3604452143010997,1.2150476466426927,0.3197212165615138,-1.1262051190323887,-1.425284608301613,1.0160611773697366,0.07554780188666943,-0.0003736794160098881,0.000451861692366706,-0.0006098702159545086,0.00020743546165030496,0.0014961819784485603,0.0010676028120609267,-0.0002967269471482003,0.5902593731880188,-52.57077407836914,5.616255760192871,17.82355499267578,-1.2516378164291382,-1.4206650257110596,0.0064559997990727425,,,,,,,,,
1739355997.4974868,0.3604496623978821,1.2150417371357487,0.31971872535956786,-1.126212528260797,-1.425288397334197,1.0160614924297398,0.07555179349850699,0.0010889939156470882,-0.001560781606331722,-0.0004039343585473823,-0.0028249452289880574,-0.00025563668497838885,-0.00011123879120208892,0.0011323412421766152,0.5426519513130188,-52.51919937133789,5.640059471130371,17.94654083251953,-1.2324117422103882,-1.4142563343048096,-0.027418512850999832,,,,,,,,,
1739355997.508489,0.3604479247000536,1.215044173694082,0.31971911903256717,-1.1262068371492633,-1.4252858332226728,1.0160595583527487,0.07554702911639273,-0.00021462489181614143,-0.0010847785311737146,-0.0009666667046599135,-3.2860405727246187e-06,-0.00039156840077243137,0.0002512026349502045,-0.00033626313232122093,0.5664556622505188,-52.54300308227539,5.640059471130371,17.87512969970703,-1.2452291250228882,-1.4069321155548096,0.012864691205322742,,,,,,,,,
1739355997.5194862,0.360445417414359,1.215043856403681,0.3197196701657869,-1.1262070752713071,-1.4252872330969228,1.0160616890732839,0.07554632187863956,-0.0011802200620196837,3.973118860211265e-05,-0.0005831882979502862,-0.0001348203721612669,0.0006931857728007711,-3.466162979555796e-05,9.274324492777734e-06,0.5902593731880188,-52.51919937133789,5.640059471130371,17.87512969970703,-1.2324117422103882,-1.4206650257110596,0.012864691205322742,,,,,,,,,
1739355997.529508,0.36044311273328,1.2150512816953765,0.3197230602497756,-1.1262026897523794,-1.4252881359782819,1.0160637168490216,0.0755519105074953,-0.0015373968944763176,0.0019813662012480786,0.0011819622423017442,0.000574818874575927,-0.0003268938831471894,0.00046520891506321183,0.0019187074435364389,0.5902593731880188,-52.62234878540039,5.588484764099121,17.84735870361328,-1.2250875234603882,-1.4142563343048096,-0.027418512850999832,,,,,,,,,
1739355997.5404797,0.36044770879397925,1.2150448100858982,0.31972405022818734,-1.1262086184655973,-1.4252899562750052,1.016063809879994,0.07555452964998358,-0.0005644614527022237,0.0003763519661209679,0.0013380045224229832,-0.0006787335958468213,-0.002059898927431517,0.002391890457196717,0.0018546073090670388,0.5664556622505188,-52.51919937133789,5.616255760192871,17.89893341064453,-1.2452291250228882,-1.4069321155548096,-0.04756011441349983,,,,,,,,,
1739355997.5505102,0.36044615624989385,1.2150434242592771,0.3197183559399105,-1.1262088569308328,-1.4252854052849409,1.0160604197817351,0.07555266963795161,8.874501144254878e-05,-0.0002383167743474622,-0.00018274439785719173,-0.0005448988308816957,0.00029762516464942407,-0.0010785459334039463,0.0011480243150647606,0.5902593731880188,-52.54300308227539,5.616255760192871,17.89893341064453,-1.2452291250228882,-1.4142563343048096,-0.03382720425724983,,,,,,,,,
1739355997.560522,0.360446480544342,1.2150417119041077,0.31972113756011933,-1.1262086979891517,-1.4252914730473967,1.0160595727085804,0.07554702960518711,-0.00035673046173182734,-0.0015176544704774764,0.0013002691605182803,-0.00039715229536608436,-0.0003530242176828279,-0.0019698799567143452,0.0013568091384949072,0.5426519513130188,-52.51919937133789,5.616255760192871,17.89893341064453,-1.2324117422103882,-1.4069321155548096,0.012864691205322742,,,,,,,,,
1739355997.5725086,0.36044859998582085,1.2150434322739985,0.31972121666913994,-1.12620861393402,-1.4252869021952663,1.0160644740218012,0.07555266963193254,-2.5909523383184623e-07,-1.940306306622644e-05,0.00021803611156008705,-0.0003313849967733508,-0.0007968047561048498,0.00025291020828265953,0.0015607622696763661,0.5426519513130188,-52.54300308227539,5.616255760192871,17.89893341064453,-1.2324117422103882,-1.4206650257110596,-0.03382720425724983,,,,,,,,,
1739355997.583484,0.3604476038592927,1.2150417181180673,0.3197250778403788,-1.1262104011892478,-1.4252873788801093,1.0160666447127273,0.07554389218685588,0.0003078757043367171,-4.996270031478519e-05,0.001797152283628478,-0.0012413034802459502,0.0010061366323378868,0.0016693896221991107,-0.0026181861512980338,0.5664556622505188,-52.51919937133789,5.564681053161621,17.92273712158203,-1.2324117422103882,-1.4270737171173096,0.03941498324275017,,,,,,,,,
1739355997.593586,0.3604462445553153,1.215044373847544,0.3197212162375518,-1.1262107731097841,-1.4252899519149689,1.0160605948082964,0.07555017134955923,0.001104864878426325,0.0002129073596621303,0.0006245684746202049,-0.0007137135798593417,-0.0006569548486648833,-0.0012396906074547448,0.0004545561245457789,0.5902593731880188,-52.54300308227539,5.616255760192871,17.89893341064453,-1.2452291250228882,-1.4142563343048096,-0.013685601763427258,,,,,,,,,
1739355997.6045182,0.3604478409757146,1.2150397136415536,0.31972258782644064,-1.1262047560575428,-1.4252915733673723,1.016065186117244,0.07555179349844063,0.0002505227474555988,-0.0009149334106289706,0.00086332955487019,0.0010261621669983706,-0.0019365633353832746,0.0015055778303408275,0.00016358743715537665,0.5664556622505188,-52.49142837524414,5.588484764099121,17.84735870361328,-1.2324117422103882,-1.4142563343048096,-0.027418512850999832,,,,,,,,,
1739355997.6154587,0.36044326764941126,1.2150463757132446,0.3197212165575794,-1.1262089364036934,-1.425286880392579,1.0160648342224972,0.07555179349843269,-0.00019802307454938768,0.0011269157912411644,0.0003901113764930925,-0.0013923197245737538,0.00035086084717428915,0.000643848729798665,0.0002652168152966764,0.5902593731880188,-52.54300308227539,5.616255760192871,17.89893341064453,-1.2324117422103882,-1.4142563343048096,-0.027418512850999832,,,,,,,,,
1739355997.626527,0.3604465601863155,1.2150448228423274,0.3197212053288645,-1.126211479540587,-1.4252864755420753,1.0160600269370383,0.075547386321571,0.0004141037105613776,0.0009695306210564741,0.0013303277388368082,-0.0011216671088693966,-0.0009816856265637548,-0.0014979316328698098,-0.0014841490478956665,0.5426519513130188,-52.51919937133789,5.616255760192871,17.89893341064453,-1.2388204336166382,-1.4069321155548096,0.012864691205322742,,,,,,,,,
1739355997.6365545,0.3604431086867946,1.2150438603052596,0.3197155254164874,-1.126208627467739,-1.425287680375512,1.0160650698349067,0.07554703106554986,-0.0002595152346512359,-0.0015301661826133774,-0.001461576660718354,-0.0013199542730797434,-0.0005824324032725151,0.0008421179925159083,-0.001492054194047356,0.5902593731880188,-52.51919937133789,5.663863182067871,17.89893341064453,-1.2388204336166382,-1.4142563343048096,0.012864691205322742,,,,,,,,,
1739355997.6474874,0.3604430301949319,1.2150437439999764,0.3197229814994418,-1.1262047825727224,-1.425290055947007,1.016062004805534,0.07554465618435016,-0.00028808677245657083,0.00022468666302349728,-0.00032072137623047,0.00045854920907089476,-0.002671939938924497,0.0010487617528116948,-0.0007301276829571825,0.5902593731880188,-52.54300308227539,5.588484764099121,17.84735870361328,-1.2186788320541382,-1.4142563343048096,0.03300629183650017,,,,,,,,,
1739355997.657518,0.360447172090609,1.215044456378251,0.3197212448302241,-1.1262089816028966,-1.4252856926760202,1.0160615362245964,0.07554580024582437,0.0007858824637335374,0.0008192796619277816,-0.0003345971113581912,-0.00013891871112444316,0.001008581240238917,0.00046832605709350064,-0.0018974431120211371,0.5426519513130188,-52.54300308227539,5.640059471130371,17.87512969970703,-1.2516378164291382,-1.4142563343048096,0.019273381680250168,,,,,,,,,
1739355997.6685326,0.36044303321465226,1.215041714017569,0.319717886996736,-1.1262076175165072,-1.425287531363829,1.016065788091255,0.0755517978836665,-0.00018337359547255735,-0.0006646767572807029,-3.988520813901614e-05,0.00048324049874582894,-0.0007242226403843432,-0.000520116062399904,0.0019255925931614926,0.5902593731880188,-52.51919937133789,5.663863182067871,17.84735870361328,-1.2388204336166382,-1.4206650257110596,-0.027418512850999832,,,,,,,,,
1739355997.6804569,0.3604464538914343,1.2150434584379148,0.31972181157269386,-1.1262068358513886,-1.4252862270465667,1.016065941379778,0.07554546031854277,0.0007114569745792762,-0.000684306697827839,0.00033086748586150586,-0.0002209665815274759,0.0008018733584082361,0.0004111925634226512,-0.0008959905678165332,0.5426519513130188,-52.54300308227539,5.616255760192871,17.87512969970703,-1.2388204336166382,-1.4206650257110596,-0.0008682189509272575,,,,,,,,,
1739355997.6914644,0.3604430289589635,1.2150417900689523,0.31971943388791885,-1.126206128471667,-1.4252897224133103,1.0160651691850624,0.07554661074059284,-0.00045444436895331004,-0.0001902771433822098,-0.00042723695175486405,0.00025090521871760777,-0.0014899638354913724,-0.0008251708123174082,-0.0004442072437812895,0.5902593731880188,-52.51919937133789,5.640059471130371,17.89893341064453,-1.2452291250228882,-1.4142563343048096,0.019273381680250168,,,,,,,,,
1739355997.7015388,0.3604447414070179,1.2150417198627246,0.3197146266456913,-1.1262069244514055,-1.4252900467076368,1.0160643221839012,0.07554534772418067,0.0002678905684882238,-0.0012216181750686161,-0.0020773042476480144,-0.00015096277081248826,-0.0004978547589498322,6.556464106221682e-05,-0.00011440331019823138,0.5664556622505188,-52.51919937133789,5.691634178161621,17.87512969970703,-1.2324117422103882,-1.4069321155548096,0.026597600430250168,,,,,,,,,
1739355997.7124913,0.360444347824962,1.2150434496076299,0.3197190907652556,-1.1262047649852143,-1.4252883930452502,1.0160648468573326,0.0755475900153346,0.000104813303709745,0.0012754105132458489,-0.0002262679263084375,0.0013089719794453338,-0.0019302733353675147,-0.0009106366988414999,0.0004066087804576755,0.5426519513130188,-52.54300308227539,5.616255760192871,17.84735870361328,-1.2324117422103882,-1.4206650257110596,-0.0008682189509272575,,,,,,,,,
1739355997.723486,0.36044326725663756,1.2150434333643032,0.3197194339805666,-1.1262068358716248,-1.4252885266339248,1.0160641284369076,0.07554703105753469,-0.0005086479840241612,0.0017171168988214807,-6.436063724363914e-05,0.0002125927511788041,0.0014405776164468746,-0.0009795902984522104,-0.0004431017709679117,0.5902593731880188,-52.54300308227539,5.640059471130371,17.87512969970703,-1.2452291250228882,-1.4142563343048096,0.012864691205322742,,,,,,,,,
1739355997.733546,0.36044263245500274,1.215042205748257,0.3197212137534011,-1.1262030793321742,-1.425289288053837,1.0160651837026444,0.07554596207726995,-0.00022864670976250037,-0.0008657843014845852,0.00028232946374367286,0.0016813444111344693,-0.000764037301878262,0.0003177197179117359,-0.0015598642842865884,0.5664556622505188,-52.49142837524414,5.616255760192871,17.82355499267578,-1.2388204336166382,-1.4142563343048096,0.012864691205322742,,,,,,,,,
1739355997.744562,0.36044575186924405,1.215047602632438,0.31972121699359063,-1.1262086186582076,-1.425287782081592,1.0160643214841256,0.07555179349239823,0.0001786128182526362,0.0007180166404434181,0.0006679367224319739,-2.7283905763532445e-05,-0.0008840999317966823,-0.0002606974697047436,0.0013751056608004473,0.5426519513130188,-52.57077407836914,5.616255760192871,17.89893341064453,-1.2250875234603882,-1.4069321155548096,-0.027418512850999832,,,,,,,,,
1739355997.755515,0.3604445073632953,1.2150500212497812,0.31972113782458156,-1.1262060718650824,-1.4252868625468398,1.0160659457413146,0.07554865462085511,-0.00036236537154999435,0.0021874243478352618,-1.3955123132760672e-06,0.0008851766433667384,0.0007648599393723094,-1.975545356780114e-05,-0.0004499230922171681,0.5664556622505188,-52.59457778930664,5.616255760192871,17.82355499267578,-1.2324117422103882,-1.4206650257110596,-0.0008682189509272575,,,,,,,,,
1739355997.766449,0.3604447153663355,1.2150445717767617,0.3197194338832254,-1.1262047560978532,-1.4252915113232367,1.0160659457413186,0.07555013051119024,-0.0009300014944972772,0.0008692594881596716,-0.0007555558606225476,0.0007533649200882398,-0.0028902907645914867,0.0001587266468637566,-0.0008841589131853802,0.5664556622505188,-52.51919937133789,5.640059471130371,17.84735870361328,-1.2324117422103882,-1.4206650257110596,-0.013685601763427258,,,,,,,,,
1739355997.776568,0.3604439913544346,1.2150408364105878,0.3197194080349185,-1.1262026901144155,-1.4252861178331475,1.0160659457413186,0.0755517934982101,0.0004045313513649379,-0.0011265232523659664,0.0003848427516042143,0.000657338943779801,0.0023285419737285465,0.00012385179903916455,5.5550688211453126e-05,0.5902593731880188,-52.51919937133789,5.640059471130371,17.84735870361328,-1.2388204336166382,-1.4206650257110596,-0.027418512850999832,,,,,,,,,
1739355997.7875247,0.3604430288553806,1.2150424376204527,0.3197212153733577,-1.1262068358235733,-1.425286124353929,1.016066703401397,0.0755501699951835,-0.00011511117943541029,0.00030109341015977734,0.0006464861061784037,0.0007204226719980637,0.00018048153111707634,0.0007833537207266947,-8.87126739932719e-05,0.5902593731880188,-52.51919937133789,5.616255760192871,17.87512969970703,-1.2516378164291382,-1.4270737171173096,-0.013685601763427258,,,,,,,,,
1739355997.7975497,0.36044302884994733,1.2150438563754173,0.3197232964594201,-1.1262054714101333,-1.425290056345432,1.016064322184008,0.0755517936609486,0.0007569444574026566,-0.0022600146166977305,0.0019883728737312358,9.954963836352729e-05,-0.0002874084873593254,-0.00024617265075923373,0.0010135575130529684,0.5902593731880188,-52.51919937133789,5.588484764099121,17.84735870361328,-1.2324117422103882,-1.4069321155548096,-0.027418512850999832,,,,,,,,,
1739355997.8085248,0.36044279388355,1.2150434353385595,0.3197212166695865,-1.1262086185162927,-1.425285348536454,1.0160659457413186,0.0755468015212179,-0.0006155965336415048,0.0011703054782989113,0.0005568507891090826,0.0004112137562003475,4.506599683559031e-05,0.00029047771640608856,-0.0006565250657863326,0.5902593731880188,-52.54300308227539,5.616255760192871,17.89893341064453,-1.2452291250228882,-1.4206650257110596,0.03300629183650017,,,,,,,,,
1739355997.8204722,0.3604430249967127,1.2150436629888228,0.31972050789257833,-1.126202976784204,-1.4252856492582737,1.0160659457413186,0.0755519938742142,0.0004531676003242002,-0.0002515137069310688,-0.0004425625458582235,0.0003113474366800373,-0.00029594464070361925,0.00024108614019355233,0.0005082663316106014,0.5902593731880188,-52.54300308227539,5.616255760192871,17.82355499267578,-1.2516378164291382,-1.4206650257110596,-0.020094294100999832,,,,,,,,,
1739355997.8314428,0.36044011680736265,1.2150434348917356,0.3197211107108572,-1.1262068358352548,-1.425286919079473,1.016064322184008,0.07555108557179241,-0.0010051231609680645,-0.00022930074252955167,3.4441835125873394e-05,0.0003929204164210851,0.00014256295008275628,-0.000529443015973142,0.0011559277213255218,0.5902593731880188,-52.54300308227539,5.616255760192871,17.87512969970703,-1.2324117422103882,-1.4069321155548096,-0.020094294100999832,,,,,,,,,
1739355997.8415275,0.3604438053048932,1.215039704260854,0.31972121666898834,-1.1262077896185683,-1.4252876750440544,1.016064335593009,0.07554307958891872,-0.000824729032531562,-0.0010448840191778427,-0.0003582009092733556,-5.626618294004769e-05,0.00040715984208921795,-0.0006089573724916345,-0.002571637985873309,0.5664556622505188,-52.49142837524414,5.616255760192871,17.87512969970703,-1.2388204336166382,-1.4069321155548096,0.019273381680250168,,,,,,,,,
1739355997.8515432,0.360443029129439,1.2150417361052737,0.3197194077469008,-1.126202001034701,-1.425286122731852,1.0160659457419998,0.0755517933361701,-0.00028576058261681897,-0.0011804001704155008,2.106293678895863e-05,0.0017585891789886534,0.0017127073229996016,2.3072392329813885e-05,0.001239700116782111,0.5902593731880188,-52.51919937133789,5.640059471130371,17.84735870361328,-1.2388204336166382,-1.4206650257110596,-0.027418512850999832,,,,,,,,,
1739355997.862519,0.3604420135154916,1.215044186028349,0.31971943399251807,-1.1262068387734907,-1.4252873376959947,1.0160659502109854,0.07555255099624808,-0.0006088102976387237,0.0009565726832800169,-0.0003893849951625276,-0.0011971337106034584,-0.00016436173564678288,0.00030426413430809774,0.001435206625936339,0.5902593731880188,-52.51919937133789,5.640059471130371,17.87512969970703,-1.2324117422103882,-1.4206650257110596,-0.03382720425724983,,,,,,,,,
1739355997.872904,0.3604430288327525,1.215044165014253,0.319719442741123,-1.1262107190807622,-1.4252873901933247,1.0160667034014725,0.07554458160253429,-5.2953348109008856e-05,0.0005963879176244832,0.00040978936773021567,-0.0006088618498102198,0.00018252617920530765,0.0004220646211837378,-0.0013680915902803722,0.5902593731880188,-52.54300308227539,5.640059471130371,17.92273712158203,-1.2324117422103882,-1.4270737171173096,0.0064559997990727425,,,,,,,,,
1739355997.8835194,0.36044267829063953,1.2150436629929418,0.31971909279895067,-1.1262107682058466,-1.4252916118365213,1.0160651880812404,0.07555016992290754,-0.0009498364782373067,4.927696340491846e-05,-0.0010965552658930456,-0.0013157226928236347,-0.002640074413434836,1.622118821552424e-05,0.0020998179683376942,0.5902593731880188,-52.54300308227539,5.640059471130371,17.89893341064453,-1.2324117422103882,-1.4142563343048096,-0.013685601763427258,,,,,,,,,
1739355997.894519,0.36044009488947654,1.215045421497605,0.31971471179510774,-1.1262068418675357,-1.4252905009873507,1.0160651880812404,0.07554738648383333,0.0005641989286046034,-6.539247483614789e-05,-0.0023596974847132695,-0.00043781946075059826,-0.0019664414348723493,-0.0003751244711646379,0.00017736580579567573,0.6180303692817688,-52.57077407836914,5.663863182067871,17.87512969970703,-1.2388204336166382,-1.4142563343048096,0.012864691205322742,,,,,,,,,
1739355997.9054694,0.36044195971183024,1.215043423443674,0.3197165994550402,-1.1262047561544075,-1.4252868628778195,1.0160659457413186,0.07554865308904345,-1.3348649611421236e-06,-0.0006388592422066641,-0.0010713607288971216,0.0007640418353124679,0.001799475828450729,-0.00012542354460199712,0.00013317226640864203,0.5664556622505188,-52.54300308227539,5.640059471130371,17.84735870361328,-1.2324117422103882,-1.4206650257110596,-0.0008682189509272575,,,,,,,,,
1739355997.9155388,0.3604419072821481,1.2150454339214027,0.31972121662158337,-1.126207616753395,-1.4252861221675632,1.0160651880812404,0.0755475336173107,0.0002269437616896706,0.0005940334597358269,-0.00020549028936846136,-0.0007177578428508597,-0.0005420942680633161,-0.00039842512174677043,-0.0017770909367163315,0.5664556622505188,-52.57077407836914,5.616255760192871,17.84735870361328,-1.2388204336166382,-1.4142563343048096,-0.027418512850999832,,,,,,,,,
1739355997.9255497,0.3604399752017643,1.215047134559573,0.3197212166695857,-1.1262047829118282,-1.4252845894050907,1.0160659457413186,0.0755514370975331,-0.001204324460528399,0.0007505648707662477,0.0013328025641096233,0.000917042528675789,0.0028254142146045312,-2.3096894000050215e-05,0.000955912544561724,0.5902593731880188,-52.59457778930664,5.616255760192871,17.84735870361328,-1.2516378164291382,-1.4206650257110596,-0.027418512850999832,,,,,,,,,
1739355997.9365234,0.3604443436348233,1.2150417106322375,0.3197232964594421,-1.126208618548745,-1.4252876803734187,1.0160651880812404,0.07555418739073635,0.00125289903993548,-0.00033993935524668,0.001492824621349211,-0.0003315479883055464,-0.0005417672078467249,-0.0002921794713173285,0.00048750264734973383,0.5426519513130188,-52.51919937133789,5.588484764099121,17.89893341064453,-1.2388204336166382,-1.4142563343048096,-0.04756011441349983,,,,,,,,,
1739355997.9465663,0.3604446590539031,1.2150426692849585,0.3197212166695865,-1.1262047600789824,-1.4252867664026199,1.016064335593009,0.0755540080945531,0.0003489349126256524,-0.0009718676013230012,0.0012277171642398267,0.0008059357394281602,0.0006031377190995274,-0.0005554429862672128,0.0002598504892164337,0.5664556622505188,-52.51919937133789,5.616255760192871,17.84735870361328,-1.2452291250228882,-1.4069321155548096,-0.020094294100999832,,,,,,,,,
1739355997.9574528,0.36044543844949134,1.2150454210628894,0.3197184104115689,-1.1262104011892964,-1.4252892901075755,1.0160643221840835,0.07554945184363787,0.0013464536545351757,0.0005579940558231653,-0.0004487774451367278,-0.0005135377304937979,-0.0005819539949742018,0.0006378491919522458,0.00010488336323565312,0.5426519513130188,-52.57077407836914,5.640059471130371,17.92273712158203,-1.2388204336166382,-1.4069321155548096,-0.0072769103571772575,,,,,,,,,
1739355997.9684865,0.3604454109700809,1.2150454298877955,0.3197232951460253,-1.12620475604538,-1.4252858201686707,1.0160659457413186,0.07554627340424618,0.0003529352253030166,-0.00023483359858094983,0.001884376315562407,0.001236280526312307,-0.0012872132790797178,5.7462533215188135e-05,-0.00046649450144391354,0.5426519513130188,-52.57077407836914,5.588484764099121,17.84735870361328,-1.2452291250228882,-1.4206650257110596,0.019273381680250168,,,,,,,,,
1739355997.9794424,0.36043850370782643,1.2150446095565204,0.3197174510588294,-1.1262086185122546,-1.4252857007629904,1.016066703401397,0.07554865462085515,-0.0019329964298786706,3.9135443848734497e-05,-0.0006492666077762427,-0.0006015498805668235,0.0004413425384986638,0.000198144011381759,0.00028436868367221065,0.6418340802192688,-52.51919937133789,5.663863182067871,17.89893341064453,-1.2452291250228882,-1.4270737171173096,-0.0008682189509272575,,,,,,,,,
1739355997.9894543,0.36044403645768996,1.215047921176656,0.3197187253561771,-1.1262089816024476,-1.4252862810950384,1.0160651880812404,0.07555056981434957,0.0004729396859333877,0.0019492499250900286,-0.0009035437316035405,5.594929425755009e-05,-0.0004983186437868786,-0.00016902029576761838,-0.00018620047496313954,0.5664556622505188,-52.57077407836914,5.640059471130371,17.87512969970703,-1.2388204336166382,-1.4142563343048096,-0.020094294100999832,,,,,,,,,
1739355997.9995105,0.36044571720203783,1.2150441738449889,0.3197212166575857,-1.1262093339133468,-1.425290047601123,1.016067031870401,0.07555255261508681,0.00030593246057636586,5.708936211031512e-05,7.663246557740308e-05,-0.00031169229870410195,-0.0004108697354364353,0.0009942020155263183,0.0007459819674591052,0.5426519513130188,-52.54300308227539,5.616255760192871,17.89893341064453,-1.2324117422103882,-1.4206650257110596,-0.03382720425724983,,,,,,,,,
1739355998.0095685,0.3604406846303686,1.2150417135520462,0.319719509813382,-1.1262083349070369,-1.425290213033795,1.016065189589523,0.07555330735825028,-0.0011050720031580228,-0.0011053720739257129,0.0004130819036996247,-0.0011295136279010126,-0.0014686579496144328,-0.00022593632392353845,0.00014610287764656984,0.5902593731880188,-52.51919937133789,5.640059471130371,17.92273712158203,-1.2324117422103882,-1.4142563343048096,-0.04023589566349983,,,,,,,,,
1739355998.020517,0.3604433074755352,1.2150416999123157,0.3197191977819958,-1.1262068357885784,-1.4252869021881536,1.0160667034014055,0.07554829208871994,0.0004110364735401009,-0.0005912658367638989,-0.0008769182653824191,0.000497251601814275,-0.0008091716525498928,0.0002576244406644817,-0.0017092566199516006,0.5426519513130188,-52.51919937133789,5.640059471130371,17.87512969970703,-1.2324117422103882,-1.4270737171173096,-0.03382720425724983,,,,,,,,,
1739355998.0314806,0.36044423503188927,1.2150417501687383,0.3197212166682531,-1.1262086453302562,-1.4252869016311116,1.016064322184008,0.07555013054131933,0.0007924818543008095,-0.0009746927154998006,0.00029175901459460476,0.000624791171583656,0.001487250829308893,-0.00034261990400494773,-0.000863766830659296,0.5426519513130188,-52.51919937133789,5.616255760192871,17.89893341064453,-1.2324117422103882,-1.4069321155548096,-0.013685601763427258,,,,,,,,,
1739355998.0415337,0.36044080583337723,1.2150434231172946,0.31971725571024406,-1.1262047475425652,-1.4252885412481788,1.0160659457413186,0.07554540750567654,-0.0005704336516002287,-0.00023430251700552762,-0.0006543456008086533,0.0011992890227923115,-0.00023088665375226069,-0.00039361123830218374,-0.0018452301843530257,0.5902593731880188,-52.54300308227539,5.640059471130371,17.84735870361328,-1.2580465078353882,-1.4206650257110596,0.026597600430250168,,,,,,,,,
1739355998.0534432,0.36044540220093774,1.2150437675353554,0.319719433980271,-1.126208981497421,-1.4252878250880634,1.0160652014902414,0.07555131833933432,0.0004967286860645646,0.0013875562969442913,-0.001124139579855813,-0.0007316758524360692,-1.785825305908751e-05,-0.0001861393849673418,-0.0001640855667751096,0.5426519513130188,-52.54300308227539,5.640059471130371,17.87512969970703,-1.2516378164291382,-1.4142563343048096,-0.027418512850999832,,,,,,,,,
1739355998.063588,0.3604433998572956,1.215041719464494,0.31972340047004677,-1.1262086199415784,-1.425290500979019,1.0160651880813159,0.07554627280601499,0.0010365480285757147,-0.0002661025533939131,0.0016185479694064318,-0.0010919670362574377,0.0001520000173483164,-0.0005682761433243257,-0.0017866594723440442,0.5426519513130188,-52.51919937133789,5.588484764099121,17.89893341064453,-1.2388204336166382,-1.4142563343048096,0.019273381680250168,,,,,,,,,
1739355998.0745137,0.36044197583514903,1.2150441393535583,0.3197211823239926,-1.1262029763118082,-1.4252894016170679,1.0160651880812404,0.0755536174193753,-0.0005225601527279429,8.073033601061483e-06,0.00046432327262446726,0.0013329829634018823,0.0006242955651899953,-0.00018622802006864453,0.0012621985419421955,0.5902593731880188,-52.54300308227539,5.616255760192871,17.82355499267578,-1.2388204336166382,-1.4142563343048096,-0.03382720425724983,,,,,,,,,
1739355998.0845428,0.3604415856770921,1.2150404308663463,0.31971730776896823,-1.1262068358352855,-1.4252894015942488,1.0160686667003382,0.07555179351648991,-0.00014877639519543832,-0.00043859091496464586,-0.0003683442033967372,0.0002873608578279705,0.00037887456401063395,0.0013114579861086982,0.0017298230206047394,0.5664556622505188,-52.49142837524414,5.640059471130371,17.87512969970703,-1.2388204336166382,-1.4069321155548096,-0.027418512850999832,,,,,,,,,
1739355998.0955164,0.36043995968165,1.215039725413998,0.3197192239792295,-1.126204782536333,-1.4252861445277714,1.0160651881609464,0.07555167569651297,7.935374527957731e-07,-0.0013842102097123491,7.995730686643105e-05,0.0010218560721576315,0.000899815342002543,-0.00011059497431388801,-0.0008507492031185675,0.5902593731880188,-52.49142837524414,5.640059471130371,17.84735870361328,-1.2388204336166382,-1.4142563343048096,-0.027418512850999832,,,,,,,,,
1739355998.1055431,0.36043994780643634,1.215045459322404,0.31972121666602993,-1.1262049944644077,-1.4252861439714826,1.0160710479177286,0.07555253411969587,-0.0002781771985249626,0.0014667511462006792,-0.0005703473474919457,-0.00023531064182936946,0.0016314407567963659,0.0017749680071875021,0.0018106022473832382,0.5902593731880188,-52.57077407836914,5.616255760192871,17.84735870361328,-1.2388204336166382,-1.4270737171173096,-0.03382720425724983,,,,,,,,,
1739355998.1164358,0.3604415823249457,1.2150449027378045,0.31972121666958647,-1.1262051280035752,-1.4252892969368545,1.0160675806509616,0.07554937285101572,-0.0009407211235781879,0.00032020822493639047,0.0011867787557691654,0.0011258658738810185,0.0001940419795586279,-9.934163516684953e-05,-0.001015397166829849,0.5664556622505188,-52.51919937133789,5.616255760192871,17.82355499267578,-1.2388204336166382,-1.4069321155548096,-0.0072769103571772575,,,,,,,,,
1739355998.1265435,0.3604378721839135,1.215044416199873,0.3197176422429723,-1.1262087022732377,-1.425289289669107,1.0160667034565793,0.07554724099714971,-0.0009990885947197925,0.0009153256278493882,-0.0011479485841343821,-0.0009642780860694961,0.00019920337786586686,0.0004150545589060503,-0.0007108403917701468,0.6180303692817688,-52.54300308227539,5.663863182067871,17.89893341064453,-1.2388204336166382,-1.4270737171173096,-0.0008682189509272575,,,,,,,,,
1739355998.1365478,0.36044329869715014,1.2150428121133865,0.31971942524385827,-1.126204759971384,-1.425290716086292,1.0160699677482015,0.0755518893210721,0.0004578105671786642,-0.00033907294632822503,0.00043128828393678895,0.0008441637818727521,-0.0016160886003804107,0.0008643933926326771,-0.0018925806088075476,0.5426519513130188,-52.49142837524414,5.640059471130371,17.84735870361328,-1.2388204336166382,-1.4270737171173096,-0.04023589566349983,,,,,,,,,
1739355998.1485102,0.36044257958952103,1.2150424259054657,0.3197215316175367,-1.1262068358352577,-1.4252861066890503,1.0160684867139185,0.07554778871560965,-0.00023908005217210325,-0.0006000493793707648,0.0013808211289110914,0.0003905289380355577,5.285986221576595e-05,-6.2856323450089e-07,-0.0008123443566270662,0.5426519513130188,-52.51919937133789,5.616255760192871,17.87512969970703,-1.2388204336166382,-1.4142563343048096,0.0064559997990727425,,,,,,,,,
1739355998.1586185,0.3604415823123925,1.215039722805667,0.31971877291173845,-1.1262078720348672,-1.4252877260212178,1.0160643224054138,0.07554778239537965,-0.00029590005607332587,-0.0009874444241252695,-0.000649241285641303,-0.0016046337133004953,0.0010411976913818491,-0.0005002732485808797,-0.0014035260502180008,0.5664556622505188,-52.49142837524414,5.616255760192871,17.87512969970703,-1.2250875234603882,-1.4069321155548096,0.0064559997990727425,,,,,,,,,
1739355998.1694796,0.36044158232450535,1.2150434263871315,0.3197194330159074,-1.1262107652746756,-1.4252899431907475,1.016065945741319,0.07554703108158974,-8.331670685029813e-05,0.0001471583684120101,-0.00015615175932957962,-0.0009975433036223996,-0.0017074301402232514,0.0003935253516289998,-0.0020865252280250733,0.5664556622505188,-52.54300308227539,5.640059471130371,17.89893341064453,-1.2452291250228882,-1.4206650257110596,0.012864691205322742,,,,,,,,,
1739355998.181443,0.3604398698037742,1.2150417115770582,0.3197176522876046,-1.1262029743979645,-1.4252865933591208,1.0160667038980267,0.07554782805250347,-0.0009324165104824321,-0.0002621260093746713,-0.0005249747000093424,7.096952007616328e-05,-0.0006377390488319939,0.0003020293514109905,-0.0024906738578026957,0.5902593731880188,-52.51919937133789,5.663863182067871,17.82355499267578,-1.2388204336166382,-1.4270737171173096,0.0064559997990727425,,,,,,,,,
1739355998.1915593,0.3604398736556823,1.2150438566901596,0.31971848914857426,-1.1262086980941362,-1.4252846293532677,1.016065188081243,0.07555098041879495,0.00020860941816785994,0.0006421939974371117,-0.0006390074391269441,-0.00040047952937562344,0.0006092255686168842,-0.0006308717739463242,0.0015091470890044195,0.5902593731880188,-52.51919937133789,5.640059471130371,17.89893341064453,-1.2516378164291382,-1.4142563343048096,-0.020094294100999832,,,,,,,,,
1739355998.202536,0.36044158649742764,1.215045579034464,0.31971765131021473,-1.1262047561911843,-1.4252888299494404,1.0160684485101876,0.07554586825708702,-1.0892069785635038e-05,0.0007520027825568984,-0.0018288075002849532,0.001181464751238532,0.0018029206694061277,0.0016530724653611296,-0.0010313815360104826,0.5664556622505188,-52.54300308227539,5.663863182067871,17.84735870361328,-1.2516378164291382,-1.4142563343048096,0.026597600430250168,,,,,,,,,
1739355998.214506,0.3604378714268796,1.2150438603361997,0.31972111168691997,-1.1262071802176286,-1.4252887923049808,1.0160668777368154,0.0755518060156975,-0.0012094825164958422,-0.0006492615661840315,-9.151180239568615e-05,-0.0007720794212928404,0.0002330660385759111,0.0013691348544187963,0.0013280346356200666,0.6180303692817688,-52.51919937133789,5.616255760192871,17.87512969970703,-1.2250875234603882,-1.4270737171173096,-0.027418512850999832,,,,,,,,,
1739355998.225481,0.36044158243150204,1.2150419490185174,0.3197232964112415,-1.1262068372530951,-1.4252858354597584,1.0160686668662096,0.07554865316051494,0.0010058857582073736,-0.0007744937858759418,0.000531657031337812,0.0007388226601183804,0.000953278644591341,-0.00025141294125797685,-6.398489314700764e-05,0.5664556622505188,-52.51919937133789,5.588484764099121,17.87512969970703,-1.2452291250228882,-1.4069321155548096,-0.0008682189509272575,,,,,,,,,
1739355998.236509,0.3604415823245072,1.215044571949929,0.31972303400277496,-1.1262068744270186,-1.42528536516177,1.0160646847972425,0.07555104542555473,-0.0008646890676246323,0.001023285976730028,0.0007121047316909647,0.00036344558030117517,-0.0002593893936810263,1.8965731984190077e-05,-0.00013854587865898713,0.5664556622505188,-52.51919937133789,5.588484764099121,17.87512969970703,-1.2452291250228882,-1.4069321155548096,-0.020094294100999832,,,,,,,,,
1739355998.2474375,0.36043754971984787,1.215045570306432,0.31971940645032465,-1.126206904877233,-1.4252885696396385,1.016070292410393,0.0755462471376907,-0.0013449682176502852,0.0009362424852635259,-0.0008496070017696246,0.00014877227872226503,0.0004753745165239496,0.0002052121581146141,-0.0027504672544137517,0.6180303692817688,-52.54300308227539,5.640059471130371,17.84735870361328,-1.2452291250228882,-1.4206650257110596,0.019273381680250168,,,,,,,,,
1739355998.2574809,0.3604415823190499,1.2150404280561566,0.3197250791359947,-1.126202977656386,-1.4252882055858347,1.0160664419479675,0.07554703106309961,0.00023821584381957604,-0.0009476892209854719,0.0021662627579545767,0.0025437418634596727,-0.0019882941712116436,-0.00010145433178806856,-0.0003001618774519787,0.5664556622505188,-52.49142837524414,5.564681053161621,17.82355499267578,-1.2250875234603882,-1.4206650257110596,0.012864691205322742,,,,,,,,,
1739355998.2675073,0.36043986980377407,1.2150438563752204,0.31972019438467025,-1.1262068459738213,-1.4252853514336077,1.0160656908444101,0.07555023228690048,-0.0009758725240324112,-0.0007948195107586856,-0.0005323720752579341,0.0008137767730693687,-0.0006927161937885047,0.0019221923482107218,-0.0003411520502243765,0.5902593731880188,-52.51919937133789,5.616255760192871,17.87512969970703,-1.2452291250228882,-1.4142563343048096,0.012864691205322742,,,,,,,,,
1739355998.2785065,0.3604398610804539,1.2150437452960365,0.3197201843227199,-1.1262047573537468,-1.425287168723806,1.0160689311875577,0.0755439054041145,5.555118112453517e-06,-9.273289588941286e-05,-0.0010070447231877435,0.001017109791245625,0.0005017229407743882,0.000909703195122325,-0.0010090914376606234,0.5902593731880188,-52.54300308227539,5.616255760192871,17.84735870361328,-1.2388204336166382,-1.4142563343048096,0.03941498324275017,,,,,,,,,
1739355998.2895525,0.3604398698037249,1.215039715636637,0.3197194339867398,-1.1262079614870673,-1.425286918358696,1.016065188764543,0.07555196024570342,2.5479254728504584e-05,-0.0016135399890998665,-0.00033891018889953197,-0.0003273912267782857,2.6934785338437615e-05,-0.0010387973760206442,0.0017744723633638907,0.5902593731880188,-52.49142837524414,5.640059471130371,17.84735870361328,-1.2452291250228882,-1.4142563343048096,-0.027418512850999832,,,,,,,,,
1739355998.3004923,0.3604432957597619,1.2150434231650817,0.31971943399256747,-1.1262076301563129,-1.4252912366051942,1.016066307857922,0.07554625587952479,0.0004917730781912946,-4.3440373063231895e-05,0.0002990603188419487,0.00019869219747671119,-0.0006048897978635506,3.951263498034132e-05,-0.0005303911197130178,0.5426519513130188,-52.54300308227539,5.640059471130371,17.84735870361328,-1.2324117422103882,-1.4206650257110596,0.019273381680250168,,,,,,,,,
1739355998.3114328,0.3604450333663633,1.2150445716188434,0.3197176395428008,-1.1262104026551585,-1.4252912381298655,1.0160656901799665,0.075551815464914,0.00122059255946569,-4.2844092254559025e-05,-0.0004954862020067812,-3.192478314070681e-05,-0.0012828340054693611,-7.000973254795096e-05,0.0011119650232944071,0.5188482403755188,-52.51919937133789,5.663863182067871,17.92273712158203,-1.2324117422103882,-1.4142563343048096,-0.027418512850999832,,,,,,,,,
1739355998.3214793,0.3604378718630679,1.2150434234598237,0.3197190907705231,-1.1262078288644333,-1.4252882885040286,1.0160692041314006,0.07554844690337023,-0.00016299388945503963,0.0003767078628561803,-9.741457372207661e-05,-0.00017657794103573436,-0.0004607490948620574,0.0006895395910778181,0.0006555141844844829,0.6180303692817688,-52.54300308227539,5.616255760192871,17.87512969970703,-1.2324117422103882,-1.4206650257110596,0.012864691205322742,,,,,,,,,
1739355998.3315492,0.36044326802723453,1.2150435114198077,0.3197212166335842,-1.1262068358520525,-1.4252921151793707,1.0160651881364215,0.07554777576684125,0.0002768835387503697,0.0005035229420583063,0.0006479630255425282,0.0014712974076594625,-0.0024381705098409064,-0.00038195095682396494,0.0008455269545114717,0.5426519513130188,-52.54300308227539,5.616255760192871,17.87512969970703,-1.2388204336166382,-1.4142563343048096,0.0064559997990727425,,,,,,,,,
1739355998.342478,0.36043943652080335,1.215041710705408,0.3197212166695863,-1.126207247648534,-1.4252885390951433,1.0160656752749444,0.07555330881851623,-0.0008475592561069873,-0.0011363409474499635,0.000984418192008573,-0.0010900330109512065,-0.0005411794926084368,0.0005497358270590074,0.0026320180951273212,0.5664556622505188,-52.51919937133789,5.616255760192871,17.84735870361328,-1.2452291250228882,-1.4142563343048096,-0.04023589566349983,,,,,,,,,
1739355998.3534582,0.3604422741599137,1.2150427803725374,0.3197212166695865,-1.1262075776241216,-1.4252861441863716,1.0160677895387302,0.07555179349843269,0.000465482931726842,-0.0009688894883806833,0.0011026378877689498,-0.0009657008839368796,0.0009865737170579347,0.0005383724481639327,0.002125959751783252,0.5664556622505188,-52.51919937133789,5.616255760192871,17.87512969970703,-1.2388204336166382,-1.4270737171173096,-0.027418512850999832,,,,,,,,,
1739355998.363465,0.36044158232841084,1.215046285126759,0.3197212132853716,-1.1262068387828623,-1.4252890405901069,1.016064863019847,0.07555195146300567,-0.00045719674108100775,0.0019832051647956164,0.00015621926626631407,-0.00012718116111972957,-0.0015792512255235285,-0.0007472229524929195,0.0017255133734997072,0.5664556622505188,-52.54300308227539,5.616255760192871,17.87512969970703,-1.2452291250228882,-1.4069321155548096,-0.027418512850999832,,,,,,,,,
1739355998.3734732,0.36043943655729355,1.2150438564115735,0.3197152278478116,-1.1262096968582347,-1.425287034612532,1.0160651887525722,0.07555072889592476,0.00034607672847397576,-0.0008087133981664731,-0.002149887799630149,-0.0009132357341993969,-0.00018826123887650837,-0.000583974922101374,0.0008301626720914253,0.5664556622505188,-52.51919937133789,5.691634178161621,17.87512969970703,-1.2324117422103882,-1.4142563343048096,-0.027418512850999832,,,,,,,,,
1739355998.3835096,0.3604422842257498,1.2150404917011268,0.3197190907531289,-1.126206837288786,-1.425290084914676,1.0160695460066056,0.07554702906230533,0.0006325542528566466,-0.00046384030927011416,7.88597404643503e-05,0.0013349883275100179,-0.0012282999904344506,0.00033281144177844274,-0.0013456227022020106,0.5664556622505188,-52.46762466430664,5.616255760192871,17.87512969970703,-1.2324117422103882,-1.4142563343048096,0.012864691205322742,,,,,,,,,
1739355998.3945522,0.3604430564398668,1.2150427023942532,0.31972113792858636,-1.12620941322919,-1.4252903988788428,1.0160689845473423,0.07555047854179738,-0.00033000085079586095,-0.00021906534182528613,0.0005939179189213297,-0.0017196556441322777,-8.134540049194233e-05,0.00030195521413513396,0.0004800978866101771,0.5426519513130188,-52.51919937133789,5.616255760192871,17.89893341064453,-1.2324117422103882,-1.4142563343048096,-0.0072769103571772575,,,,,,,,,
1739355998.4065359,0.3604387213002104,1.215041975838073,0.319721216669142,-1.1262066338325762,-1.4252846083747472,1.0160663487501342,0.0755470300967447,-0.0019342914663172206,-0.0006077038867072631,0.000876680503049103,0.0011753737276363992,0.0023779614859240346,0.00020228507277997206,-0.0006352117085797213,0.5664556622505188,-52.51919937133789,5.616255760192871,17.87512969970703,-1.2516378164291382,-1.4206650257110596,0.012864691205322742,,,,,,,,,
1739355998.4175007,0.3604415823191219,1.2150397508233461,0.31971804370446555,-1.1262089918495966,-1.4252861262919578,1.0160700332746082,0.07555088817137687,0.00037346557538900317,-0.0001950691670489558,-0.0006715744263465163,-0.0006226701926414413,-0.0007904703943314665,-0.0005907271323598885,0.0018527577681341494,0.5664556622505188,-52.49142837524414,5.663863182067871,17.87512969970703,-1.2516378164291382,-1.4142563343048096,-0.020094294100999832,,,,,,,,,
1739355998.4288003,0.36044490140215485,1.215043963744345,0.31971932901211597,-1.1262069120722917,-1.4252875225911399,1.0160664865983775,0.07555178911711882,0.0015564604809785512,-4.7723360428586937e-05,-0.0003885976774905196,0.0010647507388692758,-0.00030564383170926415,-0.0007461348701222764,0.0004660782381260593,0.5188482403755188,-52.51919937133789,5.640059471130371,17.84735870361328,-1.2388204336166382,-1.4206650257110596,-0.027418512850999832,,,,,,,,,
1739355998.4394903,0.3604407532358199,1.2150417233889539,0.3197193269798113,-1.1262055816620933,-1.4252870243991418,1.0160681176026287,0.07554866632413161,-0.0005785674329371055,-0.0003303363416337966,0.0008188615231267895,0.0010715208361169464,-0.0008438904529685864,0.000546264512824542,-0.00011585517544266072,0.5664556622505188,-52.51919937133789,5.616255760192871,17.84735870361328,-1.2324117422103882,-1.4069321155548096,-0.0008682189509272575,,,,,,,,,
1739355998.4495106,0.3604415468531992,1.2150418597305195,0.31972329353258955,-1.1262079056165384,-1.42528980740286,1.016068792093164,0.07555188642662165,0.0009067503563901234,-0.0004878349606949125,0.001269501926352812,7.021088936870457e-05,-0.0009010180847235703,-0.0014040806452296423,0.000323551925572155,0.5664556622505188,-52.49142837524414,5.588484764099121,17.87512969970703,-1.2388204336166382,-1.4069321155548096,-0.04023589566349983,,,,,,,,,
1739355998.4604461,0.3604432817630841,1.2150382387103635,0.31972098045857034,-1.1262047563784676,-1.4252896423805876,1.016070791437397,0.07555179397794823,0.0009644844802116123,-0.0007963249863162151,-0.0012122442806372774,0.002350716468337946,0.0004701308807202341,0.002048466734278866,5.630163303597325e-05,0.5426519513130188,-52.46762466430664,5.616255760192871,17.84735870361328,-1.2452291250228882,-1.4206650257110596,-0.027418512850999832,,,,,,,,,
1739355998.470478,0.36044133213194773,1.2150417488646437,0.3197176503394864,-1.126211570781826,-1.4252850507748707,1.0160664302028497,0.07555005165155516,-0.00032495242397965926,-4.4317898564583e-05,-0.0004928766715665066,-0.0003687929871214511,-0.0007905099393751049,-0.0005625359508171755,0.0009171230966248699,0.5664556622505188,-52.51919937133789,5.663863182067871,17.89893341064453,-1.2452291250228882,-1.4206650257110596,-0.013685601763427258,,,,,,,,,
1739355998.480492,0.36044155582931514,1.2150417375235596,0.31972121666957,-1.126213300962995,-1.4252858199482028,1.016070774645322,0.07554515337141005,-0.0001498717120505086,-0.0001446690126958951,0.0002690493929583851,-0.0014174225609754616,0.0011342628574058128,0.0003426254409200872,-0.0019200174240295877,0.5664556622505188,-52.51919937133789,5.616255760192871,17.92273712158203,-1.2452291250228882,-1.4206650257110596,-0.0072769103571772575,,,,,,,,,
1739355998.4904962,0.36043979033046575,1.2150426531513052,0.31971659946057146,-1.1262086581342678,-1.4252854652949687,1.0160648056519954,0.0755475350055754,-7.452851939943365e-06,-0.00030484959815770994,-0.0010493440270194472,0.0004482173911537114,0.0020444367074119226,-0.002852196559608519,2.9504454292694684e-07,0.5902593731880188,-52.49142837524414,5.640059471130371,17.89893341064453,-1.2452291250228882,-1.4069321155548096,-0.027418512850999832,,,,,,,,,
1739355998.5014539,0.3604397903304658,1.2150435115454172,0.3197232177064412,-1.1262048711667831,-1.4252853606858453,1.0160693849596754,0.07555016991697251,-0.0007903569585214395,2.7587940780096436e-05,0.0003018230390478728,0.0005054989353593189,0.002263535040327339,0.00010041947221244656,-0.0009137537322141771,0.5902593731880188,-52.54300308227539,5.588484764099121,17.84735870361328,-1.2452291250228882,-1.4206650257110596,-0.013685601763427258,,,,,,,,,
1739355998.5124893,0.36044540087467275,1.2150439358374625,0.3197212166682528,-1.1262048359562544,-1.4252915914302338,1.0160692235553668,0.075547031063544,0.0019694822242257047,-0.0002818432725411118,0.0010059153924388718,0.0008800022996243409,-0.001107431259493121,0.0007722624533283999,-0.0013646601350022882,0.5426519513130188,-52.51919937133789,5.616255760192871,17.84735870361328,-1.2324117422103882,-1.4206650257110596,0.012864691205322742,,,,,,,,,
1739355998.5234978,0.3604413409664499,1.215040146353886,0.3197209804465861,-1.1262089830561481,-1.4252873856720176,1.0160692082535676,0.07555058595630726,0.00015163970079389336,-0.0009535027016686723,0.0001716042182866518,-0.0002667113309666257,-0.0013908251841882743,-2.505272058521955e-07,0.0015302546250989231,0.5664556622505188,-52.46762466430664,5.616255760192871,17.87512969970703,-1.2324117422103882,-1.4069321155548096,-0.03382720425724983,,,,,,,,,
1739355998.534543,0.3604376334402546,1.2150422028409906,0.3197174151005483,-1.1262075629010933,-1.4252901016365904,1.0160706702620903,0.07555395901406259,-0.001320514781109089,0.0007371693812648946,-0.0013362941201007957,0.00027428787096193816,-0.0015746079780587989,-0.0006305744768028512,0.001688189972279667,0.6180303692817688,-52.49142837524414,5.663863182067871,17.87512969970703,-1.2452291250228882,-1.4206650257110596,-0.03382720425724983,,,,,,,,,
1739355998.5454695,0.36044158232405676,1.2150434245385218,0.31971943399212294,-1.1262050337596354,-1.4252862245710411,1.0160714686455203,0.07555177597671667,0.000611257475816107,0.00040414414540313566,0.000259199117548702,-0.0008246623677946559,-0.0011242568548136523,0.0023317103577206685,0.0010617804527141214,0.5664556622505188,-52.54300308227539,5.640059471130371,17.84735870361328,-1.2388204336166382,-1.4270737171173096,-0.027418512850999832,,,,,,,,,
1739355998.5564578,0.3604386143565968,1.2150397512468234,0.31972305992442185,-1.1262115063579088,-1.425289958374306,1.0160655695735248,0.07555179349813596,-0.00010936544488757605,5.85899539761277e-05,0.00014506429046790942,-0.0010067604491448023,-0.0008735296923233295,-0.0006501503015235286,0.0010018476261601384,0.5664556622505188,-52.49142837524414,5.588484764099121,17.89893341064453,-1.2452291250228882,-1.4142563343048096,-0.027418512850999832,,,,,,,,,
1739355998.5664668,0.36043855661572843,1.2150418169959891,0.31972121663224895,-1.1262048448372632,-1.4252867991876004,1.016070672388741,0.07554780204985216,-0.00048035580815191086,0.0003761711199370908,0.0003236353707150887,0.0010006184151657273,-0.0012114326804672623,0.0001044249716788623,-0.0006436180870328799,0.5664556622505188,-52.51919937133789,5.616255760192871,17.84735870361328,-1.2452291250228882,-1.4206650257110596,0.0064559997990727425,,,,,,,,,
1739355998.5774844,0.36043401352373733,1.215042584799152,0.3197194336685462,-1.1262047602985181,-1.4252893572356997,1.0160700294728273,0.07555092711463804,-0.002384712605424874,-0.00032556563557436207,-0.0007262146735080108,0.0006877123887340356,-0.0021139090668006195,0.0004060612171220561,8.710194607313081e-05,0.6418340802192688,-52.51919937133789,5.640059471130371,17.84735870361328,-1.2516378164291382,-1.4142563343048096,-0.020094294100999832,,,,,,,,,
1739355998.5884614,0.36043787174179165,1.2150458897236494,0.319717323406724,-1.126205800966337,-1.4252872081041736,1.0160700736753323,0.0755459664583586,-0.00019919263119914867,0.0007378029096887391,-0.0007563048196296534,0.0010445366809525482,0.000792979877541585,0.00031696446188308596,-0.0024267729248000705,0.6180303692817688,-52.54300308227539,5.663863182067871,17.84735870361328,-1.2388204336166382,-1.4142563343048096,0.012864691205322742,,,,,,,,,
1739355998.5994387,0.3604423029062097,1.215041707996257,0.3197225849096409,-1.126204791368617,-1.42528611075657,1.0160708333221862,0.07554999907644834,0.0009763158431942223,-0.0006491300296732897,0.00027490519807037,0.001624633470470174,0.0006618534095560988,0.0007457119197048115,0.0001494867856213663,0.5426519513130188,-52.51919937133789,5.588484764099121,17.84735870361328,-1.2388204336166382,-1.4206650257110596,-0.013685601763427258,,,,,,,,,
1739355998.6094723,0.36044329384729157,1.2150456042050632,0.3197172293445204,-1.1262100190018562,-1.425284943102124,1.0160668172748641,0.07555179349553909,0.0016365607587797886,0.0006889167989052874,-0.0009306271273687598,0.0006501786655979654,0.0003368906176584371,-9.715795225798834e-05,0.000534613646746593,0.5426519513130188,-52.54300308227539,5.640059471130371,17.87512969970703,-1.2516378164291382,-1.4142563343048096,-0.027418512850999832,,,,,,,,,
1739355998.6194754,0.3604407875958915,1.2150432214734648,0.31971943417124526,-1.1262012716353202,-1.4252861737805533,1.016070832604836,0.0755477386611008,0.0004490789617136485,-0.000926841432604468,-8.378888389781589e-05,0.0018244303560343252,-9.795650734309815e-05,0.001103118850929548,0.000103538731972428,0.5664556622505188,-52.54300308227539,5.640059471130371,17.79975128173828,-1.2516378164291382,-1.4206650257110596,-0.020094294100999832,,,,,,,,,
1739355998.6294787,0.36044090933779155,1.2150424611694868,0.3197216540973667,-1.1262032117883107,-1.4252916247269847,1.0160683314237797,0.07554778850735513,0.0009781873937961933,0.0007825530488335511,8.382044703986516e-05,0.0014105816315072017,-0.001844969641513459,-0.00026535836444774297,-0.00042765503958172503,0.5426519513130188,-52.51919937133789,5.616255760192871,17.82355499267578,-1.2324117422103882,-1.4005234241485596,0.0064559997990727425,,,,,,,,,
1739355998.6395144,0.3604390736175669,1.21504417468749,0.3197205080439954,-1.1262111164490487,-1.4252865813711888,1.0160699549790588,0.07554302580216313,-0.0007366780366967183,0.0011433006664769887,0.0005071187791806719,-0.0016464462058141467,7.586135458742765e-05,0.00041311735519193913,-0.0017222341876257157,0.5902593731880188,-52.54300308227539,5.616255760192871,17.92273712158203,-1.2452291250228882,-1.4142563343048096,0.04673920199275017,,,,,,,,,
1739355998.6495538,0.36044154698975095,1.2150404282505542,0.3197212166575859,-1.12620763482758,-1.4252924397440299,1.016071175301193,0.0755501699410036,8.186186173864704e-05,-0.000708332427050901,0.0010421522741151166,0.00028434576129984877,-0.0010976480661980647,0.00020505050152472753,0.0004772966925117077,0.5664556622505188,-52.49142837524414,5.616255760192871,17.87512969970703,-1.2250875234603882,-1.4270737171173096,-0.013685601763427258,,,,,,,,,
1739355998.6605213,0.36043500985822713,1.2150417469104293,0.31971943399256725,-1.1262087362633555,-1.4252876413688567,1.0160697466894382,0.07555185340345809,-0.0015282175253462623,-0.0005849406253337706,-0.0004288073198927065,-0.0005455377718742514,-0.0009169729566691746,-0.0003585793599519051,0.0008391652432138649,0.6180303692817688,-52.51919937133789,5.640059471130371,17.89893341064453,-1.2388204336166382,-1.4206650257110596,-0.0008682189509272575,747,743,739,39.436,0,0
1739355998.6714401,0.36044158230700707,1.2150426643066166,0.3197212166695865,-1.126205819971704,-1.4252845953833932,1.0160692097628348,0.07555179921078609,0.0009033143943627446,-0.0001569669348369772,-7.815381787947874e-05,0.0005620887174372158,0.0012384512073658378,1.2194779512306302e-06,0.001943176842130186,0.5664556622505188,-52.51919937133789,5.616255760192871,17.84735870361328,-1.2516378164291382,-1.4069321155548096,-0.027418512850999832,748,742,739,39.436,0,0
1739355998.6815405,0.3604368259608413,1.2150448365445259,0.31971943399256747,-1.1262078252849057,-1.4252891869843247,1.0160659513776318,0.07555330930623108,-0.002373185135429202,0.0026045255833669484,-0.00023353553965314706,0.0006402178011502193,-0.0007328134541333845,-0.0014750239537910281,0.0017040622033639796,0.6180303692817688,-52.51919937133789,5.640059471130371,17.87512969970703,-1.2516378164291382,-1.4069321155548096,-0.04023589566349983,745,742,739,39.545,1,0
1739355998.6915562,0.3604415430609363,1.2150434584908336,0.3197232089738866,-1.1262118067097817,-1.4252855176926298,1.016070833267009,0.07555334830974088,0.00018959843365660392,-0.0001266318098649468,0.0005359637953068972,-0.0012640815477270707,0.0005206486235768687,0.0011442194073783575,0.002622701293141501,0.5664556622505188,-52.54300308227539,5.588484764099121,17.89893341064453,-1.2452291250228882,-1.4206650257110596,-0.04023589566349983,746,738,740,39.436,0,0
1739355998.7025151,0.3604383768826037,1.2150407724387242,0.31971909077009564,-1.12620479280186,-1.4252897676725351,1.0160700756621115,0.0755477887238457,-0.0004469660552129729,0.0005901940648174098,1.676992899771559e-05,-0.0004862726849662789,-0.001028337457842752,-0.00011631836161200349,-0.0009926307635379546,0.5664556622505188,-52.49142837524414,5.616255760192871,17.84735870361328,-1.2388204336166382,-1.4142563343048096,0.0064559997990727425,744,743,739,39.436,0,0
1739355998.7134867,0.36043501082187707,1.2150436625223324,0.31971872437550597,-1.1262068476455387,-1.4252907111001942,1.0160692097648794,0.07554738648383363,-0.00066065553046913,0.0007740516909121105,-0.0008275212718564282,0.00044760350849791134,-0.0002406672469763366,-0.00048340022744240116,-0.0005051469957243344,0.6180303692817688,-52.54300308227539,5.640059471130371,17.87512969970703,-1.2388204336166382,-1.4069321155548096,0.012864691205322742,745,742,739,39.436,0,0
1739355998.7244658,0.36044249668464584,1.2150454212041841,0.3197232954833745,-1.1262055865677185,-1.4252867664557745,1.0160700756621117,0.07554627340558254,0.0011011264597800825,0.0012015939759894949,0.0017282536807677492,-0.00012551502670467304,0.0001229383595960167,-0.0001852358326079212,-0.0010981060729487854,0.5426519513130188,-52.57077407836914,5.588484764099121,17.84735870361328,-1.2452291250228882,-1.4142563343048096,0.019273381680250168,745,742,740,39.545,1,0
1739355998.7354603,0.3604369165485562,1.2150448101464386,0.31971918611682154,-1.1262100530190222,-1.4252897054625462,1.01607083332219,0.07554865316049139,-0.0010606148455522056,0.00037489665302376413,0.00023265146794932198,-0.0015066684227006111,-0.0016643037985708735,0.0001779658944315014,0.00043321580511486305,0.5902593731880188,-52.51919937133789,5.640059471130371,17.87512969970703,-1.2452291250228882,-1.4206650257110596,-0.0008682189509272575,744,741,739,39.545,0,0
1739355998.745489,0.3604401155537861,1.2150380001868002,0.31971943398836966,-1.1262070871722176,-1.4252912206869945,1.0160692097648794,0.07554707055466293,-0.0008354878550507125,-0.0015916396684476342,0.0003045252872023464,-0.00030757769158068894,-0.0015056985104946884,0.0006847144856801355,-0.0010427749516539234,0.5426519513130188,-52.46762466430664,5.640059471130371,17.87512969970703,-1.2324117422103882,-1.4069321155548096,0.012864691205322742,746,742,739,39.436,0,0
1739355998.756558,0.36044106926016894,1.215039796306857,0.3197211621719124,-1.1262099441448392,-1.4252901590615912,1.0160661267628324,0.07555020943237802,0.0016578382482220558,-0.0010352634304560825,0.0009990040262128769,-0.00028017040756041076,-0.0003376843221023124,-0.0006347600743630366,0.001872438709705971,0.5426519513130188,-52.49142837524414,5.588484764099121,17.87512969970703,-1.2324117422103882,-1.4206650257110596,-0.013685601763427258,744,743,739,39.545,1,0
1739355998.767509,0.36044157337260785,1.2150461641491743,0.3197190907945437,-1.1262069060817728,-1.4252863099214368,1.0160668172482954,0.0755501567979609,0.0005213025654440299,0.00043999933133118547,-0.0003307719069350726,-1.2666865402886603e-05,0.0022272054469147052,-0.000710997028582087,0.00036694283299980464,0.5664556622505188,-52.57077407836914,5.616255760192871,17.84735870361328,-1.2644551992416382,-1.4142563343048096,-0.013685601763427258,746,742,739,39.436,0,0
1739355998.7785323,0.3604422341895715,1.2150417135435272,0.3197176415829305,-1.1262077934826136,-1.4252877348145878,1.016070074981545,0.07555330946857515,0.0006564712916278698,-0.0011720516713827887,-0.0013688143163040497,-0.0007650327897053856,0.0011891257887770665,-0.00012720744084191842,0.0018999391327167497,0.5426519513130188,-52.51919937133789,5.663863182067871,17.87512969970703,-1.2250875234603882,-1.4142563343048096,-0.04023589566349983,746,743,739,39.436,1,0
1739355998.7885604,0.3604403146495436,1.215041472613429,0.3197187249273762,-1.126204759441102,-1.4252885902959833,1.0160700749999274,0.07555314963895024,0.0008624350358627965,0.00032557317883439934,-0.0006165826821862524,0.0003742518756255605,-0.0006916376906801985,-8.149281840620205e-05,0.0004948249250167861,0.5426519513130188,-52.51919937133789,5.640059471130371,17.84735870361328,-1.2388204336166382,-1.4142563343048096,-0.04023589566349983,744,743,738,39.545,0,0
1739355998.7995465,0.3604384818850074,1.2150441771966398,0.3197173080895678,-1.126207019550181,-1.4252888852355445,1.016070075662108,0.07554622082958214,-0.00018095664730350064,0.0002652887906843967,-0.000809629542198611,-0.0003148980942656568,0.000660007034061645,2.8590435301703424e-05,-0.0018232841430847226,0.5664556622505188,-52.51919937133789,5.640059471130371,17.84735870361328,-1.2452291250228882,-1.4142563343048096,0.019273381680250168,746,743,738,39.545,0,0
1739355998.810551,0.3604349037321555,1.2150417646092089,0.31971943394456437,-1.126204994840124,-1.4252911031109285,1.0160700756621117,0.07554863855882814,0.0001436386597196091,-0.0016162790133561348,-0.00017437438557894267,9.415299194845623e-05,-0.0016320963331262017,5.6821252288908125e-05,-0.000564758885233137,0.6180303692817688,-52.51919937133789,5.640059471130371,17.84735870361328,-1.2324117422103882,-1.4142563343048096,-0.0008682189509272575,746,742,739,39.436,1,0
1739355998.821442,0.36044062470884813,1.2150485293296285,0.31972319158478213,-1.1262096075455286,-1.4252899393385567,1.0160692097648794,0.07554540804796975,0.00011287846959387394,0.0018809569074336391,0.0011890679115000567,-0.002203698960150147,-0.0010624393676036093,-0.00021120122888996666,-0.001066723086177592,0.5664556622505188,-52.57077407836914,5.588484764099121,17.89893341064453,-1.2452291250228882,-1.4069321155548096,0.026597600430250168,747,741,741,39.654,1,0
1739355998.8324447,0.3604391501456416,1.2150404397020809,0.31972192227780144,-1.1262071626715915,-1.4252885410252045,1.0160700756621117,0.07555361741938174,0.00026071403759364434,-0.0005319273107373026,0.00037824663832476576,6.569732600965631e-05,0.0007669753202607649,-0.0003939870358590418,0.0011457080187287018,0.5902593731880188,-52.49142837524414,5.616255760192871,17.87512969970703,-1.2452291250228882,-1.4142563343048096,-0.03382720425724983,746,742,739,39.328,0,0
1739355998.8425477,0.36044082092686913,1.2150393166112496,0.3197212167895429,-1.1262100544370803,-1.4252876791354638,1.0160700756621117,0.07555737156933025,0.000603165658256409,-0.0018634842996763283,0.0007502088912113347,-0.000834177609497011,-0.001271663657226357,-0.0003303284694141046,0.002058285562672471,0.5426519513130188,-52.49142837524414,5.616255760192871,17.87512969970703,-1.2388204336166382,-1.4142563343048096,-0.04756011441349983,745,743,739,39.436,0,0
1739355998.8535175,0.36044179013656547,1.2150419578425544,0.31971730809357113,-1.1262072550798095,-1.425286773060388,1.0160715909822684,0.07554307814570953,0.0012014174328583336,-0.00014845065081544646,-0.0003123889573536981,1.1467588138411484e-05,0.001334479174983871,0.0005540888072525144,-0.0023010785287570163,0.5188482403755188,-52.51919937133789,5.640059471130371,17.84735870361328,-1.2452291250228882,-1.4270737171173096,0.019273381680250168,747,743,739,39.436,1,0
1739355998.863522,0.36043665115298035,1.2150419582850422,0.31971943395656516,-1.1262051313877162,-1.4252864125413534,1.01607083332219,0.075546614977429,-0.002552982646964376,0.0010415277740454007,-0.0001985705006911441,0.0017303441706859274,0.0005007236897267358,-0.0001575009419558364,-0.0008814721980060604,0.5902593731880188,-52.51919937133789,5.640059471130371,17.82355499267578,-1.2452291250228882,-1.4206650257110596,0.019273381680250168,746,742,740,39.436,1,0
1739355998.87353,0.36043932617832164,1.2150418672567644,0.3197232964594415,-1.1262114923266533,-1.4252864629623787,1.01607083332219,0.07554941310030246,0.00025669753443261135,-0.0003023587217142748,0.0010368141208532548,-0.0015566961224030163,-7.279790022656811e-05,0.0003788025509162597,-0.0015547613774602536,0.5664556622505188,-52.49142837524414,5.588484764099121,17.89893341064453,-1.2388204336166382,-1.4206650257110596,-0.0072769103571772575,744,743,740,39.436,0,0
1739355998.8844376,0.3604400771918652,1.21504639057594,0.3197193290099009,-1.1262048738316182,-1.425285347716963,1.01607083332219,0.07555016994102572,-0.0007407613117606058,0.000677643397864408,-0.000491331580315988,-0.00021804095796481768,0.0013012258075594625,8.816201881677117e-05,0.0004164707363039386,0.5426519513130188,-52.54300308227539,5.640059471130371,17.84735870361328,-1.2452291250228882,-1.4206650257110596,-0.013685601763427258,746,743,739,39.545,1,0
1739355998.8945577,0.36043836367369314,1.215043857506358,0.31971943399197483,-1.1262050740828387,-1.4252861725363577,1.0160700756621117,0.07554703106354442,-0.0008553836013542722,0.00021499702929562149,0.0001273694022981463,0.0007946086531081384,-2.071950559485498e-05,0.00012057413836266909,-0.001790534918008507,0.5664556622505188,-52.51919937133789,5.640059471130371,17.84735870361328,-1.2516378164291382,-1.4142563343048096,0.012864691205322742,747,743,740,39.436,1,0
1739355998.9055293,0.3604400772845814,1.2150483616017447,0.3197230748293683,-1.1262100160596142,-1.4252897035254035,1.0160700756621117,0.07554703106354442,-0.0006025657415402801,0.0006593740441795989,0.0009700963632599859,-0.00041420797598087526,-0.000602203118705955,-1.7901672687442313e-05,-0.00034403683058752295,0.5426519513130188,-52.57077407836914,5.588484764099121,17.87512969970703,-1.2452291250228882,-1.4142563343048096,0.012864691205322742,745,743,739,39.545,1,0
1739355998.9164884,0.36043935692091555,1.2150418623634374,0.3197176512062904,-1.1262107732730915,-1.4252899782620556,1.01607083332219,0.0755543494817907,0.0009560287887223943,-0.001167966442409674,-0.00024989152227941906,-0.0009439886095284164,0.0003198166785981017,-0.00012078338185868498,0.0031474231614480276,0.5664556622505188,-52.49142837524414,5.663863182067871,17.89893341064453,-1.2452291250228882,-1.4206650257110596,-0.03382720425724983,746,742,740,39.545,0,0
1739355998.927515,0.3604401556840991,1.2150455728448275,0.31971846290290035,-1.1262090124905424,-1.4252879391090143,1.0160701149079685,0.07555016997146659,0.0009205114748294432,-0.00017629401642546284,-0.0008299438458432917,0.0004033667416385118,-0.0005106164781490644,0.0003191081261123037,-2.5459701428343496e-06,0.5426519513130188,-52.54300308227539,5.640059471130371,17.87512969970703,-1.2516378164291382,-1.4142563343048096,-0.013685601763427258,746,742,739,39.545,0,0
1739355998.9384432,0.3604383636738371,1.215041825830134,0.3197176513137211,-1.1262051107157358,-1.4252893446379205,1.0160700756621857,0.0755512844841245,-0.00024546729553189927,7.778739667987282e-05,-0.0007333387600106395,-0.0002923288887965797,-0.00026572982739837174,5.588962173117538e-05,0.0003908312990738293,0.5664556622505188,-52.51919937133789,5.663863182067871,17.84735870361328,-1.2516378164291382,-1.4142563343048096,-0.020094294100999832,746,743,740,39.436,1,0
1739355998.9494305,0.3604400761944187,1.2150418588602687,0.319721170560445,-1.1262049954511117,-1.4252855055823808,1.0160715909822686,0.07554687335030187,3.2432894837270136e-05,-7.222087719082785e-05,0.0007533933560454561,0.0009079616211718008,0.0019114653306394295,0.00044579915643093004,-0.0003705378863098109,0.5426519513130188,-52.49142837524414,5.588484764099121,17.84735870361328,-1.2452291250228882,-1.4270737171173096,0.012864691205322742,747,743,740,39.436,1,0
1739355998.9594653,0.36044146358761964,1.215044416194268,0.31972047303036455,-1.1262069193793873,-1.4252884235108392,1.0160708333221902,0.0755533095219307,0.000848931599091481,0.0009012691666316415,-0.0001917298834088436,0.0003138675591684208,0.0014167812788027628,-0.0002959241727104978,0.0032320021287825114,0.5664556622505188,-52.54300308227539,5.616255760192871,17.87512969970703,-1.2580465078353882,-1.4206650257110596,-0.04023589566349983,746,741,738,39.436,0,0
1739355998.9695835,0.36044075096443134,1.2150425769652955,0.3197194339799739,-1.126205587404858,-1.4252886454096494,1.0160708333221902,0.07554616151120944,0.0010240329773182665,0.0005392402493147393,0.00033483821439447934,0.0015447260641740443,0.0005641765794182547,0.0004113768657520113,4.2803248700988734e-05,0.5664556622505188,-52.49142837524414,5.640059471130371,17.84735870361328,-1.2452291250228882,-1.4206650257110596,-0.0072769103571772575,746,742,740,39.436,0,0
1739355998.9805171,0.3604412365202088,1.2150423352029018,0.3197232692417136,-1.1262087254619069,-1.4252881112306015,1.0160715909822686,0.07554991638516623,0.000868186097655492,0.00022426675308163133,0.000662431767193956,0.0009197500609416109,-0.0015859367825201433,0.00010540202661529473,0.00010004707714605975,0.5664556622505188,-52.49142837524414,5.588484764099121,17.89893341064453,-1.2580465078353882,-1.4270737171173096,-0.04756011441349983,747,742,740,39.545,1,0
1739355998.9915028,0.3604383941054437,1.2150426683549547,0.319719012033436,-1.126206906210185,-1.4252867735601749,1.016070075662112,0.07554703103950601,0.0013504051280997815,-0.0006565101084493046,-0.0010695644675215712,3.7862048160924465e-05,0.0021171975857542037,-0.00018025248695722999,-0.0006848260669235281,0.5664556622505188,-52.51919937133789,5.616255760192871,17.84735870361328,-1.2452291250228882,-1.4142563343048096,0.012864691205322742,747,738,739,39.436,1,0
1739355999.0024562,0.36043836371019805,1.2150464571898383,0.31971763380599205,-1.1262071833185596,-1.4252869363416971,1.0160700758236174,0.0755501699410117,-0.0005743793951798225,0.0015520472443302648,-0.0010666466758432814,0.00035305008464421947,-0.00042378012647994925,-0.00048329131721671834,0.0008543956130736045,0.5664556622505188,-52.57077407836914,5.663863182067871,17.87512969970703,-1.2452291250228882,-1.4142563343048096,-0.013685601763427258,747,742,740,39.436,1,0
1739355999.0134325,0.36043761365759064,1.2150455718331246,0.3197211705603462,-1.1262069545559135,-1.4252862675853861,1.0160715775732685,0.07554687334425804,0.00019975128410259894,0.0009746151300854733,0.000995407920799896,0.0005821726599828869,-0.0003563601479008294,0.0003901694886195096,-0.002733088518515423,0.5902593731880188,-52.54300308227539,5.588484764099121,17.87512969970703,-1.2388204336166382,-1.4270737171173096,0.012864691205322742,748,742,740,39.436,1,0
1739355999.023551,0.3604405124006388,1.2150418254264126,0.3197212083170561,-1.126207858432358,-1.4252906979464874,1.0160692097646522,0.07554540750367278,0.0007312251673356161,-0.000538921358843341,0.0007843503342653179,0.0005643782623680855,-0.0010499260698924571,-0.00022170725059880315,-0.0018503967875819216,0.5664556622505188,-52.51919937133789,5.616255760192871,17.84735870361328,-1.2388204336166382,-1.4069321155548096,0.026597600430250168,748,743,740,39.545,1,0
1739355999.0344815,0.360441789853781,1.215045808429565,0.31972121666953934,-1.126205748983066,-1.4252881274961398,1.0160700756621117,0.07554708371840206,0.0013193492240859898,0.0013651898031842521,-0.0002532204118670568,0.0004355863232096325,-0.0007521268926748361,-0.00010916914203981745,0.0007243061391535918,0.5188482403755188,-52.54300308227539,5.616255760192871,17.84735870361328,-1.2580465078353882,-1.4142563343048096,0.012864691205322742,750,742,740,39.436,1,0
1739355999.0445411,0.3604366540964534,1.2150406677587382,0.31971943399256747,-1.126204760020412,-1.425286268225343,1.0160715909822684,0.0755464752325215,-0.0013494321381294846,0.00035711592231222646,-0.0006353223884189024,0.0009501727379416432,0.0005960394459195359,0.00021482640167015796,-0.0006308916354940195,0.5902593731880188,-52.49142837524414,5.640059471130371,17.84735870361328,-1.2388204336166382,-1.4270737171173096,0.026597600430250168,747,743,738,39.436,1,0
1739355999.0554805,0.36043837544745005,1.2150471345611522,0.31971935493154696,-1.1262150580196533,-1.4252846070809917,1.0160715909822684,0.07555013051319935,0.0005805111731379598,0.00015721286154548773,-0.0009097916139356082,-0.0009065624508792325,0.0010220350405766335,-0.00018759600514130725,-0.00027476824503798653,0.5664556622505188,-52.59457778930664,5.640059471130371,17.94654083251953,-1.2516378164291382,-1.4270737171173096,-0.013685601763427258,746,743,740,39.545,2,0
1739355999.0665214,0.3604389128001223,1.2150444032818997,0.31971848914812245,-1.1262087022529734,-1.4252908331240022,1.0160700756621117,0.07555330865610416,0.0005982514158858485,0.0007523627406404579,-0.0005661103544176034,0.0007748900534615901,-0.001223545002670086,-0.00035022416524770793,0.0014702491657759744,0.5426519513130188,-52.54300308227539,5.640059471130371,17.89893341064453,-1.2388204336166382,-1.4142563343048096,-0.04023589566349983,747,743,739,39.545,1,0
1739355999.0774577,0.36043912363535735,1.2150445804546932,0.3197232964541084,-1.1262072563339696,-1.425284593792138,1.0160700756621117,0.07555312322026464,0.0005467070470268648,0.00027971888929977584,0.000931007075483274,-0.0005102350344442586,0.00278242717785235,-0.000631088625132349,0.000602563293089768,0.5902593731880188,-52.51919937133789,5.588484764099121,17.84735870361328,-1.2516378164291382,-1.4142563343048096,-0.04756011441349983,748,742,740,39.436,0,0
1739355999.0874739,0.3604407928002229,1.2150455732930885,0.31971733636754873,-1.1262030012098518,-1.425290382684906,1.0160715909822684,0.07554702471749428,8.72629831912968e-05,0.0013059425832875403,-0.001825477570538654,0.001246800882051053,-5.353169794923727e-05,0.00015809533281604932,-0.001982358792943792,0.5426519513130188,-52.54300308227539,5.663863182067871,17.82355499267578,-1.2388204336166382,-1.4270737171173096,0.012864691205322742,747,742,739,39.436,1,0
1739355999.097561,0.36043879693230396,1.2150416841413534,0.31971909076525584,-1.1262097262930488,-1.425290400199882,1.016070088744064,0.07554869208299768,-7.073160261839733e-06,-0.0005650248691127782,-9.107961692390854e-05,0.0006462277653507399,0.0009492632747788476,-0.00032597970869296673,-0.0006077911268129686,0.5902593731880188,-52.51919937133789,5.616255760192871,17.87512969970703,-1.2388204336166382,-1.4142563343048096,0.012864691205322742,747,742,740,39.436,1,0
1739355999.108505,0.3604383636858005,1.2150462511071962,0.3197212079090302,-1.126205123548879,-1.4252907146568878,1.0160700756621857,0.07555179350780919,0.0004121004566803276,0.0013650598626766424,0.0009247237459161655,0.000916008515603777,-0.0014297076484270875,8.371637093224683e-05,0.0006302554658683575,0.5664556622505188,-52.57077407836914,5.616255760192871,17.82355499267578,-1.2388204336166382,-1.4142563343048096,-0.027418512850999832,748,743,740,39.545,1,0
1739355999.118567,0.36044050944089967,1.215041816573763,0.3197209804584385,-1.1262061910199377,-1.425288450385991,1.0160692097648796,0.07555047854180129,0.00018525926199268,-0.00028061358131462846,-0.00012709472470063318,0.00041334566539246126,-3.4474834944945914e-05,-0.00032368666033690766,7.776030655473471e-05,0.5664556622505188,-52.51919937133789,5.616255760192871,17.82355499267578,-1.2324117422103882,-1.4069321155548096,-0.0072769103571772575,748,743,740,39.436,1,0
1739355999.1295009,0.3604383636858004,1.2150424259975838,0.319717651314215,-1.1262050754085327,-1.4252868667546454,1.0160692097648796,0.07554540897499779,-0.00013945452864068972,0.0005930658905485966,-0.0008452633242944679,0.0012204561100184034,0.0015138799039026468,-0.0006086545868343866,-0.0002617055631929286,0.5664556622505188,-52.51919937133789,5.663863182067871,17.84735870361328,-1.2324117422103882,-1.4069321155548096,0.026597600430250168,748,743,740,39.545,1,0
1739355999.1404765,0.36043844314654727,1.2150445730400923,0.31972121656157965,-1.126207181200577,-1.4252899577262788,1.0160708333221902,0.07555453013611926,1.2901775926217162e-07,0.0016476069754059535,0.00041847952296235547,0.0007545423672786556,0.0008427381446770324,-7.559723878949987e-06,0.0017729570140079805,0.5664556622505188,-52.51919937133789,5.616255760192871,17.87512969970703,-1.2452291250228882,-1.4206650257110596,-0.04756011441349983,747,743,740,39.436,1,0
1739355999.1504993,0.3604367454533744,1.2150463637699254,0.31971910737982534,-1.1262079477205202,-1.4252888301349673,1.0160684521048011,0.07555330736424468,-6.989459136965602e-05,0.000980567156428106,-0.0010161453297020497,0.0008360878257032476,0.00046092861366356006,-0.0005541036881316375,0.0005534152527972356,0.5902593731880188,-52.54300308227539,5.640059471130371,17.84735870361328,-1.2516378164291382,-1.4005234241485596,-0.04023589566349983,747,743,740,39.436,1,0
1739355999.1614404,0.36043931734853624,1.2150435068577186,0.31972113793074286,-1.12620300020438,-1.425287050574923,1.0160715909822686,0.07554877309427667,0.0006259487915262459,-0.0004564909789827427,0.0006498904655474645,0.002813194039839292,0.0006145341391111617,0.0007692523875696715,-0.0005872014385868184,0.5664556622505188,-52.54300308227539,5.616255760192871,17.82355499267578,-1.2580465078353882,-1.4270737171173096,-0.0008682189509272575,748,743,743,39.654,1,0
1739355999.1714945,0.3604367988874589,1.2150438694464756,0.3197173042039901,-1.126206994367858,-1.4252869169536506,1.0160715909822686,0.07555175390835481,-0.0007326393966267943,0.00029997105701880684,-0.0018401034389119047,-0.000287403185000396,-0.00010909737950276766,0.0005847218631655706,-0.00125958654916133,0.6180303692817688,-52.51919937133789,5.640059471130371,17.84735870361328,-1.2452291250228882,-1.4270737171173096,-0.027418512850999832,747,744,740,39.545,1,0
1739355999.1815233,0.3604376051906587,1.2150444654577273,0.3197212163094978,-1.1262052290618774,-1.4252861394004606,1.0160715909822686,0.07555416936124122,-0.0002460066978843675,0.0013886986110007438,0.0011954745097458148,0.0011633435801925518,-0.0002767927211361262,0.0006486886227738103,0.00013267874409700082,0.5902593731880188,-52.54300308227539,5.616255760192871,17.82355499267578,-1.2516378164291382,-1.4270737171173096,-0.04756011441349983,747,744,739,39.436,2,0
