IITGN-Robotics/Franka_IITGN_ROBOTICS/franka_ros/franka_iitgn/data02/os_001.csv
time,fr3_joint1_pos,fr3_joint2_pos,fr3_joint3_pos,fr3_joint4_pos,fr3_joint5_pos,fr3_joint6_pos,fr3_joint7_pos,fr3_joint1_vel,fr3_joint2_vel,fr3_joint3_vel,fr3_joint4_vel,fr3_joint5_vel,fr3_joint6_vel,fr3_joint7_vel,fr3_joint1_eff,fr3_joint2_eff,fr3_joint3_eff,fr3_joint4_eff,fr3_joint5_eff,fr3_joint6_eff,fr3_joint7_eff,flexpin1,flexpin2,flexpin3,Force,ContactMic,ContactMic_gt
1739354991.3885171,0.36554562776311134,1.186964071968351,0.2985773905682023,-1.1588614959699337,-1.3939687565117613,1.0520692876882238,0.0913693636461524,-0.0011413587819089541,0.0006252321897082672,-0.00022818937138951762,-0.00045898720620409113,0.0002712303201709116,0.001221691257331006,-0.0015174800671275937,0.5664556622505188,-52.69772720336914,5.334578514099121,18.14490509033203,-1.1994527578353882,-1.3217880725860596,0.026597600430250168,,,,,,,,,
1739354991.3994129,0.36553221685217985,1.186960585204707,0.2985663257165592,-1.1588633167970603,-1.3939684076596284,1.0520700472953304,0.09137065140046388,-0.0032164160116622802,-0.0017850838608884476,-0.0004804170794287401,-0.0005002847591594105,0.000653939413927997,0.0004457825237204118,-0.0002007716774029443,0.6656377911567688,-52.62234878540039,5.362349510192871,18.16870880126953,-1.1994527578353882,-1.3281967639923096,0.012864691205322742,,,,,,,,,
1739354991.410411,0.3655204552378848,1.1869649874539965,0.29855638686500047,-1.1588646754778749,-1.3939701695233757,1.052067780344649,0.09137263031239677,-0.0017735424348137606,-4.71076361270951e-05,-0.0008409566135018798,-0.00010526367526979054,-0.0006945565852567895,-0.000777209604447063,0.0006261317324885139,0.6894415020942688,-52.67392349243164,5.362349510192871,18.14490509033203,-1.1994527578353882,-1.3089706897735596,-0.0008682189509272575,,,,,,,,,
1739354991.4204142,0.36550282831304726,1.1869659412695839,0.2985436414979024,-1.1588657169150038,-1.393974111936629,1.0520670168704684,0.09137490313115525,-0.0017472588215501025,-0.00045909059868973467,-0.0011455219926992874,-0.0011517463467504427,-0.0026865195043385666,-0.0009283742445554055,0.000552705193049342,0.7410162091255188,-52.67392349243164,5.362349510192871,18.14490509033203,-1.1930440664291382,-1.3025619983673096,-0.020094294100999832,,,,,,,,,
1739354991.4304876,0.36549300222704467,1.1869667011455993,0.2985297857870006,-1.158868661773234,-1.3939737936572807,1.052068533644077,0.09137112455844713,-0.0014794783946810266,0.0004603865436068787,-0.0018645816848299366,-4.511011960758742e-05,-0.0008978974194953331,-0.000283683418999384,-0.00014443596460386797,0.7172124981880188,-52.69772720336914,5.409956932067871,18.14490509033203,-1.1930440664291382,-1.3153793811798096,0.012864691205322742,,,,,,,,,
1739354991.4405077,0.36546998346213355,1.1869725563098104,0.29851983709409013,-1.1588682042415415,-1.3939710759668598,1.0520685515712047,0.0913726429702182,-0.002812409770779703,0.0011332565313876132,-0.00014420240699624087,0.0005752525399337419,-1.9156384740973446e-05,-3.34794555978787e-05,0.00023511760244726267,0.7410162091255188,-52.74930191040039,5.409956932067871,18.12110137939453,-1.2186788320541382,-1.3153793811798096,-0.0008682189509272575,,,,,,,,,
1739354991.4514024,0.36545571928536175,1.1869650759347856,0.2985088386245331,-1.1588722223165902,-1.3939702936380933,1.0520708335212947,0.09137181886745868,-0.0028718724693047267,-0.0022507962010416267,-0.002141618656748774,-0.0008192023995410656,-0.0015153842250470312,0.002334179502367123,-0.0010733575668410537,0.7172124981880188,-52.67392349243164,5.386153221130371,18.14490509033203,-1.1994527578353882,-1.3217880725860596,0.03300629183650017,,,,,,,,,
1739354991.4624274,0.36544335845035447,1.1869677729819366,0.29850063094965246,-1.1588784923652689,-1.3939724215665572,1.0520677876211149,0.09137836373764863,-0.0007438352243599991,0.0005392708576476875,-0.0008131233390364836,-0.0014099566034477026,-0.00026093437747199083,-0.002032709316285972,0.0007596547811611997,0.6656377911567688,-52.69772720336914,5.409956932067871,18.22028350830078,-1.1994527578353882,-1.3089706897735596,-0.04023589566349983,,,,,,,,,
1739354991.472473,0.3654285240850434,1.186971629943016,0.2984974536035827,-1.1588739581166017,-1.3939709499062987,1.0520709684650773,0.0913709668574293,-0.0009569330399336423,-0.0011935203684571112,-0.00102345173038819,0.0008766880936199887,-3.2241526027454795e-05,-0.000589884569086797,0.00035548229071215314,0.6894415020942688,-52.72153091430664,5.409956932067871,18.16870880126953,-1.2122701406478882,-1.3089706897735596,0.012864691205322742,,,,,,,,,
1739354991.4824736,0.3654102040614552,1.1869716299793323,0.298492082373745,-1.1588781091796598,-1.3939712107011655,1.0520709580210823,0.09137522289422277,-0.0008006132998193138,-0.0007974569550644032,-0.0006871145907323196,-0.00039248604512599007,-0.00040396191955758924,0.0006043101021161669,0.0015398096673191648,0.7410162091255188,-52.72153091430664,5.409956932067871,18.14490509033203,-1.2186788320541382,-1.3089706897735596,-0.013685601763427258,,,,,,,,,
1739354991.493401,0.3654001758386927,1.1869699187668166,0.2984944959667336,-1.1588784609719702,-1.3939691835218997,1.052068886862777,0.0913713653041293,0.000964980156576649,-0.0007003049885177118,0.0014898884526723718,-0.0005682082847944868,0.0003207695960675951,-0.0007249245083533499,0.00025861718385705685,0.6894415020942688,-52.69772720336914,5.362349510192871,18.14490509033203,-1.2058614492416382,-1.3153793811798096,0.012864691205322742,,,,,,,,,
1739354991.503517,0.3653858425435806,1.1869684417212278,0.2984880482555622,-1.1588770796504722,-1.393971246835671,1.0520677745364548,0.09137024861507792,-0.0007836839058740624,-0.00017627717782587687,-0.00030947381728959407,0.0010133484728217764,0.0008220448735899244,-8.934998730615861e-05,-0.00030140518690760683,0.7410162091255188,-52.67392349243164,5.409956932067871,18.09729766845703,-1.2186788320541382,-1.3089706897735596,0.019273381680250168,,,,,,,,,
1739354991.5144773,0.3653765638348914,1.1869682062474172,0.2984885141795939,-1.1588822999406496,-1.393972766738646,1.0520670173548867,0.09137024860899766,-0.0015600927663531137,-0.0005122022345614176,-0.0005611329869461446,-0.001067484165701526,-0.001536105402899604,0.0006115073306731181,-0.0015925866432472701,0.7410162091255188,-52.67392349243164,5.362349510192871,18.19647979736328,-1.2058614492416382,-1.3025619983673096,0.019273381680250168,,,,,,,,,
1739354991.5255067,0.3653729410723171,1.1869682023215022,0.29848641312123575,-1.1588768002846739,-1.3939712460888307,1.0520677876662385,0.0913670015484637,-0.0014155682238872003,0.00021991330295824646,-0.0001921234280451019,0.0003172926583718384,-0.00016996030931100195,-0.0010255307456897554,-0.002694499612251379,0.7410162091255188,-52.67392349243164,5.386153221130371,18.12110137939453,-1.2186788320541382,-1.3089706897735596,0.04673920199275017,,,,,,,,,
1739354991.5374615,0.3653741696164456,1.1869716312511893,0.29848459119992754,-1.1588831076167174,-1.3939735248294016,1.0520702108048514,0.09137576870385444,0.0004910773357690471,0.0009954288223828613,-0.0013787233023158287,-0.0004970841242614075,-0.0017996724770508812,-0.001738894861632708,0.0013973874737028646,0.6894415020942688,-52.72153091430664,5.409956932067871,18.16870880126953,-1.1994527578353882,-1.3025619983673096,-0.027418512850999832,,,,,,,,,
1739354991.547506,0.3653734229150196,1.186970643870359,0.29848641214715527,-1.1588808598917755,-1.3939712512570117,1.0520738880940854,0.09137420446560636,-0.0007435196521438133,-6.090234649378364e-05,-0.00018419795301074683,-0.0004587921543975247,-0.0005390241035490474,-0.00013519123234456535,-0.00034327042004552474,0.6894415020942688,-52.69772720336914,5.386153221130371,18.14490509033203,-1.2186788320541382,-1.3217880725860596,0.012864691205322742,,,,,,,,,
1739354991.5584006,0.36537121795078703,1.186970352017393,0.29849027558630764,-1.1588833844582151,-1.3939729983376765,1.0520740582212267,0.09137809664022485,-0.0006496993698868027,-0.00017305085700652424,0.0012781678437240834,0.00025262232019262457,-0.0003333246893267634,0.0013674120446084872,0.0014021153961966326,0.6894415020942688,-52.67392349243164,5.334578514099121,18.16870880126953,-1.2058614492416382,-1.3217880725860596,-0.020094294100999832,,,,,,,,,
1739354991.5684614,0.36537054935099134,1.1869723466886426,0.29848463044241946,-1.1588827499868086,-1.3939735258562171,1.0520722404394627,0.09137834884554438,-0.0008721416954653812,1.8639438623630725e-05,-0.00096228696230934,-9.536020842030224e-05,-0.001130999244519719,-0.00025872581399106185,0.0026846432436861364,0.6894415020942688,-52.72153091430664,5.409956932067871,18.16870880126953,-1.1994527578353882,-1.3153793811798096,-0.04023589566349983,,,,,,,,,
1739354991.579502,0.36537563451497607,1.1869744924235541,0.29848640015861544,-1.1588817100349569,-1.3939727672231965,1.0520727898754711,0.0913752591413908,0.0005159583505507905,0.0006800290966912577,-0.0002328542286790443,-0.00019461007135597816,-0.0002475892573669674,-0.000533794281463318,0.002059952315521282,0.6180303692817688,-52.72153091430664,5.386153221130371,18.14490509033203,-1.2058614492416382,-1.3153793811798096,-0.020094294100999832,,,,,,,,,
1739354991.5905104,0.3653775766940109,1.186972611359955,0.2984920543390098,-1.158885722026181,-1.3939742825433479,1.0520732940990025,0.09137896252141486,0.0005810230979393168,-9.35119662294574e-05,0.0023032241818617487,-0.00034359467187976674,0.0003009764217922562,-0.0007311164122989222,0.0014295641832551584,0.6180303692817688,-52.72153091430664,5.310774803161621,18.16870880126953,-1.1930440664291382,-1.3153793811798096,-0.027418512850999832,,,,,,,,,
1739354991.601531,0.36537442243670654,1.1869723584315934,0.29848819439234625,-1.1588817132172435,-1.39397199212051,1.0520740582221506,0.09136862945080737,0.0009169551657512461,0.0011545343399143536,0.0007509127430307128,-0.0003657970575437255,0.0007546414089137941,0.0003423615237861394,-0.001872786398757656,0.6656377911567688,-52.72153091430664,5.362349510192871,18.14490509033203,-1.2122701406478882,-1.3217880725860596,0.03300629183650017,,,,,,,,,
1739354991.6124537,0.365372372648087,1.186972647339107,0.29848803595608614,-1.1588850851545047,-1.3939727665770703,1.052074058222187,0.09137449563376118,0.000302122476274751,0.0003582688687332221,0.0011961052218299319,0.00023605165488093543,0.0002680262797204393,0.00011835457838004355,-0.000355732464189046,0.6894415020942688,-52.69772720336914,5.334578514099121,18.16870880126953,-1.2058614492416382,-1.3217880725860596,-0.013685601763427258,,,,,,,,,
1739354991.6234465,0.36537023699056653,1.186969195257078,0.29848633307371353,-1.158879939920104,-1.393970898690321,1.0520717808813012,0.09137349667633476,0.0001490370801950003,-0.0009960392957524618,-0.0006367363616561403,0.0011443082981199724,0.00047676161063894986,0.00018163253158991335,-0.0009241158063075855,0.6894415020942688,-52.67392349243164,5.386153221130371,18.12110137939453,-1.2186788320541382,-1.3025619983673096,0.019273381680250168,,,,,,,,,
1739354991.6344233,0.3653704830181345,1.1869700369460372,0.2984881957960057,-1.1588835603224765,-1.393971134324976,1.052073665763596,0.09137176546183094,0.0005079413989699698,3.906864571769883e-05,6.900046972878961e-05,0.00023210989285275384,-0.00047835513058401487,-3.8170029729416895e-05,-0.0002467762777716121,0.6894415020942688,-52.69772720336914,5.362349510192871,18.16870880126953,-1.2186788320541382,-1.3217880725860596,0.0064559997990727425,,,,,,,,,
1739354991.6444883,0.36536884725373475,1.1869710937619917,0.2984874409463103,-1.1588849101445253,-1.3939720095611217,1.052074815875619,0.09137530411954571,-0.0006344746566564966,-0.0006811710584993537,0.00013673508966524338,2.0891555665541107e-05,-0.00073892981407826,-0.0007311358743615752,0.0008326416048537282,0.6656377911567688,-52.67392349243164,5.334578514099121,18.14490509033203,-1.2122701406478882,-1.3281967639923096,0.012864691205322742,,,,,,,,,
1739354991.6554546,0.3653719464565281,1.1869672719932662,0.29848806171772935,-1.1588839612593085,-1.3939712068429768,1.0520740577376704,0.09137338751061642,1.1016657889938034e-07,-0.0009314640279103148,0.0007596524217560862,-0.00033616552352372836,-5.3981294633694e-05,0.00029525668680517684,0.0017538363109750824,0.6656377911567688,-52.64615249633789,5.334578514099121,18.14490509033203,-1.2186788320541382,-1.3217880725860596,-0.0072769103571772575,,,,,,,,,
1739354991.6655264,0.365371486845604,1.1869720774159644,0.29848989700860035,-1.1588822486234052,-1.3939711399789023,1.0520733005621004,0.09137178291377353,0.0002949889529242565,-0.0003466123386308178,0.0014718396084517796,-0.00020764410621286169,0.0004209861864161354,0.00042620089285079184,3.739293074615365e-05,0.6418340802192688,-52.69772720336914,5.310774803161621,18.12110137939453,-1.2186788320541382,-1.3153793811798096,0.0064559997990727425,,,,,,,,,
1739354991.6764321,0.3653680882828346,1.1869706340710808,0.29848713706502733,-1.1588824641595044,-1.393972806468416,1.0520725429020303,0.0913678673917157,0.0002970600766353112,0.0004861819141428197,-0.00032095158726115077,0.0007598205249105436,-1.9974218192075487e-05,-0.00062352630765454,-0.0019101118583955633,0.6894415020942688,-52.69772720336914,5.362349510192871,18.14490509033203,-1.2058614492416382,-1.3089706897735596,0.03941498324275017,,,,,,,,,
1739354991.6874552,0.36537140438085547,1.186975774999653,0.298489930066396,-1.1588813410625103,-1.3939729198461885,1.0520732999160864,0.09137490280662174,0.00018069079245584309,0.0017318452206727965,0.0002567192013906508,0.0015067465109072189,-2.6351969733201338e-05,-1.534426018844345e-05,0.0008695954272019304,0.6418340802192688,-52.74930191040039,5.334578514099121,18.09729766845703,-1.2058614492416382,-1.3153793811798096,-0.020094294100999832,,,,,,,,,
1739354991.6974657,0.36536908454076056,1.1869728989808885,0.2984895669474627,-1.1588861542372608,-1.3939720095656976,1.0520740582221761,0.09137263193569092,0.00024441970732174854,7.776328002459467e-05,0.0009001475168965483,-0.0012834866147050082,-0.000202728548607633,0.00043528429153612264,-0.0008125181769176607,0.6656377911567688,-52.69772720336914,5.334578514099121,18.16870880126953,-1.2122701406478882,-1.3217880725860596,-0.0008682189509272575,,,,,,,,,
1739354991.708508,0.36537441466354176,1.1869678446922876,0.2984856257454393,-1.1588827951832679,-1.3939712562636852,1.052072904945058,0.09137588699333082,0.0023759891258087404,-0.001888461494485238,-0.0015910052980953205,0.0010711834754614155,0.0004871727269302805,-8.416432449959111e-07,0.00132837329009768,0.6180303692817688,-52.67392349243164,5.386153221130371,18.14490509033203,-1.2186788320541382,-1.3089706897735596,-0.027418512850999832,,,,,,,,,
1739354991.7194214,0.3653719333866696,1.1869701958841326,0.2984881948199511,-1.1588868020362901,-1.3939720095631374,1.0520733005641525,0.09136942214225457,0.0009080449659367032,-0.0004987953782952749,-0.0006734900645671217,-0.00029084075043520356,0.0007714108502592481,0.00016774455185344301,0.0005093161966375963,0.6656377911567688,-52.69772720336914,5.362349510192871,18.16870880126953,-1.2122701406478882,-1.3153793811798096,0.026597600430250168,,,,,,,,,
1739354991.7294745,0.3653687549135253,1.1869700257164715,0.2984902629494941,-1.1588814550729463,-1.3939727672231912,1.052072947349399,0.09136786690548837,-0.001228593670767361,-0.00026550835797831254,0.0016348197387243547,0.001495435583476871,-0.0015899323326595452,0.0004252178188398485,1.3640693260588352e-05,0.6656377911567688,-52.69772720336914,5.334578514099121,18.09729766845703,-1.2058614492416382,-1.3153793811798096,0.03941498324275017,,,,,,,,,
1739354991.740469,0.3653721618041547,1.1869720646799897,0.2984851210211345,-1.1588832632597903,-1.393972009563113,1.0520733005601148,0.09137481301773485,0.00024049665946183603,-0.00011012748697222222,-0.0008898829372712659,0.0014190592365902668,0.0006990348602880509,-0.00029173805576461183,0.0007079448128318726,0.6180303692817688,-52.69772720336914,5.362349510192871,18.12110137939453,-1.2122701406478882,-1.3153793811798096,-0.0072769103571772575,,,,,,,,,
1739354991.751439,0.3653687632898819,1.1869699483586802,0.29848397211107563,-1.1588829080849317,-1.3939712519030345,1.0520733005621086,0.09137658320301546,-0.0006179147552235864,-0.0007799760875615144,-0.0020885182669132794,0.000992449965405749,0.0008948534527499072,-7.245310406502242e-06,0.0011223294457844727,0.6656377911567688,-52.69772720336914,5.386153221130371,18.12110137939453,-1.2186788320541382,-1.3153793811798096,-0.0072769103571772575,,,,,,,,,
1739354991.762425,0.36537074443359346,1.1869685598950297,0.2984854682616603,-1.158883467336384,-1.3939720182844144,1.0520725422560082,0.09137759244751922,0.00036089875853469183,-0.0009756502917358356,-0.0013451563598618358,1.5700698341552773e-05,-0.0004631145981066334,-0.00044850227133793686,0.0015410139008161879,0.6656377911567688,-52.67392349243164,5.386153221130371,18.12110137939453,-1.2122701406478882,-1.3089706897735596,-0.03382720425724983,,,,,,,,,
1739354991.7734842,0.36536873090981115,1.1869734901615925,0.29848785167060493,-1.1588850289341595,-1.3939727672233388,1.0520733005620977,0.09137897714109519,0.0004570009674597086,0.0012705315419221073,-7.003623508732262e-05,0.0003581122635545389,-0.0013845267241884408,4.144312542094623e-05,0.0016763553244200594,0.6656377911567688,-52.67392349243164,5.362349510192871,18.14490509033203,-1.2058614492416382,-1.3153793811798096,-0.027418512850999832,,,,,,,,,
1739354991.7845025,0.365370440452959,1.186969415028714,0.298489933959972,-1.1588868913408181,-1.393972009634893,1.0520731826630332,0.09137414522458726,-8.011184110760808e-05,0.0006507753173621158,0.000538253588802906,-0.0009457971719867033,8.214119660429964e-05,6.656819913372254e-05,0.000581504268665391,0.6418340802192688,-52.64615249633789,5.334578514099121,18.16870880126953,-1.2122701406478882,-1.3153793811798096,-0.013685601763427258,,,,,,,,,
1739354991.795429,0.36536949571797106,1.1869703913135972,0.2984860658992783,-1.1588878940037666,-1.3939727279773348,1.0520740721271522,0.09137182234359516,7.591001191075645e-05,-0.00013994201427908355,0.00011473694286892366,0.00026366610055679257,-0.0009081154663378798,0.0004401847703231729,-0.0014362146887445062,0.6418340802192688,-52.67392349243164,5.362349510192871,18.19647979736328,-1.2058614492416382,-1.3217880725860596,0.0064559997990727425,,,,,,,,,
1739354991.8065042,0.3653687240279762,1.1869748234299111,0.2984872117098992,-1.1588849379939565,-1.393972767384032,1.0520733005623442,0.09136867081074071,0.0005311152454046161,0.00029459471200509,-0.00037139960539517633,-0.00048247195282923733,0.0004574374388514412,3.175001676330194e-05,-0.002087116941012907,0.6656377911567688,-52.72153091430664,5.362349510192871,18.14490509033203,-1.2058614492416382,-1.3153793811798096,0.03300629183650017,,,,,,,,,
1739354991.8184385,0.3653687250160298,1.1869706384255525,0.2984860596949611,-1.1588852585183775,-1.3939727555947894,1.0520725429020306,0.09136969111731982,0.00027422510717500575,3.5359684502373184e-05,0.00027183833010231733,0.0004252936264491355,3.2237492053888096e-05,-0.0006645378529342809,-0.0011063338145365022,0.6656377911567688,-52.69772720336914,5.362349510192871,18.14490509033203,-1.2058614492416382,-1.3089706897735596,0.03300629183650017,,,,,,,,,
1739354991.8284829,0.36536978989160984,1.1869737458542795,0.2984874861793385,-1.1588850962552177,-1.3939717071004794,1.052073300782833,0.0913733925766023,4.268369190651121e-05,0.0010164724200718992,0.00019017231190573391,-0.0008027789428304117,0.0007557111569909677,0.0003342812138145308,-0.00021097388849407078,0.6180303692817688,-52.69772720336914,5.362349510192871,18.14490509033203,-1.2058614492416382,-1.3153793811798096,-0.0072769103571772575,,,,,,,,,
1739354991.8394217,0.36536872788288033,1.1869730991563614,0.2984860968713508,-1.1588877871391945,-1.3939727673787123,1.0520748158822666,0.09136786885200104,-4.261823733450008e-05,0.00046110422525082596,0.00025790646704409797,-0.0004926583404385981,-0.00032812654316650134,0.00025873428114547,-0.002603592575252574,0.6656377911567688,-52.69772720336914,5.386153221130371,18.14490509033203,-1.2058614492416382,-1.3281967639923096,0.03941498324275017,,,,,,,,,
1739354991.8504033,0.3653687278962197,1.1869731374174208,0.2984898447329854,-1.1588850204426207,-1.393972172306906,1.0520740587188167,0.09137418457626312,0.00010510055346523123,0.00043181703520348095,0.0010186543853414089,0.0010095145068298584,-0.0005823298223180965,0.00021872317132956538,-0.0004905750048753164,0.6656377911567688,-52.69772720336914,5.310774803161621,18.14490509033203,-1.2122701406478882,-1.3217880725860596,-0.013685601763427258,,,,,,,,,
1739354991.8604898,0.36537415102355336,1.1869720738549219,0.2984893215242451,-1.158889796359667,-1.3939728457176603,1.0520725370878379,0.0913773388003876,0.0023709699676277584,4.126445542772226e-05,0.0003397873720027431,-0.0015735025755847366,-0.0004396660678839125,-0.0008017830570150972,0.0007031381237660453,0.5902593731880188,-52.69772720336914,5.334578514099121,18.16870880126953,-1.2058614492416382,-1.3089706897735596,-0.013685601763427258,,,,,,,,,
1739354991.8714783,0.36536871922000613,1.1869683936575177,0.2984909967305383,-1.1588898741657276,-1.3939712519034775,1.0520765589493235,0.09136985610400283,0.00044952187280160235,-0.0022323433186168195,0.0006970250385153112,-0.00064431014933573,1.2523163206451082e-05,0.0009712750949989728,-0.0027980360401094603,0.6656377911567688,-52.64615249633789,5.310774803161621,18.16870880126953,-1.2186788320541382,-1.3153793811798096,0.026597600430250168,,,,,,,,,
1739354991.8824506,0.36537215297353715,1.1869709903247307,0.29848574315873627,-1.1588870981110553,-1.3939738268613204,1.0520725429572115,0.09137308912301212,0.0009460031291495894,0.00035263357494024654,0.00010852363992442594,0.00028625640440576336,-0.0012074915377733844,-0.00024813081812683955,0.000669803925686528,0.6180303692817688,-52.69772720336914,5.362349510192871,18.14490509033203,-1.2058614492416382,-1.3089706897735596,0.026597600430250168,,,,,,,,,
1739354991.8924704,0.365365779633002,1.1869747425452233,0.29848720479346996,-1.1588853045109717,-1.3939742811496143,1.052073302051998,0.09137599517435942,-0.00040946808249932114,0.0005426232121613257,-0.00023847494292477512,0.0005947389458655958,-0.0005896578459519566,-0.0003489335815422002,0.0005402758116266813,0.6656377911567688,-52.72153091430664,5.334578514099121,18.12110137939453,-1.1930440664291382,-1.3153793811798096,-0.0008682189509272575,,,,,,,,,
1739354991.9033988,0.36537012242811634,1.1869731374170307,0.2984901613697266,-1.1588840060302494,-1.3939721796284839,1.052073300562117,0.09137426367124575,0.0014288127775948104,0.0005581317709686551,0.0005010257398626674,0.0001692135056422977,0.0005632640312897663,-0.0007175083037292903,0.001183603608676556,0.6418340802192688,-52.69772720336914,5.334578514099121,18.12110137939453,-1.2122701406478882,-1.3153793811798096,-0.013685601763427258,,,,,,,,,
1739354991.9134707,0.36536864627365145,1.1869733670058984,0.29848787946130645,-1.1588841939083463,-1.3939720095659929,1.052074062691854,0.09137386529602713,-1.5733647326758406e-05,0.0012186484709331238,0.0005764987605113548,-2.671159719085613e-05,0.0006721063578828196,-5.64793902993444e-05,0.0005978417051665973,0.6656377911567688,-52.69772720336914,5.334578514099121,18.12110137939453,-1.2122701406478882,-1.3217880725860596,-0.0008682189509272575,,,,,,,,,
1739354991.9254866,0.36537043915641015,1.1869730977370112,0.29848616519416965,-1.1588917527000522,-1.3939716443616008,1.0520733020520228,0.09136862554544906,0.0007484396773014294,-0.00027785137873736354,-0.0009727818324504848,-0.0018159195053490686,0.00036900666121517285,4.130305845172206e-05,-0.0011563738011741327,0.6418340802192688,-52.69772720336914,5.386153221130371,18.19647979736328,-1.2186788320541382,-1.3153793811798096,0.03300629183650017,,,,,,,,,
1739354991.9364545,0.36536799658176244,1.1869714160665135,0.29848995772166187,-1.1588874613062754,-1.3939727846665326,1.0520725429020332,0.0913818168946525,-0.0004620207058957406,0.0004287594874296367,0.0008644361155577409,0.0008019767162582506,-5.528568297077089e-05,-0.00036453818319145124,0.004690745272978726,0.6418340802192688,-52.67392349243164,5.334578514099121,18.12110137939453,-1.2058614492416382,-1.3089706897735596,-0.04756011441349983,,,,,,,,,
1739354991.9466057,0.3653682794103403,1.1869709887068363,0.29848818704251895,-1.1588863372105487,-1.3939744308177178,1.0520725429020306,0.09137687929146493,0.0009411717300072382,-0.0006171726929554767,0.0007259547091558762,-0.0014011943298665227,0.0008289658020317001,-0.0010569134317203602,0.0029130732730915454,0.6418340802192688,-52.69772720336914,5.362349510192871,18.12110137939453,-1.2186788320541382,-1.3089706897735596,-0.027418512850999832,,,,,,,,,
1739354991.9574637,0.3653670139592005,1.1869699586159657,0.2984902668377082,-1.1588899164771185,-1.3939709688390818,1.0520733050317757,0.09137223006006838,-0.0004774803548116996,-3.4544568378271274e-06,0.0011137996754231128,-0.0015360383002047118,0.00056947931957782,-0.0004540185095883687,-3.548757620580611e-05,0.6894415020942688,-52.67392349243164,5.334578514099121,18.19647979736328,-1.2122701406478882,-1.3153793811798096,0.012864691205322742,,,,,,,,,
1739354991.9675107,0.3653645473467416,1.1869734911664263,0.2984873331553173,-1.1588863371565263,-1.393974282525723,1.0520733139711853,0.09137525915610485,-0.0006664901574113367,-5.425923091092154e-06,-0.0010781031492682787,-0.0007396409914255772,0.0001340513249425401,0.0001979466701118966,-0.0001623293559677672,0.6894415020942688,-52.67392349243164,5.334578514099121,18.12110137939453,-1.1930440664291382,-1.3153793811798096,-0.020094294100999832,,,,,,,,,
1739354991.9784572,0.3653689991234802,1.1869694238372004,0.298487404927414,-1.1588824116907197,-1.3939738268613204,1.052074386691267,0.09137719256053445,0.0009720740150169101,-0.0011600627386858962,-0.0007811985514810228,0.0012872875857101779,-0.0005983207867239235,0.000287177113126945,0.000548935468185447,0.6180303692817688,-52.64615249633789,5.334578514099121,18.09729766845703,-1.2058614492416382,-1.3153793811798096,-0.027418512850999832,,,,,,,,,
1739354991.9894412,0.3653684796786555,1.1869748499383506,0.29848535991617203,-1.158883494218174,-1.3939735268273181,1.0520733184469078,0.0913740359255391,-0.0013717920459222752,-0.0001714090282938668,-0.0003511275250037187,0.0017046497242952713,0.0009445119569683112,-6.071007888485485e-05,-0.0003160667640697421,0.6656377911567688,-52.72153091430664,5.362349510192871,18.12110137939453,-1.1994527578353882,-1.3153793811798096,0.026597600430250168,,,,,,,,,
1739354991.999481,0.3653674998540182,1.1869728989990578,0.29848818408369093,-1.15888811940047,-1.3939713087530325,1.0520725831293365,0.09137744376925147,-0.0012749360487615245,0.001351204879695359,-0.0015275432555447443,-0.0006697630624393866,0.0012119153075625137,-0.0004466790960452465,0.00040249715757036597,0.6418340802192688,-52.69772720336914,5.362349510192871,18.14490509033203,-1.2186788320541382,-1.3089706897735596,-0.04023589566349983,,,,,,,,,
1739354992.010485,0.3653672867080884,1.1869692524920397,0.2984899197274666,-1.158884270897157,-1.393974977464803,1.0520725429022575,0.09136862526893884,-0.00038018220466037655,0.00044466788585446264,0.001800712341026623,0.00043182092690499386,-0.0016281836839185163,0.00023206771588382273,-0.0014498941174588813,0.6418340802192688,-52.67392349243164,5.310774803161621,18.12110137939453,-1.1994527578353882,-1.3089706897735596,0.03300629183650017,,,,,,,,,
1739354992.0214424,0.3653730879652374,1.1869694181134718,0.2984871260942455,-1.158886333085681,-1.393972504553032,1.0520725473716974,0.09137580813367696,0.0023998631129203314,-0.00109075366562245,-0.0009246640487685962,0.0002479218835651396,-0.0005706978505450807,-0.00033130334139832966,-0.0009736459508909374,0.5902593731880188,-52.64615249633789,5.334578514099121,18.12110137939453,-1.1994527578353882,-1.3089706897735596,-0.027418512850999832,,,,,,,,,
1739354992.0334916,0.36536967277018895,1.1869679410800937,0.29848819534665116,-1.1588860990999583,-1.3939727678634537,1.0520774775174724,0.09137810976566739,-8.754071847020184e-05,-0.0006755969300683983,0.0005821679446842093,0.0002738429192596165,-0.0001542256383901469,0.0020059117128991884,0.0007507811071703775,0.6180303692817688,-52.62234878540039,5.362349510192871,18.12110137939453,-1.2058614492416382,-1.3217880725860596,-0.020094294100999832,,,,,,,,,
1739354992.0444338,0.3653684526780767,1.1869685638259313,0.29848524424502987,-1.158883480046043,-1.3939727672231923,1.0520740583941643,0.09137602300486151,0.000717628531689627,-0.001088359485600635,-0.0009864027863017379,0.0009118531943093438,0.0008036472461839209,0.0005275724672785238,0.0005769436882517991,0.6656377911567688,-52.67392349243164,5.362349510192871,18.12110137939453,-1.2058614492416382,-1.3217880725860596,0.0064559997990727425,,,,,,,,,
1739354992.0544708,0.3653667661270001,1.186971211612632,0.2984889756976042,-1.1588847163552654,-1.3939762486001468,1.0520748337609362,0.0913688010165168,0.0014260802167776886,-4.648567190672633e-05,0.0005275666729879516,0.0005036652128906448,-0.0010256474092204832,0.0003423794163616466,-0.00037592262466853846,0.6894415020942688,-52.67392349243164,5.310774803161621,18.09729766845703,-1.2122701406478882,-1.3281967639923096,0.03300629183650017,,,,,,,,,
1739354992.0654016,0.3653665626813193,1.1869727041699523,0.2984871720540487,-1.1588898773637053,-1.393972048832899,1.0520725429021314,0.09137492184643152,0.0011241457495445133,-0.0007532014147714719,-0.0010076335010026456,-0.0010889747685275935,0.00015671521672363603,-0.0004155463509866615,0.0015534835892165814,0.6656377911567688,-52.72153091430664,5.362349510192871,18.16870880126953,-1.2122701406478882,-1.3089706897735596,-0.020094294100999832,,,,,,,,,
1739354992.075472,0.3653690428795238,1.1869749176011322,0.2984872116206252,-1.1588881198681042,-1.393972009563778,1.0520725488615865,0.09138119823019472,0.0013829055947469984,0.0024762631623961124,-0.0007334390200809596,-0.000603397109322702,0.0010668978754644555,-0.0010640272025278313,0.002973576736013468,0.6180303692817688,-52.72153091430664,5.362349510192871,18.14490509033203,-1.2122701406478882,-1.3089706897735596,-0.03382720425724983,,,,,,,,,
1739354992.0855062,0.3653689641265229,1.186973137091734,0.2984892392438382,-1.158889073542847,-1.3939742956253,1.0520755737079879,0.0913764466525001,0.0005438616863442307,-0.0005049880148121212,-0.0010836508797914027,-0.001286499785202743,0.0006717354325663574,0.0004930998389738573,0.001883603377469687,0.6180303692817688,-52.69772720336914,5.334578514099121,18.14490509033203,-1.1930440664291382,-1.3346054553985596,-0.020094294100999832,,,,,,,,,
1739354992.0964463,0.3653679703180971,1.1869714261203086,0.29848955384263176,-1.158886053579562,-1.393973995833623,1.0520733005621097,0.0913781781372625,-7.41126980389557e-05,-5.494808226837113e-05,-0.00017554471548594894,0.00029581281567355545,-0.00037106502949873127,-0.00033850390385644464,0.0029969379964486396,0.6418340802192688,-52.67392349243164,5.334578514099121,18.14490509033203,-1.1994527578353882,-1.3153793811798096,-0.0072769103571772575,,,,,,,,,
1739354992.1074686,0.365369200340246,1.1869714248969125,0.29848747452258184,-1.1588902666415635,-1.3939720095657713,1.0520727038100426,0.09137430500217734,0.000439821572835496,-0.0007288978035731424,-0.0005894656875685572,-0.00106768507246882,0.0008829292385840204,1.7811231319916248e-06,0.0001724190023042341,0.6180303692817688,-52.67392349243164,5.362349510192871,18.14490509033203,-1.2122701406478882,-1.3089706897735596,-0.013685601763427258,,,,,,,,,
1739354992.1184328,0.36536554200124544,1.1869713457389819,0.29848535737214305,-1.158888119880649,-1.3939720100476296,1.052073305032684,0.0913733938155003,-0.0002538230641619001,0.00014763188999408197,-0.0003092754961806088,0.0007537313382898319,0.0014319572552989222,-0.000633761285455903,-0.0008882531356559981,0.6656377911567688,-52.67392349243164,5.362349510192871,18.14490509033203,-1.2122701406478882,-1.3153793811798096,-0.0072769103571772575,,,,,,,,,
1739354992.1294,0.36536624804079576,1.186972422160559,0.29848952791476924,-1.158886337191512,-1.3939735253677945,1.052072542902106,0.09137594540797661,-0.0006329280877819673,0.0005645600308036733,0.00018104893938155717,0.0011479293485787438,0.00018716016772253916,-0.0008239825640300974,0.001310640400422571,0.6656377911567688,-52.69772720336914,5.334578514099121,18.12110137939453,-1.1994527578353882,-1.3089706897735596,-0.027418512850999832,,,,,,,,,
1739354992.139488,0.3653674878194597,1.1869733925116674,0.29849204659437084,-1.1588892237606065,-1.3939736600634451,1.0520733005621088,0.0913741866866667,-6.275342035604143e-05,0.00126139607114971,0.001387336250359709,-0.0012088318644133795,-5.1174000186298346e-05,-0.0002757949329624514,-0.00201486362330589,0.6418340802192688,-52.69772720336914,5.310774803161621,18.12110137939453,-1.1994527578353882,-1.3153793811798096,-0.013685601763427258,,,,,,,,,
1739354992.1494997,0.3653677790499674,1.1869715014392863,0.29848712221747786,-1.1588901411107817,-1.393973879680514,1.0520740582221872,0.0913707792099419,0.0004996415237810132,0.00020756729817079865,-0.0007920607303884836,-0.0017394454921731825,-0.0008713860122684606,-0.0003945941570759695,-0.0025239168525704736,0.6656377911567688,-52.67392349243164,5.334578514099121,18.16870880126953,-1.2058614492416382,-1.3217880725860596,0.019273381680250168,,,,,,,,,
1739354992.1604269,0.365366413219637,1.1869734908280145,0.29849018772280045,-1.1588881198689795,-1.393973459475602,1.0520733005621088,0.0913791730363679,-0.0007128152531093951,-0.00024375438246893516,0.00030153082063281045,-0.0003910173289779886,0.0005636310242921961,-0.0011277362579239583,-5.0650613943826073e-05,0.6656377911567688,-52.67392349243164,5.334578514099121,18.14490509033203,-1.1994527578353882,-1.3153793811798096,-0.027418512850999832,,,,,,,,,
1739354992.1705015,0.365365524301925,1.186972207629956,0.29849026294504677,-1.15888990254555,-1.3939724034719065,1.0520733010587382,0.09137507822323128,-0.0007611477797902916,0.0009901648775211857,0.000715512186370918,-0.0010503243746584699,0.0013549313136578234,0.0003499696094341166,-0.0011879712128197134,0.6656377911567688,-52.64615249633789,5.334578514099121,18.16870880126953,-1.2122701406478882,-1.3153793811798096,-0.020094294100999832,,,,,,,,,
1739354992.1814797,0.36536522119226017,1.1869752037172214,0.2984913220885605,-1.1588881200138856,-1.3939732383357175,1.0520725429756062,0.09137817360355277,-0.0011647316721733153,0.0005518915686188947,0.00022260908197321828,-0.00015073515235876424,0.0003296066016798881,-6.799446061978243e-05,0.001796306384261356,0.6656377911567688,-52.69772720336914,5.310774803161621,18.14490509033203,-1.2058614492416382,-1.3089706897735596,-0.0072769103571772575,,,,,,,,,
1739354992.1924613,0.3653655390783433,1.18697313745263,0.29849027546583906,-1.15888991137587,-1.3939742825513262,1.0520725450540935,0.09137343154058378,0.00027075477540505234,5.519966091353183e-05,0.0006509138529438394,-0.00041670676359285315,-0.00020882696602075315,-0.0003631336233181516,-0.0006519803867472952,0.6656377911567688,-52.69772720336914,5.334578514099121,18.16870880126953,-1.1930440664291382,-1.3089706897735596,-0.0072769103571772575,,,,,,,,,
1739354992.2034025,0.3653665363487207,1.1869722594894172,0.2984850459924412,-1.158890265962808,-1.3939735248832696,1.052074062691858,0.09137148550274232,-0.00011907121848598852,4.6969039631693764e-05,-0.0012289293126431617,-0.00041621874800720483,5.3588646616338574e-05,-0.0004655306668998525,-0.0002654871381901919,0.6418340802192688,-52.64615249633789,5.362349510192871,18.14490509033203,-1.1994527578353882,-1.3217880725860596,0.012864691205322742,,,,,,,,,
1739354992.213472,0.3653689641130763,1.1869732141000051,0.29848736215596816,-1.1588852702426393,-1.3939735253677863,1.0520731872942815,0.0913734155397326,0.0009364112084182793,0.0007335220754343882,9.682982998379414e-05,0.0007983271779743509,-0.00026541507746798306,-0.0006183312573379619,0.0001886681688538592,0.6180303692817688,-52.69772720336914,5.334578514099121,18.09729766845703,-1.1994527578353882,-1.3153793811798096,0.03300629183650017,,,,,,,,,
1739354992.2253075,0.3653717996292468,1.1869716544856,0.29849003889083736,-1.1588845535737253,-1.3939735250447778,1.052072542901391,0.0913699148520928,0.00033408837187294473,-0.0002258865531145726,0.00010117775912134374,0.001215961541478198,0.0007198845817285118,-0.0004295322040802126,-0.001120802935469696,0.6180303692817688,-52.67392349243164,5.334578514099121,18.09729766845703,-1.1994527578353882,-1.3089706897735596,0.026597600430250168,,,,,,,,,
1739354992.2355025,0.3653656141998294,1.1869731373825942,0.29848717189010227,-1.158884633987347,-1.3939720101014659,1.0520718877112696,0.09137042537010441,-0.0006369811579259142,0.00032423559393118773,0.00031131735837568446,0.0011416334741218292,0.001288243923027845,-0.0016160565064140555,-0.0015282800357759249,0.6656377911567688,-52.69772720336914,5.362349510192871,18.09729766845703,-1.2122701406478882,-1.3153793811798096,0.019273381680250168,,,,,,,,,
1739354992.2474208,0.36536382361998043,1.1869711070054667,0.29848994763570824,-1.1588867031206138,-1.393974295625303,1.0520740582142114,0.09137969344981205,-0.0006941454812184015,-0.0005579456125927691,0.0002552551457657649,0.0007552221192057491,-0.0003886340260983579,-0.00023893459421308363,0.0018319026399909923,0.6894415020942688,-52.67392349243164,5.334578514099121,18.09729766845703,-1.1930440664291382,-1.3217880725860596,-0.020094294100999832,,,,,,,,,
1739354992.2574635,0.36536725160444133,1.1869696565425196,0.29848535247805247,-1.158882258644008,-1.3939738796034387,1.052074058222187,0.09137152104719179,0.0003677449696492861,-0.0017142693568699843,-0.0008925893777369616,0.0015208726345488587,-0.00042627639264684533,-0.0005928467787365976,-0.0010727741280802245,0.6418340802192688,-52.64615249633789,5.362349510192871,18.09729766845703,-1.1994527578353882,-1.3217880725860596,0.012864691205322742,,,,,,,,,
1739354992.268401,0.365365574077949,1.1869747666821904,0.2984880667219981,-1.158884554828581,-1.3939738288013899,1.0520733005621086,0.09137356051532299,0.000619863707766503,0.00025866834029578904,0.0007891870060787214,0.0018589649514510601,0.0010721521960670752,-0.0004516780921194625,-0.001556017052113782,0.6656377911567688,-52.72153091430664,5.334578514099121,18.09729766845703,-1.2058614492416382,-1.3153793811798096,-0.0072769103571772575,,,,,,,,,
1739354992.2784717,0.36536553908431946,1.1869732136185986,0.2984872119245756,-1.158889902545555,-1.3939720100656074,1.052074058222187,0.09137538784997241,-0.00018361465239654496,0.0007612929896731209,-0.00017084673374522018,-0.0007033118387275604,0.0008710161024453889,-0.00040695175702211244,-0.0002793049480589665,0.6656377911567688,-52.69772720336914,5.362349510192871,18.16870880126953,-1.2122701406478882,-1.3217880725860596,0.012864691205322742,,,,,,,,,
1739354992.28849,0.36536748781545764,1.1869714277352001,0.29848795661928684,-1.1588867002817047,-1.3939739852983228,1.0520765589493564,0.09138131706646971,8.243906698617977e-05,-2.266489385677115e-05,0.0014487698169144982,0.00045767684270445414,-0.00025649495731681893,0.0002903281650228804,0.0008514662332828705,0.6418340802192688,-52.67392349243164,5.362349510192871,18.09729766845703,-1.2058614492416382,-1.3153793811798096,-0.03382720425724983,,,,,,,,,
1739354992.2994223,0.3653672782825965,1.18697313836245,0.2984853220575219,-1.1588863371955493,-1.3939743015135733,1.0520737832922766,0.09137213786329876,0.00016566873696398265,-0.0006046557261796599,-0.00018554786904874908,0.0006697690199778707,-0.0006327085046730857,0.0003742343776920792,-0.0018330412108670433,0.6418340802192688,-52.69772720336914,5.362349510192871,18.12110137939453,-1.1930440664291382,-1.3153793811798096,0.0064559997990727425,,,,,,,,,
1739354992.3094287,0.36536896412564096,1.1869714360125434,0.29848709948796337,-1.1588899028725985,-1.3939727688385681,1.0520795626768014,0.09137575732540675,0.0009694369491347651,-0.00030377188697452485,0.00010160282535429859,-7.919074440628968e-05,0.001072868207536442,0.001557504322939652,0.0004269932312301419,0.6180303692817688,-52.67392349243164,5.334578514099121,18.16870880126953,-1.2058614492416382,-1.3281967639923096,0.012864691205322742,,,,,,,,,
1739354992.3204212,0.3653655263288234,1.186971420972383,0.2984911463330952,-1.1588863371915137,-1.3939767037976667,1.0520763847621803,0.0913811989600826,-0.0006268586758040087,-0.00025569081935034813,-0.0003275427914777138,-0.00035937655903995583,0.000494270889228048,0.002417668333970946,0.0014769962823491794,0.6656377911567688,-52.67392349243164,5.283003807067871,18.12110137939453,-1.1994527578353882,-1.3281967639923096,-0.03382720425724983,,,,,,,,,
1739354992.3313909,0.36536725160438593,1.186973137417615,0.29848712598142235,-1.15888990254555,-1.3939739977895613,1.052075144360126,0.0913733762364313,-4.9958029350825845e-05,9.780900281319813e-05,-0.0015257625482996181,-0.0013152666862161957,-0.0006561325778037113,-0.00036272662759091105,-0.0007546651869656318,0.6418340802192688,-52.69772720336914,5.334578514099121,18.16870880126953,-1.1994527578353882,-1.3217880725860596,0.03300629183650017,,,,,,,,,
1739354992.3414779,0.36536759279812414,1.1869752122152581,0.29848532492081825,-1.158886337191512,-1.3939720115091887,1.0520733005805025,0.09137817626185749,0.0008020878137006281,0.0005275835168629831,-0.0010300091551889705,0.0004189701320323954,0.0009183239368554205,-0.0011457959036304231,0.0007291507257115373,0.6418340802192688,-52.69772720336914,5.362349510192871,18.12110137939453,-1.2122701406478882,-1.3153793811798096,-0.0072769103571772575,,,,,,,,,
1739354992.3524704,0.36536725161023614,1.1869714532762723,0.298489555131948,-1.158886337191512,-1.393972335518801,1.0520781144965166,0.09137917899508015,-0.0001715638076375853,0.0004548238482728475,-0.0001148280519821435,0.001453562503022344,0.0012143749005499055,0.0008737887411902801,0.0004207786982227267,0.6418340802192688,-52.67392349243164,5.334578514099121,18.12110137939453,-1.2058614492416382,-1.3281967639923096,-0.020094294100999832,,,,,,,,,
1739354992.3625348,0.365367251604458,1.1869695280142938,0.29848808688547485,-1.1588865765912373,-1.393973830192169,1.0520742206387093,0.09137953510461651,0.0007840089362171115,-0.0018430866467878488,-0.0005774950033180975,-1.2757970314840805e-05,0.001155581512550639,0.0013155008977831766,0.0002964837346919247,0.6418340802192688,-52.64615249633789,5.362349510192871,18.12110137939453,-1.2250875234603882,-1.3217880725860596,-0.020094294100999832,,,,,,,,,
1739354992.3725574,0.36536382656299565,1.1869731459226174,0.2984896835146887,-1.158889902549604,-1.3939743377599736,1.05207331397386,0.09137742054691747,-0.00022323750345228495,5.816000710388771e-05,0.00046919935753629235,-0.000765269860871138,-0.0007096574682269286,-8.961040363801695e-05,0.00027889992517795686,0.6894415020942688,-52.69772720336914,5.310774803161621,18.16870880126953,-1.2058614492416382,-1.3153793811798096,-0.0008682189509272575,,,,,,,,,
1739354992.383469,0.3653689699303055,1.1869677172698885,0.29848958972636325,-1.1588881237931163,-1.3939743377300762,1.0520733139713367,0.09137235116982759,0.0011022933536513927,-0.0010252560866772411,-0.00017228509100718496,0.00022386979147117714,-0.0007566212913471391,-0.0007130915439437564,-0.0020907664865479417,0.6180303692817688,-52.62234878540039,5.310774803161621,18.14490509033203,-1.2058614492416382,-1.3153793811798096,0.03300629183650017,,,,,,,,,
1739354992.3944085,0.3653655389262698,1.186971424943568,0.2984850187700681,-1.158888199450414,-1.3939735655856316,1.0520740583877557,0.0913796745432134,-0.0005748535644788283,-0.00038505460509240166,-0.002675339879577552,3.579359427872395e-05,-0.0012487153437477777,0.00018392811736297698,0.0008631039429487995,0.6656377911567688,-52.67392349243164,5.362349510192871,18.14490509033203,-1.1994527578353882,-1.3217880725860596,-0.020094294100999832,,,,,,,,,
1739354992.4053993,0.36536724277413934,1.186971433400175,0.29848722422082813,-1.1588882297573786,-1.3939750795033479,1.0520749504689062,0.09137739794434506,-0.00027603023369768536,-0.0003899924592375997,-0.0006610674330567765,-0.00037829882492213874,0.0001080650269445131,0.0005624888821734329,-0.0004722294486415603,0.6418340802192688,-52.67392349243164,5.362349510192871,18.14490509033203,-1.1866353750228882,-1.3281967639923096,-0.013685601763427258,,,,,,,,,
1739354992.4154258,0.36536896401602337,1.1869753057513606,0.2984901614066099,-1.1588863326146894,-1.3939766144109578,1.0520740984514694,0.09137891685898329,0.000424592785604795,0.001315203135383682,0.0008576786024105968,0.0005432745672472284,0.0006444812305172115,-0.0003671549543707317,0.00010981587741042644,0.6180303692817688,-52.69772720336914,5.334578514099121,18.12110137939453,-1.2122701406478882,-1.3217880725860596,-0.013685601763427258,,,,,,,,,
1739354992.4254541,0.3653689641251873,1.1869714507583693,0.2984851124147258,-1.158884633987275,-1.393972664831857,1.0520733066878891,0.09137817820935681,0.0013667107477127439,-0.00013411722067374463,-0.0009725204951700652,0.0012795132796649584,0.0005851354301682257,-0.0008271585270162727,0.0018256341332437232,0.6180303692817688,-52.67392349243164,5.362349510192871,18.09729766845703,-1.2186788320541382,-1.3153793811798096,-0.0072769103571772575,,,,,,,,,
1739354992.4354758,0.3653689641251892,1.1869714362359116,0.2984851245727893,-1.158889982349496,-1.393972029015567,1.052078523419838,0.09137413400526744,0.0009019531842460046,-0.0008929716768120595,-0.0004967812383263998,-0.0008082632708984209,0.0018532848343411129,0.00048080605681632505,-0.0016345657201405637,0.6180303692817688,-52.67392349243164,5.362349510192871,18.16870880126953,-1.2122701406478882,-1.3217880725860596,0.026597600430250168,,,,,,,,,
1739354992.4454794,0.36536724277414023,1.1869694307703402,0.29848714195620146,-1.15889374353667,-1.393972786657806,1.0520765654307482,0.09137588278633561,0.0001785635262107686,-0.0006910481210215328,1.56029212974812e-05,-0.002078082362588684,0.0010843986885773064,-0.0006630262629355974,-0.00012973283478585017,0.6418340802192688,-52.64615249633789,5.362349510192871,18.22028350830078,-1.2058614492416382,-1.3153793811798096,-0.0008682189509272575,,,,,,,,,
1739354992.4564674,0.3653689611817001,1.18696840323512,0.29848922361738034,-1.1588884917889202,-1.3939712519569794,1.0520773210975323,0.09137580137151377,0.0011606813145471993,-0.001036336421262923,0.0010763603806562914,0.00011325339234213787,0.0006135473485187472,0.0002205697464945821,0.00046917564140156343,0.6180303692817688,-52.62234878540039,5.310774803161621,18.12110137939453,-1.2186788320541382,-1.3217880725860596,0.012864691205322742,,,,,,,,,
1739354992.4674582,0.36536714607265586,1.1869682331389138,0.2984913403977463,-1.158885508200972,-1.3939741981626559,1.0520751443696887,0.09137969352997027,-0.00039938096929235234,-0.0016192231482265334,0.0017136103574418556,0.0014527979705934021,0.00014400465932215995,4.9171392816355867e-05,0.0015524569931133526,0.6418340802192688,-52.59457778930664,5.310774803161621,18.09729766845703,-1.2058614492416382,-1.3217880725860596,-0.020094294100999832,,,,,,,,,
1739354992.4774578,0.36536499987164595,1.186969781717101,0.29848981430068167,-1.1588863381888088,-1.3939735438036558,1.052074058240581,0.09137893522070654,-0.0001541024337337382,-0.0016574464461811015,0.0004917430916502489,0.001338955448697986,-0.0004879731377881122,7.339335311546687e-05,0.000925380643700831,0.6418340802192688,-52.62234878540039,5.310774803161621,18.12110137939453,-1.1994527578353882,-1.3217880725860596,-0.013685601763427258,,,,,,,,,
1739354992.4874728,0.365363111269125,1.1869714249319152,0.2984872009170688,-1.1588867091120392,-1.3939747392560173,1.0520755735423442,0.09137741908922566,-0.0018908999010993598,-0.0003554208450896513,-0.0006802948156833918,0.0006889471719809544,-0.0007884591507870016,-0.00034522624194374967,0.001219328394743126,0.6894415020942688,-52.67392349243164,5.334578514099121,18.09729766845703,-1.2250875234603882,-1.3346054553985596,-0.0008682189509272575,,,,,,,,,
1739354992.4984648,0.3653689641130756,1.1869733670058988,0.29848720090300074,-1.158888358323598,-1.3939770440003048,1.0520734614701208,0.09137639628400636,0.00027960560400284984,0.0006251701825635506,-3.514504865732935e-05,-1.8842984717624397e-05,-0.0014769555062798382,-0.0004803289316163593,9.750934009555997e-06,0.6180303692817688,-52.69772720336914,5.334578514099121,18.14490509033203,-1.1994527578353882,-1.3153793811798096,0.0064559997990727425,,,,,,,,,
1739354992.508469,0.36536704803474596,1.1869697835653927,0.2984870868824713,-1.1588899058173838,-1.3939778157834612,1.0520741789041046,0.09137742054870641,0.000988220431631122,-0.0005016438682253993,-0.0004051375960255716,-0.0007488986763866215,-0.0009816300892355506,-0.0003314691480836031,0.0012987991904619164,0.6418340802192688,-52.62234878540039,5.334578514099121,18.16870880126953,-1.1994527578353882,-1.3217880725860596,-0.0008682189509272575,,,,,,,,,
1739354992.518497,0.3653638265595482,1.1869714250369252,0.2984909982300213,-1.158886738873519,-1.3939734754604498,1.0520725429040743,0.09137422089259613,-0.0009137776497514009,0.0002234810879640207,0.0007637630758124087,0.00040460190934308595,-0.0005332762720115529,-0.0005707011517205236,-0.0003176534988721652,0.6894415020942688,-52.67392349243164,5.310774803161621,18.09729766845703,-1.2122701406478882,-1.3089706897735596,-0.0008682189509272575,,,,,,,,,
1739354992.5294564,0.3653643905815087,1.1869694004651004,0.29848807675783084,-1.1588930815086074,-1.393972902411639,1.0520788854625542,0.09137579643335206,-0.00023668452532386083,0.00013575967466622406,-0.0006759620090592627,-0.0014260333447482657,0.000382340711142626,0.0031871635233345847,0.0006500572981745955,0.6418340802192688,-52.64615249633789,5.362349510192871,18.16870880126953,-1.2058614492416382,-1.3217880725860596,0.012864691205322742,,,,,,,,,
1739354992.5394785,0.3653655389262589,1.1869721820147405,0.2984880778509521,-1.1588866554638355,-1.3939735423281618,1.0520776451601888,0.09137306090660688,-0.00014160232910234157,-0.00013693588091939627,0.0011615208247157862,0.00047318826550831296,0.0018329308009458582,-0.00025927123724307663,0.00043787678756170814,0.6656377911567688,-52.64615249633789,5.362349510192871,18.12110137939453,-1.1994527578353882,-1.3153793811798096,0.03300629183650017,,,,,,,,,
1739354992.551397,0.3653672516044571,1.186971441696926,0.2984930751210246,-1.1588872908676249,-1.3939720095632113,1.0520733010832637,0.0913741734330858,-0.00019477141247436418,0.0005025375277117051,0.001150126771020042,0.00029145702859972216,0.0014692660578219047,0.00017497449038891038,0.00035860619802660144,0.6418340802192688,-52.67392349243164,5.283003807067871,18.12110137939453,-1.2122701406478882,-1.3153793811798096,0.026597600430250168,,,,,,,,,
1739354992.5614762,0.3653643919135933,1.1869714487231118,0.29848393712821036,-1.1588870525616488,-1.393977463449638,1.052074111858194,0.0913788964399355,-0.0009207349609556194,-0.0002451023098514768,-0.0009509105440745708,0.00015247617306179072,-0.000233904431314903,0.00041496538647757504,0.0008622080125779794,0.6418340802192688,-52.67392349243164,5.386153221130371,18.12110137939453,-1.1930440664291382,-1.3217880725860596,-0.013685601763427258,,,,,,,,,
1739354992.5715058,0.36536725155602884,1.1869731285877227,0.2984892127568938,-1.1588870549237407,-1.393973279572769,1.0520741519830612,0.09137417343442131,6.541277868118697e-05,0.00019482553390094394,0.0006235764815850801,0.0004863835753232922,0.00046787143304113417,0.0013288766900202442,-0.0012459031293204365,0.6418340802192688,-52.69772720336914,5.334578514099121,18.09729766845703,-1.2058614492416382,-1.3089706897735596,0.026597600430250168,,,,,,,,,
1739354992.582476,0.3653672516044577,1.1869741799559923,0.2984879465106283,-1.1588889444817,-1.393973700012049,1.052073305040859,0.09137633761401866,0.0007031835584656816,0.00026711525982409936,-0.00034948069715475026,-4.880778222984659e-05,0.0002082504045931493,0.0003468245385429198,-0.00026635432933754585,0.6418340802192688,-52.67392349243164,5.362349510192871,18.14490509033203,-1.1994527578353882,-1.3153793811798096,-0.020094294100999832,,,,,,,,,
1739354992.5938845,0.36536903991874986,1.1869715017568145,0.2984894488644082,-1.1588881551944565,-1.3939734226302813,1.0520737162411655,0.09137405512668001,0.0012109381322761004,8.836899564104349e-05,0.0016047632442060308,0.0010702764633344875,0.0012505235498620967,-0.00022696323887616912,-0.0006699713451491188,0.6180303692817688,-52.67392349243164,5.334578514099121,18.14490509033203,-1.2122701406478882,-1.3153793811798096,0.026597600430250168,,,,,,,,,
1739354992.604476,0.36536727785055245,1.1869714617448384,0.2984852551970596,-1.1588910878366385,-1.3939775159798216,1.0520777657617948,0.0913741340045996,0.00012298483868867987,0.0004921937726059682,-0.0009395048272425139,-0.0010036716811964662,-0.003343017411871557,0.0011902008119171223,-3.833847348997592e-05,0.6418340802192688,-52.67392349243164,5.362349510192871,18.14490509033203,-1.2058614492416382,-1.3153793811798096,0.026597600430250168,,,,,,,,,
1739354992.6154106,0.365365539083875,1.186971493250613,0.29849016655479077,-1.158885512130149,-1.3939721336262074,1.052073314161859,0.09137574189172266,-0.000912520761450986,-0.0007509881835049926,0.0013242207537694942,0.00021253951035087764,0.00014802175835149914,-0.001063467390792844,0.0017259261235574744,0.6656377911567688,-52.64615249633789,5.334578514099121,18.09729766845703,-1.2122701406478882,-1.3153793811798096,-0.013685601763427258,,,,,,,,,
1739354992.6254435,0.36536681443339164,1.1869761224149633,0.2984892166852254,-1.1588920228191721,-1.3939728980448143,1.0520734616358944,0.09137817231413341,0.0004712291430001859,0.0013971916346264728,-0.00032894636140039615,-0.0011577089298758286,0.001199973781920716,0.0005247831990540046,0.0013579589109408837,0.6180303692817688,-52.69772720336914,5.334578514099121,18.16870880126953,-1.2058614492416382,-1.3153793811798096,-0.0072769103571772575,,,,,,,,,
1739354992.6364717,0.36536896411305414,1.1869721392233399,0.2984888999207967,-1.158888442023573,-1.3939720271679599,1.052073305032685,0.09137742249974705,0.00033737363921528766,0.0009109648456164974,0.0005450048980118333,-0.0006379504210270932,0.0017333611668982694,-0.0012610438734088432,0.0003706814674491445,0.6180303692817688,-52.67392349243164,5.310774803161621,18.14490509033203,-1.2122701406478882,-1.3153793811798096,-0.0008682189509272575,,,,,,,,,
1739354992.6474626,0.3653655390837267,1.1869702187089042,0.2984850099003218,-1.1588894526372284,-1.3939730692013417,1.0520740716312134,0.09137265373385209,0.0005542077442624257,-0.0005678890358839964,-0.00010428687156835623,0.0004755281717146373,0.0026088323094495174,-0.00025215860835768004,-0.0011907802043169234,0.6656377911567688,-52.64615249633789,5.362349510192871,18.16870880126953,-1.2122701406478882,-1.3217880725860596,0.03941498324275017,,,,,,,,,
1739354992.6574914,0.3653655390837268,1.186971424937131,0.29848322427109303,-1.1588845574350741,-1.3939717665136566,1.05207330056279,0.09137818259736098,-0.0003876132423914609,-0.0002924548727196109,-0.0015809575127489067,0.0013115940558787956,0.00022073324801954737,-0.0004777467577249848,0.00010748014618331347,0.6656377911567688,-52.67392349243164,5.386153221130371,18.09729766845703,-1.2186788320541382,-1.3153793811798096,-0.0072769103571772575,,,,,,,,,
1739354992.6684332,0.3653672867426893,1.1869701166656446,0.298485041954185,-1.1588867006087589,-1.3939760001352473,1.0520740584429114,0.09137893586976535,0.0006558787038233962,-0.0006434946729115705,-0.0001309131288354462,0.0018047850637354574,0.00025731919752000685,0.0003018572759365079,-0.00018625889525515301,0.6418340802192688,-52.64615249633789,5.362349510192871,18.09729766845703,-1.2058614492416382,-1.3217880725860596,-0.013685601763427258,,,,,,,,,
1739354992.6784804,0.3653674878160527,1.1869734915178742,0.2984889086219192,-1.158891302852865,-1.3939728871150832,1.0520765639156568,0.09137655465236803,-0.0006409163226601876,2.2384285607212815e-05,-0.00018064067168841748,-0.0001987370582291323,0.00118298030683318,0.00030938251482743435,-0.0004186870464183457,0.6418340802192688,-52.67392349243164,5.310774803161621,18.14490509033203,-1.2058614492416382,-1.3153793811798096,0.0064559997990727425,,,,,,,,,
1739354992.6894062,0.36536727882351977,1.186975918033239,0.2984816904419474,-1.1588849110519972,-1.3939770057763852,1.0520778080465727,0.0913741559107239,-0.0006943752052150005,8.75172701969896e-05,-0.0008624845081406484,-0.0005648528819280792,-0.00032921880569391744,0.0003842363224080527,-0.0018849343584864512,0.6418340802192688,-52.69772720336914,5.409956932067871,18.09729766845703,-1.2058614492416382,-1.3153793811798096,0.026597600430250168,,,,,,,,,
1739354992.6994414,0.3653717718396441,1.1869705176826668,0.2984850072761969,-1.1588874548983528,-1.3939736993810794,1.0520776853817766,0.09137341577471392,0.0014327804661284488,-0.0005414615590461801,-0.0009159189109788242,0.00012040394360507832,0.0013565515449484684,0.00032045733701651703,-0.0003088666132685932,0.6180303692817688,-52.69772720336914,5.362349510192871,18.09729766845703,-1.1994527578353882,-1.3153793811798096,0.03300629183650017,,,,,,,,,
1739354992.7104032,0.3653672516203076,1.1869714589301859,0.29848713284696093,-1.1588903720883321,-1.3939789922086354,1.0520741125451165,0.09137642257057882,0.0007288022818841472,1.0712342565892172e-05,-0.0015395152819284222,3.253371141961355e-05,-0.0027293731273626306,-0.0012968390323999787,-0.00021934758854138658,0.6418340802192688,-52.67392349243164,5.362349510192871,18.14490509033203,-1.1930440664291382,-1.3217880725860596,0.0064559997990727425,,,,,,,,,
1739354992.720489,0.3653655525744903,1.186973137523192,0.2984880705002877,-1.1588894671957368,-1.393974587396091,1.052074111859111,0.09137729641644377,0.00043227304824962077,0.001569806560697012,0.0012337693782585703,0.0011190016998094388,0.0007078179561289961,-0.002114507671234344,0.0010386294390885185,0.6656377911567688,-52.69772720336914,5.334578514099121,18.12110137939453,-1.2186788320541382,-1.3217880725860596,-0.0008682189509272575,,,,,,,,,
1739354992.7305293,0.36536725160468647,1.1869731667066763,0.29848603065362755,-1.1588863504354872,-1.393975325167711,1.0520788051749996,0.09137643587401312,-0.0006896354387004973,5.688101891741554e-05,-0.00021230619648656627,0.0016148129787083262,-0.0007035445145608957,0.0024694166200883356,-0.001477678654429018,0.6418340802192688,-52.69772720336914,5.362349510192871,18.12110137939453,-1.2122701406478882,-1.3217880725860596,0.0064559997990727425,,,,,,,,,
1739354992.741444,0.36536554783228237,1.1869734690802838,0.29848322438472874,-1.158893163397249,-1.393972811063756,1.052074427000172,0.09137892272581273,-0.0002212772422402954,0.0021228701580379315,-0.0006806884514730784,-0.0014391486138239065,0.0008125249493230724,0.0004940795554682008,-0.0004327666133873702,0.6656377911567688,-52.69772720336914,5.386153221130371,18.14490509033203,-1.2058614492416382,-1.3153793811798096,-0.013685601763427258,,,,,,,,,
1739354992.7524462,0.3653673551699624,1.186969435461194,0.2984892126728176,-1.1588877731392733,-1.3939759144991786,1.0520751964724926,0.09137416905392357,0.0005499423333555271,-0.0011911081280115466,0.000432126859069589,-0.00022006146531266613,-0.0010931474614626797,0.0004402190596977227,-0.0013279036378235666,0.6418340802192688,-52.64615249633789,5.334578514099121,18.09729766845703,-1.2122701406478882,-1.3281967639923096,0.026597600430250168,,,,,,,,,
1739354992.762462,0.3653638265647495,1.1869762009771272,0.2984892214213731,-1.1588912311383237,-1.3939731379446343,1.0520744001066376,0.0913726566544944,-0.000296665757889172,0.001038180742905209,-0.0004177181472157697,-0.0004930331388679495,-0.0008641757089068484,-0.000599043932111196,-0.00191041898350219,0.6894415020942688,-52.72153091430664,5.334578514099121,18.14490509033203,-1.2058614492416382,-1.3153793811798096,0.03941498324275017,,,,,,,,,
1739354992.7724888,0.36536553810258043,1.1869738347085699,0.2984892131049931,-1.158890376012896,-1.3939770570166456,1.052073676032758,0.09137581015597937,-0.0003259456522051827,0.0003625173176818181,0.0005272706128756981,-0.00021470991071121108,-0.00019857949722944514,-0.0009729644003538914,0.00023530503903030584,0.6656377911567688,-52.69772720336914,5.334578514099121,18.14490509033203,-1.1994527578353882,-1.3153793811798096,0.012864691205322742,,,,,,,,,
1739354992.7833865,0.3653637467630816,1.1869701950886165,0.29848512375138186,-1.1588856270656165,-1.393973831726427,1.0520734257149045,0.09137731303860759,-0.0016911999052498282,-0.0004785568211065355,-0.0004210870040101599,0.00021638509564521206,-0.0007076206398557813,-0.001116158422142584,0.00045431292531782877,0.6894415020942688,-52.64615249633789,5.362349510192871,18.09729766845703,-1.2058614492416382,-1.3153793811798096,-0.027418512850999832,,,,,,,,,
1739354992.7934306,0.3653689611803985,1.1869738602085051,0.2984887476456429,-1.1588903022833725,-1.3939763013063833,1.0520766796324852,0.09137888307942113,0.0008813040494882025,0.0006303424581442505,0.000175487287868485,-0.0008850373262185521,0.0004626578079851539,-0.0010243530127581947,0.00029193668333400127,0.6180303692817688,-52.69772720336914,5.310774803161621,18.14490509033203,-1.2058614492416382,-1.3153793811798096,-0.013685601763427258,,,,,,,,,
1739354992.8034794,0.3653664568758111,1.1869733711123054,0.2984878744297749,-1.1588884774788506,-1.3939728255865564,1.052076056985778,0.09137893635640808,1.0135427143227137e-05,0.0008858455303979067,-0.00030408801013579156,0.0002142974672000269,0.0010274701568195434,-0.0004660934035286891,0.0013767316082237005,0.6418340802192688,-52.69772720336914,5.334578514099121,18.14490509033203,-1.2058614492416382,-1.3346054553985596,-0.013685601763427258,,,,,,,,,
1739354992.8134985,0.3653638236060976,1.1869714252157992,0.29849173895439446,-1.1588885990671058,-1.393972937774075,1.0520786156040378,0.0913805594271862,-0.001674408247203732,0.00018499808504548218,0.0012338141444316383,0.0006918607833613394,-0.0012625168752210484,0.001410576912412343,0.0006013943914560695,0.6894415020942688,-52.67392349243164,5.310774803161621,18.12110137939453,-1.2058614492416382,-1.3281967639923096,-0.027418512850999832,,,,,,,,,
1739354992.824533,0.3653652094185143,1.1869759948309382,0.29848500710816983,-1.1588884653901925,-1.3939773591508866,1.0520769475871812,0.09137323971211252,-0.0008353219255366511,0.0023156552903311122,-0.001359823066377541,0.0007676218152089232,-0.0019766601019306227,0.0006951243143848292,-0.0012158628723131298,0.6656377911567688,-52.69772720336914,5.362349510192871,18.14490509033203,-1.2058614492416382,-1.3089706897735596,-0.0008682189509272575,,,,,,,,,
1739354992.8355145,0.3653645852621944,1.1869694269721829,0.2984892126368155,-1.1588913383941133,-1.3939750615271418,1.0520774434404079,0.0913805199737554,-0.0001544967687594205,-0.00117417570678513,0.0007719363793463468,-0.0011771453529892022,-0.00014443292025428253,-0.00021451074390089437,0.0020974807635677807,0.6656377911567688,-52.64615249633789,5.334578514099121,18.14490509033203,-1.1994527578353882,-1.3217880725860596,-0.027418512850999832,,,,,,,,,
1739354992.8464117,0.36536896411980485,1.1869731460258846,0.29848503460971865,-1.158889180833024,-1.3939703984668703,1.052074098633843,0.09137899577466992,0.0008658203874913479,0.0011485094725072827,-0.000550141364219198,0.00034152599760217976,0.0009660054558283402,-0.0025578761990706802,-0.0009089331626708036,0.6180303692817688,-52.69772720336914,5.362349510192871,18.14490509033203,-1.1994527578353882,-1.3217880725860596,0.012864691205322742,,,,,,,,,
1739354992.8564327,0.3653633903730755,1.1869704218386643,0.29848992127028207,-1.1588856244181187,-1.3939738463505498,1.052077814895219,0.09137928401586132,-0.00044475356714005545,-0.0009575774185784202,0.0007636672221599831,-4.049536442190236e-05,0.000585802107911076,0.0012634023820249627,0.0029201570275951194,0.6656377911567688,-52.64615249633789,5.334578514099121,18.09729766845703,-1.2058614492416382,-1.3217880725860596,-0.0072769103571772575,,,,,,,,,
1739354992.8664644,0.3653682488330633,1.1869697864560653,0.2984913365555029,-1.1588909838530381,-1.3939735445304478,1.0520770438890745,0.09137781238196252,0.0005106215704821069,0.0005840003452371592,0.0011430883533306425,0.00026681853914356903,0.0019383676100574701,-8.354097502508717e-05,0.0008893686149413619,0.6180303692817688,-52.64615249633789,5.310774803161621,18.14490509033203,-1.2122701406478882,-1.3153793811798096,-0.013685601763427258,,,,,,,,,
1739354992.8773994,0.36536895529083363,1.1869714248989351,0.2984870877598087,-1.1588877731269698,-1.393973244281959,1.052074595320713,0.09137817236188159,0.0012587654402330714,-0.0010997583060542134,-0.00016006195199122,0.00033375882039304297,0.0009031551507952191,0.000838148871692437,-0.000749733108684352,0.6180303692817688,-52.67392349243164,5.334578514099121,18.09729766845703,-1.2122701406478882,-1.3217880725860596,-0.0072769103571772575,,,,,,,,,
1739354992.8874636,0.36536725116824326,1.1869736045681774,0.29849165783770853,-1.1588910986835572,-1.3939768745299688,1.05207748199621,0.09138054628380506,0.0006291338185921765,0.0009901282070173708,0.0012866561870348132,-0.0008386082552072288,0.0006525883257508209,0.00037182649511060514,4.342232121425571e-05,0.6418340802192688,-52.67392349243164,5.283003807067871,18.14490509033203,-1.1994527578353882,-1.3217880725860596,-0.027418512850999832,,,,,,,,,
1739354992.8984926,0.3653672516044555,1.186974447348914,0.29848849738507754,-1.158889195694222,-1.3939713107638108,1.0520763421383132,0.09137166954706971,0.00018952448205547062,-0.0002466473054317423,-0.0005471444946202089,-0.00015805721785071543,0.0017030709100728607,0.0001548718490651076,-0.0023835899203951,0.6418340802192688,-52.67392349243164,5.334578514099121,18.14490509033203,-1.2186788320541382,-1.3089706897735596,0.04673920199275017,,,,,,,,,
1739354992.9094977,0.3653624396421985,1.1869731375746702,0.29848500731594807,-1.1588912588890374,-1.393972941649553,1.0520709603105234,0.09137381905354719,-0.0012979321953428984,6.890881183470418e-05,-0.0005382049871261875,-0.00021190489459583687,0.00166917579879328,-0.0006035521510841202,-0.0019468071483619521,0.6656377911567688,-52.69772720336914,5.362349510192871,18.14490509033203,-1.2058614492416382,-1.2952377796173096,0.026597600430250168,,,,,,,,,
1739354992.9204414,0.3653679309605166,1.1869677437593529,0.2984888781633943,-1.158889449769051,-1.3939729038578987,1.0520780609232452,0.09137889627567237,0.0002832039206313371,-0.0020727720091579956,0.0011517127258817287,0.0009851644118726573,0.0015237100833766124,0.0009553408171605001,-0.00029644684545231283,0.6180303692817688,-52.62234878540039,5.310774803161621,18.12110137939453,-1.2058614492416382,-1.3153793811798096,-0.013685601763427258,,,,,,,,,
1739354992.9314184,0.3653688074263416,1.1869694209603237,0.29848886955889525,-1.1588913120277966,-1.393973283880322,1.0520748338429868,0.09138051999713284,0.0009701497104705948,-0.0003202770199499628,-0.0002588839770129827,-0.0006207715887348686,-0.0010198720733940972,-0.0007966678060900509,-7.118156529362942e-05,0.5902593731880188,-52.64615249633789,5.310774803161621,18.14490509033203,-1.2058614492416382,-1.3281967639923096,-0.027418512850999832,,,,,,,,,
1739354992.9414535,0.36536725156796895,1.1869752036028713,0.2984853569981931,-1.158889194059883,-1.3939746302362286,1.0520797013941507,0.09138375820911315,-0.0002215899615686806,0.0004975563251845963,-0.0007501758237923612,0.00018534486661187657,-0.0003208836876615025,0.0010653151315159963,0.0009402362476415067,0.6418340802192688,-52.69772720336914,5.362349510192871,18.14490509033203,-1.1994527578353882,-1.3281967639923096,-0.027418512850999832,,,,,,,,,
1739354992.9524612,0.36536763978785225,1.1869707364457098,0.29848918566484667,-1.1588899502268721,-1.393977517928631,1.0520770886048616,0.09138375631680087,0.0006726599250961569,-0.001068920481056268,0.0008207352970057112,0.0008189908662683129,-0.00018395810160402192,6.115079612481003e-05,0.001162298315774468,0.6656377911567688,-52.67392349243164,5.310774803161621,18.12110137939453,-1.2058614492416382,-1.3153793811798096,-0.027418512850999832,,,,,,,,,
1739354992.9634001,0.36536716917999895,1.1869752046555015,0.29848708707443405,-1.158887774147199,-1.3939771298388803,1.0520719124046685,0.09137422674006672,0.0004982953718725088,0.00030535986260936865,0.00028822169697661506,0.0010875280306462541,-0.0014612887113415625,-0.0019760420869786867,-0.0014334863606813189,0.6418340802192688,-52.69772720336914,5.334578514099121,18.09729766845703,-1.2058614492416382,-1.3025619983673096,-0.0008682189509272575,,,,,,,,,
1739354992.9734268,0.3653633929880702,1.18697425662545,0.2984899562640415,-1.158887773165327,-1.3939770217638645,1.0520753201603255,0.09138055921082787,-0.0007477668858084849,0.001352479892087611,0.0010659852146556003,0.0011671713278486537,-0.000871820062370214,0.0006138031764295173,0.001250773202375015,0.6656377911567688,-52.67392349243164,5.334578514099121,18.09729766845703,-1.2186788320541382,-1.3217880725860596,-0.027418512850999832,,,,,,,,,
1739354992.9834723,0.3653671719862377,1.1869758030751825,0.2984850071045646,-1.158893041723508,-1.3939725379455876,1.052077376226366,0.09138364524475832,0.0007437964654858766,0.0026877093746547442,-0.0006510028290347449,-0.0015846727128426795,-0.0006472140659984139,0.00031476132496307705,0.001959043434015765,0.6418340802192688,-52.72153091430664,5.362349510192871,18.16870880126953,-1.2122701406478882,-1.3217880725860596,-0.05396880581974983,,,,,,,,,
1739354992.9944558,0.3653643892728641,1.1869717433024676,0.29848326326141983,-1.1588894763690214,-1.3939740153787075,1.0520795425462643,0.09138139613056492,-0.00022559478393244795,0.0012407169453290297,-0.0011226860887108899,0.00029552092053417825,0.0011333809577119159,0.0015631542022270283,0.0008812824179655563,0.6418340802192688,-52.67392349243164,5.386153221130371,18.12110137939453,-1.1994527578353882,-1.3281967639923096,-0.03382720425724983,,,,,,,,,
1739354993.0054588,0.36536551246759935,1.1869677399469256,0.2984889082975259,-1.158890012924073,-1.393974238757161,1.0520803265356673,0.09137417348970692,1.0155735355064303e-05,-0.001162915638239126,0.001343127957797525,0.00011257599108955934,-8.694126346379217e-05,0.0009127436861865147,-0.001246178584964604,0.6656377911567688,-52.62234878540039,5.310774803161621,18.16870880126953,-1.2058614492416382,-1.3346054553985596,0.026597600430250168,,,,,,,,,
1739354993.0164614,0.36536693360385264,1.1869701242592428,0.29848674262008096,-1.1588913385018023,-1.3939759810101489,1.0520740736997185,0.09137889643993581,0.0006174050067906618,-0.001038759393389988,0.00028809181413480415,-0.0012633545494685297,0.00041623779758434717,-0.00027122922751835,0.001129106255669976,0.6418340802192688,-52.64615249633789,5.362349510192871,18.14490509033203,-1.2186788320541382,-1.3217880725860596,-0.013685601763427258,,,,,,,,,
1739354993.0264726,0.3653709342615084,1.186971756641182,0.29848921266620837,-1.1588913650103014,-1.3939740133562402,1.0520748848110097,0.09137741860178099,0.002459107194308069,0.000310894765097377,-0.0003646551821149574,-0.0005157806321730326,-0.0001797782209531655,-0.0018941137944333169,-7.864811329596303e-05,0.5902593731880188,-52.67392349243164,5.334578514099121,18.14490509033203,-1.1994527578353882,-1.3153793811798096,-0.0008682189509272575,,,,,,,,,
1739354993.0374436,0.36536382656283867,1.1869702187417375,0.29848708966600374,-1.1588931211965172,-1.3939743421207225,1.0520771019952504,0.09137876057200703,-0.0011644561365135473,0.0006134103725776528,-0.0001942548623997302,-0.0006659413699389231,-0.00047189589187061296,-4.4149613127351245e-05,0.00024818268218821586,0.6894415020942688,-52.64615249633789,5.334578514099121,18.16870880126953,-1.2058614492416382,-1.3153793811798096,-0.013685601763427258,725,738,749,41.065,0,0
1739354993.0474901,0.3653643803339795,1.1869733698537301,0.29848911480646895,-1.1588941991062327,-1.3939782757581667,1.0520755264894048,0.09137579698932101,9.564863644390402e-05,0.001410472644390049,-9.865167637334183e-05,-0.0012794920361252082,0.0001747152249876844,0.0005309089579978907,0.0001378290576300006,0.6418340802192688,-52.69772720336914,5.310774803161621,18.14490509033203,-1.1994527578353882,-1.3217880725860596,0.012864691205322742,726,736,749,41.065,0,0
1739354993.0584414,0.36536545665121944,1.1869714603110086,0.2984877953722019,-1.1588919744637294,-1.393975902321607,1.0520734219687602,0.09137341577501068,-0.00023576969401906188,0.00013001381316068723,0.0008885195080555275,-0.0012725031653932305,-0.00017812502044446633,-0.0006588847422645635,-0.0011200656173636732,0.6656377911567688,-52.67392349243164,5.334578514099121,18.14490509033203,-1.2186788320541382,-1.3153793811798096,0.03300629183650017,726,734,746,40.957,0,0
1739354993.0684805,0.3653654596094711,1.186973936725517,0.2984881554671825,-1.1588913385301183,-1.3939760006437159,1.0520749295094738,0.09137329748554592,-0.0005357698054150106,0.0015643205719564018,-7.909133477116282e-05,0.00016133877558846072,0.0011249066879355815,0.0021348977791309023,-0.0007198824128425348,0.6656377911567688,-52.69772720336914,5.310774803161621,18.14490509033203,-1.2058614492416382,-1.3153793811798096,0.03300629183650017,725,735,747,41.065,0,0
1739354993.0794535,0.36536692095766715,1.186969504434793,0.29848886941080643,-1.1588897942609089,-1.3939785797944797,1.0520788051832868,0.09137415591005615,-0.00037347142392643454,-0.0003639559371519707,-0.0006798947625121582,0.0008155627818161803,-0.0004978987047317605,-0.0006236494784248698,-0.0008677775519681701,0.6418340802192688,-52.64615249633789,5.310774803161621,18.12110137939453,-1.1930440664291382,-1.3217880725860596,0.026597600430250168,726,735,747,41.065,0,0
1739354993.0904496,0.3653638265247904,1.1869735680360516,0.29848147705617584,-1.1588868155677543,-1.3939753650811963,1.0520773173535856,0.09137503933222252,-0.0018381281686493237,0.0004504579213858926,-0.002947794077435598,0.0018521022504110556,-0.0012242784077638833,-0.0003927694171058288,-0.0002632596943274745,0.6894415020942688,-52.67392349243164,5.409956932067871,18.09729766845703,-1.2122701406478882,-1.3217880725860596,0.019273381680250168,725,735,747,40.957,0,0
1739354993.1013892,0.3653633933165147,1.1869724198964484,0.2984832284834107,-1.158891339822138,-1.393973883784063,1.0520778039870797,0.09137655465236803,-0.000653687904206943,0.00098043647917364,-0.000461184747064755,0.0006293236861428734,0.0012843637149991087,0.00042239461041405544,-9.88481423630626e-05,0.6656377911567688,-52.67392349243164,5.386153221130371,18.14490509033203,-1.2058614492416382,-1.3217880725860596,0.0064559997990727425,726,733,749,41.174,0,0
1739354993.1114635,0.3653638265266569,1.1869714261734998,0.2984892127448928,-1.1588913385193707,-1.3939782930315023,1.0520769030428585,0.09137260301447783,0.000255405443982678,0.0010190299027497374,0.00047662504587480715,-0.0008887737656581459,-0.0005934998841216303,-0.0010327767878447565,-0.001360626200948684,0.6894415020942688,-52.67392349243164,5.334578514099121,18.14490509033203,-1.1994527578353882,-1.3089706897735596,0.012864691205322742,727,736,746,41.065,1,0
1739354993.1224685,0.365362677079631,1.1869714941952199,0.29848571559296244,-1.1588913385193487,-1.3939743560343614,1.052076939557838,0.0913781650483748,-0.0006008733655486243,-0.00021184175816586456,-0.000905033257187425,3.707638457139186e-05,-0.0008429941569028832,-0.00014040661257886655,0.0005838410031381794,0.6656377911567688,-52.64615249633789,5.362349510192871,18.14490509033203,-1.2058614492416382,-1.3153793811798096,-0.0072769103571772575,726,736,748,41.065,1,0
1739354993.1333961,0.36536510582108994,1.186970044482652,0.2984895783758566,-1.1588878523111215,-1.393974990770744,1.0520748070811565,0.0913802644637347,-2.875066495520263e-05,-0.0005612587121321614,0.0009021930209148338,3.416723809833238e-05,0.0006349456356980833,-0.001083652222575839,0.00045576608224551343,0.6418340802192688,-52.62234878540039,5.310774803161621,18.09729766845703,-1.1994527578353882,-1.3153793811798096,-0.0008682189509272575,726,738,748,41.065,0,0
1739354993.143441,0.3653626775883735,1.186973797453378,0.29848504227821115,-1.15888955584367,-1.393978291099351,1.0520774252938037,0.09138055915106696,-0.001317417002181681,0.0011132351624379266,-0.0004885270360208861,0.00044628547783241343,0.000613507343916273,-8.04818801875912e-06,-0.00033032709616654326,0.6656377911567688,-52.67392349243164,5.362349510192871,18.12110137939453,-1.1994527578353882,-1.3089706897735596,-0.027418512850999832,726,737,748,41.065,0,0
1739354993.1534913,0.365368962659518,1.1869693816414268,0.29848716784177953,-1.1588897942609089,-1.393978293254815,1.0520758079936907,0.09137869947478781,0.00045488405388145726,-0.001707740123956858,-0.0004324589542302442,-2.16019282660852e-05,3.7914589878615575e-06,-0.0002169251968171313,0.00014964657640386206,0.6180303692817688,-52.64615249633789,5.362349510192871,18.12110137939453,-1.1994527578353882,-1.3089706897735596,-0.013685601763427258,726,736,746,40.957,1,0
1739354993.1644728,0.36536439014543537,1.1869696944413433,0.29848994799570827,-1.1588912708215917,-1.393973179304686,1.0520785430272395,0.09137543527039381,-9.757721546978018e-05,-0.00019223762957103452,0.0018141428108248505,-0.0005679345118293178,0.00156245292754658,0.0010937946629346,0.00033188195326206023,0.6418340802192688,-52.64615249633789,5.334578514099121,18.14490509033203,-1.2058614492416382,-1.3217880725860596,-0.020094294100999832,726,736,747,41.065,0,0
1739354993.175457,0.3653655390675738,1.1869694356008031,0.2984861330796531,-1.1588895558419474,-1.393977535408676,1.0520772628957062,0.09137580281879143,0.00032546779043844004,-0.0006169367975056448,-0.001068950825239629,0.00016748712588727588,-0.002040751174589474,0.0002968625734754178,0.0004578655395086897,0.6656377911567688,-52.64615249633789,5.334578514099121,18.12110137939453,-1.2058614492416382,-1.3089706897735596,0.012864691205322742,728,735,748,40.957,0,0
1739354993.1863973,0.3653669336040028,1.186973163067464,0.29849270668145694,-1.158891320858713,-1.3939782782348313,1.0520746012306013,0.09137503933235434,-0.0006850904060561434,-8.460026696313877e-05,0.0010343073660081476,-0.00033622506937100737,-0.00011941591655731544,0.0006563554154389851,-0.00016975439038466214,0.6418340802192688,-52.69772720336914,5.259200096130371,18.14490509033203,-1.1994527578353882,-1.3217880725860596,0.019273381680250168,725,729,747,40.957,1,0
1739354993.1964548,0.3653672149696064,1.186975232161632,0.2984857447423861,-1.1588931211960685,-1.3939731280697727,1.052076605641741,0.09137742054960042,0.00012021086277693517,0.0012217033099222595,-0.00094509536264229,-0.0005940968994567863,9.839984429859308e-05,-0.0005215774360929739,0.00021148866561953087,0.6418340802192688,-52.69772720336914,5.362349510192871,18.16870880126953,-1.2122701406478882,-1.3153793811798096,-0.0008682189509272575,726,737,747,41.174,0,0
1739354993.2064972,0.36536509569811265,1.186972164167958,0.2984899212823082,-1.1588877732743268,-1.3939772185348922,1.0520778194201732,0.09137969352994556,-0.00026418635547569214,-0.0009854267915167202,-0.0013018048168397644,0.001757037960270168,-0.0008339458572035344,0.0003071095327319543,0.0007757381325204591,0.6418340802192688,-52.64615249633789,5.334578514099121,18.09729766845703,-1.1994527578353882,-1.3217880725860596,-0.020094294100999832,729,735,746,41.065,0,0
1739354993.2174897,0.36536372058701255,1.1869736031489209,0.29848944886381534,-1.1588933782864093,-1.3939770073039446,1.0520774976245901,0.09137893592392878,-0.0011847088544190915,0.00010518939036148814,-0.00030857506096861027,0.00029232472160624725,0.0011886158270231414,-0.0002221912420341862,0.0015327521172791014,0.6894415020942688,-52.67392349243164,5.334578514099121,18.14490509033203,-1.2058614492416382,-1.3217880725860596,-0.013685601763427258,726,735,746,41.065,1,0
1739354993.228427,0.3653672512768109,1.1869716558971786,0.2984834984056843,-1.158889317435265,-1.3939771289581222,1.0520777007203772,0.09137762530114078,0.0003771861304635609,-1.182154498947886e-06,-0.0005192893971439681,0.0006652222613338023,0.00029462619019297366,0.0008987610126313268,0.0006873511234024647,0.6418340802192688,-52.67392349243164,5.386153221130371,18.12110137939453,-1.1994527578353882,-1.3153793811798096,0.0064559997990727425,728,737,746,40.957,1,0
1739354993.2384837,0.3653672512774036,1.1869737585757378,0.29848961304670035,-1.1588913394964575,-1.3939757019154455,1.052077772455694,0.0913795752586123,0.0003560102194649017,0.000660439090417366,9.210957862195988e-05,0.0002947686535744121,0.000503794136434516,0.0006095748833480924,0.0003417364342234125,0.6418340802192688,-52.67392349243164,5.310774803161621,18.14490509033203,-1.1930440664291382,-1.3153793811798096,-0.020094294100999832,728,737,746,41.065,0,0
1739354993.2494457,0.3653626780607757,1.1869717569924756,0.2984871129876821,-1.1588933713887093,-1.393976020201876,1.052078129538333,0.09137420429049803,-0.0008144739325014682,-6.921365916153887e-05,-0.0010324278797910283,-0.0017641434595445857,0.0007233719497404991,0.0007482470468070793,-0.0012874906127595719,0.6656377911567688,-52.67392349243164,5.334578514099121,18.16870880126953,-1.2186788320541382,-1.3153793811798096,-0.013685601763427258,727,736,743,41.174,1,0
1739354993.2603848,0.36536722506101543,1.1869735765407579,0.29848500694811025,-1.1588913345961753,-1.3939767380428154,1.052072556338291,0.09137183234678846,0.0006064388718414143,-0.0006261549754772278,-0.0008921497027749325,-0.0006414758980799245,-0.0007310082806050666,-0.001483119891110506,-0.0030695942920813644,0.6418340802192688,-52.67392349243164,5.362349510192871,18.14490509033203,-1.2122701406478882,-1.3089706897735596,0.019273381680250168,728,737,744,40.957,1,0
1739354993.27051,0.3653662935690413,1.186972424014955,0.2984859608645368,-1.158891338519282,-1.3939758719998663,1.052072562270815,0.09137655459805745,-0.000128343285721012,6.952634145107553e-05,-0.00014538538381038868,-0.0006503225058128534,-0.0003440487704546417,-0.0008847279350547275,-0.0003541975785748223,0.6418340802192688,-52.67392349243164,5.362349510192871,18.14490509033203,-1.1930440664291382,-1.3089706897735596,0.0064559997990727425,727,737,743,40.957,0,0
1739354993.2814512,0.365368240033726,1.1869751601558565,0.2984871130248714,-1.1588917016095415,-1.3939740109163763,1.0520766147927127,0.0913734157750104,0.0002188769952760236,0.0028876440240967576,0.0002804458568335089,-0.0001497520060339165,0.0015029768281217882,-0.00016268609728514716,-0.0009907284535828472,0.6180303692817688,-52.72153091430664,5.334578514099121,18.12110137939453,-1.1994527578353882,-1.3153793811798096,0.03300629183650017,727,736,744,41.065,1,0
1739354993.2924929,0.36536499103902786,1.186973242712953,0.29848525233969314,-1.1588895558544425,-1.3939782917771273,1.052075357448036,0.09138131854989123,0.00016656749926839535,0.0011679485449078097,0.00013229861944564003,0.0003885811207430907,-0.0006624480463748333,0.00041056306265275936,0.0007115870239581459,0.6418340802192688,-52.69772720336914,5.362349510192871,18.12110137939453,-1.1994527578353882,-1.3281967639923096,-0.03382720425724983,726,736,748,41.174,0,0
1739354993.3034601,0.3653671717917885,1.1869717231541965,0.298487795516211,-1.1588913385193487,-1.393976020274608,1.0520737179548107,0.09138056381509102,0.000974910293498804,-0.0010901866468921496,0.0007167436442802441,0.00032433021782175234,-0.000689184688364445,-0.0016144520936083944,0.0007181893167374375,0.6418340802192688,-52.64615249633789,5.334578514099121,18.14490509033203,-1.2186788320541382,-1.3153793811798096,-0.027418512850999832,727,735,741,41.065,1,0
1739354993.3145227,0.3653669208486489,1.186973214414927,0.29849016947357565,-1.1588885553795505,-1.3939731384437735,1.0520789278439753,0.09137179221772473,-7.894542758241882e-05,0.00039809274539152407,0.0005353569513238286,-0.00039295078594553943,0.0007326410462289055,0.002110266347700994,-0.0010574793699083273,0.6418340802192688,-52.69772720336914,5.334578514099121,18.06952667236328,-1.2058614492416382,-1.3217880725860596,0.04673920199275017,726,736,743,41.174,1,0
1739354993.326381,0.3653689510050311,1.1869752041673312,0.29848597816303635,-1.1588895558584857,-1.393977535569951,1.0520756738411654,0.0913827741855987,0.0011299299341338746,0.0006239851169025786,0.0005705880419171723,0.0007521998960242509,-0.0012803534759705936,0.00025035534561394226,0.0009216579188325175,0.6180303692817688,-52.69772720336914,5.362349510192871,18.12110137939453,-1.2058614492416382,-1.3217880725860596,-0.020094294100999832,726,735,743,41.174,1,0
1739354993.3363967,0.36536482251972024,1.1869755184845783,0.2984850100136389,-1.1588881570341056,-1.3939790901607862,1.0520788920934032,0.09138209959915494,-0.0006871579863540326,0.0014790902495747486,-0.0005468546199131847,0.0007044943022870437,-0.0025939608548554154,0.0008210668440335483,0.0016317856426356777,0.6656377911567688,-52.69772720336914,5.362349510192871,18.06952667236328,-1.1930440664291382,-1.3217880725860596,-0.027418512850999832,728,735,742,41.065,0,0
1739354993.346441,0.36536848662149946,1.1869680218530705,0.2984860588029909,-1.158893510819236,-1.3939771900108795,1.0520750592721246,0.09137969615929661,0.0009651132291019419,-0.001972968485183387,-0.0002588032568357538,-0.0015612336580804265,-1.5294380323451937e-05,-0.0012109539501438571,-9.520868979251461e-06,0.5902593731880188,-52.62234878540039,5.386153221130371,18.14490509033203,-1.1994527578353882,-1.3025619983673096,-0.020094294100999832,724,734,743,41.065,0,0
1739354993.3574145,0.36536789550580395,1.1869717396280413,0.29848958976057943,-1.1588931212331557,-1.393975361785722,1.0520773748330536,0.0913792202098683,0.0010253111417059535,0.0005069070945361904,0.0007395882295152186,-0.0001694844112452654,0.00044691823832448784,-0.00170202754237705,5.5329421121840536e-05,0.6180303692817688,-52.67392349243164,5.310774803161621,18.16870880126953,-1.1930440664291382,-1.3089706897735596,-0.020094294100999832,724,739,743,41.065,1,0
1739354993.3674746,0.3653709586805055,1.1869754450946266,0.29848803158588266,-1.1588913389554139,-1.3939757124615393,1.0520736760414136,0.0913774205469285,0.00206208793769274,0.0011626472722652196,0.0020141079132939706,0.00027300748531170795,0.0003623980710738961,-0.0017632320917235701,0.0005798109780243494,0.5902593731880188,-52.69772720336914,5.334578514099121,18.14490509033203,-1.2122701406478882,-1.3153793811798096,-0.0008682189509272575,726,738,743,40.957,0,0
1739354993.3774831,0.3653658617401643,1.1869734950095694,0.2984888694308378,-1.1588913385193558,-1.3939741865969624,1.052076282601575,0.09137742640014011,0.0001555803724525265,-0.00044646394082393105,0.0006897604106499473,-0.00036522712529814207,-0.0009068242169570801,0.00022969475646840014,0.0008193411422936331,0.6180303692817688,-52.67392349243164,5.310774803161621,18.14490509033203,-1.2058614492416382,-1.3281967639923096,-0.0008682189509272575,725,737,742,41.065,0,0
1739354993.3884747,0.36536240430341443,1.1869740938896105,0.2984910740508337,-1.1588895205210585,-1.3939774132623064,1.0520766146978415,0.09137893586979014,-0.0026712806424258554,-0.00023208919155167458,0.0012533009595792554,0.00024247437232355278,0.0003324880829469503,-0.0005515858335907241,-0.0003810432182048077,0.6656377911567688,-52.69772720336914,5.310774803161621,18.12110137939453,-1.2058614492416382,-1.3025619983673096,-0.013685601763427258,726,737,742,40.957,1,0
1739354993.3994346,0.3653665329161286,1.1869761560943084,0.2984877984323444,-1.1588920527933413,-1.3939778212093499,1.0520778241124498,0.09137655465236803,0.00035540085481991897,0.0016280238983894634,0.0001842144588446846,0.00010834238650057063,0.0005842941165196888,0.0007128520827773242,-0.00040768349037396967,0.6418340802192688,-52.69772720336914,5.334578514099121,18.14490509033203,-1.1930440664291382,-1.3153793811798096,0.0064559997990727425,725,737,741,41.065,1,0
1739354993.4094572,0.36536885706715655,1.186972270984121,0.298487165478835,-1.1588897942649408,-1.3939767774432363,1.0520738431279653,0.09137503933232145,0.00092355588070533,0.0005677059469410852,0.0007421657839831576,0.0007118661476330564,0.0015013825042673695,0.00022585000709202395,-0.00012232481199524138,0.6180303692817688,-52.64615249633789,5.334578514099121,18.12110137939453,-1.2122701406478882,-1.3153793811798096,0.019273381680250168,725,737,741,40.957,1,0
1739354993.4204497,0.3653679786538568,1.1869748503043516,0.29848708673826213,-1.1588917016472262,-1.393979690352919,1.052076318245253,0.0913813170872563,0.0005844393438258569,-9.570023336544025e-05,-0.00042448331327931863,7.175149883289746e-05,-0.001963410000416041,-0.0008600126054780105,0.0017429617336035847,0.6180303692817688,-52.72153091430664,5.334578514099121,18.12110137939453,-1.1866353750228882,-1.3281967639923096,-0.03382720425724983,724,737,741,41.174,1,0
1739354993.431481,0.36536381478367563,1.1869745145229345,0.2984850069479621,-1.1588931212084808,-1.393976462820189,1.0520763443347099,0.09137737221769199,-0.0013845079209509196,0.0013304684043283378,-0.00029178930360201574,-0.0002042167311333411,-0.0011512499276912474,0.0002509142441084223,-0.0005235618414816341,0.6894415020942688,-52.67392349243164,5.362349510192871,18.16870880126953,-1.2058614492416382,-1.3089706897735596,0.026597600430250168,725,737,742,40.957,1,0
1739354993.4434438,0.36536482237437273,1.186973494078115,0.2984872004690397,-1.1588917016095417,-1.3939774291939273,1.0520789443070384,0.09138060792041966,0.00037293610247514673,-0.0004416006695504434,0.0003825113361395117,-4.4565108852504204e-05,0.0007000479915676974,0.0005361658971068006,0.0014860693010438435,0.6656377911567688,-52.67392349243164,5.334578514099121,18.12110137939453,-1.1994527578353882,-1.3217880725860596,-0.03382720425724983,724,737,741,41.174,0,0
1739354993.4534457,0.36536450593250486,1.1869755932334134,0.2984912641533338,-1.1588884854897215,-1.3939782932499738,1.052079336950434,0.09137817771888758,-0.0010579904573495926,0.0017693398283603634,0.001737647986612161,0.0007359810350849742,-0.0004964221364264518,0.0008471409226558793,-7.460356902184802e-05,0.6656377911567688,-52.69772720336914,5.283003807067871,18.09729766845703,-1.1994527578353882,-1.3281967639923096,-0.0072769103571772575,724,737,744,41.174,1,0
1739354993.465411,0.36536887178257765,1.1869762354908098,0.2984888694166146,-1.1588913388504185,-1.3939737010051076,1.0520778067293268,0.09137742071211265,0.000324279740896845,0.0011428176084269106,-0.0005893762484966826,-0.0006934818197865283,0.0008226520014101062,-0.00013791703233747286,0.00037627618492949385,0.6180303692817688,-52.69772720336914,5.310774803161621,18.14490509033203,-1.1994527578353882,-1.3153793811798096,-0.0008682189509272575,724,735,743,41.065,1,0
1739354993.4754498,0.36536458537255034,1.186976286728044,0.29848709559438,-1.1588952670725978,-1.393976738662915,1.0520756813989207,0.09137889638584888,-0.001058847816309898,0.0016531504449040493,0.0013369648214098672,-0.0011660655836184233,-0.00033539288443553246,-0.0006556831940281635,-0.000646898085458846,0.6656377911567688,-52.69772720336914,5.334578514099121,18.16870880126953,-1.2122701406478882,-1.3217880725860596,-0.013685601763427258,727,735,744,40.957,0,0
1739354993.4863722,0.3653661829852721,1.186973520917988,0.29848571558101106,-1.1588917029298504,-1.3939728368916855,1.052079938098567,0.09137921599077224,0.00010001726897773675,0.0011331631098420415,-0.0004977238201697687,-7.060816500379166e-05,0.0011610111148616746,-0.0007033346841027838,0.0008573944194770484,0.6418340802192688,-52.67392349243164,5.362349510192871,18.12110137939453,-1.2186788320541382,-1.3346054553985596,-0.020094294100999832,727,737,744,41.065,1,0
1739354993.4964745,0.36536821941696224,1.1869697615584394,0.2984892126488154,-1.1588898737701294,-1.3939771943169545,1.0520789457942012,0.09137969790976319,0.00019985665317259229,-0.001317576446644778,-2.274338215125284e-05,1.4971775489042247e-06,-0.0003204822903122922,0.0010192196331681455,0.00011802449936916954,0.6180303692817688,-52.64615249633789,5.334578514099121,18.12110137939453,-1.1994527578353882,-1.3217880725860596,-0.020094294100999832,728,734,744,41.065,0,0
1739354993.506486,0.36537085606439423,1.1869762071147236,0.29848991934950936,-1.1588940748868364,-1.3939768745339796,1.0520789055760553,0.09137969353016807,0.0022591706988030202,0.0006815755425901435,0.0024990375197432167,-0.0004655498421086729,0.0013271753923326279,0.0009132420404017321,0.0011673857632348355,0.5902593731880188,-52.69772720336914,5.310774803161621,18.16870880126953,-1.1994527578353882,-1.3217880725860596,-0.020094294100999832,726,737,744,40.957,1,0
1739354993.5174851,0.3653686187129996,1.1869695332351942,0.29848476950342034,-1.1588895558804628,-1.3939772335602174,1.0520746012866526,0.09137563927300331,0.0009684369464871964,-0.0002751621362297124,-0.001209002844151062,0.0008400574679171119,-0.00012667575297241335,-0.0003463539083923589,-0.0008280201207765163,0.6180303692817688,-52.64615249633789,5.362349510192871,18.12110137939453,-1.1994527578353882,-1.3217880725860596,0.012864691205322742,726,738,746,41.065,1,0
1739354993.5284495,0.3653672514571531,1.186973864115299,0.2984850069466217,-1.1588897942609089,-1.3939765275786131,1.0520770468634797,0.09137265789769185,3.3455089861906677e-06,0.0002959497882006315,-0.0005841715471640136,0.0002896918073537318,-9.488487964377694e-05,-0.0011090810545238837,-0.0020990296653641467,0.6418340802192688,-52.69772720336914,5.362349510192871,18.12110137939453,-1.2058614492416382,-1.3153793811798096,0.03941498324275017,726,737,743,41.065,1,0
1739354993.5394058,0.3653638264539785,1.1869714618534855,0.29848708673781765,-1.1588913395018408,-1.3939767604864015,1.0520789452999866,0.0913765546523668,0.0009308935914398391,-0.0002833839767778736,-0.0007865990632986282,0.0005005761217333168,-0.0005788172884168443,0.0007999184434667201,-0.0004660711010287151,0.6894415020942688,-52.67392349243164,5.334578514099121,18.14490509033203,-1.2122701406478882,-1.3217880725860596,0.0064559997990727425,726,737,743,40.957,1,0
1739354993.5504344,0.36536797970828444,1.1869707882447766,0.29848500691162333,-1.1588887268396324,-1.3939782795267786,1.0520749236306306,0.09138055942717796,0.0007305745918623109,-0.00014828914875919985,-0.0006936230669480476,-0.00016183503028733388,-0.0027785281916609694,-0.00069104416758625,0.0005630927370584944,0.6180303692817688,-52.62234878540039,5.362349510192871,18.09729766845703,-1.1994527578353882,-1.3153793811798096,-0.027418512850999832,726,736,743,41.065,1,0
1739354993.5614,0.3653655390670556,1.1869744902199457,0.2984880319058363,-1.1588895558584802,-1.3939782930931135,1.0520766862795814,0.09138294064456703,0.0007272002002291938,-9.50779739851433e-05,0.0009403993548091768,0.00017262101369343695,-0.0015808998255064243,0.0004978667508433637,0.0023392236827487153,0.6656377911567688,-52.67392349243164,5.334578514099121,18.12110137939453,-1.1994527578353882,-1.3153793811798096,-0.04756011441349983,729,735,743,40.957,1,0
1739354993.5714765,0.3653709342668937,1.186973809958672,0.29848923888781675,-1.158891342770983,-1.393973599020306,1.052078612635185,0.09137655465236803,0.001962076335583002,3.9098724300191165e-06,0.0012194670502524683,-0.0002773421534194245,0.0004850338444329724,0.0007486447838932588,-0.000979469822582818,0.5902593731880188,-52.67392349243164,5.334578514099121,18.14490509033203,-1.2122701406478882,-1.3281967639923096,0.0064559997990727425,726,736,742,40.957,1,0
1739354993.582457,0.3653661905126215,1.186973469478504,0.2984871921646605,-1.158888488421072,-1.3939751012405663,1.0520746012805706,0.09137743517594978,-1.6802283737923523e-05,-0.0008643329755178967,0.0010924223868044667,-0.0001221438998947219,0.0005904799987816537,-0.0006576657037228871,-0.0009624882274085466,0.6418340802192688,-52.69772720336914,5.334578514099121,18.09729766845703,-1.1994527578353882,-1.3217880725860596,-0.0008682189509272575,726,735,743,40.957,1,0
1739354993.5924675,0.3653668179039425,1.1869704482987566,0.2984850069497475,-1.158889802122193,-1.3939790508608727,1.0520781701907373,0.09137615241282661,0.000888467106921593,-0.0010401682995386254,-0.0019091439385628564,0.0001716376729964065,-0.0011713387372143365,-9.869787960805911e-05,-0.0004773059252875506,0.6180303692817688,-52.64615249633789,5.362349510192871,18.12110137939453,-1.1930440664291382,-1.3153793811798096,0.012864691205322742,726,736,740,40.848,1,0
1739354993.6034467,0.36536725144698745,1.1869742605853946,0.298488032553878,-1.1588934846149996,-1.3939774876276145,1.0520789393467718,0.0913788424494503,0.0009926252318920978,-0.0005416457588450978,0.00036668316357523417,-0.0013970234912846912,0.000562908015981247,0.0005512062500802681,0.0008515183647673296,0.6418340802192688,-52.67392349243164,5.334578514099121,18.14490509033203,-1.2058614492416382,-1.3217880725860596,-0.0008682189509272575,726,734,744,40.957,1,0
1739354993.6135147,0.3653665416746853,1.1869770663436554,0.2984895780638532,-1.1588913396458556,-1.3939764457378236,1.0520749297556231,0.09137543896080443,0.0003669757910905964,0.0017614232767971195,0.0003814015706285819,0.0006032646076400422,-0.00040993388259814975,-0.0009637046635112489,-0.0008929346377606258,0.6180303692817688,-52.72153091430664,5.310774803161621,18.14490509033203,-1.2324117422103882,-1.3153793811798096,0.0064559997990727425,726,735,745,41.065,1,0
1739354993.625371,0.3653672131807179,1.186974523283663,0.2984889073292444,-1.158890884707651,-1.3939774179226052,1.0520781476768593,0.09137730371647246,0.0002755063172510761,-0.0003461312456063758,-0.00018045599548520514,-0.0012622901482502442,-0.0007519147506374312,0.001891238286525514,0.0004420970983961366,0.6418340802192688,-52.67392349243164,5.310774803161621,18.09729766845703,-1.2058614492416382,-1.3153793811798096,-0.0008682189509272575,726,735,745,40.957,1,0
1739354993.6354358,0.36536374708991903,1.1869778766700771,0.2984871655830384,-1.1588896618237072,-1.3939736245375247,1.0520780615021867,0.09138527352927805,-0.0009109513767562024,0.002609141257743434,-0.0004073263252614031,0.0001115915554300663,-0.0009535171625001805,0.0003488201824209833,0.0014103325133093532,0.6894415020942688,-52.72153091430664,5.334578514099121,18.12110137939453,-1.2122701406478882,-1.3153793811798096,-0.04023589566349983,727,734,746,40.957,1,0
1739354993.6464715,0.3653667815827074,1.1869745229733015,0.2984850331940738,-1.1588938257261114,-1.393978595053596,1.0520789010504927,0.09138207476539185,-0.0007707387439998914,-9.792025380214319e-05,-0.000956530639559301,-0.0007340051051157111,-0.0009271275924935186,0.0018383341139620634,0.000624004809599488,0.6180303692817688,-52.67392349243164,5.362349510192871,18.14490509033203,-1.2058614492416382,-1.3217880725860596,-0.04023589566349983,725,736,745,41.065,0,0
1739354993.6564822,0.3653652210463102,1.1869738059696535,0.2984850069484066,-1.1588934856368767,-1.393977535612715,1.0520766171370413,0.09138213465236035,-0.0010853797403028195,0.0011747956105244786,0.00019763962268306033,-0.000779214570747174,-0.00025140119818945037,-0.000653791526402791,0.0006074524424486745,0.6656377911567688,-52.67392349243164,5.362349510192871,18.14490509033203,-1.2058614492416382,-1.3153793811798096,-0.013685601763427258,725,736,745,41.065,1,0
1739354993.6674163,0.3653658617384263,1.1869755480903261,0.2984852441310235,-1.1588882598260535,-1.39397905091493,1.0520778126269024,0.09137893588781433,0.0004540340129899036,0.0005371639311743333,-0.00036031805722875303,0.0007022583201972041,-0.0003470379355771916,9.184193361709028e-05,0.00042222570485211876,0.6180303692817688,-52.69772720336914,5.362349510192871,18.09729766845703,-1.1930440664291382,-1.3153793811798096,-0.013685601763427258,726,736,746,41.065,1,0
1739354993.6774511,0.36536724762733314,1.1869704656675448,0.29848709592241734,-1.15889133852759,-1.3939775355947732,1.0520766713265752,0.09137818259758387,0.000957738365317576,-0.00015476193183664908,0.00024744971115088954,0.0006201771248307559,-0.00014800271278968776,-0.00040764062780484784,-0.00030963290855563465,0.6418340802192688,-52.64615249633789,5.334578514099121,18.14490509033203,-1.2058614492416382,-1.3025619983673096,-0.0072769103571772575,726,736,745,40.957,1,0
