IITGN-Robotics/Franka_IITGN_ROBOTICS/franka_ros/franka_iitgn/data02/os_004.csv
time,fr3_joint1_pos,fr3_joint2_pos,fr3_joint3_pos,fr3_joint4_pos,fr3_joint5_pos,fr3_joint6_pos,fr3_joint7_pos,fr3_joint1_vel,fr3_joint2_vel,fr3_joint3_vel,fr3_joint4_vel,fr3_joint5_vel,fr3_joint6_vel,fr3_joint7_vel,fr3_joint1_eff,fr3_joint2_eff,fr3_joint3_eff,fr3_joint4_eff,fr3_joint5_eff,fr3_joint6_eff,fr3_joint7_eff,flexpin1,flexpin2,flexpin3,Force,ContactMic,ContactMic_gt
1739355281.2383933,0.35686109771015534,1.1861693847627435,0.30517950871213056,-1.1629272534389625,-1.3992466242366044,1.0488023606627146,0.07718411340366822,-0.002276473119299167,0.0002555210673980457,-0.0007098372273021602,-0.0007561602723398007,-0.0008433926328240307,0.0010001214486884762,-0.0011405725124935236,0.7172124981880188,-52.54300308227539,5.461531639099121,17.99811553955078,-1.1994527578353882,-1.3419296741485596,0.019273381680250168,,,,,,,,,
1739355281.2483997,0.3568474016544305,1.186170089892088,0.3051697327764847,-1.162929147010151,-1.3992458702911335,1.0488014947655069,0.07718130248443247,-0.00014490408678192513,-0.0006637448993958894,-0.0013997986121626837,-0.00045263460299132494,8.011992117598533e-05,0.00047935523403593917,-0.002298347407658884,0.6894415020942688,-52.54300308227539,5.513106346130371,18.02191925048828,-1.2058614492416382,-1.3346054553985596,0.026597600430250168,,,,,,,,,
1739355281.258473,0.3568326244463442,1.1861713814194776,0.3051594542260002,-1.1629329762271299,-1.39924480984549,1.0487992174246703,0.07718757255492563,-0.0013476789915292298,-0.0012538640058227732,-0.0010922067277655896,-0.0003402299556704813,0.001162237088826982,-0.0010139402911365741,0.000840684697194018,0.7172124981880188,-52.57077407836914,5.513106346130371,18.04572296142578,-1.2058614492416382,-1.3153793811798096,-0.0008682189509272575,,,,,,,,,
1739355281.2704284,0.3568218270695063,1.1861716201531423,0.30514941131805634,-1.1629375909822397,-1.3992466298294783,1.048799975084675,0.07718336627768058,-0.0008674319237609516,-0.0006381352102857501,-0.0012544314326683795,-0.0003743750547672358,-0.0013652007170059212,-0.0007931203560251788,0.000759349218619959,0.6894415020942688,-52.57077407836914,5.489302635192871,18.06952667236328,-1.1994527578353882,-1.3217880725860596,-0.0008682189509272575,,,,,,,,,
1739355281.2815259,0.35681690814284506,1.1861694894309232,0.3051512165857514,-1.1629286450474356,-1.3992450739774125,1.048799975084675,0.07718404277107062,0.001049255629810853,0.0002575015134897111,0.0003177370974920661,-0.00015483076366506338,-0.0006350094124186089,0.00032412920358570443,-0.0006676200987407703,0.6656377911567688,-52.54300308227539,5.437727928161621,17.94654083251953,-1.2122701406478882,-1.3217880725860596,0.0064559997990727425,,,,,,,,,
1739355281.292433,0.35680873851091227,1.1861698168239525,0.3051549739075204,-1.16293071633452,-1.3992426392098012,1.0488000201447325,0.07718714224576408,-0.000328156319107728,-0.0006541768819117947,0.0010017132190024394,-5.931990016880495e-05,-1.945985144289551e-05,-0.0005304534030393824,0.001894211873727224,0.6894415020942688,-52.51919937133789,5.386153221130371,17.97431182861328,-1.2058614492416382,-1.3217880725860596,-0.020094294100999832,,,,,,,,,
1739355281.3029375,0.3568072075991812,1.1861680182838745,0.3051496611828084,-1.16293250751476,-1.3992458709189373,1.048801792383137,0.07718772568130157,9.904836668973927e-05,0.00046838974120950186,-0.00030342425474235877,-0.0007803426863022645,0.0005543441717193912,-0.00033638932438436787,0.0008047903189955679,0.6656377911567688,-52.51919937133789,5.461531639099121,17.99811553955078,-1.2058614492416382,-1.3281967639923096,-0.03382720425724983,,,,,,,,,
1739355281.3133903,0.3568057000880819,1.1861712401243911,0.3051500325360832,-1.162932507514808,-1.399243295332872,1.0488055352224337,0.07718484263367192,-0.00014213978627513306,0.0006836128950284363,-0.0008785001482814926,0.0007620139601115044,0.0011743078877546294,0.0004728469324957911,0.00020342143512039963,0.6418340802192688,-52.57077407836914,5.437727928161621,17.99811553955078,-1.2186788320541382,-1.3419296741485596,-0.013685601763427258,,,,,,,,,
1739355281.3244703,0.3568094104951508,1.1861694898641464,0.30515424114512135,-1.1629374989766725,-1.399241568050096,1.0488008941426656,0.07718368504588957,0.0014179986454437902,-0.0012116359370909328,8.717929201904913e-05,-0.0007421783805239315,0.0008697152809724125,0.0004934787237985639,-0.0015858074559634327,0.5902593731880188,-52.54300308227539,5.409956932067871,18.02191925048828,-1.2122701406478882,-1.3281967639923096,-0.0008682189509272575,,,,,,,,,
1739355281.335423,0.3568046723828349,1.1861734235936412,0.30515421488750394,-1.1629393176835499,-1.3992434802127045,1.0488058466952226,0.07718726719110794,-0.0016169520949636399,-0.000575989150364368,-0.000557390644970402,0.00015925927295919664,2.452809857469762e-05,0.0005262770315019951,0.0004524725761763602,0.6180303692817688,-52.59457778930664,5.409956932067871,18.04572296142578,-1.2250875234603882,-1.3346054553985596,-0.03382720425724983,,,,,,,,,
1739355281.3454745,0.35680714084136966,1.1861716463226295,0.305152082653873,-1.1629347512130968,-1.3992458723887367,1.0488016650661407,0.07719164220685318,-0.0005871139508310248,-0.00035501103460034084,0.0003339043146150127,0.0014215934113133706,-0.0006669520535916832,0.00015689102438627592,0.002303610872697692,0.6180303692817688,-52.57077407836914,5.437727928161621,17.94654083251953,-1.2058614492416382,-1.3346054553985596,-0.03382720425724983,,,,,,,,,
1739355281.3564196,0.3568043403350195,1.1861686550372805,0.30515430312582953,-1.1629385688241232,-1.3992450738697482,1.0488029425025134,0.07718562449310268,-0.0006544828525447025,-0.0009249349609155065,0.0005330059479371062,-0.0008679507950643076,0.00025415514732229303,0.0005135419860969112,-0.00010258517109644635,0.6180303692817688,-52.51919937133789,5.437727928161621,18.02191925048828,-1.2122701406478882,-1.3346054553985596,-0.020094294100999832,,,,,,,,,
1739355281.3664565,0.3568027865509485,1.1861676703418291,0.30515578873715093,-1.1629342476978484,-1.3992451132751,1.048800772064384,0.0771884483232546,0.0009559543432452857,-0.00045052150797568897,0.0003701827669987019,0.000171429057574697,-0.0005420593065365676,-0.00031486798473883315,-0.00048066402224938344,0.6418340802192688,-52.51919937133789,5.386153221130371,17.97431182861328,-1.2122701406478882,-1.3281967639923096,-0.0072769103571772575,,,,,,,,,
1739355281.3764703,0.35680162198163573,1.1861708011300425,0.3051521610659703,-1.1629350822241007,-1.3992451137616189,1.04880471459484,0.0771841281572543,0.00031505756104951597,0.0003009200257884665,0.0008671221198729514,-0.000744567739298187,-0.0016719567920785623,0.0006749776574679812,0.00013670276905940518,0.6418340802192688,-52.51919937133789,5.437727928161621,17.94654083251953,-1.2122701406478882,-1.3346054553985596,-0.0072769103571772575,,,,,,,,,
1739355281.387413,0.3568020812447708,1.1861725653421584,0.3051549973610072,-1.1629389448164429,-1.3992458709371831,1.0488051402877,0.07718990041350214,2.1421397429860272e-05,0.0012796020213177372,0.0005235539500316147,0.0009144013485362899,-0.0016148465178805358,0.0012589044397356185,0.0023417867500405503,0.6180303692817688,-52.54300308227539,5.386153221130371,17.99811553955078,-1.2058614492416382,-1.3346054553985596,-0.020094294100999832,,,,,,,,,
1739355281.3975194,0.3568032114938424,1.1861725743177076,0.30515352961460573,-1.1629435762835683,-1.3992464729552154,1.0488070703888286,0.07718406973698075,-0.0004311731055507794,0.0004981563867734147,-3.392259146370801e-05,-0.0009532480366165122,0.0002105323192353918,0.0008781173571515825,-0.0008230867751011191,0.6180303692817688,-52.54300308227539,5.409956932067871,18.06952667236328,-1.2186788320541382,-1.3419296741485596,-0.0072769103571772575,,,,,,,,,
1739355281.4084616,0.3567984006843107,1.1861695026757937,0.3051500354883043,-1.1629371709656973,-1.3992435979688977,1.0488060454930346,0.07718753447131017,-0.0012025064444772004,-0.0002965430165892815,-0.0008617592698785834,0.0008643741530696695,0.0006124589342300256,-2.6964258913003038e-05,-0.00048133543258688325,0.6894415020942688,-52.54300308227539,5.437727928161621,17.97431182861328,-1.2250875234603882,-1.3419296741485596,-0.027418512850999832,,,,,,,,,
1739355281.4194434,0.35680402605951245,1.1861716091798096,0.3051559451091921,-1.1629371621394744,-1.3992451089164515,1.0488062587703217,0.07718717790764636,0.0003081172245604885,-0.0001328585873827959,0.0003614821075015345,0.0005418585968334106,-0.00012989365553462505,0.0018543026850558223,0.000576585007487873,0.5902593731880188,-52.54300308227539,5.386153221130371,17.97431182861328,-1.2122701406478882,-1.3346054553985596,0.0064559997990727425,,,,,,,,,
1739355281.4294665,0.3567983283588898,1.1861678545673175,0.3051542411798401,-1.1629407628147337,-1.3992444733545197,1.0488019635354366,0.07719082978114264,-0.0015863117694447572,-0.00023893266761797086,0.0001939314791454848,-0.0002941764152893219,0.00013672420978099126,-0.000480431237835832,0.002398833343046204,0.6656377911567688,-52.49142837524414,5.409956932067871,18.02191925048828,-1.2186788320541382,-1.3346054553985596,-0.027418512850999832,,,,,,,,,
1739355281.440399,0.35679769060095456,1.1861743498601416,0.30515037860629224,-1.1629401291263861,-1.3992478365101275,1.0488062586983318,0.07719178387862985,-0.002024687220228351,0.001150517121070746,-0.00014012981272564255,0.000402522432951034,0.0002548010291828012,0.0011992032399274328,0.0011827371944925804,0.6656377911567688,-52.57077407836914,5.461531639099121,17.97431182861328,-1.2250875234603882,-1.3346054553985596,-0.03382720425724983,,,,,,,,,
1739355281.4514134,0.3567976098526383,1.1861713906906541,0.30515506637739104,-1.1629381953033493,-1.3992443561254673,1.0487992368321837,0.07718322623537963,-0.0016374962546346844,-0.00019913313103249095,0.0006158480563422752,-8.055470341769859e-05,0.0002563369248572894,-0.0012428270497160004,-0.0006391080380982247,0.6656377911567688,-52.57077407836914,5.386153221130371,17.97431182861328,-1.2186788320541382,-1.3153793811798096,0.012864691205322742,,,,,,,,,
1739355281.4624465,0.3568010614572756,1.1861660186957166,0.3051521600898308,-1.1629421251902143,-1.399245579866734,1.0488051989499707,0.07718935118565406,0.001364546606288132,-0.000931133503617045,0.0001267285349800003,-0.0018571755360736665,-0.0006327072629714897,0.00045702143904061436,0.001318736769330829,0.6180303692817688,-52.49142837524414,5.437727928161621,17.99811553955078,-1.2122701406478882,-1.3346054553985596,-0.04756011441349983,,,,,,,,,
1739355281.4724574,0.35680477181029385,1.1861738463802145,0.3051539174845966,-1.1629418002674043,-1.399245115223071,1.048807085409841,0.07718482944218202,0.0012783000395656578,-8.620809879672313e-05,-0.00016454200020663348,0.0006325655045719816,-0.0006182839421735202,0.0009799873576026915,-0.0008568418911295353,0.5664556622505188,-52.57077407836914,5.409956932067871,18.02191925048828,-1.2122701406478882,-1.3419296741485596,-0.013685601763427258,,,,,,,,,
1739355281.4834883,0.35680546057477697,1.1861663882747289,0.305151828594115,-1.1629461007296968,-1.3992407722552782,1.0488062537695189,0.0771892449243713,0.0014631325267738938,-0.0016926965324927656,-0.001807783783855438,-0.0010982390273068785,0.0007881462733158301,0.0002710987203835771,0.0009200035252072503,0.5664556622505188,-52.49142837524414,5.437727928161621,18.02191925048828,-1.2250875234603882,-1.3346054553985596,-0.013685601763427258,,,,,,,,,
1739355281.4944649,0.3568030672967608,1.1861685847243297,0.30515400399623366,-1.1629402561307915,-1.3992435935803436,1.0488051479035971,0.07718485027858785,0.0014427277441320064,-0.001915091043065931,-0.0002611919371672599,-0.00030540075543967614,0.0015031500968348528,-0.00034575318748449307,-0.0010513897046424605,0.5902593731880188,-52.51919937133789,5.409956932067871,17.99811553955078,-1.2250875234603882,-1.3281967639923096,-0.0008682189509272575,,,,,,,,,
1739355281.5054777,0.35680127327607974,1.1861685608511863,0.3051542285430323,-1.1629403807431367,-1.3992451132770773,1.0488062587744198,0.07718174703200625,0.00013215039133505528,-0.0015627305415189456,-0.00035029162040349255,0.0005740514639883755,0.0010062977883708343,0.0002983873732350157,-0.0001652003373248835,0.6180303692817688,-52.49142837524414,5.409956932067871,17.97431182861328,-1.2122701406478882,-1.3346054553985596,0.012864691205322742,,,,,,,,,
1739355281.516439,0.3567993136257038,1.1861704519877487,0.30515111156458163,-1.1629365219209045,-1.399244355670859,1.0488078765195235,0.07717914311652499,2.201894837034198e-05,0.00042510665258913287,-0.0007454683740365218,0.001984404628790046,0.0008321406017927087,0.000594315161408829,-0.0017132704845720607,0.6418340802192688,-52.54300308227539,5.437727928161621,17.92273712158203,-1.2186788320541382,-1.3483383655548096,0.04673920199275017,,,,,,,,,
1739355281.5264513,0.3568010345331378,1.1861687852196041,0.3051490864182761,-1.1629421637943713,-1.399245113277103,1.0488071246735475,0.0771849408635877,0.00030987431908794,0.00032203740265611446,-0.001863166514470515,6.573255715918748e-05,0.0006682112284825954,0.0006052990113166556,-0.0014288317093542643,0.6180303692817688,-52.49142837524414,5.437727928161621,17.99811553955078,-1.2122701406478882,-1.3419296741485596,0.012864691205322742,,,,,,,,,
1739355281.536477,0.35680103485730036,1.18617164844136,0.3051521525906877,-1.1629400137754695,-1.399246027920607,1.0488078823337246,0.07718477696601692,-0.0002681211121883263,0.00042199387703626063,0.0004525615228703988,0.0013177408528263555,0.00042985016033142003,0.0012929862591347131,-0.0010873187183949478,0.6180303692817688,-52.54300308227539,5.437727928161621,17.99811553955078,-1.2058614492416382,-1.3483383655548096,-0.0008682189509272575,,,,,,,,,
1739355281.5474567,0.3568003291677461,1.1861759593609698,0.30515211528212705,-1.1629425265453193,-1.3992451090788431,1.0488062544157628,0.0771930487066959,-0.0007158529789042224,0.0016815679423451931,0.00036659940759019543,0.0007595730758571189,-4.24203124582763e-05,-0.0005662570238971877,0.002158382298079722,0.6180303692817688,-52.59457778930664,5.409956932067871,17.97431182861328,-1.2122701406478882,-1.3346054553985596,-0.03382720425724983,,,,,,,,,
1739355281.557482,0.3568010613363082,1.1861742720223987,0.3051517988940857,-1.1629439491240585,-1.3992458709371094,1.0488030798619519,0.07718484494724578,0.0003612612265685615,0.0010146662107010861,0.00023067894952578027,-0.0007197209063666589,-0.0008383762558571087,-0.00032713666011210507,0.0013349908907393467,0.6180303692817688,-52.57077407836914,5.409956932067871,18.02191925048828,-1.2058614492416382,-1.3346054553985596,-0.013685601763427258,,,,,,,,,
1739355281.568471,0.3567993223367241,1.1861683866903887,0.3051557950596349,-1.1629403807902594,-1.3992451133309374,1.048803945741313,0.07719146907172221,0.0010088060823189478,-0.0006715880123911696,0.0012079922068638197,0.00020519435797343032,0.0002619953747565059,-0.000435422071397146,0.002436014056418383,0.6418340802192688,-52.51919937133789,5.386153221130371,17.97431182861328,-1.2122701406478882,-1.3419296741485596,-0.03382720425724983,,,,,,,,,
1739355281.5793908,0.35680090689916194,1.1861706158427687,0.30515416147082053,-1.16294295932236,-1.39924704831288,1.0488062587584686,0.07718417936273862,0.0005435942091522119,-0.0005174303103154899,0.0011038082208653956,-0.0013551235939782429,0.0003566019041166755,-0.00019712426401131576,-0.0017975319611526776,0.5902593731880188,-52.51919937133789,5.409956932067871,17.99811553955078,-1.2058614492416382,-1.3346054553985596,0.019273381680250168,,,,,,,,,
1739355281.5893908,0.3567972943998142,1.1861699022317682,0.30515610332970255,-1.1629386189053037,-1.399249808985136,1.0488062587764133,0.07718024181060172,-0.0009124450278562661,0.0009836001911052872,0.0012777195309612204,0.0011157154215868975,-0.0011583344241910955,0.0002884599776900653,-0.0018694180894051756,0.6656377911567688,-52.51919937133789,5.386153221130371,17.94654083251953,-1.1994527578353882,-1.3346054553985596,0.026597600430250168,,,,,,,,,
1739355281.5994728,0.3568019700053291,1.186166741947376,0.305152161392664,-1.1629422030455507,-1.3992444593948572,1.0488062587764138,0.07718774129010894,0.0012487103236502352,-0.000423233461679422,0.0001905296783143467,-0.000814017025623386,-0.00042059384440540387,-0.00022730236277524683,0.0009877972224704205,0.5902593731880188,-52.49142837524414,5.437727928161621,17.99811553955078,-1.2122701406478882,-1.3346054553985596,-0.0008682189509272575,,,,,,,,,
1739355281.6104589,0.35679904712909954,1.1861706246387416,0.30515426767212694,-1.1629403556077078,-1.3992452310109809,1.0488071246736461,0.07718458444008464,9.831274633191004e-05,0.0008958326742876435,0.0005993506551934742,0.000865744604524712,0.0005316061023430631,-0.00045615719373471913,-0.0002476307803496846,0.6418340802192688,-52.51919937133789,5.409956932067871,17.97431182861328,-1.2122701406478882,-1.3419296741485596,-0.0072769103571772575,,,,,,,,,
1739355281.6214175,0.3567961336485359,1.1861671659426993,0.3051521702217854,-1.16294046026296,-1.3992443686996405,1.048810303588034,0.07718342232259298,-0.001505665061801897,-0.0005892882535477419,-0.0009195653398133063,0.000816585847672636,4.5900645088119455e-05,0.0007757120308221424,-0.002251034529130576,0.6418340802192688,-52.46762466430664,5.437727928161621,17.97431182861328,-1.2186788320541382,-1.3419296741485596,0.026597600430250168,,,,,,,,,
1739355281.632517,0.35680005096883055,1.1861708803301414,0.3051551948556397,-1.1629413436232714,-1.3992451132773238,1.048806258830249,0.07718502024216141,-0.0012513009706552009,0.0001948155907422762,0.0008598941889908437,9.5196963961225e-05,-2.849857495191054e-05,-4.6273721599649224e-06,-0.0015149635704496407,0.6180303692817688,-52.51919937133789,5.409956932067871,17.97431182861328,-1.2122701406478882,-1.3346054553985596,0.012864691205322742,,,,,,,,,
1739355281.6434546,0.35679866939724525,1.1861760731429813,0.30515424216411463,-1.1629421737287156,-1.3992490498515684,1.0488071246736461,0.07718819705652677,0.00011681655336850163,0.0011514049187497373,0.0007085949296875494,0.0007276200217963145,-0.0015213349826986252,0.0004715537940898512,0.0011962566461858578,0.6180303692817688,-52.59457778930664,5.409956932067871,17.99811553955078,-1.2058614492416382,-1.3419296741485596,-0.013685601763427258,,,,,,,,,
1739355281.6546636,0.35679855464645743,1.186168923559971,0.30515424071314956,-1.1629413701129365,-1.3992458709551254,1.0488110612481125,0.07718961657891545,0.00017196971548486445,-0.001129262544060291,0.0005112099940904342,0.00024211063079070176,0.00019255903266016466,0.0019096687882215412,0.0015302966503506076,0.6180303692817688,-52.49142837524414,5.409956932067871,17.97431182861328,-1.2058614492416382,-1.3483383655548096,-0.013685601763427258,,,,,,,,,
1739355281.6653826,0.35679541824434274,1.1861701733604042,0.3051542061869436,-1.1629445823369802,-1.3992458709371807,1.0488058545443857,0.07719025693121162,-0.0008538331925321638,0.0004246346580602543,0.0007776075554873836,-0.0006586753927429304,0.00023901225294956432,-0.00037493280133723433,0.0038003215803260266,0.6418340802192688,-52.51919937133789,5.409956932067871,17.99811553955078,-1.2058614492416382,-1.3281967639923096,-0.020094294100999832,,,,,,,,,
1739355281.675423,0.35679787225043946,1.1861693967080944,0.30515567099958835,-1.1629450628049143,-1.3992451132771022,1.0488071072330383,0.07718614020250722,0.00047516894931375026,0.0001523720461952042,0.0005827629904206275,-0.000685968363801711,0.0003693541400315065,-0.00028455851971048864,0.000403791771360444,0.6180303692817688,-52.54300308227539,5.386153221130371,17.99811553955078,-1.2122701406478882,-1.3419296741485596,0.012864691205322742,,,,,,,,,
1739355281.6854837,0.3567998442741284,1.1861745087574316,0.305154228214375,-1.1629470460709748,-1.3992443556170238,1.0488078823334293,0.07717902296466483,0.0010447844326998078,0.00184803619568803,0.0003163782612517292,-0.001285069548331371,0.00031974474919085205,0.0007836135683137577,-0.001979349719326408,0.5902593731880188,-52.57077407836914,5.409956932067871,18.02191925048828,-1.2186788320541382,-1.3483383655548096,0.03941498324275017,,,,,,,,,
1739355281.696473,0.3567993309032761,1.186170774475053,0.30515420618687833,-1.16294047318086,-1.3992452311761776,1.0488071246736461,0.07718970333052001,0.00035175790193573754,-0.000558119055399007,-0.000584294459353067,0.0007103714983859733,0.0004420081133724464,2.1721688651822e-05,0.0002146971703098305,0.5664556622505188,-52.51919937133789,5.409956932067871,17.97431182861328,-1.2122701406478882,-1.3419296741485596,-0.027418512850999832,,,,,,,,,
1739355281.7065284,0.3567979247081201,1.1861725755155599,0.3051538192216033,-1.162944344884358,-1.3992451132790988,1.0488071246736461,0.07719045514746395,-0.00037703699000881725,0.0011390843822630232,-0.0002309150341704269,-0.0004712280689564966,0.00017380659040135206,-7.935113285543881e-05,0.0017143636700601632,0.6180303692817688,-52.54300308227539,5.386153221130371,17.99811553955078,-1.2122701406478882,-1.3419296741485596,-0.03382720425724983,,,,,,,,,
1739355281.717435,0.3567981357623833,1.1861724542909702,0.3051542424769237,-1.1629453719737113,-1.3992493518296196,1.048807318414543,0.077184840459403,-0.00023863698215861631,0.001752011636198611,0.00046474012083118517,-0.0007872131109103271,-0.001011344324076112,-0.0002553276238224482,-0.0020726415588751147,0.6180303692817688,-52.57077407836914,5.409956932067871,17.99811553955078,-1.2122701406478882,-1.3346054553985596,0.026597600430250168,,,,,,,,,
1739355281.7283864,0.35679713075470876,1.1861623583304732,0.3051521613553232,-1.1629432274841538,-1.3992486454281268,1.04880713776158,0.07718282861450187,4.1154556614822904e-05,-0.0024797243463658292,-0.0005150120175029967,-0.0003672718408639125,-6.691236044349333e-05,0.00044310269727974936,-0.0014152525150756114,0.6180303692817688,-52.44382095336914,5.437727928161621,17.99811553955078,-1.2122701406478882,-1.3419296741485596,0.04673920199275017,,,,,,,,,
1739355281.73846,0.3567961334759663,1.1861679335682886,0.30515601510963664,-1.1629412059523976,-1.39924587164302,1.0488062594226577,0.07718697004671418,-0.0009557996743167784,0.00010388518896604839,0.0015606411320087826,-0.00016597519898690563,-0.00047439819324886375,-0.00021892021816031642,0.0009105600365249034,0.6418340802192688,-52.49142837524414,5.386153221130371,17.97431182861328,-1.2058614492416382,-1.3346054553985596,-0.027418512850999832,,,,,,,,,
1739355281.7484958,0.35679417960532944,1.1861687768455387,0.30515037871415096,-1.1629413466883551,-1.39924662423662,1.0488095953202616,0.07718931102996691,-0.0015417876723387205,-0.000505205302002638,-0.000879057281880263,-0.00027440109895025355,0.0006551965216692098,0.00023881846969862224,-0.00018227511477051137,0.6656377911567688,-52.49142837524414,5.461531639099121,17.97431182861328,-1.1994527578353882,-1.3346054553985596,-0.020094294100999832,,,,,,,,,
1739355281.7594504,0.3567978460074479,1.1861686260913178,0.30515424118117374,-1.162948704789187,-1.3992459232649646,1.0488079363492593,0.07718914488343147,0.0002549770028864766,0.00010834231564215534,0.0008497816451311461,-0.00263262847353844,-0.0005053273013558304,0.0007518123410591893,0.0001476484118688937,0.6180303692817688,-52.51919937133789,5.409956932067871,18.04572296142578,-1.2058614492416382,-1.3483383655548096,-0.013685601763427258,,,,,,,,,
1739355281.7694705,0.3568032689911258,1.1861722118006064,0.305152158475133,-1.1629450609520426,-1.3992466290826617,1.048807124674561,0.07718705775300706,0.0019353996787152843,-0.0006697619541360266,0.00017148883580449242,-0.001077653620156475,0.000246058816653025,-7.254538695969517e-05,0.0007941129736896272,0.5426519513130188,-52.57077407836914,5.437727928161621,17.99811553955078,-1.1994527578353882,-1.3419296741485596,-0.020094294100999832,,,,,,,,,
1739355281.7803874,0.35679781951785716,1.1861679479609555,0.3051521869101932,-1.1629470588294726,-1.3992459106675565,1.0488071246736461,0.07718145770999023,0.0007455143805134235,-0.0008205409937448332,-0.0002223684681110546,0.0006209899043301355,-0.00040714090518682394,-0.00030416645148727224,-0.00012961392967350793,0.6180303692817688,-52.51919937133789,5.437727928161621,18.02191925048828,-1.2058614492416382,-1.3419296741485596,-0.020094294100999832,,,,,,,,,
1739355281.790483,0.3567961217138736,1.1861686414137418,0.3051542411816059,-1.162940722717974,-1.3992458709378532,1.0488104973289312,0.07718210182182127,-0.0004946564829869793,-0.0005726466400442552,-0.00016470406243059374,0.0009578083932048003,-0.0005562096831213774,0.002018977171228776,-0.001808028407474227,0.6418340802192688,-52.49142837524414,5.409956932067871,17.97431182861328,-1.2058614492416382,-1.3346054553985596,0.012864691205322742,,,,,,,,,
1739355281.801435,0.3567939877208008,1.18616793405558,0.3051542324326182,-1.1629452673077096,-1.3992426920766274,1.0488063765379103,0.07719024419595273,-0.0013013261206322015,-0.0015059755435942357,0.0012290012537859566,0.0005700853153804129,0.0005446597467403579,8.305541799178985e-05,0.0010073090678882194,0.6418340802192688,-52.49142837524414,5.409956932067871,17.99811553955078,-1.2058614492416382,-1.3346054553985596,-0.020094294100999832,,,,,,,,,
1739355281.81239,0.35679984393755054,1.186166732764986,0.30515353251212307,-1.1629449834449377,-1.3992466331014703,1.0488055403628567,0.07718118842213176,0.0009239864353251396,-0.0009529729437277948,-0.0005632754785441483,-0.0004331397063658854,0.00012517581534697098,0.0004950068440599985,-0.001837742998979024,0.5902593731880188,-52.49142837524414,5.409956932067871,17.99811553955078,-1.1994527578353882,-1.3281967639923096,0.026597600430250168,,,,,,,,,
1739355281.8224664,0.356796133488079,1.1861708763692183,0.3051542311245345,-1.1629435994343087,-1.3992455842274583,1.0488071246743107,0.07718809812168594,-0.0003701389455445233,0.0010553754425468294,0.0002704231709928778,-0.00040044031065874353,0.0008151273137790867,0.0006480192126910818,-0.00127777399137694,0.6418340802192688,-52.51919937133789,5.409956932067871,17.97431182861328,-1.2122701406478882,-1.3419296741485596,-0.0008682189509272575,,,,,,,,,
1739355281.8334172,0.35679712192275537,1.1861697366974655,0.30515400443412066,-1.1629446575959592,-1.3992476882380467,1.0488071246736461,0.07718485496355612,-0.0012814530305448992,0.0007813985357166334,0.00044468338866803365,-0.0008755007381165301,-0.00041790094442411234,-0.0007711740518600768,-0.0016393271274765396,0.6180303692817688,-52.54300308227539,5.409956932067871,17.99811553955078,-1.1994527578353882,-1.3419296741485596,0.026597600430250168,,,,,,,,,
1739355281.843481,0.35679784599654796,1.1861705363355117,0.3051557847269986,-1.162945373275492,-1.399245787381961,1.0488089426178762,0.07719199861573839,0.0007994142783398787,0.0009831272308042061,0.0006123674519661686,-0.0007767607896334734,-0.0006353113166093867,0.0005382679198980011,0.0008752203012502089,0.6180303692817688,-52.51919937133789,5.386153221130371,17.99811553955078,-1.2186788320541382,-1.3483383655548096,-0.03382720425724983,,,,,,,,,
1739355281.8535197,0.35679984296851686,1.186171886419694,0.30515355676147987,-1.162947153021192,-1.3992460293984041,1.0488078823516804,0.07718641108846667,0.00038066849025061573,-0.0003155770575440626,-0.0006126742658466346,-0.0009915895672137295,-0.001003659150997057,-0.00019528783527069093,0.0004668127799492406,0.5902593731880188,-52.54300308227539,5.386153221130371,18.02191925048828,-1.2058614492416382,-1.3483383655548096,-0.013685601763427258,,,,,,,,,
1739355281.8644307,0.35679609816680263,1.1861668612396845,0.3051542408432263,-1.1629453791745736,-1.3992475345323063,1.0488071246736461,0.07718535912167716,-0.00045713424439133626,-0.000650325195021011,5.05552396107905e-05,0.00011745326461494438,-0.0009882964000341894,-0.0003920741983020978,0.0007491429001731441,0.6418340802192688,-52.46762466430664,5.409956932067871,17.99811553955078,-1.2186788320541382,-1.3419296741485596,-0.013685601763427258,,,,,,,,,
1739355281.874482,0.3567961331604322,1.1861677518851257,0.3051542421623144,-1.1629471647950487,-1.3992445138969916,1.0488080000712945,0.07718762273793948,-0.0006040253265413316,1.670595876335256e-06,0.0003623770857280311,-0.0010302157927726146,0.00014729239999258944,0.0006547828882738064,-0.0012969711633580659,0.6418340802192688,-52.51919937133789,5.409956932067871,18.02191925048828,-1.1994527578353882,-1.3483383655548096,-0.0072769103571772575,,,,,,,,,
1739355281.8853924,0.3567976074812132,1.1861713945989396,0.3051542411811793,-1.162943599768109,-1.3992449970888152,1.0488071261278609,0.07718572150287852,-0.0005528444407701669,0.0007872695605798314,-0.0007543478483568888,0.00034663646552330154,0.0004934291581721377,-0.0003909897069270633,-8.165653054505412e-06,0.6180303692817688,-52.57077407836914,5.409956932067871,17.97431182861328,-1.2122701406478882,-1.3419296741485596,0.019273381680250168,,,,,,,,,
1739355281.895422,0.35679784600477094,1.1861640530393809,0.3051521613913182,-1.162948947472123,-1.399244355615056,1.0488078997763521,0.07718296789971638,0.0009681486923565867,-0.0010707740068934923,-0.0003237398107747084,-0.0005800982943906135,0.0012132944558045486,-0.00034725937837298403,-0.0012223856261210043,0.6180303692817688,-52.46762466430664,5.437727928161621,18.04572296142578,-1.2186788320541382,-1.3483383655548096,0.03941498324275017,,,,,,,,,
1739355281.9064467,0.3568014681672172,1.186168739887303,0.30515329633717503,-1.162941471007435,-1.3992465392637288,1.0488071247275796,0.07718885438140254,0.0021777422060016314,0.0007805071580351876,0.0005781606480822145,0.00084256073658062,-0.00170961884033675,0.0005353007861579451,0.0008615175334443169,0.5664556622505188,-52.51919937133789,5.409956932067871,17.97431182861328,-1.2122701406478882,-1.3419296741485596,-0.0072769103571772575,,,,,,,,,
1739355281.916504,0.35679981745422396,1.1861722458521133,0.3051503783422755,-1.1629471754795735,-1.3992454680158097,1.0488113637106828,0.07718961804699562,0.0009842749126660012,0.0010613924751367715,-0.00040696519469355817,-0.0004385498794491211,-0.0018213427138558567,0.0008712786946161095,0.00020672407256602104,0.5902593731880188,-52.54300308227539,5.461531639099121,18.02191925048828,-1.2122701406478882,-1.3419296741485596,-0.013685601763427258,,,,,,,,,
1739355281.927425,0.3568001500551825,1.186170854153677,0.305152115282176,-1.1629453821180995,-1.3992458753523338,1.048808640001779,0.07718409357146305,0.0010780377247424707,0.0007288071343244074,-2.8805756501920968e-05,-0.00034162521781676953,0.0006353158422204132,0.0006648970107198864,-0.0007782794633816265,0.5902593731880188,-52.51919937133789,5.409956932067871,17.99811553955078,-1.2058614492416382,-1.3547470569610596,0.03300629183650017,,,,,,,,,
1739355281.9375153,0.3567978371836766,1.1861733172635998,0.3051521584391307,-1.1629415225946442,-1.399248292191565,1.048809437690802,0.07719179598702595,0.0009650068513068151,0.000912621087301896,-0.00040639972765355644,0.0008340242055477922,-0.0003554181056899633,0.00010350519127680794,0.001256662662399309,0.6180303692817688,-52.54300308227539,5.437727928161621,17.94654083251953,-1.2122701406478882,-1.3346054553985596,-0.0008682189509272575,,,,,,,,,
1739355281.948528,0.35679623803463084,1.1861725977245263,0.305152152642746,-1.1629452677236918,-1.3992452834142612,1.0488074779581362,0.07718961806814931,0.0001822036162042475,0.0009909135527160077,-0.0003730030582817698,0.00024379306845025248,-0.0005534192568478084,0.00016128754711293783,0.0007868477318037016,0.6418340802192688,-52.54300308227539,5.437727928161621,17.99811553955078,-1.2122701406478882,-1.3419296741485596,-0.013685601763427258,,,,,,,,,
1739355281.959383,0.35679541823293204,1.1861649848193485,0.30515223762392274,-1.1629460972278158,-1.3992476889362062,1.0488062602319583,0.07718647895348325,9.864066749560088e-06,-0.0004294501679365679,0.00028174683914696246,-0.0006582412469618125,-0.0007951022261341427,-0.000745881322276294,0.0004983425446825618,0.6418340802192688,-52.46762466430664,5.437727928161621,17.99811553955078,-1.1994527578353882,-1.3346054553985596,0.012864691205322742,,,,,,,,,
1739355281.9694164,0.3568015554771353,1.186170774329391,0.3051482515205108,-1.162943519980311,-1.3992454665077687,1.04880550111636,0.07719263717504607,0.0014975718845630574,-0.00018710957449488363,-0.0019771405531605283,-0.00027087837770952414,0.000357818550562972,-0.0001722534839011756,0.0006636144798100285,0.5664556622505188,-52.51919937133789,5.461531639099121,17.97431182861328,-1.2122701406478882,-1.3281967639923096,-0.04023589566349983,,,,,,,,,
1739355281.9804792,0.3568012516494671,1.1861716127928905,0.3051542060429205,-1.1629453817896849,-1.3992432959848764,1.0488078823337246,0.07718855295330178,0.0010363893031425696,0.00022947831790160806,0.00019356019290480857,0.0007030780418756765,0.001981882432941596,0.0006966976250593983,-0.00013043751917948116,0.5902593731880188,-52.54300308227539,5.409956932067871,17.99811553955078,-1.2186788320541382,-1.3483383655548096,-0.013685601763427258,,,,,,,,,
1739355281.990508,0.35680122554095245,1.1861708499092412,0.30515424118097534,-1.1629436798950645,-1.3992458714157154,1.0488079217410868,0.07718020288767195,0.0009692333444547409,0.00021041376903574639,9.473005787967106e-05,-9.038457374180439e-05,0.0006746566628906894,6.369003481463702e-05,-0.001393074461553554,0.5664556622505188,-52.51919937133789,5.409956932067871,17.97431182861328,-1.2058614492416382,-1.3483383655548096,0.026597600430250168,,,,,,,,,
1739355282.001485,0.35679766249592487,1.1861686339409132,0.3051542411451714,-1.1629435997685633,-1.3992466501642316,1.0488056188541277,0.07719124103758136,0.0004589082652921768,-0.0017572191234390788,0.0011418287807767598,0.0006379220945997674,-0.001769825191265076,-0.00021594321349836362,0.001934777899252634,0.5902593731880188,-52.51919937133789,5.409956932067871,17.97431182861328,-1.2122701406478882,-1.3281967639923096,-0.027418512850999832,,,,,,,,,
1739355282.012467,0.3567968115411247,1.1861685706992673,0.30515113766631025,-1.162946449539363,-1.3992466286597698,1.0488062587770783,0.07718703795969514,-0.0011934421373822348,-0.0004368765671195038,-0.0005794195492241932,-0.0005022399370703166,0.00038977351277772165,0.00031065645005242304,0.00040482528612651304,0.6180303692817688,-52.49142837524414,5.437727928161621,18.02191925048828,-1.1994527578353882,-1.3346054553985596,-0.0008682189509272575,,,,,,,,,
1739355282.0234144,0.35679973754394584,1.1861701114936594,0.30515472018413015,-1.1629452727343859,-1.3992451133309378,1.0488104973289312,0.07719519242528794,0.0004274303081271927,0.0013437919348129258,0.00026459211018083745,3.2596849698416416e-05,-0.00039323257470413387,0.00010022648539120002,0.0015855925645912134,0.5902593731880188,-52.54300308227539,5.409956932067871,17.99811553955078,-1.2122701406478882,-1.3346054553985596,-0.03382720425724983,,,,,,,,,
1739355282.0343733,0.35679327148338286,1.1861671791211037,0.3051538979618998,-1.1629435199675833,-1.39924592617209,1.048808537548412,0.07719123675486787,-0.0010049874578711654,0.0007858873561457103,0.0005437531642157936,0.000782815188911742,0.00043559425601109316,0.0007796308236307689,0.0008952010219076901,0.6418340802192688,-52.46762466430664,5.386153221130371,17.97431182861328,-1.2058614492416382,-1.3419296741485596,-0.027418512850999832,,,,,,,,,
1739355282.0444791,0.35679976333817276,1.186168092675663,0.30515216124730904,-1.1629454174380045,-1.3992451714200473,1.0488071775098988,0.0771864198505781,0.0009807847145920671,-0.0004804906097816739,-0.0009929984628468905,-1.2470603987017268e-05,-0.0002334577443390201,-0.00038868696491620245,-0.0013714431326159941,0.5902593731880188,-52.49142837524414,5.437727928161621,17.99811553955078,-1.2122701406478882,-1.3419296741485596,-0.013685601763427258,,,,,,,,,
1739355282.055445,0.35679299578138557,1.1861705715917823,0.3051542667000644,-1.1629435994412598,-1.3992459088913205,1.0488071246739443,0.07718949871211865,-0.000812981442924801,-8.76796703753085e-05,0.0009245098764980133,0.000228021992373684,0.0016397320058128852,-0.0005748751616904899,-0.001661309467583108,0.6418340802192688,-52.51919937133789,5.409956932067871,17.97431182861328,-1.2058614492416382,-1.3419296741485596,-0.013685601763427258,,,,,,,,,
1739355282.0654767,0.35679960438778435,1.186170863100409,0.30515216139175033,-1.1629464869549628,-1.3992455071898615,1.0488071246736461,0.07718333883009129,0.00042389551316540327,0.00024705306683619143,0.0001964579137295248,-0.0007699348405908228,0.0022749661915400263,-0.0008845627338548655,-0.00013948093740926153,0.5902593731880188,-52.51919937133789,5.437727928161621,17.97431182861328,-1.2122701406478882,-1.3419296741485596,0.03941498324275017,,,,,,,,,
1739355282.0764694,0.35679980826365254,1.1861714652953832,0.30515424118117374,-1.1629435994573605,-1.3992412851498834,1.0488085375783203,0.07718485561262443,0.0012247073667470167,0.0007547269275318866,0.00062481821326095,0.0017464030425322422,0.0009626253193686116,0.0005318861497972548,-0.0015504697005861894,0.5902593731880188,-52.57077407836914,5.409956932067871,17.97431182861328,-1.2058614492416382,-1.3419296741485596,0.026597600430250168,,,,,,,,,
1739355282.0874064,0.35679752372018064,1.1861697132776854,0.305152126397096,-1.162948950415557,-1.399245871072799,1.0488077956715165,0.0771912416047216,0.0009109087510095456,0.0002948454457868827,-0.0005435174770238721,-0.0009115753311410142,0.0014700102435853681,0.0017159134183535219,0.002264755648199745,0.6180303692817688,-52.54300308227539,5.437727928161621,18.04572296142578,-1.2058614492416382,-1.3346054553985596,-0.027418512850999832,,,,,,,,,
1739355282.098429,0.35679697278274325,1.1861704575005232,0.30515216139072554,-1.1629436259320634,-1.3992490672193956,1.048807600010604,0.07718537497256601,0.001136222149526445,0.0013795372286515457,0.00046108468210555043,0.0004309191221775399,-0.0014925943204397787,0.0011415033375079472,-0.0006595041649084502,0.5902593731880188,-52.54300308227539,5.437727928161621,17.97431182861328,-1.2186788320541382,-1.3419296741485596,0.012864691205322742,,,,,,,,,
1739355282.10938,0.3567969446566014,1.186171883902154,0.3051540049581733,-1.1629477663160332,-1.3992499257605444,1.0488073200843284,0.07718561399649998,0.0005116757379604327,0.001449919292236017,-4.5610261058787725e-05,-0.0014939907392878446,-0.001213321521001003,0.00021776936376121978,5.207931409117268e-05,0.5902593731880188,-52.54300308227539,5.409956932067871,17.99811553955078,-1.1994527578353882,-1.3346054553985596,-0.0072769103571772575,,,,,,,,,
1739355282.119388,0.356795417747177,1.1861680939716954,0.30515420359381473,-1.162942884334716,-1.3992504672804016,1.0488113637286536,0.07718485539539213,-0.00018125147092668432,-0.0007576607083905121,0.0003033410375325193,0.0008117457276197626,-0.0007639438555748993,0.0009663467198617869,-0.0001234040705435169,0.6418340802192688,-52.49142837524414,5.409956932067871,17.97431182861328,-1.2058614492416382,-1.3419296741485596,0.026597600430250168,,,,,,,,,
1739355282.130447,0.35679888731978665,1.1861697028163105,0.30515037774160086,-1.162945346784698,-1.3992487648346652,1.0488067299599877,0.0771863083072694,0.0010803569557045172,0.000847837715744565,-0.0009328546987594903,0.0007033231659910231,0.0001550279547715617,0.0004727759013478745,-0.00070709256052479,0.5902593731880188,-52.54300308227539,5.461531639099121,17.99811553955078,-1.2122701406478882,-1.3346054553985596,0.012864691205322742,,,,,,,,,
1739355282.1404672,0.3567947190897822,1.1861693844496102,0.30515424118116824,-1.162948216649876,-1.3992451133515504,1.0488071266143728,0.077192400432893,0.0013244353118442213,-0.0014685214236911954,0.0005814226224621597,-0.0003173261686031036,0.002238742341956641,-1.1865194798725323e-05,0.0016855379518298426,0.6180303692817688,-52.54300308227539,5.409956932067871,17.99811553955078,-1.2122701406478882,-1.3419296741485596,-0.04023589566349983,,,,,,,,,
1739355282.1515007,0.3567967091692126,1.1861687437750332,0.30515601996994585,-1.1629453821340805,-1.3992452503953425,1.0488103166699974,0.07718810223834373,-0.00041172299998527503,0.0005359115513461815,0.0008851012002638724,0.00025980046276558445,0.0005436000570923356,-0.0003854311388218438,0.0013516821795544688,0.5902593731880188,-52.51919937133789,5.386153221130371,17.99811553955078,-1.2122701406478882,-1.3419296741485596,-0.0008682189509272575,,,,,,,,,
1739355282.1624765,0.35679751926935793,1.1861718590141412,0.30515145272229494,-1.1629414536738485,-1.3992483445739083,1.0488089812357295,0.07718800397825673,-8.977733730286574e-05,0.00011848607134644316,-0.0012783696693758934,0.00045270026541988057,0.0005532117677670176,0.000342421508547956,0.0002274828126308116,0.6180303692817688,-52.54300308227539,5.437727928161621,17.97431182861328,-1.2122701406478882,-1.3483383655548096,-0.027418512850999832,,,,,,,,,
1739355282.1734798,0.35679774000681425,1.1861697288805129,0.30515412744595116,-1.1629462033255167,-1.3992483572261993,1.0488062594286394,0.07719188332193487,0.0006827398838840327,0.001208175494210309,0.00010712681905522843,-0.0012759973923061347,-0.0011659116547835348,-0.0008391595676740032,-0.00022736168723428386,0.6180303692817688,-52.54300308227539,5.409956932067871,17.99811553955078,-1.2058614492416382,-1.3346054553985596,-0.0072769103571772575,,,,,,,,,
1739355282.1853812,0.35679698278076083,1.1861698523634114,0.30515594090828335,-1.1629471657808808,-1.3992487680009724,1.0488063784520543,0.07718723538661246,0.0005812573226349909,-0.0004760281963312813,0.0005569996462705481,-0.0005912711948909829,-0.0013082381690326396,0.0003308132023142218,0.000577650741475938,0.5902593731880188,-52.51919937133789,5.386153221130371,18.02191925048828,-1.2122701406478882,-1.3346054553985596,0.0064559997990727425,,,,,,,,,
1739355282.195413,0.35679662563194836,1.1861681721309574,0.30515211528077196,-1.1629471647951153,-1.3992451135005008,1.0488074793419329,0.07719199780441173,-0.0009600503522498195,-0.001633648424649801,0.0005449155423549771,-0.0005458167908734837,0.0008991014175589172,0.0003332183447083188,0.0023160153568810536,0.5902593731880188,-52.49142837524414,5.409956932067871,18.02191925048828,-1.2122701406478882,-1.3419296741485596,-0.03382720425724983,,,,,,,,,
1739355282.2054667,0.3567947186046111,1.1861697131823032,0.3051559450731898,-1.1629471649041148,-1.3992501109432494,1.0488067689745522,0.0771840585227245,-0.00042175771463869515,-0.0006025202482836608,0.00034054973444550636,0.0001499339414983144,0.00044485333673449656,-0.001467842142730897,-0.000761281006006982,0.6180303692817688,-52.54300308227539,5.386153221130371,18.02191925048828,-1.2058614492416382,-1.3346054553985596,0.03300629183650017,,,,,,,,,
1739355282.2164626,0.3567967175271238,1.1861736109374204,0.3051511704377333,-1.162945408645372,-1.3992505868164653,1.0488078089098785,0.07719118881505337,0.000998734643484873,0.0009129745286311931,-0.000673304304258464,-0.0012463416048547717,-0.002110655219774449,0.0008099922402003289,0.0008588286642275065,0.5902593731880188,-52.57077407836914,5.409956932067871,17.99811553955078,-1.2058614492416382,-1.3346054553985596,-0.027418512850999832,,,,,,,,,
1739355282.227397,0.356796953329318,1.18616643443945,0.30515392491975746,-1.16294359944121,-1.3992490518162566,1.04880992614627,0.07718961609985106,-0.0005716858773499831,-0.0007493730261619719,0.0006099916061475625,0.000815634040862212,0.000285795460755484,0.0024205180981080932,0.0016622380576166457,0.5902593731880188,-52.46762466430664,5.409956932067871,17.97431182861328,-1.2058614492416382,-1.3346054553985596,-0.013685601763427258,,,,,,,,,
1739355282.2374415,0.35679674043669074,1.1861687081433816,0.305152073889695,-1.1629445570399624,-1.399247554073687,1.0488104273261267,0.0771849089114959,0.00037069608512674404,0.00014706630357492047,-0.0003764962698769983,-0.00026390688128111027,-0.0013120196209050082,-0.00049938894999455,-0.0013492392483069099,0.5902593731880188,-52.51919937133789,5.437727928161621,17.97431182861328,-1.2186788320541382,-1.3419296741485596,-0.0008682189509272575,,,,,,,,,
1739355282.2483864,0.3567946312827948,1.1861624868323233,0.30515216137915274,-1.1629453831010277,-1.399244360001638,1.048809596133993,0.07719367068530303,-0.00039968315052233306,-0.0023139578044286645,-0.00013716850127505685,-0.00040227235355194685,0.0014441716982765624,-0.0007916771055255152,0.0018298686813789,0.6180303692817688,-52.44382095336914,5.437727928161621,17.99811553955078,-1.2186788320541382,-1.3346054553985596,-0.05396880581974983,,,,,,,,,
1739355282.2585306,0.3567983672541687,1.1861680137052135,0.3051503774182162,-1.1629457363780045,-1.399245428337328,1.0488099543552112,0.07718916729626571,0.001089590992168462,-0.0003318920960010704,-0.0011934531721779756,-0.0009535489729670515,0.0006192514312869199,0.0005147075707526003,0.0018181587770342133,0.5664556622505188,-52.51919937133789,5.461531639099121,17.97431182861328,-1.2186788320541382,-1.3346054553985596,-0.0008682189509272575,,,,,,,,,
1739355282.2694502,0.356795378262105,1.1861718824593406,0.3051541621201508,-1.1629453850776525,-1.3992462241519086,1.0488071813690596,0.07719001646000671,-0.00016706008104470883,0.00023950746927958743,0.0016846409522961376,0.00018943271326136716,0.0009352791154285446,-0.0007475847651241755,0.0009961570652749392,0.6180303692817688,-52.54300308227539,5.409956932067871,17.99811553955078,-1.2058614492416382,-1.3419296741485596,-0.020094294100999832,,,,,,,,,
1739355282.280408,0.3567949452536702,1.1861716585773143,0.30515216139087187,-1.1629438378596562,-1.39925133810205,1.0488072818188983,0.07718647916780537,0.0001993355039938733,0.0008165565402973968,0.0006829698226760857,2.445721017174321e-05,-0.0011804977033143958,-0.0006984178567445729,-0.0016963813531288292,0.6180303692817688,-52.57077407836914,5.437727928161621,17.97431182861328,-1.1994527578353882,-1.3419296741485596,0.012864691205322742,,,,,,,,,
1739355282.2904315,0.35679670488610515,1.1861745995724529,0.30515037741821677,-1.162945461703993,-1.399250884672135,1.0488115000240534,0.07718614604463274,0.0006779361514974803,0.0014662055796694558,-0.0005986849078723225,-0.000599917035618883,-0.002099895230814137,0.00032930408065968405,-0.0007654802010007759,0.5902593731880188,-52.57077407836914,5.461531639099121,17.99811553955078,-1.1994527578353882,-1.3419296741485596,0.012864691205322742,,,,,,,,,
1739355282.300494,0.3567977543819846,1.1861686403733878,0.3051531893261748,-1.1629436259333614,-1.3992467640110142,1.0488117354091233,0.07718612413353483,0.000564785514041572,-0.0004395564585049907,-2.9005940707855387e-05,0.0012471474400014616,0.0014450408968656446,0.00032140001055704326,-0.00041859472156134106,0.6180303692817688,-52.49142837524414,5.386153221130371,17.97431182861328,-1.1994527578353882,-1.3419296741485596,0.012864691205322742,,,,,,,,,
1739355282.3114412,0.35679685297910385,1.186175527203938,0.3051521350216436,-1.1629453644575936,-1.3992513833223836,1.048814028744828,0.07718396657189905,0.0008982119035096644,0.001917602062376345,-0.0006112698066979304,0.0010398395872339853,-0.002277694235641232,0.001994967282143322,-0.00048186981565623304,0.6180303692817688,-52.57077407836914,5.437727928161621,17.99811553955078,-1.1994527578353882,-1.3611557483673096,0.03300629183650017,,,,,,,,,
1739355282.3223693,0.356795378617492,1.1861687437257533,0.3051510917010293,-1.1629464152651559,-1.3992444125476646,1.048808197581376,0.07718039666526086,-0.0012197698009797947,0.0014320208443146366,-0.00040206174715452607,-0.00044527774699838405,-0.00013377119916747215,0.00015017819054307453,-0.0031275884144061814,0.6418340802192688,-52.51919937133789,5.409956932067871,17.99811553955078,-1.2186788320541382,-1.3419296741485596,0.019273381680250168,,,,,,,,,
1739355282.3323996,0.35679663427990393,1.1861701435620822,0.3051542119659852,-1.162945383443771,-1.3992475364704429,1.0488091572978906,0.07718646577412011,-0.0008981156483470237,-0.0007609892932796713,0.0005332742855840634,0.0008260012818523046,0.0004168235347296129,-0.00040762794598798026,-0.0008842063408295817,0.5902593731880188,-52.51919937133789,5.409956932067871,17.99811553955078,-1.2186788320541382,-1.3281967639923096,0.012864691205322742,,,,,,,,,
1739355282.3434668,0.3567949835142937,1.1861742555542896,0.30515037741772205,-1.1629415490856199,-1.399249534099174,1.0488066175048418,0.07719169037231667,0.0005740438304965504,0.0014096389625208375,0.0005336045575934436,0.002059598164085514,-0.001583354357926997,-0.0008165615851956308,0.0011801106608843733,0.6180303692817688,-52.57077407836914,5.461531639099121,17.94654083251953,-1.2058614492416382,-1.3281967639923096,-0.04023589566349983,,,,,,,,,
1739355282.3535368,0.3567968790910279,1.1861707748006722,0.3051497963291267,-1.1629438408032449,-1.3992490498722472,1.0488082486346886,0.07718469788732558,-0.000920059659849785,-7.468667345131676e-05,-0.0005271672892710194,0.00031699879268414416,-0.0007761502949865604,-0.000480201099030163,-0.0009824275809969685,0.6180303692817688,-52.51919937133789,5.437727928161621,17.97431182861328,-1.2058614492416382,-1.3483383655548096,0.026597600430250168,,,,,,,,,
1739355282.3644717,0.3568014372738162,1.1861649527679423,0.30515705965443407,-1.1629475632079247,-1.3992459947222373,1.0488105545039752,0.0771879460790221,0.0016854266026271486,-0.0010682814631368545,0.0012299233516316276,-0.0009786945095052342,0.0004605932501219182,-9.532085615015135e-05,0.0006642584328926819,0.5664556622505188,-52.46762466430664,5.362349510192871,17.99811553955078,-1.2058614492416382,-1.3346054553985596,0.0064559997990727425,,,,,,,,,
1739355282.3744893,0.35679688938903614,1.1861743585495939,0.3051554414963815,-1.1629443501640218,-1.3992469320309564,1.0488085900865483,0.07718810225236733,4.185372805610055e-05,0.00046893517444347575,0.0009521262164846978,0.00032808272314234336,0.00044301071878030825,-0.0009709622780852609,-0.00024857902106017045,0.6180303692817688,-52.57077407836914,5.362349510192871,17.97431182861328,-1.2058614492416382,-1.3419296741485596,-0.0008682189509272575,,,,,,,,,
1739355282.385416,0.35679976305419214,1.186165711758997,0.3051521493532039,-1.1629485610367052,-1.3992477394760368,1.0488071261354686,0.07719108193828085,6.249174649948465e-05,-0.0023414290937667248,-0.0008258893435657512,-0.001011175173185205,0.0007759080962517627,-0.0017655019683387022,0.0004814745779727158,0.5902593731880188,-52.49142837524414,5.437727928161621,17.99811553955078,-1.1930440664291382,-1.3419296741485596,-0.027418512850999832,,,,,,,,,
1739355282.3964307,0.35679686580674536,1.1861679290242937,0.30515328758855154,-1.1629454880998376,-1.3992484099848892,1.0488111069542008,0.07718808374151383,-0.001226916084794871,-0.0016782239505095126,-0.00010713502585965378,-0.0003059350112517339,-0.00026805688584676315,-7.215699638683738e-05,-0.0012490777111489617,0.6180303692817688,-52.49142837524414,5.409956932067871,17.99811553955078,-1.2122701406478882,-1.3483383655548096,-0.0008682189509272575,,,,,,,,,
1739355282.4064543,0.3567987802613324,1.1861677769479486,0.3051511902855037,-1.1629472445968019,-1.39924512657639,1.0488118536117224,0.07719025173851048,0.0008154371736725398,-0.002015272525734863,-0.0010283646334781542,-0.0006352432550394241,0.00010055161774292018,0.001162069353980987,0.0007421609403326895,0.5902593731880188,-52.51919937133789,5.437727928161621,18.02191925048828,-1.2122701406478882,-1.3419296741485596,-0.020094294100999832,,,,,,,,,
1739355282.416463,0.35679471569766447,1.1861678455920859,0.3051472690723886,-1.1629493193939797,-1.399246647978154,1.0488100989373539,0.07718494140469169,-0.0006948838557043933,-0.0021011912563026814,-0.0017004737363542773,-0.0019178073007416706,-0.000526547441173527,-9.927922161700385e-05,-0.001773374106099276,0.6180303692817688,-52.49142837524414,5.461531639099121,18.02191925048828,-1.1994527578353882,-1.3281967639923096,0.012864691205322742,,,,,,,,,
1739355282.426496,0.35679299431161704,1.1861708894700163,0.30515504396730986,-1.1629453864062023,-1.3992489536812966,1.0488092952624282,0.07718878643847962,-0.002150545691071545,-0.00023123061166393217,0.0012996451564068919,-0.00012499665566612864,-0.0009464719203269802,0.00039249229953882477,0.00139455488776529,0.6418340802192688,-52.51919937133789,5.386153221130371,17.99811553955078,-1.2186788320541382,-1.3483383655548096,-0.03382720425724983,,,,,,,,,
1739355282.437464,0.3567987753181406,1.1861684216864619,0.3051535325426432,-1.162944698565617,-1.3992486379635103,1.048808674650701,0.07718643966778768,-5.273206248767263e-05,-0.00043359199826353086,0.0011905999373442026,1.6570141430845156e-05,-0.0005677785528705288,0.0007718857438995734,0.0004554619221877146,0.5902593731880188,-52.51919937133789,5.409956932067871,17.94654083251953,-1.2186788320541382,-1.3419296741485596,0.012864691205322742,,,,,,,,,
1739355282.4484527,0.3567953456056448,1.1861681675559081,0.3051498081076389,-1.1629457456622825,-1.3992501066606065,1.048811735343776,0.07718632139623641,-0.00026764407444851516,-0.0006073435471709109,-0.0010564879173185651,-6.33515451302065e-05,-0.0018237054773964938,0.0016874076217959898,0.00045895011302603673,0.6180303692817688,-52.49142837524414,5.437727928161621,17.97431182861328,-1.2058614492416382,-1.3419296741485596,0.012864691205322742,,,,,,,,,
1739355282.459384,0.3567946273620471,1.186172599024597,0.3051559421917233,-1.1629476073702665,-1.3992462921302624,1.0488087637869417,0.07718490869435402,-0.0007153364508311456,0.0008156565957522875,0.0017051427183280559,-0.0007259254609115501,0.0007370105621322419,0.0003893138049328186,-0.0007184347363639184,0.6180303692817688,-52.54300308227539,5.386153221130371,17.99811553955078,-1.2122701406478882,-1.3547470569610596,-0.0008682189509272575,,,,,,,,,
1739355282.4695241,0.35679616465060343,1.1861716396126876,0.3051518201935029,-1.162945620976762,-1.399249826467692,1.0488073184208324,0.07718464311234656,-3.033472903193283e-05,-0.0007118570117339689,-0.00022050896323433164,-7.619353265794766e-05,0.000316936185631206,-0.0023246006184100185,-0.0013803608318659765,0.5902593731880188,-52.54300308227539,5.437727928161621,17.99811553955078,-1.1994527578353882,-1.3346054553985596,0.019273381680250168,,,,,,,,,
1739355282.4803686,0.35679470720548595,1.186172284224229,0.30515578721452363,-1.1629438388412352,-1.3992520354348437,1.0488066532468212,0.07718334029044681,-0.00020605013478379973,0.00027173483415934873,0.0007758992635994773,-0.0003426029373835546,-0.0013160884874936808,-0.0005458633686935574,-0.0014310932665775587,0.6180303692817688,-52.54300308227539,5.386153221130371,17.97431182861328,-1.1930440664291382,-1.3346054553985596,0.03941498324275017,,,,,,,,,
1739355282.4903886,0.3567968648089396,1.186167762677736,0.30515412442175205,-1.1629456602226345,-1.399249707220636,1.0488076368145298,0.07718886022495973,-0.0006071377619262957,-0.0011256341420772826,0.0003233644534870555,-0.00025059240522388147,0.0002686984157157533,-0.0012082866260679076,0.0010202944133264492,0.5902593731880188,-52.51919937133789,5.409956932067871,17.99811553955078,-1.2122701406478882,-1.3419296741485596,-0.0072769103571772575,,,,,,,,,
1739355282.5004208,0.3567947069439246,1.1861660037619888,0.3051559450112087,-1.1629471662170199,-1.3992493538454853,1.0488133690474484,0.07719037522069852,0.0003575158153907861,-0.0012866036153380623,0.0013769738512350697,-0.0014696147850931443,-0.00041989176376027387,0.001694182888564844,0.0017301488143364441,0.6180303692817688,-52.49142837524414,5.386153221130371,18.02191925048828,-1.2122701406478882,-1.3547470569610596,-0.020094294100999832,,,,,,,,,
1739355282.5104291,0.3567983382569897,1.1861685609606458,0.3051519251789832,-1.1629435994410844,-1.39924988002469,1.0488072998257847,0.07718211936457836,0.000230166418847632,0.0014072372100373339,-0.0015643013904210567,0.00010581817414995117,-0.0013233978015508038,-0.002463417595215258,-0.0011068028750771477,0.5664556622505188,-52.49142837524414,5.437727928161621,17.97431182861328,-1.2122701406478882,-1.3419296741485596,0.04673920199275017,,,,,,,,,
1739355282.5215378,0.3567994985316243,1.1861642903074654,0.3051529007571433,-1.1629453819000468,-1.3992468822417492,1.0488114218556563,0.07718343117971706,0.0006123553445498396,-0.00219749376541515,1.8547816208726526e-05,-0.00018902568514639044,0.0006671303305665276,5.4889671639060864e-05,-0.0031400674237986982,0.5902593731880188,-52.46762466430664,5.386153221130371,17.99811553955078,-1.1994527578353882,-1.3419296741485596,-0.0008682189509272575,,,,,,,,,
1739355282.5324001,0.356795351461567,1.1861668258080016,0.30515424117529705,-1.162947527885291,-1.3992505848728858,1.0488103624559324,0.07718804778038203,-0.00014578353805434681,-0.0010482467007872404,0.00031152291661121917,-0.001037358647454415,-0.0007622823170206183,0.0007795935791558523,0.00034483408292378456,0.6180303692817688,-52.46762466430664,5.409956932067871,17.99811553955078,-1.2058614492416382,-1.3419296741485596,-0.027418512850999832,,,,,,,,,
1739355282.5433774,0.35679748838502934,1.1861701743390158,0.30515215163469855,-1.162948225898891,-1.3992491195738124,1.048808956579469,0.0771896173261334,-0.0001402434168748907,0.0003632838809299485,-1.1191364890465033e-05,-0.0019191792233214525,-0.0011077043665310665,-0.0004072665511852822,0.0004757882328212108,0.6180303692817688,-52.51919937133789,5.437727928161621,18.02191925048828,-1.2186788320541382,-1.3483383655548096,-0.013685601763427258,,,,,,,,,
1739355282.5535333,0.3567971204994875,1.1861688882642776,0.30515423243245293,-1.1629471648130685,-1.3992489626444535,1.0488076774596462,0.0771893111022939,0.00046870084642803303,-0.0011653384656799904,0.000502216379075422,0.0002882053018434923,0.0001271464437316486,-0.0012927920837581244,-0.0005096546997796429,0.6180303692817688,-52.49142837524414,5.409956932067871,18.02191925048828,-1.2186788320541382,-1.3346054553985596,-0.020094294100999832,,,,,,,,,
1739355282.5643742,0.35679670478577913,1.186168776534696,0.30515389392689035,-1.1629457382742285,-1.3992480585353646,1.0488112378355583,0.0771919457121189,5.4975687577068924e-05,-0.0006797728746974381,0.0006925316302323825,-7.954547042516598e-05,-0.0002638316997938176,4.519949751401089e-06,0.0011727749972735503,0.5902593731880188,-52.49142837524414,5.386153221130371,17.99811553955078,-1.2186788320541382,-1.3483383655548096,-0.03382720425724983,,,,,,,,,
1739355282.574425,0.3567966262813381,1.1861678555633297,0.30515000035402157,-1.1629436789199514,-1.3992458253805373,1.048809466921824,0.07718926269121155,0.00019868499502426749,-0.0007420889300904594,-0.0005467904507127983,0.0011834664954400841,0.0008393872613450129,-0.00011430052744423365,0.0006547257259080603,0.5902593731880188,-52.49142837524414,5.437727928161621,17.97431182861328,-1.2186788320541382,-1.3483383655548096,-0.013685601763427258,,,,,,,,,
1739355282.5845134,0.3567946286662044,1.1861701713800248,0.3051552800863674,-1.1629454645357242,-1.3992472852664604,1.0488106737198628,0.0771864733223603,6.106707264016902e-05,-0.000709751080681344,-0.000254830726261764,-2.5988776776016972e-05,0.0001466191995776469,-0.0005446119896605906,-0.0005030589239158284,0.6180303692817688,-52.51919937133789,5.386153221130371,17.99811553955078,-1.2058614492416382,-1.3346054553985596,0.012864691205322742,,,,,,,,,
1739355282.5953832,0.35679537891616936,1.1861688916437316,0.3051521584625371,-1.162937594151809,-1.3992479547555012,1.0488077958998134,0.0771792791192316,0.00020292343613388019,0.0009408663252425115,0.00037832172275130736,0.001952179743600394,0.0008549917919304359,-0.00011576351444414091,-0.002062460658420445,0.6180303692817688,-52.49142837524414,5.437727928161621,17.92273712158203,-1.2250875234603882,-1.3346054553985596,0.04673920199275017,,,,,,,,,
1739355282.6054275,0.356796786047576,1.186168865055925,0.3051492481223057,-1.162947442738148,-1.3992485957015206,1.0488063786222332,0.07718369508874538,-0.0004341770221604512,-0.0008408990092078087,0.00012039207380636069,-0.0018548117135058404,-0.00017774201944133463,-0.0018812517296069786,-0.00036599735480162413,0.5902593731880188,-52.49142837524414,5.437727928161621,18.02191925048828,-1.2186788320541382,-1.3346054553985596,0.03941498324275017,,,,,,,,,
1739355282.6154625,0.35679655875319244,1.1861657008582829,0.30515181982429496,-1.1629467914421074,-1.3992471172234533,1.0488064173769256,0.07718949960158182,0.00015722484891599102,-0.000425971857577037,-0.00047994487776789027,-0.0008948189496320702,-0.0001175318720517813,-0.000799742040028895,0.0004506985121050167,0.5902593731880188,-52.49142837524414,5.437727928161621,17.97431182861328,-1.1994527578353882,-1.3346054553985596,-0.013685601763427258,,,,,,,,,
1739355282.6264565,0.3567967734162118,1.1861677861762827,0.3051500004961708,-1.1629436082893971,-1.3992484492315103,1.0488110269604678,0.07718473732249927,-0.000448504933600164,-0.0008866625358684268,-0.0009533993480054594,0.00090922898391865,0.0009256527347156703,9.800937969844115e-05,-0.0008553022240569151,0.6180303692817688,-52.51919937133789,5.437727928161621,17.97431182861328,-1.2122701406478882,-1.3346054553985596,0.026597600430250168,,,,,,,,,
1739355282.637394,0.35679291484937586,1.1861705584968216,0.30515211516197155,-1.1629457030620238,-1.3992456300061284,1.0488121797011905,0.07718845453030271,-0.0015440792987246143,-0.0006216193873261303,-7.174799115769361e-07,-0.0002703333499820403,0.0010497976142110354,0.000537469282164163,0.00010514472112867321,0.6418340802192688,-52.51919937133789,5.409956932067871,17.99811553955078,-1.2122701406478882,-1.3483383655548096,-0.04023589566349983,,,,,,,,,
1739355282.6474404,0.3567966252988458,1.1861708894821243,0.3051557088741889,-1.1629457541530415,-1.3992513644342168,1.0488076501240835,0.07719275490486517,-0.00019924940533338825,0.0006720844827493438,0.001021578728504444,0.0013880204830625663,-0.0013749091187403675,0.00030152322516962757,0.00042369369051867907,0.5902593731880188,-52.51919937133789,5.386153221130371,17.97431182861328,-1.1994527578353882,-1.3419296741485596,-0.04023589566349983,,,,,,,,,
1739355282.6574447,0.35679877117507375,1.1861688915468764,0.3051511378049853,-1.1629436024209898,-1.3992483530845188,1.0488123050488938,0.07719072901700665,0.0004323613155066048,0.0006290487168117069,-0.0011810229363792678,0.0002155020443693133,-0.0011770522624535507,0.0009099971748300606,0.0013599897949492716,0.5902593731880188,-52.49142837524414,5.437727928161621,17.97431182861328,-1.2250875234603882,-1.3547470569610596,-0.027418512850999832,,,,,,,,,
1739355282.6693993,0.3567948657886852,1.1861667366222994,0.30515602244832546,-1.1629444211330313,-1.3992456300141398,1.0488118915854496,0.07719021360421795,0.00018593640485233974,-0.0006510212261312683,0.0022163431820561956,0.00014117168613499468,0.0008816441370511388,0.0011258296103076736,0.000867521558908641,0.6180303692817688,-52.49142837524414,5.386153221130371,17.97431182861328,-1.2122701406478882,-1.3419296741485596,-0.020094294100999832,,,,,,,,,
1739355282.679475,0.35679291483860726,1.1861639959569759,0.3051513716549476,-1.1629436789185585,-1.3992456384961747,1.0488126490364074,0.07719124160380653,-0.0007840330023366873,-0.0017639031366506101,-0.0005471058165734686,-0.00010839673039144478,0.0015692523379147985,0.0014261649270876616,0.0006690567700431682,0.6418340802192688,-52.46762466430664,5.409956932067871,17.97431182861328,-1.2122701406478882,-1.3483383655548096,-0.027418512850999832,,,,,,,,,
1739355282.6904469,0.35679662497785325,1.1861722837356672,0.3051502999250984,-1.1629436272406575,-1.3992480128765243,1.0488110269864808,0.07718184965444265,-0.00016024017934267675,-0.00012139351217864294,-0.00033104496430928223,0.0007266735742605879,0.00016655217941411777,-0.0005033435544252535,-0.002819581939377166,0.5902593731880188,-52.54300308227539,5.461531639099121,17.97431182861328,-1.2250875234603882,-1.3346054553985596,0.012864691205322742,,,,,,,,,
1739355282.7004623,0.35679461612931146,1.1861696495154723,0.30514745280716643,-1.1629483353692627,-1.3992456429286755,1.0488126332627008,0.07718572143146384,-0.0010265510560842806,-0.0005965029050519281,-0.0013088368042381547,-0.00013926125579874824,-0.0011767608725426154,0.0009370609446747787,-0.0013278246793985839,0.6180303692817688,-52.54300308227539,5.461531639099121,17.99811553955078,-1.2122701406478882,-1.3483383655548096,0.019273381680250168,,,,,,,,,
1739355282.711405,0.3567966252987822,1.1861688916392272,0.3051500354758043,-1.1629476075201772,-1.3992491232648205,1.048812650166856,0.07718428889301335,8.335465368214574e-05,-0.0006186846666677169,-0.001245333258086127,0.0005162561999786193,-0.0009110413305179152,0.0019328029327055725,-0.001809028048615456,0.5902593731880188,-52.49142837524414,5.437727928161621,17.99811553955078,-1.2186788320541382,-1.3483383655548096,0.019273381680250168,,,,,,,,,
1739355282.7214377,0.3567966517897988,1.1861725751904604,0.30515213122140206,-1.1629475674958842,-1.399249207561758,1.0488108637043367,0.07719129799721777,-0.0002485333071671416,0.0006195755465069213,-0.00109793012691909,-0.001433071034855132,0.00023036837707508738,-0.0007019580899520952,0.001805161719518894,0.5902593731880188,-52.54300308227539,5.437727928161621,17.99811553955078,-1.2058614492416382,-1.3346054553985596,-0.04023589566349983,,,,,,,,,
1739355282.7324042,0.3567974883810913,1.1861685443299115,0.30515317625719657,-1.162946460476346,-1.3992491195660375,1.0488099629867873,0.07718643973177604,0.0006114899126595177,-0.0006435081823496883,3.806267724441935e-05,0.0007916020721652361,-0.0001771061221382318,0.0005359305169655037,-0.00016320910769798209,0.6180303692817688,-52.49142837524414,5.386153221130371,17.97431182861328,-1.2186788320541382,-1.3346054553985596,0.012864691205322742,,,,,,,,,
1739355282.7443757,0.3567968735450394,1.1861671761897636,0.3051542411290966,-1.1629454910414823,-1.3992479059134746,1.0488087141248328,0.07718977511731394,0.00017511377725255845,-0.0005697312383421966,0.0007142149926211908,0.000779591307818486,-8.45835504719059e-05,0.0012022182949484798,0.0009934226123768848,0.5902593731880188,-52.46762466430664,5.409956932067871,17.99811553955078,-1.2186788320541382,-1.3419296741485596,-0.013685601763427258,,,,,,,,,
1739355282.7544403,0.35679262827637387,1.1861685438939484,0.30515686169121226,-1.1629416265980088,-1.3992488045473237,1.0488118923453704,0.07719017700219852,-0.00040837963003372766,-6.260819850453401e-05,0.001188836409735773,0.0011877403473349321,-0.0006584288959042038,0.0005183470318105017,0.0012767616256563602,0.6180303692817688,-52.49142837524414,5.362349510192871,17.94654083251953,-1.2122701406478882,-1.3419296741485596,-0.027418512850999832,,,,,,,,,
1739355282.7644858,0.3567965877314562,1.1861717681410622,0.3051492118266841,-1.162940452375882,-1.3992495748193854,1.0488102694879133,0.07718849801134836,-3.118000386973798e-05,0.00025518077486347284,-0.0015767071240681192,0.0028397179176617364,-0.0014804592873969194,0.0003551672540697635,0.0006822631224033351,0.5902593731880188,-52.54300308227539,5.437727928161621,17.92273712158203,-1.2058614492416382,-1.3281967639923096,-0.04023589566349983,,,,,,,,,
1739355282.7754412,0.35679666454449016,1.1861676989038947,0.3051519241556041,-1.1629466998677735,-1.399245153243725,1.0488110271479958,0.07718884278472801,0.000937140475900052,-8.543785011696538e-05,-3.893234679655955e-06,0.0005204123689287819,-0.00011212520615491386,0.0002680550398289725,-0.00043589330683838296,0.5902593731880188,-52.51919937133789,5.437727928161621,17.97431182861328,-1.2122701406478882,-1.3346054553985596,-0.0072769103571772575,,,,,,,,,
1739355282.7864203,0.3567946283398036,1.186170558569322,0.30515216106327997,-1.1629456599440373,-1.39925028553146,1.0488114812059917,0.07718961642437625,-0.0006167095970151188,-0.0009334688387001363,4.7530322253134605e-05,-0.0012778582991323513,0.00011030476018302286,-0.000795883205142633,0.0011372919603607795,0.6180303692817688,-52.51919937133789,5.437727928161621,17.99811553955078,-1.2058614492416382,-1.3419296741485596,-0.013685601763427258,,,,,,,,,
1739355282.7964566,0.3567955898626322,1.1861716394656212,0.3051521575030694,-1.1629494256850583,-1.3992474545781763,1.048812493719555,0.07719124160471244,-0.00038134719760849216,0.0011163830861803143,-0.0007829176227341896,-0.0007914432242021013,-0.0009020379753988873,0.00038758019421483096,0.0025707293208471044,0.6180303692817688,-52.54300308227539,5.437727928161621,18.02191925048828,-1.2058614492416382,-1.3483383655548096,-0.027418512850999832,,,,,,,,,
1739355282.807513,0.35679833782501014,1.1861685707065663,0.30515601510961526,-1.162944317762016,-1.3992501664562729,1.0488118930443417,0.07718961610014906,-4.703822136671999e-05,-0.0015367565959472653,0.001135665112575123,0.0010534956525430962,0.0007567064159258293,0.001683947145853146,0.0009529139440014433,0.5664556622505188,-52.49142837524414,5.386153221130371,17.97431182861328,-1.2058614492416382,-1.3419296741485596,-0.013685601763427258,,,,,,,,,
1739355282.818441,0.35679462779405763,1.186170880764618,0.3051475815428396,-1.1629463397210364,-1.3992448708979166,1.0488087010488878,0.0771927416721791,-0.0005217326514260978,0.0004394787292619275,-0.0021468673746682255,-0.0005748942948222567,0.0017439305586163844,-0.0008213506374581121,0.0016228681950166196,0.6180303692817688,-52.51919937133789,5.489302635192871,17.99811553955078,-1.2186788320541382,-1.3419296741485596,-0.04023589566349983,,,,,,,,,
1739355282.8284552,0.356796862754455,1.1861688828254273,0.3051535567533807,-1.1629478766445511,-1.3992506348760851,1.0488118929911714,0.07718960052267729,-0.0004396321201976292,0.0004357495983064771,0.00035323960665575296,-0.0002656790060596287,-0.0007443956640664444,0.00074703110769395,0.0009285192904342216,0.5902593731880188,-52.49142837524414,5.386153221130371,17.99811553955078,-1.2058614492416382,-1.3419296741485596,-0.013685601763427258,,,,,,,,,
1739355282.8394153,0.356794627359333,1.1861708861808549,0.30515212638316913,-1.1629485643170372,-1.3992494614485214,1.0488110227873446,0.07718612284097627,-0.0009389203051694854,0.0005738046805054974,-0.00034646968374514857,-0.0015803490334868045,-0.000668331459100107,-0.0003553682212390751,-0.0013504564027741175,0.6180303692817688,-52.51919937133789,5.437727928161621,17.99811553955078,-1.2058614492416382,-1.3346054553985596,0.012864691205322742,,,,,,,,,
1739355282.850417,0.3567945503379989,1.1861708091427223,0.3051519248561003,-1.1629453822813982,-1.3992510435879764,1.048812297492572,0.07718424758287219,-0.0003380702764935004,0.0008076422860890306,-0.0006857434496061231,0.0012314874963039383,-0.0010955935898252563,0.00029040480779897123,-0.0014132349055250766,0.6180303692817688,-52.51919937133789,5.437727928161621,17.99811553955078,-1.1994527578353882,-1.3483383655548096,-0.0072769103571772575,,,,,,,,,
1739355282.860454,0.35679662529754125,1.1861688797717589,0.3051541358704809,-1.1629446201828986,-1.3992493540039603,1.048811027142014,0.07719120193451912,-0.0002866284290433429,0.0008831100822387597,0.0013009167181973914,-1.3626541714985242e-05,0.0008532551600985915,0.0002052706173272431,0.0006202906882954648,0.5902593731880188,-52.49142837524414,5.409956932067871,17.94654083251953,-1.2122701406478882,-1.3346054553985596,-0.027418512850999832,,,,,,,,,
1739355282.8713884,0.35679657411570753,1.1861679376544623,0.30515390184718466,-1.1629436122498051,-1.3992498816457057,1.0488118923992058,0.07719112331503286,0.0016931678406280275,-0.0003099664684190067,0.0006882445856780181,-0.0001086018277308564,-0.0021378737590454656,0.0008397147296569913,0.0017268119044004321,0.5902593731880188,-52.49142837524414,5.386153221130371,17.97431182861328,-1.2122701406478882,-1.3419296741485596,-0.027418512850999832,,,,,,,,,
1739355282.8823898,0.3567946537779982,1.1861667192469891,0.3051560150976584,-1.1629422479889666,-1.399248651100259,1.0488102694879136,0.07718375829512532,-0.0006213210125680368,-0.0006452158729646647,0.0010244162426741783,0.0008198514371653405,0.0009451206332389166,-2.8689304838907517e-05,-0.00011786130005779559,0.6180303692817688,-52.49142837524414,5.386153221130371,17.94654083251953,-1.2186788320541382,-1.3281967639923096,0.012864691205322742,,,,,,,,,
1739355282.8924403,0.35679462735844,1.1861668523766171,0.30514824989896855,-1.1629482082021383,-1.39924831180641,1.0488119064542292,0.077190203240008,0.00037941216436616877,-0.0012994215602769195,-0.002150009997619896,-0.001029983941473296,0.0013015358977519897,0.0007252959260037549,-0.0002836409010794738,0.6180303692817688,-52.46762466430664,5.461531639099121,18.02191925048828,-1.2122701406478882,-1.3419296741485596,-0.027418512850999832,,,,,,,,,
1739355282.9024827,0.35679696968123764,1.186172282803295,0.30515567698325263,-1.162947563333249,-1.3992469850568585,1.0488094595002573,0.07719036254663053,0.0003445477548786095,-0.00016963346221661164,0.0008954359900009495,-0.0013647200038452657,0.0007505766304027207,-0.001273683964369763,0.0011860957764645574,0.5902593731880188,-52.54300308227539,5.409956932067871,17.99811553955078,-1.2058614492416382,-1.3217880725860596,-0.020094294100999832,715,730,730,40.631,0,0
1739355282.9134398,0.35679462735993656,1.1861708886137987,0.30514898228954623,-1.1629484854965064,-1.3992495277693238,1.0488126507050113,0.0771852046394977,1.0220493729346436e-05,0.0012747588263154444,-0.0007744228399490002,-0.0013953807702509562,-0.000963703752218759,0.00034864908204876137,-0.0014290973884464396,0.6180303692817688,-52.51919937133789,5.437727928161621,17.99811553955078,-1.2122701406478882,-1.3483383655548096,0.026597600430250168,714,730,732,40.740,0,0
1739355282.9244409,0.3567946272153293,1.1861660303058912,0.3051499564133546,-1.1629463359552696,-1.3992506393067647,1.0488108334070987,0.07719356903822075,-0.0006203003026836883,-0.00130624062605547,-0.0017839548108300903,-0.0006728564508933398,-0.000467566443775113,0.00011864404834199295,0.0013559314283390002,0.6180303692817688,-52.49142837524414,5.437727928161621,17.99811553955078,-1.2058614492416382,-1.3419296741485596,-0.020094294100999832,714,729,732,40.631,0,0
1739355282.9344876,0.3567984172924341,1.186170651020695,0.3051563864790167,-1.1629467018421813,-1.399245130241163,1.048811893027283,0.077184657121024,0.0014511816986746934,0.0002755208395797172,0.000846142578305857,-0.00015503119606210126,0.0011657750054188368,0.0004025402740846177,-4.642438527950436e-05,0.5664556622505188,-52.51919937133789,5.409956932067871,17.97431182861328,-1.2250875234603882,-1.3419296741485596,0.019273381680250168,715,733,731,40.631,0,0
1739355282.9453652,0.3567946002880867,1.1861717379438734,0.305149246874689,-1.1629439305773195,-1.3992505985372525,1.0488110271479956,0.07718647916382482,-5.601300568541283e-05,-0.0010318680641177112,0.0009726342725547587,-0.00019101659247753135,-0.0022569626344204887,0.00010819953295069295,0.0005167620381163404,0.6180303692817688,-52.57077407836914,5.437727928161621,17.97431182861328,-1.2058614492416382,-1.3346054553985596,0.012864691205322742,714,729,731,40.740,1,0
1739355282.9553773,0.3567966137426627,1.1861685353422593,0.3051531766400367,-1.162945462032612,-1.3992491239879152,1.0488118928837225,0.07718850389620154,-0.0002773113087127321,-0.0009214045535884084,0.00016426060768340886,0.0011540926000740029,-0.00037110007756054926,0.0005249963395901776,-0.0012537304010188661,0.5902593731880188,-52.49142837524414,5.386153221130371,17.99811553955078,-1.2186788320541382,-1.3419296741485596,-0.0072769103571772575,715,729,732,40.740,0,0
1739355282.965507,0.35679689020818217,1.1861699489054618,0.3051542031145416,-1.1629467267921068,-1.3992502854500304,1.0488110271479931,0.07718810126074309,0.00021563565146481313,-0.00011545911226501851,0.0016933642121734558,-0.0009888483705290693,-0.002046522103220867,0.00014191624161007547,-0.00016785399259098722,0.5902593731880188,-52.46762466430664,5.409956932067871,17.97431182861328,-1.2058614492416382,-1.3346054553985596,-0.0008682189509272575,714,730,731,40.740,0,0
1739355282.9764054,0.3567929151658055,1.1861708630850911,0.30515214843028027,-1.1629471776039948,-1.3992466891658297,1.0488110271479958,0.07718252027289434,-0.0013468075954816612,-0.0001384660336151344,-0.0006281352204473036,2.2820973162843497e-05,-0.0006421828256599101,0.00030911846449184315,-0.002985124729163217,0.6418340802192688,-52.51919937133789,5.437727928161621,18.02191925048828,-1.2122701406478882,-1.3346054553985596,0.03300629183650017,713,730,730,40.740,1,0
1739355282.9874225,0.35679461901825354,1.1861724542906713,0.3051511115644335,-1.1629485610326844,-1.3992499651677837,1.0488126507053066,0.07718408935209123,-7.145214386024456e-05,0.0018781494839731569,-0.0009851195897960317,-0.0002892155107560145,0.0004249751482917516,0.0007489627539986931,-0.0023308382551055482,0.6180303692817688,-52.57077407836914,5.437727928161621,17.99811553955078,-1.1994527578353882,-1.3483383655548096,-0.0072769103571772575,715,727,731,40.522,0,0
1739355282.9984863,0.3567966252988299,1.1861704460987001,0.3051501391531114,-1.1629457574725277,-1.3992454709285214,1.0488110271479958,0.07719275837626449,0.0002147008922558527,0.0005605620425007331,-0.000258990274604236,0.0003338636443538508,0.001208667379636635,-2.277081682779418e-05,0.001833829288360064,0.5902593731880188,-52.54300308227539,5.461531639099121,17.97431182861328,-1.2122701406478882,-1.3346054553985596,-0.04023589566349983,715,725,731,40.631,0,0
1739355283.0095255,0.35679451830508646,1.1861722157150152,0.30515207973678077,-1.1629484830253403,-1.3992480643255778,1.0488110271479958,0.07718581735634243,0.0003368865313676955,0.0008646940777151321,0.0005818027911990768,0.00027429911730375567,0.00010655381662542804,-5.168936855596667e-05,-0.0006557509716277666,0.5902593731880188,-52.57077407836914,5.437727928161621,17.99811553955078,-1.2186788320541382,-1.3346054553985596,0.0064559997990727425,714,728,737,40.848,0,0
1739355283.0203726,0.35679454941830885,1.1861724957768187,0.3051521494020959,-1.162950355973152,-1.3992464007502632,1.0488126507053066,0.07718298541606868,-0.001069222349695741,-8.439711059267873e-05,0.0003603953584504946,-0.0016170592465465355,0.0006594473319522248,0.00047108585024579,-0.0008375367780618348,0.6180303692817688,-52.54300308227539,5.437727928161621,18.02191925048828,-1.2058614492416382,-1.3483383655548096,0.03941498324275017,714,729,732,40.631,1,0
1739355283.0303981,0.3567994490914192,1.1861688121812342,0.30514898534143237,-1.162946566808914,-1.3992479956014345,1.0488110271479958,0.07718636087435868,0.001110244233916581,0.00015142039071502146,-0.0005648148786406411,-0.00024356028605909008,-0.0007250623294210902,-0.00024760371874352584,7.73878987950962e-05,0.5902593731880188,-52.49142837524414,5.437727928161621,17.97431182861328,-1.2250875234603882,-1.3346054553985596,0.012864691205322742,714,729,732,40.631,1,0
1739355283.0404263,0.35679662502567444,1.1861659246677867,0.3051539931436398,-1.1629454100764969,-1.3992487693160673,1.0488118930452281,0.07719188097333181,0.0005019863631459366,-0.0003614039797519581,-0.0006329343584933827,0.0002891325554714941,-0.0007913291008896124,0.00028527646107469844,-0.000621710086888878,0.5902593731880188,-52.49142837524414,5.409956932067871,17.99811553955078,-1.2186788320541382,-1.3419296741485596,-0.03382720425724983,714,729,732,40.740,1,0
1739355283.0504682,0.3567994083206501,1.1861697291615103,0.3051542028345384,-1.1629482818422774,-1.3992463833076356,1.0488076540081939,0.07719033611340169,0.0005999987219911785,0.0006014096817926404,0.00018728222724322412,-0.0004358408445104725,0.00023146188973986482,-0.0005250825853820789,0.0015061485763078956,0.5902593731880188,-52.54300308227539,5.409956932067871,17.99811553955078,-1.2058614492416382,-1.3419296741485596,-0.020094294100999832,713,728,732,40.631,0,0
1739355283.0614357,0.35679291485297154,1.1861686250946015,0.3051560198617225,-1.1629464196422754,-1.399247547831597,1.0488118935179283,0.077184315179338,-0.0004263934266640365,-8.751452782665436e-05,0.0002718978114783704,0.000292814405146234,0.0012409503305261997,9.61174200422273e-05,-0.001858751374744232,0.6418340802192688,-52.51919937133789,5.386153221130371,17.99811553955078,-1.2186788320541382,-1.3419296741485596,0.019273381680250168,714,729,731,40.631,0,0
1739355283.0734417,0.3567912288074835,1.1861712604573098,0.3051521613912956,-1.1629464735518187,-1.3992501246892426,1.048811853799374,0.07718723487482121,-0.0009634605184802609,0.00023844237416424218,0.000544340047029573,0.0005518880775610289,0.0012798335467290836,8.245990879811565e-05,0.0005115062248651122,0.6656377911567688,-52.51919937133789,5.437727928161621,17.97431182861328,-1.2058614492416382,-1.3419296741485596,0.0064559997990727425,713,734,731,40.631,1,0
1739355283.0853953,0.35679662515623217,1.1861664635530753,0.3051520046411774,-1.162946098844888,-1.3992509410705043,1.0488118930272092,0.07718130692868544,0.0011853115986164922,-0.0005780030893060736,0.0003287952879476234,0.001205583328702823,-0.0014502583887009044,-0.0004651196197366596,-0.0021954378691987388,0.5902593731880188,-52.46762466430664,5.437727928161621,17.99811553955078,-1.2122701406478882,-1.3419296741485596,0.026597600430250168,714,732,732,40.631,0,0
1739355283.0954525,0.3567985762381551,1.1861679216247996,0.3051521347127392,-1.1629457128774838,-1.3992512792372513,1.0488067885954784,0.07718614175168416,0.0011676458214086196,-0.00014691927798723874,0.00021455744764188681,0.000614866965088512,-0.0019110485723512751,-0.0011392189414418683,-0.0006443801202879679,0.5664556622505188,-52.51919937133789,5.437727928161621,17.99811553955078,-1.1994527578353882,-1.3346054553985596,0.012864691205322742,714,732,732,40.522,0,0
1739355283.106365,0.3567946391357872,1.1861725899664104,0.305155696272939,-1.1629484946471615,-1.3992502329213332,1.0488110096336125,0.07718936439566418,-0.00015161280879077532,-1.7418378852860164e-05,0.0010567725853376103,4.271114866366392e-05,-0.0007390948621441306,-0.00031047075989950256,0.0020863248244703406,0.6180303692817688,-52.54300308227539,5.386153221130371,17.99811553955078,-1.2122701406478882,-1.3346054553985596,-0.04756011441349983,714,732,730,40.631,0,0
1739355283.1183593,0.35679494819289276,1.186168708350774,0.3051549727348289,-1.1629485653384104,-1.399245154686,1.0488126507052735,0.07719124154262107,0.00035470859539390455,-0.000938198132387452,0.00024806347315514514,-0.0010530871386535377,0.001359552161766089,0.0009280000699060913,0.00153037692301321,0.6180303692817688,-52.51919937133789,5.386153221130371,17.99811553955078,-1.2122701406478882,-1.3483383655548096,-0.027418512850999832,713,732,731,40.740,2,0
1739355283.1284301,0.35679152406402764,1.1861664010579125,0.3051521143041814,-1.1629503711995557,-1.399249880975978,1.0488126507053066,0.07718216693037856,-0.0015049729148124598,-0.0010062741766647559,-0.00033131813821582,-0.0005747054906854721,0.0010160712585782607,0.000292659944360202,-0.0014946261398285925,0.6418340802192688,-52.49142837524414,5.409956932067871,18.02191925048828,-1.2122701406478882,-1.3483383655548096,0.019273381680250168,714,731,732,40.522,1,0
1739355283.1393728,0.3567908087986283,1.1861705715458943,0.3051519238722299,-1.1629485201694671,-1.3992462306908624,1.0488110271479958,0.07719199778437047,-0.0017883191011575847,0.000761666479768134,-0.0006000352591679269,-0.00010234110870147489,0.0006554177033684359,2.0939803573194596e-05,0.0030770984061738557,0.6418340802192688,-52.51919937133789,5.437727928161621,17.99811553955078,-1.2058614492416382,-1.3346054553985596,-0.03382720425724983,717,732,732,40.740,0,0
1739355283.149437,0.3567983376769134,1.1861745617882358,0.3051520793118704,-1.1629458614727575,-1.3992473064542321,1.0488122550882557,0.0771878754662233,0.0010049372688234275,0.0017757091489140374,-0.000542241117977048,0.0008566156647365623,0.0012146951748927735,0.0005782462913459496,-0.00023266261932574045,0.5664556622505188,-52.57077407836914,5.409956932067871,17.97431182861328,-1.2250875234603882,-1.3419296741485596,-0.027418512850999832,713,732,730,40.522,0,0
1739355283.1594682,0.3567929148372589,1.1861701350945058,0.3051521583305147,-1.162943784611506,-1.3992452855048572,1.0488102694940484,0.07719275524524602,-0.0012732089991568342,-0.00041205989221552964,-0.0006767609282259556,0.0013897519901036168,0.0017358295265302334,-0.00044209882618108517,0.001919466683011677,0.6418340802192688,-52.51919937133789,5.437727928161621,17.94654083251953,-1.2122701406478882,-1.3281967639923096,-0.04023589566349983,713,729,731,40.631,1,0
1739355283.1703663,0.3567982598184367,1.186166914221372,0.3051514066491604,-1.1629454205409304,-1.3992512612243706,1.0488126507053066,0.07718509219155278,0.0007863645894381789,-0.0004845305726016082,-0.0015939943130375207,0.0011200111696815875,-0.0007862800423244375,0.00028494612258676296,-0.0004855919105829858,0.5664556622505188,-52.46762466430664,5.409956932067871,17.99811553955078,-1.1994527578353882,-1.3483383655548096,0.026597600430250168,713,729,730,40.631,0,0
1739355283.1814241,0.3567957758588896,1.1861754500539896,0.3051542411331707,-1.1629465678456847,-1.3992498816463852,1.0488110271479958,0.0771872543582833,0.00048290650492519005,0.001938159899233542,0.0005682533980496652,0.0002922295221975242,4.636754982922948e-05,-0.00026093213404388083,0.0009898610600027756,0.6418340802192688,-52.54300308227539,5.409956932067871,17.97431182861328,-1.2122701406478882,-1.3346054553985596,0.0064559997990727425,713,730,730,40.631,1,0
1739355283.1923678,0.35679662243974813,1.1861701655160515,0.30515145570175833,-1.1629461371097758,-1.399249881594849,1.0488110271479958,0.07719017699957151,0.0007919912244472716,0.0007321643630181572,-0.00013140252779508279,-0.001113998231704973,-0.0012384795108354677,0.0003700169641751441,4.54621132227817e-05,0.5902593731880188,-52.51919937133789,5.437727928161621,17.99811553955078,-1.2122701406478882,-1.3346054553985596,-0.027418512850999832,712,730,730,40.631,1,0
1739355283.2024732,0.3567912039759516,1.1861671423844187,0.305153189206239,-1.1629454187603314,-1.3992514362146966,1.0488118930452281,0.07718879034079598,-0.0014048375214492303,-0.0015747343682675542,0.0006840629978156197,-2.0183727774521535e-05,-0.001333416046958234,-0.0002074355282013104,0.00034084225953725383,0.6656377911567688,-52.46762466430664,5.386153221130371,17.99811553955078,-1.1994527578353882,-1.3419296741485596,-0.03382720425724983,714,730,731,40.631,1,0
1739355283.213462,0.3567966252988549,1.1861694987511575,0.3051514517702557,-1.162944668382118,-1.3992483656827268,1.0488118930452281,0.07719230613770264,0.00033723574524514724,7.872929681170817e-05,-3.4061469581295124e-05,0.0009257305317184085,-0.00015326789129732063,-0.0002351226906437773,0.0008717883649931836,0.5902593731880188,-52.54300308227539,5.437727928161621,17.97431182861328,-1.2250875234603882,-1.3419296741485596,-0.027418512850999832,713,729,731,40.522,0,0
1739355283.2244222,0.35679662433586856,1.1861718500694018,0.30514999757790795,-1.1629503831067325,-1.3992494096052506,1.0488102694879173,0.07718531845547588,0.0015211101667202919,0.0013896014634858303,-0.001175707599318566,-0.0006791763691281985,-0.0001576513903949925,-0.0011751632589003691,-0.0018275707860897334,0.5902593731880188,-52.54300308227539,5.437727928161621,18.02191925048828,-1.2058614492416382,-1.3281967639923096,0.019273381680250168,713,729,732,40.631,0,0
1739355283.2344384,0.35679136273395284,1.1861681760603726,0.30515026451440525,-1.162945656348497,-1.3992459908342505,1.0488110271479958,0.07719124159789584,-0.0007887033828975024,-0.0008141086017982829,-0.0013104703673002956,0.0007701367164781353,0.0025794841434049563,-2.3757378018434714e-06,0.0018396403955130162,0.6656377911567688,-52.49142837524414,5.461531639099121,17.99811553955078,-1.2058614492416382,-1.3346054553985596,-0.027418512850999832,712,728,732,40.631,0,0
1739355283.2453928,0.35679662422977665,1.1861707980190426,0.3051519251796738,-1.1629426111896515,-1.399245524794004,1.0488119332722312,0.07718698302172664,0.00018360825162844598,0.000575120819354871,1.8709275489067105e-05,0.0015389425984862616,0.0010929440350797243,0.00039911508520924837,0.0004993101384601196,0.5902593731880188,-52.51919937133789,5.437727928161621,17.92273712158203,-1.2122701406478882,-1.3419296741485596,-0.027418512850999832,713,729,731,40.631,1,0
1739355283.2554045,0.35679382903154166,1.1861669279601301,0.30515188726591086,-1.162946818703804,-1.3992456415688328,1.0488110273142202,0.07719035957136833,-0.0010379651056202927,-0.0008533350446086239,-0.0007043670588246643,-0.0005526163974813138,0.0015043694533405424,0.0010947059554417468,-0.0013566173070178541,0.5902593731880188,-52.46762466430664,5.437727928161621,17.97431182861328,-1.2122701406478882,-1.3346054553985596,-0.020094294100999832,713,731,730,40.631,1,0
1739355283.2663574,0.35679010685787976,1.1861726021132253,0.3051519107037665,-1.162950382355764,-1.399250268420138,1.0488118930452308,0.0771849568346112,-0.0016585846893929256,0.0006423824408845928,-0.00028673556810777473,-0.0010516588216350734,-0.00014396532627593313,3.272566736148846e-05,-0.0007109357302957953,0.6418340802192688,-52.54300308227539,5.437727928161621,18.02191925048828,-1.2058614492416382,-1.3419296741485596,-0.0072769103571772575,714,727,732,40.631,1,0
1739355283.2764382,0.3567936913284605,1.186168708144877,0.305148290066466,-1.1629457761143782,-1.3992523033854167,1.0488126507053066,0.07718647330634261,-0.00028338838404278724,-9.812956610480791e-05,-0.001475039496878253,0.0009158899733886907,-0.0010653476768102907,3.7154458559395984e-05,-0.0009708031288637908,0.6180303692817688,-52.51919937133789,5.489302635192871,17.97431182861328,-1.2186788320541382,-1.3483383655548096,0.012864691205322742,719,729,732,40.631,1,0
1739355283.2884657,0.35679662529356165,1.1861683863528771,0.30514964383558346,-1.1629496681842972,-1.3992448462081795,1.0488110227873448,0.07718886022492666,0.0005678642725168838,-0.0005899069381210904,-0.0006867892055606968,-0.0014631884486460522,0.0016134807078805225,-0.0004408192677588921,-3.1277464417978635e-05,0.5902593731880188,-52.51919937133789,5.461531639099121,18.02191925048828,-1.2186788320541382,-1.3346054553985596,-0.0072769103571772575,715,731,733,40.631,0,0
1739355283.2994313,0.3567983378195768,1.1861716127901325,0.3051494034146139,-1.1629481572233524,-1.3992497639030648,1.0488110271479876,0.07718647916983302,0.0012697939554474312,4.939800338484956e-05,-0.00151022771462191,-5.751953680719333e-05,-0.0007525162424782399,-0.00012426534675711117,0.00013981959297859354,0.5664556622505188,-52.54300308227539,5.437727928161621,18.02191925048828,-1.2122701406478882,-1.3346054553985596,0.012864691205322742,714,731,731,40.522,1,0
1739355283.3094609,0.35679462735799256,1.1861699349245305,0.30514825266058865,-1.1629458610003562,-1.3992478953762537,1.0488110271479958,0.07718984851617082,-0.0001392530624799239,-0.00036226886256528386,-0.0018388517731318089,0.00035752903897841504,-0.00037743905443633806,-0.00024118197817518715,0.0001442445613676393,0.6180303692817688,-52.51919937133789,5.461531639099121,17.97431182861328,-1.2250875234603882,-1.3346054553985596,-0.020094294100999832,713,732,727,40.414,1,0
1739355283.3204682,0.35679291483726133,1.1861688647234874,0.3051559975645222,-1.1629485212906348,-1.3992448834953628,1.0488118930452281,0.07718759871023227,-6.458577001507403e-05,-0.000194302922853254,0.0005007423328789392,-0.00021290611608615082,0.0011778777393818747,0.0003261822672558095,-0.0007785601895667887,0.6418340802192688,-52.49142837524414,5.386153221130371,17.99811553955078,-1.2186788320541382,-1.3419296741485596,0.03941498324275017,714,728,730,40.522,1,0
1739355283.3313713,0.356797578973162,1.1861687438293838,0.3051541624440254,-1.1629455013619132,-1.3992473424713612,1.0488102694879173,0.07719033630170649,0.0008101777219099912,-0.00023875243848923042,0.00017924669577164292,0.000516892677653985,0.0003891519592404266,-0.000302847132137278,0.001090067066729448,0.5902593731880188,-52.51919937133789,5.409956932067871,17.99811553955078,-1.2058614492416382,-1.3281967639923096,-0.020094294100999832,713,731,731,40.740,1,0
1739355283.3413873,0.35679359507659125,1.1861695025669343,0.30515318932219654,-1.1629485878565278,-1.3992447685000553,1.0488118925607113,0.07718698318198729,-0.0008900592792696245,0.00031728352499700655,0.0005759088918085205,0.0003444363245767597,0.0003919208321686736,0.00024678311067862413,8.386468907876639e-05,0.5902593731880188,-52.54300308227539,5.386153221130371,17.99811553955078,-1.2186788320541382,-1.3419296741485596,-0.027418512850999832,714,731,731,40.631,1,0
1739355283.352404,0.3567983378024711,1.1861679248457904,0.30515497397952424,-1.1629503830097785,-1.3992483663039406,1.0488110142315838,0.07719034209508373,0.0009464910589242749,-0.0011945315098755198,0.0005704153941359314,-0.0013507906209882328,0.00015932887176397874,2.860062457900107e-05,0.0023549836696552476,0.5664556622505188,-52.49142837524414,5.386153221130371,18.02191925048828,-1.2250875234603882,-1.3346054553985596,-0.020094294100999832,715,731,730,40.631,1,0
1739355283.3634558,0.35679662240991444,1.1861708882019428,0.30515121654534394,-1.1629443905401255,-1.3992510292026834,1.048810269487893,0.07719184154545031,0.00016948327972265027,-0.0003217620083479765,-0.0007427461517188465,0.001093732621050203,-0.0001928306628071384,-0.0008842575699893936,0.0008209134906995471,0.5902593731880188,-52.51919937133789,5.437727928161621,17.94654083251953,-1.1994527578353882,-1.3281967639923096,-0.03382720425724983,715,730,731,40.740,2,0
1739355283.3744352,0.35679677312518815,1.1861703739339602,0.30515416243884014,-1.1629464507480878,-1.3992506347306948,1.0488115398325184,0.0771901726175569,-0.0009800362005463062,0.0004819422374543711,0.001248148350502107,0.00044324072082296525,-0.0002177096109272057,-0.0007154435102805823,0.00043543924213952146,0.6180303692817688,-52.54300308227539,5.409956932067871,17.99811553955078,-1.2058614492416382,-1.3419296741485596,-0.027418512850999832,714,730,731,40.740,1,0
1739355283.3844373,0.3567967062252555,1.186170889122948,0.3051542411798402,-1.1629460232178541,-1.3992480071774225,1.0488102694819355,0.07718316704671593,0.000459941033244835,0.00035176017138869377,0.0013920407352653065,0.0003076391997705383,0.0018003534575005962,-0.0006795775228887425,-0.001742790046582591,0.5902593731880188,-52.51919937133789,5.409956932067871,17.97431182861328,-1.2186788320541382,-1.3281967639923096,0.012864691205322742,715,729,731,40.631,0,0
1739355283.3953753,0.356794705868332,1.186168812074016,0.3051519134075709,-1.1629485623906837,-1.3992548773704585,1.0488110097053929,0.07718849843136141,0.0003748598823624585,-0.0006540071976763683,-0.0005060806749486988,-0.0015426856700266884,-0.0018335602285985187,-0.0009302200842474413,0.0014634046687890746,0.6180303692817688,-52.49142837524414,5.437727928161621,17.99811553955078,-1.2058614492416382,-1.3346054553985596,-0.04023589566349983,714,729,730,40.631,1,0
1739355283.406484,0.3567912023178597,1.1861722458509658,0.3051490906441229,-1.1629446578473666,-1.3992447517812376,1.0488118930449328,0.07718636015920001,-0.0010690061848179341,0.0003349248853986783,-0.001100805275836497,0.0009422157763335689,0.001471261892424105,-9.327087336308704e-05,-0.0001572584927351311,0.6656377911567688,-52.54300308227539,5.437727928161621,17.94654083251953,-1.2186788320541382,-1.3419296741485596,0.012864691205322742,714,731,730,40.631,0,0
1739355283.4174712,0.35679836431053,1.1861681721357398,0.30515352544119795,-1.162948600768746,-1.3992525876664983,1.0488110251560936,0.07718566657144925,0.0010994441238329777,-0.00035086705995909307,0.0007266244981098638,-7.902517218163444e-05,-0.00043947560884605586,-0.0005184773440515222,0.0002653474009476224,0.5664556622505188,-52.49142837524414,5.409956932067871,17.99811553955078,-1.2122701406478882,-1.3346054553985596,-0.0072769103571772575,715,729,731,40.522,0,0
1739355283.4284322,0.3567946273581421,1.1861660217985661,0.30514922183661297,-1.162942456155459,-1.3992506255422283,1.0488113556169885,0.07718646606261782,-6.522324127699642e-05,-0.001433903585177252,-0.0007341257682153149,0.0024829256084871127,2.354924858531058e-05,4.3553256154860284e-05,-0.001332492854252828,0.6180303692817688,-52.49142837524414,5.437727928161621,17.94654083251953,-1.2058614492416382,-1.3281967639923096,0.012864691205322742,713,730,730,40.631,1,0
1739355283.4394362,0.35679686082849355,1.1861667458724825,0.3051534178282971,-1.1629467386061358,-1.399249759335045,1.0488118930513592,0.07718647916975933,0.000694990777070344,-0.001980604167334518,0.0009114092421197643,-0.000347635252211613,0.0002764935078109879,0.00046308268942135493,-0.0012221691616742358,0.5902593731880188,-52.49142837524414,5.409956932067871,17.97431182861328,-1.2122701406478882,-1.3419296741485596,0.012864691205322742,715,729,731,40.740,0,0
1739355283.4494581,0.3567953779389895,1.186170855111268,0.3051513701191288,-1.1629501450259914,-1.3992498816466128,1.0488117753076582,0.07718921476882884,0.0007549875984485619,-3.807258178039187e-05,0.0003276341139249127,-0.0009691443016401197,-0.00029892875260295165,-0.0001589504191229439,0.0015491059484521329,0.6180303692817688,-52.51919937133789,5.437727928161621,18.02191925048828,-1.2122701406478882,-1.3419296741485596,-0.0072769103571772575,715,730,731,40.631,0,0
1739355283.460363,0.35679694319452143,1.1861725752992822,0.3051514055646424,-1.162948335858019,-1.3992487702913792,1.0488118537987068,0.07719124014635832,0.00033562620596780184,0.0009399744145736737,0.0004590264266694429,-0.0004891048072004597,0.0010493324952584916,3.4488371744687285e-05,0.000869636219493891,0.5902593731880188,-52.54300308227539,5.409956932067871,17.99811553955078,-1.2186788320541382,-1.3419296741485596,-0.027418512850999832,714,731,729,40.631,1,0
1739355283.4703665,0.3567944051337129,1.1861642916208068,0.30515216037123505,-1.162948600764411,-1.3992498624235299,1.048811027147331,0.0771912416046969,-0.0005935754033203974,-0.001605955931330228,-0.0006650321640508906,-6.133021687270207e-05,0.0010443040300065773,0.000416775111881497,0.001544023243141877,0.6180303692817688,-52.46762466430664,5.437727928161621,17.99811553955078,-1.2122701406478882,-1.3346054553985596,-0.027418512850999832,713,728,731,40.631,1,0
1739355283.4814215,0.3567947069361051,1.1861726020685786,0.3051519242082395,-1.1629446997102637,-1.3992498642057556,1.0488118930452281,0.0771848560994206,-0.00040013427163439457,0.0003106423482592762,-0.0009809547764478036,1.2756466186272146e-05,-0.0003030735904795734,0.00016783992264945286,-0.00017784713293535182,0.6180303692817688,-52.54300308227539,5.437727928161621,17.94654083251953,-1.2122701406478882,-1.3419296741485596,0.026597600430250168,713,729,731,40.522,0,0
1739355283.4914331,0.356794627467458,1.1861708895967473,0.3051511616882836,-1.1629476469853468,-1.3992513969687423,1.0488140857954644,0.07718481618281384,3.051614905210013e-05,0.0015761263170747347,-0.0009299864007691893,-0.0003233310845877222,-0.0008878546477436177,0.0010818525995906893,-0.001590319313536308,0.6180303692817688,-52.51919937133789,5.409956932067871,17.99811553955078,-1.1994527578353882,-1.3483383655548096,0.026597600430250168,712,725,732,40.631,1,0
1739355283.5014412,0.3567946274670107,1.1861640796936352,0.3051511901414945,-1.1629467912577238,-1.3992505157569914,1.0488118930695314,0.07719025741735666,0.0006567735147775786,-0.0023540933756792818,-0.000695381792362624,0.0008799310676468168,0.00026297560140770823,0.0003410160207237917,-4.5621105560262736e-05,0.6180303692817688,-52.46762466430664,5.437727928161621,17.97431182861328,-1.2058614492416382,-1.3419296741485596,-0.020094294100999832,713,728,731,40.740,0,0
1739355283.5123992,0.35679291483726316,1.1861704208674904,0.30515203609670116,-1.1629445660333502,-1.3992491235019966,1.0488118930452286,0.07718967061839295,-0.00023370921504450984,0.0014339783016430493,-0.0011128049993316545,-0.0003957637443903114,0.0010911918297649339,0.00020255291679521152,0.00035241142435619586,0.6418340802192688,-52.54300308227539,5.409956932067871,17.97431182861328,-1.2186788320541382,-1.3419296741485596,-0.013685601763427258,714,727,731,40.740,1,0
1739355283.5234854,0.35679291483726133,1.1861671791228503,0.3051514051966385,-1.1629482815202117,-1.3992483510602722,1.0488118930452281,0.07719086384789556,-0.0004449774163460138,-0.000328209311596541,-0.000158500335234148,-0.00082872017472112,0.0018838723672035952,0.0006124774819318286,0.0028597074389022864,0.6418340802192688,-52.46762466430664,5.409956932067871,17.99811553955078,-1.2122701406478882,-1.3419296741485596,-0.020094294100999832,714,729,732,40.631,1,0
