IITGN-Robotics/Franka_IITGN_ROBOTICS/franka_ros/franka_iitgn/data02/os_002.csv
time,fr3_joint1_pos,fr3_joint2_pos,fr3_joint3_pos,fr3_joint4_pos,fr3_joint5_pos,fr3_joint6_pos,fr3_joint7_pos,fr3_joint1_vel,fr3_joint2_vel,fr3_joint3_vel,fr3_joint4_vel,fr3_joint5_vel,fr3_joint6_vel,fr3_joint7_vel,fr3_joint1_eff,fr3_joint2_eff,fr3_joint3_eff,fr3_joint4_eff,fr3_joint5_eff,fr3_joint6_eff,fr3_joint7_eff,flexpin1,flexpin2,flexpin3,Force,ContactMic,ContactMic_gt
1739355220.0002627,0.3635308421343515,1.1913279430082135,0.306016570009043,-1.1523672416393609,-1.3988523776319186,1.044960773180407,0.07360611385579541,0.00022569980239627065,-0.0009624641636996781,-0.000663818609201681,0.00010437759132866047,0.0010782507185662,4.559717094192959e-05,0.0011288630425674252,1.066333532333374,-52.59457778930664,5.663863182067871,18.04572296142578,-1.0877584218978882,-1.4069321155548096,-0.020094294100999832,,,,,,,,,
1739355220.0107505,0.36352615730340954,1.1913343660122293,0.306017286254285,-1.15236757221707,-1.3988542472579433,1.044962110027919,0.07360004068542919,-0.00051168509058708,0.0019894130871831893,-0.00045720507969897113,-0.0006859067361556907,-0.001462488293853342,0.0009886411095290193,-0.0021023081973802838,1.113940954208374,-52.67392349243164,5.663863182067871,18.04572296142578,-1.0813497304916382,-1.4142563343048096,0.019273381680250168,,,,,,,,,
1739355220.0212724,0.36352653125202883,1.1913293418157567,0.3060123444825464,-1.1523630345177738,-1.3988527293973632,1.0449607731830652,0.07360819514879906,-0.0006317733677887684,0.00041983980283020637,-0.0013001331220454733,0.0005947563678371154,0.0005156563436994401,-0.0006010820721488602,0.0025045537068870264,1.090137243270874,-52.57077407836914,5.691634178161621,18.02191925048828,-1.0877584218978882,-1.4069321155548096,-0.013685601763427258,,,,,,,,,
1739355220.032261,0.3635302407379948,1.1913279433879027,0.306013512336884,-1.1523691007310188,-1.3988546490030793,1.0449600155203285,0.07360094690621229,0.0002204204764628564,-0.0010026910476515299,-0.00022851560620551416,-3.5817066757091526e-05,0.0006931095792638282,-0.00034089760896899383,-0.0028897606011344915,1.038562536239624,-52.59457778930664,5.715437889099121,18.06952667236328,-1.0685323476791382,-1.4005234241485596,-0.027418512850999832,,,,,,,,,
1739355220.0432189,0.3635276532917341,1.1913280572572036,0.3060142518316791,-1.152367213155527,-1.3988516125425825,1.0449616390776393,0.07360100190828721,-0.0010560254243308206,-0.0017528654678699673,-0.0010200966373203554,-9.643159876138098e-05,0.0019852635289934065,0.0001755845353770758,-0.0028548234394990372,1.113940954208374,-52.59457778930664,5.691634178161621,18.06952667236328,-1.0941671133041382,-1.4142563343048096,-0.0008682189509272575,,,,,,,,,
1739355220.0542922,0.3635289437016506,1.191328271474814,0.3060152315004867,-1.152367241524165,-1.3988554199005998,1.0449623967377175,0.07360285529019438,-2.32184140549387e-06,0.00021570951220737625,0.0002575919172873392,-0.0005622635566937832,-0.00012352343338106796,0.0005470581898542597,0.00022194012340212728,1.066333532333374,-52.59457778930664,5.691634178161621,18.04572296142578,-1.0621236562728882,-1.4206650257110596,-0.0008682189509272575,,,,,,,,,
1739355220.0642986,0.36352936579232165,1.1913279685235327,0.3060173115367125,-1.152371423167542,-1.3988538914987463,1.0449600155203285,0.07360393673541182,-5.257419453124559e-05,-0.00031063387086441475,0.000295268063231899,-0.0008011254200098739,-0.00026934183234577345,-0.001265222005697173,-0.00036027189802208243,1.090137243270874,-52.59457778930664,5.691634178161621,18.09729766845703,-1.0749410390853882,-1.4005234241485596,-0.013685601763427258,,,,,,,,,
1739355220.0743005,0.36352977920673724,1.191326944762455,0.30601725884005837,-1.1523651979520726,-1.398851614157639,1.0449616390776393,0.07360949625285232,3.114674772324304e-06,-0.0013611751138065092,2.4416723104589042e-05,-0.0008903713081962259,5.48671248337268e-05,-5.6870159830661174e-05,0.0004754347137921667,1.113940954208374,-52.57077407836914,5.663863182067871,18.04572296142578,-1.0941671133041382,-1.4142563343048096,-0.06037749722599983,,,,,,,,,
1739355220.0852218,0.3635310666964633,1.191328049012336,0.3060152055053409,-1.1523675732553198,-1.3988531338384218,1.0449623967377175,0.07360317906820822,0.0009993415671935278,0.00012319653542874366,-0.0007252436060874742,-0.0003782818062709896,0.0003377501423323635,0.0007901393164634698,0.0005885986456481151,1.066333532333374,-52.59457778930664,5.691634178161621,18.04572296142578,-1.0813497304916382,-1.4206650257110596,-0.0072769103571772575,,,,,,,,,
1739355220.0952232,0.3635276503914899,1.191328024443903,0.30601731167893553,-1.1523686669010202,-1.3988534858129469,1.044960773180407,0.07360561264223012,-0.00010514622024469463,-0.00013455433174968295,0.00037621392950963346,-0.00044926590018398444,6.10892155606093e-05,0.0001611988974852178,0.00029132725782989987,1.113940954208374,-52.59457778930664,5.691634178161621,18.06952667236328,-1.0813497304916382,-1.4069321155548096,-0.027418512850999832,,,,,,,,,
1739355220.106348,0.363527238957364,1.1913304056870466,0.3060149012522204,-1.1523673437037907,-1.39884999642049,1.0449592578602502,0.07360155551156158,-0.0006165007495872373,0.0005973766247724335,-0.00018108482714601778,-0.00021810709946954625,0.0011598213771552143,-0.0004726066064849805,-0.0011001384162243539,1.090137243270874,-52.59457778930664,5.663863182067871,18.04572296142578,-1.1079000234603882,-1.3941147327423096,0.0064559997990727425,,,,,,,,,
1739355220.117261,0.3635234064563611,1.1913258161829539,0.3059914748213953,-1.1523754406364735,-1.398851049152751,1.044968331206508,0.07360556028548484,-0.0021577394026257063,-0.0014895583490004537,-0.0022705089821863397,-0.0016600033308534245,0.0015141105276481933,0.001900706034607928,0.0007862322774553422,0.7410162091255188,-52.51919937133789,5.461531639099121,18.02191925048828,-1.1793111562728882,-1.3877060413360596,-0.027418512850999832,,,,,,,,,
1739355220.1273184,0.363521938620694,1.1913305928649862,0.30596888413290746,-1.1523855015679887,-1.3988540704957697,1.0449876165943186,0.07359934564274409,-0.00016977129297534828,-0.0010462787858410228,-0.0014317773755318992,-0.0007765987758853545,-0.00019467209688021686,0.002993014351324417,-0.0002358674333021978,0.5426519513130188,-52.54300308227539,5.386153221130371,18.06952667236328,-1.1930440664291382,-1.4069321155548096,0.026597600430250168,,,,,,,,,
1739355220.1375809,0.36350964641400263,1.1913306688657646,0.3059489673069784,-1.1523908960815559,-1.398854991516202,1.0449974489687874,0.07360557927311558,-0.001200647486928132,-0.0004994782943160701,-0.002440988876814047,-0.0005245727683826845,-0.000515416983771755,0.0021416224264984973,0.00029686004226777037,0.5664556622505188,-52.54300308227539,5.437727928161621,18.04572296142578,-1.1866353750228882,-1.4069321155548096,-0.027418512850999832,,,,,,,,,
1739355220.1482544,0.36348958553110716,1.1913351304665556,0.30592919469013863,-1.1523946276151782,-1.3988571262249871,1.0450022901706395,0.07359917429350311,-0.001446469429751229,0.0002834209714603659,-0.0013549824046782575,-0.00024863526619354375,0.0005870901341995229,0.001455128301213634,-0.0027964940969388242,0.6418340802192688,-52.57077407836914,5.489302635192871,18.02191925048828,-1.1994527578353882,-1.3941147327423096,0.026597600430250168,,,,,,,,,
1739355220.1583312,0.36347868856112164,1.1913358814957795,0.30591545613601073,-1.1523955872312002,-1.398855115902197,1.0450070474610353,0.07360304890717315,-0.0017645634392207772,-0.0008067146935454559,-0.0026201575209797994,0.0012516683860950373,-0.0008120990482431032,0.0004010632922304841,-0.0022631620180116226,0.6418340802192688,-52.57077407836914,5.489302635192871,18.02191925048828,-1.1866353750228882,-1.3941147327423096,0.03300629183650017,,,,,,,,,
1739355220.1703374,0.36345442089512925,1.1913375891491285,0.30589963091469,-1.152397739729739,-1.398858101148738,1.0450130079215643,0.0736094835968268,-0.0012150834969416953,0.0013887215064643879,-0.0008616070336982984,-0.0008753659777017833,0.0019122713590009484,0.00019948401489042552,0.0018074257267980103,0.7172124981880188,-52.59457778930664,5.461531639099121,18.02191925048828,-1.1994527578353882,-1.3941147327423096,-0.020094294100999832,,,,,,,,,
1739355220.18223,0.36342402507886484,1.1913421313402517,0.30588479093449955,-1.152397738716304,-1.398858284886855,1.045019097948224,0.07360793019922238,-0.001877898902754643,-0.0005165090471796901,-0.002252540419277221,0.0003569272373426883,0.0009919276480925493,-0.0002837589376109954,0.0021241688149227,0.7410162091255188,-52.69772720336914,5.513106346130371,18.02191925048828,-1.1994527578353882,-1.4142563343048096,-0.0072769103571772575,,,,,,,,,
1739355220.19231,0.3633936908423583,1.1913413084247377,0.3058620851566811,-1.152399293390648,-1.398862306966014,1.0450208239160106,0.0736088919429235,-0.0028489983752398697,-0.0015604938630586645,-0.0009965916270673722,-0.0005861051310854663,0.0005920306036382411,-0.0003476525888790289,0.00034407137936365425,0.8163946270942688,-52.64615249633789,5.588484764099121,17.99811553955078,-1.1930440664291382,-1.4005234241485596,-0.027418512850999832,,,,,,,,,
1739355220.203283,0.36336986427939877,1.19134502751087,0.3058450646632972,-1.1524017575580383,-1.3988656648830589,1.0450207274413077,0.07360115062677082,-0.00394318753879991,-8.606778842535604e-05,-0.001814549453208669,-0.00030934153045155863,-0.0013548723993357086,1.860613962013951e-05,-0.0014857192995365357,0.8401983380317688,-52.69772720336914,5.588484764099121,17.99811553955078,-1.1866353750228882,-1.3877060413360596,0.019273381680250168,,,,,,,,,
1739355220.2143216,0.3633535417908954,1.191346013785234,0.30583647545492776,-1.1524028887295434,-1.3988631671061906,1.0450230004295522,0.07360629123370106,-0.002785228471910868,-0.00013259960614490855,-0.0015844626703181402,-0.0002032588171502907,-0.00020064139064864434,-0.00023851611708997894,0.0003543753653120445,0.8401983380317688,-52.69772720336914,5.536910057067871,18.04572296142578,-1.1994527578353882,-1.4069321155548096,-0.020094294100999832,,,,,,,,,
1739355220.2252333,0.36333828470825474,1.1913462920147055,0.3058278709876647,-1.1524060676023757,-1.3988644867251148,1.045027046694723,0.07360913022515236,-0.0005652280969372493,-0.0004290493641707669,-0.0019263512334055327,-0.001076218768982045,-0.0005138087710644481,0.0009784967938525344,0.0007090973426359682,0.8640020489692688,-52.67392349243164,5.564681053161621,18.04572296142578,-1.1866353750228882,-1.4142563343048096,-0.020094294100999832,,,,,,,,,
1739355220.2362766,0.3633279147472614,1.1913471999904628,0.30582237990774486,-1.1524060777588334,-1.398864765369592,1.0450288688560512,0.07361029405261857,-0.0003109645204252262,0.00031587762933473276,0.0005493473663052573,0.00016580197842308122,-0.0010980045363052438,0.0015798288945989987,0.0007120622546629085,0.8401983380317688,-52.69772720336914,5.536910057067871,18.04572296142578,-1.1866353750228882,-1.4206650257110596,-0.027418512850999832,,,,,,,,,
1739355220.2463174,0.36331592844970784,1.1913426950417152,0.3058226332529933,-1.1524053809862629,-1.398866987785776,1.0450286346954114,0.07360133015286659,-0.001836666036531442,0.000818138915362362,0.000307900270564827,-0.0011175862330555302,-0.0010202107487775561,0.0010615092880121866,-0.0022072991639928204,0.8640020489692688,-52.62234878540039,5.489302635192871,17.99811553955078,-1.2058614492416382,-1.4142563343048096,0.012864691205322742,,,,,,,,,
1739355220.2563372,0.3633149883848882,1.1913368754720777,0.30581904091812023,-1.1524042963177668,-1.3988627459724698,1.0450293923584446,0.07360754580302468,0.00014225200120862537,-0.00095724076755039,-0.001114126886097215,6.944415151214993e-05,0.00019190859597197497,0.0010376908465321878,-0.0007180278800757282,0.8163946270942688,-52.54300308227539,5.536910057067871,18.02191925048828,-1.1930440664291382,-1.4206650257110596,-0.013685601763427258,,,,,,,,,
1739355220.2672477,0.3633111061611594,1.1913376745261608,0.30582261902569097,-1.152409066294538,-1.3988616110309084,1.0450293923584448,0.07360553298456456,-0.0005557715940509368,-0.0009213644413546536,0.0008700627316974839,-0.0015484919419731014,0.000978282296760566,9.647637361806478e-05,0.0010240534425175571,0.7925909161567688,-52.59457778930664,5.489302635192871,18.04572296142578,-1.2122701406478882,-1.4206650257110596,-0.013685601763427258,,,,,,,,,
1739355220.2772717,0.3633133663784884,1.1913454577102291,0.3058235561660893,-1.1524090626022527,-1.3988631323126728,1.0450300828704768,0.07360784415501197,-0.00035432205580006575,0.0010080984358866803,-0.0007522075002424087,-0.00016438361967449188,0.0007817746584720992,0.0002820439792122808,-0.00046203276987105636,0.7172124981880188,-52.67392349243164,5.489302635192871,18.04572296142578,-1.1994527578353882,-1.4142563343048096,-0.0072769103571772575,,,,,,,,,
1739355220.288237,0.36331547375441003,1.1913436211199648,0.30582363942332585,-1.1524109598821746,-1.3988631323127738,1.0450291576575814,0.07360163709769373,-5.7770244367024185e-05,0.0003048008796117036,0.00040521616802118964,-0.00030050848324081905,0.00043579258715466593,-0.00021572805095155932,-0.002864575775033405,0.7172124981880188,-52.67392349243164,5.489302635192871,18.06952667236328,-1.1994527578353882,-1.4142563343048096,0.019273381680250168,,,,,,,,,
1739355220.298257,0.36331617507897207,1.1913444037412408,0.3058257940329898,-1.1524123915814315,-1.3988670688872402,1.0450291641144485,0.0736103509547211,0.0009192930655796626,8.476877915031267e-05,0.0007550217402334216,0.0003521772842661827,-0.0011445080401547567,-0.0008555180934005952,0.00023555706426314175,0.7172124981880188,-52.64615249633789,5.489302635192871,18.04572296142578,-1.1930440664291382,-1.4142563343048096,-0.027418512850999832,,,,,,,,,
1739355220.308338,0.36330991119711636,1.1913423160783374,0.3058255069206272,-1.152411646466675,-1.398863890188193,1.045031896661603,0.07360401831568099,-0.0012481156133635955,-0.001228625566390401,-0.0009803390372570401,-0.0002760951787181033,-0.0006593565584395403,0.0007044148787652915,0.0007730075100868769,0.7648199200630188,-52.64615249633789,5.489302635192871,18.02191925048828,-1.1930440664291382,-1.4005234241485596,-0.0008682189509272575,,,,,,,,,
1739355220.3192942,0.36331333608148647,1.1913437064849222,0.3058240421301847,-1.1524088219387494,-1.3988631303262589,1.045032656381971,0.07360721012999188,-0.0005606421283392358,0.0004910001570585089,-0.0011327446781199933,-6.958235892539006e-05,0.0007108164690788991,0.0008066868898687887,2.3206230459853682e-05,0.7172124981880188,-52.64615249633789,5.513106346130371,17.99811553955078,-1.1994527578353882,-1.4069321155548096,-0.0008682189509272575,,,,,,,,,
1739355220.3302617,0.36330791336419616,1.191344335748517,0.3058250740054352,-1.1524141816170346,-1.3988624272442929,1.045032656382006,0.07360558419282533,-0.000896981052648865,0.00018076105374460413,-0.00036336492743411597,-0.0007894515433413878,-0.00032924521660670136,0.0001714685026632683,-0.0014719444002238406,0.7925909161567688,-52.67392349243164,5.489302635192871,18.06952667236328,-1.2058614492416382,-1.4069321155548096,0.012864691205322742,,,,,,,,,
1739355220.3403163,0.3633099898860421,1.1913396762463906,0.30582332494782044,-1.1524123959966426,-1.3988624967518068,1.045032656382006,0.07360948511150206,-0.0004038567303989853,-0.0012235960653671778,0.00011666249782807621,-0.000839407320868303,0.00037084814626533644,6.820979009857826e-05,-8.257358575821478e-05,0.7648199200630188,-52.62234878540039,5.489302635192871,18.04572296142578,-1.2058614492416382,-1.4069321155548096,-0.020094294100999832,,,,,,,,,
1739355220.3513486,0.3633098996997476,1.1913440891154135,0.30582558503536367,-1.1524124228145949,-1.3988640096491782,1.0450343191851732,0.07360787470500807,-7.823290695068959e-05,-0.0007288956843960223,0.0008244064616391003,-0.00020331164753766435,0.00021152375517365728,0.0003446126875709674,0.0020637712826618564,0.7648199200630188,-52.64615249633789,5.489302635192871,18.04572296142578,-1.1930440664291382,-1.4206650257110596,0.026597600430250168,,,,,,,,,
1739355220.3632364,0.36330940717819005,1.1913450568156045,0.30582130185829476,-1.1524124049360782,-1.39886392964872,1.0450326563822276,0.07361182670486387,-0.001180577705505455,2.0776905309593694e-05,-0.002180791356702151,0.0012759888511660652,-0.000750392136512769,8.20713974924554e-06,7.98922051480236e-05,0.7410162091255188,-52.69772720336914,5.536910057067871,18.04572296142578,-1.1930440664291382,-1.4069321155548096,-0.04023589566349983,,,,,,,,,
1739355220.3733308,0.36330947789004664,1.1913443696180703,0.30582299895349097,-1.1524113552116697,-1.398863842689625,1.0450353788233027,0.07361035100858498,-0.0012338549452008787,-0.00029792942506360535,-0.00220322918313715,0.0010750044538830588,-0.0002510798412132167,0.0010757213103599263,0.001232178239926535,0.7410162091255188,-52.64615249633789,5.513106346130371,18.02191925048828,-1.1930440664291382,-1.4206650257110596,-0.027418512850999832,,,,,,,,,
1739355220.3843179,0.3633113764087609,1.1913399313792996,0.30582581510425183,-1.1524163254261581,-1.3988627702694796,1.0450345825695933,0.07360508311618578,-0.0009436466799469398,-0.00046406078707617103,0.00021247422927425565,1.2382336830700719e-05,0.0006503954798306897,0.0005490686943930515,-0.000411631703054778,0.7410162091255188,-52.62234878540039,5.489302635192871,18.06952667236328,-1.1994527578353882,-1.4142563343048096,-0.0008682189509272575,,,,,,,,,
1739355220.3953118,0.36330322094439393,1.1913423522410804,0.30582582197811076,-1.1524137953348743,-1.3988631323107301,1.0450335748283732,0.07360396354433763,-0.003264387387793659,0.0016765235906820556,3.874392581640564e-05,-0.0013564427282803386,0.0018535757161276555,0.00037516173118265874,-0.0007764979447147653,0.8163946270942688,-52.62234878540039,5.489302635192871,18.02191925048828,-1.1994527578353882,-1.4142563343048096,0.026597600430250168,,,,,,,,,
1739355220.4053211,0.36330697049375216,1.1913413114271183,0.3058228831175514,-1.1524137171756406,-1.3988650008456405,1.045033875492838,0.07360483091392721,-0.0006482000477637524,0.0001423624935297423,-0.001131423264036295,0.00012912019003709021,-0.0013029303049692047,-0.0010286341137615413,-9.447142776783672e-05,0.7648199200630188,-52.64615249633789,5.489302635192871,18.02191925048828,-1.1866353750228882,-1.4142563343048096,0.019273381680250168,,,,,,,,,
1739355220.4153244,0.363307014318954,1.1913423881419285,0.3058247903073981,-1.1524138319684474,-1.398863891432384,1.0450345877375502,0.07360867487829234,-1.1917434523871489e-05,0.0007015823921033462,-0.000560291192587773,-0.0009360607140401691,0.00011665337989492518,-0.000223092448722191,-0.00010951363740043492,0.7648199200630188,-52.62234878540039,5.489302635192871,18.02191925048828,-1.1930440664291382,-1.4142563343048096,-0.013685601763427258,,,,,,,,,
1739355220.4262803,0.36330557048877354,1.191344063970844,0.3058257326880019,-1.1524173969973808,-1.3988646461430498,1.0450326743151401,0.07361031141642765,-0.0018286635866270008,0.0010818517118618314,-0.0007129239021814509,-0.0013269749052771656,0.0011074916077448316,-0.0010514857428797332,0.0012558905436813304,0.7410162091255188,-52.64615249633789,5.489302635192871,18.06952667236328,-1.1866353750228882,-1.4069321155548096,-0.027418512850999832,,,,,,,,,
1739355220.4372609,0.363307991624686,1.1913443352929878,0.30582581609076703,-1.152416533000454,-1.3988631318161358,1.0450335411754927,0.07360396501649624,-0.0002697275827418954,-0.00023114650411546918,-0.001508803346589302,-0.0005145893077278978,-0.0015016693703446347,-0.001683142665022981,-0.0005735412533047245,0.7172124981880188,-52.67392349243164,5.489302635192871,18.04572296142578,-1.1994527578353882,-1.4142563343048096,0.026597600430250168,,,,,,,,,
1739355220.4472628,0.363308408907536,1.191348188963741,0.30582695103699503,-1.1524156146629632,-1.3988646476329223,1.0450358412724206,0.07361192623399075,0.00027507930563660973,0.001863311985882938,0.0006355612061785418,0.00048484618120681365,0.0005164628146587871,-0.0005075884984806145,0.001075641911637133,0.7410162091255188,-52.69772720336914,5.461531639099121,18.04572296142578,-1.1866353750228882,-1.4069321155548096,-0.013685601763427258,,,,,,,,,
1739355220.4573112,0.3633084089436044,1.1913442626859068,0.3058240156284663,-1.1524156911768313,-1.3988646476329305,1.0450382770575348,0.07360953050743091,-0.0007242278457157013,-6.199318519505822e-05,-0.0009274747857103722,0.0005396013248064694,-0.00026333876440972845,-2.6692129274242388e-06,0.0026384530983808866,0.7410162091255188,-52.67392349243164,5.513106346130371,18.04572296142578,-1.1866353750228882,-1.4142563343048096,-0.020094294100999832,,,,,,,,,
1739355220.4683213,0.36331283956661437,1.1913420325890185,0.30582582481243886,-1.152414139348249,-1.398864360923132,1.0450382862362575,0.07360983842138419,0.0011072663887370126,-0.0003166158200400187,0.0005537574318129621,0.00010882838932996128,-0.0005966895414164031,-0.0002168162373435772,-0.0002141508017982801,0.6894415020942688,-52.64615249633789,5.489302635192871,18.02191925048828,-1.1930440664291382,-1.4142563343048096,-0.027418512850999832,,,,,,,,,
1739355220.4792628,0.3633101179798366,1.191342227777972,0.3058258235043933,-1.152412058743184,-1.3988646490891392,1.0450381286606958,0.07360634477074139,0.0006210077598943293,0.001203184540175531,0.0003312053839656242,0.0015542689600767613,0.00027279658968279755,-8.467966109358034e-05,-0.0006423318192154674,0.7172124981880188,-52.64615249633789,5.489302635192871,17.99811553955078,-1.1866353750228882,-1.4142563343048096,0.0064559997990727425,,,,,,,,,
1739355220.489309,0.3633096473252716,1.1913426858768386,0.3058247652834521,-1.1524172482563535,-1.3988649496110062,1.0450382900020545,0.07361354979138682,0.00036341269204994244,5.704667063884957e-05,-0.0004119237521062072,-0.0010739484417618937,7.445924841897736e-05,0.00010672915797172488,0.0024920321021542884,0.7172124981880188,-52.62234878540039,5.489302635192871,18.04572296142578,-1.1930440664291382,-1.4142563343048096,-0.027418512850999832,,,,,,,,,
1739355220.5002337,0.36331208146480704,1.1913386814110192,0.3058288893834133,-1.1524156185758345,-1.3988669678774546,1.0450382891972663,0.07360721214928834,0.000142058562061183,-0.00012430105612992607,0.0009306154052159708,0.0005163951650537992,-0.0005230004809502162,0.0007005587450127144,-0.0007756164284541342,0.6894415020942688,-52.57077407836914,5.437727928161621,18.04572296142578,-1.2058614492416382,-1.4142563343048096,-0.0008682189509272575,,,,,,,,,
1739355220.5112305,0.36331003880249213,1.1913377013292008,0.30583167560016533,-1.1524102666163756,-1.398863132392538,1.0450370710563532,0.07360558808713256,4.31029136630912e-05,-0.0008769594879255565,0.0009413380650307088,0.0019501314389195061,-0.0004968381251153546,-0.0009945869657314375,-0.0026530518290534093,0.7172124981880188,-52.59457778930664,5.409956932067871,17.97431182861328,-1.1994527578353882,-1.4069321155548096,0.012864691205322742,,,,,,,,,
1739355220.5212834,0.36331011721433004,1.1913404412223885,0.30581708022561627,-1.1524157289691375,-1.3988632674929482,1.0450382891912802,0.0736091127188085,0.00025641004754608186,-0.00034155585871351805,-0.0018090924743526175,0.0003760779106952239,-0.0004565110501365341,-0.00021549946477521212,0.00027894468068205997,0.7172124981880188,-52.59457778930664,5.564681053161621,18.04572296142578,-1.1994527578353882,-1.4142563343048096,-0.020094294100999832,,,,,,,,,
1739355220.5333006,0.36330839627039546,1.191344407426213,0.3058247917569322,-1.152412976465268,-1.3988616035843793,1.0450397928890165,0.07360635934152343,-1.67257513342312e-05,0.0011127874325952503,-0.0005502272892122633,0.0010032880954344674,0.0012025863988177348,0.00022444924646945714,-0.00010647903751820646,0.7410162091255188,-52.64615249633789,5.489302635192871,17.99811553955078,-1.2122701406478882,-1.4270737171173096,0.0064559997990727425,,,,,,,,,
1739355220.5433064,0.36331011753963466,1.1913389806661105,0.30582968443920855,-1.152413078194148,-1.3988678701537502,1.0450356074553062,0.07360931998853026,0.00045335561828878856,-0.0007396100147166115,0.0022437145542402994,0.0014267099248858862,-0.001185754539494085,-0.0013695371495966546,-0.0011063779069019769,0.7172124981880188,-52.57077407836914,5.437727928161621,17.99811553955078,-1.1866353750228882,-1.4005234241485596,-0.0008682189509272575,,,,,,,,,
1739355220.554343,0.3633098813286844,1.1913441788555132,0.30582717964424283,-1.1524165362606018,-1.3988638899910433,1.0450382906448386,0.07360244824809822,0.001049262433119922,0.0002235175271469867,0.0003972998300313343,-0.002289722960306031,0.0006995910527871349,0.0005080552019423076,-0.002299394588827825,0.7172124981880188,-52.64615249633789,5.461531639099121,18.04572296142578,-1.1930440664291382,-1.4142563343048096,0.03941498324275017,,,,,,,,,
1739355220.565314,0.3633059638466023,1.1913440979843612,0.30582582477215736,-1.1524184038647967,-1.3988635520283947,1.0450382906508202,0.07360629704792915,-0.00018847690172207768,-0.00017485185827338743,0.0009731084362300479,-0.0011246858913972245,0.0010209250256093686,0.0003374785398705782,-0.00011559261319074772,0.7410162091255188,-52.64615249633789,5.489302635192871,18.04572296142578,-1.2058614492416382,-1.4142563343048096,0.012864691205322742,,,,,,,,,
1739355220.5762956,0.36330724396742936,1.191344164556506,0.30582401444543705,-1.1524176279082368,-1.3988663106042498,1.0450366670935094,0.07360554914809815,-0.0005064453441142815,-0.0007236389940848959,-0.00043753317473563974,-0.0006199946066140033,-0.0004602892866367819,-0.0008332306572430446,-0.00018789163235381052,0.7172124981880188,-52.64615249633789,5.513106346130371,18.06952667236328,-1.1729024648666382,-1.4005234241485596,0.012864691205322742,,,,,,,,,
1739355220.5882254,0.36330832234148236,1.1913397103631354,0.3058235957567912,-1.1524184215322273,-1.3988664291802952,1.0450382906508202,0.07360872745116524,0.0008115071882038443,-0.002279058394772054,-0.00095573279163456,5.346752364453211e-05,-0.0003048539063705468,-0.00023284488719812715,0.001167632765605185,0.7410162091255188,-52.62234878540039,5.489302635192871,18.06952667236328,-1.1994527578353882,-1.4142563343048096,-0.013685601763427258,,,,,,,,,
1739355220.5983057,0.36331011332694985,1.1913383249920977,0.305823667331714,-1.152418404950084,-1.3988670820416385,1.0450390483108984,0.07361506527408329,0.00015598625236435597,-0.0019613099178074625,0.0005018049284487711,0.00039370580901097437,-0.000606162946705465,0.0003350589535959075,0.001690332688660334,0.7172124981880188,-52.59457778930664,5.489302635192871,18.06952667236328,-1.1930440664291382,-1.4206650257110596,-0.04023589566349983,,,,,,,,,
1739355220.609297,0.3633098721480776,1.1913456051380247,0.3058279046992813,-1.1524187140421376,-1.3988627336976256,1.0450382906508202,0.07361252700653534,0.000732155089409177,0.0005360099376431489,0.000723159956843251,-0.00015261660242816367,0.0016956822784127295,-0.00029589144509429394,0.001818546715849227,0.7172124981880188,-52.67392349243164,5.461531639099121,18.04572296142578,-1.2058614492416382,-1.4142563343048096,-0.020094294100999832,,,,,,,,,
1739355220.6202915,0.3633083248404763,1.1913400073919345,0.3058233266618002,-1.1524148841887556,-1.3988635578446225,1.0450366670935094,0.0736109860155025,3.0890593378790545e-05,-0.00030447041519022166,-0.001110646960802733,-3.6869202526577786e-05,-0.0003599319826474635,-0.0006760819669301801,0.0013905388377255152,0.7410162091255188,-52.59457778930664,5.513106346130371,17.99811553955078,-1.2058614492416382,-1.4005234241485596,-0.03382720425724983,,,,,,,,,
1739355220.6302998,0.36330617413321586,1.191336917626034,0.3058279046751056,-1.1524130710894163,-1.3988649554852948,1.0450382906508202,0.07361188094908326,5.8270139052987437e-05,-0.002435911275716437,0.0011075641279956862,0.0007394546854634639,-0.0004105699069032868,0.0003840552909461179,0.0015953658248076424,0.7410162091255188,-52.57077407836914,5.461531639099121,17.99811553955078,-1.1930440664291382,-1.4142563343048096,-0.04023589566349983,,,,,,,,,
1739355220.6403012,0.36330455446467624,1.191336124932455,0.30582558355958644,-1.1524151401964466,-1.3988678265653631,1.0450390483108984,0.07360396501696734,-9.76378125541207e-05,-0.0013871537173568232,-0.0001841704578333295,5.5593153044755953e-05,-0.0010914336024426948,1.4910073129577377e-06,-0.0012890879129507952,0.7648199200630188,-52.57077407836914,5.489302635192871,17.99811553955078,-1.1866353750228882,-1.4206650257110596,0.026597600430250168,,,,,,,,,
1739355220.6522949,0.3633052278371754,1.1913415506271856,0.30582763947442565,-1.1524149191466233,-1.3988642608674324,1.0450390483826788,0.07360636820077683,-0.0005415250380788024,0.00010545892555444087,0.0012498830657796502,-0.0002489395806477447,-0.000544121429939033,-7.329260426039297e-05,-0.0005543935874169843,0.7410162091255188,-52.64615249633789,5.461531639099121,17.99811553955078,-1.1930440664291382,-1.4206650257110596,0.0064559997990727425,,,,,,,,,
1739355220.6632318,0.36330554001104354,1.191342694085051,0.3058261866667652,-1.1524169313998234,-1.3988626766314445,1.0450366801754618,0.07360550712152761,-0.0005326756307096307,0.000863397149691742,0.0005822818906133728,0.0004964691856235839,4.368779593963174e-05,-0.0012541297804272173,0.00023211667695752897,0.7410162091255188,-52.62234878540039,5.513106346130371,18.02191925048828,-1.2122701406478882,-1.4005234241485596,0.026597600430250168,,,,,,,,,
1739355220.6733627,0.36330766879568577,1.1913440636576207,0.30582400685061506,-1.1524187139839601,-1.3988628632250288,1.04503904831112,0.07360396943074024,-0.0008069940687533984,0.00047604045737019744,-0.000544005920614199,-0.00041499785730217777,0.0005647006263440969,-3.967503114386605e-05,-0.0008903487382783377,0.7410162091255188,-52.64615249633789,5.513106346130371,18.04572296142578,-1.2058614492416382,-1.4206650257110596,0.026597600430250168,,,,,,,,,
1739355220.684269,0.36330593648204224,1.1913402945686355,0.30582500326579026,-1.152416931411919,-1.3988684817408372,1.0450382906508204,0.07360797044139435,-0.0011267757873374281,-0.0015111204742221582,0.00022971381513874458,0.001408833588070239,-0.0008026435136539102,0.0002477186499253544,0.0005774606170479029,0.7410162091255188,-52.62234878540039,5.489302635192871,18.02191925048828,-1.1930440664291382,-1.4142563343048096,-0.0072769103571772575,,,,,,,,,
1739355220.6952987,0.36330837001079574,1.1913399363699444,0.3058215429989965,-1.1524187140889388,-1.3988682482269272,1.0450390483108987,0.07360570558699003,0.0009830733718512656,-0.0014671389650866373,-0.0019872775782921754,-1.0933482827967927e-05,0.0004906466122687798,0.00011236745239905413,-0.0010868433954276868,0.7410162091255188,-52.62234878540039,5.536910057067871,18.04572296142578,-1.1930440664291382,-1.4206650257110596,0.012864691205322742,,,,,,,,,
1739355220.7062962,0.3633100909697992,1.1913399147423247,0.30582578523563864,-1.1524168548824993,-1.3988688862638856,1.0450398059709771,0.0736072135945266,0.0012731452444106727,0.00030754745737929446,-0.000339454025998641,0.00015825622335285215,-0.001493089209520526,-0.00016713237328057893,-0.0008646442170437791,0.7172124981880188,-52.62234878540039,5.489302635192871,18.02191925048828,-1.1866353750228882,-1.4270737171173096,-0.0008682189509272575,,,,,,,,,
1739355220.7162988,0.3633052282127721,1.191344319968364,0.305827665965161,-1.152416943293397,-1.398868942945689,1.0450382906508204,0.07360913024320669,-0.0008847030046533696,-0.00033249840316949635,-0.0009476238582054866,8.585501772738268e-06,-0.002874571790626774,4.384879001340602e-05,-0.000536053694492695,0.7410162091255188,-52.64615249633789,5.461531639099121,18.02191925048828,-1.1866353750228882,-1.4142563343048096,-0.020094294100999832,,,,,,,,,
1739355220.7272503,0.3633082872735439,1.1913463680306169,0.30582779874630034,-1.1524186885791992,-1.398863806423935,1.0450390483108987,0.07360955043252192,0.0013768865988886688,0.0023662360316027637,0.00021692783869689043,-0.0003819532739444382,-0.000541813470517664,0.0006505438416409493,0.00018357067908929118,0.7410162091255188,-52.67392349243164,5.461531639099121,18.04572296142578,-1.2058614492416382,-1.4206650257110596,0.0064559997990727425,,,,,,,,,
1739355220.7372744,0.3633070162287534,1.1913442969195158,0.30582189255099423,-1.152418714088507,-1.3988653086621394,1.0450398059709771,0.073612697112157,0.0007581433658329136,0.0008138452486307771,-0.00028662000489704877,-5.5766343041832795e-05,-0.0007900550337117703,0.0005508822509173022,0.0026741428314490624,0.7172124981880188,-52.64615249633789,5.513106346130371,18.04572296142578,-1.1930440664291382,-1.4270737171173096,-0.020094294100999832,,,,,,,,,
1739355220.7473316,0.36330521617193984,1.191342256448667,0.30582307970354694,-1.1524168548824993,-1.3988654604771658,1.0450382906508204,0.07360884614172805,-0.0005199505914096834,0.0006662802776646864,-0.0008902207850058854,0.0004099593752223125,-0.002366447610329621,-0.0004600630991937213,-0.0006628439801604414,0.7410162091255188,-52.64615249633789,5.513106346130371,18.02191925048828,-1.1930440664291382,-1.4142563343048096,-0.013685601763427258,,,,,,,,,
1739355220.7583308,0.36330693160737376,1.191338312294389,0.3058279047060274,-1.1524190860090175,-1.3988641963204196,1.0450387616011,0.0736103422541096,-7.583950323869352e-05,-0.001320612655956161,0.0007795174070320142,-0.0005020242298115452,0.0002484825799409212,0.001451041901511704,0.0005652868657053141,0.7172124981880188,-52.59457778930664,5.461531639099121,18.02191925048828,-1.1994527578353882,-1.4142563343048096,-0.027418512850999832,,,,,,,,,
1739355220.7692714,0.3633013807749706,1.1913389579853297,0.30582542755730685,-1.152416931448408,-1.3988623877526667,1.045039048318874,0.07360665483463978,-0.0013228725078050767,-0.0003238861258173134,-0.001075047432090478,0.0003899565703996967,0.0011441133829375417,-0.0001215238339853256,0.0011505184681635642,0.7648199200630188,-52.57077407836914,5.489302635192871,18.02191925048828,-1.2058614492416382,-1.4206650257110596,0.012864691205322742,,,,,,,,,
1739355220.7792785,0.36330929078920154,1.1913424624840916,0.30582332655054084,-1.152419808001174,-1.3988681285254434,1.0450398059709771,0.07360275229737437,0.00015180466810026154,0.0009698045553443166,-0.00043422273427128874,-0.0013353801003945186,-0.0007774242183065334,0.0003675512778083699,0.0002940807321307452,0.7172124981880188,-52.62234878540039,5.513106346130371,18.06952667236328,-1.1930440664291382,-1.4270737171173096,0.012864691205322742,,,,,,,,,
1739355220.7893229,0.3633089276441057,1.1913402960713284,0.3058211812095168,-1.1524151487232364,-1.3988663068292753,1.0450390483108987,0.07360723174751266,0.0006532648249641814,-0.0007362283311589926,-0.0011479999613472325,0.0006618513002340704,0.0012748634103032152,-0.0004609891913029624,-0.0006800649704840339,0.6894415020942688,-52.62234878540039,5.513106346130371,17.99811553955078,-1.1994527578353882,-1.4206650257110596,-0.0008682189509272575,,,,,,,,,
1739355220.8003018,0.3633078725631312,1.1913417755955307,0.3058235985388817,-1.1524184845006775,-1.3988653045105024,1.0450394069774094,0.07360360890475902,0.0004936268604160703,-0.0009579599744537529,-0.0003518408246168241,-0.00017777301283850608,-0.0001962480801427382,0.000265067953180155,-0.002793688554313236,0.7172124981880188,-52.62234878540039,5.489302635192871,18.04572296142578,-1.1930440664291382,-1.4142563343048096,0.026597600430250168,,,,,,,,,
1739355220.8112295,0.36330692869651676,1.1913426174625006,0.30582319016752274,-1.1524180097565537,-1.3988650010151311,1.045038290657122,0.07360960358299573,-0.0005260991835266066,-0.0009716955196847096,-0.0008507915565113256,-6.2327857098317275e-06,0.001332462062320747,-0.0006418686947433488,-0.0004990149446044479,0.7172124981880188,-52.62234878540039,5.489302635192871,17.99811553955078,-1.1866353750228882,-1.4142563343048096,-0.020094294100999832,,,,,,,,,
1739355220.8222833,0.3633069290152092,1.191344178292986,0.30582380258220854,-1.1524187259111476,-1.3988643003645227,1.0450390483108987,0.07360634623600505,-0.000689587138395132,0.0003340012244658286,-0.0010567818260596973,0.00017513319136889404,0.0010191229641847977,0.00011774330217116042,-0.00012429480330163495,0.7172124981880188,-52.64615249633789,5.513106346130371,18.04572296142578,-1.1930440664291382,-1.4206650257110596,0.0064559997990727425,,,,,,,,,
1739355220.8333101,0.3633089267520499,1.1913444065873982,0.30582969621834677,-1.152418723040408,-1.3988639071799438,1.0450390484724041,0.07360792593390025,0.0006690082178571475,0.000125599957125577,0.000761540212698095,0.00030223382434544494,0.0010771867177704277,-0.00012220516467112026,0.0023871751984401997,0.6894415020942688,-52.64615249633789,5.437727928161621,18.04572296142578,-1.2058614492416382,-1.4206650257110596,0.0064559997990727425,,,,,,,,,
1739355220.8433156,0.36330724363919015,1.1913383165056572,0.3058237201016626,-1.1524158757645466,-1.398865553593037,1.0450390502489684,0.07360826943417535,-0.00040831217157319145,-0.0012699845004011893,-0.0007668459716422001,0.00024222087299550902,-0.0006064851639102721,-0.0012884072702165602,0.0015018656758324488,0.7172124981880188,-52.59457778930664,5.513106346130371,17.99811553955078,-1.2058614492416382,-1.4206650257110596,-0.013685601763427258,,,,,,,,,
1739355220.8533187,0.36330521617579103,1.1913369173058344,0.30582336136651544,-1.1524151752381662,-1.3988649625812262,1.0450390483109313,0.0736127253277458,-0.0006188983634190452,-0.001669848369536443,-0.00020327291280282443,0.0004468865320379326,0.0010506904739189984,-0.0001986866627897312,0.0007475747907858464,0.7410162091255188,-52.57077407836914,5.489302635192871,17.99811553955078,-1.1930440664291382,-1.4206650257110596,-0.020094294100999832,,,,,,,,,
1739355220.8643022,0.3633089353805972,1.191338972571087,0.30582403241921535,-1.1524169328292808,-1.398866632107421,1.0450393677315526,0.07360872379281927,0.0011072172811779748,-0.0007567588281703313,-0.0007481324946847144,0.00019854626778117928,-0.0007640765053648997,0.000257790602638825,0.0011862698243728762,0.6894415020942688,-52.57077407836914,5.513106346130371,18.02191925048828,-1.2058614492416382,-1.4142563343048096,-0.013685601763427258,,,,,,,,,
1739355220.8753016,0.363308926632091,1.1913397749737005,0.30582475612605403,-1.1524170108847875,-1.398863487127184,1.0450422272313669,0.07360948532824226,0.000306915398208248,0.0003244397584470683,-0.0013509059456184398,0.00047226343576451464,0.0005027012122943359,2.623813199683809e-05,0.0008264305523093133,0.6894415020942688,-52.59457778930664,5.489302635192871,18.02191925048828,-1.2058614492416382,-1.4206650257110596,-0.020094294100999832,,,,,,,,,
1739355220.8863094,0.3633023816384614,1.1913397106042518,0.3058268250513022,-1.1524187140893876,-1.3988624156773557,1.045043287096702,0.07360999630293052,-0.0013819204302775603,-0.0007039148699390722,-0.000409582310094487,-0.000536035372173591,0.0007052224110751129,0.0009297189105874398,0.0008639862797387094,0.7410162091255188,-52.62234878540039,5.437727928161621,18.04572296142578,-1.2058614492416382,-1.4206650257110596,-0.027418512850999832,,,,,,,,,
1739355220.8973386,0.3633052161544563,1.191344237437998,0.3058247828189373,-1.1524148651175676,-1.3988638068844361,1.0450404747521347,0.07360630451191079,-0.0011867449200373493,0.001638622626609198,-0.0010763684922576733,-7.038795401149215e-05,0.0006816620521316388,0.0010211928150405218,0.00024264932611797128,0.7410162091255188,-52.67392349243164,5.489302635192871,18.02191925048828,-1.2058614492416382,-1.4206650257110596,-0.020094294100999832,,,,,,,,,
1739355220.9082985,0.3633052190866425,1.191340365781253,0.3058233269829663,-1.1524187140772746,-1.3988670841635775,1.0450395323511827,0.07361114814207567,-0.0004007272845278582,-0.0013149343347248635,-0.00038653680105550463,7.049712441397347e-05,-0.001129715340412123,0.000309211186281589,0.0013420567668853667,0.7410162091255188,-52.59457778930664,5.513106346130371,18.04572296142578,-1.2058614492416382,-1.4206650257110596,-0.03382720425724983,,,,,,,,,
1739355220.918304,0.3633048026842341,1.1913436493939447,0.30582790044771346,-1.1524169315209358,-1.398864969232913,1.0450401210391773,0.07360950461404388,3.771602472451511e-05,0.0009791586364066487,0.0007053089816524383,0.0005249754931245819,-0.0001812567938673295,-0.0008209494450675098,0.00039467082610404895,0.7172124981880188,-52.67392349243164,5.461531639099121,18.02191925048828,-1.1930440664291382,-1.4206650257110596,-0.020094294100999832,,,,,,,,,
1739355220.9292266,0.36330534781881657,1.191344175444322,0.3058250973470057,-1.1524172940821986,-1.3988660789508371,1.0450377830328614,0.0736043350634684,-0.0007397419348873745,0.0009721607079870336,-0.0009214582953278107,0.0006699966337116649,0.000337471136566073,-0.00032298235560733316,-0.0001943658764369707,0.7410162091255188,-52.64615249633789,5.489302635192871,17.99811553955078,-1.2058614492416382,-1.4069321155548096,0.026597600430250168,,,,,,,,,
1739355220.9402528,0.3633049802842214,1.1913405160163006,0.3058251096617609,-1.1524149191587498,-1.3988675474656396,1.0450417815302147,0.07360503149636298,-0.0007822300296471201,-0.0011263311047811175,-0.001290192431732891,0.0016689764994709108,-0.0005328242151772893,0.0007068247831376681,-0.00048088942773258456,0.7410162091255188,-52.62234878540039,5.489302635192871,17.99811553955078,-1.1994527578353882,-1.4069321155548096,0.026597600430250168,,,,,,,,,
1739355220.9503357,0.3633068499501939,1.1913386281503209,0.3058258245824436,-1.1524169343514712,-1.3988627809140073,1.0450425294386256,0.07361304663041192,4.76922438677378e-05,-0.001140908593683297,-0.00011521755486803865,0.000280711278645465,0.0008184531628996457,1.8486351242601314e-05,0.002065875837101837,0.7172124981880188,-52.59457778930664,5.489302635192871,18.02191925048828,-1.2058614492416382,-1.4142563343048096,-0.013685601763427258,,,,,,,,,
1739355220.9614112,0.36330692869074405,1.1913398520739769,0.3058257997388455,-1.1524187141979718,-1.398862745471807,1.0450425308961568,0.07360483148005069,-0.00017482965061279716,-0.0010714330488579976,0.0007870579304209094,0.0003499317551839615,0.0007445928521851199,0.0021768402511565385,6.581707233321616e-05,0.7172124981880188,-52.62234878540039,5.489302635192871,18.04572296142578,-1.2058614492416382,-1.4142563343048096,0.019273381680250168,,,,,,,,,
1739355220.972329,0.36330692865518627,1.1913386272263702,0.3058257981034612,-1.1524151487349013,-1.3988639582708642,1.04503830957091,0.07360341149454959,-0.0005673186331142272,-0.0020674070320151677,-0.001096972408104947,0.0004350451117555461,2.8759175414667472e-05,0.0015280389341557465,-0.0019842572320708167,0.7172124981880188,-52.59457778930664,5.489302635192871,17.99811553955078,-1.2058614492416382,-1.4142563343048096,0.019273381680250168,,,,,,,,,
1739355220.9832523,0.36330892659603914,1.1913464057767402,0.30582790176787034,-1.152417295775315,-1.3988663262561207,1.0450414715033822,0.07361027003871487,0.0012641842296188025,0.0014528291276849578,0.0004827832031386303,0.0002692896612123143,-0.0006830498292832642,0.00020853142179802693,0.0007887692085680232,0.6894415020942688,-52.67392349243164,5.461531639099121,17.99811553955078,-1.1994527578353882,-1.4142563343048096,-0.013685601763427258,,,,,,,,,
1739355220.9932547,0.36330380984916955,1.191344382372759,0.30582790045977665,-1.1524208145887782,-1.3988671256297895,1.0450379132003387,0.07360484410379041,-0.0007459643317862207,0.0008908861369432582,-0.0001506204589595311,-0.0008858797285219412,-0.000592433192940374,-0.0014237173979244292,-0.002412090492334331,0.7648199200630188,-52.64615249633789,5.461531639099121,18.06952667236328,-1.1930440664291382,-1.4069321155548096,0.019273381680250168,,,,,,,,,
1739355221.0042386,0.3633089266337701,1.1913426921073538,0.30582403337790587,-1.1524174170811898,-1.3988635036862096,1.0450398191095216,0.07360761497716123,0.0009038457091094909,0.0005721493520996669,-0.0006251176329458994,0.0006395717802523149,0.001973141329754391,-0.0012570029796901124,-0.0007369199392294197,0.6894415020942688,-52.62234878540039,5.513106346130371,18.02191925048828,-1.1994527578353882,-1.4270737171173096,-0.0072769103571772575,,,,,,,,,
1739355221.0142953,0.3633069277191268,1.191336909157767,0.3058258249214552,-1.1524190860176742,-1.398868644541996,1.0450388390581997,0.07361284250280335,0.0010153692626002637,-0.0006834430900622383,-0.0002476978885759501,-0.000621489381506149,-0.0007403469190481526,-0.0020778248911163745,0.002527047936334856,0.7172124981880188,-52.57077407836914,5.489302635192871,18.02191925048828,-1.1930440664291382,-1.4069321155548096,-0.020094294100999832,,,,,,,,,
1739355221.0252805,0.36330797757577,1.1913464053567946,0.30582510672242885,-1.152415148607092,-1.398867136725482,1.0450429362053903,0.07361040417016387,0.0012102089228786081,0.001368298047422536,-0.0009361864434998621,0.0011177069870980428,-0.00029388961250320547,-0.00034263647118974586,0.0009095699515958727,0.6894415020942688,-52.67392349243164,5.489302635192871,17.99811553955078,-1.2058614492416382,-1.4142563343048096,-0.027418512850999832,,,,,,,,,
1739355221.0353076,0.3633069283510956,1.191342465773566,0.3058276306323993,-1.1524187140889368,-1.398863308919022,1.0450442148290517,0.0736087274522881,0.0012243940200813471,0.000641837951815309,0.00010671970539514292,-0.0006964534065799052,-0.00016185010245580155,0.0020334367871514924,-0.0007981121107252308,0.7172124981880188,-52.62234878540039,5.461531639099121,18.04572296142578,-1.1994527578353882,-1.4270737171173096,-0.013685601763427258,,,,,,,,,
1739355221.0463371,0.363308847895036,1.1913419688008569,0.30582786938554846,-1.1524226428602184,-1.3988664875942494,1.045041881156098,0.0736111808747117,0.0003572364507055256,0.000454336025669417,0.00019225089104254426,-0.0010050778547134502,-0.0003554255666905435,-0.0010027098749582598,0.000380726844689409,0.6894415020942688,-52.62234878540039,5.461531639099121,18.06952667236328,-1.1994527578353882,-1.4142563343048096,-0.027418512850999832,,,,,,,,,
1739355221.0572205,0.36330513710928874,1.1913434894231754,0.3058258248488614,-1.152416931428071,-1.3988656850568866,1.0450412784256133,0.07360884001294253,-0.000988330746403465,0.0002594608322949971,-0.0003113973163177136,0.00018687837496947032,0.0007044881460108133,-0.0003756161158552127,-0.0015469229065215645,0.7410162091255188,-52.64615249633789,5.489302635192871,18.02191925048828,-1.2058614492416382,-1.4005234241485596,0.012864691205322742,,,,,,,,,
1739355221.067255,0.36330692868984965,1.1913422306102495,0.3058258245945554,-1.152416931738969,-1.398866369425234,1.045043045453274,0.07360728281536082,0.0006314345663381612,0.0011864815665493772,0.00019457945378433266,0.00044213508940820433,0.001903972074601784,0.0005456820813644127,-0.0018860010221008175,0.7172124981880188,-52.64615249633789,5.489302635192871,18.02191925048828,-1.1994527578353882,-1.4142563343048096,0.026597600430250168,,,,,,,,,
1739355221.07822,0.36330692865518627,1.1913406199950498,0.305825118496184,-1.1524169327201168,-1.398863477969441,1.0450430065330114,0.07360878012497453,0.0010612153260521162,-0.0021714200956963105,0.0005969528728174469,0.0007531240504542692,0.0009276476825526743,0.002097597335043792,-0.00013988418164311603,0.7172124981880188,-52.64615249633789,5.489302635192871,18.02191925048828,-1.2058614492416382,-1.4142563343048096,-0.013685601763427258,,,,,,,,,
1739355221.0882804,0.36330490111445035,1.1913464057592713,0.30582790469949755,-1.152419040919734,-1.3988668277407008,1.045039875584969,0.0736094476328266,-0.0013642120488272682,0.002376600389248467,0.0009955641883924037,-0.0008102819099855187,-0.0011467120132685337,0.00033656888777836626,-2.5274675826953444e-05,0.7410162091255188,-52.67392349243164,5.461531639099121,18.04572296142578,-1.1994527578353882,-1.4142563343048096,-0.020094294100999832,,,,,,,,,
1739355221.098311,0.3633069199266265,1.1913422354548173,0.3058239627717261,-1.1524161328413607,-1.3988663790109703,1.0450420752258647,0.07361398728396716,-0.0007812159511110745,0.0011039567013948243,-0.0009649379414356906,-0.001056343013210584,-0.00042382600253778734,0.0003702416689743515,0.0024138469683558554,0.7172124981880188,-52.64615249633789,5.513106346130371,17.99811553955078,-1.2122701406478882,-1.4069321155548096,-0.020094294100999832,,,,,,,,,
1739355221.1092916,0.3633089266200244,1.191338287737447,0.3058270824985018,-1.1524169324312568,-1.3988636469323568,1.0450430590221804,0.07360503274869397,0.0009648690911373701,-0.001400322046996844,0.000139572800437825,0.00033046748617328314,-7.558455698883248e-05,0.00034484101918735854,-0.0005250658735362851,0.6894415020942688,-52.59457778930664,5.461531639099121,18.02191925048828,-1.1994527578353882,-1.4142563343048096,0.026597600430250168,,,,,,,,,
1739355221.1202958,0.36330684671398283,1.1913398971552915,0.3058228490998841,-1.1524169314119255,-1.3988668388688064,1.0450397577944528,0.07360645901681605,0.00044495793973259415,-0.0016482916733156557,-0.0010488374059690025,0.00042631114188177235,-0.0003500554456849932,7.959168975945735e-05,-0.0005384706367931897,0.7172124981880188,-52.59457778930664,5.489302635192871,18.02191925048828,-1.1994527578353882,-1.4142563343048096,0.03300629183650017,,,,,,,,,
1739355221.1312618,0.36330691702598505,1.191339902505875,0.30582115467754656,-1.15241897932552,-1.3988633087516291,1.0450401989223423,0.07361461661235161,9.408482361204844e-05,-0.0012211184764071774,-0.0015503854813009319,5.204573991141512e-05,0.0016670656400195082,-0.0019925757649084303,0.0008085663963118855,0.7172124981880188,-52.62234878540039,5.513106346130371,18.04572296142578,-1.1994527578353882,-1.4270737171173096,-0.027418512850999832,,,,,,,,,
1739355221.1413057,0.3633067070609172,1.191341564489106,0.3058258238915578,-1.1524171816087476,-1.3988691206582036,1.0450430410211846,0.07361186494083996,-0.0008750546741696425,-8.497254283522906e-05,0.0005426520086111185,0.0003096658289839008,0.0005255658368915084,0.0007705979560643662,-0.00101682329770132,0.7172124981880188,-52.64615249633789,5.489302635192871,18.02191925048828,-1.1866353750228882,-1.4142563343048096,-0.04023589566349983,,,,,,,,,
1739355221.1522372,0.3633051895995191,1.1913463934198902,0.3058240383199949,-1.15242057624023,-1.3988671292408006,1.0450424036700343,0.07360719668439486,0.00033782993721922177,0.0027064653925852602,0.00016772750786288478,-0.00013894442570102185,-0.0013504317003887984,0.0013687484469563503,0.0008721788292134761,0.7410162091255188,-52.67392349243164,5.513106346130371,18.06952667236328,-1.2058614492416382,-1.4206650257110596,-0.027418512850999832,,,,,,,,,
1739355221.1622417,0.36330869139175376,1.1913403531954279,0.3058278782203083,-1.152418979002509,-1.3988666701352306,1.0450413946938963,0.07361035084855237,0.000605065956088639,-0.0012982703474345274,0.0009766319910333226,0.0005022763039067294,-0.0010467203913482337,0.0011280632027017385,-0.0004972537434835487,0.6894415020942688,-52.59457778930664,5.461531639099121,18.04572296142578,-1.2058614492416382,-1.4005234241485596,-0.027418512850999832,,,,,,,,,
1739355221.1722803,0.36330354739117593,1.191346393155401,0.3058240418810493,-1.1524178850877316,-1.398868495490302,1.0450421931249398,0.07360722529494464,-0.0010616077631912476,0.0017251779379636768,-0.00044717426741764483,0.0006785732587955458,-0.0005828352217796453,-0.00010054249600542998,-0.001543675331216111,0.7648199200630188,-52.67392349243164,5.513106346130371,18.02191925048828,-1.1930440664291382,-1.4069321155548096,-0.0008682189509272575,,,,,,,,,
1739355221.1823123,0.36330689337368655,1.191342239128858,0.30582582099701355,-1.1524151487510512,-1.3988625510947867,1.0450415938437543,0.07361037002328574,0.0008761272144596493,0.0005531596995398983,0.0004340598479681484,0.001285818052210948,0.0008527198087195265,5.322238923383333e-05,0.0013369725999722853,0.7172124981880188,-52.64615249633789,5.489302635192871,17.99811553955078,-1.2058614492416382,-1.4142563343048096,-0.027418512850999832,,,,,,,,,
1739355221.1923327,0.36330692869059045,1.1913368296522722,0.3058248315653008,-1.152420886674153,-1.3988672396016293,1.0450430585130728,0.07360548344849203,-0.00044222527375159965,-0.001387050736019318,-0.001380748506448481,-0.0011386876085283388,0.0009603673102354557,0.0002778243404396881,-0.0012092829922496259,0.7172124981880188,-52.57077407836914,5.489302635192871,18.04572296142578,-1.1930440664291382,-1.4142563343048096,0.012864691205322742,,,,,,,,,
1739355221.20337,0.3633052132542722,1.191343707767924,0.3058257488001285,-1.1524172537126123,-1.3988668390463155,1.0450445742887209,0.07360872745079437,-0.000634820992342279,0.0006042515144166384,0.0006745726900612458,0.00026105431502990547,0.0003927011004776213,0.0006365462482374152,-0.0005436586764316236,0.7410162091255188,-52.64615249633789,5.461531639099121,18.02191925048828,-1.1994527578353882,-1.4270737171173096,-0.013685601763427258,,,,,,,,,
1739355221.2142475,0.36330691702643136,1.1913417652122384,0.30582582447337014,-1.1524172850988528,-1.398864256342274,1.0450430589685669,0.07360558857392038,1.699152692531813e-05,-0.0010167298297824702,-0.0001688200569519306,0.0003691384171802122,0.0007215885510314195,-0.00028937358042327845,-0.002130263324366957,0.7172124981880188,-52.62234878540039,5.489302635192871,18.02191925048828,-1.1930440664291382,-1.4142563343048096,0.012864691205322742,,,,,,,,,
1739355221.225216,0.36330521617025985,1.1913377017794686,0.30582285793483566,-1.1524215765350894,-1.3988636555970668,1.0450430590224016,0.07360894532109633,-0.0005208366962899253,-0.0012586917392773352,-0.0003082777260305673,-0.0006380602455892822,0.0012389257860243674,0.0007328695047388804,0.0005828730267485143,0.7410162091255188,-52.54300308227539,5.489302635192871,18.04572296142578,-1.1994527578353882,-1.4142563343048096,0.012864691205322742,,,,,,,,,
1739355221.2362578,0.3633030868872455,1.191341617554646,0.3058211781160941,-1.1524208961747266,-1.3988674294947718,1.0450430585378856,0.0736078753574627,-0.001753439569873756,0.0007666176822197026,-0.0024405924580752367,-4.8534260478410576e-05,-0.0011662452751232512,-0.00045860649190226146,-0.0003346945697095454,0.7410162091255188,-52.64615249633789,5.513106346130371,18.04572296142578,-1.1994527578353882,-1.4142563343048096,-0.0008682189509272575,,,,,,,,,
1739355221.246283,0.3633057644672215,1.1913426694863483,0.3058228833921432,-1.152419716281154,-1.398867490619021,1.0450379545726498,0.07360558890294666,-0.0003475031666394158,-0.00015886030497414742,-0.00038803326877626457,-0.0005041401789056454,-0.0011781680039527722,-0.0005796733449453111,-0.0010964591444744952,0.6894415020942688,-52.62234878540039,5.489302635192871,18.02191925048828,-1.1994527578353882,-1.4069321155548096,0.012864691205322742,,,,,,,,,
1739355221.2572732,0.363306928673338,1.191338904591454,0.305823949891202,-1.1524235302458505,-1.3988685268227397,1.0450430589984756,0.07360879320706494,-0.00031923561233178853,-0.0003489868311098423,-0.00012753981680691358,-0.001332005235531852,-0.0022813292685995683,-0.0010966495211589978,-0.0007518228775692259,0.7172124981880188,-52.57077407836914,5.513106346130371,18.09729766845703,-1.1930440664291382,-1.4142563343048096,0.012864691205322742,,,,,,,,,
1739355221.267331,0.36330616101445573,1.1913426865422703,0.3058240291610701,-1.1524208688116357,-1.3988657238724933,1.045042941284832,0.07361177323178125,0.0014881180198635343,0.0012054863180220334,-0.0007633623890518143,-0.0007807254228101588,0.0005881414238061147,0.0004676858753334309,0.0012509562440623592,0.7410162091255188,-52.62234878540039,5.513106346130371,18.04572296142578,-1.2058614492416382,-1.4142563343048096,-0.027418512850999832,,,,,,,,,
1739355221.2782538,0.3633035036550598,1.1913440903221644,0.3058257882557266,-1.1524216029595387,-1.3988647217619568,1.0450438147437489,0.07360559036986615,-0.0010589697229264926,0.0004463683879434371,0.0012661924548650636,-0.0014314363870021169,-0.001226609726269003,5.7983899791155244e-05,-0.0013702481469682018,0.7648199200630188,-52.64615249633789,5.489302635192871,18.04572296142578,-1.1994527578353882,-1.4206650257110596,0.012864691205322742,,,,,,,,,
1739355221.2893221,0.36330692869118864,1.1913379409917457,0.30582293740708205,-1.1524169432346,-1.3988678439420612,1.0450445743425263,0.07361110866891742,0.000808246004969842,-0.001129802353100054,-0.0012613559541922005,0.0009962172936794197,0.0006055076872908821,0.0009853534454325316,0.0010259027402915646,0.7172124981880188,-52.59457778930664,5.489302635192871,18.02191925048828,-1.1994527578353882,-1.4270737171173096,-0.03382720425724983,,,,,,,,,
1739355221.2993364,0.3633038579121906,1.1913426943664747,0.3058279614061344,-1.1524216810757677,-1.3988672411326242,1.0450438166824807,0.0736109074427931,-0.0014874355553399269,0.0004409454111083473,0.0011295622463211846,-0.0007458463052491525,-0.0002773379242607683,0.0002823232564766644,0.0005027845110818509,0.7172124981880188,-52.62234878540039,5.489302635192871,18.04572296142578,-1.1930440664291382,-1.4206650257110596,-0.020094294100999832,,,,,,,,,
1739355221.3112338,0.36330350039218573,1.1913442626847053,0.30582404225664683,-1.1524165008374296,-1.3988671029793567,1.0450421936217997,0.07361070643712697,-0.0006629160822854445,0.0010734734257131714,-0.00034376084848315237,0.0008535266368887346,-0.0007459917952669584,0.00010453894123494485,1.4268321260385488e-06,0.7648199200630188,-52.67392349243164,5.513106346130371,17.97431182861328,-1.1793111562728882,-1.4069321155548096,-0.027418512850999832,,,,,,,,,
1739355221.3213146,0.36330405614075995,1.1913404560280232,0.3058250427073654,-1.152418379595067,-1.3988636430023995,1.0450438166824834,0.07360402352412355,-0.00020432996709096097,1.2772220754918664e-05,7.406923202724183e-05,-0.0008579442864304964,0.0010592592375406652,0.00010119956863513996,-0.0005956355991722571,0.7172124981880188,-52.59457778930664,5.461531639099121,17.99811553955078,-1.1994527578353882,-1.4206650257110596,0.026597600430250168,,,,,,,,,
1739355221.3323162,0.36330147919497485,1.1913405484425335,0.30582579448991043,-1.1524151792050166,-1.3988653224225849,1.04504219312517,0.0736087674304063,-0.00107162071021938,-0.0003635805628608019,-0.00031672514605969945,0.0004380466355905306,0.0012633260760379651,-0.0007394160097992274,0.0015380565878218024,0.7925909161567688,-52.62234878540039,5.489302635192871,17.99811553955078,-1.1930440664291382,-1.4069321155548096,-0.013685601763427258,,,,,,,,,
1739355221.343255,0.3633078767692245,1.1913406192573583,0.3058258219779944,-1.152420896631144,-1.3988678831690864,1.04504219312517,0.07361141732407366,7.224429289299128e-05,-0.000809031225065844,0.0005201708871594446,-0.0003130034307976562,0.0007367162817758575,-0.0007831447614998219,0.0010434137558300702,0.6894415020942688,-52.62234878540039,5.489302635192871,18.04572296142578,-1.1994527578353882,-1.4069321155548096,-0.027418512850999832,,,,,,,,,
1739355221.3543477,0.36330457532382093,1.1913425904764654,0.30582332796997885,-1.1524196717365003,-1.398864551650655,1.0450438166824807,0.07361035247746298,0.0001308885935562261,3.368081910017735e-06,-0.00018376440573919652,0.00018621533586076026,0.00034205819134612635,0.0001304887043458213,0.0008519420083268495,0.7172124981880188,-52.62234878540039,5.513106346130371,18.04572296142578,-1.1994527578353882,-1.4206650257110596,-0.027418512850999832,,,,,,,,,
1739355221.3653345,0.36330581764133324,1.1913381116914616,0.3058279045620738,-1.1524194318507976,-1.3988667828853114,1.0450430590224025,0.07360402352212544,0.0005639490282616751,-0.00042784322894560934,0.0006706382365403581,-0.0008691500185146334,0.0002634112502474037,-0.0003624726472049306,-0.0005091802466730304,0.6894415020942688,-52.57077407836914,5.461531639099121,18.02191925048828,-1.1994527578353882,-1.4142563343048096,0.026597600430250168,,,,,,,,,
1739355221.377244,0.3633069273415536,1.1913416159710022,0.30582582492160454,-1.1524233696131179,-1.3988678609476726,1.0450438345611486,0.07361068890506298,-0.0003766840940593028,-0.000784118410672167,-0.0001443289911370645,-0.0004930841131897538,-0.0005587848593821959,0.0005739257861307382,0.0013154228180237613,0.7172124981880188,-52.64615249633789,5.489302635192871,18.06952667236328,-1.1994527578353882,-1.4206650257110596,-0.027418512850999832,,,,,,,,,
1739355221.387264,0.36330884400678726,1.1913465535290393,0.305824871247289,-1.1524196717040582,-1.398863958295464,1.0450438166825815,0.07360878735843078,0.0003489513464961605,0.0012604784770919243,0.00024770029517259205,-0.00010430131886056339,0.00045730368660836575,0.0012884756164166155,0.0008371819120522735,0.6894415020942688,-52.64615249633789,5.489302635192871,18.04572296142578,-1.2058614492416382,-1.4206650257110596,0.012864691205322742,,,,,,,,,
1739355221.3974214,0.3633034774026602,1.191339744671283,0.30582677857977125,-1.1524209486116106,-1.3988679638538832,1.04504219312517,0.07360721218540282,-0.0004180059801556532,-0.0006907834672830206,0.0009985484564471298,-0.00020731130482468417,-1.1230872267638313e-05,-0.00012358850707757952,-0.0020786462485288797,0.7648199200630188,-52.59457778930664,5.489302635192871,18.04572296142578,-1.1866353750228882,-1.4069321155548096,-0.0008682189509272575,,,,,,,,,
1739355221.4082296,0.3633089237157083,1.1913403827946532,0.30582186988278837,-1.152420110447938,-1.3988678612149612,1.04504219312517,0.07360320735664172,0.0009587047338904651,-0.0014464739382733125,-0.000995322369785961,0.0004051385916281901,0.0009021541881098585,-0.0009357234710647489,-0.002804418133010377,0.6894415020942688,-52.59457778930664,5.513106346130371,18.02191925048828,-1.1994527578353882,-1.4069321155548096,0.03300629183650017,,,,,,,,,
1739355221.419292,0.36330892616399546,1.191342593285839,0.30582766584455373,-1.1524215844325554,-1.3988647071804075,1.0450438166824807,0.07361092429869627,0.0008381647330666831,0.0001334674027896342,0.0008040763607793598,-6.383066562813604e-05,0.001542197563148854,0.00031687949680842854,0.00020612364808983191,0.6894415020942688,-52.62234878540039,5.461531639099121,18.04572296142578,-1.1994527578353882,-1.4206650257110596,-0.0008682189509272575,,,,,,,,,
1739355221.429314,0.3633064591073431,1.1913410032459264,0.30582582491756016,-1.1524219293543538,-1.398866385310117,1.0450430590224025,0.07361293200364831,3.076936352951957e-05,-0.0015085018309044071,-0.00013062019247443658,-3.501043570689646e-05,-2.0899030222425695e-05,0.0003344254476683844,0.000555777614868174,0.6894415020942688,-52.62234878540039,5.489302635192871,18.04572296142578,-1.2122701406478882,-1.4142563343048096,-0.04023589566349983,,,,,,,,,
1739355221.4403095,0.3633068494722297,1.1913444069282069,0.3058232475159893,-1.1524199113170905,-1.3988668395926762,1.0450421926406532,0.07361110867490277,0.0001055082504959047,0.0005480537365103282,-0.0021294373843916787,0.00036009351648160837,-0.00012448338841020238,-0.0005851619473604856,0.0005814752596041844,0.7172124981880188,-52.64615249633789,5.513106346130371,18.02191925048828,-1.1994527578353882,-1.4069321155548096,-0.03382720425724983,,,,,,,,,
1739355221.4503558,0.36330480279085,1.1913424279812515,0.30582396275826784,-1.1524195452794346,-1.3988675474536765,1.0450438166824725,0.07361090241164193,-0.0005889098063955626,-0.0002700333391023389,-0.00013889249865552854,-3.167706490958831e-05,-0.0015638625350596967,-0.00027384597808611914,0.0010121499735792024,0.7172124981880188,-52.62234878540039,5.513106346130371,18.04572296142578,-1.1994527578353882,-1.4206650257110596,-0.020094294100999832,,,,,,,,,
1739355221.4612188,0.36330665419775793,1.1913379413105503,0.30582579843020347,-1.1524172085359663,-1.3988692428685339,1.04504219312517,0.07360332583807185,0.0005956416829081398,-0.001828453854187353,-0.0002575102629852762,0.0003505651727206742,0.0003105273735348207,0.00028353681452923283,-0.002033395742778425,0.7172124981880188,-52.59457778930664,5.489302635192871,18.02191925048828,-1.1866353750228882,-1.4069321155548096,0.03300629183650017,,,,,,,,,
1739355221.4712775,0.36330892662739306,1.1913443961832637,0.3058239617901316,-1.1524201499039064,-1.3988682146482772,1.0450438160364584,0.0736083888387704,0.0012894329066616712,8.946627785859425e-05,-0.0003837782019074779,-0.0004064628658487069,-0.00012149355995067086,0.0006049668593026404,-0.0008333513925733648,0.6894415020942688,-52.64615249633789,5.513106346130371,18.02191925048828,-1.1994527578353882,-1.4206650257110596,-0.013685601763427258,,,,,,,,,
1739355221.4822972,0.36330416594776704,1.1913417684004761,0.3058279308749112,-1.1524200655024512,-1.3988679900734937,1.0450430590223987,0.07360796978939799,-0.0022999713191764956,-0.0009000391999240108,0.0008476304282283657,-0.00038273140602790057,-0.0008900543183937767,-0.0008190859734157083,0.0003612302329133823,0.7410162091255188,-52.62234878540039,5.461531639099121,18.02191925048828,-1.1866353750228882,-1.4142563343048096,-0.0072769103571772575,,,,,,,,,
1739355221.4932861,0.3633047674561632,1.1913406166767184,0.3058239627721697,-1.1524183585539687,-1.3988679004987021,1.04504219312517,0.07361414506647929,9.594292463513832e-06,-0.0011369234418209194,-0.0007640066745335616,0.0007360670926659447,-0.0011227756940752347,0.0002924957704979123,0.0035532585841027645,0.7172124981880188,-52.59457778930664,5.513106346130371,17.99811553955078,-1.1994527578353882,-1.4069321155548096,-0.020094294100999832,,,,,,,,,
1739355221.5033293,0.3633014750947296,1.1913417004789135,0.3058212251117473,-1.1524208729925614,-1.3988681741506956,1.0450430590224025,0.07360948513788183,-0.001024059942895224,0.0007378331806638981,-0.0006686531422518083,-0.0005238400376082861,0.0012196539544162954,-0.0008236774865833382,-0.00047248525491021384,0.7925909161567688,-52.62234878540039,5.536910057067871,18.04572296142578,-1.1930440664291382,-1.4142563343048096,-0.020094294100999832,,,,,,,,,
1739355221.5143092,0.36330496728648015,1.1913406205236052,0.3058289691834639,-1.152419192966596,-1.398865729524683,1.045044272364508,0.07360914348104435,-0.0004980727799486549,-0.00037870010242881406,0.0008870497923585006,-0.0003674709176106571,0.0003550520566133121,0.000191241759923441,0.00041520815586461383,0.7410162091255188,-52.62234878540039,5.437727928161621,18.02191925048828,-1.2058614492416382,-1.4334824085235596,0.012864691205322742,,,,,,,,,
1739355221.524319,0.36330598614110254,1.1913441754247447,0.30582779873548516,-1.152421825778589,-1.3988694153345527,1.0450438166645355,0.07360560179783747,0.0006070681103962242,0.0008273382652927883,0.0006751590806557399,-0.001041856270174514,-0.0013339419771934318,-2.968826526198444e-05,-0.0010412477251842125,0.6894415020942688,-52.64615249633789,5.461531639099121,18.04572296142578,-1.1866353750228882,-1.4206650257110596,0.012864691205322742,,,,,,,,,
1739355221.5352545,0.36330377919459383,1.1913359920756197,0.3058271855305397,-1.1524218532662933,-1.3988673774062637,1.0450421931251699,0.07361253035011851,-0.0012038933299411666,-0.00038392450037054394,0.0004769263569704943,-0.00018721829421995348,0.0004978427557132114,-0.00047987322305081845,0.002395259948870408,0.7172124981880188,-52.54300308227539,5.461531639099121,18.04572296142578,-1.1994527578353882,-1.4069321155548096,-0.03382720425724983,,,,,,,,,
1739355221.546341,0.3633068109103757,1.191342695030051,0.3058271541222733,-1.1524201500613918,-1.3988682475894862,1.0450420753876002,0.07360954552822295,0.0003665666200919252,0.0005612432424982509,0.0006268150124102313,-0.0005259949367740132,0.0003562612331873861,-0.0003672679626516745,-0.0007558720908766042,0.7172124981880188,-52.62234878540039,5.461531639099121,18.02191925048828,-1.1994527578353882,-1.4069321155548096,0.0064559997990727425,,,,,,,,,
1739355221.5573258,0.3633047987597139,1.191343485435354,0.30582307973853984,-1.1524219103187443,-1.3988671037252385,1.0450445743423376,0.07360796981538671,0.00098804190226941,0.0005244878150043553,-0.001130160396630567,-0.001956108023409913,0.0006337393763901178,0.0007163977702711585,-0.000920206963299303,0.7172124981880188,-52.64615249633789,5.513106346130371,18.04572296142578,-1.2058614492416382,-1.4270737171173096,-0.0072769103571772575,,,,,,,,,
1739355221.5673409,0.36330690240945135,1.1913406936261297,0.30582574998861495,-1.1524180003705604,-1.398867143023612,1.0450430649819584,0.07360716379932311,0.001323781738425742,-0.0006084847357591327,0.0008252911933165132,0.0005815954717465931,-0.00138851789362865,-9.947899468017545e-05,-0.002138138101563866,0.7172124981880188,-52.59457778930664,5.461531639099121,18.02191925048828,-1.2058614492416382,-1.4142563343048096,0.026597600430250168,,,,,,,,,
1739355221.5782886,0.3633069273949579,1.1913413352280635,0.3058250831627514,-1.152419778130092,-1.3988675987063048,1.0450445743977737,0.07361268830014123,0.000953692866553686,-0.00031910129828188744,-0.0010048347638877,-0.0003883212387590026,-0.0008856098340805919,0.000349054395332271,0.0011255303188983509,0.7172124981880188,-52.64615249633789,5.489302635192871,18.04572296142578,-1.1930440664291382,-1.4270737171173096,-0.020094294100999832,,,,,,,,,
1739355221.5892134,0.3633037398966892,1.191342009488473,0.30582367915020625,-1.152421932727594,-1.3988651262113547,1.0450421931251703,0.07360838143678217,-0.0011946078600013242,-0.0011743813863730706,-0.0003190519209774601,-0.0006350262074438419,0.0006868412377957633,-0.0008824280254472107,0.001275457901341198,0.7172124981880188,-52.64615249633789,5.489302635192871,18.04572296142578,-1.1930440664291382,-1.4069321155548096,-0.027418512850999832,,,,,,,,,
1739355221.6002874,0.3633068236545195,1.1913443029682993,0.30582568261903625,-1.1524201500627373,-1.398867895617866,1.0450430590224025,0.07360397002132965,0.0001887291096305214,0.0015568104145325255,0.0005458524931062836,-0.00021505485863018573,-0.001074029375621241,-0.001019738175288346,-0.00016183663860682177,0.7172124981880188,-52.64615249633789,5.489302635192871,18.02191925048828,-1.1994527578353882,-1.4142563343048096,0.026597600430250168,,,,,,,,,
1739355221.610314,0.36330586622712796,1.1913445329236343,0.3058296873876767,-1.1524144384690838,-1.398864720316389,1.0450438166824807,0.07361191947139624,8.289410684322965e-05,0.0018108094020298378,0.0016198852223818223,0.002269386063664087,0.00035954920726449953,0.0003416563596992738,0.0014492714989251974,0.7172124981880188,-52.64615249633789,5.437727928161621,17.97431182861328,-1.1994527578353882,-1.4206650257110596,-0.04023589566349983,,,,,,,,,
1739355221.6203241,0.36330305493522475,1.191343718804964,0.3058276299904645,-1.1524180041501626,-1.3988671428089121,1.04504219312517,0.07360914277771252,-0.0010676196472950675,0.0012588269842423955,0.00020312797231925782,0.0005560174015877654,0.00012686476968999996,-0.0005739676271988691,8.254031232505761e-05,0.7410162091255188,-52.64615249633789,5.461531639099121,18.02191925048828,-1.2058614492416382,-1.4069321155548096,0.012864691205322742,,,,,,,,,
1739355221.6313493,0.36330661261491787,1.191341626364926,0.3058229253053463,-1.1524219323642555,-1.3988674963984917,1.0450430590224025,0.0736009856406955,-0.0005827966061096953,1.685186220975012e-05,-0.0008381558592721303,8.485435851570723e-05,0.000373361073763926,-0.0005177428888583552,-0.0006595161037076518,0.7172124981880188,-52.64615249633789,5.489302635192871,18.04572296142578,-1.2058614492416382,-1.4142563343048096,0.05314789339900017,,,,,,,,,
1739355221.6423042,0.36330035402393723,1.1913454873496936,0.3058257500975629,-1.152423711455849,-1.3988694160065076,1.0450438161979638,0.07360483676539228,-0.0011307693420540578,0.00027901673561150876,0.00035326134387112304,-0.0012042997335283332,-0.0012527671524050004,0.0002442952292113822,-0.0004318145308712623,0.7648199200630188,-52.67392349243164,5.461531639099121,18.06952667236328,-1.1866353750228882,-1.4206650257110596,0.019273381680250168,,,,,,,,,
1739355221.653213,0.3633051810144463,1.191341651523509,0.30582964769439547,-1.1524198321712764,-1.3988707928889452,1.045043816682478,0.07360610195881562,0.0003573398011465453,-0.0003825663047079372,0.0013856382373364931,0.0008488532966268553,-0.0017232223546348917,0.0004395661765766427,0.0009805788388954225,0.7410162091255188,-52.64615249633789,5.437727928161621,18.02191925048828,-1.2058614492416382,-1.4206650257110596,0.012864691205322742,,,,,,,,,
1739355221.663222,0.36330518981618853,1.191342341541535,0.3058275778800159,-1.1524233976330072,-1.3988686584062449,1.0450438166824807,0.07361035101750288,0.0005202163919811482,0.0009124865928081889,-7.734911209745702e-05,-0.0007939915636436678,-0.0005766570262998497,-1.031063781049092e-05,0.0008217746327591987,0.7410162091255188,-52.64615249633789,5.461531639099121,18.06952667236328,-1.1930440664291382,-1.4206650257110596,-0.027418512850999832,,,,,,,,,
1739355221.6752841,0.3633027364048407,1.1913426953501707,0.30582729541769166,-1.152419796848234,-1.3988669860408514,1.0450438166824807,0.07360634623399878,-8.130862231236992e-05,0.000964515850980496,0.0003337902710092922,0.0015170950734449927,0.00021830662109948882,-0.00020759025149346585,-0.0018986148812073192,0.7410162091255188,-52.62234878540039,5.461531639099121,18.02191925048828,-1.2058614492416382,-1.4206650257110596,0.0064559997990727425,,,,,,,,,
1739355221.6862838,0.3633086641227062,1.1913481057000581,0.3058258248720072,-1.1524219323030271,-1.3988678992305104,1.04504219312517,0.07360287150250121,0.0013543030948787282,0.0010281972570936042,-6.255696699180441e-05,-0.0008832804636006097,0.001388497853930965,-0.0006014659527072614,-0.0016910682983107268,0.6894415020942688,-52.69772720336914,5.489302635192871,18.04572296142578,-1.1994527578353882,-1.4069321155548096,0.03300629183650017,,,,,,,,,
1739355221.697359,0.3633067880947603,1.1913397022235088,0.3058258249216051,-1.1524214902143863,-1.3988671425397525,1.0450431797034117,0.0736109072783822,0.0014843759868808737,-0.0010855861036777315,9.612500135091422e-05,-0.0006778082486233228,-0.001341534580967705,0.0007171949143508572,0.000929682132951076,0.6894415020942688,-52.59457778930664,5.489302635192871,18.06952667236328,-1.2058614492416382,-1.4142563343048096,-0.020094294100999832,,,,,,,,,
1739355221.7082129,0.3633020373725288,1.191336915765858,0.30582367032407576,-1.1524183673731572,-1.3988679006843534,1.045043816683162,0.07361189366634822,-0.0003904685524755953,-0.0012480144959642926,-0.00026314827063942276,0.0005331584218085032,-0.00012104442452646645,0.0006121132144707699,0.0005962554112310195,0.7410162091255188,-52.57077407836914,5.489302635192871,17.99811553955078,-1.1994527578353882,-1.4206650257110596,-0.027418512850999832,,,,,,,,,
1739355221.7182894,0.3633088872637119,1.1913399317643891,0.3058240068868271,-1.1524219062488033,-1.3988660833861482,1.04504381232183,0.07361264884959864,0.0005218155949634946,-0.0003062056599172793,-0.0007616389572937879,0.0003300643710628621,2.847603410834022e-05,-0.0003382210543864888,0.002351797401637142,0.6894415020942688,-52.62234878540039,5.513106346130371,18.04572296142578,-1.2058614492416382,-1.4206650257110596,-0.03382720425724983,,,,,,,,,
1739355221.7283185,0.3633023816377947,1.1913434116935553,0.3058279047108622,-1.1524219340959552,-1.3988679006664109,1.0450438166824068,0.07360396504280284,-0.000923246449940814,0.0005686930629626552,0.0009230816031405791,0.00022047455723052056,0.00015324105478060624,-7.034942389625896e-05,-0.0018674118845166468,0.7410162091255188,-52.64615249633789,5.461531639099121,18.04572296142578,-1.1994527578353882,-1.4206650257110596,0.026597600430250168,,,,,,,,,
1739355221.7392385,0.3633059746146036,1.1913368155812476,0.3058239362807734,-1.1524219327397645,-1.398868671372551,1.0450430590224025,0.07361035165886878,0.0007110372728400228,-0.0008310036185600979,-0.0007994939623833291,-0.0013880512120401525,-0.0001525617247786202,-0.0007125753790368351,-0.0004162322621968997,0.7172124981880188,-52.57077407836914,5.513106346130371,18.04572296142578,-1.1930440664291382,-1.4142563343048096,-0.027418512850999832,,,,,,,,,
1739355221.7502146,0.36330446929764465,1.1913461733884891,0.30582487124669083,-1.152421932739757,-1.398867900199913,1.0450430590224025,0.07361479156847513,-7.220917461821144e-05,0.0018951056559765285,-0.00019697810571138945,-0.00043519689766172045,0.00038352570293680437,-0.00019150090762483317,0.0011801706422927404,0.7410162091255188,-52.67392349243164,5.489302635192871,18.04572296142578,-1.1994527578353882,-1.4142563343048096,-0.027418512850999832,,,,,,,,,
1739355221.7602775,0.3633066532610509,1.1913403875201334,0.3058239627555761,-1.152422436067868,-1.3988683051317161,1.0450438166824807,0.0736107593216718,0.0006842745389359595,-0.0004893478653360645,-0.00010351260529758706,-0.000651594216834773,5.039347598822494e-05,-6.61778773506309e-05,-0.00016423695304599412,0.7172124981880188,-52.59457778930664,5.513106346130371,18.04572296142578,-1.1930440664291382,-1.4206650257110596,-0.027418512850999832,,,,,,,,,
1739355221.7712896,0.36330681171820595,1.1913451080802182,0.30582790427494716,-1.15242370364586,-1.398867900682362,1.0450438166824807,0.07360737172325897,-0.00038963391866233014,0.000711283998098952,0.00092239883664734,-0.0006092530587485842,0.0004315182594490419,0.00011084832990295328,-0.0004295541789294813,0.7172124981880188,-52.69772720336914,5.461531639099121,18.06952667236328,-1.1994527578353882,-1.4206650257110596,-0.0008682189509272575,,,,,,,,,
1739355221.7813208,0.3633085854363945,1.1913397106634585,0.30582758682001476,-1.1524199381349125,-1.398867900684356,1.0450445743425592,0.07361066716449398,0.0022825802321249367,-0.000613184292400628,0.0003387322588641945,0.0001407715046691136,-0.0011808997988286033,1.880335908752644e-05,0.00020432120705207604,0.6894415020942688,-52.62234878540039,5.461531639099121,18.02191925048828,-1.1994527578353882,-1.4270737171173096,-0.027418512850999832,742,746,756,40.414,0,0
1739355221.7923481,0.36330479357368023,1.191339702159327,0.3058296785563678,-1.1524165846711643,-1.398865479376211,1.0450430724314035,0.0736071567624279,0.0007269619638347762,-0.0006732307086559645,0.0020597702562676836,0.0010741105670903062,-0.0008465102577308838,0.0002052271097630866,-0.0006697668878727593,0.7172124981880188,-52.62234878540039,5.437727928161621,17.97431182861328,-1.1930440664291382,-1.4142563343048096,-0.027418512850999832,744,741,756,40.305,0,0
1739355221.802411,0.36330968509203276,1.1913396848390048,0.3058258248124396,-1.1524259406568467,-1.3988664877796808,1.045042193125397,0.07361178579958509,0.0007580094360242322,0.00016072181033451277,6.512609110697029e-06,-0.0012927896796573546,0.0009453212069063508,9.137930124405034e-05,0.0014100406140801138,0.6656377911567688,-52.62234878540039,5.489302635192871,18.06952667236328,-1.1994527578353882,-1.4069321155548096,-0.027418512850999832,742,746,754,40.414,0,0
1739355221.8133292,0.363306210008166,1.1913430442658604,0.3058251066860895,-1.1524237140848033,-1.398867935561586,1.0450445743425592,0.0736024497046625,0.000115596571165042,0.0006151239207209615,-0.0001471374177624055,-0.000987393831082335,-0.0005464754322901593,0.0003414580038036927,-0.0016719370134391724,0.7172124981880188,-52.64615249633789,5.489302635192871,18.06952667236328,-1.1994527578353882,-1.4270737171173096,0.03941498324275017,744,745,756,40.305,1,0
1739355221.8242924,0.3633069965154546,1.1913444040956382,0.30582790427134143,-1.1524219327397494,-1.3988690453493968,1.0450438166824807,0.07360872891402279,-2.530930030478218e-05,0.0004017923823642718,0.001410634708550699,-0.000829710900490629,-0.001043119400294441,0.0003595104766593161,-0.0006651278399185342,0.7410162091255188,-52.64615249633789,5.461531639099121,18.04572296142578,-1.1866353750228882,-1.4206650257110596,-0.013685601763427258,743,744,755,40.197,1,0
1739355221.8353505,0.3633057391076797,1.191338258973011,0.30582992580705665,-1.1524201500627376,-1.3988670863337256,1.0450430590224025,0.07360823054774358,-0.001014130609245962,-0.0010892495521235598,0.002549819001316503,-0.00015394956499323195,0.0005191495756099757,-0.0002652195274941213,-0.0018512840172899777,0.6894415020942688,-52.57077407836914,5.437727928161621,18.02191925048828,-1.2058614492416382,-1.4142563343048096,0.026597600430250168,743,746,756,40.197,0,0
1739355221.8453538,0.3633039770257769,1.1913441745027809,0.3058278693942276,-1.1524194714364666,-1.3988687902561465,1.04504219312517,0.07360634646875087,-0.000370446411797096,0.0017896108261535042,0.0006824824677991207,0.00048218783812010237,3.781841101400458e-05,-0.0009028714206792286,-0.0020249351945036504,0.7172124981880188,-52.64615249633789,5.461531639099121,18.02191925048828,-1.1994527578353882,-1.4069321155548096,0.0064559997990727425,743,745,756,40.305,0,0
1739355221.8553624,0.3633045625349514,1.1913443738655385,0.30582790471086285,-1.152421932728264,-1.3988680184369908,1.0450430590224025,0.07361035247144757,-0.0011415044702188756,0.0019056453991963573,0.0007141877295971064,-9.11907890406847e-05,-7.94063995662915e-05,-0.0002810648062146902,0.0004681929023526548,0.7172124981880188,-52.64615249633789,5.461531639099121,18.04572296142578,-1.1994527578353882,-1.4142563343048096,-0.027418512850999832,745,743,755,40.197,0,0
1739355221.8663063,0.36330585551566613,1.1913376361389933,0.30582504357949547,-1.1524184782916023,-1.398868640902496,1.0450406778050134,0.07361070642910614,0.0001146394788611231,-0.0007844854911771919,-0.0005758621870074989,0.00032554511103597344,6.919239277501867e-05,-0.0011890743767138602,0.0001863876150341163,0.6894415020942688,-52.59457778930664,5.461531639099121,17.99811553955078,-1.1930440664291382,-1.3941147327423096,-0.027418512850999832,744,743,757,40.197,0,0
1739355221.877235,0.36330374905994295,1.1913413466534746,0.30582790454995473,-1.1524219327403828,-1.3988669860407525,1.0450431797034117,0.07360721218740914,0.0004841882518127298,-0.0001991606749573173,0.0005100927005430762,-0.0008685911855861755,-0.00018205621320931014,-0.0003163297914013489,0.00031354344502165413,0.7172124981880188,-52.64615249633789,5.461531639099121,18.04572296142578,-1.2058614492416382,-1.4142563343048096,-0.0008682189509272575,744,746,756,40.305,0,0
1739355221.8872871,0.36330595722365533,1.1913434129482583,0.30582581609128495,-1.1524201775348373,-1.3988665010743162,1.0450438166845244,0.07360948559912218,-0.00022806296435596142,1.382521752573058e-05,6.769027159446602e-05,0.00011651013723906168,0.0006202870168244608,-0.00047232620406433934,-0.0011235530914947293,0.7172124981880188,-52.64615249633789,5.489302635192871,18.02191925048828,-1.1994527578353882,-1.4206650257110596,-0.020094294100999832,744,746,755,40.414,0,0
1739355221.897299,0.3633059445162415,1.1913406251664245,0.3058278777842931,-1.1524209790659055,-1.3988678948464526,1.0450438166824807,0.0736070104176005,-0.0014404189695931264,2.7018773477225483e-05,0.000938057087906905,0.0009972587579715195,-7.453618989939546e-05,-9.280310167094274e-05,0.0006685565726191887,0.7172124981880188,-52.62234878540039,5.461531639099121,18.04572296142578,-1.1994527578353882,-1.4206650257110596,0.012864691205322742,745,745,756,40.197,1,0
1739355221.908215,0.3633057390920739,1.191342665641197,0.30582404093623916,-1.1524183422460288,-1.3988671650637818,1.0450430590224025,0.07360398013864042,-0.0006521645632996566,0.0004091781558474342,-0.0005392103601692864,0.00046894713488549844,0.001561705079852596,7.826639236666767e-05,-0.0008095773576721968,0.6894415020942688,-52.62234878540039,5.513106346130371,17.99811553955078,-1.1930440664291382,-1.4142563343048096,0.026597600430250168,744,744,757,40.414,1,0
1739355221.9182398,0.36330821492086934,1.19134571569341,0.3058236978621722,-1.1524219602114307,-1.3988683585273947,1.0450445743425592,0.07360929079178649,0.0008553045861207101,0.0007066423001538022,-0.00024806866193061584,0.0003058216992725752,-0.00180337579355005,0.0002684693413724471,0.0023149634259239937,0.6894415020942688,-52.67392349243164,5.513106346130371,18.04572296142578,-1.1994527578353882,-1.4270737171173096,-0.027418512850999832,744,744,756,40.305,1,0
1739355221.9282622,0.3633057669873485,1.1913426939854257,0.30582582480675696,-1.1524183673861836,-1.3988671430320312,1.0450430590224025,0.0736094894815262,-0.00027477605401551587,0.00030260908768698703,3.351179357939652e-05,0.0007594134046470068,-0.0003477030749509105,-0.0007074245457262097,0.0007348409444757265,0.6894415020942688,-52.62234878540039,5.489302635192871,17.99811553955078,-1.2058614492416382,-1.4142563343048096,-0.020094294100999832,744,745,756,40.197,0,0
1739355221.9392822,0.36330374113926994,1.191342338753768,0.30582188764705476,-1.15242014123242,-1.3988697179825638,1.0450430591879456,0.07360745214859862,-0.0012329682675123296,0.001150666319993211,-0.0013200309313083605,-0.0005401472716780923,-0.0021948690721724042,-0.00047394323481560045,-0.00038615669713151844,0.7172124981880188,-52.64615249633789,5.513106346130371,18.02191925048828,-1.1930440664291382,-1.4142563343048096,0.0064559997990727425,744,744,757,40.414,0,0
1739355221.94929,0.3633091632930456,1.1913378374765151,0.30582404219608483,-1.1524219357921623,-1.3988690758797369,1.0450427058096936,0.07360878942137362,0.00012922388729881117,-0.0013289486116474095,-0.0012052172731841144,-0.0007181599653333845,-0.0008814155553577103,-0.000379368495255929,0.00024788389998186937,0.6418340802192688,-52.59457778930664,5.513106346130371,18.04572296142578,-1.1866353750228882,-1.4142563343048096,0.012864691205322742,745,746,756,40.197,1,0
1739355221.9602916,0.36330405511471586,1.1913454874542295,0.30582790373031427,-1.1524241610323012,-1.3988646182055802,1.0450421931231761,0.07360726549993427,-0.0007262131179826739,0.0014367209611855065,0.0007023571142177395,-0.0007384482351425796,0.0020757839458824556,-0.0006175374194238306,-0.0007375716476838776,0.7172124981880188,-52.67392349243164,5.461531639099121,18.04572296142578,-1.2058614492416382,-1.4069321155548096,-0.0072769103571772575,743,745,756,40.305,0,0
1739355221.9702961,0.3633064464218843,1.1913419287923346,0.30582292759622215,-1.1524237155675658,-1.3988675985020413,1.04504219312517,0.07360634330361514,0.0010104343590343868,-0.0016989141346410847,-0.001154954226835258,-0.0006819970020098219,0.0008962150602569895,-0.0009297302246703335,-0.002189976774344858,0.6894415020942688,-52.62234878540039,5.489302635192871,18.06952667236328,-1.1930440664291382,-1.4069321155548096,0.0064559997990727425,744,746,756,40.305,1,0
1739355221.9812276,0.36330373984669334,1.1913399025060651,0.30582287259934526,-1.1524201382889816,-1.3988667898055849,1.0450438166824807,0.0736045155366845,-0.0013643577695108587,-0.0023537668778948018,-0.0007711703253933193,0.000674353618630983,0.0007564433749971031,0.00038572267608513494,0.00034178265000708375,0.7172124981880188,-52.62234878540039,5.489302635192871,18.02191925048828,-1.2058614492416382,-1.4206650257110596,0.019273381680250168,744,745,756,40.305,1,0
1739355221.9913294,0.36330573778354625,1.1913443706728346,0.3058275874241219,-1.1524234766709482,-1.3988636621258568,1.0450446145695622,0.07360949874365569,-0.0005947424877414996,0.0004554156140517586,-2.5355203678330187e-05,-0.0001791489646286897,0.001073576357917277,0.0019466038405113726,-0.0005523294726906055,0.6894415020942688,-52.64615249633789,5.461531639099121,18.06952667236328,-1.1994527578353882,-1.4270737171173096,0.012864691205322742,743,747,756,40.305,0,0
1739355222.0022504,0.3633037398426931,1.1913397701445432,0.3058278958793521,-1.1524219418957755,-1.3988687760580774,1.0450430590778106,0.07361090724826358,-0.00029571509216223064,-0.0013097517534424365,0.0001657314513596616,-7.886573671937324e-05,-0.001192988804038102,-0.00011435293213366339,0.0019672219404698126,0.7172124981880188,-52.59457778930664,5.461531639099121,18.04572296142578,-1.1930440664291382,-1.4142563343048096,-0.020094294100999832,743,745,756,40.305,0,0
1739355222.0122526,0.3633050983889781,1.1913443954793848,0.30582487092009064,-1.1524201501759466,-1.3988686583464278,1.0450430649819593,0.0736094909862,-0.000508351419320676,0.0008090124024741826,-0.00040041053959702995,0.0011654976405977057,-0.0002266765978937521,-0.00039459490608659834,0.0012747811897075023,0.7410162091255188,-52.64615249633789,5.489302635192871,18.02191925048828,-1.1930440664291382,-1.4142563343048096,-0.020094294100999832,742,744,756,40.305,1,0
1739355222.0222661,0.36330419215543674,1.1913359196290565,0.3058209427869019,-1.1524184498020194,-1.3988693827343626,1.0450421800433187,0.07360634672164319,-0.0005305038572889203,-0.002829238917470857,-0.0022619626093030435,0.0001541266551565882,-0.0008864051430311809,-0.0011347850495583495,-3.181492145927408e-05,0.7410162091255188,-52.57077407836914,5.513106346130371,17.99811553955078,-1.1866353750228882,-1.4069321155548096,0.0064559997990727425,744,744,757,40.197,2,0
1739355222.0332854,0.36330576404143333,1.191342669834725,0.30582579699594414,-1.1524219062492689,-1.398867887602216,1.0450438166824068,0.0736039650167225,0.00016177652905999403,0.00043486017981468497,0.0014720137534756236,9.303650384173386e-06,0.00013029957513996805,-0.00046279845074394103,-0.001845435873809705,0.6894415020942688,-52.62234878540039,5.489302635192871,18.04572296142578,-1.1994527578353882,-1.4206650257110596,0.026597600430250168,745,747,756,40.305,1,0
1739355222.0450187,0.3633044572243958,1.1913405256633895,0.3058276629132199,-1.1524221804407198,-1.39887107959867,1.0450430590224025,0.07360949014954103,0.00016113141336445664,-0.0011153426649796695,0.0012328302119611633,-0.0013589967851445495,-0.0009804287336828657,-0.0002798479297335298,-0.0005868352802053529,0.7172124981880188,-52.62234878540039,5.461531639099121,18.04572296142578,-1.1994527578353882,-1.4142563343048096,-0.020094294100999832,743,746,756,40.305,2,0
1739355222.0552366,0.36330374081880445,1.1913362268544723,0.30582475645179336,-1.1524202311722396,-1.3988686583623793,1.0450430590224025,0.07360427371448168,0.0009176784735684719,-0.0019238803957173259,-0.0011580600497561424,-0.0002567790500688481,-0.0007865042014428314,-8.440493251746407e-05,-0.001223770117813889,0.7172124981880188,-52.57077407836914,5.489302635192871,18.02191925048828,-1.1930440664291382,-1.4142563343048096,0.026597600430250168,745,747,756,40.197,1,0
1739355222.0662448,0.363305739079645,1.191338947901066,0.3058251096477735,-1.1524201866935775,-1.3988654794300466,1.0450430590224025,0.07361122909772447,0.00021029826779572444,-0.00015545588372888638,-0.0003510027592877208,-0.00023272182165344528,0.0010453928946042093,-0.0006280124796909278,0.0017713279733115857,0.6894415020942688,-52.57077407836914,5.489302635192871,18.02191925048828,-1.1930440664291382,-1.4142563343048096,-0.03382720425724983,745,745,756,40.305,1,0
1739355222.0763083,0.3633020274299761,1.1913424544356732,0.3058240422405486,-1.152418367276909,-1.398868303606394,1.0450430769010703,0.07361110883208181,-0.0015576353560450601,0.0009267165061465929,-0.0005304895522638983,0.0004755878048584778,0.0005898444786987902,-4.542117385420171e-05,0.00017006919392313234,0.7410162091255188,-52.62234878540039,5.513106346130371,17.99811553955078,-1.1930440664291382,-1.4142563343048096,-0.03382720425724983,743,745,756,40.197,0,0
1739355222.0873253,0.3633037486992561,1.191339710608099,0.3058269467855101,-1.1524237428888746,-1.3988679001978368,1.0450463174097508,0.07361177285248144,-0.00029332800406344845,2.9090074270387753e-05,0.0014418088849926492,-0.001044386431125819,0.000320569924154908,0.00010687042583857736,0.0020194457430094087,0.7172124981880188,-52.62234878540039,5.461531639099121,18.06952667236328,-1.1994527578353882,-1.4142563343048096,-0.027418512850999832,745,748,756,40.414,1,0
1739355222.098276,0.36330573778359615,1.1913386043402305,0.3058247639698733,-1.1524201622727148,-1.3988678987462864,1.0450464226197806,0.07360665484281438,-0.0005411816950644038,-0.001079069043334907,-0.0008454192539552108,0.00035008136059353075,0.0012976375143273645,0.0010549761177604138,-0.0015844467337564957,0.6894415020942688,-52.59457778930664,5.489302635192871,18.02191925048828,-1.1994527578353882,-1.4334824085235596,0.012864691205322742,745,745,756,40.414,0,0
1739355222.10828,0.3633037427588783,1.1913383221390785,0.3058278782025404,-1.1524201500629443,-1.3988679006843232,1.0450430590408721,0.07361538705664436,-0.0010662129767242132,-0.0009540544406437543,0.0006429507432261511,0.00023314892594460332,0.0007535909004382708,-0.00012135491955729669,0.00124749891711946,0.7172124981880188,-52.59457778930664,5.461531639099121,18.02191925048828,-1.1994527578353882,-1.4142563343048096,-0.03382720425724983,744,746,757,40.305,1,0
1739355222.1192248,0.36330597169643475,1.191337709925753,0.30582765648126803,-1.152421932739757,-1.3988671386636267,1.0450423555230715,0.07361223924683649,0.0007475357693586223,-0.0005439272835186832,0.0004877425556638724,-0.0006311518360896152,-0.0004380181986256324,0.0012262009474085667,0.0006315272753078885,0.7172124981880188,-52.59457778930664,5.461531639099121,18.04572296142578,-1.2058614492416382,-1.4069321155548096,-0.0072769103571772575,744,747,756,40.197,1,0
1739355222.1293278,0.36331039374498336,1.1913399313289221,0.3058239348593581,-1.1524196820558972,-1.3988686597979108,1.045042193790093,0.07361050531465393,0.002340392685596138,0.0008615652468204373,0.0005223701472708435,0.00025430834707364615,-0.0005724854295982467,-0.00022902565087020154,0.0005424140248708411,0.6656377911567688,-52.62234878540039,5.513106346130371,18.02191925048828,-1.1930440664291382,-1.4069321155548096,-0.027418512850999832,744,746,756,40.305,1,0
1739355222.1402357,0.3633042329466363,1.191340552382488,0.3058255029596197,-1.1524201500600957,-1.398870019960623,1.0450463174096538,0.07360553363670966,-8.763834382342797e-05,0.0006415811969687073,-0.0004814677860158493,0.0003488158252806983,-3.938599015308942e-05,0.000743085904082977,-0.0028498352146485053,0.7410162091255188,-52.62234878540039,5.489302635192871,18.02191925048828,-1.1994527578353882,-1.4142563343048096,-0.013685601763427258,744,745,756,40.305,0,0
1739355222.1502376,0.36330381937006523,1.191339634043747,0.30582510671697644,-1.1524201150806284,-1.3988679008817517,1.0450441789462326,0.07361186757525011,0.0005281216815967842,-0.0006850976166931802,0.00024419365943630854,0.0003343239631980441,-0.0008365055568028267,-0.00017786302969312226,0.0002898069807583921,0.7172124981880188,-52.62234878540039,5.489302635192871,18.02191925048828,-1.1994527578353882,-1.4206650257110596,-0.04023589566349983,743,746,756,40.305,0,0
1739355222.1602645,0.36330034979679965,1.1913398951584966,0.3058249249576325,-1.1524216933394387,-1.3988713835148652,1.045044574348694,0.07360670214185404,-0.0011769261003667494,-0.0005245925035934985,1.6746271437408674e-05,-0.00024114162743025502,-0.0007999573598450865,0.0008005556104025021,-0.0008060799862950787,0.7648199200630188,-52.62234878540039,5.461531639099121,18.04572296142578,-1.2058614492416382,-1.4270737171173096,0.0064559997990727425,744,745,758,40.305,1,0
1739355222.1713016,0.3633059739947434,1.1913406592629396,0.30582582388729945,-1.152420177533486,-1.3988686582607015,1.0450430590224025,0.07360398403298302,0.0010007749234882113,0.00020804276590077474,-0.0003193471599012398,0.00025239945002196744,-0.00026956809785074517,-1.1538967840481624e-05,-0.0007618005773236372,0.6894415020942688,-52.59457778930664,5.489302635192871,18.02191925048828,-1.1930440664291382,-1.4142563343048096,0.026597600430250168,744,743,756,40.414,1,0
1739355222.1813025,0.363303976057693,1.1913461762345119,0.30582787822049023,-1.1524190993024264,-1.3988686583444327,1.0450430590224025,0.0736083725833155,0.00011392920431762226,0.0008673683414992296,-0.0002268800028181429,0.00015115039082437903,-0.0005660642497907452,0.00029359367011017447,-0.0006445994236027737,0.7172124981880188,-52.67392349243164,5.461531639099121,18.04572296142578,-1.1930440664291382,-1.4142563343048096,-0.013685601763427258,745,744,756,40.197,1,0
1739355222.1922126,0.3632999075107035,1.1913443275726194,0.30582787811134193,-1.1524219598688128,-1.398868582039021,1.0450430590224025,0.07360631109850317,-0.0006384962408764749,-0.0009207466465441913,0.0003762376732885449,-0.00031244447193430657,0.00022758830316980472,-0.0006875279388561314,-0.0012215731491678834,0.7410162091255188,-52.64615249633789,5.461531639099121,18.04572296142578,-1.2058614492416382,-1.4142563343048096,0.019273381680250168,744,745,755,40.197,1,0
1739355222.2023318,0.3633037485553494,1.1913396304044266,0.3058218964769239,-1.1524183673861779,-1.3988678614628691,1.0450430590224025,0.07360953096587128,8.293958914354295e-05,-0.00195737083725523,-0.0007284853509391567,0.0008355026753003083,0.0004599172410570273,-0.0009721971437702212,0.0010465681039840186,0.7172124981880188,-52.62234878540039,5.513106346130371,17.99811553955078,-1.1994527578353882,-1.4142563343048096,-0.020094294100999832,744,746,756,40.305,0,0
1739355222.2132695,0.36330373973382435,1.1913426867016823,0.3058230051364858,-1.152421932739757,-1.39886718226947,1.045042199084726,0.07360725162315092,0.00034425565322575313,0.001067675140225633,-0.0008171650068015852,-0.00012497433112309989,0.0011243081500400501,-0.0005150541764526474,-0.0007585032754093776,0.7172124981880188,-52.62234878540039,5.513106346130371,18.04572296142578,-1.2058614492416382,-1.4069321155548096,-0.0008682189509272575,745,746,756,40.305,1,0
1739355222.2232947,0.36330202732196126,1.191342661208739,0.30582718944986914,-1.1524201531151932,-1.398871837312879,1.045043279254286,0.07360642374525816,-0.00200705661212887,0.0003216780267979942,0.0004987549741099818,0.0003408535972519163,-0.0012142230244318348,-0.00018132480610481052,-0.0011232362176361056,0.7410162091255188,-52.62234878540039,5.461531639099121,18.02191925048828,-1.1930440664291382,-1.4069321155548096,0.03300629183650017,746,746,757,40.197,0,0
1739355222.234245,0.3633058667137518,1.1913424572701121,0.30582575599677214,-1.1524239205787516,-1.3988675489431417,1.0450430590285336,0.07360589724714807,0.00043055494119485305,-0.0004150611213004807,-0.00013162451988568897,-0.000884670018094512,0.00016458695821331657,0.0003829756185748205,-0.0006836038400333234,0.7172124981880188,-52.62234878540039,5.461531639099121,18.04572296142578,-1.1994527578353882,-1.4142563343048096,0.019273381680250168,745,747,754,40.305,0,0
1739355222.2452219,0.36330374323891423,1.1913377096228817,0.30582968737635047,-1.1524257952178527,-1.398868960105159,1.0450430605122916,0.0736025023574402,-0.000622963798532073,-0.0016683283830073782,0.00157765536183799,-0.0014495759205663688,0.000493526916956,-0.0004935492692746983,-0.0010635369988625644,0.7172124981880188,-52.59457778930664,5.437727928161621,18.09729766845703,-1.1994527578353882,-1.4142563343048096,0.03941498324275017,746,746,757,40.197,1,0
1739355222.2552269,0.3633022985272413,1.1913443274183382,0.30582189647737423,-1.152421932739757,-1.398864720334359,1.045043938853404,0.07361129898110333,-0.0005820297916547423,0.0009540843813377539,-0.001324601752889984,0.0003385191626417246,0.0009385560872640384,-0.0004004933173444983,0.0005257253386497938,0.7410162091255188,-52.64615249633789,5.513106346130371,18.04572296142578,-1.1994527578353882,-1.4206650257110596,-0.027418512850999832,746,744,756,40.197,1,0
1739355222.2652364,0.3633057351687204,1.1913386270311006,0.30582582477625037,-1.1524219357922123,-1.3988693503793865,1.0450438166845497,0.07360601566430354,0.00017227562523393927,-0.00048011230139604174,-0.00043538482167262185,-0.0003983260774286017,-0.0008039712638117706,-1.0949223319087594e-05,-0.0014697478883328673,0.6894415020942688,-52.59457778930664,5.489302635192871,18.04572296142578,-1.1866353750228882,-1.4206650257110596,0.019273381680250168,744,746,756,40.305,1,0
1739355222.2752368,0.3633059769106867,1.1913423541462291,0.30582694809370287,-1.152416584708751,-1.398867143023166,1.04504219312517,0.07361111356440064,0.00021501616808185318,-0.0003121540596017784,0.00037338912696967074,0.00141664305872313,-0.0011637389067185421,-0.0012260325296266886,0.0006999857526529801,0.6894415020942688,-52.62234878540039,5.461531639099121,17.97431182861328,-1.2058614492416382,-1.4069321155548096,-0.03382720425724983,744,745,756,40.197,1,0
1739355222.285322,0.36330302459100544,1.191343604790277,0.30582790469526056,-1.1524209314913498,-1.398867900684356,1.0450423138061793,0.07360814865761273,-0.0004248815672920855,0.0001575327647587541,0.0007609818810820178,6.683070688995893e-05,0.0009064255099782649,-0.0009543773858330046,0.00031632079890244,0.7172124981880188,-52.64615249633789,5.461531639099121,18.02191925048828,-1.1994527578353882,-1.4069321155548096,0.019273381680250168,744,747,756,40.305,1,0
