IITGN-Robotics/Franka_IITGN_ROBOTICS/franka_ros/franka_iitgn/data02/os_003.csv
time,fr3_joint1_pos,fr3_joint2_pos,fr3_joint3_pos,fr3_joint4_pos,fr3_joint5_pos,fr3_joint6_pos,fr3_joint7_pos,fr3_joint1_vel,fr3_joint2_vel,fr3_joint3_vel,fr3_joint4_vel,fr3_joint5_vel,fr3_joint6_vel,fr3_joint7_vel,fr3_joint1_eff,fr3_joint2_eff,fr3_joint3_eff,fr3_joint4_eff,fr3_joint5_eff,fr3_joint6_eff,fr3_joint7_eff,flexpin1,flexpin2,flexpin3,Force,ContactMic,ContactMic_gt
1739355245.372923,0.3208501486585256,1.1499603326569765,0.30576904774109936,-1.2314754154060905,-1.4023725630883352,1.07378186120698,0.1001642286684527,0.0005342882218677124,-0.00025740662192842766,0.00040445029330501904,0.00019372861776426425,-0.0007569696891075398,-0.00014785868253616694,0.0009195092764957114,0.4156987965106964,-52.13437271118164,5.564681053161621,17.47840118408203,-1.3175557851791382,-1.1899521350860596,0.012864691205322742,,,,,,,,,
1739355245.3838556,0.3208464293362929,1.1499586139751958,0.3057693822146205,-1.2314736225906797,-1.4023741432014192,1.073777885441157,0.10016736749984555,-0.00021222055539729288,-6.68755033836878e-05,-0.000156834542136324,8.549962114314803e-05,-0.001559515668505348,-0.000986113592492332,0.0007706330611893414,0.4672735035419464,-52.11056900024414,5.588484764099121,17.45459747314453,-1.3038228750228882,-1.1835434436798096,-0.013685601763427258,,,,,,,,,
1739355245.393956,0.3208518582053368,1.1499606562740723,0.30576725775556685,-1.2314757525933584,-1.4023722972634984,1.0737795263865717,0.10016498173910175,0.0003618351910258915,0.0006129950491158425,-0.0007394585638443497,-0.0003842048389762669,0.0014728916635422203,-0.0005384949032115462,-4.8098456920791675e-05,0.3918950855731964,-52.13437271118164,5.588484764099121,17.47840118408203,-1.3102315664291382,-1.1972763538360596,0.0064559997990727425,,,,,,,,,
1739355245.40491,0.3208497157027005,1.1499566139998427,0.30576927520349684,-1.2314790500950783,-1.4023733809073824,1.0737806241774395,0.10016869095856283,0.00013768316414570667,-0.0015030212768177543,-0.00021516521151964492,-0.0013337323001816294,-1.41569691615515e-05,-0.00020333345465840683,-7.477101143599105e-05,0.3918950855731964,-52.08279800415039,5.564681053161621,17.52600860595703,-1.3102315664291382,-1.2036850452423096,-0.0008682189509272575,,,,,,,,,
1739355245.4169452,0.32085068610730444,1.1499603247999681,0.3057711187836834,-1.2314754055950246,-1.40237239880083,1.0737779033157955,0.10016265859497869,0.0001193125649788854,-0.0007156248333942399,-0.0005513324613231368,-0.00024185370875777766,0.0002084191419147045,-8.34712758251997e-05,-0.000510568207790572,0.3680913746356964,-52.13437271118164,5.536910057067871,17.47840118408203,-1.3175557851791382,-1.1835434436798096,0.05314789339900017,,,,,,,,,
1739355245.4279375,0.3208501485137447,1.1499603509531022,0.3057690391365036,-1.231478997112519,-1.4023692610392087,1.0737795089440014,0.10016742232974962,-0.00012018711828407277,-0.0005914829018359785,-9.361688732234579e-05,-0.0003875584785776617,-0.00015477756588458237,8.377901205293214e-05,0.001044165375348386,0.4156987965106964,-52.13437271118164,5.564681053161621,17.52600860595703,-1.3175557851791382,-1.1972763538360596,0.012864691205322742,,,,,,,,,
1739355245.4388716,0.3208460019766895,1.1499586231325616,0.3057672591956591,-1.2314718496887638,-1.4023732110436895,1.07377950958999,0.10016190169412958,-0.0008590280665474898,-0.000986598323373653,-0.001008055317232122,0.0020089643064653256,0.0009403496762977941,-0.0003442810675118514,-0.003058483203394088,0.4434697926044464,-52.11056900024414,5.588484764099121,17.43079376220703,-1.3102315664291382,-1.1972763538360596,0.05955658480525017,,,,,,,,,
1739355245.4489067,0.32085185973156455,1.1499589680605,0.3057711275310519,-1.2314786184565174,-1.4023704812018107,1.0737768257485607,0.1001666078778243,0.0004764639707443461,0.0006963725662517148,0.00044733847666476704,0.0003785974545479766,0.0019766408310963757,-0.0011037727426782473,-0.0010611227305643335,0.3918950855731964,-52.11056900024414,5.536910057067871,17.50220489501953,-1.3303731679916382,-1.1835434436798096,0.019273381680250168,,,,,,,,,
1739355245.459952,0.3208486469132586,1.1499597021064147,0.30576696972947587,-1.2314754052756025,-1.4023724671171784,1.073779508937986,0.1001634126328744,-0.001249347109519685,-0.00012739255178590033,-0.0009078608170657736,0.00048426750971207504,0.0005779673173616309,-0.000372547678176894,-0.0008940895448070211,0.3918950855731964,-52.08279800415039,5.513106346130371,17.47840118408203,-1.2781881093978882,-1.1972763538360596,0.04673920199275017,,,,,,,,,
1739355245.469955,0.3208480424419783,1.1499631693277281,0.30576406310213217,-1.2314754435322373,-1.4023672386523842,1.0737810242641244,0.10017008675123083,-0.0003978943510338492,0.00026651339852569293,0.0005419494352888413,0.00018145211226475587,0.0015949669752129596,0.0004856551109207048,0.0015520049502972316,0.3165166676044464,-52.08279800415039,5.461531639099121,17.47840118408203,-1.2910054922103882,-1.2100937366485596,-0.013685601763427258,,,,,,,,,
1739355245.4809196,0.3208511137989583,1.1499676969541142,0.30575871057809545,-1.2314738876092726,-1.4023687102329236,1.0737752529488476,0.10016100828994265,0.0007555742438138037,8.254334108670375e-05,-0.0002286640644470575,0.0004948429570878058,0.0014086624159845185,-0.0014215733620820108,-0.0015751213581430886,0.2689092457294464,-52.05899429321289,5.489302635192871,17.45459747314453,-1.2644551992416382,-1.1972763538360596,0.026597600430250168,,,,,,,,,
1739355245.4928863,0.32084715664169383,1.1499719473344567,0.3057523807160611,-1.2314753257961635,-1.40236815764711,1.0737786425381934,0.10016820685571746,0.0007589406756388635,0.002647637419691357,-9.333216677633396e-05,0.0008386748678289051,0.0019224439377977204,-0.00038451875621136017,-6.069951743051402e-05,0.2927129566669464,-52.05899429321289,5.489302635192871,17.47840118408203,-1.2717794179916382,-1.1899521350860596,-0.0072769103571772575,,,,,,,,,
1739355245.5029705,0.32084621146100356,1.1499700319792512,0.30575055403341483,-1.2314754082468564,-1.402368843666281,1.0737795045833143,0.10016187850784374,0.0008464589438325696,0.0008972995761373794,-0.0012849864582548595,0.00040135364409198647,-0.00023393897121493678,0.000660630220861226,0.000145251635358602,0.2927129566669464,-52.03122329711914,5.513106346130371,17.47840118408203,-1.2580465078353882,-1.1972763538360596,0.019273381680250168,,,,,,,,,
1739355245.5140026,0.32084406438026086,1.149969192582278,0.305754412184526,-1.2314736238987536,-1.4023682708470857,1.073778444945114,0.10016628562529538,-0.0002552576490060779,0.0005926649752341064,-6.448637726149168e-05,0.0009258730876363719,0.001472538457418733,-0.00014614867398851986,0.0008967051088370371,0.2927129566669464,-51.97964859008789,5.461531639099121,17.45459747314453,-1.2717794179916382,-1.1972763538360596,-0.027418512850999832,,,,,,,,,
1739355245.5249357,0.3208452577651985,1.1499720383189742,0.305756194861472,-1.2314718399134914,-1.4023687869784773,1.073775976814868,0.10015832520634323,0.0005318046391783162,0.0009590839438628734,-0.00019868204756563746,0.0016856792596135048,-0.0002469963828099685,-0.000586322494607187,-0.0016712596177213903,0.2927129566669464,-51.95584487915039,5.437727928161621,17.43079376220703,-1.2580465078353882,-1.1972763538360596,0.019273381680250168,,,,,,,,,
1739355245.5349457,0.32084542105574093,1.1499706296310197,0.3057524103957374,-1.231471839913489,-1.4023687880528046,1.0737794515496688,0.10016301532386711,-0.0005240073146883652,-0.0009903979826388235,-0.0004145933004497841,0.000611149638055044,-1.472106222766311e-05,-0.0008367350030459478,-0.000662097046370103,0.2689092457294464,-51.95584487915039,5.489302635192871,17.43079376220703,-1.2644551992416382,-1.1972763538360596,-0.027418512850999832,,,,,,,,,
1739355245.544957,0.32084299412516626,1.1499746541772171,0.30575619486279293,-1.2314775500535926,-1.4023684817269522,1.0737784493048665,0.10016240524484189,-0.0016129140816922374,0.0006222688895419548,0.0003473506781445324,-0.001417817776104864,-0.0003184300978948418,-0.001562670045346808,0.002316069798040923,0.2927129566669464,-51.97964859008789,5.437727928161621,17.47840118408203,-1.2580465078353882,-1.1972763538360596,-0.013685601763427258,,,,,,,,,
1739355245.5558872,0.32084597298258816,1.1499737249686792,0.3057543327115932,-1.2314718396348863,-1.4023698974828736,1.0737810068155398,0.10015971971723042,0.0010907188825745034,-0.0004443637920344476,8.449843972776283e-05,-0.0002980498235133782,-0.0008822243324287473,0.00032020468414578845,0.0015080029296169848,0.2927129566669464,-52.00741958618164,5.461531639099121,17.43079376220703,-1.2580465078353882,-1.2100937366485596,0.03300629183650017,,,,,,,,,
1739355245.565906,0.3208450232674896,1.1499749126080336,0.305754412183107,-1.2314697601236286,-1.4023690229007286,1.0737817819239073,0.10016460971704087,-9.923676317230921e-05,0.001878778297438123,-1.0087697450972044e-05,0.00024441516488003134,-0.00013830339042780298,0.00015406552372030768,0.00089184517661261,0.2689092457294464,-51.97964859008789,5.461531639099121,17.40302276611328,-1.2644551992416382,-1.2165024280548096,-0.04023589566349983,,,,,,,,,
1739355245.5759857,0.32084673008982073,1.1499748465254456,0.3057544004106959,-1.231471839913489,-1.4023710218040095,1.0737782898340256,0.10016447529974681,0.0011351492748116793,-0.0007773038625890069,4.333097299163353e-05,0.0007718698161136132,0.0006853484493878763,-0.001153978905908858,0.0007901096566853976,0.2411382496356964,-51.97964859008789,5.461531639099121,17.43079376220703,-1.2452291250228882,-1.1899521350860596,-0.04023589566349983,,,,,,,,,
1739355245.586954,0.32084226055855614,1.1499773801604,0.3057491269528509,-1.2314718575741244,-1.4023659624754126,1.0737786372305405,0.10015859870745818,-0.00019475063009943123,0.0006215091565207048,-0.002478938294663267,0.0007128418933104644,0.0011329595370115984,0.00075390112786348,-0.00044740712829873446,0.3165166676044464,-52.03122329711914,5.489302635192871,17.43079376220703,-1.2644551992416382,-1.1899521350860596,0.0064559997990727425,,,,,,,,,
1739355245.5969577,0.320841372528483,1.1499828877500002,0.3057495920643918,-1.231471840240837,-1.4023706560661522,1.0737795089438693,0.10015961302235286,-0.0005351435196525901,0.002217105088009824,-0.0016781289209587386,-0.00036592942045621983,-0.000464396324283538,0.0009124141106229566,0.000616374815581848,0.3165166676044464,-52.05899429321289,5.513106346130371,17.43079376220703,-1.2516378164291382,-1.1972763538360596,-0.013685601763427258,,,,,,,,,
1739355245.6070106,0.32084128421026664,1.1499732291093254,0.30575128612673713,-1.2314718399134943,-1.4023700007677102,1.0737769641378874,0.10015859916908507,-0.001665831318954264,-0.000991338972664023,-0.0020576141844730798,-0.0002750933213580232,-0.000978210749010493,0.0001523428091665894,0.0004261556862063511,0.3165166676044464,-51.95584487915039,5.461531639099121,17.43079376220703,-1.2452291250228882,-1.2036850452423096,0.0064559997990727425,,,,,,,,,
1739355245.617953,0.32084501455024883,1.1499813766970393,0.3057523234012779,-1.231473986988896,-1.4023686683341845,1.0737802471508986,0.10015545982809101,0.0005305734015087943,0.0027485870237334746,-0.00042760606711028616,0.00022152823395835887,-0.00033163458347196023,-0.0008224632482842349,-0.001534340643087943,0.2689092457294464,-52.05899429321289,5.489302635192871,17.43079376220703,-1.2644551992416382,-1.2036850452423096,0.03300629183650017,,,,,,,,,
1739355245.6279843,0.3208485458646404,1.1499754053755027,0.3057582451077665,-1.2314736226268688,-1.4023651371058088,1.0737794696977816,0.1001641037099868,0.000574407482208649,-0.0009397731799656841,0.0011792335284973158,-0.00042192978502288603,-0.00025926574879689727,-4.7110463728925e-05,0.0016058085574058264,0.2411382496356964,-51.95584487915039,5.409956932067871,17.45459747314453,-1.2580465078353882,-1.1972763538360596,-0.04023589566349983,,,,,,,,,
1739355245.638889,0.32084841483459,1.1499773298601734,0.30575618504984103,-1.231469694146277,-1.4023693749934325,1.0737786386320278,0.10016655641616179,0.0005274467416438451,-0.00043638092144949385,0.0007125087190396419,0.0007527128319611183,-0.000535195324192362,-0.0008476381317656773,0.0015752372269632073,0.2173345386981964,-51.97964859008789,5.437727928161621,17.43079376220703,-1.2580465078353882,-1.1899521350860596,-0.03382720425724983,,,,,,,,,
1739355245.6489975,0.3208412802841027,1.1499770584011912,0.3057522166191541,-1.23147183987715,-1.4023693735578897,1.0737761593181039,0.10015367860560356,-0.0011670151705883477,0.00043925532699572146,-0.00010853705048553125,-0.00013346320679436175,0.0010627883819069363,-0.0005259942840654107,-0.0013921186602200925,0.3165166676044464,-52.00741958618164,5.489302635192871,17.43079376220703,-1.2580465078353882,-1.1972763538360596,0.04673920199275017,,,,,,,,,
1739355245.6599164,0.3208458538277993,1.149977921479848,0.305754328786354,-1.2314704753793706,-1.4023694221769776,1.07377933740613,0.10015383699586443,0.00040456922634975623,-0.0003827519639856932,0.0010512672718379376,0.0014872425560541502,-0.0006048123970437107,0.00017107109429483135,-0.0023969911554129414,0.2927129566669464,-51.97964859008789,5.461531639099121,17.40302276611328,-1.2580465078353882,-1.1972763538360596,0.019273381680250168,,,,,,,,,
1739355245.669945,0.3208425293706364,1.1499795109505007,0.30575520586447225,-1.2314718046043307,-1.402367001886593,1.0737767857087022,0.10016097970559427,-0.0005670004929887569,0.0004807964459572562,0.000507031487995385,0.00048393384772320736,0.0015834101224596502,-5.647986173617196e-05,0.0005062041051140648,0.2927129566669464,-51.97964859008789,5.437727928161621,17.43079376220703,-1.2516378164291382,-1.2100937366485596,-0.013685601763427258,,,,,,,,,
1739355245.6799595,0.3208447053177329,1.1499781247225112,0.305754375538238,-1.231471839912891,-1.4023658424709222,1.0737759765835841,0.10016378637489984,0.0007525321518455621,-3.90174104375482e-05,0.0003083489898295063,0.0009128944607726657,0.0001435625836612508,-0.0012222627572589378,0.0021836060879558894,0.2689092457294464,-51.97964859008789,5.461531639099121,17.43079376220703,-1.2644551992416382,-1.1972763538360596,-0.027418512850999832,,,,,,,,,
1739355245.6909537,0.3208456077461227,1.1499779211700971,0.3057520017480483,-1.231471839913489,-1.4023674442607796,1.073776628654405,0.10015859919891112,-0.000651543908048345,0.0006543661792476946,-0.00102681157694322,0.0005400659747162878,-0.000581038159767532,0.0003278801737053458,-0.0006759837940884497,0.2173345386981964,-51.97964859008789,5.489302635192871,17.43079376220703,-1.2388204336166382,-1.2100937366485596,0.0064559997990727425,,,,,,,,,
1739355245.7009938,0.3208432197291665,1.1499763940458552,0.30575221465142793,-1.2314753787765738,-1.4023708858997557,1.0737808875559613,0.10015958289215125,0.00026624682570955735,-0.0003055262219189921,-0.0007028108091901956,-0.0006363148867627133,0.0005742684135316334,0.0009447918455018578,0.0003253256221776061,0.2927129566669464,-51.95584487915039,5.489302635192871,17.47840118408203,-1.2452291250228882,-1.2100937366485596,-0.0008682189509272575,,,,,,,,,
1739355245.7118902,0.3208429929151473,1.1499737547088904,0.30575394269371736,-1.231467693938148,-1.402370498972071,1.0737788145065787,0.1001625640511018,-0.0009605121873598528,-0.0010577034984090565,0.0007908710432691854,0.0006071782443775015,-0.0013864398609733937,-0.0005531306832997773,0.0019589277541944995,0.2927129566669464,-51.93204116821289,5.437727928161621,17.40302276611328,-1.2516378164291382,-1.2036850452423096,-0.027418512850999832,,,,,,,,,
1739355245.721956,0.3208447011526826,1.1499764473785932,0.30575619057169684,-1.2314718398784978,-1.4023713592632856,1.0737779725167664,0.10015946460201038,-7.70133320014848e-05,-0.00047744877278925235,0.0016559047586685535,0.0008046012632017424,-0.0017133175760197556,-0.000960374374420699,0.00041269835317171065,0.2689092457294464,-51.95584487915039,5.437727928161621,17.43079376220703,-1.2324117422103882,-1.1972763538360596,-0.0008682189509272575,,,,,,,,,
1739355245.7330015,0.3208440062230704,1.149976448654936,0.30575512508480546,-1.2314725522257868,-1.402370599928121,1.0737802272956811,0.1001568313783762,-1.85856302322608e-05,-0.0013850825608964458,0.00026033316187459865,-0.00031536619851289604,-0.0007247222283122961,-0.0005849344672037259,-0.0016422747204813746,0.2689092457294464,-51.95584487915039,5.437727928161621,17.43079376220703,-1.2388204336166382,-1.2036850452423096,0.03941498324275017,,,,,,,,,
1739355245.7439692,0.3208429928009036,1.1499800604312327,0.30575120630066893,-1.2314717152458963,-1.402367418106623,1.0737802607896232,0.1001609792858037,-0.0008666338536195821,0.0004737524880008013,5.9430733854007244e-05,-0.0004545166077910464,-0.0013876576148814748,0.0006679196183345744,0.0007298991464953408,0.2927129566669464,-52.00741958618164,5.461531639099121,17.45459747314453,-1.2388204336166382,-1.2036850452423096,-0.013685601763427258,,,,,,,,,
1739355245.7550008,0.3208484154661731,1.1499781600553451,0.3057521825292945,-1.2314716016294978,-1.402366641747771,1.073776275763671,0.10016097970648101,0.0011245703978886976,0.0014832483478770609,-0.00017718960836124383,-7.937513658938744e-05,0.0002554509855442876,-0.0013234390602905792,-0.0002529989544859562,0.2173345386981964,-51.97964859008789,5.461531639099121,17.43079376220703,-1.2452291250228882,-1.1972763538360596,-0.013685601763427258,,,,,,,,,
1739355245.766012,0.3208447053255794,1.149978466033606,0.3057568387921279,-1.2314699720499143,-1.4023666458929753,1.0737810241920378,0.10016097992283358,-0.00041879217146475567,0.0004087693283674977,-7.771718995763029e-05,0.00032836886851087595,-9.613411001211077e-05,0.0006096353643778501,0.0014327738584003686,0.2689092457294464,-51.97964859008789,5.386153221130371,17.40302276611328,-1.2452291250228882,-1.2100937366485596,-0.013685601763427258,,,,,,,,,
1739355245.7768993,0.32084299309623304,1.1499794576591036,0.3057534277130413,-1.2314736222646554,-1.4023660113540097,1.073780266604046,0.1001554443197181,-7.043284798798652e-05,0.000663329185092146,0.0005271886290677151,-0.0009621774348919516,0.0007725790472226446,0.0015773240450914676,-0.001005145224287634,0.2927129566669464,-51.95584487915039,5.461531639099121,17.45459747314453,-1.2516378164291382,-1.2036850452423096,0.0064559997990727425,,,,,,,,,
1739355245.7869797,0.32084299280485495,1.1499768780641488,0.30574912261193327,-1.2314696767261826,-1.4023688301339758,1.0737802603053284,0.10016006449005029,-0.0006858355350271623,-0.0007885178891346883,-0.0010550289068922804,0.0007346338316119083,-0.001570136684552133,0.0010326144160666068,-0.00011992525886489626,0.2927129566669464,-51.93204116821289,5.489302635192871,17.40302276611328,-1.2388204336166382,-1.2036850452423096,-0.0072769103571772575,,,,,,,,,
1739355245.7969863,0.32084299280485007,1.1499831510437384,0.3057522266809613,-1.231469760122221,-1.4023666459171582,1.0737795087823554,0.10016172443707749,0.0002861765088140162,0.001851598619865521,0.0009235357337070533,0.0003123049929029197,-0.0009427421410541159,0.001294459800641378,0.0008855281142180654,0.2927129566669464,-52.00741958618164,5.461531639099121,17.40302276611328,-1.2452291250228882,-1.1972763538360596,-0.020094294100999832,,,,,,,,,
1739355245.8079221,0.32084400331532054,1.1499791577546878,0.30575119648290644,-1.231471839913489,-1.4023713401275437,1.0737779652736057,0.10016153887499837,0.00017700000422608055,-5.960800366908289e-05,0.00048786859119718417,-0.0007202991460076233,-0.0016605680126725573,-0.0013863665258406033,0.001127012178722407,0.2689092457294464,-51.97964859008789,5.461531639099121,17.43079376220703,-1.2324117422103882,-1.1972763538360596,-0.027418512850999832,,,,,,,,,
1739355245.8189514,0.32084371490089375,1.1499774536322487,0.30575118478512947,-1.2314718134225355,-1.4023690652630765,1.0737802644783314,0.10015621747013756,-0.0014811939445433736,0.00102320815683267,-0.0003198741010231681,0.0004579623746636606,-0.0005442755860688829,0.0017970155795942304,-0.00017920764433624692,0.2689092457294464,-51.95584487915039,5.461531639099121,17.43079376220703,-1.2516378164291382,-1.2036850452423096,0.026597600430250168,,,,,,,,,
1739355245.8299286,0.3208445625666152,1.1499750400245543,0.30575508840557897,-1.231471839913439,-1.4023640167989315,1.073778524609304,0.10015772275590257,0.0001654354498682426,-0.0014608733230830684,0.0013130256185139074,0.00038779100688358454,0.0016988468016225031,-0.00011630183577640725,-0.0010787580316843335,0.2411382496356964,-51.93204116821289,5.409956932067871,17.43079376220703,-1.2644551992416382,-1.1899521350860596,0.012864691205322742,,,,,,,,,
1739355245.8418815,0.32083928229551567,1.149979546785954,0.30575119353381797,-1.2314717594594828,-1.4023666460524942,1.0737760261127933,0.10015859821799006,-0.001315432361523098,5.4169226350889044e-05,-7.81986551883134e-05,0.00022244497470769376,-0.00034988167469295956,-0.0010963019172250533,-0.00013235677066108072,0.3442876636981964,-51.95584487915039,5.461531639099121,17.43079376220703,-1.2452291250228882,-1.2036850452423096,0.0064559997990727425,,,,,,,,,
1739355245.8520155,0.3208445969146596,1.1499758322809697,0.3057550560005097,-1.2314718487433525,-1.402367521344483,1.073778486039371,0.10015469632655226,-0.0001663718537704351,-8.939087998059562e-05,0.0014977005204101462,0.00024024685341742557,-0.0010651333509570638,-0.000863433106607505,-0.0009307820628284368,0.2411382496356964,-51.90427017211914,5.409956932067871,17.43079376220703,-1.2388204336166382,-1.1899521350860596,0.03941498324275017,,,,,,,,,
1739355245.8629453,0.3208467032307631,1.1499776662010421,0.3057529762106541,-1.2314754847405363,-1.4023665773418486,1.0737801487023118,0.1001585987053468,0.0005859345507469431,0.0001628257955760593,0.0010969229904646159,-0.0012822786889360542,0.00018285421147284312,0.0007033680323946643,0.000681762836115978,0.2411382496356964,-51.95584487915039,5.437727928161621,17.47840118408203,-1.2580465078353882,-1.2036850452423096,0.0064559997990727425,,,,,,,,,
1739355245.872953,0.3208384723520921,1.1499774940346443,0.3057494679423758,-1.2314736225909566,-1.4023666460626714,1.0737770309466979,0.10015302367261752,-0.002085322755468794,-0.0014523414390411882,-0.0002456978636255258,-0.0005705886100077948,-0.00019773569002708638,6.835722006370707e-05,-0.0021549173496052073,0.3165166676044464,-51.93204116821289,5.461531639099121,17.45459747314453,-1.2452291250228882,-1.2036850452423096,0.026597600430250168,,,,,,,,,
1739355245.8829548,0.32084670616232097,1.1499791902229142,0.30575473972720474,-1.2314679745031751,-1.4023651436547973,1.0737760260586657,0.10015946454859057,0.0002538138541303863,-0.0004608473357414298,0.0009265181342064034,0.0005830051304003823,0.001172134851408934,-0.0005691680387700504,0.002100052809116708,0.2411382496356964,-51.97964859008789,5.409956932067871,17.37921905517578,-1.2580465078353882,-1.2036850452423096,-0.0008682189509272575,,,,,,,,,
1739355245.8929827,0.32084470532563025,1.1499812325528607,0.3057511935282789,-1.231469694037211,-1.4023666458932205,1.0737802663707265,0.1001612644251632,0.0006803602220251594,0.001058931826211789,-0.0002026529242756429,-0.00012896038410795975,0.00018504503719545792,0.001233848947810869,0.0009008192001887284,0.2689092457294464,-51.97964859008789,5.461531639099121,17.43079376220703,-1.2452291250228882,-1.2036850452423096,-0.020094294100999832,,,,,,,,,
1739355245.9029882,0.32084467932520117,1.1499794854442777,0.305752976210654,-1.2314721577685872,-1.4023674037145826,1.073780251584023,0.10015839998948207,0.0001754638997154863,0.00039534883415904805,-0.00032700256485044697,-0.0006750341817569905,-0.0008143398580266445,0.0001702258223974678,-0.0004662492362275725,0.2689092457294464,-51.97964859008789,5.437727928161621,17.43079376220703,-1.2388204336166382,-1.2036850452423096,-0.0008682189509272575,,,,,,,,,
1739355245.9139006,0.32084299280440975,1.149973052941729,0.30575121872850597,-1.2314721578103107,-1.4023639648838615,1.0737797912928613,0.10015574431227828,-0.0005664397392912929,-0.0025688690098211544,3.297704775590896e-05,-0.0007259582820474415,0.00046833345193863184,-0.0009108962724156365,-0.0016793703411206518,0.2927129566669464,-51.90427017211914,5.461531639099121,17.43079376220703,-1.2717794179916382,-1.2036850452423096,0.026597600430250168,,,,,,,,,
1739355245.923919,0.3208468376834933,1.1499795383177394,0.30575119451492366,-1.231467977448409,-1.4023666444420333,1.0737802651478128,0.10015859724241087,0.0008969449711046782,-6.127320420781789e-05,0.00043954386232786306,0.00015842973140449347,0.001088368594984527,0.0008346277389582595,-0.0005447975759079949,0.2411382496356964,-51.95584487915039,5.461531639099121,17.37921905517578,-1.2452291250228882,-1.2036850452423096,0.0064559997990727425,,,,,,,,,
1739355245.9340706,0.32084460036336043,1.1499805705925237,0.30575119353365166,-1.231469759142487,-1.4023666465389966,1.0737802666040215,0.10016097927375946,-0.000972879333341371,0.0007395068430256497,-0.00022183528532483305,0.00044378368199954874,3.51181591070701e-05,0.0011627514229934702,-0.00010430428313334451,0.2689092457294464,-51.97964859008789,5.461531639099121,17.40302276611328,-1.2452291250228882,-1.2036850452423096,-0.013685601763427258,,,,,,,,,
1739355245.944949,0.32084229079399684,1.1499812253404882,0.3057509573226354,-1.2314737010822159,-1.4023648953130465,1.0737791513706072,0.10015383627077401,-0.0006525142209391127,-4.1749718578559146e-05,0.000520653935162131,-0.0014263264243597655,-0.00017971606144240033,-0.00020789611047606986,-0.0011674029496768822,0.2927129566669464,-51.97964859008789,5.461531639099121,17.45459747314453,-1.2580465078353882,-1.1972763538360596,0.04673920199275017,,,,,,,,,
1739355245.9549954,0.3208447052899154,1.1499788571254008,0.3057533392888462,-1.2314718399174767,-1.4023659013029202,1.0737784478341217,0.10015670953227587,-0.0004746244772676481,9.028385363690672e-05,0.00024930418372183733,4.462115382112785e-05,0.00072091522239914,-0.0011610728413143077,-0.0016690745816916397,0.2689092457294464,-51.95584487915039,5.461531639099121,17.43079376220703,-1.2516378164291382,-1.1972763538360596,0.019273381680250168,,,,,,,,,
1739355245.9670365,0.32084819259452513,1.1499756332765305,0.3057483707794337,-1.2314736110953481,-1.4023675218469687,1.073779913227834,0.10016686190028447,0.0013097262755690782,-0.0010470046412094718,-0.00022883392578434926,-0.0005316135158657671,-0.0010947762912205316,0.00013874760948519722,0.002556089391530009,0.2173345386981964,-51.90427017211914,5.461531639099121,17.45459747314453,-1.2388204336166382,-1.2036850452423096,-0.027418512850999832,,,,,,,,,
1739355245.9779491,0.32084670326601433,1.1499774804253433,0.3057508785443217,-1.231475405158489,-1.4023640709349354,1.0737797562457394,0.10015783665425988,0.0016573000945202935,-0.000624911245470289,-0.0003169615475885825,-0.001970200092859183,0.0004959479164764808,-0.00028178850352916817,-0.0004484200346633248,0.2411382496356964,-51.95584487915039,5.461531639099121,17.47840118408203,-1.2580465078353882,-1.2036850452423096,0.012864691205322742,,,,,,,,,
1739355245.9889393,0.3208467028384445,1.1499795458802482,0.30574770309874166,-1.2314740916445133,-1.4023658882269385,1.0737786386832038,0.10015708338537437,0.0011106157011431018,-0.00038923693046765166,-0.0015186544378684066,-0.0005321474912622951,0.00014068896686258688,0.0008834000636537187,-0.0010169576246990193,0.2411382496356964,-51.95584487915039,5.489302635192871,17.43079376220703,-1.2516378164291382,-1.1899521350860596,0.019273381680250168,,,,,,,,,
1739355245.9989552,0.3208429928048428,1.1499771465323356,0.30574697907233755,-1.2314736226286411,-1.4023698248073866,1.0737745488427464,0.10015880278917903,-0.000692300043901604,-0.0009255592351642792,-0.0009511964978440389,-0.001236877361118206,-0.0006957126452644629,-0.0014365882246304825,0.00023307009372307177,0.2927129566669464,-51.93204116821289,5.489302635192871,17.45459747314453,-1.2452291250228882,-1.1835434436798096,-0.0072769103571772575,,,,,,,,,
1739355246.0089605,0.32084470532558124,1.149981190992305,0.305748877496629,-1.2314736196470695,-1.4023684632450415,1.073780854142241,0.10016082217950951,0.0005211488448828445,0.0009933402618851855,-0.0012201484710183735,-0.00044116959277828874,-0.0005769173933144903,0.0005845758664667831,0.0008190920395232848,0.2689092457294464,-52.00741958618164,5.489302635192871,17.45459747314453,-1.2388204336166382,-1.2100937366485596,-0.013685601763427258,,,,,,,,,
1739355246.0189755,0.32084470532558124,1.1499767917425914,0.30575048392457344,-1.2314697601235836,-1.4023658882508663,1.073779149914176,0.10015619996113019,-7.494990149263232e-05,-0.001226269761062017,-0.00038004226758229446,0.0004277756270855503,0.0007601060838940373,-0.0007787520987977908,-0.0009175281704411058,0.2689092457294464,-51.95584487915039,5.461531639099121,17.40302276611328,-1.2516378164291382,-1.1972763538360596,0.026597600430250168,,,,,,,,,
1739355246.0299194,0.3208427588014298,1.1499789634592859,0.3057511147926294,-1.2314697604506821,-1.4023677094072622,1.0737773739129133,0.10016168500982885,-0.0003904669504107349,0.000519507369370887,0.0006512157743209151,8.815386975417503e-05,-7.585913173372455e-05,-0.00024464751418648724,0.0007505769416753141,0.2927129566669464,-51.97964859008789,5.461531639099121,17.40302276611328,-1.2452291250228882,-1.2100937366485596,-0.020094294100999832,,,,,,,,,
1739355246.0399532,0.32084470532161835,1.149978198036774,0.3057529762093206,-1.2314695207239135,-1.4023666459110096,1.0737793381707477,0.10016498469675439,-0.00020668141827586203,-0.0007833344948366023,0.0010577086953738669,0.0009563187678303206,0.00034654640359221963,-0.001092813067894159,0.0026286737587865967,0.2689092457294464,-51.97964859008789,5.437727928161621,17.40302276611328,-1.2452291250228882,-1.1972763538360596,-0.04756011441349983,,,,,,,,,
1739355246.05089,0.32084469376985675,1.1499852072405334,0.30575111479663514,-1.231467977445263,-1.4023708858990664,1.0737786037999146,0.10016096239846964,0.000100337817581609,0.001762524815321674,-3.717887400192307e-05,0.0014238329951752372,-0.0011217951705373005,0.0005061755981069565,0.0008903834880824264,0.2689092457294464,-52.03122329711914,5.461531639099121,17.37921905517578,-1.2452291250228882,-1.1899521350860596,-0.013685601763427258,,,,,,,,,
1739355246.060948,0.320843231116236,1.1499793172524801,0.3057529762093207,-1.231471839913489,-1.4023682790225303,1.073779508943303,0.10015546128815539,-0.00021049114963417326,-0.0008315449179300097,0.0003426314996726942,0.0010374068559978506,-0.002149701207631899,0.00018757990918523914,-0.0007444556890940062,0.2927129566669464,-51.95584487915039,5.437727928161621,17.43079376220703,-1.2324117422103882,-1.1972763538360596,0.03300629183650017,,,,,,,,,
1739355246.0709677,0.320844705329617,1.149977757782681,0.30575108877001045,-1.2314667139910604,-1.4023702445250026,1.0737814098153398,0.10015621748819148,-0.0007042513576404468,-0.000878863502418841,-2.1272044675043222e-05,0.0018113971720941282,-0.0011652565271346041,-0.0001115272851258435,0.0006026370798840793,0.2689092457294464,-51.93204116821289,5.461531639099121,17.40302276611328,-1.2516378164291382,-1.2165024280548096,0.026597600430250168,,,,,,,,,
1739355246.0819228,0.32084296680447005,1.149973770080352,0.30575297624640146,-1.2314697601427766,-1.4023658751755594,1.073780266117429,0.1001595473059835,-0.0010591264122183138,-0.0008130974971264829,0.00028404484842548265,0.001038995718944304,0.0007352289379906155,0.0006752889163296118,0.00025922350161368163,0.2927129566669464,-51.90427017211914,5.437727928161621,17.40302276611328,-1.2516378164291382,-1.2036850452423096,-0.013685601763427258,,,,,,,,,
1739355246.091946,0.3208466772647333,1.149979317143481,0.30575119353363683,-1.2314689788905406,-1.4023663606360868,1.0737764136027195,0.10015799011834452,-0.0001403551089680639,-0.00019331168356916313,-0.0007230100128798951,0.0007506328887997318,-0.001618795465282359,-0.0009068601484792402,5.848427199654305e-05,0.2411382496356964,-51.95584487915039,5.461531639099121,17.43079376220703,-1.2516378164291382,-1.2100937366485596,-0.027418512850999832,,,,,,,,,
1739355246.10295,0.320842680764575,1.1499778330921526,0.30575119352163427,-1.231471831029336,-1.4023698248082757,1.0737810111734964,0.10016022025283637,-0.0010083080991256381,-0.0003699202640296472,-0.0003563945707931145,0.0004576289145012547,-0.001948428926628506,0.0012381511030093038,0.00046953673571144744,0.2927129566669464,-51.93204116821289,5.461531639099121,17.43079376220703,-1.2452291250228882,-1.2100937366485596,-0.0072769103571772575,,,,,,,,,
1739355246.1138816,0.32084298991063454,1.1499819746131685,0.3057512023639526,-1.2314687181459891,-1.4023658882867556,1.073776328091291,0.10015439522287128,-0.0001496847825682244,0.0018916865143456768,-0.0009387529031929896,0.0019447863451917975,0.001641784281777268,0.0003235890259454418,-0.0017475203655216895,0.2927129566669464,-51.97964859008789,5.461531639099121,17.40302276611328,-1.2516378164291382,-1.1972763538360596,0.03300629183650017,,,,,,,,,
1739355246.1249552,0.3208412802841025,1.149977971135444,0.30574911082764417,-1.231471839907607,-1.402366645892999,1.0737791557133018,0.10015338065411264,-0.0008562935569544574,0.000262568067892181,-0.0015003789595146077,-0.0010203001046258451,0.0003580258540304157,-0.00019018634661919346,-0.001198460695947613,0.3165166676044464,-51.93204116821289,5.489302635192871,17.43079376220703,-1.2452291250228882,-1.1972763538360596,0.019273381680250168,,,,,,,,,
1739355246.136875,0.32084291475615556,1.1499795465220424,0.3057511672879629,-1.2314720772419054,-1.4023666458929989,1.0737810228099096,0.10016097845550369,9.365664197861747e-05,0.00021568423981563106,-0.00019371000133608425,-0.0002353289946771374,-0.00032251054083448465,-0.000631060004718178,0.0006622141247749748,0.2927129566669464,-51.95584487915039,5.461531639099121,17.43079376220703,-1.2452291250228882,-1.2100937366485596,-0.013685601763427258,,,,,,,,,
1739355246.1468756,0.3208466945992004,1.149977860806941,0.3057511932094663,-1.231471835990243,-1.402366776712521,1.0737802659580156,0.10015798970433279,0.00023592715656265111,-0.0012556112627483433,-0.0007223684194535265,0.0002893151164817245,-0.0012187065637423173,0.0011671004091505421,0.0009746978514122105,0.2411382496356964,-51.93204116821289,5.461531639099121,17.43079376220703,-1.2452291250228882,-1.2036850452423096,-0.027418512850999832,,,,,,,,,
1739355246.1579416,0.32084678273914724,1.1499811825135444,0.30575002130894896,-1.2314718399134224,-1.402369072479208,1.0737780431192865,0.10015627054673155,0.0005453508314957058,-0.00015780810685311788,0.000996863152415801,-0.0004766417901076481,-9.601376352601484e-05,-0.001533977302698205,0.001494920597513222,0.2411382496356964,-51.97964859008789,5.461531639099121,17.43079376220703,-1.2516378164291382,-1.1972763538360596,-0.0008682189509272575,,,,,,,,,
1739355246.1679647,0.32084458856930753,1.149977835623751,0.3057490676280208,-1.2314690183769428,-1.4023666589929262,1.0737797825635396,0.10015895199696684,0.0005820029994246174,-0.000645584562351934,8.636730879575043e-05,-0.0004070727909417781,-0.0013821549800976999,-0.0002072631972062556,-0.00048383719693409515,0.2411382496356964,-51.93204116821289,5.461531639099121,17.40302276611328,-1.2452291250228882,-1.2036850452423096,-0.0008682189509272575,,,,,,,,,
1739355246.1789231,0.32084646828809954,1.14997760868866,0.3057511935216342,-1.231473516586169,-1.4023663439150216,1.0737774220617964,0.10015544668192086,0.000902128335293512,-0.0010478925735221186,-0.0008025843012209559,-0.00018636665729006034,-0.00016617738490973686,-0.002411515231710015,-0.0003374104087175895,0.2411382496356964,-51.93204116821289,5.461531639099121,17.45459747314453,-1.2388204336166382,-1.1899521350860596,0.03300629183650017,,,,,,,,,
1739355246.189966,0.320844703930635,1.149981259353631,0.30574910499522373,-1.231472555167431,-1.402367403535132,1.0737782891673258,0.10016173612243685,-3.5155193797222286e-05,-0.0003048774816551843,-0.0003341629348277399,-0.0003401114515573546,-0.0006698629304081514,-5.116919250633048e-05,0.0017320329939151816,0.2689092457294464,-51.97964859008789,5.489302635192871,17.43079376220703,-1.2388204336166382,-1.1899521350860596,-0.020094294100999832,,,,,,,,,
1739355246.201948,0.3208429928048474,1.149980695447955,0.30575274032668676,-1.2314707615689047,-1.4023657530527474,1.0737809661214486,0.10015545934129773,-0.0012497994226242906,0.0007474903900429907,0.0005296485031980273,-0.0003892446286907598,0.0009225738626110458,-0.00020230049055609153,-0.001683611992650773,0.2927129566669464,-51.93204116821289,5.437727928161621,17.45459747314453,-1.2516378164291382,-1.2100937366485596,0.03300629183650017,,,,,,,,,
1739355246.212883,0.32084299280485007,1.1499778346591896,0.30575119353230346,-1.2314718398973383,-1.4023674034984788,1.0737795088898043,0.10015692566611002,0.00010134835215563665,0.00042102827861699487,-0.00041364051643120444,-0.00045156002072634956,-7.53843463168707e-05,0.0005615792712861029,-0.0009155415887366937,0.2927129566669464,-51.93204116821289,5.461531639099121,17.43079376220703,-1.2388204336166382,-1.1972763538360596,0.019273381680250168,,,,,,,,,
1739355246.224929,0.3208426012277069,1.1499780727345692,0.3057467516337828,-1.2314690448678962,-1.402366645946834,1.0737795074365821,0.10015864506959586,0.0003316110537933906,-0.0002610613785376021,-0.0005777671930712056,0.0009623347569824776,0.00016417857253610472,0.00014454979588925565,-0.0023459767193044945,0.2689092457294464,-51.93204116821289,5.489302635192871,17.40302276611328,-1.2452291250228882,-1.1972763538360596,-0.0072769103571772575,,,,,,,,,
1739355246.2359843,0.3208447024247724,1.149976154267921,0.3057513940284726,-1.2314733871113306,-1.4023658925935714,1.0737795089439592,0.10015799059995024,0.00017206691989382107,-0.0009896147205982302,9.716980273127528e-05,-0.00035804947581830917,-4.206191142935858e-05,0.0019146744081411351,-0.000550938402442852,0.2689092457294464,-51.90427017211914,5.461531639099121,17.45459747314453,-1.2516378164291382,-1.1972763538360596,-0.0008682189509272575,,,,,,,,,
1739355246.2479174,0.3208467032664289,1.1499788940287405,0.3057512328336746,-1.2314708597477761,-1.4023651305728502,1.0737795715214065,0.100153023183056,0.001028134157718911,0.0009110382884840624,-0.0014848934902956202,4.715482869728862e-05,0.0006236883672592363,0.00038117272369033134,-0.0019502637698337964,0.2411382496356964,-51.93204116821289,5.489302635192871,17.43079376220703,-1.2580465078353882,-1.2100937366485596,0.026597600430250168,,,,,,,,,
1739355246.2590036,0.32083987275924697,1.1499832837952404,0.30575084871562946,-1.2314721577993946,-1.4023674037145826,1.0737785574570398,0.1001585418022904,-0.0009370713521960742,0.0012374590913963597,0.0011873366610098482,-0.000664791425593088,-0.0002500534670056486,0.0009518438218215064,0.00033374648532449955,0.2927129566669464,-52.00741958618164,5.437727928161621,17.43079376220703,-1.2388204336166382,-1.2165024280548096,-0.020094294100999832,,,,,,,,,
1739355246.2709556,0.32084670326056336,1.1499795478179171,0.3057543470394868,-1.2314679773018575,-1.4023634144354613,1.0737742867505806,0.10016136167825593,0.0007607528328905399,0.0004826397577881603,0.0013898136019563228,0.001248757258995515,0.00219639754365232,-0.0017402943777795638,0.0010094745554805635,0.2411382496356964,-51.95584487915039,5.409956932067871,17.37921905517578,-1.2452291250228882,-1.1899521350860596,-0.027418512850999832,,,,,,,,,
1739355246.2818792,0.3208446963377955,1.1499812859574234,0.305751075912832,-1.2314697689539509,-1.4023680587198122,1.0737802660933873,0.10015642156945327,-0.0005473631910258828,0.0009081990719405625,-0.0008174900238705187,0.0015728714517771979,-0.0005925747371929707,0.00048166013670929885,0.0005637914822434024,0.2689092457294464,-51.97964859008789,5.461531639099121,17.40302276611328,-1.2452291250228882,-1.2036850452423096,0.012864691205322742,,,,,,,,,
1739355246.2919078,0.32084478469129124,1.1499778431467578,0.30574911374178754,-1.231469680541907,-1.4023658882568466,1.0737764324988888,0.10015940964066748,0.000731582912520027,-0.0011943745121151088,-0.0006419286588573808,0.000754156405953091,0.0004840122750682384,-0.000987499041854819,0.001305725476500644,0.2689092457294464,-51.93204116821289,5.489302635192871,17.40302276611328,-1.2516378164291382,-1.2100937366485596,-0.027418512850999832,,,,,,,,,
1739355246.3019207,0.32084670326777837,1.1499812596846504,0.30574907486131037,-1.2314718398031248,-1.4023666589749513,1.0737795024059826,0.1001584667318312,0.001866777981698325,-0.0007957654211228483,-0.0012118857848729498,0.0003036349538170605,-0.0008523768724532139,-0.00023579416736609256,-0.0010827275268234038,0.2411382496356964,-51.97964859008789,5.489302635192871,17.43079376220703,-1.2452291250228882,-1.1972763538360596,0.0064559997990727425,,,,,,,,,
1739355246.3119516,0.32084574125237336,1.1499823230291888,0.3057463596524161,-1.231473622590506,-1.4023651245973572,1.0737802666039356,0.1001584745722909,-0.001111775361725681,0.0014892667642180538,-0.0015703187953045783,-0.0007923662354536991,0.0007909232669246748,-0.0009395044891947878,0.0011287467731529392,0.2411382496356964,-51.97964859008789,5.513106346130371,17.45459747314453,-1.2580465078353882,-1.2036850452423096,0.0064559997990727425,,,,,,,,,
1739355246.3229692,0.3208447052844848,1.1499757946276112,0.30575116728248475,-1.2314697601236335,-1.402369824807353,1.0737775813090336,0.10015783644722517,-0.0004433680992264481,-0.0009894793220957213,-0.00030272818724198856,0.0002185067653400534,-0.0014668265106507396,-0.0002957155429956782,0.0010763289055850784,0.2689092457294464,-51.93204116821289,5.461531639099121,17.40302276611328,-1.2452291250228882,-1.1899521350860596,0.012864691205322742,,,,,,,,,
1739355246.3339405,0.3208424856635084,1.1499778353219605,0.3057529762105059,-1.2314718428569282,-1.4023656650666139,1.073778096087135,0.10015434291849845,0.0002586820990672796,-0.001778408471533445,0.001262675222667068,-0.00047248965521590186,-0.0009948077835442142,-0.0005557195553508016,0.0008369746141855651,0.2689092457294464,-51.93204116821289,5.437727928161621,17.43079376220703,-1.2250875234603882,-1.1972763538360596,0.03941498324275017,,,,,,,,,
1739355246.344933,0.32084470531305115,1.1499812593574577,0.30574906666257634,-1.2314718402405544,-1.4023666458740198,1.073779508935992,0.10015616469669313,0.0008105057087645544,0.00011046206010865555,-0.0005802304832034428,0.00018326039724486095,-0.0006068105657886547,0.0012136716211166743,0.0021380912425174444,0.2689092457294464,-51.97964859008789,5.461531639099121,17.43079376220703,-1.2452291250228882,-1.1972763538360596,0.026597600430250168,,,,,,,,,
1739355246.355891,0.32084662205537057,1.1499812632820376,0.30575297639367727,-1.2314679417983,-1.4023677040775775,1.073776667974037,0.10016248518989684,0.0010353536970305595,-0.0004278701220110424,0.0010095329608786295,0.0009067558134789378,-0.0016221669629942898,-0.0004433868869827442,0.0011711179479227116,0.2411382496356964,-51.97964859008789,5.437727928161621,17.37921905517578,-1.2452291250228882,-1.2100937366485596,-0.027418512850999832,,,,,,,,,
1739355246.3669558,0.3208438952249331,1.149984043851003,0.30575093107696977,-1.2314718134223344,-1.4023674035590505,1.0737767836951135,0.10016097927311648,-0.0004942955248934359,-0.0007290530790805883,-0.00014748311039077867,-2.9486799112219303e-05,-0.00038801295384859004,0.0006647686420914029,0.0010024005326397063,0.2411382496356964,-51.97964859008789,5.461531639099121,17.43079376220703,-1.2388204336166382,-1.2100937366485596,-0.013685601763427258,,,,,,,,,
1739355246.377982,0.32084460127254383,1.1499779913154333,0.305746987735294,-1.231471813422386,-1.4023666458929989,1.073778847861233,0.1001576614354866,0.00065472476836071,-0.001648441587485289,-0.0004232372663956511,-0.0015382527267624054,-8.470964823800259e-06,-0.00043445967106255914,-0.0006098041249505684,0.2689092457294464,-51.90427017211914,5.489302635192871,17.43079376220703,-1.2452291250228882,-1.2036850452423096,-0.013685601763427258,,,,,,,,,
1739355246.3899121,0.32084636526129817,1.1499779412771167,0.3057504844646081,-1.2314736225783454,-1.4023670121876608,1.07377742642251,0.1001633415003102,0.0011625863931431697,8.849985598864219e-05,-0.0006512377306067159,-0.0009953420675408134,-0.0005207659736510937,-0.0007331375898218641,0.0021060000182495132,0.2411382496356964,-51.93204116821289,5.461531639099121,17.45459747314453,-1.2452291250228882,-1.1899521350860596,-0.03382720425724983,,,,,,,,,
1739355246.3999581,0.3208439686462391,1.1499816926045365,0.3057528945534663,-1.2314718369700497,-1.4023655862569373,1.0737801488596084,0.10015614665609819,0.0002239656641796366,-4.40006883859557e-05,0.00037520364960469155,-0.0004875354112636659,0.0007566572769001503,0.0009239466329955098,-0.0010763737487706978,0.2689092457294464,-51.95584487915039,5.437727928161621,17.43079376220703,-1.2452291250228882,-1.2036850452423096,-0.0008682189509272575,,,,,,,,,
1739355246.4099805,0.320846700340076,1.149979891655178,0.3057527399955058,-1.2314695217049048,-1.4023643728589286,1.073777074601724,0.10015986527864126,0.0010825541423141992,0.0009215782097057538,-0.0005217248836598222,-6.851089266022062e-05,0.0012819023334463037,0.00014098073244776574,0.0010194483785348348,0.2411382496356964,-51.95584487915039,5.437727928161621,17.40302276611328,-1.2644551992416382,-1.2036850452423096,-0.0072769103571772575,,,,,,,,,
1739355246.4209008,0.3208451047248336,1.1499837239991957,0.30575119353230157,-1.231471839912143,-1.4023674035530767,1.0737801488484573,0.10015730245626046,0.0007356061495782277,0.0020897791136847152,0.0006848311505177733,-0.0006879022062637216,-0.0004712014801949888,-4.934889682657755e-05,-0.0002497387977281419,0.2689092457294464,-51.97964859008789,5.461531639099121,17.43079376220703,-1.2388204336166382,-1.2036850452423096,-0.020094294100999832,,,,,,,,,
1739355246.4318776,0.3208473891473971,1.149979555683789,0.305751158431406,-1.231469694146277,-1.4023651700340396,1.0737786429926786,0.10015226582390188,0.00014821029057491674,0.0005417006873110942,-0.0004808633354381749,-0.00030834173776384113,0.00036780874473042144,0.0002388217711480732,-0.00239550251428662,0.2173345386981964,-51.95584487915039,5.461531639099121,17.43079376220703,-1.2580465078353882,-1.1899521350860596,0.03300629183650017,,,,,,,,,
1739355246.4429488,0.3208457409139948,1.1499817190950359,0.305752031366061,-1.2314714767869572,-1.4023651363877114,1.073780265958023,0.10015836700936799,0.0008316131518466388,0.0010923360424123902,0.0008795961875342534,0.0006206662116269247,0.00023953917266713725,0.00044519755070245547,0.00137736398631575,0.2411382496356964,-51.95584487915039,5.437727928161621,17.45459747314453,-1.2580465078353882,-1.2036850452423096,-0.020094294100999832,,,,,,,,,
1739355246.4529524,0.32084261579389134,1.1499795763197145,0.3057529745973305,-1.2314658768660434,-1.402366645731526,1.0737817756254815,0.10015655527032111,-0.000527650455622729,-0.00015772191868702428,0.002248962718070682,0.0017638826073840186,0.00036746280130309586,0.0009324864492539479,-0.0018364106368850865,0.2689092457294464,-51.95584487915039,5.437727928161621,17.35541534423828,-1.2452291250228882,-1.2165024280548096,-0.0072769103571772575,,,,,,,,,
1739355246.4629798,0.32084470521942204,1.1499843630521127,0.30574906763455606,-1.2314718398973377,-1.4023659274787688,1.073775445235874,0.10015704376927503,0.000905076389174773,0.0009537232027813693,0.00023113404557450294,0.0005877753338794985,0.000461174839897426,-0.0016316130322914706,-0.0014672657288360336,0.2689092457294464,-51.97964859008789,5.461531639099121,17.43079376220703,-1.2516378164291382,-1.1899521350860596,0.019273381680250168,,,,,,,,,
1739355246.4729817,0.32084457091427804,1.149982226166282,0.30574906371038885,-1.2314661947695948,-1.4023660299487593,1.073780135730369,0.10015214188094844,0.0007391215251442718,3.860079624607625e-05,-0.00048314761717734196,0.0006405746677969025,0.0005405922080868862,7.375522468829067e-05,-0.0012798095228716449,0.2411382496356964,-51.97964859008789,5.461531639099121,17.35541534423828,-1.2388204336166382,-1.2036850452423096,0.03300629183650017,,,,,,,,,
1739355246.4830244,0.32084669155600937,1.1499837583428314,0.30574667151700957,-1.2314736225541691,-1.4023666458852446,1.0737770876350843,0.10016173296685187,0.0007159115185840105,-0.0004179299110164765,-0.0017707816433923918,-0.000730381296124329,0.0006794235902908548,-0.0009253772129908629,0.0015903950542919417,0.2411382496356964,-51.97964859008789,5.489302635192871,17.45459747314453,-1.2452291250228882,-1.2036850452423096,-0.020094294100999832,,,,,,,,,
1739355246.4939232,0.32084470630666156,1.1499835154632345,0.3057461615785281,-1.2314679774466142,-1.4023698073647837,1.07377915361374,0.10016153882095898,0.00029602066713233074,0.0011552603376860772,-0.001456501735209482,0.0005588110427613424,-0.00020251321824912445,0.0005680741945754842,0.0001113868401513711,0.2689092457294464,-51.97964859008789,5.489302635192871,17.37921905517578,-1.2452291250228882,-1.1972763538360596,-0.027418512850999832,,,,,,,,,
1739355246.5058775,0.32084767800409664,1.1499785508926579,0.30575297604997986,-1.2314725541880798,-1.402365888250767,1.0737775785614327,0.10016097970047458,0.0008751264462491004,-0.000953238075487978,0.0013503666742035612,-0.0008770433397536093,-0.00010925126218857498,-0.00044470975269735513,0.0012265878391801493,0.2173345386981964,-51.93204116821289,5.437727928161621,17.43079376220703,-1.2516378164291382,-1.1899521350860596,-0.013685601763427258,,,,,,,,,
1739355246.5159657,0.3208399121301433,1.1499824196374722,0.30574902334203796,-1.2314695217090863,-1.402365888071415,1.0737802268676637,0.10016132527365297,-0.001925096677264928,0.0010746813762591279,0.00018326020576110193,-0.00016165084407974528,-0.0007029293728248626,0.0008733598305134938,0.0012495684445689497,0.2927129566669464,-51.95584487915039,5.489302635192871,17.40302276611328,-1.2516378164291382,-1.2036850452423096,-0.020094294100999832,,,,,,,,,
1739355246.5269513,0.32084299278745954,1.1499799800644257,0.3057511584308957,-1.2314675878277836,-1.402366645892998,1.0737802665499867,0.10016176496041376,-6.993612804393195e-05,-0.0004381795820560039,0.0005964174623511682,0.0003625966800789081,-0.0004909747831340246,-0.0001145653878881133,0.0020421892701621893,0.2927129566669464,-51.93204116821289,5.461531639099121,17.40302276611328,-1.2452291250228882,-1.2036850452423096,-0.03382720425724983,,,,,,,,,
1739355246.5379786,0.32084669941452587,1.149980583944821,0.3057529460761461,-1.2314735165899071,-1.402363717722003,1.0737808667961801,0.10015847990216158,0.0007988290012419681,0.00014191503916665465,0.002306114438119586,-0.0003683738170551085,0.0023740057981660803,0.001057092241145263,-0.0004834237289895655,0.2411382496356964,-51.95584487915039,5.437727928161621,17.45459747314453,-1.2580465078353882,-1.2100937366485596,0.0064559997990727425,,,,,,,,,
1739355246.5480325,0.32084264609742885,1.149981701440105,0.3057522200282521,-1.2314679686156982,-1.4023651305648666,1.0737784493049496,0.10015677433009934,-0.0008509988021558582,-0.0007217180822135542,-0.0002327395057465211,0.001427736396667263,0.0006875258595231567,-0.0001420100842814813,-0.00019960608196379595,0.2927129566669464,-51.95584487915039,5.409956932067871,17.37921905517578,-1.2580465078353882,-1.1972763538360596,0.012864691205322742,,,,,,,,,
1739355246.5589347,0.3208440023147205,1.149981262313054,0.30575118962937897,-1.2314718394773738,-1.4023643729127637,1.0737778722987232,0.10015852915781476,-0.000494773358729199,-0.0004047264496372003,4.072327818163888e-06,-0.00018173336407005799,0.00033025365142832694,-0.00048402306214708043,0.0007331041151085789,0.2689092457294464,-51.97964859008789,5.461531639099121,17.43079376220703,-1.2644551992416382,-1.1835434436798096,-0.020094294100999832,,,,,,,,,
1739355246.5699375,0.320845998508629,1.14997663110375,0.3057508784416043,-1.2314714867007766,-1.4023677567657868,1.0737799133912624,0.10015470020274672,-5.408035631666435e-05,-0.0018427935948774048,-0.00032117649898654854,0.0008387291038331571,-0.0004568769365123163,0.00028989821999803175,-0.0010222473531370864,0.2411382496356964,-51.90427017211914,5.461531639099121,17.43079376220703,-1.2388204336166382,-1.2036850452423096,0.03941498324275017,,,,,,,,,
1739355246.58094,0.3208382369517081,1.1499815373534228,0.3057510872531075,-1.2314697597945907,-1.402365012837266,1.0737752697434342,0.10016268233988775,-0.0014297531780453135,0.00045563951850252974,0.0003900311994533375,0.0005803186849390532,2.9082083290112373e-05,-0.0013311786747950474,0.0026959866830220448,0.3165166676044464,-51.97964859008789,5.461531639099121,17.40302276611328,-1.2580465078353882,-1.1972763538360596,-0.027418512850999832,,,,,,,,,
1739355246.591886,0.32084268074875066,1.1499778344297138,0.305752948883119,-1.231468978890534,-1.4023677553102427,1.0737802476361018,0.10015798873210073,0.0006348502327550508,-0.0006075690652454384,0.0007969263875964802,0.001120833760371745,-0.0014816952713747392,0.001483808694328529,0.0004349196113969269,0.2927129566669464,-51.93204116821289,5.437727928161621,17.43079376220703,-1.2388204336166382,-1.2036850452423096,-0.027418512850999832,,,,,,,,,
1739355246.6019228,0.3208457370420455,1.1499833632271257,0.30575202229392506,-1.2314718134063851,-1.4023682004609979,1.0737779389480895,0.10016173707018494,-0.0008165252271609348,0.001075713999988581,0.001283697972761107,-0.00083610021887682,-0.002171234488955688,-0.001305846580324229,0.0013793319340359197,0.2411382496356964,-52.00741958618164,5.437727928161621,17.43079376220703,-1.2324117422103882,-1.1972763538360596,-0.020094294100999832,,,,,,,,,
1739355246.6130254,0.32084470400049164,1.1499795823039447,0.3057483774556398,-1.2314697571800446,-1.402366632811268,1.0737791657192954,0.10015191325527945,0.0007220107629417294,-0.0009399525759739942,0.00022625285232816456,-0.0007236569135625135,-0.00044371902079187394,-0.00024826951580974877,-0.0026029162233495227,0.2689092457294464,-51.95584487915039,5.489302635192871,17.40302276611328,-1.2452291250228882,-1.2036850452423096,0.026597600430250168,,,,,,,,,
1739355246.6230836,0.3208446763292502,1.149979549889777,0.3057470118940243,-1.231471804592168,-1.4023674035528555,1.0737795068257516,0.10016067274268498,0.0006845440835147143,-0.00018105084472658104,-0.001218650389685797,0.00012535090192814188,-0.0009449703232235997,0.0007537005060997599,0.0007900971520147329,0.2689092457294464,-51.95584487915039,5.513106346130371,17.43079376220703,-1.2388204336166382,-1.1972763538360596,-0.020094294100999832,,,,,,,,,
1739355246.6339831,0.3208428791733959,1.149982521745349,0.30574877251230925,-1.2314718399132896,-1.402367403553077,1.0737806579694504,0.10015621537274136,0.0004694278684672671,0.00040248818667513325,-0.0007060143899592099,-0.0015737783190759606,0.0002471157801091555,-0.00023416932403593112,-0.0005284309909627744,0.2927129566669464,-51.95584487915039,5.489302635192871,17.43079376220703,-1.2388204336166382,-1.2100937366485596,0.026597600430250168,,,,,,,,,
1739355246.6448934,0.32084229047295554,1.1499778706352004,0.30575119353170876,-1.2314696938192282,-1.402366528155429,1.073780671049347,0.10015660557761212,-0.00016188987280463794,-0.0004421522950853729,0.00010096746074625527,-0.0004406643351978223,0.0005707452383910594,0.0013983165288242512,-0.0006732698593459499,0.2927129566669464,-51.93204116821289,5.461531639099121,17.43079376220703,-1.2452291250228882,-1.2100937366485596,0.012864691205322742,,,,,,,,,
1739355246.6549072,0.3208465902652345,1.1499795507619215,0.30575297491457176,-1.2314718397681284,-1.4023667636285748,1.0737756748328373,0.1001577320529036,0.0005610204051147144,0.00017262643805903587,0.0005655604188436564,-0.0005350907396759532,-0.0003601868823201469,-0.00029899038664043143,0.00057379624021555,0.2411382496356964,-51.95584487915039,5.437727928161621,17.43079376220703,-1.2452291250228882,-1.2036850452423096,-0.013685601763427258,,,,,,,,,
1739355246.665949,0.32084447003755373,1.149977846198785,0.30574903468275166,-1.2314697336326794,-1.4023666458936634,1.0737799133115806,0.10016093847343965,0.00044275133938262803,-0.0007945481303592353,-0.0005118312571185937,-0.0005029341037735315,-0.00030062851212747573,0.0003689838984668802,0.0018968688413277585,0.2689092457294464,-51.93204116821289,5.489302635192871,17.40302276611328,-1.2452291250228882,-1.2036850452423096,-0.013685601763427258,,,,,,,,,
1739355246.6769361,0.320848415643174,1.1499817761468,0.3057529460762943,-1.2314718399133393,-1.4023658882329204,1.0737779783535644,0.10016019381602935,0.0019260981116050895,0.0001652994389565677,0.0007890418437218921,-0.0008394475375258551,-0.00027189684105134574,-0.0008387386675376295,0.002140702891750474,0.2173345386981964,-51.95584487915039,5.437727928161621,17.43079376220703,-1.2516378164291382,-1.1972763538360596,-0.020094294100999832,,,,,,,,,
1739355246.6870244,0.32084467515229825,1.1499800599208636,0.30575502543405836,-1.2314697246933461,-1.4023658882329204,1.0737802607639246,0.10015765416161518,-0.0007632892715505893,-0.00020519398873847903,0.0015402808729275837,0.0008393550122033315,0.0015436270081248362,1.2809132636835372e-05,0.001074876818749672,0.2689092457294464,-51.93204116821289,5.409956932067871,17.40302276611328,-1.2516378164291382,-1.2036850452423096,-0.013685601763427258,,,,,,,,,
1739355246.6979072,0.3208460012560033,1.1499785495842905,0.3057483701163857,-1.2314679466674878,-1.4023658882329204,1.0737777929680594,0.10015830561092774,0.0008114220470652484,-0.00045839057202407766,-0.0008924045103265023,0.0008489620024236739,6.220758313388899e-05,-0.0005351728746143697,-0.000536054283272853,0.2411382496356964,-51.93204116821289,5.489302635192871,17.37921905517578,-1.2516378164291382,-1.2100937366485596,-0.027418512850999832,,,,,,,,,
1739355246.7079315,0.3208429667925814,1.1499834052457933,0.30575086982448657,-1.231471836860512,-1.4023671201227286,1.073780249106721,0.10015601416407735,0.0003766409900119444,0.0007042612360546216,0.0003883058284514913,0.0005759468287732426,0.0008781388787411277,-0.00014237146380062022,0.0001092172692245334,0.2927129566669464,-51.97964859008789,5.461531639099121,17.43079376220703,-1.2644551992416382,-1.2036850452423096,0.019273381680250168,,,,,,,,,
1739355246.7179558,0.3208463883725024,1.1499816926402735,0.30574834895151914,-1.2314658316793508,-1.402366645939523,1.07378026660375,0.10015677642207695,0.00034871045384193345,-0.0012539442128309344,0.00012821761813018587,0.0020390894829748324,-0.0004143481353000158,0.00032706946169357176,0.0003382257613104264,0.2411382496356964,-51.95584487915039,5.461531639099121,17.37921905517578,-1.2452291250228882,-1.2036850452423096,0.012864691205322742,,,,,,,,,
1739355246.7279568,0.3208429915155479,1.1499787257180902,0.305752976054474,-1.2314679774102755,-1.402364263723041,1.0737794632378876,0.10016067279754805,-0.0007117546452275832,-0.0020036598172237983,0.0005804412986496828,0.0005900618730220664,0.0007850065219857631,4.4684227143578e-05,0.0005934086547338295,0.2927129566669464,-51.90427017211914,5.437727928161621,17.37921905517578,-1.2388204336166382,-1.1972763538360596,-0.020094294100999832,,,,,,,,,
1739355246.738927,0.3208429923411872,1.1499765634209411,0.30575095635057276,-1.2314735166266948,-1.4023627136076235,1.0737784839634783,0.10015742971842916,-1.6263220867632455e-05,-0.002861015111808041,-0.0005259193667522215,-0.0014263832852164844,0.001014171028747316,-0.0006853573475869878,0.0017167787659218914,0.2927129566669464,-51.90427017211914,5.461531639099121,17.45459747314453,-1.2516378164291382,-1.1899521350860596,-0.013685601763427258,,,,,,,,,
1739355246.7489774,0.32084469665878,1.149980696768463,0.305749893798901,-1.2314677390262407,-1.4023681605133707,1.073775976814176,0.10016138200545531,0.0004123615493505698,-0.0012761237739311447,-0.00012246397373166383,0.0009528296462607637,0.0013134808408841467,-0.0007502913779258248,0.0015477810611641163,0.2689092457294464,-51.93204116821289,5.437727928161621,17.37921905517578,-1.2324117422103882,-1.1972763538360596,-0.020094294100999832,,,,,,,,,
1739355246.759948,0.3208440033152716,1.1499803798461867,0.3057529731330595,-1.2314718402391918,-1.402366647346545,1.0737788011901184,0.10016167895011531,0.0009437091699124082,0.0005219276277912807,0.0011030450185236988,-0.000856794066046874,3.515470965678823e-05,0.00028590395984512764,0.00026651955999751266,0.2689092457294464,-51.95584487915039,5.437727928161621,17.43079376220703,-1.2452291250228882,-1.2036850452423096,-0.020094294100999832,,,,,,,,,
1739355246.7709498,0.32084467825126384,1.149977926548455,0.30575085201593094,-1.2314718399134907,-1.4023674427989419,1.073777541909863,0.10015003143757775,0.0006786938455569889,-0.0006634484526843351,0.00015129953917575705,-0.0004631176433382985,-0.00021754441728303242,-0.00034203745303313087,-0.0011786499595931657,0.2689092457294464,-51.93204116821289,5.461531639099121,17.43079376220703,-1.2388204336166382,-1.2165024280548096,0.03941498324275017,,,,,,,,,
1739355246.7819314,0.32084818167628926,1.1499809615582284,0.3057497993991397,-1.2314718281397319,-1.402365888233585,1.0737802665322411,0.10015320966598842,0.0010489341228350543,8.24194654687784e-05,-0.0013880806959234153,-0.0007705649400728226,-0.00014328771940695683,0.0006738174777983899,-0.00048610266140663934,0.2173345386981964,-51.93204116821289,5.437727928161621,17.43079376220703,-1.2516378164291382,-1.2036850452423096,0.012864691205322742,,,,,,,,,
1739355246.7919703,0.3208446706570863,1.1499759250593546,0.3057490873721728,-1.2314666606456999,-1.4023629295254199,1.0737756350546102,0.10015386120516741,0.0012360785225366457,-0.0020314208300415914,0.00024764801509084486,0.0015043650906077797,0.0009090065897877849,-0.0011867134362090696,-0.002277552012964299,0.2689092457294464,-51.90427017211914,5.489302635192871,17.40302276611328,-1.2388204336166382,-1.2036850452423096,0.0064559997990727425,,,,,,,,,
1739355246.8029387,0.3208426794091272,1.1499800065746555,0.30575223830764753,-1.2314679744856785,-1.4023622383429966,1.0737802253939772,0.10016259014797582,0.00019904467169485132,-0.0022464752385121804,0.00017679801121911178,0.0008424875925163774,0.002067255142821364,0.0005554124498973407,0.0018283862022757417,0.2927129566669464,-51.93204116821289,5.437727928161621,17.37921905517578,-1.2516378164291382,-1.2036850452423096,-0.027418512850999832,,,,,,,,,
1739355246.8139403,0.3208401847263723,1.1499819438260164,0.30575108854680305,-1.2314697689539345,-1.402364394683464,1.0737790484748724,0.10015504353092126,-0.0005486884147842965,-0.00017724561114139297,0.0018422071630531025,0.0008579210559601835,-0.00023803980287319789,-0.0004634219257775585,-0.0012882996480498344,0.2927129566669464,-51.95584487915039,5.461531639099121,17.40302276611328,-1.2388204336166382,-1.2036850452423096,0.0064559997990727425,,,,,,,,,
1739355246.8248694,0.3208429884734346,1.1499788244516094,0.3057519934556554,-1.2314679774466641,-1.4023663438979626,1.0737795089370914,0.1001573735614973,-1.3192951728357451e-05,-0.00014005938242937386,0.0003935069614262773,-0.000209530696477625,0.0005775204141372252,0.0008615098062782311,-0.0011887430399399384,0.2927129566669464,-51.93204116821289,5.437727928161621,17.37921905517578,-1.2388204336166382,-1.1972763538360596,-0.013685601763427258,,,,,,,,,
1739355246.8349786,0.320841819283325,1.1499823311131552,0.30575024575680815,-1.2314679771195656,-1.4023634626000145,1.0737802142762372,0.10015241583947658,-0.0005674922305386988,0.0004692575042050777,0.001052560638992447,-0.0006394700324866629,0.0007745634166418385,0.0013388839415708366,-0.0006905188045629383,0.2689092457294464,-51.97964859008789,5.461531639099121,17.37921905517578,-1.2452291250228882,-1.2036850452423096,0.019273381680250168,,,,,,,,,
1739355246.844979,0.32084104291490234,1.1499820930230071,0.3057529752225417,-1.231469795444899,-1.4023666456775838,1.0737801474120399,0.10016080443787533,-0.0016729769635304662,0.00048665728400499637,0.0023311174752769954,-0.0004079439323684522,-0.00037232919571682124,-0.0003521507657358221,0.001887177880850147,0.3165166676044464,-51.97964859008789,5.437727928161621,17.40302276611328,-1.2452291250228882,-1.2036850452423096,-0.013685601763427258,,,,,,,,,
1739355246.854986,0.32084600125215373,1.149983193388171,0.3057462409773388,-1.2314708862397707,-1.402366526701875,1.073775853623481,0.100152492097236,0.00057784668927751,0.00028747373411949285,-4.0917003956547236e-05,0.00013999569452706776,0.0007000896673143485,-0.0011693024233055695,-0.0007163320479249993,0.2411382496356964,-51.93204116821289,5.489302635192871,17.43079376220703,-1.2452291250228882,-1.2036850452423096,0.026597600430250168,,,,,,,,,
1739355246.8659134,0.32084470435864126,1.1499796273936567,0.3057529747543458,-1.2314736214949618,-1.4023631654844035,1.0737802490826966,0.10015710458499963,0.0014927472641288826,-0.00144781643845397,0.0017458010221560486,-0.0011164914540081452,0.00025813089973706336,0.0007739094482643386,0.0005718997722313778,0.2689092457294464,-51.95584487915039,5.437727928161621,17.45459747314453,-1.2388204336166382,-1.2036850452423096,-0.020094294100999832,,,,,,,,,
1739355246.8759274,0.3208466133885611,1.149986463795173,0.30574600379426947,-1.2314715220220316,-1.4023658881611483,1.0737794913395624,0.10015820916723318,0.00119706965861166,0.0010118789708550824,-0.0010715879514162727,-0.00010252783143642263,-0.0007140973002954141,-0.00019324037226470052,0.002512367215879562,0.2411382496356964,-52.00741958618164,5.489302635192871,17.43079376220703,-1.2516378164291382,-1.1972763538360596,-0.027418512850999832,,,,,,,,,
1739355246.8871622,0.3208446793246938,1.1499854163109249,0.30574806001131166,-1.2314757595256076,-1.4023666458929984,1.073780148866377,0.1001555556725902,0.0010785253869256607,0.0012908980323598205,-0.0006070923991352079,-0.000881385423684125,-0.0006653570749347928,0.0015593428847615262,-0.0015973909539052646,0.2689092457294464,-52.00741958618164,5.489302635192871,17.45459747314453,-1.2452291250228882,-1.2036850452423096,-0.0072769103571772575,,,,,,,,,
1739355246.8978772,0.32084267791121185,1.1499810251616773,0.3057501685065967,-1.231471839925552,-1.4023666458929989,1.073778992448449,0.10015671729615265,-0.0019199935260450132,-0.00028169863742366353,-0.0007202650235414,-0.0003642321637239798,0.00021467660809833066,-0.0004455061742123691,8.490179065643037e-05,0.2927129566669464,-51.93204116821289,5.461531639099121,17.43079376220703,-1.2452291250228882,-1.1972763538360596,0.012864691205322742,,,,,,,,,
1739355246.9079654,0.3208426779060259,1.1499802988849779,0.30575016701909236,-1.2314714425491906,-1.4023658862948534,1.0737770876809114,0.10015944689701953,-0.0006744166994352949,-0.0012341186395274924,0.000529323169756945,-0.00015132258323993398,0.0010676760442482898,0.00018628615268581237,0.001083116509563557,0.2927129566669464,-51.95584487915039,5.461531639099121,17.43079376220703,-1.2516378164291382,-1.2036850452423096,-0.0008682189509272575,,,,,,,,,
1739355246.9189599,0.3208428887658865,1.1499827625301755,0.30574824234843706,-1.2314676133366933,-1.402364526562894,1.0737763169296826,0.1001556573671286,-0.0010017094914251097,-0.0002674474822768031,0.00010304555089362914,0.0011988792772190866,0.0005834801816000195,-0.0013561760055565914,-0.0012610714799962536,0.2927129566669464,-51.95584487915039,5.461531639099121,17.40302276611328,-1.2452291250228882,-1.1972763538360596,0.019273381680250168,,,,,,,,,
1739355246.9289854,0.32084425013416684,1.1499809465668793,0.30574872595896585,-1.231467156190708,-1.4023666487642084,1.0737760149155198,0.10015386297729537,-0.00012004256233268356,-0.000652383144116525,-0.0004692545949040719,0.0015783978917604424,0.0002349095157426426,-7.197144472749651e-05,-0.0004100695142177632,0.2411382496356964,-51.93204116821289,5.461531639099121,17.37921905517578,-1.2452291250228882,-1.2036850452423096,0.03300629183650017,,,,,,,,,
1739355246.938991,0.32084670226191325,1.149984477570403,0.30574674867580903,-1.231471839899581,-1.402367399192475,1.0737752572374955,0.10015695275524299,0.0012971617271618347,0.0013231817385633694,-0.0011631264514882916,-0.0008778115153298943,0.00014441730941319714,-0.0011670794098079323,0.0011158936947524734,0.2411382496356964,-51.97964859008789,5.489302635192871,17.43079376220703,-1.2388204336166382,-1.1972763538360596,-0.020094294100999832,,,,,,,,,
1739355246.9498973,0.320843778562501,1.1499844426869965,0.305750133504972,-1.2314728268807646,-1.4023670498558258,1.0737791513466062,0.10015827535277678,-0.0009118323776703943,0.0015103604882930961,-0.000275795453610201,3.53975937723239e-05,-0.0006886185672424714,0.00027658420103017625,0.0003104528280409969,0.2411382496356964,-51.97964859008789,5.461531639099121,17.45459747314453,-1.2388204336166382,-1.1972763538360596,-0.0008682189509272575,,,,,,,,,
1739355246.959955,0.32084399994886953,1.1499844750642325,0.3057520284325186,-1.2314736225770326,-1.4023674035470872,1.073781664180577,0.1001534097947831,-0.00011472331945566185,0.0012789811470582165,0.0005695116180507829,-0.0018839293071588699,-0.00011536914634457924,0.0009921861972816545,-0.0002890822342678669,0.2689092457294464,-51.97964859008789,5.437727928161621,17.45459747314453,-1.2388204336166382,-1.2165024280548096,0.012864691205322742,,,,,,,,,
1739355246.9708936,0.3208418192794165,1.149978153570115,0.30575091897485035,-1.2314718124413893,-1.4023665892045392,1.0737744040090367,0.10015156258070208,-0.0009178033134881784,-0.0015889940980255688,0.0018283564978646522,-9.460316281356028e-05,-0.0002676506141822147,-0.0015218925359556127,-0.0010422907936938335,0.2689092457294464,-51.93204116821289,5.461531639099121,17.43079376220703,-1.2452291250228882,-1.1899521350860596,0.026597600430250168,,,,,,,,,
1739355246.9809873,0.32084187123528296,1.1499813774274774,0.3057508392664893,-1.2314678979732894,-1.4023658867784101,1.0737782883086868,0.1001596904492529,0.0002535546715622273,-0.0016187579660680979,0.00017531633710029805,0.0005433916336523511,1.5056558653238374e-05,0.00032466780680432035,0.0009666031785675549,0.2689092457294464,-51.97964859008789,5.461531639099121,17.37921905517578,-1.2516378164291382,-1.1899521350860596,-0.0072769103571772575,,,,,,,,,
1739355246.990988,0.32084299275685446,1.1499816159516656,0.30574800570520516,-1.2314678979724087,-1.4023666458929742,1.0737809848507547,0.10015857194949893,-0.0011152917064860025,-0.0005051382640270375,-4.16144473807407e-05,-2.21217940044484e-05,0.00023306718003665816,0.0011056952197572884,0.002666190363699571,0.2927129566669464,-51.97964859008789,5.461531639099121,17.37921905517578,-1.2452291250228882,-1.2100937366485596,-0.03382720425724983,,,,,,,,,
1739355247.0029247,0.3208420563631791,1.149980946986838,0.3057497961107199,-1.2314736225537206,-1.4023658824187193,1.0737802271964616,0.10015797069257704,-0.0014792837701730803,-0.00011033419145769321,-0.00028238605400397504,-0.0009840114806805745,-0.00014166242617017898,0.000862076391534631,0.00056086527790827,0.2927129566669464,-51.93204116821289,5.437727928161621,17.45459747314453,-1.2516378164291382,-1.2036850452423096,-0.027418512850999832,,,,,,,,,
1739355247.0138927,0.3208484157854034,1.149984477026924,0.3057480051171834,-1.2314725619348934,-1.4023671015750152,1.0737791506706755,0.10015938741447784,0.0010258042304170344,0.0006800680331021409,-0.00026416092378184745,0.00012022450280863625,0.0001236279546309513,0.00081476777747115,0.00015719800414604245,0.2173345386981964,-51.97964859008789,5.461531639099121,17.45459747314453,-1.2324117422103882,-1.1972763538360596,-0.013685601763427258,,,,,,,,,
1739355247.0238945,0.32084589586368667,1.1499773395617674,0.3057500278934399,-1.2314693493098576,-1.4023657446739013,1.0737801096145523,0.10015463341052447,-0.0005182319757149305,-0.0015748627770319546,0.00070810956996257,0.0011283913361728858,0.00043829516724679015,-0.0005145741154103236,0.00022673864443263435,0.2411382496356964,-51.88046646118164,5.437727928161621,17.43079376220703,-1.2452291250228882,-1.2036850452423096,0.012864691205322742,,,,,,,,,
1739355247.0339565,0.3208422903529261,1.1499820506678167,0.30575024529149375,-1.2314716004715849,-1.4023662795830747,1.0737782883778169,0.10015300982597151,-0.0011795173338769614,0.0008738142189933344,0.00028894994997544243,1.9704029935348525e-05,-4.186034740658799e-06,-0.0006880060567743683,-0.0015834105927173677,0.2927129566669464,-51.95584487915039,5.461531639099121,17.43079376220703,-1.2452291250228882,-1.1899521350860596,0.026597600430250168,,,,,,,,,
1739355247.0449035,0.32084600125220825,1.149985646876366,0.3057480046977878,-1.2314718371503917,-1.4023651305707743,1.0737763300275778,0.10015711794754627,0.0007143185446926927,0.0018916400054987113,-0.00022896595016698223,-0.000319110032736862,0.0007285279246396055,-0.0007870906830148734,-0.0009358283964846009,0.2411382496356964,-52.00741958618164,5.461531639099121,17.43079376220703,-1.2580465078353882,-1.1972763538360596,-0.020094294100999832,,,,,,,,,
1739355247.055941,0.3208446244236213,1.1499810532798158,0.3057519458890142,-1.2314714863736835,-1.4023674020995267,1.0737794515556507,0.10015909997610214,0.00011671199061224027,-0.00024919058965329726,0.001922880595537146,-0.00022556384817003808,0.0008188800503827093,-0.0005899871948839972,0.00040794778272781033,0.2689092457294464,-51.93204116821289,5.409956932067871,17.43079376220703,-1.2388204336166382,-1.1972763538360596,-0.0072769103571772575,,,,,,,,,
1739355247.065946,0.32084445944498746,1.1499836149261755,0.30575004981926934,-1.2314718399114932,-1.4023681784942446,1.0737810063366808,0.10015068881334002,0.00011814598609190851,-0.00022176060554308908,0.0007254718072979569,0.00020639054708149743,0.0003025802039803463,0.0017501673699237164,-0.0018076551732173352,0.2689092457294464,-52.00741958618164,5.437727928161621,17.43079376220703,-1.2324117422103882,-1.2100937366485596,0.03300629183650017,,,,,,,,,
1739355247.0769029,0.32084378328276403,1.149983189887551,0.305750134473865,-1.2314679685799579,-1.4023673009223514,1.0737802606282385,0.10016085511593188,0.00013254529463094567,-0.0005759350815923107,-0.00032189843202661743,0.0009746017949319262,-0.000942734358054548,0.0005415234974202364,0.0012583621301982002,0.2689092457294464,-51.93204116821289,5.461531639099121,17.37921905517578,-1.2516378164291382,-1.2036850452423096,-0.013685601763427258,,,,,,,,,
1739355247.0869155,0.3208399244233998,1.1499805360320217,0.3057519459250822,-1.2314697473685798,-1.4023658751748922,1.0737770872050403,0.10015543178071297,-0.001475768452241924,-0.0011231133803980189,0.0013510679579049624,0.00030224345049991255,0.00027283865964373457,6.170265133582925e-05,-0.0011727625476610623,0.2927129566669464,-51.95584487915039,5.409956932067871,17.40302276611328,-1.2516378164291382,-1.2036850452423096,-0.0072769103571772575,,,,,,,,,
1739355247.0969334,0.3208437563132457,1.1499809469652384,0.3057441687892861,-1.2314697472594978,-1.4023713792116734,1.0737802789861328,0.10014922225147321,-0.0001476292874522788,-0.0007241917275284508,-0.001393074592142835,3.6934649036668345e-05,-0.001762393886728012,0.001090220419021442,-0.001506120010125558,0.2689092457294464,-51.93204116821289,5.513106346130371,17.40302276611328,-1.2324117422103882,-1.2036850452423096,0.04673920199275017,,,,,,,,,
1739355247.107923,0.32084397602561393,1.1499831628149,0.3057526231903869,-1.2314715190785384,-1.4023678745215225,1.0737802621896302,0.10016125980167635,-0.00030554547349553743,0.00018471297766922473,0.0008730793667603774,-0.0005427367323693767,-0.000903077455261926,-0.000134903499725557,0.002565634763411426,0.2689092457294464,-51.95584487915039,5.437727928161621,17.43079376220703,-1.2388204336166382,-1.2036850452423096,-0.020094294100999832,,,,,,,,,
1739355247.1189,0.32084448317225506,1.1499844809539521,0.3057480047011479,-1.231471017710981,-1.4023677509542445,1.07377904847508,0.10015711044478753,-0.0002307008092434637,0.0008580344796286616,0.00021876326979050885,-4.7256604787469314e-05,-0.0007548310209164448,-0.0007900220739488436,0.0003916090805038626,0.2411382496356964,-51.97964859008789,5.461531639099121,17.43079376220703,-1.2388204336166382,-1.2036850452423096,-0.020094294100999832,,,,,,,,,
1739355247.1299012,0.32084376608944437,1.1499813348307257,0.3057499012373899,-1.2314718418711403,-1.4023674033396973,1.0737802646591028,0.10015084434933955,-0.0006134553787414668,-0.00032549781017007816,0.0002320108544484459,-0.0009304125493676096,-0.0010572811168062853,0.0006087425376442526,-0.0018574481852418414,0.2689092457294464,-51.95584487915039,5.437727928161621,17.43079376220703,-1.2388204336166382,-1.2036850452423096,0.03300629183650017,,,,,,,,,
1739355247.1399558,0.3208437333448515,1.1499827653542942,0.3057480507962095,-1.2314661143156223,-1.4023631606399052,1.0737802607898124,0.1001587480285057,-0.00041477761075383305,0.0001999977983458887,-0.0011091245820394312,0.0011852055381443866,8.33066891335901e-05,0.0006364100797576432,0.0014533908388166792,0.2689092457294464,-51.95584487915039,5.489302635192871,17.35541534423828,-1.2388204336166382,-1.2036850452423096,-0.0072769103571772575,,,,,,,,,
1739355247.1509688,0.3208446273189543,1.1499810529668066,0.3057459250512939,-1.2314718399130347,-1.4023666453306955,1.0737794913398264,0.10015619121947188,-0.0001231679551208421,4.428829876562278e-06,-0.0006372877704065204,-0.00035445110645017727,-0.000796116677932045,0.0011277530110468678,1.3357061815262328e-05,0.2689092457294464,-51.93204116821289,5.489302635192871,17.43079376220703,-1.2452291250228882,-1.1972763538360596,-0.013685601763427258,779,778,761,40.631,0,0
1739355247.1620047,0.3208462316478055,1.149982756657221,0.3057507322061581,-1.2314679682892478,-1.402367403553074,1.0737808927984807,0.10015143282265955,0.0006986527864144443,0.0006015646370777001,0.001280571759652939,0.0007552818945277598,0.0005231908300204493,1.9585558451776165e-05,-0.00015469054509393142,0.2173345386981964,-51.95584487915039,5.437727928161621,17.37921905517578,-1.2388204336166382,-1.2100937366485596,0.026597600430250168,779,778,760,40.740,0,0
1739355247.1729043,0.32084439188205877,1.149980275337885,0.3057459278168028,-1.2314690330940874,-1.402366339608132,1.0737805533131026,0.1001620755587896,-0.00014277218926683088,-0.0010048988419546802,-0.0008820305131667103,0.00048631536670245526,-1.421204670716894e-05,0.0008458345687799974,0.0014837256422918323,0.2689092457294464,-51.95584487915039,5.489302635192871,17.40302276611328,-1.2388204336166382,-1.2100937366485596,-0.027418512850999832,777,779,761,40.740,0,0
1739355247.1829329,0.32084225483813844,1.1499769074723112,0.30574800760137416,-1.231467977434302,-1.4023627093005142,1.0737766104326851,0.1001589323722775,-0.0012548572028163076,-0.0013317047363007781,-0.00021272267524410758,0.00036509374349773477,0.0014551719792072883,-0.0003562968451294074,0.0017956157362027528,0.2927129566669464,-51.90427017211914,5.461531639099121,17.37921905517578,-1.2516378164291382,-1.2036850452423096,-0.0008682189509272575,778,779,760,40.631,1,0
1739355247.1938627,0.3208445979673085,1.1499823322289349,0.30574592489530045,-1.2314694157412414,-1.4023678505078072,1.0737799002887451,0.10015838176698733,0.00024438051225469774,0.002316793576182567,-0.00045610799008702574,-3.2210578724649276e-05,0.0006170196501038993,0.0006764318881770336,-0.0001530498858165187,0.2689092457294464,-51.97964859008789,5.489302635192871,17.40302276611328,-1.2516378164291382,-1.2036850452423096,-0.0008682189509272575,778,779,761,40.631,0,0
1739355247.2038682,0.32084494277936515,1.1499810529304686,0.3057497795856648,-1.2314696541539885,-1.4023674035863083,1.0737802665978426,0.10015538588682966,0.00024990570277885944,-0.0009349510471077336,-0.0003369716904629162,-0.00036826578368946505,0.00015536867415115988,0.00017896951929254775,-0.0006690150604026319,0.2689092457294464,-51.93204116821289,5.437727928161621,17.40302276611328,-1.2388204336166382,-1.2036850452423096,0.0064559997990727425,778,778,761,40.740,0,0
1739355247.2149944,0.32084459266128906,1.1499844780082693,0.3057456886841526,-1.2314697512915211,-1.4023655891619704,1.073778997294281,0.10015142679156486,-0.00011174131364407724,0.0008625984359701857,-0.0015403022277648629,0.00014187498773833297,0.00026780840396067136,-0.0003204199084485865,-0.0007449647135438664,0.2689092457294464,-51.97964859008789,5.489302635192871,17.40302276611328,-1.2452291250228882,-1.1972763538360596,0.026597600430250168,778,778,760,40.631,1,0
1739355247.2269127,0.3208429812489136,1.14998382274314,0.3057497872537073,-1.231469494232938,-1.4023658883924375,1.0737764144093094,0.10015003119451482,-0.0009332694227672475,2.0562397613716377e-05,0.000378026726022351,0.00012852831674770149,-0.0006215147843079112,-0.0007767844393199337,-0.000976742420923442,0.2927129566669464,-51.93204116821289,5.437727928161621,17.40302276611328,-1.2516378164291382,-1.2100937366485596,0.03941498324275017,778,779,760,40.740,0,0
1739355247.236985,0.32084736311053447,1.149985422867904,0.3057480050091595,-1.2314666566106633,-1.402366645946835,1.0737810048574317,0.10015311845827285,0.0005097460838207756,0.00045886895395436,0.0003299200714900371,0.001281619723969799,0.0004774680387557343,-0.00010571596723521137,-0.003074038678997244,0.2173345386981964,-51.97964859008789,5.461531639099121,17.40302276611328,-1.2452291250228882,-1.2100937366485596,0.03941498324275017,776,779,760,40.631,0,0
1739355247.2479186,0.3208447053196388,1.1499827654928725,0.30574800612523284,-1.2314696823186617,-1.4023658881790855,1.0737781276449399,0.10015659053073289,0.0007076057700606373,0.0010456784036160793,0.000252737447244432,5.7768650582082056e-06,-0.00020682788131245027,-0.00015218916068333215,0.0004003954572768813,0.2689092457294464,-51.95584487915039,5.461531639099121,17.43079376220703,-1.2516378164291382,-1.2165024280548096,0.019273381680250168,778,777,761,40.848,1,0
1739355247.258861,0.32084298410239087,1.1499817652791056,0.30574626652098574,-1.2314694152566579,-1.4023651305728417,1.0737793519399128,0.10015046574843098,-0.0005613353351684469,-0.00023536436930751936,0.00020909203756228946,-2.274709577299505e-05,0.0007910654683254459,3.1973071197169986e-05,-0.0008152970747658487,0.2927129566669464,-51.93204116821289,5.489302635192871,17.40302276611328,-1.2580465078353882,-1.1972763538360596,0.04673920199275017,778,778,761,40.740,0,0
1739355247.2688901,0.320846352421358,1.1499844780444592,0.305747661480518,-1.2314676143389005,-1.4023634669786107,1.0737787229257083,0.1001569863616747,0.0006727662645531413,-0.0003472281461140476,-0.00024106903327917288,0.0004847507287388166,0.00012930242981479707,-0.0009168580279053828,0.001464608011635761,0.2411382496356964,-51.97964859008789,5.437727928161621,17.40302276611328,-1.2452291250228882,-1.2036850452423096,-0.020094294100999832,780,777,761,40.740,0,0
1739355247.2789016,0.32084228647704505,1.14998104413649,0.30574811840436095,-1.2314717211463209,-1.4023674021354169,1.0737747420441395,0.10015903800008061,-0.0008849103675369937,-0.000416269245673499,0.0006911414677656949,-0.00016638608210785662,0.0007429883987499632,-0.001611944791163202,0.00047118711724588095,0.2927129566669464,-51.93204116821289,5.461531639099121,17.43079376220703,-1.2388204336166382,-1.1972763538360596,-0.027418512850999832,778,779,760,40.631,0,0
1739355247.2899706,0.32084389136152164,1.1499773425050737,0.3057459258692716,-1.2314711246557404,-1.4023666458929749,1.0737798069158184,0.10015641648126637,-5.9327254804786994e-05,-0.0015566538977158546,-0.0015639899355142243,-0.0006561742175546816,-2.5224205673500896e-05,-0.0010946572012647724,0.0009302138795854155,0.2411382496356964,-51.88046646118164,5.489302635192871,17.43079376220703,-1.2452291250228882,-1.2100937366485596,0.012864691205322742,779,778,761,40.848,1,0
1739355247.2999778,0.32084205385461817,1.1499827654875387,0.30574592781148563,-1.2314711246456387,-1.4023674020995267,1.0737810198828577,0.10016224647832185,-0.0013585215281962557,0.0006720222157550723,-0.001953993676564529,-0.0015673265731834993,-0.0008272986536709707,0.0004942111819322768,0.002784005585203591,0.2927129566669464,-51.95584487915039,5.489302635192871,17.43079376220703,-1.2388204336166382,-1.2100937366485596,-0.027418512850999832,778,779,759,40.631,1,0
1739355247.3110363,0.32084670311011565,1.1499827654875387,0.3057433266222962,-1.231471839912143,-1.4023666458929962,1.073780146928401,0.1001608425758526,0.0019243582331130475,0.001498730191087762,-0.0008672897396985746,-0.0012179055718433177,0.00027128885790198454,0.00039432705739691706,0.0022815788211242197,0.2411382496356964,-51.95584487915039,5.489302635192871,17.43079376220703,-1.2452291250228882,-1.2036850452423096,-0.013685601763427258,778,779,761,40.740,1,0
1739355247.3219566,0.3208425989738059,1.1499827655965549,0.3057480837314927,-1.2314678847827862,-1.402366658974951,1.073776956707955,0.10016243937786343,-0.0003059473898512072,0.00015467712487110915,0.00036517975329843647,0.0016725793659346552,9.441438104262725e-05,-0.0007839097714918402,0.0030815276568982594,0.2689092457294464,-51.95584487915039,5.461531639099121,17.37921905517578,-1.2452291250228882,-1.2036850452423096,-0.027418512850999832,778,778,759,40.631,0,0
1739355247.3319633,0.3208419784333655,1.1499843946108264,0.3057497873634972,-1.2314676104302666,-1.4023659907024595,1.0737795088879145,0.10016014675731856,-0.0003109292136516112,0.0006860512292614306,4.97982236521299e-05,0.00020099637483585647,0.0006919410948380289,0.0007075350933238212,0.002404179893050815,0.2927129566669464,-51.97964859008789,5.437727928161621,17.40302276611328,-1.2388204336166382,-1.1972763538360596,-0.020094294100999832,779,779,760,40.740,1,0
1739355247.3428738,0.3208463565889745,1.14998274030431,0.30574800472114183,-1.23146973347519,-1.4023674016070344,1.0737763300295795,0.10015312285675165,0.0015420728771882862,-0.00024968544607298094,0.0009383838068471153,-0.00025905502814509466,-0.0001445600851865514,0.00030641522928947314,-0.0008543579088958556,0.2411382496356964,-51.95584487915039,5.461531639099121,17.40302276611328,-1.2388204336166382,-1.1972763538360596,0.03941498324275017,777,787,759,40.740,1,0
1739355247.3529406,0.3208463551978628,1.1499810411926241,0.3057497860660769,-1.2314714942224503,-1.4023666502536165,1.0737785898740275,0.10015309418734197,-0.0007661437861828899,-0.0009741256057117347,0.0004596004847756324,-0.0003059828416283551,0.00017720682692462682,-0.0020346423623186765,-0.0010166922457579429,0.2411382496356964,-51.93204116821289,5.437727928161621,17.43079376220703,-1.2452291250228882,-1.2165024280548096,0.012864691205322742,773,781,760,40.740,0,0
1739355247.3639653,0.3208401587575327,1.1499827654873394,0.30575193950680024,-1.231469760117779,-1.4023669282422204,1.0737754248324332,0.10016016944700991,-0.0020978826609496758,-0.0006331300919460182,0.0007423087931997448,0.0006847983112742576,0.00045583933123292676,-0.0006241203668153148,0.00039172592037872527,0.2927129566669464,-51.95584487915039,5.437727928161621,17.40302276611328,-1.2388204336166382,-1.1899521350860596,-0.0072769103571772575,776,781,759,40.740,0,0
1739355247.3749435,0.3208438610584876,1.1499809734818347,0.30575016655447007,-1.2314669470975226,-1.4023669467770055,1.0737792064573994,0.10015655617595222,-0.0012897701892673776,-0.00010334913607477709,0.000574461798626506,0.0007143330113019014,0.00015350450578981262,5.127570376833426e-05,-0.0006446601260057043,0.2411382496356964,-51.93204116821289,5.461531639099121,17.37921905517578,-1.2452291250228882,-1.2036850452423096,0.019273381680250168,779,778,759,40.631,1,0
1739355247.3859653,0.3208446147540295,1.1499824477046674,0.3057477801870867,-1.2314679655580247,-1.4023666458946973,1.0737805135774867,0.10015618992671674,-0.0005943075207702398,-5.7841524484751464e-05,-0.0002958185402584359,0.0006744105775780833,-0.0005017473972137739,0.0007583137655235134,0.0009856881003052068,0.2689092457294464,-51.95584487915039,5.461531639099121,17.37921905517578,-1.2452291250228882,-1.2100937366485596,-0.013685601763427258,776,777,759,40.848,1,0
1739355247.396934,0.3208447048970801,1.1499790197392281,0.3057450873850169,-1.2314658277547497,-1.402366606647142,1.0737793849047972,0.10015474476540362,0.0013457771706762026,-0.0011330697919139882,-0.0006303934955157523,0.001536453874090463,-0.0004982324407576019,-0.001468600963185563,-0.0010700420684405358,0.2689092457294464,-51.90427017211914,5.513106346130371,17.37921905517578,-1.2452291250228882,-1.1972763538360596,0.026597600430250168,777,777,759,40.740,0,0
1739355247.4078767,0.3208466801738253,1.1499828021168057,0.3057519132664911,-1.2314718134104006,-1.402365586254648,1.073780266603346,0.10015667990046546,0.0015913733912625947,0.0005236417738979883,0.0006137160299822296,-0.00015486263840139823,0.000410141810609482,0.0009930787696950042,0.00010645075724898207,0.2411382496356964,-51.95584487915039,5.437727928161621,17.43079376220703,-1.2452291250228882,-1.2036850452423096,-0.013685601763427258,777,777,760,40.740,0,0
1739355247.4179032,0.32084459306236063,1.1499827653791428,0.30574800601722424,-1.2314694421227297,-1.402367403535132,1.0737794564546532,0.10015729340508835,0.0011300500133981468,0.0007228018428599544,-0.00044663764355380134,0.0007024972226836301,-0.0011602841576162546,6.920973035986512e-05,-0.0011147169656662778,0.2411382496356964,-51.95584487915039,5.461531639099121,17.40302276611328,-1.2388204336166382,-1.1972763538360596,-0.013685601763427258,775,776,761,40.740,2,0
1739355247.4279063,0.3208440002836555,1.1499851962074445,0.3057518671520367,-1.2314672268642206,-1.4023651436547941,1.0737802533596994,0.10015413003635198,-0.0005223906079442473,0.00013726109521539347,0.0014711439314116388,0.0003075724839118614,-0.0004225449960966021,0.0015457185310854302,-0.0008097137144066232,0.2689092457294464,-51.97964859008789,5.409956932067871,17.37921905517578,-1.2580465078353882,-1.2036850452423096,0.012864691205322742,775,775,760,40.848,1,0
1739355247.4379077,0.32084456833440117,1.149981370870409,0.30574832254932427,-1.231473613747479,-1.4023674035532987,1.0737747863589941,0.10015835596147325,0.0002542249098943965,0.0013216389490071834,0.000594279513741989,-0.0016570492263500436,-0.0010074314972708608,-0.000817349618177423,-0.0006554424503156826,0.2411382496356964,-51.93204116821289,5.461531639099121,17.45459747314453,-1.2388204336166382,-1.1972763538360596,-0.0008682189509272575,776,777,759,40.631,1,0
1739355247.4479775,0.32084425791058724,1.1499810529721912,0.3057497872595348,-1.2314654872968607,-1.4023666328110465,1.0737759885641893,0.10015785435852412,-0.00033047135238393,-0.0002639173966275058,0.0010786428155209222,0.0006832286076263036,0.0004153114423163576,-0.00019580161574718618,0.003221608645439369,0.2411382496356964,-51.93204116821289,5.437727928161621,17.37921905517578,-1.2452291250228882,-1.2036850452423096,-0.027418512850999832,776,776,760,40.631,1,0
1739355247.4590294,0.32084646058241667,1.1499844780446087,0.3057437960801012,-1.2314697590920913,-1.402366645892925,1.0737802665260614,0.1001490601513263,0.0013255716015266202,0.0005558293799547245,-0.0010323668402194678,-0.00014789803410592266,-0.000440645688883196,0.001941192199923295,-0.002140243365701358,0.2411382496356964,-51.97964859008789,5.489302635192871,17.40302276611328,-1.2452291250228882,-1.2036850452423096,0.04673920199275017,776,776,760,40.740,1,0
1739355247.4699268,0.32084259929068926,1.1499805761296498,0.30574729601608885,-1.2314689389040656,-1.4023651305728422,1.073780266604045,0.10015119483596649,-0.00026261843621467397,-0.0007265151370068482,-0.0009017168417624513,-0.0008463549722054313,0.0009950322170512078,0.002306385839262436,-0.0008624466700050445,0.2689092457294464,-51.93204116821289,5.461531639099121,17.40302276611328,-1.2580465078353882,-1.2036850452423096,0.03300629183650017,777,777,760,40.631,0,0
1739355247.4808948,0.32084470532161835,1.149978191942961,0.3057459248939505,-1.2314679761368739,-1.4023681612131556,1.0737810241923442,0.10015492768874876,0.0001419309980948622,-0.0009000504283762027,-0.0007727012746104518,4.213323545634612e-05,-0.00014065039309630635,0.0007992585608675668,-5.638987005894536e-05,0.2689092457294464,-51.93204116821289,5.489302635192871,17.37921905517578,-1.2324117422103882,-1.2100937366485596,0.03300629183650017,774,773,760,40.631,1,0
1739355247.4910126,0.3208438678340446,1.149982777212844,0.3057461611062836,-1.2314689788905175,-1.402367403553077,1.0737790365401367,0.10015483167076016,-0.00017416801185989386,0.0005904033825675208,1.0961464737291164e-05,0.00017905273328578771,-0.00025520234375915265,0.0006069769231088854,-0.00047688521046517147,0.2411382496356964,-51.95584487915039,5.489302635192871,17.43079376220703,-1.2388204336166382,-1.1972763538360596,-0.0008682189509272575,775,774,760,40.740,1,0
1739355247.5018651,0.32084376918889673,1.1499826861237614,0.3057459248966174,-1.2314708067138236,-1.4023666463775155,1.0737780956059453,0.10015316866648662,-0.00016823697383491526,0.00015974420852178612,-0.000507280333065355,-0.0017019454350829127,-0.0007558032811350691,0.00011563527808296405,-0.0012538526677811,0.2689092457294464,-51.95584487915039,5.489302635192871,17.43079376220703,-1.2452291250228882,-1.1972763538360596,0.012864691205322742,775,775,760,40.740,1,0
1739355247.511907,0.3208466732912951,1.149982712504288,0.30574414221826496,-1.2314718398959916,-1.402366632811055,1.0737816249168413,0.10015924553804993,-0.0005371453652001117,-3.5007545796141015e-05,-0.0011183515297049926,-0.0003539820565680137,-0.0010435889202048112,0.0020756257671408103,0.0007721070774917534,0.2411382496356964,-51.95584487915039,5.513106346130371,17.43079376220703,-1.2452291250228882,-1.2165024280548096,-0.027418512850999832,776,775,760,40.740,1,0
1739355247.52193,0.3208418963200385,1.1499855588086934,0.305745924895284,-1.2314696803237242,-1.4023664893934242,1.0737802651425192,0.10016207125045694,0.00037391553955813195,0.0015611111664783255,5.3882317002262714e-05,-0.0002908949798880804,-1.7042661913616939e-06,0.0018490727286497462,0.001687771999640155,0.2689092457294464,-51.95584487915039,5.489302635192871,17.40302276611328,-1.2452291250228882,-1.2036850452423096,-0.027418512850999832,776,777,761,40.740,0,0
1739355247.5339284,0.3208429667991844,1.1499810529720635,0.3057533349890405,-1.2314679731827167,-1.4023678682581797,1.0737807222681257,0.10015190431180646,0.00017222496118298348,-3.062362649624553e-05,0.0004852144138557733,0.0013439876923778344,-0.0005459170440710161,-3.0315884026143464e-05,-0.0001269004321603354,0.2927129566669464,-51.93204116821289,5.386153221130371,17.37921905517578,-1.2388204336166382,-1.2165024280548096,0.026597600430250168,776,776,760,40.740,1,0
1739355247.5449374,0.32084439855345404,1.1499790546989055,0.30575036679454376,-1.2314659553577487,-1.4023665935660643,1.073775856512661,0.10015818232834132,0.000968726542497357,-0.0009208219670124235,0.0002401803845559525,0.0009500443757757629,0.00044613313150919067,-0.0014145843119011863,0.001956513273895486,0.2411382496356964,-51.90427017211914,5.461531639099121,17.35541534423828,-1.2452291250228882,-1.2036850452423096,-0.020094294100999832,775,776,760,40.631,0,0
1739355247.5558767,0.3208418188067326,1.149984583972081,0.3057460824186202,-1.2314718280293642,-1.4023701442277452,1.0737793722315143,0.10015618920648522,-0.0006170779325750447,0.0009673601171136447,-0.0003957884098619387,0.0004983530701597578,-0.0014953964178423679,-0.0005836181569462402,0.0006085708078761149,0.2689092457294464,-51.97964859008789,5.489302635192871,17.43079376220703,-1.2516378164291382,-1.1972763538360596,-0.013685601763427258,776,776,760,40.740,2,0
1739355247.5659678,0.32084126835851856,1.149981052968602,0.30574977570008555,-1.2314718399132876,-1.4023674036251528,1.0737786254403117,0.10015694685969953,0.00032665276346157,-0.0010303053382080941,5.364195541497429e-05,0.0001250560635184479,-0.0004907823432500831,0.0004950075216685369,0.0009186645118210485,0.3165166676044464,-51.93204116821289,5.437727928161621,17.43079376220703,-1.2388204336166382,-1.1899521350860596,-0.020094294100999832,776,777,761,40.848,1,0
1739355247.577962,0.3208446963020624,1.1499828449603984,0.305745925003225,-1.2314658225220358,-1.4023666846543392,1.0737794638299756,0.10015935051997404,0.001516085850175231,0.0003321575622010889,-0.0006989769036448893,0.0012336333772185108,0.00019493304385223567,0.000514939002144133,0.00043908155858141937,0.2689092457294464,-51.95584487915039,5.489302635192871,17.37921905517578,-1.2452291250228882,-1.1972763538360596,-0.027418512850999832,775,776,760,40.848,2,0
1739355247.5880046,0.3208439991067033,1.1499813972406319,0.3057497873621592,-1.2314651033295483,-1.4023676042090145,1.0737786280264616,0.10015934190829426,0.0005583181873904474,-0.000598317401959197,-0.0001723439569344426,0.0006455317900304995,-0.0009892858361243181,-0.0004342405703671368,0.000567509157908299,0.2689092457294464,-51.93204116821289,5.437727928161621,17.37921905517578,-1.2644551992416382,-1.1899521350860596,-0.027418512850999832,776,776,761,40.631,1,0
1739355247.5998645,0.3208465978699608,1.1499810539498974,0.305745924895284,-1.2314717339334516,-1.402368161177561,1.0737810111820874,0.10015142677347501,0.001036479353148636,-0.00044304753314994023,-0.0012717322416002214,0.00013426531827468626,-0.0005427112859795003,0.0005976353008328562,-0.0007628782309446491,0.2411382496356964,-51.93204116821289,5.489302635192871,17.43079376220703,-1.2324117422103882,-1.2100937366485596,0.026597600430250168,777,777,763,40.848,0,0
1739355247.6099172,0.32084272381266915,1.1499844809517146,0.30574792627216024,-1.231469723493569,-1.4023689747825787,1.0737784476368737,0.10015398030504595,-0.0007088130286502054,0.0016234585424663404,-0.0006643849353922665,0.000910744348668349,-0.0006353052378803805,-0.002046122616703775,-0.0005684365674916836,0.2927129566669464,-51.97964859008789,5.461531639099121,17.40302276611328,-1.2250875234603882,-1.1972763538360596,0.0064559997990727425,777,775,761,40.740,1,0
1739355247.6218567,0.3208429775067341,1.1499847165358819,0.3057459250028482,-1.2314687394906074,-1.4023674035527818,1.07377915524075,0.10016019446208158,0.0005140170958854093,0.0009478493403792656,-0.0009325726775400417,0.0015311611095128142,-0.0015020227574930453,-6.251658509959907e-05,0.0006548890668328026,0.2927129566669464,-51.97964859008789,5.489302635192871,17.43079376220703,-1.2388204336166382,-1.1972763538360596,-0.04756011441349983,776,775,762,40.848,1,0
1739355247.632877,0.320840877964525,1.1499790512117314,0.3057459511409512,-1.2314657520436858,-1.4023658489870636,1.0737826353132096,0.10015694685970217,-0.0007097267924531675,0.0004446746183900346,-0.00033599062938010336,0.0011609416151511678,-0.00026225155008752026,0.0003341713392186205,-0.0009603957081749463,0.2927129566669464,-51.90427017211914,5.489302635192871,17.37921905517578,-1.2516378164291382,-1.1972763538360596,-0.020094294100999832,776,776,761,40.848,1,0
1739355247.6429362,0.3208447014378581,1.149984486838523,0.30574592489572844,-1.2314687936567261,-1.402365233041495,1.0737802666569916,0.10015696930247485,0.00030004543189605145,0.0012165386191977697,-0.0010626920398215424,0.0003028173138441948,0.0016342391101999672,0.0004765603630154238,0.00223330815613819,0.2689092457294464,-51.97964859008789,5.489302635192871,17.40302276611328,-1.2452291250228882,-1.2036850452423096,-0.0072769103571772575,775,779,760,40.740,1,0
1739355247.6539803,0.3208484118995842,1.1499864755130744,0.305747995936584,-1.2314695212671707,-1.4023666465363624,1.0737789943871807,0.1001524964030614,0.002400230254444307,0.0005620611944993103,0.00022280423316839592,-0.00019896550774190294,-0.0001984684880018165,-0.0007558242264209639,0.0003865210681142878,0.2173345386981964,-52.00741958618164,5.461531639099121,17.40302276611328,-1.2452291250228882,-1.1972763538360596,0.026597600430250168,776,778,760,40.631,0,0
1739355247.6658585,0.3208427230285942,1.149984477027121,0.30575049585109904,-1.2314669079956724,-1.4023625901274157,1.0737760222344233,0.10015066959759063,-0.0007716185907047657,0.0002843765166000374,0.0009863077428162283,0.0022716800526747325,0.0020952738626790327,-0.0011782664079951447,-0.001165975486146891,0.2927129566669464,-51.97964859008789,5.437727928161621,17.37921905517578,-1.2516378164291382,-1.2036850452423096,0.03300629183650017,775,777,760,40.848,1,0
