IITGN-Robotics/Franka_IITGN_ROBOTICS/franka_ros/franka_iitgn/data02/s_b_014.csv
time,fr3_joint1_pos,fr3_joint2_pos,fr3_joint3_pos,fr3_joint4_pos,fr3_joint5_pos,fr3_joint6_pos,fr3_joint7_pos,fr3_joint1_vel,fr3_joint2_vel,fr3_joint3_vel,fr3_joint4_vel,fr3_joint5_vel,fr3_joint6_vel,fr3_joint7_vel,fr3_joint1_eff,fr3_joint2_eff,fr3_joint3_eff,fr3_joint4_eff,fr3_joint5_eff,fr3_joint6_eff,fr3_joint7_eff,flexpin1,flexpin2,flexpin3,Force,ContactMic,ContactMic_gt
1739355938.3333232,0.32377623046122134,1.1771208359384029,0.3205320144628375,-1.1985024082447797,-1.426266245543983,1.040167943497933,0.10095594203248971,7.893691652226027e-05,-0.0010922749514282965,0.0006488562793001432,0.00029414446144760195,-0.0009114315653049423,0.00015276161745898776,-0.0016065609902287748,-0.9292108416557312,-51.23776626586914,4.902144432067871,16.98249053955078,-1.1793111562728882,-1.6175034046173096,-0.0072769103571772575,,,,,,,,,
1739355938.3443377,0.323776652568025,1.1771244444657383,0.3205356581231815,-1.1985034285418623,-1.42626233449752,1.0401696070921642,0.10095435796602585,-8.061756485993352e-05,-0.000894696813342044,0.001540796519135653,1.8782359784648455e-05,0.0003635822827689236,-0.00020460102001181556,0.0002311515831266511,-0.9054071307182312,-51.28934097290039,4.854537010192871,17.01026153564453,-1.2122701406478882,-1.6046860218048096,0.0064559997990727425,,,,,,,,,
1739355938.356263,0.32377665354410334,1.1771245465043898,0.3205300095232141,-1.1985016926560133,-1.4262606835006422,1.0401671858557995,0.10095522386333254,-8.223276885974113e-05,0.00010232319322669407,0.0003515844977273666,0.0011512724321108966,0.0005365750339105297,-0.00028061593054408873,-5.326166278024218e-05,-0.9054071307182312,-51.28934097290039,4.929915428161621,16.98249053955078,-1.1994527578353882,-1.6110947132110596,-0.0008682189509272575,,,,,,,,,
1739355938.3663142,0.32377279742333614,1.177124512176954,0.3205352626720212,-1.1985020920762848,-1.4262664347354408,1.0401731050250662,0.10095522435012047,-0.0014860297026324846,-0.000118940037247088,0.0015595626672936752,0.0008121382822798505,-0.0006477390375111681,0.0007643199708245684,-0.0009021347621768218,-0.7784540057182312,-51.28934097290039,5.005293846130371,17.05786895751953,-1.1866353750228882,-1.5589096546173096,-0.0008682189509272575,,,,,,,,,
1739355938.3782718,0.32377291932335106,1.177127167765806,0.32056323255035296,-1.1984875702568722,-1.426260814818698,1.04021605567797,0.10096129769690776,-0.00039710276364599256,-0.0006960463583432178,0.003036639183475308,0.0012356460058492332,-0.00017363071498719578,0.005441241673685973,0.0021399730665691216,-0.6316644549369812,-51.36868667602539,5.207625389099121,17.08167266845703,-1.2250875234603882,-1.4472153186798096,-0.04023589566349983,,,,,,,,,
1739355938.3883717,0.32377592378090936,1.177128876490083,0.32057870969360525,-1.198475007484988,-1.4262608337125458,1.0402659752229468,0.10095592212921507,0.0014289253766318108,-0.00028530917115791366,0.0012253406606184212,0.00036010139652193165,0.0002966310417672639,0.005232177076363638,-0.0003284349634092509,-0.5562860369682312,-51.39249038696289,5.259200096130371,17.15705108642578,-1.2250875234603882,-1.3675644397735596,-0.03382720425724983,,,,,,,,,
1739355938.3993459,0.32376955408389213,1.1771272266538448,0.3205876824309948,-1.1984646656695717,-1.4262626509572383,1.0402877885253679,0.10095046141061015,0.0002774376571409893,0.0006075553490172221,0.0004098337757702295,-0.0005753518219969794,-0.0010034121201533978,0.001570754923728907,-0.0030783639777456333,-0.4809076488018036,-51.34091567993164,5.259200096130371,17.23242950439453,-1.2186788320541382,-1.3748886585235596,0.03941498324275017,,,,,,,,,
1739355938.4103227,0.3237684612792154,1.177124974381285,0.3205859838267685,-1.1984554729045005,-1.4262592099242628,1.040297969815043,0.10095817242958555,0.0001431573154395333,-0.0011954564513737853,-0.0013842165774470218,0.000858151770866851,0.00025797791236352886,0.0019286819354912832,0.0014554302534397906,-0.4055292308330536,-51.36868667602539,5.334578514099121,17.18085479736328,-1.2388204336166382,-1.4206650257110596,-0.03382720425724983,,,,,,,,,
1739355938.422386,0.3237679726005989,1.1771308658788076,0.3205986192777079,-1.1984540514521251,-1.426263106854605,1.0403020452364302,0.10095749635078138,0.00023405308353727423,0.00012844192835563008,0.0015723509479026558,0.00038713504935083634,-0.0011767930508746788,0.0006500402968757327,0.0002232449465011235,-0.4293329417705536,-51.42026138305664,5.207625389099121,17.23242950439453,-1.2058614492416382,-1.4142563343048096,-0.020094294100999832,,,,,,,,,
1739355938.433279,0.3237649398876246,1.1771234095376641,0.3206005034564888,-1.1984451568680248,-1.4262592120936222,1.0403001401415384,0.10095915999307174,0.0008238592260823583,-0.00120599314167885,0.00012750398019683676,0.0004804632533605337,-0.0008632221910986752,-0.00013785340378514048,0.0003183351767388859,-0.3817255198955536,-51.31711196899414,5.235396385192871,17.15705108642578,-1.2388204336166382,-1.4069321155548096,-0.03382720425724983,,,,,,,,,
1739355938.4433413,0.32376383888435406,1.177126094409933,0.3206012269656931,-1.1984445326294384,-1.4262608337128986,1.0403013834655224,0.10095331157894107,0.0005457230041586115,0.0006202307841961062,-0.0003340189613645567,-0.0008452117457969468,0.00022173767588991227,6.710073868725961e-05,6.301176566659097e-05,-0.3817255198955536,-51.36868667602539,5.259200096130371,17.18085479736328,-1.2250875234603882,-1.3812973499298096,0.019273381680250168,,,,,,,,,
1739355938.454299,0.3237645474987075,1.177130149345557,0.32059561140765064,-1.198441685354267,-1.426259680944329,1.0402943125556356,0.1009583627488515,0.0009463813547998736,0.0013205184800002732,-0.0016246420569281696,0.0003548920088684305,1.878462286174329e-05,-0.0003875012539427036,0.00016383436788555835,-0.3817255198955536,-51.42026138305664,5.334578514099121,17.18085479736328,-1.2388204336166382,-1.3483383655548096,-0.027418512850999832,,,,,,,,,
1739355938.4643471,0.3237699617444679,1.177133613844025,0.32059747057792015,-1.1984378412282959,-1.4262626495601807,1.0402931793897696,0.10095835835300533,0.0012406832820089412,0.00028508711774214064,0.0006261778916184716,0.0009675033262678406,-0.0006003415203302826,-0.0006548177961539418,-1.9269454226781657e-05,-0.4571039378643036,-51.47183609008789,5.310774803161621,17.15705108642578,-1.2186788320541382,-1.3419296741485596,-0.027418512850999832,,,,,,,,,
1739355938.4753408,0.3237699704929742,1.1771358556578597,0.32059736465087774,-1.1984393544017906,-1.4262599687906403,1.0402919306399419,0.10095233210397869,0.00019489987128052657,-5.850208029213057e-05,-0.00027635446347557793,0.00024608854745014126,0.0006431029681131161,-0.0004938684810319232,-0.0009178034097656995,-0.4571039378643036,-51.51944351196289,5.310774803161621,17.20862579345703,-1.2324117422103882,-1.3419296741485596,0.026597600430250168,,,,,,,,,
1739355938.4862795,0.32376988009128294,1.177136365390743,0.32059558197326077,-1.1984393543885288,-1.426261434389523,1.0402954238874016,0.10095360176839156,-0.0007498213662002172,0.001959597730038647,1.628695499222637e-05,0.0008389208735778269,0.0004620037411671063,0.00034758550813691755,-0.0021354234496440924,-0.4571039378643036,-51.49563980102539,5.334578514099121,17.20862579345703,-1.2186788320541382,-1.3611557483673096,0.012864691205322742,,,,,,,,,
1739355938.4963093,0.32376797254757766,1.1771326124651513,0.32060122711715444,-1.1984371980692528,-1.42626083370489,1.0402930482401904,0.10095246814489418,-0.0005261949351683272,0.0001403315768678666,0.0008970745787930797,0.0008531271635818043,-0.00011157078182469674,-0.00011512005537213699,-0.001303846101764461,-0.4293329417705536,-51.44406509399414,5.259200096130371,17.18085479736328,-1.2250875234603882,-1.3748886585235596,0.012864691205322742,,,,,,,,,
1739355938.5073807,0.32376084579767944,1.1771288679866698,0.3205983310794996,-1.1984411370654038,-1.4262583993227687,1.0402982761607897,0.10095749684154733,-0.0004475904183940629,0.0006258726453250863,0.0003297284365906092,-0.0017920691545881178,0.0002590115963206961,0.0001765629102346839,0.0005404497719829825,-0.3301508128643036,-51.39249038696289,5.310774803161621,17.23242950439453,-1.2186788320541382,-1.3941147327423096,-0.020094294100999832,,,,,,,,,
1739355938.5183072,0.323760837049272,1.177123002927492,0.3206052615415649,-1.1984323967317603,-1.4262615913188863,1.040298966674975,0.10095613940495989,-0.001421604317567433,-0.0012384233730140764,0.0016619393907899868,0.00207217983353963,-0.0010885581798623593,-0.00017305754643997018,0.00019127617795959757,-0.3301508128643036,-51.34091567993164,5.235396385192871,17.15705108642578,-1.2186788320541382,-1.3877060413360596,-0.0072769103571772575,,,,,,,,,
1739355938.528324,0.3237625233601908,1.1771285222838557,0.32060408949734875,-1.1984320746237038,-1.426260833874371,1.0402997243595786,0.10095598152430214,0.00012466690573707622,-0.0004248227317268455,-0.00109799672290098,-1.1725534578266284e-05,-0.0010637877324234097,-0.0006482546768109808,-0.001191277434553523,-0.3539545238018036,-51.39249038696289,5.259200096130371,17.15705108642578,-1.2250875234603882,-1.3941147327423096,-0.0072769103571772575,,,,,,,,,
1739355938.5383327,0.3237625407128488,1.1771288665635398,0.32059880061804513,-1.198435887490774,-1.4262620232388754,1.0402989666995004,0.10095121908874286,-0.0007518733920074717,0.0001876817813854393,-0.00200327891909478,-0.0014104787897642951,-0.0012428246861836347,-0.0003754335174657871,-0.0012124518220768626,-0.3539545238018036,-51.39249038696289,5.334578514099121,17.23242950439453,-1.2186788320541382,-1.3877060413360596,0.03300629183650017,,,,,,,,,
1739355938.548344,0.3237648752390377,1.1771326510529523,0.32060267175774626,-1.1984330451807865,-1.426261591394885,1.0402974513793437,0.10095987221052703,-0.0005799626397989175,0.00015273532169156058,0.0006630144698249776,0.0005997919683233099,-0.0006322324374208991,-7.456906577984606e-05,0.002231220140434725,-0.4293329417705536,-51.44406509399414,5.283003807067871,17.20862579345703,-1.2186788320541382,-1.3748886585235596,-0.04023589566349983,,,,,,,,,
1739355938.559313,0.323769970055168,1.1771343350271612,0.320600584264091,-1.198436603079562,-1.4262589081775041,1.0402941515938642,0.10095836333577798,1.736132537414426e-05,-0.00044167040612492223,0.0003290882399042694,-0.0005968139849495775,0.00036594390864042037,-0.0008326219091228397,0.00014200250537406753,-0.4571039378643036,-51.47183609008789,5.310774803161621,17.25623321533203,-1.2324117422103882,-1.3483383655548096,-0.027418512850999832,,,,,,,,,
1739355938.5693462,0.32377097438074837,1.1771366426793077,0.3206026630909695,-1.1984351810822722,-1.4262647702693871,1.0402943124991515,0.10095989120435071,0.0008036305877602369,0.0008120563537511307,0.00026496081022624223,-0.0005545465391647394,-0.00030198002586591475,0.0007677712734319143,0.0015521102408095227,-0.4809076488018036,-51.47183609008789,5.283003807067871,17.20862579345703,-1.2186788320541382,-1.3483383655548096,-0.04023589566349983,,,,,,,,,
1739355938.5793703,0.3237669686524376,1.1771345764240357,0.32059880062407864,-1.1984320388131648,-1.4262615914267789,1.0402941509316912,0.10095780378889489,0.00041089954778563006,0.0008824760939507015,-0.0008892768348529975,0.0005254988619376368,-0.0002593429671179002,0.0005217179414032148,0.0008883244962387898,-0.4055292308330536,-51.47183609008789,5.334578514099121,17.15705108642578,-1.2186788320541382,-1.3483383655548096,-0.013685601763427258,,,,,,,,,
1739355938.5902798,0.3237661560328351,1.1771345763890435,0.3206005833010977,-1.1984273941442467,-1.426259223237508,1.0402971177757634,0.10095561295743645,-0.0004342749866400439,0.00143823785788239,-3.4263789855411145e-05,0.0007323864876967235,-0.0005515701962491892,0.00029780792774506174,-0.0011336611179388085,-0.4055292308330536,-51.47183609008789,5.310774803161621,17.13324737548828,-1.2388204336166382,-1.3812973499298096,-0.0072769103571772575,,,,,,,,,
1739355938.6012783,0.3237608373725574,1.1771289087223513,0.3206044459106355,-1.1984284584282325,-1.4262623490330963,1.0402993576199997,0.10095673918140867,-0.0016650361441656204,-0.00017766594634810093,0.0009119524395560345,0.0008061816210845651,-0.0007284486568612226,-9.030029601896623e-05,0.0001668038356071079,-0.3301508128643036,-51.39249038696289,5.259200096130371,17.15705108642578,-1.2122701406478882,-1.3941147327423096,-0.013685601763427258,,,,,,,,,
1739355938.6112888,0.3237645825049358,1.1771288676602467,0.3206054711319984,-1.1984291734901438,-1.4262615913729442,1.0403021050741275,0.10095633639180522,0.0005022788680215017,0.0004187601019089031,0.0002574277381187178,0.00062870908366173,-0.001259788904407622,0.0006237451089806753,-0.0005463984681863207,-0.3817255198955536,-51.39249038696289,5.283003807067871,17.15705108642578,-1.2186788320541382,-1.4142563343048096,-0.0072769103571772575,,,,,,,,,
1739355938.621343,0.32376623378597025,1.1771277396679265,0.32060580929545107,-1.1984327056498385,-1.4262592101555551,1.0403012396797326,0.10095360030802507,0.00038259161702862204,-0.0004154901544704794,0.0003725382366181164,-0.0017330801155138005,0.0009016191075541665,0.00018286554605428354,-0.0009810679050884818,-0.4055292308330536,-51.42026138305664,5.283003807067871,17.20862579345703,-1.2388204336166382,-1.4069321155548096,0.012864691205322742,,,,,,,,,
1739355938.6313472,0.3237644687732638,1.1771259156640963,0.32060582170891905,-1.1984278186854727,-1.4262572161867035,1.0402997243595788,0.10095785317243584,0.0001736365462986898,-0.0014877319561648074,-0.00033290007244300734,-0.00031799435698782146,0.001591270285933256,3.9906686279607314e-05,0.0002471158205227625,-0.3817255198955536,-51.39249038696289,5.283003807067871,17.18085479736328,-1.2186788320541382,-1.3941147327423096,-0.020094294100999832,,,,,,,,,
1739355938.64135,0.32376342549810994,1.177134495885039,0.3206019593492521,-1.1984301368463675,-1.4262615908143332,1.0402974513793437,0.10095360031205627,-0.001562499440476309,0.001265089649384112,0.0001162546879085637,0.0005424148512867297,-0.00014284304104959404,-0.0010381933261950842,-0.0007416403878725649,-0.4055292308330536,-51.47183609008789,5.334578514099121,17.20862579345703,-1.2186788320541382,-1.3748886585235596,0.012864691205322742,,,,,,,,,
1739355938.6513724,0.3237690945154323,1.17713454891558,0.3206030025403537,-1.1984326786737196,-1.4262614925315178,1.0402958278220331,0.1009552413876978,0.0006628855462694076,0.00043819447472237614,0.00034478455103877586,-0.0006428000232409516,-0.0011850409385146664,0.00035184627141520824,-0.0010606590249482078,-0.4055292308330536,-51.47183609008789,5.283003807067871,17.20862579345703,-1.2186788320541382,-1.3611557483673096,-0.0008682189509272575,,,,,,,,,
1739355938.6623461,0.3237672052154593,1.177133623098147,0.320601636300572,-1.19842773787166,-1.426257602470111,1.0402949435213895,0.10095435802028664,0.0017143622289025335,-0.00043041521656151,0.00045291868039637495,2.2002877725904325e-05,0.00193316460556463,0.0002681022185094393,-0.00048217017331664774,-0.4055292308330536,-51.47183609008789,5.310774803161621,17.18085479736328,-1.2250875234603882,-1.3547470569610596,0.0064559997990727425,,,,,,,,,
1739355938.6732717,0.32376255540756105,1.1771362890093715,0.3206016599066221,-1.19842981895356,-1.4262604519911306,1.0402942990921604,0.10095719917763428,-0.0015623100767320492,0.0013328552857342557,6.016574650495935e-06,0.00032073848506146933,-0.0008999983364934275,-0.0005956200493515134,0.00038017589361848646,-0.3539545238018036,-51.49563980102539,5.310774803161621,17.20862579345703,-1.2324117422103882,-1.3483383655548096,-0.013685601763427258,,,,,,,,,
1739355938.6843736,0.3237641370487264,1.177134576494023,0.32060548869033684,-1.1984277643464845,-1.4262615913811436,1.0402997198896846,0.10095285579711749,-0.0005401493771831347,-0.000122624728450321,0.0003937899748427554,0.0004700855540668564,-0.0008479157085524536,0.0006828758658782375,-0.0008574213580960392,-0.4055292308330536,-51.47183609008789,5.259200096130371,17.18085479736328,-1.2186788320541382,-1.3941147327423096,0.019273381680250168,,,,,,,,,
1739355938.6953063,0.32376797254817574,1.1771271199992486,0.3206057870023155,-1.198427737855559,-1.426260833712866,1.0403004820196486,0.1009601214707382,0.0009211401124906818,-0.0030792643123578826,0.00029892084499485517,-9.945725192593672e-05,-0.0005850437421095273,-0.00034541871263431783,0.0008791382764546154,-0.4293329417705536,-51.36868667602539,5.283003807067871,17.18085479736328,-1.2250875234603882,-1.4005234241485596,-0.0072769103571772575,,,,,,,,,
1739355938.7053623,0.3237645471866875,1.1771325781205406,0.32060549846177594,-1.1984241734826173,-1.4262598495935468,1.0403012396797355,0.1009583629732831,-0.00028897213629963783,0.0014647994108652226,0.00015258787279460304,0.0012072611269064199,-7.871744040467861e-05,-0.00016042853470666716,0.000877393224314058,-0.3817255198955536,-51.44406509399414,5.259200096130371,17.13324737548828,-1.2324117422103882,-1.4069321155548096,-0.027418512850999832,,,,,,,,,
1739355938.7163913,0.3237625495698533,1.1771288679866039,0.3206058105338456,-1.1984270635673804,-1.4262617091098466,1.0403012396797355,0.10095107710932806,0.0006062246203871462,-0.00024339772655796073,-0.00048722007240623684,0.00045241458185061375,-0.00046883645840413863,-0.0003872133594363272,-0.0018264536647349548,-0.3539545238018036,-51.39249038696289,5.283003807067871,17.20862579345703,-1.2186788320541382,-1.4069321155548096,-0.0008682189509272575,,,,,,,,,
1739355938.7273598,0.3237645436224612,1.1771308656004098,0.3206037163468252,-1.1984277375250265,-1.4262630042244477,1.0402982090394222,0.10096074320891382,0.0005032772196791382,-4.343991452405633e-05,-0.00109621383037952,0.0005192917748439308,-0.0025416106614947706,9.77388986651616e-05,0.002459044647616841,-0.3817255198955536,-51.42026138305664,5.310774803161621,17.18085479736328,-1.2186788320541382,-1.3812973499298096,-0.020094294100999832,,,,,,,,,
1739355938.738316,0.3237662587353351,1.1771345469546486,0.3206037337893469,-1.1984277365957638,-1.4262631467379971,1.0402965854821113,0.10095360032434765,0.0003179458300132868,0.001344237164736154,-0.000849899065905744,0.0012600237774285045,-0.0006727674574420025,0.00033659181852636324,0.00022590957603919382,-0.4055292308330536,-51.47183609008789,5.310774803161621,17.18085479736328,-1.2324117422103882,-1.3675644397735596,0.012864691205322742,,,,,,,,,
1739355938.7483468,0.32376797255214856,1.1771366426828966,0.32060374234712585,-1.1984315974879394,-1.426259963508818,1.0402950701619547,0.1009572672794305,0.0006772529456849758,0.0007543198295437456,0.0001561857144233988,-0.0005315466673016436,0.0006898780989062503,-0.00010337238398148551,0.0017326494956710723,-0.4293329417705536,-51.47183609008789,5.310774803161621,17.23242950439453,-1.2324117422103882,-1.3547470569610596,0.012864691205322742,,,,,,,,,
1739355938.759291,0.32376797255217055,1.1771358641782268,0.320605830575793,-1.1984270466923512,-1.4262615848588611,1.0402965854821113,0.10095674504564446,-0.0002558309731437633,-0.0003028739062316256,0.001606206917719879,0.0006489243712262928,0.00028515236149155587,0.0007038607630484045,-0.0010906191016121624,-0.4293329417705536,-51.51944351196289,5.283003807067871,17.18085479736328,-1.2186788320541382,-1.3675644397735596,-0.013685601763427258,,,,,,,,,
1739355938.7693138,0.32376413413244237,1.177132582191226,0.32060582213726924,-1.198429816688852,-1.426259967815523,1.0402978045920535,0.10095197966737682,-0.0009979358374276087,-0.0005996221611740963,0.0009653455414498292,7.966804168577926e-05,0.0012881710015897356,0.00044865303959590867,-0.002378232036872629,-0.4055292308330536,-51.44406509399414,5.283003807067871,17.20862579345703,-1.2324117422103882,-1.3748886585235596,0.026597600430250168,,,,,,,,,
1739355938.7793336,0.32376625999543707,1.177132575068749,0.3206076052502105,-1.1984238860496987,-1.426257650437827,1.0402970893422978,0.10095122054915603,0.00025430960574311716,-0.0008292024515875027,0.0010749546613925674,0.0006939179315347989,0.0006154476479497294,-0.00029653312804087687,-0.001281534743457975,-0.4055292308330536,-51.44406509399414,5.259200096130371,17.15705108642578,-1.2250875234603882,-1.3748886585235596,0.03300629183650017,,,,,,,,,
1739355938.789363,0.32376431129970784,1.1771266162555236,0.3206037413843011,-1.1984237888085012,-1.426259966308174,1.0402997243534478,0.10095598590452691,-0.00014519936687622476,-0.00020233161563929056,-0.0011407410974795247,0.0017415678819384208,4.820874695362926e-05,0.0005096621850306856,0.0004084759908879642,-0.3817255198955536,-51.39249038696289,5.310774803161621,17.15705108642578,-1.2324117422103882,-1.3941147327423096,-0.0072769103571772575,,,,,,,,,
1739355938.7993865,0.3237625495658549,1.1771325779739916,0.32060807528534635,-1.198429578572339,-1.4262608337128402,1.0402989666995002,0.10095361409842044,-5.834896305529169e-05,0.001339388312558484,-0.0003599615148193785,-0.0005406323163790909,-0.00022755292026400075,-0.0004523403759925511,-0.00082574629862775,-0.3539545238018036,-51.44406509399414,5.283003807067871,17.20862579345703,-1.2250875234603882,-1.3877060413360596,0.012864691205322742,,,,,,,,,
1739355938.8103273,0.3237662950256615,1.1771326119888592,0.3206079679170573,-1.1984294737340269,-1.4262599678156334,1.040300482019657,0.1009599306342401,0.0009699200771643871,0.0011080031227472672,-0.0004036119583306181,-0.000944617124121559,-0.001009069982749326,1.7510179253618608e-05,0.0012796307073760303,-0.4055292308330536,-51.44406509399414,5.283003807067871,17.20862579345703,-1.2324117422103882,-1.4005234241485596,-0.04023589566349983,,,,,,,,,
1739355938.8213065,0.32376454783492625,1.1771325784483793,0.3206058221855781,-1.1984274058061646,-1.4262623315904195,1.0402989666995004,0.10096175526470676,-0.00040799726390392075,0.0009085518033883453,-0.0007621888023729707,-0.00048546397256031695,-0.00031951409174704645,0.0007796536290779744,0.0012690815239207928,-0.3817255198955536,-51.44406509399414,5.283003807067871,17.18085479736328,-1.2122701406478882,-1.3877060413360596,-0.020094294100999832,,,,,,,,,
1739355938.8313441,0.3237662600314448,1.1771288293948468,0.3206066033702208,-1.1984273936249619,-1.4262604804998607,1.0402965854821113,0.10095197633339294,-0.0002819678760552503,-0.00047754982937809405,4.5391150628263754e-05,0.0007137212606217364,-0.00036416397742475856,-0.0005653846735053215,-0.0015735339681637814,-0.4055292308330536,-51.39249038696289,5.310774803161621,17.18085479736328,-1.2250875234603882,-1.3675644397735596,0.026597600430250168,,,,,,,,,
1739355938.8422759,0.3237645474027013,1.177134866736128,0.32060196851672,-1.1984267938507422,-1.4262615915324557,1.0402965854821113,0.10095677861330848,-0.0003902282495434644,0.0006851016721313018,0.00013091780340893642,0.00043412666620826885,-2.0562925760011697e-05,0.0001670887697164235,0.0003832184033607557,-0.3817255198955536,-51.51944351196289,5.334578514099121,17.18085479736328,-1.2186788320541382,-1.3675644397735596,-0.013685601763427258,,,,,,,,,
1739355938.852389,0.32376626877999304,1.1771370477031027,0.3206037336806273,-1.198431489448965,-1.426259421023535,1.0402936219898444,0.10095673918415699,4.7907135548844095e-06,0.0010312280050913216,-0.000677254504096089,-0.0014437259015237375,0.00048048381677549725,-0.0010788826033073285,0.0002616938107156102,-0.4055292308330536,-51.51944351196289,5.310774803161621,17.23242950439453,-1.2250875234603882,-1.3547470569610596,-0.013685601763427258,,,,,,,,,
1739355938.8632853,0.3237662628396671,1.177128720154863,0.32060374234722183,-1.1984249543115457,-1.426256788893271,1.040295787586855,0.1009559815234109,-0.00023087289232858566,-0.001018016589310043,-0.0008714539337169054,-0.0003646616979740595,0.0020665913597127925,0.00013568177460234344,-5.220910179834051e-05,-0.4055292308330536,-51.42026138305664,5.310774803161621,17.18085479736328,-1.2324117422103882,-1.3611557483673096,-0.0072769103571772575,,,,,,,,,
1739355938.8742921,0.3237645475107557,1.177128867950267,0.3206037423472708,-1.1984249221416423,-1.426262348979187,1.040298966698819,0.10095912040098844,-0.00033208986514432254,-0.00021567811209901038,-0.0003066010542497113,0.00035742207530060254,-0.0007536993388925405,0.0011557268260408047,0.00022380871390210652,-0.3817255198955536,-51.39249038696289,5.310774803161621,17.15705108642578,-1.2122701406478882,-1.3877060413360596,-0.03382720425724983,,,,,,,,,
1739355938.8843489,0.3237627867529165,1.1771288217634088,0.32060582213712635,-1.1984246384256458,-1.4262580571462733,1.0403012396797355,0.10095435796610017,-0.001015317476296015,-0.0005228323647344375,-0.0005242094716352212,0.0008167950207999292,0.0007566576070641424,0.0007115764952724237,-0.0016360092513343196,-0.3539545238018036,-51.42026138305664,5.283003807067871,17.18085479736328,-1.2186788320541382,-1.4069321155548096,0.0064559997990727425,,,,,,,,,
1739355938.8943806,0.3237666738457493,1.1771288595415843,0.3206037423472708,-1.1984226173183827,-1.426259967755781,1.0402997287202296,0.10095360030602182,0.0006306442837069385,-0.0016289005012196773,-0.0007474386906599519,0.0016471427540343288,-0.0001612485325686402,-0.000605252942071906,-0.0008474627109616331,-0.3817255198955536,-51.39249038696289,5.310774803161621,17.15705108642578,-1.2324117422103882,-1.3941147327423096,0.012864691205322742,,,,,,,,,
1739355938.9053092,0.32376454752271133,1.177128867841203,0.3206044576030081,-1.198426718342462,-1.4262608337128655,1.0402982090394466,0.10095429806107475,0.000613548701827848,-0.0008699037345015776,-0.0005055959604750889,-0.00040978804345721283,-0.0006604968204838223,-0.000370621552247089,-0.002423647054955041,-0.3817255198955536,-51.39249038696289,5.310774803161621,17.20862579345703,-1.2250875234603882,-1.3812973499298096,-0.020094294100999832,,,,,,,,,
1739355938.9153275,0.32376838593043655,1.1771318275441303,0.3206058920511813,-1.198428137790665,-1.4262606621939367,1.0402989666995004,0.10095912456539306,0.0011912046851595202,0.0006265143016801027,-0.0006392465071252973,-0.0016592615403003975,0.001351768653140764,-0.00018525165302617208,0.0015226190646094534,-0.4055292308330536,-51.44406509399414,5.310774803161621,17.25623321533203,-1.2250875234603882,-1.3877060413360596,-0.03382720425724983,,,,,,,,,
1739355938.925369,0.3237686813291787,1.1771326167001837,0.32060453852948473,-1.1984266827372103,-1.426258008008283,1.0402974513793437,0.1009507784261505,0.0010218142154076629,-0.0004901782360045057,-0.00013614711490057488,0.00031477375069738627,0.0006281107157636258,-0.0005362998055789409,-0.001878872670564134,-0.4293329417705536,-51.44406509399414,5.310774803161621,17.20862579345703,-1.2250875234603882,-1.3748886585235596,0.04673920199275017,,,,,,,,,
1739355938.9363391,0.323766260359461,1.1771325783393896,0.32060583435144285,-1.1984246384137807,-1.4262608336430795,1.0402958278220331,0.1009543565101427,-9.369850420928155e-05,0.0006657921452417262,0.0011071227099693247,0.0007122797562208352,0.0004128592828142411,-0.0004121317149796816,-0.001489444458457773,-0.4055292308330536,-51.44406509399414,5.283003807067871,17.18085479736328,-1.2250875234603882,-1.3611557483673096,0.0064559997990727425,,,,,,,,,
1739355938.9463525,0.3237679203848634,1.177132340029609,0.32060195967045857,-1.19842671809482,-1.4262615913729428,1.0402933939337857,0.10095987822330477,-0.00010220844040397863,-0.0003100323621620186,-0.0015699411425570094,-0.00014089665109791078,-0.000881690954305348,-0.0008377483270685891,0.0012125996069925315,-0.4293329417705536,-51.44406509399414,5.334578514099121,17.20862579345703,-1.2186788320541382,-1.3419296741485596,-0.04023589566349983,,,,,,,,,
1739355938.9563873,0.3237662600305559,1.1771324989712926,0.3206058079105033,-1.1984285008808535,-1.4262598500780634,1.0402914833029777,0.10095999651279694,-0.0002949439677259416,-0.0005371811751951099,0.00044296741569651134,-0.0006279486063491649,0.0004655191605046817,-0.002187294583674411,0.0032314606893374155,-0.4055292308330536,-51.44406509399414,5.283003807067871,17.23242950439453,-1.2324117422103882,-1.3611557483673096,-0.04023589566349983,,,,,,,,,
1739355938.9673474,0.3237662600314394,1.1771346018975037,0.3206076057950509,-1.1984210974795868,-1.4262596146009299,1.0402946221095952,0.10095197675082718,-0.0008919490579924873,0.0007919058193714739,0.0006185015451746768,0.0014776652344829807,-5.418173746752584e-05,-0.0013791747855710643,-0.0030129993567616035,-0.4055292308330536,-51.47183609008789,5.259200096130371,17.13324737548828,-1.2324117422103882,-1.3877060413360596,0.026597600430250168,,,,,,,,,
1739355938.9783814,0.32376454747470584,1.1771308659276027,0.32060760099858154,-1.198424634489533,-1.426260833710872,1.0402989666749751,0.10095371859548662,-0.0010565726900065714,-0.0005946056502922547,0.0011543616845927892,0.00040180943136925844,-0.0009355747832674499,9.605371974737805e-05,-0.0005765966731033607,-0.3817255198955536,-51.42026138305664,5.259200096130371,17.18085479736328,-1.2250875234603882,-1.3877060413360596,0.012864691205322742,,,,,,,,,
1739355938.9892685,0.3237627857808547,1.1771271466355568,0.32060999783024696,-1.1984246384139734,-1.4262606767294392,1.0402997243411851,0.10095603647985457,-0.0004923891863964712,-0.0011114633418492475,0.001342743717669399,-0.0002361354746262804,0.0010700528590041978,-9.230125326533281e-05,-0.00022805806960205443,-0.3539545238018036,-51.36868667602539,5.259200096130371,17.18085479736328,-1.2250875234603882,-1.3941147327423096,0.019273381680250168,,,,,,,,,
1739355938.9993198,0.3237638388817094,1.1771318543619853,0.3206076048546713,-1.1984210632484784,-1.426259209506874,1.0402997243595784,0.10095749689776555,1.0025789566515752e-05,-0.0003056152093951076,-4.432062743508103e-05,0.001645016465101224,0.0009639997818263215,-0.0001157538469565428,0.0008570096772097468,-0.3817255198955536,-51.44406509399414,5.259200096130371,17.13324737548828,-1.2388204336166382,-1.3941147327423096,-0.020094294100999832,,,,,,,,,
1739355939.0093522,0.32376453777809017,1.177126006951394,0.3206065373928643,-1.19842671820367,-1.4262598108321958,1.0402989666995004,0.10095213446810848,0.0005179471020425497,-0.0014189900785444754,-0.0001134563235358343,-0.0003244691135169987,0.0002580300625956312,0.0002009038776738924,-0.0019098922122067587,-0.3817255198955536,-51.39249038696289,5.283003807067871,17.20862579345703,-1.2324117422103882,-1.3877060413360596,0.026597600430250168,,,,,,,,,
1739355939.0203602,0.3237645465384816,1.1771324724359251,0.32060654078448086,-1.1984285037152784,-1.4262612381575757,1.040296365250261,0.10095674356725151,-0.0006454787392419484,-0.0002983170862699266,0.0003396487672518746,-0.0011017989148884796,0.0004505539268991703,-0.0004491989043741248,-0.0012903977717406995,-0.3817255198955536,-51.44406509399414,5.283003807067871,17.23242950439453,-1.2186788320541382,-1.3748886585235596,-0.013685601763427258,,,,,,,,,
1739355939.0313373,0.3237625495698533,1.1771325783389741,0.3205999073538481,-1.198421750851632,-1.4262615913722794,1.0402965854800676,0.10095439739593,-0.0008669894681473245,2.27553729449964e-05,-0.0019918747096922514,0.0008095194724912137,-9.61689114807349e-06,4.869410164389311e-05,-0.000761705489163099,-0.3539545238018036,-51.44406509399414,5.362349510192871,17.18085479736328,-1.2186788320541382,-1.3675644397735596,0.0064559997990727425,,,,,,,,,
1739355939.0413406,0.3237699704930236,1.1771362888007562,0.3206039817474616,-1.1984243605916276,-1.4262608729587223,1.0402967032196813,0.10095199573421784,0.0010368177799998629,0.000954292623336809,0.000337589242032476,0.0002644229858966812,-0.0013256932459158478,-0.00018024382319831888,-0.002061630604399592,-0.4571039378643036,-51.49563980102539,5.310774803161621,17.18085479736328,-1.2250875234603882,-1.3675644397735596,0.026597600430250168,,,,,,,,,
1739355939.053329,0.3237624219357317,1.177130856988124,0.32060198616255636,-1.19842670937195,-1.426262310271904,1.0402974513800083,0.10095197674892835,-0.0016409171113623126,-0.0003031331176461046,-0.0004764569518026934,-4.7977333771675884e-05,-3.836367433051376e-05,-0.00011970278070070191,-0.003118417504018501,-0.3817255198955536,-51.42026138305664,5.334578514099121,17.20862579345703,-1.2122701406478882,-1.3748886585235596,0.026597600430250168,,,,,,,,,
1739355939.0642765,0.3237652561397075,1.1771315546558871,0.32060374234732064,-1.198424638413964,-1.4262608337127929,1.0402997243595788,0.10095673983253979,0.00044671339980310946,-0.000574933606052056,-0.0007757975795753085,6.989633166752337e-05,-0.0008853492194191757,0.0006084104227518027,0.00036773424697550123,-0.3817255198955536,-51.42026138305664,5.310774803161621,17.18085479736328,-1.2250875234603882,-1.3941147327423096,-0.013685601763427258,,,,,,,,,
1739355939.0743392,0.32376454752270883,1.1771345758394747,0.32060771372139757,-1.1984246379779158,-1.4262608337128657,1.0402989666995004,0.10096038853802095,-0.00035914365229483027,0.0006529030973007016,0.0011582738270171087,-0.0006849941871914353,0.00017027014296046232,5.018807716739494e-05,0.0016456421197482988,-0.3817255198955536,-51.47183609008789,5.259200096130371,17.18085479736328,-1.2250875234603882,-1.3877060413360596,-0.04756011441349983,,,,,,,,,
1739355939.0843682,0.32376625905937784,1.177125149639502,0.3206097505832016,-1.1984238171944233,-1.426261591372944,1.0403012396797355,0.10095522450636403,0.001032360238623741,-0.001421605038372513,0.001408832206577127,6.822363665307039e-05,-0.0008865042545318628,0.0008550283723669368,-0.0005816975108816906,-0.4055292308330536,-51.34091567993164,5.259200096130371,17.18085479736328,-1.2186788320541382,-1.4069321155548096,-0.0008682189509272575,,,,,,,,,
1739355939.0953155,0.3237655164042127,1.1771303165786076,0.32060764309096856,-1.1984228514806914,-1.4262608341973826,1.0403029032739668,0.10095360176638922,-3.233297602512578e-05,-0.00012374738155065702,0.0002926119819226188,0.0006795193214941561,-0.0005373959816465489,0.0006280579065313098,-0.0021218480511153636,-0.4055292308330536,-51.44406509399414,5.259200096130371,17.15705108642578,-1.2250875234603882,-1.3941147327423096,0.012864691205322742,,,,,,,,,
1739355939.107291,0.3237645478305309,1.1771346525423074,0.3206086835963567,-1.1984283944809533,-1.42626159088843,1.0402989667712805,0.10095751453031372,-0.0006776109871623884,0.0010936055141638609,0.00041950123801231664,-0.0014351944096133511,0.00031233765624338314,4.228316313156086e-05,0.001155321242892653,-0.3817255198955536,-51.47183609008789,5.283003807067871,17.23242950439453,-1.2186788320541382,-1.3877060413360596,-0.020094294100999832,,,,,,,,,
1739355939.1182635,0.32376798994127537,1.1771362888009012,0.32060198628771847,-1.1984256103869748,-1.42626084485675,1.0402974513793437,0.1009612479557033,-0.00018880715511655847,0.0010814017885007023,-0.0008580895222767365,-0.00073687063537381,-2.607969586685545e-05,-0.00038865599706967597,0.0015436969337943487,-0.4293329417705536,-51.49563980102539,5.334578514099121,17.23242950439453,-1.2250875234603882,-1.3748886585235596,-0.03382720425724983,,,,,,,,,
1739355939.128328,0.3237679764413009,1.1771333820070993,0.32060413192976916,-1.19842567607949,-1.4262599620019987,1.0402965854821113,0.10095761524123345,0.0013314261167201495,-0.001394051816695011,-0.0005182551480035232,1.7661563421640918e-07,-0.0008322261658181387,-6.681830082670404e-05,0.0010611301000488034,-0.4293329417705536,-51.44406509399414,5.334578514099121,17.20862579345703,-1.2324117422103882,-1.3675644397735596,-0.020094294100999832,,,,,,,,,
1739355939.139274,0.32376649624244636,1.177136288946279,0.32060268517760576,-1.198423857166813,-1.4262631066930898,1.0402974513793437,0.1009601857095324,0.00010771898338130354,0.0006032648865847991,-0.0009659274836150602,0.00017247118266314443,-0.00034140691731308914,0.00014503579027111996,0.0011811122017237,-0.4055292308330536,-51.49563980102539,5.334578514099121,17.20862579345703,-1.2058614492416382,-1.3748886585235596,-0.03382720425724983,,,,,,,,,
1739355939.149333,0.3237648974569301,1.177128865043167,0.32060408674194935,-1.1984281436951079,-1.4262617349140183,1.0402982090394222,0.10095913356230339,0.0010483509698831937,-0.0025924200853516153,0.00020011297093809453,-0.0003368974410459763,-0.0002820903203439065,0.0005705315545020987,0.0004370151241126029,-0.3817255198955536,-51.39249038696289,5.310774803161621,17.23242950439453,-1.2250875234603882,-1.3812973499298096,-0.03382720425724983,,,,,,,,,
1739355939.1602945,0.3237667085499119,1.1771308649462957,0.32060614133870446,-1.198426363680915,-1.426257655288082,1.0403000775722886,0.10095993731337392,0.0007097428756256947,-0.0007988577366690884,0.000825344964777261,-0.0003686085391120529,-1.4087331306679007e-05,0.0004159708985614789,0.0010823110667828283,-0.3817255198955536,-51.42026138305664,5.283003807067871,17.20862579345703,-1.2250875234603882,-1.3941147327423096,-0.0072769103571772575,,,,,,,,,
1739355939.1703763,0.3237645476553124,1.1771345760619776,0.320607843565179,-1.1984244576364897,-1.4262615911576115,1.0402997243655605,0.10095673941274352,-0.0007206501792062139,0.0010721982524974747,0.0007726614347016602,-0.0006459932986147154,-0.0003649169803697498,0.00023253872359906794,-0.00013618151928541765,-0.3817255198955536,-51.47183609008789,5.259200096130371,17.20862579345703,-1.2186788320541382,-1.3941147327423096,-0.013685601763427258,,,,,,,,,
1739355939.181265,0.32376454751070893,1.1771307864545972,0.3206086950441966,-1.1984267052908169,-1.4262599678156322,1.040300482019657,0.10095673918349053,0.0005282704916156193,-0.0001451005224450825,0.0005261253917679185,-0.0010710803816564869,0.0006268484223539609,-0.00032215458334493156,-0.0007595890912466918,-0.3817255198955536,-51.42026138305664,5.283003807067871,17.20862579345703,-1.2324117422103882,-1.4005234241485596,-0.013685601763427258,,,,,,,,,
1739355939.1912656,0.3237645215890621,1.1771288679852598,0.3206107307952799,-1.1984264528580202,-1.4262658297639559,1.0402993199122101,0.10095197528618624,0.00028974343479637167,-0.00039182637132923034,0.001034033445318429,0.00013245870530713923,-0.0037770396439810736,0.0012453118622785429,-0.0014049966275006033,-0.3817255198955536,-51.39249038696289,5.259200096130371,17.20862579345703,-1.2186788320541382,-1.3877060413360596,0.026597600430250168,,,,,,,,,
1739355939.2023182,0.32376254956941614,1.1771308652612482,0.3206066957599381,-1.1984266122355296,-1.4262615914447214,1.0402989668669875,0.10095284264602881,-0.00119418558442089,-0.0002624021512577991,2.068413175004987e-05,-0.001333294471671899,-0.00021539534413733702,0.0007808803356617879,-0.0013741713830937648,-0.3539545238018036,-51.42026138305664,5.310774803161621,17.20862579345703,-1.2186788320541382,-1.3877060413360596,0.019273381680250168,,,,,,,,,
1739355939.214341,0.3237678533425821,1.177132579824575,0.32060413634307666,-1.1984221139779587,-1.426261878082743,1.040297451379344,0.10095562200227197,0.0005107414642329032,-0.00019890117495589978,-0.0008259692839437629,-0.0010394658990875152,0.00027624520883794097,-0.00024300530287705327,0.0014749223683815534,-0.4571039378643036,-51.44406509399414,5.334578514099121,17.15705108642578,-1.2122701406478882,-1.3748886585235596,-0.027418512850999832,,,,,,,,,
1739355939.2253447,0.3237644689137336,1.1771321568819835,0.3206065383781059,-1.198423738303307,-1.426259966361197,1.0402982090394222,0.10095522823926666,-0.000721578356397978,-0.000516985956789178,0.00046930370041140435,0.00124577843442301,0.0002221954557557316,0.0005006978319285156,-0.0002805925433913608,-0.3817255198955536,-51.47183609008789,5.283003807067871,17.20862579345703,-1.2324117422103882,-1.3812973499298096,-0.0008682189509272575,,,,,,,,,
1739355939.2363076,0.32376635043273627,1.1771325774170465,0.3206040072608463,-1.1984266254868476,-1.4262565946758237,1.0402974513793437,0.10096099906461,8.060955385981607e-05,-0.00028926998938949843,-0.00044071140833300623,-0.001529527022970943,0.0021530441710372024,0.0009493047046560271,0.002574422640821407,-0.4055292308330536,-51.44406509399414,5.310774803161621,17.20862579345703,-1.2250875234603882,-1.3748886585235596,-0.013685601763427258,,,,,,,,,
1739355939.2463107,0.3237679729857289,1.177134538229294,0.3206086949383189,-1.1984266119114042,-1.4262608338025828,1.0402986046564728,0.10095749642827416,0.00029847894977023893,0.00024108589547844626,0.0016000354592446075,-0.0006450773845071065,2.184595750320386e-05,-0.00042034165662687903,0.000841377703531092,-0.4293329417705536,-51.47183609008789,5.283003807067871,17.20862579345703,-1.2250875234603882,-1.3877060413360596,-0.020094294100999832,,,,,,,,,
1739355939.257336,0.3237645474747083,1.177129786303097,0.32060195972280753,-1.1984236099313903,-1.4262576155526216,1.0403004820176134,0.1009584941736464,-0.00040505913499736,6.522232974031359e-06,-0.0015641131816904446,-0.0004977099648895892,9.888866826286013e-05,0.0005247847842056366,0.0015465069298413972,-0.3817255198955536,-51.39249038696289,5.334578514099121,17.20862579345703,-1.2250875234603882,-1.4005234241485596,-0.027418512850999832,,,,,,,,,
1739355939.2682555,0.3237625495698549,1.1771325771451786,0.32060448409396164,-1.1984235669845482,-1.4262615932390093,1.0402982090394222,0.10095836274165203,-0.0011315200036720826,0.0010615355286576083,-0.00029758254530353275,-0.00018321706471493621,9.877041948248643e-05,-0.0006120205958290191,0.00011917655303140574,-0.3539545238018036,-51.44406509399414,5.310774803161621,17.18085479736328,-1.2186788320541382,-1.3812973499298096,-0.027418512850999832,,,,,,,,,
1739355939.279327,0.32376454751070816,1.1771281527308464,0.3206037541335893,-1.1984218093806722,-1.4262623490330542,1.0403015435958534,0.10096150161837752,0.00023174157141012507,-0.0007593129028932921,-0.0016841454421906061,0.0007352884535189987,-7.720591014252591e-05,0.0004832471374023429,0.0012827825500643468,-0.3817255198955536,-51.39249038696289,5.310774803161621,17.15705108642578,-1.2122701406478882,-1.4005234241485596,-0.05396880581974983,,,,,,,,,
1739355939.289342,0.32376465249337466,1.1771307599596081,0.3206083303174785,-1.1984214197754257,-1.4262605317348147,1.040298966705493,0.10095912040098844,0.00044720109518644303,-0.0003942660925225118,0.00039001444526677207,0.0007383399011848344,0.00016085047261841742,-9.41951023596481e-05,-5.043423793791115e-06,-0.3817255198955536,-51.42026138305664,5.259200096130371,17.18085479736328,-1.2186788320541382,-1.3877060413360596,-0.03382720425724983,,,,,,,,,
1739355939.3002858,0.3237679725527632,1.1771304326803798,0.3206039807699454,-1.198421547378216,-1.4262588321681955,1.0402974528328939,0.10095755011991125,0.0003381435305077,-9.265341139873825e-05,-0.0017084077677139474,0.00019921851353260585,-0.0005674128779321679,0.0001666929434166333,0.0005025083295971777,-0.4293329417705536,-51.44406509399414,5.310774803161621,17.15705108642578,-1.2250875234603882,-1.3748886585235596,-0.020094294100999832,,,,,,,,,
1739355939.3102996,0.32376446877370824,1.1771345762436878,0.3206059019410726,-1.1984235791672453,-1.426261591177542,1.0402967032197057,0.10094852975825462,-0.0004225318750554814,0.0015688601610641876,-0.000561227450859843,-0.0004677048407087807,-0.0013682335916979122,0.0003420290377176941,-0.0027252904072164255,-0.3817255198955536,-51.47183609008789,5.283003807067871,17.20862579345703,-1.2186788320541382,-1.3675644397735596,0.04673920199275017,,,,,,,,,
1739355939.3213003,0.32377169338196876,1.1771345763890422,0.3206038228017274,-1.198423499553468,-1.4262619958203115,1.040296585482776,0.10095360224715717,0.001121637357629627,0.0005337759139336289,-0.000510580398291198,-0.000470071507208024,-0.0006663590552157266,-0.0010471306874656778,-0.0009920314333201402,-0.4809076488018036,-51.47183609008789,5.310774803161621,17.20862579345703,-1.2122701406478882,-1.3675644397735596,0.012864691205322742,,,,,,,,,
1739355939.331315,0.32376454751088374,1.1771317408759006,0.3206066155814046,-1.1984263870669207,-1.4262599676481462,1.0402982090394222,0.10095199573358296,-0.000101576652517895,-0.0008868511599351889,0.0016043652062456971,-0.0019748913749809485,0.0010974826283337024,0.0007572249378759949,-0.00024048420350709378,-0.3817255198955536,-51.47183609008789,5.310774803161621,17.20862579345703,-1.2324117422103882,-1.3812973499298096,0.026597600430250168,,,,,,,,,
1739355939.3423312,0.32376797255217055,1.177134644690197,0.32060688226387896,-1.1984235083632975,-1.4262616960285608,1.0402974513793437,0.10095522386343972,0.00019927563900639484,0.00025397537577170665,-5.2552378600403965e-05,0.000311980730834675,4.014109349565441e-05,-0.0007129154374336895,0.0010621777855285756,-0.4293329417705536,-51.44406509399414,5.283003807067871,17.20862579345703,-1.2186788320541382,-1.3748886585235596,-0.0008682189509272575,,,,,,,,,
1739355939.353258,0.3237632582388564,1.1771345764007068,0.3206047755367701,-1.1984196371588711,-1.4262623490336133,1.0402974886386815,0.10096262748988535,-0.0014252806266912034,0.001070873489903472,-0.00014293818516428246,0.0012643610422121948,-0.0007395650166057434,-0.0005463985804617936,0.0025962481331891704,-0.3539545238018036,-51.47183609008789,5.310774803161621,17.15705108642578,-1.2122701406478882,-1.3748886585235596,-0.027418512850999832,,,,,,,,,
1739355939.3633041,0.32376798131272744,1.1771325519572369,0.3206037702729327,-1.1984214210713593,-1.4262608729587225,1.04029972436021,0.10095797445485201,0.0008081493706454518,-0.0005155871611975674,-0.0009315874151414855,0.0004371949052534209,-0.0007094943055768264,0.0004455300347270189,0.001144423346426305,-0.4293329417705536,-51.44406509399414,5.310774803161621,17.18085479736328,-1.2250875234603882,-1.3941147327423096,-0.020094294100999832,,,,,,,,,
1739355939.37336,0.3237645475108565,1.1771325784477413,0.32061079266834036,-1.198421419763185,-1.4262608206315783,1.0402982090394222,0.1009617598158523,-0.001265634775321063,9.190646470857525e-05,0.0014164451067966877,0.0005160994189447188,-0.0009080836165962067,-0.0005815686921187265,0.0016952433239999835,-0.3817255198955536,-51.44406509399414,5.259200096130371,17.18085479736328,-1.2250875234603882,-1.3812973499298096,-0.020094294100999832,,,,,,,,,
1739355939.3843155,0.3237604236708581,1.1771330287580561,0.3206048053829,-1.1984174908828669,-1.4262615913728702,1.0402982090394222,0.10095751001101615,-0.0024750634553368654,9.3326394955932e-05,0.0004595022925525706,0.0008328348532021894,0.0003143492124578185,-0.0001506033690127075,-0.0006625879709470752,-0.3539545238018036,-51.44406509399414,5.310774803161621,17.15705108642578,-1.2186788320541382,-1.3812973499298096,-0.020094294100999832,,,,,,,,,
1739355939.395325,0.3237643900247076,1.177132578123683,0.3206060649586958,-1.1984234995409029,-1.4262584117586985,1.0402997241388545,0.10095284264612792,-0.0017566174505020972,0.0006266878194720356,-0.0014237820530053303,-0.00010814734063923564,0.001213639066779784,0.0002187838061375822,-0.0018333662152447742,-0.3817255198955536,-51.44406509399414,5.283003807067871,17.20862579345703,-1.2186788320541382,-1.3941147327423096,0.019273381680250168,,,,,,,,,
1739355939.4063694,0.32376254967697293,1.1771362889097723,0.32060204012562854,-1.1984235791348943,-1.4262557290298263,1.0402974513793424,0.10095524284806147,-0.0012196756187808798,0.0001270159205607715,-0.0008553073482906486,0.000606496810666174,0.001088840372737556,-0.0005433824048418659,-0.0005966186524862027,-0.3539545238018036,-51.49563980102539,5.334578514099121,17.20862579345703,-1.2324117422103882,-1.3748886585235596,-0.0008682189509272575,,,,,,,,,
1739355939.4182615,0.32376626003143993,1.1771346018988498,0.3206080741956541,-1.1984214198726284,-1.426260833527432,1.0402982030798662,0.10095740105118305,0.00018232329536181814,0.00046398188984876436,-6.288368307646823e-06,-0.0002219317864328181,0.0011499002679317555,7.934186853091293e-05,-0.00019045143724374827,-0.4055292308330536,-51.47183609008789,5.283003807067871,17.18085479736328,-1.2250875234603882,-1.3812973499298096,-0.0072769103571772575,,,,,,,,,
1739355939.428367,0.3237700984511675,1.177134576389475,0.3206038349402215,-1.198423508383338,-1.4262599620014293,1.0402982090393211,0.10095599469072458,0.000737132362039824,0.00016818669349402094,-0.0013279727226861138,-0.0005816227337032194,0.0015576248133271607,-5.096113493716779e-05,-0.0011630859453733008,-0.4293329417705536,-51.47183609008789,5.310774803161621,17.20862579345703,-1.2324117422103882,-1.3812973499298096,-0.0072769103571772575,,,,,,,,,
1739355939.4403176,0.3237652474351541,1.17713186644679,0.32060685455598964,-1.1984237408787146,-1.4262614213075544,1.0402982090394222,0.10095912040101321,-0.0008758401664960265,0.00035516413656816405,0.00022096518760620373,-0.0011754719320688813,0.000492745360155533,-0.00016175083764769958,-5.4639167327437486e-05,-0.3817255198955536,-51.44406509399414,5.310774803161621,17.20862579345703,-1.2186788320541382,-1.3812973499298096,-0.03382720425724983,,,,,,,,,
1739355939.4513328,0.3237645825088814,1.1771323482015128,0.3206105816299402,-1.1984234995543805,-1.4262598500771035,1.040298966478776,0.10095638376320003,-0.0004081555865970693,-0.00012164400922834331,0.0015524328016476641,-0.0004089736140194541,0.001790568190352284,-0.0002154164771905403,0.0003436641817151947,-0.3817255198955536,-51.47183609008789,5.259200096130371,17.20862579345703,-1.2324117422103882,-1.3877060413360596,-0.013685601763427258,,,,,,,,,
1739355939.462298,0.3237662600675075,1.1771288679703,0.32060979466889816,-1.1984234991896308,-1.426260622844667,1.040301239679735,0.10095837588351517,0.0005465887372372181,-0.00039413452629037167,-0.0004041628789604126,-0.0013067124836460223,-0.00059643765899281,0.0011680877234201154,0.0018204960183030158,-0.4055292308330536,-51.39249038696289,5.259200096130371,17.20862579345703,-1.2388204336166382,-1.4069321155548096,-0.027418512850999832,,,,,,,,,
1739355939.4723363,0.32376454751070877,1.1771345498980894,0.3206079987930276,-1.1984213537858004,-1.426259961863851,1.0402989666995004,0.10095750998717412,-0.0005187783523527935,2.5857480537635894e-05,0.0003831861052740141,-0.0009682066933121081,-0.0004942282101256642,-8.193579050924841e-05,0.001045409199224971,-0.3817255198955536,-51.47183609008789,5.283003807067871,17.20862579345703,-1.2324117422103882,-1.3877060413360596,-0.020094294100999832,,,,,,,,,
1739355939.4832945,0.3237662600314394,1.1771338598249608,0.3206097548816178,-1.198419637074031,-1.4262615913729104,1.040300482019657,0.10095445444360218,5.7040581850415135e-06,0.00025579022625360595,0.0006442847812614125,0.0008697770975447506,0.0002606130114113694,0.0009423869959219694,-0.000174793647789921,-0.4055292308330536,-51.47183609008789,5.259200096130371,17.15705108642578,-1.2186788320541382,-1.4005234241485596,0.03300629183650017,,,,,,,,,
1739355939.4933844,0.3237676969907037,1.1771311241590339,0.32060834801445903,-1.198423499553018,-1.4262615782909918,1.0402992686775514,0.10096222847706014,0.0009318093442121552,-0.0007306766649468651,0.0003306526112850322,-0.00011169862175508663,-0.0012637281467322706,0.00019686683384628715,0.0019516897032325652,-0.3817255198955536,-51.44406509399414,5.259200096130371,17.20862579345703,-1.2186788320541382,-1.3812973499298096,-0.020094294100999832,,,,,,,,,
1739355939.5043323,0.32376626004921827,1.177130627064605,0.3206061793149559,-1.1984214187820166,-1.4262631452763974,1.0402974513853254,0.10095785173878226,-0.0004865594940144222,-0.0015006903458567433,-0.0004912494498371281,4.44672535739972e-05,-0.0005404325899726795,-0.00021287071627405538,0.0008268892880765875,-0.4055292308330536,-51.42026138305664,5.283003807067871,17.18085479736328,-1.2324117422103882,-1.3748886585235596,-0.020094294100999832,,,,,,,,,
1739355939.5143402,0.32376465249337494,1.1771325784441449,0.3206062427504528,-1.1984234995530016,-1.4262576542062662,1.0402982090394222,0.10095836274692027,-0.0009840501952951039,-0.0009201138749544071,0.0011983945207225052,-0.0009067112409511563,0.0013362991987418836,-0.00017860613125930656,-6.306699046270141e-05,-0.3817255198955536,-51.44406509399414,5.310774803161621,17.20862579345703,-1.2250875234603882,-1.3812973499298096,-0.027418512850999832,,,,,,,,,
1739355939.5252912,0.32376838593102897,1.1771318602490133,0.3206046999602877,-1.1984234992259695,-1.4262622966872651,1.0403010259107826,0.10095360030602185,0.0008335103505299333,-7.378979268730433e-05,-0.0014936859496005065,-0.00027434945441334323,0.00011806397516488923,0.00036128638677380206,-0.0017856297026496266,-0.4055292308330536,-51.44406509399414,5.310774803161621,17.20862579345703,-1.2122701406478882,-1.3812973499298096,0.012864691205322742,,,,,,,,,
1739355939.535308,0.3237679726961797,1.1771355706984348,0.32060486028232366,-1.198425283865276,-1.4262604804992696,1.0403004822288666,0.1009583627409101,0.0006389343207051556,0.0005449416240071697,-0.0013824255248658733,-0.0006265525792525901,0.0010321079503501525,0.0003459521980488387,0.0007073906264268557,-0.4293329417705536,-51.49563980102539,5.334578514099121,17.23242950439453,-1.2250875234603882,-1.4005234241485596,-0.027418512850999832,,,,,,,,,
1739355939.5463352,0.3237662600314418,1.1771319043884392,0.3206086381194599,-1.1984242148087834,-1.4262560268745346,1.040296061524966,0.10096124536657447,3.073948913032056e-06,-8.417566337447896e-06,-0.00023693616820444547,-0.0009270507266300456,0.002084348702604983,-0.0002172775309468242,0.0014103721267781032,-0.4055292308330536,-51.44406509399414,5.259200096130371,17.20862579345703,-1.2388204336166382,-1.3877060413360596,-0.04023589566349983,,,,,,,,,
1739355939.5572524,0.323767963803615,1.1771304411829786,0.3206068822132651,-1.1984225458800477,-1.4262578365266376,1.0403019006608367,0.10095749684625051,-4.473869947503009e-05,3.801384268149033e-05,-7.442409869094893e-05,0.0004920817852164959,0.0013156284136468023,0.0004250961358729303,0.0005834163421487831,-0.4293329417705536,-51.44406509399414,5.283003807067871,17.20862579345703,-1.2388204336166382,-1.4005234241485596,-0.020094294100999832,,,,,,,,,
1739355939.56737,0.3237645562591155,1.177131700846864,0.32060598068724705,-1.1984225458625515,-1.4262599748986167,1.0402989667235252,0.10095596803441419,3.836379337677316e-05,0.0002595206816092899,-0.0009382737086392328,0.0010936643369948349,0.00020771127670663684,-0.0002812296954934338,-0.0009811622656885014,-0.3817255198955536,-51.42026138305664,5.310774803161621,17.20862579345703,-1.2324117422103882,-1.3877060413360596,-0.0072769103571772575,,,,,,,,,
1739355939.5782928,0.323766261327571,1.1771362889144874,0.32060726711023657,-1.1984178236611533,-1.4262594968653937,1.0402982090394222,0.10095437110929788,0.00028343499270087484,0.002169860729097712,0.0008629147942474864,0.0015886629042655886,0.0009747064620418131,0.0002454204924477602,-0.0014549679769593575,-0.4055292308330536,-51.49563980102539,5.310774803161621,17.13324737548828,-1.2324117422103882,-1.3812973499298096,0.0064559997990727425,,,,,,,,,
1739355939.5882978,0.3237662600314613,1.1771325771399948,0.32060904079312824,-1.1984234995524976,-1.4262591667025775,1.0402982090394222,0.10095435991347443,9.653798999499435e-05,-0.00018720243248097833,-2.594402552193062e-05,-0.00023057085570437626,0.0002779524488561135,-6.101525600251114e-05,-0.0015318742185129167,-0.4055292308330536,-51.44406509399414,5.283003807067871,17.20862579345703,-1.2388204336166382,-1.3812973499298096,0.0064559997990727425,,,,,,,,,
1739355939.5983002,0.3237662601394462,1.1771326039579746,0.32060693156369624,-1.1984252822300374,-1.426261591372208,1.0402989668610059,0.10095598152344387,1.969897130825918e-05,0.0001047597559142972,-0.0014880762227836744,-0.0016257945650331145,-0.0005642087594146431,0.00017005788132541967,-0.0008841653186699844,-0.4055292308330536,-51.44406509399414,5.310774803161621,17.23242950439453,-1.2186788320541382,-1.3877060413360596,-0.0072769103571772575,,,,,,,,,
1739355939.6083212,0.3237662688880036,1.1771308646196956,0.3206069580541509,-1.1984234966095793,-1.4262640126272539,1.0402974513793464,0.10095796805135691,0.00037664664785416556,-0.0008957952003425959,0.0006740926011776611,-0.00018494911158613216,-0.0012194372752161293,-0.0002117320482585314,0.00025426582317136396,-0.4055292308330536,-51.42026138305664,5.310774803161621,17.20862579345703,-1.2250875234603882,-1.3748886585235596,-0.020094294100999832,,,,,,,,,
1739355939.6183233,0.32376797255232054,1.1771342840073888,0.32061081321738416,-1.1984231363537594,-1.4262608206847487,1.0402974513793437,0.1009539072592166,0.0013866214516787905,-0.00011130622585774872,0.0011278449788055852,-0.0004883621351523446,-0.0009439742520838987,-0.0006670110520180337,-0.0004890907441387671,-0.4293329417705536,-51.47183609008789,5.259200096130371,17.23242950439453,-1.2250875234603882,-1.3748886585235596,0.019273381680250168,,,,,,,,,
1739355939.6292794,0.32376797255217055,1.177133027811598,0.32060696056196575,-1.1984234995409049,-1.426257654152382,1.0402974513793437,0.10095836274691986,0.0009171049103492678,-0.00037962205799553733,0.0006120646660113828,3.2631674501809935e-05,0.0008149644069040204,-0.00032009767398388436,0.0007695541139164753,-0.4293329417705536,-51.44406509399414,5.310774803161621,17.20862579345703,-1.2250875234603882,-1.3748886585235596,-0.027418512850999832,,,,,,,,,
1739355939.6403239,0.32376454848276986,1.1771308625555645,0.32060611132528494,-1.1984196365410622,-1.4262608336590197,1.0402982090394222,0.10095750122476908,-7.391222482617708e-05,0.00040149417240751157,-0.0005077857621480078,0.0005377963977891394,0.0011059315095489298,-0.00016502205732600497,0.000933135972447974,-0.3817255198955536,-51.42026138305664,5.310774803161621,17.15705108642578,-1.2250875234603882,-1.3812973499298096,-0.020094294100999832,,,,,,,,,
1739355939.6512754,0.3237625759235304,1.177130864992963,0.3206066951058111,-1.1984234998800662,-1.4262608338743714,1.0402989666995004,0.1009536003781468,-0.0006853621335800365,-0.0005869905718473467,-0.0004970903753073051,-0.0006570941418198328,-0.0004532400218564565,0.00019821737952709984,-0.0012271478625613024,-0.3539545238018036,-51.42026138305664,5.310774803161621,17.20862579345703,-1.2250875234603882,-1.3877060413360596,0.012864691205322742,,,,,,,,,
1739355939.6612828,0.3237653839942905,1.177132340029595,0.3206108113596545,-1.1984234995530239,-1.4262646773184333,1.0402989666995004,0.10095749635613392,-1.1906934197020147e-05,0.0006399953937628023,0.0003631021903345305,-0.00018421374422111835,-0.0012649105172965467,7.619123285309175e-05,-0.0007167161288414777,-0.3539545238018036,-51.44406509399414,5.259200096130371,17.20862579345703,-1.2324117422103882,-1.3877060413360596,-0.020094294100999832,,,,,,,,,
1739355939.6723611,0.3237645304616249,1.1771314768371524,0.32060807435865607,-1.198428794602169,-1.4262598501046488,1.0402982221213743,0.10095673918348648,-0.0002750848234916495,0.0013230910932861839,-0.0006756013989023016,-0.0030036849542129894,-0.0007345928351996364,0.00011776876756787844,-0.0006121510559688658,-0.3817255198955536,-51.47183609008789,5.283003807067871,17.28003692626953,-1.2324117422103882,-1.3812973499298096,-0.013685601763427258,,,,,,,,,
1739355939.6833305,0.3237625583183144,1.177132578430693,0.3206062369065781,-1.1984171391894272,-1.4262608337122014,1.0402989666995741,0.10095519751546317,-0.0005598088548419355,-0.0007056811956323563,-0.0005884690782579449,0.0004846290732322219,-0.0011480642861290387,0.00040417836640472735,0.00013086493018985652,-0.3539545238018036,-51.44406509399414,5.310774803161621,17.13324737548828,-1.2250875234603882,-1.3877060413360596,-0.0008682189509272575,,,,,,,,,
1739355939.6942728,0.3237647837217572,1.1771338611333055,0.32060481377323896,-1.198423499112916,-1.4262589081775041,1.0402982090394222,0.1009567941214223,5.125096905066825e-06,-0.0001984616395282262,-0.0001046721883921356,-0.00019339934796644637,0.00036466481721033207,-0.00010770124900040672,-0.0007740119289258634,-0.3817255198955536,-51.47183609008789,5.310774803161621,17.20862579345703,-1.2324117422103882,-1.3812973499298096,0.012864691205322742,,,,,,,,,
1739355939.704349,0.3237646783890375,1.1771324280861932,0.32060831524831424,-1.1984197430499492,-1.4262611875536528,1.0402976451202406,0.10095436240127899,7.82746585246901e-05,0.0005789134588746058,0.00032109163033217894,-0.0004510489188091374,0.00036963002614086424,0.0005178187711706349,-0.0014000030506281908,-0.3539545238018036,-51.47183609008789,5.283003807067871,17.15705108642578,-1.2250875234603882,-1.3675644397735596,0.0064559997990727425,,,,,,,,,
1739355939.715318,0.3237683859424536,1.1771325784360627,0.3206101070786288,-1.1984192730154026,-1.4262588558516927,1.040299268683533,0.10095912040101347,0.00015917092516155832,0.0005636750654257176,6.587496024222363e-05,0.0006390581572032096,0.0004041722568089182,0.0006502323477096546,0.000869126640085526,-0.4055292308330536,-51.44406509399414,5.259200096130371,17.18085479736328,-1.2324117422103882,-1.3812973499298096,-0.03382720425724983,,,,,,,,,
1739355939.725362,0.3237610743761946,1.1771318631924523,0.32060899726923636,-1.198423499080598,-1.4262534562640499,1.0402989667174456,0.10095435796610017,-0.0020458235767857325,-0.0006360054112872462,0.00043975100618004654,-0.00041873852900611646,0.00280185168192363,0.00038078430423220015,-6.74385879319173e-05,-0.3301508128643036,-51.44406509399414,5.283003807067871,17.20862579345703,-1.2516378164291382,-1.3877060413360596,0.0064559997990727425,,,,,,,,,
1739355939.7363677,0.3237673821520507,1.177131714925991,0.32060619142949004,-1.1984234982448205,-1.426260714282478,1.0402997248440957,0.10095522418760548,0.00037355493409499515,0.00035119018475391966,-0.00033215193895726734,-0.0002618119641826605,-0.00024074289603256396,-0.00021237110525664654,-0.0013043989249635361,-0.3817255198955536,-51.47183609008789,5.283003807067871,17.20862579345703,-1.2250875234603882,-1.3941147327423096,-0.0008682189509272575,,,,,,,,,
1739355939.7473352,0.3237626195743011,1.177128864045867,0.3206090404448107,-1.1984214194361067,-1.4262615913722698,1.0402997243595815,0.10096317651482323,-0.0010747083006355778,-0.001300276461054369,-0.0007453122224260102,-0.000725755723710689,0.0002448432908749729,-0.0005158924655887553,0.0015559032833719162,-0.3539545238018036,-51.39249038696289,5.283003807067871,17.18085479736328,-1.2186788320541382,-1.3941147327423096,-0.04023589566349983,,,,,,,,,
1739355939.7582576,0.323767972588568,1.1771345763890206,0.32060692123005824,-1.1984167642894359,-1.4262599678156334,1.040300482019657,0.10094964388207052,0.0012163429541862788,0.0007143612949514029,-0.0008450640228814458,0.000845465776784739,-0.0004942185789469037,0.0007840103197592477,-0.002543517181532503,-0.4293329417705536,-51.47183609008789,5.283003807067871,17.15705108642578,-1.2324117422103882,-1.4005234241485596,0.019273381680250168,,,,,,,,,
1739355939.7683616,0.3237625758155223,1.1771276870130707,0.32060904075204927,-1.1984231099232212,-1.4262615782909918,1.0402997243595788,0.10095522185898129,-0.0013285578971040505,-0.0022037643807173253,0.0002390845382953552,-0.0003689290082677455,-0.0005816157586517207,7.145410883921185e-05,-0.001041941787869125,-0.3539545238018036,-51.42026138305664,5.283003807067871,17.23242950439453,-1.2186788320541382,-1.3941147327423096,-0.0008682189509272575,,,,,,,,,
1739355939.779383,0.32376455046304375,1.177133255421272,0.3206107194361889,-1.1984243275623119,-1.426256183863869,1.0402974507171707,0.10095871760929313,-0.0007618651219676313,-0.00029907282565056056,0.000637907461283775,0.0002452438376522927,6.894960441771445e-05,-0.0007091227039378814,0.0008230471767973623,-0.3817255198955536,-51.44406509399414,5.259200096130371,17.23242950439453,-1.2388204336166382,-1.3748886585235596,-0.027418512850999832,,,,,,,,,
1739355939.7903082,0.32376649915864086,1.177132654981432,0.3206069606704526,-1.1984224212016992,-1.4262611866931514,1.0402989666994966,0.10095673918549249,0.0005314964430022297,0.00013749533799926558,-0.0008385053146198029,-0.0010538245503104444,-0.00046677997479089726,0.00011258516883833598,-5.886189824556085e-05,-0.4055292308330536,-51.44406509399414,5.310774803161621,17.23242950439453,-1.2250875234603882,-1.3877060413360596,-0.013685601763427258,,,,,,,,,
1739355939.8003721,0.3237679735282819,1.177134255555461,0.3206069609980831,-1.1984214182974997,-1.4262597755342645,1.0402990844370703,0.10095673918348927,0.000204476264951548,-0.00024565437093312194,0.00015179751239681775,-0.0005148975597217541,0.0004956301760642137,0.00067083055925113,0.00024595881859460227,-0.4293329417705536,-51.47183609008789,5.310774803161621,17.18085479736328,-1.2250875234603882,-1.3877060413360596,-0.013685601763427258,,,,,,,,,
1739355939.812266,0.3237673820427096,1.1771345646134748,0.3206090407879442,-1.1984234719718942,-1.4262615913669705,1.0402997243602434,0.10095960057352964,0.0006313750884090995,-0.00045385783542284104,0.0003137501085953134,-0.001330390395147996,-0.0011762777205351583,0.0009456094238872434,0.00024077485146805895,-0.3817255198955536,-51.47183609008789,5.283003807067871,17.20862579345703,-1.2186788320541382,-1.3941147327423096,-0.0008682189509272575,,,,,,,,,
1739355939.8222976,0.32376838594643736,1.177134588526121,0.3206051783210696,-1.1984204306220647,-1.426261591372944,1.0402989666995004,0.10095354042559296,0.0014219811364534465,0.0006876293232042356,-0.0007649311216387106,0.00014654762084609116,0.0006039717357050785,1.9877704087760317e-05,-0.00011370709308823287,-0.4055292308330536,-51.47183609008789,5.334578514099121,17.18085479736328,-1.2186788320541382,-1.3877060413360596,-0.013685601763427258,,,,,,,,,
1739355939.832301,0.32376626881599746,1.1771326461474982,0.32060518706962515,-1.1984174913021808,-1.426260833228349,1.0402998479113497,0.10095987800689553,0.0007966207925955745,-0.00023350069570556551,-0.0012368066350750516,0.0007007966015097273,-0.0004441795135673445,0.0002964194676463082,0.001208740948717109,-0.4055292308330536,-51.44406509399414,5.334578514099121,17.15705108642578,-1.2250875234603882,-1.3941147327423096,-0.04023589566349983,,,,,,,,,
1739355939.8423119,0.3237625495700039,1.1771309342821046,0.32061082335609514,-1.1984225419177772,-1.4262576549599753,1.0402989668630982,0.10096074395829824,8.342606825550167e-05,-0.00020406476629177103,0.001509299586444929,0.0007550409911403653,3.4517636473861864e-05,-6.167729531883824e-05,0.002429577572855409,-0.3539545238018036,-51.39249038696289,5.259200096130371,17.20862579345703,-1.2250875234603882,-1.3877060413360596,-0.04756011441349983,,,,,,,,,
1739355939.8523626,0.3237689212844161,1.177138069164601,0.32060514822954944,-1.1984196279125596,-1.4262614299630847,1.0402974513793464,0.10095913938571735,0.00124060840311274,0.0020698127696487786,-0.0017786191541617614,0.0015113163539778914,-0.0009481844364022078,-0.0007860317473174241,0.000492092398308186,-0.4293329417705536,-51.51944351196289,5.334578514099121,17.15705108642578,-1.1930440664291382,-1.3748886585235596,-0.03382720425724983,,,,,,,,,
1739355939.8623738,0.32376454752677497,1.1771345498992367,0.32060911559984884,-1.1984234956282773,-1.4262615913188863,1.0402989666995004,0.10095917533928163,0.0005504645051470604,0.0008301551891899463,0.0009733405382105443,-0.001861173443685041,-0.0011238200374793653,0.000469060935156683,0.0001573488916395592,-0.3817255198955536,-51.47183609008789,5.283003807067871,17.20862579345703,-1.2186788320541382,-1.3877060413360596,-0.0072769103571772575,,,,,,,,,
1739355939.873382,0.3237647017505211,1.1771322604112466,0.320606960998511,-1.1984231275961468,-1.42626083355136,1.0402982090394222,0.100953600324051,-0.0004346317844901366,0.0002640409883990302,-0.0006906724442642867,-0.0014055262384151993,-0.0004465081294191017,3.158176265424765e-05,-0.0018534680483939534,-0.3539545238018036,-51.44406509399414,5.310774803161621,17.23242950439453,-1.2250875234603882,-1.3812973499298096,0.012864691205322742,,,,,,,,,
1739355939.8852854,0.32376797353638137,1.177134461593117,0.3206083255322069,-1.1984252821815358,-1.4262608337128648,1.0402974469096766,0.10095987871011744,-0.0003658737611976283,9.365305224756364e-05,-0.00041775904231628147,-0.0020521972517627734,-0.0006694043309648722,-0.00048342894390186817,0.0008789134686760734,-0.4293329417705536,-51.47183609008789,5.283003807067871,17.23242950439453,-1.2250875234603882,-1.3748886585235596,-0.04023589566349983,,,,,,,,,
1739355939.8953605,0.32376649656646517,1.177132578447542,0.32060689487133964,-1.1984234160102178,-1.4262624667705925,1.0402974513793184,0.10095637937529887,-0.00043144634984150813,-0.00031592183682928023,-0.00040250659462847234,-0.0006253329075017744,-0.001656852492841459,-0.0006588345630875319,-0.0013236372970986095,-0.4055292308330536,-51.44406509399414,5.283003807067871,17.20862579345703,-1.2122701406478882,-1.3748886585235596,-0.013685601763427258,,,,,,,,,
1739355939.9062765,0.3237662613288569,1.1771286295680266,0.3206090289657347,-1.198419598820962,-1.4262608337135303,1.0402997243595788,0.10095522386130142,-0.00043106476207512186,-0.0012043063312834703,0.0002608354329808794,0.00013845889177557292,-0.0009472314353119833,0.0002428866478777027,0.000280446131217803,-0.4055292308330536,-51.39249038696289,5.283003807067871,17.15705108642578,-1.2250875234603882,-1.3941147327423096,-0.0008682189509272575,,,,,,,,,
1739355939.9163191,0.32376278578087675,1.177128004900472,0.320609040787744,-1.1984211548529826,-1.4262615913729442,1.0402982090394222,0.1009493352625512,-0.00010271817219612023,-0.0008384847801317574,-0.0006905665564506295,-0.0004437738092367275,0.0005568907533081575,-0.0003265370020425002,-0.002377325708963993,-0.3539545238018036,-51.42026138305664,5.283003807067871,17.18085479736328,-1.2186788320541382,-1.3812973499298096,0.012864691205322742,,,,,,,,,
1739355939.9263713,0.3237645475147084,1.1771260069152047,0.3206108234649633,-1.1984206372173878,-1.4262599098351292,1.0402989666995004,0.10095435789387128,0.00021924111545878043,-0.0018892428393983778,0.0005555620508100777,0.0005855394978536938,0.00047548485738676107,4.987802516038989e-05,-0.0004659307539927388,-0.3817255198955536,-51.39249038696289,5.259200096130371,17.20862579345703,-1.2324117422103882,-1.3877060413360596,0.0064559997990727425,,,,,,,,,
1739355939.9373338,0.32376618129443946,1.177134576372892,0.3206031775922345,-1.1984192646770715,-1.4262615913726167,1.0402974513793437,0.10095749684367727,-0.0003200725895198761,0.001087439673385641,-0.0015639200390588559,0.0013210597481240634,0.00023536749703065854,-0.0004397089961671392,0.0009819050615010965,-0.4055292308330536,-51.47183609008789,5.362349510192871,17.18085479736328,-1.2186788320541382,-1.3748886585235596,-0.020094294100999832,,,,,,,,,
1739355939.948315,0.3237662600309949,1.1771308629840194,0.3206108264896016,-1.1984213814862872,-1.426258908123669,1.0402982482852787,0.10094803344941376,0.00020242553954406996,0.00018802877331519364,0.00040464524938646685,0.00023576834721465153,0.000592188062901627,-0.00015251066089075989,-0.002644084649848979,-0.4055292308330536,-51.42026138305664,5.259200096130371,17.18085479736328,-1.2324117422103882,-1.3812973499298096,0.03300629183650017,,,,,,,,,
1739355939.9593973,0.3237660247925014,1.1771343291401295,0.32060904078796126,-1.1984175880161458,-1.4262631467240394,1.0402982090396438,0.10095197673083815,0.00030562186217920017,0.0007597677990665351,-0.0009280652045790486,0.0008433652261423256,-0.0013789899642734811,0.00018853428500276528,-0.002484010495723007,-0.4055292308330536,-51.47183609008789,5.283003807067871,17.15705108642578,-1.2324117422103882,-1.3812973499298096,0.026597600430250168,,,,,,,,,
1739355939.9702563,0.32376670840259936,1.177134573298853,0.32060699890849603,-1.1984209995803832,-1.426259614136352,1.0402982090394222,0.10096069044254015,-0.0001223074752837479,0.0007020301508604544,0.0001728074469099244,0.00013860762745682967,0.0001695734284591466,-0.00030451653890456156,0.0011704659916699492,-0.3817255198955536,-51.47183609008789,5.310774803161621,17.20862579345703,-1.2324117422103882,-1.3812973499298096,-0.020094294100999832,,,,,,,,,
1739355939.980317,0.3237669688090401,1.177134572464405,0.32060696099873065,-1.1984171722949932,-1.4262607154847895,1.0402982090394222,0.10095737858659447,-8.770760329516783e-05,0.0006187251789283976,-0.00017066352919362633,0.0018886300739942412,-0.0006437792755682504,-0.00038557689752679073,-0.001211523599713852,-0.4055292308330536,-51.47183609008789,5.310774803161621,17.15705108642578,-1.2250875234603882,-1.3812973499298096,-0.020094294100999832,,,,,,,,,
1739355939.9912922,0.3237647837257089,1.1771325519572144,0.32061260711404405,-1.198419635727696,-1.426261591210771,1.0402989666995004,0.10096109882602596,-0.000403166346491518,-0.0008152996696848545,0.0006877393406892372,0.0005259066906276847,0.00073662735310816,7.239517652029038e-05,0.0008970523206956436,-0.3817255198955536,-51.44406509399414,5.235396385192871,17.15705108642578,-1.2186788320541382,-1.3877060413360596,-0.04756011441349983,,,,,,,,,
1739355940.0013528,0.3237674092644328,1.1771323400291622,0.32061082335596347,-1.1984185466393849,-1.4262599678156307,1.0402989666995004,0.10095987806707649,-0.0003074244874978442,0.000756647808944581,-0.00038974252563316286,0.0010026282889889497,0.0012365117064954483,9.880627750772217e-05,0.0001628978454275528,-0.3817255198955536,-51.44406509399414,5.259200096130371,17.18085479736328,-1.2324117422103882,-1.3877060413360596,-0.04023589566349983,,,,,,,,,
1739355940.0122938,0.32376478377017187,1.177132577463006,0.32060905245268306,-1.1984211812959273,-1.4262615899193938,1.0402998420971488,0.10095586304998126,-0.00021076058899653524,-0.0006588411441816407,-6.731241196059614e-05,-0.0004046663543852689,0.0005307606203445296,0.0006568153254221188,-0.0009780748051037502,-0.3817255198955536,-51.44406509399414,5.283003807067871,17.18085479736328,-1.2186788320541382,-1.3941147327423096,-0.0072769103571772575,,,,,,,,,
1739355940.0223036,0.3237662862424374,1.1771287198331926,0.3206069609981545,-1.1984234199697963,-1.426262348979179,1.0402989667540001,0.10095848102970609,0.00029063999025310774,-0.0012527899181784398,0.000444380500870713,-0.000988166655594935,-0.0004205483483218409,-2.5083864817487537e-05,0.00019760965074770047,-0.4055292308330536,-51.42026138305664,5.310774803161621,17.20862579345703,-1.2122701406478882,-1.3877060413360596,-0.027418512850999832,,,,,,,,,
1739355940.033266,0.3237645488069384,1.1771304060688936,0.32060695968989344,-1.1984185499094466,-1.4262615915344492,1.0402982090394224,0.10095912040165618,-0.0007321131871101177,-0.001380538524061704,-0.0009544804113149454,0.0008975787621256367,0.00021556077940747658,0.0007197392468561026,0.0009566657026266188,-0.3817255198955536,-51.44406509399414,5.310774803161621,17.18085479736328,-1.2186788320541382,-1.3812973499298096,-0.03382720425724983,,,,,,,,,
1739355940.0443544,0.3237645475107301,1.1771362888729846,0.320609747881571,-1.1984213169987228,-1.4262615782909944,1.0402992686775514,0.10094956918356274,-0.0010826522283084003,0.0013097432005249163,0.0005472697432201398,-0.000619316444615735,0.0005943270091216811,0.0003165207274804675,-0.0017471520370036678,-0.3817255198955536,-51.49563980102539,5.283003807067871,17.20862579345703,-1.2186788320541382,-1.3812973499298096,0.04673920199275017,,,,,,,,,
1739355940.0544605,0.32376278578085477,1.177132578411851,0.32060588444664834,-1.198422781784245,-1.4262599678155596,1.0402974513853254,0.10095361344914695,-0.0010466506857328896,0.00034486821101435293,-0.0009491063142240959,-0.0014031971523774688,0.00038275283809564983,-0.0003857409159702959,-0.0008491202144766943,-0.3539545238018036,-51.44406509399414,5.334578514099121,17.23242950439453,-1.2324117422103882,-1.3748886585235596,0.012864691205322742,,,,,,,,,
1739355940.0653179,0.3237662610048345,1.1771288678412506,0.32060696100207475,-1.1984183173640803,-1.4262620470549714,1.0402989666995004,0.10095491964370873,-0.0003471291845647762,-0.0021472569964876074,-6.273016204384605e-05,0.0009755175017670081,0.00013852273644764492,0.00045995873970970403,-0.0005137350878314782,-0.4055292308330536,-51.39249038696289,5.310774803161621,17.18085479736328,-1.2058614492416382,-1.3877060413360596,-0.0072769103571772575,,,,,,,,,
1739355940.076322,0.32376773634117634,1.1771325522721718,0.32060696099808866,-1.1984232478896188,-1.4262599678096517,1.0402989841421033,0.10095284264005924,0.0004435226949271768,0.0005034669019666159,-0.0004877169366526922,-0.0010504084477226526,0.0004956635381983049,0.0010401931649170217,-0.0006529789329616491,-0.4293329417705536,-51.44406509399414,5.310774803161621,17.20862579345703,-1.2324117422103882,-1.3877060413360596,0.019273381680250168,,,,,,,,,
1739355940.0873783,0.32376626046213336,1.1771308658182946,0.32060904093195336,-1.1984225418436794,-1.4262609383684834,1.0402989666995988,0.1009503167915336,-3.4743365661610965e-05,0.00037397112370081474,0.0005341336692397254,0.0007316097905245775,-0.00045159783314483923,-0.00033040474971282,-0.0014492725104407282,-0.4055292308330536,-51.42026138305664,5.283003807067871,17.20862579345703,-1.2250875234603882,-1.3877060413360596,0.012864691205322742,,,,,,,,,
1739355940.0982552,0.32376455625926615,1.1771342584976034,0.3206090378445058,-1.1984224384559325,-1.4262607944675998,1.0402997243595788,0.10095040150488334,-0.0005085787397860421,0.0010677152338048502,-0.0003910572258585366,0.00014163484216828413,-6.580985898884675e-06,0.0002694633581506057,-0.001711759926563227,-0.3817255198955536,-51.47183609008789,5.283003807067871,17.20862579345703,-1.2250875234603882,-1.3941147327423096,0.012864691205322742,,,,,,,,,
1739355940.1083176,0.32376467546929655,1.1771308655842594,0.32060904528471573,-1.1984213233163583,-1.4262608278966709,1.0402989666995004,0.10095836257839416,-0.0002406658537661108,-0.0004575639298896459,-0.00020972105484322006,-0.00034386781583845715,0.0008613956897316442,-0.0004415297262436995,0.0012252372773641756,-0.3539545238018036,-51.42026138305664,5.283003807067871,17.20862579345703,-1.2250875234603882,-1.3877060413360596,-0.027418512850999832,742,747,750,40.088,0,0
1739355940.119325,0.3237652565917356,1.17713812504284,0.32060904078795266,-1.1984167657631188,-1.426265528593422,1.0402982090394222,0.1009536003060215,-0.0002884208799400918,0.0016011068980221292,-0.00010250708715208775,0.0010701273133799376,-0.0009018704800706854,-0.0010120317915842214,-0.0005802358309754675,-0.3817255198955536,-51.51944351196289,5.283003807067871,17.15705108642578,-1.2122701406478882,-1.3812973499298096,0.012864691205322742,742,747,750,40.088,0,0
1739355940.1303203,0.32377071459227724,1.1771345381250304,0.3206090407879442,-1.1984203501520057,-1.426259967833582,1.0402997243595788,0.10096337930850866,0.00113255222240842,0.000655529349938491,0.0005591382643559238,0.00024939678312294066,-0.00034707544562847734,-0.00014002714636901894,0.0016052474807615531,-0.4571039378643036,-51.47183609008789,5.283003807067871,17.18085479736328,-1.2324117422103882,-1.3941147327423096,-0.03382720425724983,742,750,749,40.197,0,0
1739355940.1403618,0.3237700984637689,1.1771308204670268,0.3206091195249441,-1.1984212347219274,-1.4262615913729444,1.0402997248440955,0.10095685770734163,0.0011179131022661171,0.00014699250624689104,0.00032818525964478044,0.00021373309725396564,0.0007389630559658773,0.0006187902989786566,0.0003073069471161764,-0.4293329417705536,-51.42026138305664,5.283003807067871,17.20862579345703,-1.2186788320541382,-1.3941147327423096,-0.013685601763427258,743,748,750,40.088,0,0
1739355940.1512945,0.32376626018744936,1.1771365171895836,0.3206126848794267,-1.1984231688575524,-1.4262565951603485,1.0402974513793464,0.10095522386400162,-0.0004263140689373976,-0.00011681907659533402,0.0010898530142339892,0.00026287298486712366,0.0004762984435100353,-0.0002824868432496439,-0.0009917661446633213,-0.4055292308330536,-51.49563980102539,5.235396385192871,17.20862579345703,-1.2250875234603882,-1.3748886585235596,-0.0008682189509272575,742,748,750,40.088,0,0
1739355940.1623096,0.3237645475467113,1.1771325784494786,0.32060904056934675,-1.1984233843936334,-1.4262614736114474,1.0402989666995004,0.10095590242563109,-0.0006590618964260112,0.00034721204737931375,-0.0007648580878517112,-0.0018073220245025867,-0.0009803041514974795,0.0003010785894052739,-0.0017699949000535486,-0.3817255198955536,-51.44406509399414,5.283003807067871,17.20862579345703,-1.2186788320541382,-1.3877060413360596,-0.0072769103571772575,741,746,750,40.088,1,0
1739355940.173319,0.3237622333257734,1.1771324306218311,0.32060481523087553,-1.1984209991188963,-1.4262623490323578,1.0402982088738788,0.10095284280786972,-0.0008406546445025957,-0.0007046946198582493,-0.0006279328108144593,0.0002460474702240789,0.0005303869798674158,-0.00013865312180174705,-0.0013873271894744206,-0.3539545238018036,-51.47183609008789,5.310774803161621,17.20862579345703,-1.2122701406478882,-1.3812973499298096,0.019273381680250168,739,745,750,40.088,0,0
1739355940.1852434,0.3237645475089229,1.1771304350308842,0.320609041747893,-1.198419024697969,-1.4262599715302617,1.0402992686775505,0.10095911893835441,-0.0008341525928028603,-0.0011729374155472344,0.0005108143747993684,-0.00016520960603662763,-0.00026009777013526214,0.00017772496399006137,-0.00022665131895069108,-0.3817255198955536,-51.44406509399414,5.283003807067871,17.18085479736328,-1.2324117422103882,-1.3812973499298096,-0.03382720425724983,740,748,750,40.088,0,0
1739355940.195289,0.32376797255217055,1.1771345752504419,0.3206090409319588,-1.1984164982398837,-1.4262602687005554,1.0402958280433556,0.10095360052236375,0.0004360840356959502,0.0017348933265414845,0.0008156261454752804,0.0006696170728351686,-0.0003847832220429776,-0.0005679873807520079,-0.0016136956561260678,-0.4293329417705536,-51.47183609008789,5.283003807067871,17.15705108642578,-1.2324117422103882,-1.3611557483673096,0.012864691205322742,744,746,749,40.088,1,0
1739355940.205356,0.32376633876843924,1.1771345763890235,0.3206108234649657,-1.1984205193221311,-1.4262608337179614,1.0402989671840208,0.10095284264605725,0.0003116753600505481,0.0007380499792217101,0.0007952514888082623,0.000583388240507835,0.00010744822380304584,0.00012626999426071036,-0.001207804966118436,-0.4055292308330536,-51.47183609008789,5.259200096130371,17.20862579345703,-1.2250875234603882,-1.3877060413360596,0.019273381680250168,744,746,750,40.197,1,0
1739355940.2163513,0.3237647837221523,1.1771345763890428,0.3206090407879442,-1.1984250041853908,-1.4262600070614901,1.040298966699503,0.10095360030602182,-0.00013089918216253811,0.0004730583980251383,2.4106994328735305e-05,-0.001137871615364909,-0.00028741100942574437,-0.00020826016990735705,-0.002616362353854677,-0.3817255198955536,-51.47183609008789,5.283003807067871,17.23242950439453,-1.2324117422103882,-1.3877060413360596,0.012864691205322742,743,745,749,40.088,0,0
1739355940.2273896,0.32376454751204153,1.1771332695020167,0.3206111705751881,-1.1984195267601105,-1.4262615782912134,1.0402982090394222,0.10096074395829917,-0.0012114892355496684,-0.0009662701771280957,0.0008152784177757257,0.0007036082270681107,-0.0011853378129741076,6.191429720196003e-05,0.0007261551832365827,-0.3817255198955536,-51.47183609008789,5.283003807067871,17.15705108642578,-1.2186788320541382,-1.3812973499298096,-0.04756011441349983,744,748,750,40.088,1,0
1739355940.2391303,0.32376454751070816,1.1771345930611545,0.3206068979489402,-1.1984199630283083,-1.4262623359509965,1.0402989686375674,0.10095522581048423,-8.713552497269692e-05,-0.000248050561661669,-0.0008125022852159522,0.00020633051324823678,-0.0014134935198774103,0.0004896047276576365,-0.0002992807401144645,-0.3817255198955536,-51.47183609008789,5.283003807067871,17.20862579345703,-1.2122701406478882,-1.3877060413360596,-0.0008682189509272575,744,747,750,40.197,0,0
1739355940.249306,0.3237662595994119,1.177135265153921,0.32061082301680177,-1.1984183075104287,-1.426259968461582,1.040298209039433,0.10095674064386399,-0.0007542324476734694,0.0016570322151727012,0.0011265022260444992,0.0008715626709944196,-0.0005882973346613894,6.984668991945704e-05,0.0006871266822874735,-0.4055292308330536,-51.47183609008789,5.259200096130371,17.18085479736328,-1.2324117422103882,-1.3812973499298096,-0.013685601763427258,743,746,750,40.088,0,0
1739355940.2603037,0.32376720599150643,1.1771308659313469,0.32060695805464684,-1.1984182805858055,-1.4262604790466094,1.040296585966628,0.10095522364665414,0.0011483522800833986,-0.0007312792530215083,-0.0005014363158398913,0.00045807221693583,0.0011912985744525473,-0.000501143546124084,-0.0014371460150885862,-0.4055292308330536,-51.42026138305664,5.310774803161621,17.18085479736328,-1.2250875234603882,-1.3675644397735596,-0.0008682189509272575,743,747,750,40.197,0,0
1739355940.2713046,0.3237663505465268,1.1771343114795105,0.32060904078792757,-1.1984164302095317,-1.426261591370942,1.0402974513793464,0.10095284264605235,-0.00015698606183424683,0.0005083616713188164,-0.0004335853525720534,0.0015171603727905493,0.00037458050582200446,-0.0007524369726514832,-0.001831466644630287,-0.4055292308330536,-51.47183609008789,5.283003807067871,17.15705108642578,-1.2186788320541382,-1.3748886585235596,0.019273381680250168,744,752,750,40.088,0,0
1739355940.2823715,0.3237720963925315,1.1771325818988765,0.32060696099808866,-1.1984251631298306,-1.426261585558743,1.0402997243595788,0.10095749684367768,0.001068969436633288,0.00048310387671162216,-0.00036999706205155926,-0.0013613975770603967,-0.0002763613762038871,9.930391594059932e-05,0.0013192216733594964,-0.4571039378643036,-51.44406509399414,5.310774803161621,17.23242950439453,-1.2186788320541382,-1.3941147327423096,-0.020094294100999832,743,751,750,40.088,2,0
1739355940.2932792,0.3237666734217059,1.1771301418414233,0.32060696099808866,-1.198420607641454,-1.426258945485261,1.0402986799897018,0.100959933053126,0.0004796694024562844,-0.001309527748572468,-0.0008175736409200055,-0.0007223017497056313,0.0008500852756505862,0.00030461254928184885,0.0012112834522476224,-0.3817255198955536,-51.42026138305664,5.310774803161621,17.20862579345703,-1.2324117422103882,-1.3812973499298096,-0.013685601763427258,744,747,750,40.197,1,0
1739355940.3033288,0.32376667344570764,1.1771305480237575,0.3206072465116957,-1.1984167628232514,-1.4262623490157094,1.0402997263056213,0.10095836263248356,-0.0007796645409948366,-0.000643957046727784,-0.0009240625984356165,0.0009884308126254248,-0.0011494180166029026,0.0002943903627855272,0.0007535383057005146,-0.3817255198955536,-51.42026138305664,5.310774803161621,17.15705108642578,-1.2122701406478882,-1.3941147327423096,-0.027418512850999832,744,751,750,40.088,1,0
1739355940.3133435,0.323762549605858,1.1771301506663376,0.3206126061468175,-1.1984164184411583,-1.4262607944670087,1.0403021456139212,0.10095522386333071,-0.0006114063323124787,-0.0006672900681375883,0.0017944219503658943,0.0025645861570046777,0.0007541155860870174,0.0008935282801272413,-0.0004871146602403514,-0.3539545238018036,-51.42026138305664,5.235396385192871,17.15705108642578,-1.2250875234603882,-1.3877060413360596,-0.0008682189509272575,744,750,750,40.088,1,0
1739355940.3242927,0.32376696866443855,1.177135943542198,0.3206070756650337,-1.1984205197568447,-1.4262608380732948,1.0402974513972887,0.10095714147747602,0.0006077113981751597,-9.484425098134786e-05,-0.0009647763989064648,-0.0007014235962294938,-3.016269686202522e-05,-0.0008168006628571535,-5.33704264720962e-05,-0.4055292308330536,-51.49563980102539,5.310774803161621,17.20862579345703,-1.2250875234603882,-1.3748886585235596,-0.020094294100999832,746,747,749,40.197,1,0
1739355940.3343759,0.3237679725641713,1.1771308659216098,0.32060913694223486,-1.1984202897365632,-1.4262582548291811,1.0403021456138886,0.10095196503945236,0.000788095109108004,-0.0005633540038551968,4.168614682116363e-05,-0.0001564728375801508,0.00024285852697157525,0.001346589307567054,-0.0006105681214658307,-0.4293329417705536,-51.42026138305664,5.283003807067871,17.20862579345703,-1.2186788320541382,-1.3877060413360596,0.026597600430250168,743,747,749,40.088,0,0
1739355940.3453224,0.32376262830685504,1.1771343381400448,0.3206068950212751,-1.1984209992467818,-1.426260950947084,1.0402974513972887,0.100958362740844,-0.0009265956548753069,0.0003564755007310664,0.00016580022730722476,-0.0005097062205124207,-4.5234770611896405e-05,-0.0005343149779701769,0.0012015762160777891,-0.3539545238018036,-51.47183609008789,5.283003807067871,17.20862579345703,-1.2250875234603882,-1.3748886585235596,-0.027418512850999832,744,748,749,40.088,0,0
1739355940.3554215,0.3237680104639113,1.177134337966429,0.3206069608527336,-1.1984182040679494,-1.426260833714851,1.0402982090394224,0.10095836274091008,0.0009479994940161033,0.0014801336580546887,-0.0004928486329823966,0.0007521607546594134,-0.00128972184419347,0.0005746732641030936,0.0007806422287233072,-0.4293329417705536,-51.47183609008789,5.310774803161621,17.18085479736328,-1.2250875234603882,-1.3812973499298096,-0.027418512850999832,744,747,750,40.088,1,0
1739355940.3662877,0.3237662600316534,1.1771324989739842,0.3206071981811492,-1.1984210896074106,-1.426260835166416,1.0402974513793437,0.10095964093024234,0.0006817297741083777,0.00021035244105350917,0.00020836908056483803,2.8240565169599882e-05,-0.0019163795104996007,8.619603092692058e-05,-0.0005628140698949158,-0.4055292308330536,-51.44406509399414,5.310774803161621,17.18085479736328,-1.2250875234603882,-1.3748886585235596,-0.04023589566349983,743,747,745,40.088,2,0
1739355940.3763213,0.32376454751070816,1.1771308659261128,0.32060703973910526,-1.1984214183403603,-1.4262581104805299,1.0402982090394222,0.10095399690662173,0.00013485950205843685,-0.000798807522693794,8.83736684893099e-06,-0.000905160488911945,-0.0005420123620277944,-0.0002509319054816724,-0.0010135768228061788,-0.3817255198955536,-51.42026138305664,5.310774803161621,17.18085479736328,-1.2122701406478882,-1.3812973499298096,-0.027418512850999832,744,748,750,40.088,1,0
1739355940.387359,0.32376350330641845,1.1771380014305053,0.3206090602975606,-1.1984182315823841,-1.4262615855348164,1.0402989666995004,0.10095836271626482,-0.0006575644624407387,0.0028087123871318757,-0.0011322737817288648,-0.0005892401507506719,0.0006409087534739249,-0.00015949996480675466,0.0002942443978046751,-0.3539545238018036,-51.51944351196289,5.310774803161621,17.18085479736328,-1.2186788320541382,-1.3877060413360596,-0.027418512850999832,742,748,749,40.088,0,0
1739355940.3982775,0.32376383726299013,1.1771342584976041,0.32061082347681386,-1.1984189178218045,-1.4262615870122604,1.0402997243595788,0.10095091054204094,-0.0006886401864265119,-0.00010408386891498167,0.0008634048896395248,0.0005279525679929518,-0.001006655524153762,1.6529056559175248e-05,-0.0026362728498360195,-0.3817255198955536,-51.47183609008789,5.259200096130371,17.18085479736328,-1.2186788320541382,-1.3941147327423096,0.026597600430250168,744,748,750,40.088,1,0
1739355940.4082968,0.32376525613167906,1.1771298297224435,0.32060904953649993,-1.1984185219593606,-1.4262608380734427,1.040299005945357,0.1009560364435465,-0.0001969532060689342,-0.0008611254281089536,-4.115917868141995e-05,0.0008264850965139202,0.00011480964002294845,9.991741455761291e-05,-0.0017369631636899967,-0.3817255198955536,-51.42026138305664,5.283003807067871,17.18085479736328,-1.2250875234603882,-1.3877060413360596,0.019273381680250168,744,747,749,40.088,2,0
1739355940.4183445,0.32376445200862763,1.1771345792059178,0.3206090537489154,-1.1984227547047976,-1.4262615957336686,1.0402986799903664,0.10095360036010906,-5.244989351738615e-05,0.001101086816613216,0.00044360130974408917,-0.001862601270890647,-0.00043546641478940537,-1.3280288609028313e-05,-0.002184444184716755,-0.4055292308330536,-51.47183609008789,5.283003807067871,17.20862579345703,-1.2186788320541382,-1.3812973499298096,0.012864691205322742,744,747,748,40.197,1,0
1739355940.428375,0.32376457372575573,1.1771325784482376,0.32060696099830815,-1.1984164215296755,-1.426259954733755,1.0402994376577557,0.10095522564797016,-0.0007273080581287762,-0.00018512020946195818,-0.0010555035281743796,0.0014695123151724013,-0.0005529418435308046,0.0010395914824003997,-4.690631519996514e-05,-0.3817255198955536,-51.44406509399414,5.310774803161621,17.15705108642578,-1.2324117422103882,-1.3877060413360596,-0.0008682189509272575,744,748,749,40.305,0,0
1739355940.439358,0.3237687358728061,1.1771287620227928,0.32061116765900294,-1.1984182011123625,-1.4262606767293655,1.0402974513820022,0.10095836274092015,0.0005925345070798146,-0.0015040652327367528,0.0008027914241760671,0.0011435908103710117,-0.0003052306093920406,-0.00037990096845595044,0.0008913646083417078,-0.4055292308330536,-51.39249038696289,5.283003807067871,17.18085479736328,-1.2250875234603882,-1.3748886585235596,-0.027418512850999832,745,748,750,40.088,1,0
1739355940.4503214,0.32376626018942467,1.1771323397019637,0.3206069613341155,-1.198416418435326,-1.4262608278977786,1.0402974513793437,0.10095719399648394,0.000433358889643428,-0.00021688110751188144,-0.00029752854405920126,0.0017780602153208102,-9.301961444273531e-05,0.00014822769509467877,0.0007665221155445497,-0.4055292308330536,-51.44406509399414,5.310774803161621,17.15705108642578,-1.2250875234603882,-1.3748886585235596,-0.020094294100999832,743,746,751,40.197,1,0
1739355940.4612694,0.32376454761871587,1.1771344144985365,0.3206069611060974,-1.1984200611254034,-1.426261591857428,1.0402989666995004,0.1009583627392005,-0.0008342336135937301,0.0002440940162449808,-0.00040010445713772153,-0.00047581204049858207,-0.0003572974345996591,4.8122456291701896e-05,0.000985273212396299,-0.3817255198955536,-51.47183609008789,5.310774803161621,17.20862579345703,-1.2186788320541382,-1.3877060413360596,-0.027418512850999832,742,747,750,40.088,1,0
1739355940.4733107,0.3237666734097057,1.177130862036952,0.3206090496445072,-1.1984182011111044,-1.4262615913729468,1.0402982090394222,0.10095197674882117,0.0007072656464419019,-0.0011827432538076988,1.210702167024005e-05,0.0004675926510918385,0.00022918097727702715,-0.0002486493075907498,-0.002487771806232075,-0.3817255198955536,-51.42026138305664,5.283003807067871,17.18085479736328,-1.2186788320541382,-1.3812973499298096,0.026597600430250168,744,748,751,40.088,1,0
1739355940.4833522,0.3237666822062637,1.1771345776124258,0.3206069609981386,-1.1984202809022004,-1.4262576940443346,1.0402982090394222,0.10095721239543592,-0.00020813963015039994,0.0015406346666757076,-0.0018145998594885182,0.00020822761184406062,0.0004792671805944497,-0.0006045499235468625,0.0009132331612971335,-0.3817255198955536,-51.47183609008789,5.310774803161621,17.20862579345703,-1.2250875234603882,-1.3812973499298096,-0.013685601763427258,744,750,749,40.088,3,0
1739355940.4943278,0.32376465639367197,1.1771301506717282,0.320609854439612,-1.1984203469158956,-1.42626083304912,1.0402982090394222,0.10095978659825011,0.0001261951143891737,-0.0013934288461889487,0.0013859377758914599,8.342858750022078e-05,5.3525645448283186e-05,-0.0007935648375259706,0.0024879749594097405,-0.3817255198955536,-51.42026138305664,5.283003807067871,17.18085479736328,-1.2250875234603882,-1.3812973499298096,-0.027418512850999832,744,749,750,40.197,2,0
1739355940.5053244,0.32376458542173014,1.1771345763850054,0.3206090407925373,-1.1984202809143136,-1.426260833712862,1.040298326776992,0.10095522533173402,0.00019754715489143782,0.0008824727952906641,0.00042836924543276694,0.0005611603565255453,1.0975477114161797e-05,-0.0005475351339436741,-0.0005430536736556364,-0.3817255198955536,-51.47183609008789,5.283003807067871,17.20862579345703,-1.2250875234603882,-1.3812973499298096,-0.0008682189509272575,744,749,757,40.305,1,0
1739355940.5153246,0.32376454783537073,1.1771345410677718,0.32060321226243615,-1.198426788060243,-1.4262580592458463,1.0402982090414161,0.10095360030604668,-8.860642362979618e-05,0.00037791658219780077,-0.001526616823038362,-0.0018090671888921943,0.000699667099600593,0.00015041192249791544,-0.0016108950491924303,-0.3817255198955536,-51.47183609008789,5.362349510192871,17.25623321533203,-1.2186788320541382,-1.3812973499298096,0.012864691205322742,745,750,750,40.088,1,0
1739355940.526302,0.32376626035546174,1.1771336209863956,0.32060696099873065,-1.198417552386963,-1.4262603602004258,1.0402982090394222,0.10095986050944755,0.00013363253138173902,-0.00029302948372024104,-0.0011432686745243223,-0.00014085856110712707,-0.0005297107311466844,-0.00042684100791464373,-0.00028850230925274683,-0.4055292308330536,-51.42026138305664,5.310774803161621,17.20862579345703,-1.2324117422103882,-1.3812973499298096,-0.04023589566349983,745,745,750,40.088,1,0
1739355940.5372758,0.32376549235470864,1.1771309216465857,0.32061082350096554,-1.1984182010969424,-1.4262601785243199,1.040298326776992,0.10095750998685248,-3.500864899753437e-05,-0.0011159773521104482,0.001094774319200485,0.0008974786874789969,0.00023401182217800296,0.00023449207346844123,0.0013076518400217932,-0.3817255198955536,-51.39249038696289,5.259200096130371,17.18085479736328,-1.2186788320541382,-1.3812973499298096,-0.020094294100999832,745,748,750,40.197,1,0
1739355940.5482652,0.32376083835053987,1.1771325532285732,0.3206108497106301,-1.1984199513823597,-1.4262599634470072,1.0402974513800083,0.10095710308285491,-0.0018106083910896461,-6.829023520240631e-05,0.0010295625555910891,0.0002465873517570474,0.00033877348287859996,-0.00020468228047890123,0.001066388285885387,-0.3301508128643036,-51.44406509399414,5.259200096130371,17.20862579345703,-1.2324117422103882,-1.3748886585235596,-0.0072769103571772575,746,749,750,40.197,0,0
1739355940.558323,0.32376254956987716,1.1771355736536098,0.32060903784494943,-1.1984245644498348,-1.42626159137287,1.0402989666995004,0.10095354463845631,-0.0014178809612838796,0.0003451945189448559,7.682672602891364e-05,-0.0012208967517958608,0.0005924937304966269,-0.0002503371430008687,-0.0014711254358177027,-0.3539545238018036,-51.49563980102539,5.283003807067871,17.25623321533203,-1.2186788320541382,-1.3877060413360596,-0.013685601763427258,746,748,750,40.197,1,0
1739355940.5683453,0.32376454891479733,1.177134579211353,0.3206090408959012,-1.1984203074053164,-1.4262608184446135,1.0402989666995004,0.10095568601179555,0.0007751524518903859,-0.0003520468817603163,-0.0003528815999588136,-0.0007905902731582958,0.0008678129171653033,0.0004326243425337652,-0.0010017883169106709,-0.3817255198955536,-51.47183609008789,5.283003807067871,17.20862579345703,-1.2122701406478882,-1.3877060413360596,-0.013685601763427258,745,747,750,40.088,2,0
1739355940.579378,0.323762549569863,1.1771345763890588,0.3206090956456418,-1.1984164184718142,-1.426259954725041,1.0403021456138883,0.10095122346388893,-0.0013156917964720605,0.0008869192128640512,-0.00018158612166733026,0.0012741244283685752,0.0003085901719464098,0.0010612905742760181,-0.0006852939943228517,-0.3539545238018036,-51.47183609008789,5.310774803161621,17.15705108642578,-1.2324117422103882,-1.3877060413360596,0.03300629183650017,743,748,750,40.088,2,0
1739355940.5903537,0.3237703359582495,1.1771308660970397,0.32060974910594453,-1.1984220634284812,-1.42626159137287,1.0403012440583312,0.10095841531403024,0.001631991799044866,-0.0002726588348036178,-0.0005281837498623129,-0.0005805943444468317,7.091389788806151e-05,0.001189317371551426,0.0013093547658707973,-0.4293329417705536,-51.42026138305664,5.283003807067871,17.23242950439453,-1.2186788320541382,-1.4069321155548096,-0.027418512850999832,746,748,750,40.088,1,0
1739355940.6012857,0.3237645603048612,1.1771362888007588,0.3206119015696053,-1.1984202812292484,-1.4262611984298608,1.0402982090394468,0.10095840217102846,0.000951868778868687,0.001349354954624182,-0.0002691574173583088,0.0004107809084074101,0.00022257371936235988,1.6995574428596834e-05,-0.00048445264958408283,-0.3817255198955536,-51.49563980102539,5.283003807067871,17.20862579345703,-1.2186788320541382,-1.3812973499298096,-0.027418512850999832,747,747,751,40.088,1,0
1739355940.6122892,0.3237662600315116,1.1771345763890422,0.32061090189106356,-1.1984202809385411,-1.426262349515321,1.0402982090394222,0.10095122493042047,-0.00035997891206015527,-0.00019117638362854057,-0.0001579886457509825,-0.0007579686547231818,-0.0012236789099822798,-0.0001189841993408899,-0.0014631658416744515,-0.4055292308330536,-51.47183609008789,5.259200096130371,17.20862579345703,-1.2122701406478882,-1.3812973499298096,0.03300629183650017,745,747,749,40.197,1,0
