IITGN-Robotics/Franka_IITGN_ROBOTICS/franka_ros/franka_iitgn/data02/s_b_005.csv
time,fr3_joint1_pos,fr3_joint2_pos,fr3_joint3_pos,fr3_joint4_pos,fr3_joint5_pos,fr3_joint6_pos,fr3_joint7_pos,fr3_joint1_vel,fr3_joint2_vel,fr3_joint3_vel,fr3_joint4_vel,fr3_joint5_vel,fr3_joint6_vel,fr3_joint7_vel,fr3_joint1_eff,fr3_joint2_eff,fr3_joint3_eff,fr3_joint4_eff,fr3_joint5_eff,fr3_joint6_eff,fr3_joint7_eff,flexpin1,flexpin2,flexpin3,Force,ContactMic,ContactMic_gt
1739354817.869847,0.3331793402407252,1.1546094566462648,0.297918278590144,-1.2202615823774772,-1.395436838851229,1.0730246355305757,0.11204880048653083,0.0023925026111366113,0.0008187951348766192,0.0012634076086803574,-0.0011033094309777247,-0.0013839799304153982,0.0003753040405632012,-0.0018962603133991231,-0.6038934588432312,-52.16214370727539,4.854537010192871,17.65296173095703,-1.0685323476791382,-1.4994003772735596,0.07328949868679047,,,,,,,,,
1739354817.879858,0.3331812047532974,1.1546066008604612,0.2979225077097473,-1.220259753220004,-1.3954325364097988,1.0730410987206347,0.11205137804477658,-0.0001270039433068031,-0.0012618679847284135,0.000543447423413133,0.00020892232251131838,0.00029173658485506787,0.0026688178202315337,-0.0007855223701137198,-0.4571039378643036,-52.08279800415039,4.929915428161621,17.62519073486328,-1.1079000234603882,-1.4929916858673096,0.05314789339900017,,,,,,,,,
1739354817.8898864,0.3331821772326562,1.154604906048374,0.2979290039090875,-1.2202606947025714,-1.3954348017970692,1.0730501096737608,0.11205578302415815,-0.0014397852334295644,-0.0016104038600007436,0.0011868856845828775,0.0018776322442850303,0.0014700879631028016,0.002018160659444116,0.0004107231750458722,-0.3817255198955536,-52.05899429321289,4.929915428161621,17.60138702392578,-1.1207174062728882,-1.4472153186798096,0.012864691205322742,,,,,,,,,
1739354817.90082,0.3331898212103674,1.1546131128702894,0.297927579790406,-1.2202601968295896,-1.3954367902030669,1.073051726277504,0.11205666090884349,0.0016039219195762128,0.0010319018918527663,0.000514376542685695,0.0003154062200826618,0.0003688590301787643,-0.0004233593502081044,0.0017297501733551206,-0.4055292308330536,-52.16214370727539,4.953719139099121,17.57758331298828,-1.1079000234603882,-1.4069321155548096,0.0064559997990727425,,,,,,,,,
1739354817.9109223,0.33318612432082284,1.1546105596409248,0.29792596921123315,-1.2202676815613438,-1.3954425950949876,1.0730517226466234,0.11204950721004855,0.000640325327387688,-0.00029022524464910877,0.0009178577198370376,-0.0028854899991311634,0.0010644855370973527,-0.0004983696286649762,-0.0011514466692168586,-0.3539545238018036,-52.13437271118164,5.005293846130371,17.65296173095703,-1.0877584218978882,-1.4069321155548096,0.06596527993679047,,,,,,,,,
1739354817.9218338,0.33318351293552256,1.1546105586198525,0.2979255005369728,-1.2202610989517486,-1.3954487902498842,1.0730506161345146,0.11205502875969954,-0.00044015134170056266,-0.0010613368199702525,5.925638694645523e-05,0.0009586338165814576,-0.0008814321353690025,-0.0003965522031154564,0.001129055238738033,-0.3063471019268036,-52.13437271118164,4.981490135192871,17.60138702392578,-1.0877584218978882,-1.4005234241485596,0.019273381680250168,,,,,,,,,
1739354817.9318607,0.3331870057866349,1.1546131826450212,0.29792217322178277,-1.220262946186075,-1.3954488317517009,1.073050951898648,0.11205578495932873,0.0006969012464856236,0.0002100080688180005,-0.0008547721502366037,-0.0009508348677936665,0.0015023629667539544,0.0005805527280307046,0.0010941084373852004,-0.3539545238018036,-52.13437271118164,5.029097557067871,17.62519073486328,-1.0877584218978882,-1.4005234241485596,0.012864691205322742,,,,,,,,,
1739354817.941862,0.33318533142274603,1.154611745870871,0.2979255266522262,-1.2202641349302397,-1.3954527241610681,1.0730535805856654,0.11205502729933577,-0.0007105243398844602,-0.0006827484035730929,-0.0001466506952913095,-0.0010656260944836796,-0.00014687968670810852,2.70057286897647e-05,0.0022174425066516456,-0.3301508128643036,-52.11056900024414,4.981490135192871,17.60138702392578,-1.0941671133041382,-1.4270737171173096,0.019273381680250168,,,,,,,,,
1739354817.9518855,0.33319179803427545,1.154617248875797,0.2979275916132897,-1.2202613682687968,-1.3954505019439218,1.0730513848218983,0.1120551454260332,-8.91401781254678e-05,0.0023237195630593,0.000546142520967583,0.0008386953525175322,0.0006207975990976488,-0.0001815497977661328,0.0011477968905591622,-0.3817255198955536,-52.18594741821289,4.953719139099121,17.60138702392578,-1.1143087148666382,-1.4398910999298096,0.019273381680250168,,,,,,,,,
1739354817.9638054,0.33319215445915795,1.1546133111163546,0.2979264842834953,-1.2202698056189334,-1.395451976566905,1.0730556234670938,0.11205352203215663,-0.0004547100554427297,0.0005259702064585387,-0.00027068855536699625,-0.0004736880548930607,-0.0006970739370244152,0.000344866628098844,0.0010494993893903164,-0.3817255198955536,-52.16214370727539,4.981490135192871,17.67676544189453,-1.1014913320541382,-1.4398910999298096,0.03300629183650017,,,,,,,,,
1739354817.9749167,0.3331922713269086,1.154617964556398,0.29791985807135263,-1.2202669865948272,-1.395450159429973,1.0730556235448565,0.11205420088668025,-0.001241495629549534,0.0017275864132350592,-0.0030393933957691193,0.0004157982911657701,0.0020894722438233094,6.475184028380786e-05,0.0008295229750809724,-0.3539545238018036,-52.18594741821289,5.056868553161621,17.62519073486328,-1.1079000234603882,-1.4398910999298096,0.026597600430250168,,,,,,,,,
1739354817.9868696,0.33318673577663976,1.154608115882784,0.2979265334497722,-1.2202644382742929,-1.3954537765040338,1.0730517270073112,0.11205421348697109,-0.0006256186853064449,-0.0019106812942067365,-0.00010248749703843668,0.0008064595092916855,0.0009750859004991607,-0.00045384565444846713,0.0010143102784910204,-0.3063471019268036,-52.05899429321289,4.981490135192871,17.60138702392578,-1.0877584218978882,-1.4069321155548096,0.026597600430250168,,,,,,,,,
1739354817.997908,0.3331850973892963,1.1546098162892509,0.2979266171007575,-1.2202623792285248,-1.3954583496852009,1.0730517268458055,0.11205654261967636,-0.0009732762736167463,-0.0002853913195363892,-7.9663972151575e-05,-0.0013296791237754756,-0.002771540380503028,-0.00018885290570939048,0.002299229853649342,-0.2825433909893036,-52.08279800415039,5.005293846130371,17.57758331298828,-1.0877584218978882,-1.4069321155548096,0.0064559997990727425,,,,,,,,,
1739354818.0088189,0.3331898417458596,1.1546135447384964,0.2979208924297213,-1.220267003056287,-1.3954576108175092,1.0730533505466764,0.1120536472200597,-0.0007771508489875351,0.00046005893890272917,-0.0010575179096969035,-0.0008325626022951721,0.00029096525050783747,-0.00018833172016790862,0.00019190832785803485,-0.3539545238018036,-52.13437271118164,5.056868553161621,17.62519073486328,-1.0941671133041382,-1.4206650257110596,0.026597600430250168,,,,,,,,,
1739354818.0188344,0.3331911720297891,1.154611826331009,0.2979300568142788,-1.2202744848878777,-1.3954555163278988,1.0730541082246998,0.1120495071953311,-9.390182007501481e-05,-0.0018934505076386814,0.0031265787654350084,-0.0006258632155687473,0.0018213902855192692,5.459499603166582e-05,-0.0012363269197755902,-0.3539545238018036,-52.11056900024414,4.953719139099121,17.70056915283203,-1.1079000234603882,-1.4270737171173096,0.06596527993679047,,,,,,,,,
1739354818.02986,0.33319331275027303,1.1546135388516408,0.2979279652750435,-1.2202690946326105,-1.3954567896269519,1.0730541082247003,0.11204812572008385,0.0009403569411731952,-0.00025942791734654016,0.0002647721454779623,-0.00018154256122804004,0.0009938564388328878,6.791446097708016e-05,-0.0009101445454055717,-0.3539545238018036,-52.13437271118164,4.981490135192871,17.65296173095703,-1.1014913320541382,-1.4270737171173096,0.05955658480525017,,,,,,,,,
1739354818.0409188,0.33318908419425747,1.1546157752110728,0.2979287158240215,-1.2202673792344785,-1.3954563298186093,1.0730533505646218,0.11205502728726023,-0.0014099939999621571,0.00028853638634398604,3.025681463276309e-05,-0.0006922015073562479,0.0002102363004830689,-0.0003514336516582903,0.0011264685488086206,-0.3063471019268036,-52.16214370727539,4.981490135192871,17.60138702392578,-1.1143087148666382,-1.4206650257110596,0.019273381680250168,,,,,,,,,
1739354818.0509262,0.3331932066180485,1.154613632388646,0.29792403880565066,-1.2202673805547941,-1.3954585492749776,1.0730533505646218,0.1120485759467555,9.489479152811333e-05,0.00030350312370527654,-0.0008384451969242213,-7.096857565498744e-05,-0.0005101121568658742,-9.465823252944489e-05,-0.001356776913849552,-0.3817255198955536,-52.16214370727539,5.005293846130371,17.60138702392578,-1.0877584218978882,-1.4206650257110596,0.04673920199275017,,,,,,,,,
1739354818.0609317,0.3331916115570545,1.1546158272082654,0.29792468000117545,-1.2202655965696465,-1.3954647527821682,1.0730517270073112,0.11205973724420112,0.000743353759198118,0.0007367990118432872,-0.0012383048694362864,-0.0004341481693182026,-0.0010210182003092534,-0.00038110582423450586,0.0015346409493370964,-0.3301508128643036,-52.18594741821289,5.005293846130371,17.57758331298828,-1.0749410390853882,-1.4069321155548096,0.0064559997990727425,,,,,,,,,
1739354818.07187,0.33319331562796833,1.1546098296955758,0.29792847907703357,-1.2202655965695801,-1.3954628934631725,1.073053311318765,0.11204954663987168,0.000985552583701312,-0.0011110508386831088,-0.0005029446356959624,-1.146914241193322e-05,0.0001187345032873589,0.000541521981181003,-0.00011232983056263244,-0.3539545238018036,-52.08279800415039,4.981490135192871,17.57758331298828,-1.0877584218978882,-1.4206650257110596,0.06596527993679047,,,,,,,,,
1739354818.081875,0.33319446417772414,1.1546118260038827,0.29792407412287863,-1.2202673802277453,-1.395464012240488,1.073053350563957,0.11205304777050878,0.001531562583221281,-0.0009449003525894138,8.603718574676884e-05,0.0009040480614743689,0.000796219975259006,0.00018222587252817053,0.0005452335981271753,-0.3301508128643036,-52.11056900024414,5.005293846130371,17.60138702392578,-1.0813497304916382,-1.4206650257110596,0.03300629183650017,,,,,,,,,
1739354818.0928016,0.3331887836064602,1.1546172610869763,0.29792576649001895,-1.2202673792466154,-1.3954637143390667,1.0730541083862057,0.11205654261335393,-0.0013907189114631623,0.0007541938653981543,-0.0011708902238630225,0.0006583731742031015,-0.0001855407339894908,0.00013185015258340344,0.0016503756742845767,-0.3301508128643036,-52.18594741821289,4.981490135192871,17.60138702392578,-1.1207174062728882,-1.4270737171173096,0.0064559997990727425,,,,,,,,,
1739354818.1028838,0.3331933156595905,1.154613542776293,0.2979251495127635,-1.220267379246599,-1.3954616330282286,1.0730548658847794,0.11205740851661469,8.379467760367951e-05,-0.0014353012886618118,0.0005160028173378489,0.0010551561090858567,0.00024276012710629027,0.0008855664237488064,0.0019688096889766103,-0.3539545238018036,-52.13437271118164,5.029097557067871,17.60138702392578,-1.1014913320541382,-1.4334824085235596,-0.0008682189509272575,,,,,,,,,
1739354818.1149085,0.33319161198509334,1.154617250657781,0.29792693318757263,-1.2202676984462328,-1.3954616325191316,1.0730533505646218,0.1120550274615984,-0.0011702191833249265,0.0004119187315391029,-0.001168687121110568,0.00011394891479229953,0.0007261286062413879,0.00015913906594176332,0.00020320817426162116,-0.3301508128643036,-52.18594741821289,5.005293846130371,17.60138702392578,-1.1014913320541382,-1.4206650257110596,0.019273381680250168,,,,,,,,,
1739354818.1259012,0.33319335114214954,1.1546157640917147,0.29792693317547647,-1.2202655965701805,-1.3954614689757383,1.0730525929224886,0.11205578034756285,0.0007587313523713061,0.00012183255185843148,0.00040402757843775413,0.0026319305882908962,0.0007763119801610591,-0.00016278817783599411,-0.0006219842852523947,-0.3539545238018036,-52.13437271118164,5.005293846130371,17.57758331298828,-1.0941671133041382,-1.4142563343048096,0.012864691205322742,,,,,,,,,
1739354818.1368496,0.3331917189306534,1.1546120648961895,0.29793079956083574,-1.2202637373631404,-1.3954625027595782,1.0730525929045438,0.11205561356521133,-0.0004191690889197702,-0.0009035114914177203,0.0021251805776336865,0.0009960217296615358,0.00036848444132787277,-0.0002505596106823136,0.0004263839113782189,-0.3301508128643036,-52.11056900024414,4.953719139099121,17.55377960205078,-1.0941671133041382,-1.4142563343048096,0.012864691205322742,,,,,,,,,
1739354818.1468785,0.33319335394087074,1.1546135391800363,0.29792396914427743,-1.2202694013229116,-1.3954636267317766,1.0730533507261273,0.11205427952783328,-9.524415001907027e-05,-0.0012100331252072603,-0.0006703505181526107,-0.000679965694374266,-9.35061579144874e-06,-0.00023712000645874202,0.0010687662728597128,-0.3539545238018036,-52.13437271118164,5.005293846130371,17.62519073486328,-1.0877584218978882,-1.4206650257110596,0.026597600430250168,,,,,,,,,
1739354818.1588066,0.3331916119853095,1.15461452784723,0.2979298184158904,-1.2202722613664978,-1.3954625376643102,1.0730541080631955,0.11205339055853687,-0.00020164545123051516,-0.0005088721857799773,-5.1173711903312186e-05,-0.0010745613351128358,-0.0001734422049303547,7.438079816547455e-05,0.0009341344486341839,-0.3301508128643036,-52.13437271118164,4.953719139099121,17.62519073486328,-1.0941671133041382,-1.4270737171173096,0.03300629183650017,,,,,,,,,
1739354818.168919,0.33319403093129407,1.154616400025528,0.2979300568456851,-1.2202719569867073,-1.3954655843620691,1.073053350564621,0.11204954223906768,-0.0008872937667608746,0.00022753800480142575,0.0009212315119507339,-0.0017492715191825812,-0.000779642081794919,0.0006108354824189875,-0.001561768972666725,-0.3539545238018036,-52.13437271118164,4.953719139099121,17.65296173095703,-1.1079000234603882,-1.4206650257110596,0.06596527993679047,,,,,,,,,
1739354818.1799097,0.3331902482114427,1.1546183089675057,0.29792480906743585,-1.2202715978736605,-1.3954677473250339,1.073053352018172,0.11205502794858409,-0.0016411525193501084,0.0014558464267540978,-0.0013940499381122546,-0.0004269337980644459,-0.0015699421161628796,-0.0002883282411450536,0.0007435365639007639,-0.3063471019268036,-52.18594741821289,5.029097557067871,17.65296173095703,-1.1079000234603882,-1.4206650257110596,0.019273381680250168,,,,,,,,,
1739354818.1908476,0.3331957356569913,1.1546202264444818,0.29793079859596466,-1.2202694358108337,-1.3954671488469101,1.0730525931198924,0.11205304776984461,-0.00021952625581781577,0.0019492808992811962,0.0009220167310901393,-0.0005712207760447527,-0.0028580017058321724,-2.2787674783200532e-05,-0.000334124793755723,-0.3539545238018036,-52.18594741821289,4.953719139099121,17.62519073486328,-1.0941671133041382,-1.4142563343048096,0.03300629183650017,,,,,,,,,
1739354818.2008796,0.3331964505883051,1.1546156851053355,0.2979287216969843,-1.2202696048183577,-1.3954663437157373,1.0730521325478335,0.1120526411928979,-0.0001356615842970923,-0.000339517236275986,0.00017221617116424352,-0.0010717273490817901,-0.0008313755786231545,0.0006888529508266652,-3.2334630561138954e-05,-0.3539545238018036,-52.13437271118164,4.981490135192871,17.60138702392578,-1.1014913320541382,-1.4069321155548096,0.03941498324275017,,,,,,,,,
1739354818.211876,0.33319309642047,1.1546155637679663,0.29793258127494415,-1.2202684587315942,-1.39546788765247,1.073053350566911,0.11205026486453,0.00011878305416782351,-0.0007660208218409873,0.0012992985234840484,-0.0003006791818090099,-0.00040757597247830993,0.00027396845054271466,-0.0009622471884379697,-0.3063471019268036,-52.16214370727539,4.929915428161621,17.57758331298828,-1.0877584218978882,-1.4206650257110596,0.05955658480525017,,,,,,,,,
1739354818.2218773,0.3331919490086695,1.1546172768947975,0.29792700235841724,-1.2202692546359173,-1.3954654841453167,1.0730533505646218,0.11204950573913272,-0.0001574148763710112,-0.0005405177093431668,0.00013382881709773963,0.00015350946085591487,0.0002758347862911796,-2.923978402230904e-05,-0.00038639669852216817,-0.3301508128643036,-52.18594741821289,5.005293846130371,17.62519073486328,-1.1079000234603882,-1.4206650257110596,0.06596527993679047,,,,,,,,,
1739354818.2328305,0.3331926493858564,1.1546149257725935,0.29792692730109027,-1.2202721953883136,-1.3954640864774208,1.073055623544857,0.1120550272993275,-0.0015754530645378814,-0.0005727908740618205,-0.0011019119694638808,-0.0004663083849478487,0.0024274067613873195,0.00016396413608977094,0.0015368355431580802,-0.3301508128643036,-52.11056900024414,5.005293846130371,17.65296173095703,-1.1079000234603882,-1.4398910999298096,0.019273381680250168,,,,,,,,,
1739354818.242844,0.33320024082653327,1.1546140872717903,0.2979270401324047,-1.2202683332641147,-1.3954666052721008,1.0730541082247003,0.11205504044260962,0.0015843453649466474,0.0005569772615846311,0.0006256482900719445,-0.00012083088572230788,0.0019529034517388002,-0.0010832505330007462,0.001030692090420951,-0.4055292308330536,-52.11056900024414,5.005293846130371,17.60138702392578,-1.0877584218978882,-1.4270737171173096,0.019273381680250168,,,,,,,,,
1739354818.2538874,0.33319852856055765,1.154616651195378,0.29792515345577636,-1.220268421567298,-1.3954646293119384,1.0730565299635264,0.11205416140232594,0.0013583589475245582,0.0013971415983109773,-0.0006725597796594292,0.00044828943485824267,-0.0008760113583586078,2.8594599838172545e-05,0.0010342063001586989,-0.3817255198955536,-52.13437271118164,5.029097557067871,17.60138702392578,-1.1014913320541382,-1.4206650257110596,0.026597600430250168,,,,,,,,,
1739354818.2639363,0.33319410654983533,1.1546201412053474,0.2979287188080532,-1.2202692016114236,-1.3954695797950982,1.0730549059396468,0.11205416140210336,-0.00046316595639956884,0.0012737745201428872,-0.00016200156397132027,-0.0006927645472697918,-0.00031445564339499255,-0.0004579524167116535,0.0009983327226338525,-0.3301508128643036,-52.18594741821289,4.981490135192871,17.62519073486328,-1.1014913320541382,-1.4069321155548096,0.026597600430250168,,,,,,,,,
1739354818.2748985,0.3331965343222872,1.1546160201872517,0.2979251534540151,-1.2202715979061856,-1.3954656438945998,1.073052594376039,0.1120502648645576,0.0006187630381383289,0.0016335770388447054,0.0002900980604461714,-0.0009705149724914568,-0.0006245531008465422,0.0002034560383479859,-0.0012121918813659987,-0.3539545238018036,-52.13437271118164,5.029097557067871,17.65296173095703,-1.1079000234603882,-1.4142563343048096,0.05955658480525017,,,,,,,,,
1739354818.2849092,0.3331948110129829,1.1546100796055605,0.29792693613103416,-1.220267742342824,-1.395464249217644,1.0730559255229326,0.11205264608194668,-0.0002311870840032369,-0.0015387462796745432,-0.001221845196841899,0.0010221862212918438,0.0002948351816849106,0.000845284027521174,-0.0006885549429781366,-0.3301508128643036,-52.08279800415039,5.005293846130371,17.57758331298828,-1.0941671133041382,-1.4334824085235596,0.03941498324275017,,,,,,,,,
1739354818.2958627,0.33319853212176187,1.1546201938803926,0.29792693613103416,-1.2202701157554023,-1.395467266770909,1.0730537037833132,0.1120502648645576,0.0008489810623005281,0.0005895352947366947,-0.0012393032488108235,-0.0007175127128866294,-0.0014327827098370694,0.00069826288516763,-0.00035901753461925305,-0.3817255198955536,-52.18594741821289,5.005293846130371,17.62519073486328,-1.0941671133041382,-1.4206650257110596,0.05955658480525017,,,,,,,,,
1739354818.3059478,0.33319310928485996,1.1546166776979085,0.2979287184810044,-1.2202713086881296,-1.395465643230632,1.0730541087151988,0.11205097349755659,-0.0006018836417542512,0.0002950395149161457,-5.5264836636755715e-05,-0.00032918629410442644,0.0007911232727614778,-0.00015278521019021837,-0.0012877028392852775,-0.3063471019268036,-52.13437271118164,4.981490135192871,17.62519073486328,-1.1079000234603882,-1.4270737171173096,0.05955658480525017,,,,,,,,,
1739354818.316819,0.3331931092848624,1.1546119068389733,0.29792871880805133,-1.2202694279717705,-1.395467249829857,1.073054108224703,0.11205276437541171,-0.0008184930069640216,-0.0011768733943049487,0.0007239781556777672,0.00045462137916423934,0.00048297682910430385,-0.0010530426462570068,0.000720985011024676,-0.3063471019268036,-52.11056900024414,4.981490135192871,17.62519073486328,-1.0941671133041382,-1.4270737171173096,0.03941498324275017,,,,,,,,,
1739354818.3268795,0.33319482191460986,1.1546165187036859,0.2979287188080532,-1.2202695181932888,-1.3954691410808704,1.073054866046284,0.11205026486656092,-7.356334727371013e-07,-3.1993717288215115e-05,-0.0007083673896737598,0.0011927616849483247,-0.0001946607610189534,-0.00026731059510676176,-0.00026216360325997565,-0.3301508128643036,-52.13437271118164,4.981490135192871,17.62519073486328,-1.1143087148666382,-1.4334824085235596,0.05955658480525017,,,,,,,,,
1739354818.336889,0.333194820824449,1.154610186013881,0.2979307985979088,-1.2202687088810615,-1.3954659965154097,1.0730521979575935,0.11204864130680647,-6.992090550874491e-05,-0.0011561827910293151,0.0005229995102814032,-0.00022140476665595386,0.0014550703359855466,-0.0001027005108908536,-0.0012376567862733242,-0.3301508128643036,-52.08279800415039,4.953719139099121,17.57758331298828,-1.1079000234603882,-1.4069321155548096,0.07328949868679047,,,,,,,,,
1739354818.3478978,0.3331931091758406,1.1546146116827574,0.29793079852455834,-1.2202674896249703,-1.3954695805069506,1.0730565294816683,0.11204781877497927,-0.0006359045353425538,0.0001002674394109947,0.0009510974520896822,0.0005959304508266372,0.000321957111703438,0.00028842396162281897,-0.0009610120952180197,-0.3063471019268036,-52.13437271118164,4.953719139099121,17.60138702392578,-1.1014913320541382,-1.4206650257110596,0.05314789339900017,,,,,,,,,
1739354818.3588352,0.33319482180559296,1.1546125813109633,0.29792515345401466,-1.2202702433589654,-1.39546640090866,1.0730536526144532,0.11205501847818682,0.00040916058365501277,-0.002044621521450615,-0.0008960171922042863,-0.0010102897851743846,0.000471596736032102,1.3136279195753726e-05,0.00020714201217649975,-0.3301508128643036,-52.11056900024414,5.029097557067871,17.60138702392578,-1.1014913320541382,-1.4142563343048096,0.019273381680250168,,,,,,,,,
1739354818.3689725,0.33319279019424464,1.1546128726818397,0.297930834789598,-1.220269872388146,-1.3954692712920467,1.073053836552867,0.11204904959276736,-0.0014681538157011154,-0.0005521919642421612,0.0011653827957218412,-1.4007232826595395e-05,-0.00026403399822182345,0.0010335795463815424,-0.001337872022107116,-0.3063471019268036,-52.11056900024414,4.981490135192871,17.60138702392578,-1.1079000234603882,-1.4206650257110596,0.04673920199275017,,,,,,,,,
1739354818.3798108,0.3331996342021169,1.154617802265475,0.297928718819998,-1.2202680989133996,-1.3954685015724402,1.0730541125880944,0.11205578927072524,0.0013434679893664161,-0.0002518813754086457,0.00045168407007290304,0.0010434477085025547,-0.0011837473890373101,-0.00020895010602150902,0.0016031876736305518,-0.3539545238018036,-52.16214370727539,4.981490135192871,17.60138702392578,-1.0941671133041382,-1.4270737171173096,0.012864691205322742,,,,,,,,,
1739354818.3898525,0.33319096357014716,1.154620320121542,0.2979287188080534,-1.2202705880436322,-1.395468339528936,1.0730544614374837,0.11205416578326766,-0.0012985538366387423,0.0018199571055459098,7.81388398912535e-06,0.0013558349712818815,0.00022400679390761148,8.43748604752347e-05,0.0004987809280952464,-0.3063471019268036,-52.21371841430664,4.981490135192871,17.60138702392578,-1.0941671133041382,-1.4270737171173096,0.026597600430250168,,,,,,,,,
1739354818.4008527,0.3331967727327913,1.1546208217255507,0.29792693613103416,-1.2202698795528295,-1.3954708039816048,1.0730550236612628,0.1120550272993605,0.0006511665984323401,0.0010958687625677599,-0.00038396907042266754,-0.0006560964300575298,-0.0010547127924841176,0.0005665266508960051,0.0005556783822018366,-0.3539545238018036,-52.16214370727539,5.005293846130371,17.60138702392578,-1.0941671133041382,-1.4069321155548096,0.019273381680250168,,,,,,,,,
1739354818.4108624,0.333194821809631,1.154615654413623,0.2979251534540151,-1.2202705615828342,-1.3954726207953074,1.0730568316743956,0.11205416140210336,-0.00036010789371289045,-0.0002876541271245709,-0.001190264862075639,-0.00021541578956961991,-0.0009571318529730387,0.0008291137735803486,0.0005305923479866705,-0.3301508128643036,-52.11056900024414,5.029097557067871,17.60138702392578,-1.0877584218978882,-1.4142563343048096,0.026597600430250168,,,,,,,,,
1739354818.420892,0.3331955753260412,1.1546187554536322,0.2979287188080532,-1.2202676534764072,-1.3954694375382057,1.0730528406600892,0.11205654261938235,0.0007212986435361135,0.001520141439929702,0.0003563063966462683,0.0007171130133847665,-6.961372917211928e-05,0.0004921470339558106,0.0010695600224536828,-0.3301508128643036,-52.16214370727539,4.981490135192871,17.60138702392578,-1.0877584218978882,-1.4069321155548096,0.0064559997990727425,,,,,,,,,
1739354818.4309258,0.33319310929762336,1.1546150449817274,0.2979294208183139,-1.2202684892548883,-1.3954673860029942,1.0730541096971102,0.11205720443288143,-0.00019386230176456705,-0.0009900693280462725,0.00016783750657398713,-0.00018905783807218708,0.0009688166289814282,0.0002254545290935101,0.001953443129115777,-0.3063471019268036,-52.11056900024414,4.981490135192871,17.60138702392578,-1.0941671133041382,-1.4270737171173096,0.012864691205322742,,,,,,,,,
1739354818.441845,0.3331936746115709,1.1546167310115052,0.29792307377511984,-1.2202723805261937,-1.39547065850156,1.0730541261518283,0.11205586370431686,-0.0007203190727714566,-0.000974759887579543,-0.002023839900201335,-0.0007913208233223533,-0.0016495843636537353,-0.0009521219985246419,0.0009350312128221859,-0.3539545238018036,-52.13437271118164,5.056868553161621,17.62519073486328,-1.1014913320541382,-1.4270737171173096,0.012864691205322742,,,,,,,,,
1739354818.4518723,0.33319482175716403,1.1546164924834612,0.2979287189150525,-1.220270558542543,-1.3954668893556965,1.0730541101630708,0.11205178164641161,-5.245210808869829e-05,-0.00028462316370530866,-9.913652781109506e-06,-0.0002756629078036781,0.0009473410110815975,-0.0009310215371405135,-0.0009519605644316597,-0.3301508128643036,-52.13437271118164,4.981490135192871,17.60138702392578,-1.1014913320541382,-1.4270737171173096,0.04673920199275017,,,,,,,,,
1739354818.462828,0.3331965118689732,1.1546167575009625,0.29792515345401566,-1.2202692811326854,-1.395472779713491,1.0730580448530125,0.11205264673100548,0.0010507363883249714,0.0002954609566504447,-0.0010538817212893843,-0.00023467126772234374,-0.0019150871643014242,0.0013775102363399283,-0.00022792067343763283,-0.3539545238018036,-52.13437271118164,5.029097557067871,17.62519073486328,-1.0877584218978882,-1.4334824085235596,0.03941498324275017,,,,,,,,,
1739354818.4738312,0.3331942578232924,1.1546180136966209,0.29792693616669996,-1.2202688063725837,-1.3954711540268587,1.0730546186541225,0.11204864136089765,-0.0006842630910518011,0.000581217085824534,-0.00045589262812055064,0.0011124382938180939,0.0011642317970969888,0.000718247655587832,0.00045080021536172705,-0.2825433909893036,-52.16214370727539,5.005293846130371,17.57758331298828,-1.1014913320541382,-1.4270737171173096,0.07328949868679047,,,,,,,,,
1739354818.4838784,0.33319868308542827,1.154612729136874,0.29793079859790933,-1.220270597897267,-1.395469613743452,1.0730526321590443,0.11205263078181714,0.00010605056393945644,-0.00246505883226354,0.0006542193745486344,0.00020557480702451875,-0.00029554582952954887,-0.000791609071828258,-0.002018607668917637,-0.3539545238018036,-52.08279800415039,4.953719139099121,17.60138702392578,-1.0877584218978882,-1.4142563343048096,0.03941498324275017,,,,,,,,,
1739354818.4948719,0.33319140604264386,1.154618755405178,0.2979287216969843,-1.2202704889901645,-1.39546994680859,1.0730549059219208,0.11204788218173561,-0.0013983019820458234,0.0003593932768550529,0.00039187887518958234,-0.0005216937954929896,0.001212044732679487,-0.0006023416612140437,-0.0020731778531716573,-0.2825433909893036,-52.16214370727539,4.981490135192871,17.60138702392578,-1.1014913320541382,-1.4069321155548096,0.07969819009304047,,,,,,,,,
1739354818.5058906,0.33319482213269475,1.1546187201220404,0.2979269361310505,-1.2202722157412231,-1.3954711687708754,1.0730541082426452,0.11205416140209509,-0.0001540236341861866,0.0003643426218864316,-0.0005830582209538124,-0.001590022408417019,-0.000327644062199385,0.0004678294094650619,0.00043931736917665837,-0.3301508128643036,-52.16214370727539,5.005293846130371,17.62519073486328,-1.1014913320541382,-1.4270737171173096,0.026597600430250168,,,,,,,,,
1739354818.5168867,0.3331948335793524,1.154615033207771,0.2979253885274098,-1.220272379592359,-1.39547116926229,1.0730533898104786,0.1120557673804307,0.0003997511018567358,-0.00034190068819377716,-0.0008453750119800168,-0.0005078420804131658,-0.0004589507157199117,-0.0008644228200820387,0.0009190255952358105,-0.3301508128643036,-52.11056900024414,5.029097557067871,17.62519073486328,-1.1014913320541382,-1.4206650257110596,0.012864691205322742,,,,,,,,,
1739354818.5278077,0.33319482180566,1.154615023069391,0.2979297331451935,-1.220274433873333,-1.3954720351595251,1.0730558110650097,0.11204950725802715,-0.0005124704000672392,-0.000991319801171863,0.0009159728650533733,-0.0008508834955050578,-0.00017736659423713935,-0.0007711131934048657,-0.0009370434430664048,-0.3301508128643036,-52.11056900024414,4.981490135192871,17.65296173095703,-1.0941671133041382,-1.4142563343048096,0.06596527993679047,,,,,,,,,
1739354818.537924,0.33319310961191123,1.1546150445452912,0.29792787633479345,-1.2202723092773478,-1.3954679903479048,1.0730572873550936,0.11205026486455852,-0.0015739864194371182,0.00024528381016466024,0.00021623390658378615,-4.3992736761861773e-05,0.0007810513081714729,0.0003710644687016862,0.0005856246841128627,-0.3063471019268036,-52.11056900024414,5.005293846130371,17.62519073486328,-1.1014913320541382,-1.4270737171173096,0.05955658480525017,,,,,,,,,
1739354818.5489028,0.3331949012784588,1.1546166096760921,0.2979287449313531,-1.2202667497606297,-1.3954704115483791,1.0730571847236094,0.11205197985328871,-0.0005231063927833747,-0.000778793945708524,0.0010394634377346866,3.8866555649700707e-05,-6.685061317560141e-05,0.000642707398851923,-2.5755400126150556e-05,-0.3301508128643036,-52.16214370727539,4.981490135192871,17.57758331298828,-1.1079000234603882,-1.4142563343048096,0.03300629183650017,,,,,,,,,
1739354818.5598714,0.33319653433858726,1.1546107868954085,0.2979308248388844,-1.2202684521263183,-1.3954688693270894,1.0730553379906838,0.11205684809690167,-0.000733678048995746,-0.001758553417730803,0.00043605223908977514,0.00014136518996295827,-0.00015254489915883038,0.00044936286981271754,0.0015660668020529246,-0.3539545238018036,-52.08279800415039,4.981490135192871,17.60138702392578,-1.0941671133041382,-1.4270737171173096,0.012864691205322742,,,,,,,,,
1739354818.5709202,0.3331909993113254,1.1546150446419199,0.2979269364639151,-1.220268452118092,-1.3954710144472953,1.0730558246381992,0.11205340374802646,-0.000754564268431925,-0.0009580110858007504,0.000253286449958309,0.0006876883796260165,7.223615638351675e-05,0.0020440299715437107,0.0007459525207245408,-0.3063471019268036,-52.11056900024414,5.005293846130371,17.60138702392578,-1.1143087148666382,-1.4142563343048096,0.03300629183650017,,,,,,,,,
1739354818.580927,0.3331931483859702,1.1546190190446428,0.2979289537744561,-1.2202744602189364,-1.3954711649246823,1.0730544627467953,0.11205514558880066,-0.0006687820993813299,0.0009726199718805452,0.0006783312726475546,-0.0012600484797521535,-0.001020872527035436,0.0004575917336784533,0.0013791337755224885,-0.3063471019268036,-52.16214370727539,4.981490135192871,17.65296173095703,-1.1014913320541382,-1.4206650257110596,0.019273381680250168,,,,,,,,,
1739354818.591835,0.33319506022439344,1.1546252454941806,0.2979287188093796,-1.220272380574435,-1.3954711692622683,1.073057942336127,0.11205340374269276,-2.3591900738665334e-05,0.0018040452756078597,0.0004998587447305802,-0.00018994434816249829,-0.0003208129322878904,0.0018081319276505668,0.0007886182366259415,-0.3301508128643036,-52.21371841430664,4.981490135192871,17.62519073486328,-1.1014913320541382,-1.4206650257110596,0.03300629183650017,,,,,,,,,
1739354818.6019073,0.3331947864964355,1.1546187555845293,0.29793079956088586,-1.220270518424557,-1.3954711692622928,1.07305503666796,0.11204950720403886,-0.0008031662546069732,0.000398090271113251,0.00038236225622544323,0.0007734680218366518,0.0001428773712636158,0.0007634742484155335,-0.0018907295414022657,-0.3301508128643036,-52.16214370727539,4.953719139099121,17.60138702392578,-1.1014913320541382,-1.4334824085235596,0.06596527993679047,,,,,,,,,
1739354818.612885,0.3331948257301128,1.1546187639465808,0.2979269362380334,-1.2202705184244076,-1.3954704503635542,1.0730571906996336,0.11204950720403883,0.000260216985552305,0.002028553717036334,-0.0006173990122926277,0.0005477717107628317,-0.00029928768914021155,-9.211339448566213e-05,-0.0010691784224765876,-0.3301508128643036,-52.16214370727539,5.005293846130371,17.60138702392578,-1.1079000234603882,-1.4142563343048096,0.06596527993679047,,,,,,,,,
1739354818.623902,0.3331913967641533,1.154613046931906,0.2979307986335752,-1.22027060643523,-1.395472035159744,1.073054121332607,0.11205095569923854,-0.0014406067273064717,-0.0012311155332193416,0.00040946191740131953,4.301432969360409e-05,-0.00010697467463198988,-0.0007172922399991993,0.000970030809829522,-0.2825433909893036,-52.08279800415039,4.953719139099121,17.60138702392578,-1.0941671133041382,-1.4270737171173096,0.026597600430250168,,,,,,,,,
1739354818.6349044,0.33319482278674,1.1546166485952056,0.2979331473345704,-1.2202698708679707,-1.395470556957239,1.0730573591497092,0.1120576028117508,-0.0002964972222078774,7.779590927533649e-05,0.0016842117274004417,0.0006249918761078159,-0.0004870148154950819,0.001882257499654018,0.002285093587027944,-0.3301508128643036,-52.13437271118164,4.953719139099121,17.60138702392578,-1.1079000234603882,-1.4142563343048096,0.0064559997990727425,,,,,,,,,
1739354818.6458998,0.3331951790882496,1.1546180401869595,0.2979308804642157,-1.2202705949498733,-1.395472792820424,1.0730573067948967,0.11205471704873658,0.0009900264877748066,-0.000551713365222242,0.000431738556352252,0.0006511612887158594,-0.00028290343570170305,0.001115578703774554,0.000804981880560908,-0.3301508128643036,-52.16214370727539,4.953719139099121,17.60138702392578,-1.0877584218978882,-1.4142563343048096,0.012864691205322742,,,,,,,,,
1739354818.6569061,0.3331934625036228,1.154618832578378,0.2979269370953976,-1.2202723795932395,-1.3954722289004222,1.0730529478121393,0.11205145900161256,-0.0005154267783317094,0.0005646195737510145,-0.00038328460700074026,3.7601624959828376e-05,-0.00010720707419331663,-0.0003815299674656018,-4.807243540844538e-05,-0.3063471019268036,-52.16214370727539,5.005293846130371,17.62519073486328,-1.1014913320541382,-1.4142563343048096,0.03941498324275017,,,,,,,,,
1739354818.667879,0.3331987635279855,1.1546130470410196,0.29792880525593707,-1.220268891854795,-1.3954711697488034,1.0730527108042869,0.11205404279656252,0.0011568632243065297,-0.001142118181573949,0.00016132794460322939,0.0018945006709082425,0.0012923388792143373,-0.001519839357533634,0.0018656799616832804,-0.3539545238018036,-52.08279800415039,4.981490135192871,17.57758331298828,-1.1014913320541382,-1.4142563343048096,0.026597600430250168,,,,,,,,,
1739354818.678875,0.33319653448426373,1.1546150389858325,0.2979287216974723,-1.2202709235724407,-1.3954701251077593,1.0730580733653772,0.11205157816472491,-0.00016485795619399909,-0.001243601529438396,0.0006837573335588272,7.844097914423893e-05,0.000808366465765525,0.0008957538546450277,-0.0006169715920498152,-0.3539545238018036,-52.11056900024414,4.981490135192871,17.62519073486328,-1.1143087148666382,-1.4206650257110596,0.03941498324275017,,,,,,,,,
1739354818.6888936,0.3331973119552002,1.1546187639464789,0.29792942499126335,-1.220272389158009,-1.395473265877435,1.0730557718989127,0.11205578494121872,0.00047631844611318967,-0.00013311780479771163,-0.0001806613961455907,0.00017337923691121296,-0.00193162813226756,0.00018843074677436276,0.0011638498211339356,-0.3301508128643036,-52.16214370727539,4.981490135192871,17.62519073486328,-1.0877584218978882,-1.4142563343048096,0.012864691205322742,,,,,,,,,
1739354818.6988952,0.3331965431988135,1.1546187555484342,0.2979328972012992,-1.2202723805745812,-1.395472805909567,1.073053691842366,0.11205178002194663,-0.0003892559036263128,-0.00025074021188814803,0.00026456043445126885,-0.0003423725662636614,0.000917388644217904,0.0010510235924432406,0.000838151481983942,-0.3539545238018036,-52.16214370727539,4.953719139099121,17.62519073486328,-1.0877584218978882,-1.4142563343048096,0.04673920199275017,,,,,,,,,
1739354818.7089036,0.33319696757295575,1.154615047816152,0.29792693916250274,-1.2202713121720077,-1.395472035159747,1.0730530701721517,0.11205506672915459,-0.0005425808282445225,-0.0003399547135781587,-0.001189819650912775,0.00033326104362842006,0.0013824114308765769,-0.00018883399514678053,-0.0002403318593812171,-0.3301508128643036,-52.11056900024414,5.005293846130371,17.60138702392578,-1.0941671133041382,-1.4142563343048096,0.019273381680250168,,,,,,,,,
1739354818.7199018,0.33319482279885293,1.1546167575024746,0.29793291333116706,-1.2202723815232757,-1.3954733030157398,1.0730565440172064,0.11205684809980354,-0.0004555578826128667,0.00023191635732632633,0.0015672111152719367,-0.0003890328554589836,-0.0020653377637437575,-0.0014017162828895192,0.001963715493052549,-0.3301508128643036,-52.13437271118164,4.953719139099121,17.62519073486328,-1.0877584218978882,-1.4206650257110596,0.012864691205322742,,,,,,,,,
1739354818.730869,0.33319871966644776,1.1546187554433116,0.29792693646396423,-1.2202708303201064,-1.395471169265173,1.0730551683653733,0.11205746109571164,0.0005751320409425172,-0.00018109466393704155,-0.0016437970884173756,0.0002491601414875386,0.0010232080274339222,1.173419347952272e-05,0.003304797725550581,-0.3539545238018036,-52.16214370727539,5.005293846130371,17.60138702392578,-1.1014913320541382,-1.4270737171173096,-0.0008682189509272575,,,,,,,,,
1739354818.7418325,0.3331949014244785,1.154614532577323,0.29792875443820926,-1.2202717768099385,-1.3954720366130755,1.0730549626281123,0.1120526460828371,-0.00011339468782547708,-0.0006174827953732164,-0.00045220636642783423,-0.000665774077048628,0.00025210522044397067,0.0003683076264510807,0.0011008917055046977,-0.3301508128643036,-52.13437271118164,4.981490135192871,17.62519073486328,-1.0941671133041382,-1.4069321155548096,0.03941498324275017,,,,,,,,,
1739354818.7528818,0.3331931133186142,1.1546171113647588,0.2979260933196712,-1.2202698357165132,-1.3954696146962822,1.0730526454717266,0.11205654207682453,-0.0013139870445533113,-0.0012001724456322303,-0.0010647780904049808,-0.00034962637651955297,0.0007353472217771946,-0.00034439630306018536,0.0015086829931503295,-0.3063471019268036,-52.11056900024414,5.029097557067871,17.57758331298828,-1.1143087148666382,-1.4142563343048096,0.0064559997990727425,,,,,,,,,
1739354818.7629158,0.33319407222562997,1.1546167660407218,0.29792874482434994,-1.2202716050796645,-1.3954720356433774,1.0730527505348826,0.1120517801847051,0.0002169533002403289,-0.00016995002743204772,0.0005686587377020938,-0.0008954582671225173,0.0001245096093192633,-0.0018937009423423009,-5.7003183646603265e-05,-0.3063471019268036,-52.13437271118164,4.981490135192871,17.60138702392578,-1.0941671133041382,-1.4142563343048096,0.04673920199275017,,,,,,,,,
1739354818.7738466,0.33319355147611296,1.1546151501827735,0.29792696502049215,-1.2202712866678864,-1.395475083167666,1.073054919004541,0.11205572008711474,-0.0015826209781519278,4.368864609484197e-06,0.00018089419041308468,-0.0006721749506271485,-0.00103902792254926,0.0006572335616692794,0.0017749828941737533,-0.2825433909893036,-52.08279800415039,5.005293846130371,17.60138702392578,-1.0813497304916382,-1.4069321155548096,-0.013685601763427258,,,,,,,,,
1739354818.783902,0.3331944190841225,1.1546177979512602,0.29792694512028756,-1.220268452165198,-1.3954720483193461,1.073053356540993,0.1120509037044739,-0.0002974884531043749,-0.0006168669153858476,-0.0017171782059082691,0.00020957411319198586,0.0001972609837177687,-0.0004530130571007425,-0.001033084235026494,-0.3539545238018036,-52.16214370727539,5.005293846130371,17.60138702392578,-1.0941671133041382,-1.4206650257110596,0.05314789339900017,,,,,,,,,
1739354818.7949123,0.3331974894138725,1.15461875544151,0.29792694866164116,-1.2202744688751872,-1.3954731466963053,1.0730557718368878,0.1120495182491428,0.00013121544650881919,8.054816349591405e-05,-0.00010367672982531046,-0.0014534150459186092,-0.00042686682236813396,-0.0009880912987522512,-0.00011049399273287879,-0.3539545238018036,-52.16214370727539,5.005293846130371,17.65296173095703,-1.0877584218978882,-1.4142563343048096,0.06596527993679047,,,,,,,,,
1739354818.8058693,0.3332014021366193,1.1546150449817274,0.2979276008068706,-1.220270597897561,-1.3954752271618585,1.0730538658212667,0.11205740412208345,0.0008173454490720729,0.00027249273357111037,-0.0003041486890711098,0.00024017220540955916,-0.0004831407493841465,9.485434867657112e-05,0.0013292800318375204,-0.3817255198955536,-52.11056900024414,5.029097557067871,17.60138702392578,-1.0941671133041382,-1.4206650257110596,-0.0008682189509272575,,,,,,,,,
1739354818.8168902,0.333198571021805,1.1546188321243678,0.29792611779350936,-1.2202751365783797,-1.3954746501607382,1.0730535082668204,0.1120537654619955,-0.0002986741554977932,0.0006524533785284424,-0.001618309799200454,-0.0006411736431891106,-0.0016144694659299152,-0.001651873411163216,5.233749560577133e-05,-0.3817255198955536,-52.16214370727539,4.981490135192871,17.62519073486328,-1.1079000234603882,-1.4206650257110596,0.06596527993679047,,,,,,,,,
1739354818.8278155,0.3331962356899666,1.1546203922708467,0.29792873141906934,-1.2202715163709985,-1.395472035183452,1.0730517333069192,0.11204955910747273,-0.0004303812421481278,0.0007522191563662972,0.0013298013212657282,-0.00013111778341224283,0.0013188975975368233,-0.0020442858622495034,-0.0008584191099030627,-0.3063471019268036,-52.18594741821289,4.981490135192871,17.60138702392578,-1.0941671133041382,-1.4069321155548096,0.05314789339900017,,,,,,,,,
1739354818.837876,0.333196534488287,1.1546187639452987,0.2979261017665597,-1.2202732989430358,-1.3954721528970955,1.0730574186047392,0.11205412182485536,-3.609319301186198e-05,0.001145406031244268,-0.0011561560855701978,-0.0010619449166732004,0.001070305083039042,0.0013012107350325783,-0.00033883056424404307,-0.3539545238018036,-52.16214370727539,5.029097557067871,17.62519073486328,-1.0941671133041382,-1.4270737171173096,0.026597600430250168,,,,,,,,,
1739354818.8488655,0.33319482311378973,1.1546188239018373,0.2979329174737379,-1.2202695282269707,-1.395473309530463,1.0730520464466522,0.11205816178175133,-0.0010592712678815334,-0.0001998895374081116,0.0006962190298100279,0.0010533545333672742,-0.0004827689849465967,-0.002648391690622695,0.0005813242472767195,-0.3301508128643036,-52.13437271118164,4.953719139099121,17.57758331298828,-1.0877584218978882,-1.4005234241485596,-0.0072769103571772575,,,,,,,,,
1739354818.8588736,0.33320070463438145,1.154621124946901,0.29792872012790594,-1.2202712895086987,-1.3954746101265618,1.0730537068267896,0.1120505459417746,0.000445907353027065,0.0013211300783684233,-0.0010455863584787537,-0.00037294009277561915,-0.0006259725353781779,-0.00034562564946924603,-0.00042825194141856094,-0.3817255198955536,-52.16214370727539,4.981490135192871,17.60138702392578,-1.0813497304916382,-1.4142563343048096,0.05314789339900017,,,,,,,,,
1739354818.8699172,0.33319688308163065,1.1546194442214714,0.29792515345402254,-1.2202727757179699,-1.3954738524637145,1.073052606046619,0.11204899470760436,-0.00032893833063582306,0.0021520908502408705,-0.0021135624125737666,-0.0004526435587322488,0.0010800579734141884,-0.0015552670203604858,-0.0021022229588463083,-0.3539545238018036,-52.16214370727539,5.029097557067871,17.60138702392578,-1.0877584218978882,-1.4142563343048096,0.07328949868679047,,,,,,,,,
1739354818.8818715,0.33320071760926395,1.1546150789986913,0.297927965346966,-1.2202726470224898,-1.3954715235741344,1.0730557734878967,0.11204884076079313,0.001033473635376917,-0.0011483441990320247,0.00033061870435927915,-0.0004394030560225817,0.00046235263423702257,-0.0005444247580141811,-0.0019665279523974396,-0.3817255198955536,-52.11056900024414,5.029097557067871,17.62519073486328,-1.1079000234603882,-1.4142563343048096,0.05955658480525017,,,,,,,,,
1739354818.8928277,0.33319537382335446,1.1546149655089315,0.2979297454657528,-1.2202736121492892,-1.3954711694258908,1.0730540639751576,0.11205198033739694,-0.001846232694096815,-0.0004526115801847427,0.0014434640211811167,-0.0005714965571290716,0.002673792815466274,0.0010133650834989153,-0.0016371131752828034,-0.3063471019268036,-52.11056900024414,4.981490135192871,17.60138702392578,-1.1014913320541382,-1.4142563343048096,0.03300629183650017,,,,,,,,,
1739354818.9029517,0.33319506164741836,1.1546139078131636,0.297925413509975,-1.220271801280679,-1.3954766681086843,1.0730521994858793,0.11204788503477542,-0.00158534054433756,-0.0018710336102387465,-0.0009098568338440944,-0.00045213779945027147,-0.0022239377907329067,-0.002970426765752248,-0.001230308517428525,-0.3301508128643036,-52.13437271118164,5.029097557067871,17.57758331298828,-1.0941671133041382,-1.4069321155548096,0.07969819009304047,,,,,,,,,
1739354818.9148524,0.3331980126395449,1.1546187583890153,0.2979287275823333,-1.2202744688731793,-1.3954770837086474,1.0730527868616702,0.11204950720404144,0.00026619835514687923,-0.0004196590989973605,0.0009735170528586486,-0.0003436731978872071,-0.0006103039762496501,-0.0010818853851623472,-0.0011020913664226873,-0.3301508128643036,-52.16214370727539,4.981490135192871,17.65296173095703,-1.0877584218978882,-1.4069321155548096,0.06596527993679047,,,,,,,,,
1739354818.9248815,0.3331955033364687,1.1546167660057443,0.2979329056273832,-1.2202705983173794,-1.3954732524513256,1.0730538095859175,0.11204646117366854,-0.000691374718539765,-0.0008005543853426163,0.0007853658839791009,0.0011187037185046824,0.0009626121675088595,0.0003470597815565809,-0.001497053254932958,-0.3063471019268036,-52.13437271118164,4.953719139099121,17.60138702392578,-1.0941671133041382,-1.4142563343048096,0.06596527993679047,,,,,,,,,
1739354818.935862,0.33319760426183664,1.1546140022414664,0.29792593490394276,-1.2202688917498208,-1.3954735047056956,1.0730562965574386,0.11205335098821022,0.001071432179290604,-0.0008628091657995348,-0.0005477438709402288,0.000725697377696277,-3.2297710043376125e-05,-0.0007566896358865294,-9.189025309725186e-05,-0.3539545238018036,-52.08279800415039,5.029097557067871,17.57758331298828,-1.0941671133041382,-1.4142563343048096,0.03300629183650017,,,,,,,,,
1739354818.946839,0.333199514401079,1.154618843933575,0.2979287188124645,-1.2202705988426565,-1.3954715623751772,1.0730579613007445,0.11205342126609237,0.0012563294085404784,-0.0002764695332851754,-0.00018215691475193134,0.00035070717999965506,-0.00037995384392391473,-0.00020481083650794352,0.0010142417852217075,-0.3539545238018036,-52.16214370727539,4.981490135192871,17.60138702392578,-1.1014913320541382,-1.4206650257110596,0.03300629183650017,,,,,,,,,
1739354818.957832,0.33319792566093404,1.154618827576541,0.29792907212110187,-1.2202723846686077,-1.3954743364921838,1.0730533566201912,0.11204858227661157,-0.0002943896511631921,-0.0010280472522253546,-0.00043631674722049074,0.0001536433494573748,-0.0005049379782819699,0.0006296527496159285,-0.0001029987343697674,-0.3301508128643036,-52.13437271118164,5.005293846130371,17.62519073486328,-1.0877584218978882,-1.4206650257110596,0.04673920199275017,,,,,,,,,
1739354818.967861,0.3331980364208655,1.1546195229330307,0.2979287189512238,-1.2202723929619834,-1.395475813381471,1.0730510092392143,0.11205590368139985,0.00026324415642859863,-0.0003700721229298159,-0.0008861248345738999,-0.001008513082336399,-0.0014781326893603163,-0.0022253426042830437,0.0018331657731609186,-0.3301508128643036,-52.18594741821289,4.981490135192871,17.62519073486328,-1.1014913320541382,-1.4005234241485596,0.012864691205322742,,,,,,,,,
1739354818.977876,0.3331987728118047,1.1546171962927647,0.2979272944729653,-1.2202745368939218,-1.3954759907087932,1.0730533961098716,0.1120479646599184,-0.0004730530226253951,-0.0002959923245439199,-0.00039683584660384227,-0.001135933877676452,0.0006446673456667367,-0.0027343912656948312,-0.0027770271301155087,-0.3539545238018036,-52.11056900024414,5.029097557067871,17.65296173095703,-1.0877584218978882,-1.4206650257110596,0.06596527993679047,,,,,,,,,
1739354818.9888642,0.33319771830780515,1.154616783129388,0.2979294583865045,-1.2202706049839063,-1.3954772003624019,1.0730525931201413,0.11204995443660866,-0.0006458070498633697,0.00017455703049700378,-0.001099004766135506,0.0003601348281287655,-0.0010498282682226215,-0.0011916538420926744,-0.0015865814059049846,-0.3301508128643036,-52.13437271118164,4.981490135192871,17.60138702392578,-1.0813497304916382,-1.4142563343048096,0.05314789339900017,,,,,,,,,
1739354818.9998267,0.3331977990925746,1.1546191639277128,0.2979289528513142,-1.2202705978974568,-1.3954739458494885,1.0730557725187901,0.11205725124635195,0.000360700653594802,0.0009048621249698168,0.0003995693237847968,0.0004748505345504387,-0.00031030685505345707,-0.0012890399666112625,0.0014687596024209283,-0.3301508128643036,-52.13437271118164,4.981490135192871,17.60138702392578,-1.1079000234603882,-1.4142563343048096,0.0064559997990727425,,,,,,,,,
1739354819.0098958,0.3331997525369901,1.1546190993940528,0.2979329084845625,-1.2202745709067877,-1.3954732524869562,1.0730529642597257,0.11205095326972903,0.0016754730625218148,0.0007641784432828663,0.00048008218670475035,-0.001812779882642427,-6.145834633815774e-05,-0.0014999311777701319,-0.0004966691348648521,-0.3539545238018036,-52.16214370727539,4.953719139099121,17.65296173095703,-1.0941671133041382,-1.4142563343048096,0.026597600430250168,,,,,,,,,
1739354819.0208569,0.3331994792372901,1.1546208982690258,0.29793161375204885,-1.2202720254660762,-1.3954709348871748,1.0730558306628952,0.11204712596853973,0.0011372606172273512,0.0008956692096608377,0.001438578257417074,0.0018553162566977343,0.001695422599653263,-0.00046822050715438163,-0.001428174597763307,-0.3539545238018036,-52.16214370727539,4.953719139099121,17.60138702392578,-1.1079000234603882,-1.4142563343048096,0.08610688149929047,,,,,,,,,
1739354819.0318453,0.33319792260828,1.1546167688872397,0.29792540040872817,-1.2202715706375216,-1.3954763919370832,1.073052769502258,0.11205578495930389,0.00048670121975333264,-1.98826807390961e-06,-0.0010464899253806127,-0.000781468986743224,0.00029152251395986957,-0.0019308532342605846,-0.00038888612083839844,-0.3301508128643036,-52.13437271118164,5.029097557067871,17.57758331298828,-1.0941671133041382,-1.4142563343048096,0.012864691205322742,,,,,,,,,
1739354819.0428562,0.333195087857801,1.1546167698901295,0.29792895420662246,-1.2202706235588654,-1.3954728104974943,1.0730577637076648,0.11204950915119051,-5.463556698725519e-05,0.0008617105974775751,-0.00013115928282496706,0.0011130477464698623,-1.911894176406112e-05,0.0007291532556418012,-2.8572794677318995e-05,-0.3301508128643036,-52.13437271118164,4.981490135192871,17.60138702392578,-1.0877584218978882,-1.4206650257110596,0.06596527993679047,,,,,,,,,
1739354819.0538008,0.333197077608061,1.1546159757223209,0.29793083778685536,-1.220270881514895,-1.3954720880257858,1.0730531457510988,0.11205578544610291,-0.0006703470181183975,0.0007622309202969637,-0.0013100768608216014,0.0005192126563697717,0.0012174649397828413,-0.0013087196530345477,0.0006742834286537681,-0.3301508128643036,-52.11056900024414,4.981490135192871,17.57758331298828,-1.0941671133041382,-1.4069321155548096,0.012864691205322742,,,,,,,,,
1739354819.063899,0.3331980404509762,1.154619852802585,0.29792724818322197,-1.2202691242891457,-1.3954752554734762,1.073055828569235,0.11205502729933851,0.0004612051473468568,0.000890909051937135,-0.0016111700160200712,0.0011794637946929193,0.0008863037403088925,-0.000140021177423043,0.0003531098380310998,-0.3301508128643036,-52.13437271118164,5.005293846130371,17.57758331298828,-1.0941671133041382,-1.4142563343048096,0.019273381680250168,,,,,,,,,
1739354819.0749211,0.3331980404564114,1.1546205061237043,0.2979318488097036,-1.2202723806846487,-1.3954735926707114,1.0730583906000266,0.11204903062125192,0.0007126402551308075,0.0006615051718120258,5.2562874788033586e-05,-1.7972217445835423e-05,0.0013948004601002802,0.00038869661281336646,-0.0024301602490326524,-0.3301508128643036,-52.18594741821289,4.981490135192871,17.62519073486328,-1.1079000234603882,-1.4270737171173096,0.06596527993679047,,,,,,,,,
1739354819.0868723,0.33319895823643275,1.1546225682715425,0.2979295346100459,-1.2202747239656289,-1.3954763821436085,1.0730552607201336,0.1120558380182906,-0.00020471276836262116,0.00153606689459311,-9.300400542550536e-05,-0.0005219811981333117,-0.0013205112406883687,-0.0009069873047695814,0.000968913027635953,-0.3539545238018036,-52.18594741821289,4.981490135192871,17.65296173095703,-1.0877584218978882,-1.4005234241485596,0.012864691205322742,,,,,,,,,
1739354819.0978448,0.33319629261291384,1.1546168684804856,0.2979300081363178,-1.2202724060847387,-1.3954753901396977,1.0730559346964144,0.11205339788250043,-0.001042955650007581,-0.00017571106886202226,0.0006065956793263441,8.561718812953728e-05,-0.0001700055112360227,-0.0004851993435863698,-0.0003479389448651982,-0.3063471019268036,-52.13437271118164,5.005293846130371,17.62519073486328,-1.0941671133041382,-1.4142563343048096,0.03300629183650017,,,,,,,,,
1739354819.108795,0.33319731626114074,1.1546187567036816,0.29793008636725926,-1.2202726982399816,-1.3954757027010758,1.0730558306258282,0.11205340107740216,0.00032705896806582626,-0.0004010414659056464,7.154848316889714e-05,-0.00043134876387224727,-0.0013238511025771955,-0.0007523275961771351,-0.00042753654157314067,-0.3301508128643036,-52.16214370727539,5.005293846130371,17.60138702392578,-1.0941671133041382,-1.4142563343048096,0.03300629183650017,,,,,,,,,
1739354819.1198251,0.333197325196586,1.1546168627960305,0.2979275975075206,-1.2202723806212852,-1.3954707779714148,1.073056901659985,0.11205086431476131,0.0007545613819369975,0.0001249179244780124,0.00029676874097084077,6.733250324705483e-05,0.0008167428461302086,-0.00023606757184276768,-0.0005377987171517216,-0.3301508128643036,-52.13437271118164,5.029097557067871,17.62519073486328,-1.1079000234603882,-1.4206650257110596,0.05314789339900017,,,,,,,,,
1739354819.131895,0.33319632760459383,1.1546168718247798,0.29792906948815506,-1.2202747104701255,-1.3954766329563624,1.0730558910300976,0.11205026464664138,-0.0009582627130567953,2.9979734992589417e-05,-0.00024847819120059486,-0.0002745523292727654,-0.0003936751962009837,-0.001213719418043861,-0.0018523626318484375,-0.3063471019268036,-52.13437271118164,4.981490135192871,17.62519073486328,-1.0941671133041382,-1.4142563343048096,0.05955658480525017,,,,,,,,,
1739354819.1428819,0.3331979521532334,1.1546188363944612,0.29793182170817273,-1.220271803768053,-1.3954750947149919,1.0730579874678927,0.11204961230934823,-0.000582313576750287,-0.000550856583220391,0.0017659619645978655,0.0005337002354125599,-0.0012920393229849574,0.0003095299131808439,-0.0009738852225836521,-0.3301508128643036,-52.13437271118164,4.953719139099121,17.57758331298828,-1.0813497304916382,-1.4206650257110596,0.06596527993679047,,,,,,,,,
1739354819.1538403,0.33319630144422857,1.1546161337392347,0.29792619650658597,-1.220274455528899,-1.3954725106945136,1.0730580794742641,0.11204864130739976,-0.0008535919835414163,-0.00030117293908928945,-0.0008266771043641164,-0.0004535715796397933,-9.136127029640285e-05,0.0007482341968082092,-0.0012056573279246236,-0.3063471019268036,-52.08279800415039,5.029097557067871,17.62519073486328,-1.0941671133041382,-1.4206650257110596,0.07328949868679047,,,,,,,,,
1739354819.1638682,0.3331963279352317,1.154619455598061,0.29792943089373825,-1.2202730694793382,-1.3954732833201118,1.0730568709445076,0.11205256802549236,-0.0004057291415568871,0.0003327671196411015,-0.0001200185463420591,-0.00013030507288028958,-0.001328834705850698,-0.0009423282527721795,-0.0002768279834054149,-0.3063471019268036,-52.16214370727539,4.981490135192871,17.62519073486328,-1.0877584218978882,-1.4142563343048096,0.012864691205322742,,,,,,,,,
1739354819.1738756,0.3331980403473952,1.154616042815452,0.29792799906322154,-1.2202775328904683,-1.3954748646798416,1.0730541257397521,0.11204863490440092,0.000756359289743437,0.00021530355714674266,0.0005712913603618761,-0.0013944160904273226,0.0009361107841590521,-0.000268388540559383,-0.002655644361249298,-0.3301508128643036,-52.11056900024414,5.029097557067871,17.65296173095703,-1.1014913320541382,-1.4270737171173096,0.07328949868679047,,,,,,,,,
1739354819.1847973,0.3331997264861876,1.154617480297217,0.29792727546813447,-1.2202726898585878,-1.3954743894231867,1.073058116756175,0.11205654261927392,0.00047794203089286127,0.0009894882822684336,-0.0002136517582140298,0.0005340188236192503,0.0004818216779358541,0.0009073012662438904,0.001478056762767831,-0.3539545238018036,-52.13437271118164,5.005293846130371,17.60138702392578,-1.1014913320541382,-1.4206650257110596,0.0064559997990727425,,,,,,,,,
1739354819.194893,0.33319793154900973,1.154620706094646,0.29793372358907844,-1.2202727747810673,-1.3954740275479627,1.0730581052082169,0.11205544213039378,-3.0281860547853087e-05,0.00030001711162611674,0.001406444476033367,-0.0005693141591541772,2.8278831538302966e-05,0.0011350677902467448,0.0004852510594400166,-0.3301508128643036,-52.18594741821289,4.953719139099121,17.60138702392578,-1.0877584218978882,-1.4206650257110596,0.012864691205322742,,,,,,,,,
1739354819.2058735,0.33319903772079057,1.1546227980010477,0.29793376748204964,-1.2202705989944846,-1.395475686700054,1.0730573605761904,0.11204712451980835,0.00019716795271262357,0.0010229004199092744,0.0009442485849808434,-0.00044140153842724383,0.00013541397802769835,0.0015514139922086826,-0.0027630834611794067,-0.3539545238018036,-52.18594741821289,4.953719139099121,17.60138702392578,-1.0941671133041382,-1.4142563343048096,0.08610688149929047,,,,,,,,,
1739354819.2158794,0.33319975296502974,1.1546197533046385,0.2979318778510059,-1.220270601676666,-1.395473219057287,1.0730545868090942,0.11205264608192184,2.896962881423045e-05,0.001405440417755103,0.0007727274277477184,0.0003995914116360676,5.025506595695596e-06,0.0010077716347114236,0.00032875413088367494,-0.3539545238018036,-52.16214370727539,4.981490135192871,17.60138702392578,-1.0941671133041382,-1.4206650257110596,0.03941498324275017,,,,,,,,,
1739354819.2268717,0.3331980404564114,1.1546169883560964,0.2979357403211009,-1.220272380679436,-1.395476762273114,1.0730580011248596,0.11205563581376257,-0.0004390170358873559,-0.0006623324277537669,0.001057789956948147,2.6357556268642875e-05,-0.0008168569711130358,0.0010572672986566144,0.001348424996338029,-0.3301508128643036,-52.13437271118164,4.929915428161621,17.62519073486328,-1.0941671133041382,-1.4206650257110596,0.05314789339900017,,,,,,,,,
1739354819.2369127,0.3331997265931869,1.1546187810620065,0.2979317998530862,-1.22027342990589,-1.3954754477867433,1.073055355809969,0.11206166701547347,0.0008010333870918357,-0.0014075099364922019,3.135901228608096e-05,-0.0007931970399285828,-6.625032369630751e-07,0.0015118320923948102,0.003026788116693501,-0.3539545238018036,-52.16214370727539,4.981490135192871,17.60138702392578,-1.1014913320541382,-1.4334824085235596,-0.0008682189509272575,,,,,,,,,
1739354819.247827,0.3331997529769937,1.154620936094528,0.29793393132226914,-1.2202753691220296,-1.3954727529025208,1.0730559085092555,0.11205506675319671,0.000730530820272277,0.001071086444665413,0.0005263574221397263,-0.0006412513226094882,0.0006136836310363519,-0.0007539800119012339,0.0014786667921725847,-0.3539545238018036,-52.16214370727539,4.953719139099121,17.62519073486328,-1.1014913320541382,-1.4142563343048096,0.019273381680250168,,,,,,,,,
1739354819.2589722,0.33319804045641144,1.1546170677266168,0.297923424526478,-1.2202684402522601,-1.3954735968242598,1.0730532970756341,0.11205178034719965,-1.9493057731450898e-06,6.889940675537268e-05,-0.001830493918978531,0.0009332652641007733,0.0008233047794896672,-0.00029138578841298444,-4.630274613163371e-05,-0.3301508128643036,-52.13437271118164,5.056868553161621,17.57758331298828,-1.1079000234603882,-1.4069321155548096,0.04673920199275017,,,,,,,,,
1739354819.2698967,0.33319223122915803,1.1546150454033932,0.29793176711485697,-1.2202751441697173,-1.3954768028761482,1.0730553269546919,0.1120509576524476,-0.0023090631389486443,-0.0026156240755884205,0.0003727862171402746,-0.00014434873418103138,-0.00048706939577589553,-0.0007936466325135631,-0.0001891132735479115,-0.2825433909893036,-52.11056900024414,4.981490135192871,17.62519073486328,-1.0941671133041382,-1.4270737171173096,0.026597600430250168,,,,,,,,,
1739354819.2799501,0.33319804330496616,1.1546198555267824,0.29792798914454977,-1.2202723806212377,-1.395472094819363,1.0730570073572798,0.11205026481030181,-0.0002904497842433166,0.0008516023640225005,-2.42871587988926e-05,0.0012441879233896843,0.0018957633896107581,0.0019175804920879126,-0.00202288331287483,-0.3301508128643036,-52.13437271118164,5.005293846130371,17.62519073486328,-1.1207174062728882,-1.4142563343048096,0.05955658480525017,,,,,,,,,
1739354819.290881,0.33319732520069023,1.1546211280128054,0.297927873577292,-1.2202746792914727,-1.3954767991615948,1.0730566493949072,0.1120557849593037,6.249299946579397e-05,0.0004728773899113688,-0.00100449847171586,0.0004501953297380947,-0.0009768597771114907,0.0003230844578104035,0.0015550171084079752,-0.3301508128643036,-52.16214370727539,5.005293846130371,17.62519073486328,-1.0941671133041382,-1.4206650257110596,0.012864691205322742,,,,,,,,,
1739354819.3018274,0.33319985793760215,1.1546151471743193,0.29793186592930265,-1.2202734553586854,-1.3954758983879936,1.0730579614599647,0.11205026470179025,0.0014565749457217836,-0.00042473393071394884,0.00044057408869944536,-0.0002711598747148885,0.0006069068958425197,0.000862633698138345,0.00038825508600491467,-0.3539545238018036,-52.11056900024414,4.981490135192871,17.60138702392578,-1.1014913320541382,-1.4206650257110596,0.05955658480525017,,,,,,,,,
1739354819.3128946,0.3331978017125611,1.154619779943893,0.2979318767840498,-1.2202772526342538,-1.3954716990806928,1.0730581000373836,0.11205705107952178,0.00037282735445826276,0.0006024008525542552,-0.0003589536398355832,-0.0027509813001728336,-0.00017870958181977952,0.0009943775942598174,0.0016098441038804412,-0.3301508128643036,-52.13437271118164,4.981490135192871,17.65296173095703,-1.1014913320541382,-1.4206650257110596,-0.0008682189509272575,,,,,,,,,
1739354819.3238657,0.333196327935231,1.1546211920073335,0.2979318515063003,-1.220274777964891,-1.3954748758881974,1.0730562604360918,0.11205502729866318,-0.0009408290335957698,0.0003055498278939899,0.0012095555135451994,-0.0018733007727178767,-0.001129467434909864,0.0006500137823328077,0.0004264761841129782,-0.3063471019268036,-52.18594741821289,4.953719139099121,17.65296173095703,-1.1014913320541382,-1.4142563343048096,0.019273381680250168,,,,,,,,,
1739354819.3347878,0.3332017509179957,1.1546155399603704,0.2979337265722117,-1.2202715200314858,-1.39547451169509,1.0730533033763385,0.1120510774622773,0.0017852127516340352,-0.000747926890659592,0.0006080879093809504,0.00047583465394824035,0.0012254110315339062,-0.0005306979261773489,-0.0017517176915205458,-0.3817255198955536,-52.13437271118164,4.953719139099121,17.60138702392578,-1.1014913320541382,-1.4069321155548096,0.07969819009304047,,,,,,,,,
1739354819.344905,0.33319804045641144,1.1546188266106145,0.2979272784654579,-1.2202744641591388,-1.395475179949648,1.073057198424441,0.1120494430354281,0.00017907116030181449,-0.0003984217327372089,-0.001891494915593797,-0.0005829479188287896,-0.0005500041404012269,-0.0006362134455187651,-0.0006012952342212307,-0.3301508128643036,-52.13437271118164,5.005293846130371,17.65296173095703,-1.1079000234603882,-1.4142563343048096,0.03941498324275017,,,,,,,,,
1739354819.3558705,0.3331965619391005,1.1546150793214192,0.29793009501864354,-1.2202726982048662,-1.3954759376338748,1.0730549122464152,0.11204361342280167,-1.2966982507221574e-05,-0.0016676486724651965,-0.0003165739059043318,0.0006069467293264129,-0.0007746752300856653,-0.0001871340100510194,-0.0028033991879864617,-0.3063471019268036,-52.11056900024414,5.005293846130371,17.60138702392578,-1.1014913320541382,-1.4069321155548096,0.07969819009304047,,,,,,,,,
1739354819.366844,0.33319805201345687,1.1546189964744373,0.29793186501453156,-1.2202736962835188,-1.3954775611911856,1.0730568888633587,0.11205578488094269,0.000863248204112963,0.00015181884450626425,0.0005875930089856054,-0.001544683560088396,-0.0013327113422259736,2.9356481145900298e-05,0.00025530575997147675,-0.3301508128643036,-52.16214370727539,4.981490135192871,17.60138702392578,-1.0877584218978882,-1.4142563343048096,0.012864691205322742,,,,,,,,,
1739354819.3778613,0.333198036531891,1.1546180675277706,0.29793001239812117,-1.2202732992599077,-1.395474518484318,1.0730549205846438,0.11205416091380088,-0.0005896133841001885,0.001537609269907223,0.0003363543132462315,-0.0010110992108346892,0.0014601127243950678,-0.0006729828774134825,0.001578519562932226,-0.3301508128643036,-52.11056900024414,5.005293846130371,17.62519073486328,-1.1014913320541382,-1.4206650257110596,0.026597600430250168,,,,,,,,,
1739354819.3878727,0.3331963279356138,1.1546233929173761,0.297930941732146,-1.2202688411656772,-1.3954751739740565,1.0730573612219612,0.11205654213107204,-0.0012078154205964475,0.002032761117180952,-0.0008190734334549849,0.0020818134035569666,-0.0004527676844795195,0.0007111404369784813,0.0009686173882553848,-0.3063471019268036,-52.21371841430664,4.981490135192871,17.57758331298828,-1.1079000234603882,-1.4142563343048096,0.0064559997990727425,,,,,,,,,
1739354819.3998284,0.33319804045641144,1.154620850227098,0.29792830382811036,-1.220269503876312,-1.3954751799199274,1.0730573220302684,0.11205578056458292,6.897952643856182e-05,0.0007168831750817326,-0.00030307489668384444,0.0010495389100368035,5.338591245496822e-05,-0.00035615734813423337,0.000583737277493314,-0.3301508128643036,-52.16214370727539,5.029097557067871,17.57758331298828,-1.1079000234603882,-1.4142563343048096,0.012864691205322742,,,,,,,,,
1739354819.4107976,0.33319632793568027,1.1546140769280415,0.29793117252699575,-1.2202736944909132,-1.3954764870175533,1.0730541685797061,0.11204950215822632,-0.00041462664071266556,-0.0008913816141054491,0.00047442888262358456,-0.001119851957312196,0.0007846346632661501,-0.0006729630626236896,-0.0010711837299394542,-0.3063471019268036,-52.08279800415039,4.981490135192871,17.60138702392578,-1.0877584218978882,-1.4142563343048096,0.06596527993679047,,,,,,,,,
1739354819.4208603,0.3331963366024736,1.15461962406634,0.29792977181149943,-1.2202713891737837,-1.3954740290458965,1.0730570403478525,0.1120541614020179,-0.00044135939815018936,7.27158899128679e-05,0.0009227111767348753,0.00017068870752133422,0.0005550204487950073,8.023880939804471e-05,0.0005320039642105475,-0.3063471019268036,-52.13437271118164,4.981490135192871,17.60138702392578,-1.0877584218978882,-1.4206650257110596,0.026597600430250168,,,,,,,,,
1739354819.4318588,0.3331984339665113,1.1546167915317163,0.2979319099536851,-1.2202670697102802,-1.3954758215869794,1.073057191204658,0.11205340374202502,-0.00021694442457821032,0.00023573683716640663,0.0010750951181531356,0.0011082260396107677,-0.0006862305867538132,-0.0004817357858050346,0.0004714888098250547,-0.3063471019268036,-52.13437271118164,4.981490135192871,17.55377960205078,-1.1014913320541382,-1.4142563343048096,0.03300629183650017,,,,,,,,,
1739354819.4418693,0.3331980405990747,1.1546197449848554,0.2979357904443,-1.2202718763978455,-1.3954747092902862,1.0730577599064128,0.11204950280932051,0.0004401812078993538,0.0005713337662070497,0.0013995371251344533,0.00026548555835092223,-0.0013602054864843346,0.0002713713083214906,-0.0012990595834296266,-0.3301508128643036,-52.13437271118164,4.953719139099121,17.57758331298828,-1.0941671133041382,-1.4206650257110596,0.06596527993679047,,,,,,,,,
1739354819.452848,0.333198040420073,1.154618827908263,0.2979270444815126,-1.2202688448417958,-1.3954729694040726,1.0730573481396626,0.1120494940198756,-0.0005880178099736703,-0.0007729664169547366,-0.0018020981494888935,0.0017394253471212276,0.0006001222356165088,0.0008946707496274031,-0.001190394523893883,-0.3301508128643036,-52.13437271118164,5.005293846130371,17.57758331298828,-1.0877584218978882,-1.4142563343048096,0.06596527993679047,,,,,,,,,
1739354819.4628634,0.3331991932408663,1.1546151900046882,0.2979318778025625,-1.220279265586495,-1.395476803453345,1.0730581184514645,0.11205177432486658,0.00021981950351277653,-0.0016518549841378885,0.0022300499509254577,-0.0019715075948062485,-0.0002259010793112038,0.000346079858129333,-0.0011493189758907,-0.3301508128643036,-52.08279800415039,4.981490135192871,17.67676544189453,-1.0941671133041382,-1.4206650257110596,0.04673920199275017,,,,,,,,,
1739354819.4731174,0.33319843387696857,1.1546205057926404,0.29793186918743203,-1.2202727786696614,-1.3954751667303373,1.0730566871892033,0.11205482321550321,0.00016642133798770676,0.0012335495229979115,0.0007850928439028854,-0.0002612620335373975,0.00011748175324282493,-0.0016053556802514204,0.00027561346197627583,-0.3063471019268036,-52.18594741821289,4.981490135192871,17.60138702392578,-1.1079000234603882,-1.4206650257110596,0.03300629183650017,,,,,,,,,
1739354819.4837828,0.33319804046829954,1.154617067854492,0.29793187781851155,-1.2202709068618323,-1.3954773656408879,1.0730581189281214,0.11205654262739531,-0.0004518555647269722,-7.228748567438826e-05,-1.8304020993706468e-06,0.0004969262198547275,0.0003525999528983364,-3.131123482087971e-05,0.000446458569994402,-0.3301508128643036,-52.13437271118164,4.981490135192871,17.60138702392578,-1.1079000234603882,-1.4206650257110596,0.0064559997990727425,,,,,,,,,
1739354819.4938424,0.33319734989285915,1.1546191583689567,0.2979300922882755,-1.2202772635437942,-1.3954756185028196,1.0730549250017964,0.11205531032972536,9.286492063032985e-05,0.0015350761553771877,-0.000158628000325321,-0.0016345289272542878,-0.0014065173819134788,0.0003216580275665499,-0.00031891984803242854,-0.3301508128643036,-52.13437271118164,5.005293846130371,17.67676544189453,-1.0813497304916382,-1.4206650257110596,0.012864691205322742,,,,,,,,,
1739354819.503866,0.33319975296544796,1.1546232260032394,0.29793187785417735,-1.2202727024212723,-1.3954768015473098,1.0730549380296592,0.11204998035386007,0.0012696389937480684,0.0016512599470589707,0.0008519725439891452,0.00018956121751665544,-0.0012191833189899623,1.1514554239980962e-05,-0.00014936809107650743,-0.3539545238018036,-52.18594741821289,4.981490135192871,17.60138702392578,-1.0941671133041382,-1.4206650257110596,0.06596527993679047,,,,,,,,,
1739354819.5148342,0.33319975254107753,1.154618186009315,0.29793187781856045,-1.2202736935191052,-1.3954751799737852,1.0730563016200398,0.11205010665736895,0.00095486505148044,-0.00036215860019483915,-0.00011947188707970484,-0.00034867019621462537,0.0017326632498283103,0.0005006201049246266,-0.0005918080096211483,-0.3539545238018036,-52.08279800415039,4.981490135192871,17.60138702392578,-1.1079000234603882,-1.4142563343048096,0.05955658480525017,,,,,,,,,
1739354819.5258698,0.3331997529771353,1.1546167665126708,0.29793187785422565,-1.2202736945044574,-1.3954765060227232,1.073058407168335,0.1120548646920786,0.0009555031026105861,-0.000986797469748992,-0.0005541069022327874,-0.0013260985323989487,3.074747011191806e-05,-0.00013457429997752585,-1.575081315650581e-05,-0.3539545238018036,-52.13437271118164,4.981490135192871,17.60138702392578,-1.0877584218978882,-1.4142563343048096,0.019273381680250168,,,,,,,,,
1739354819.5367947,0.33319804031105643,1.1546152281119115,0.2979297718234442,-1.2202733754743822,-1.395476450312441,1.0730572435444596,0.1120526414692873,-0.00026518792936375545,-0.001720867090820839,-0.0004946500948390718,-0.00021961702685926104,-0.00010020885088223624,-0.0009056520260789792,-0.0017658943082407873,-0.3301508128643036,-52.08279800415039,4.981490135192871,17.62519073486328,-1.0941671133041382,-1.4142563343048096,0.03941498324275017,,,,,,,,,
1739354819.5468397,0.3332034634387261,1.1546178770375035,0.2979318776996744,-1.220273583600217,-1.3954779232322192,1.073058118935539,0.11205842030959752,0.0011224237895020356,-0.0005145872188390875,-0.00014785881738924657,-0.0005130996673228811,0.0003434591709900091,0.00047181031665516316,0.0022782224970122836,-0.4055292308330536,-52.11056900024414,4.981490135192871,17.60138702392578,-1.0877584218978882,-1.4206650257110596,0.026597600430250168,,,,,,,,,
1739354819.5578043,0.333198048796156,1.1546218548833305,0.29793009489255273,-1.220274545518814,-1.3954767258610785,1.0730549268860283,0.11205034952114173,-0.00011602234062272762,0.0015993943758825812,-0.00041570485085754206,-0.001420478645245959,-0.0007740212990011687,-0.0003361781335157761,-0.0006117325898670526,-0.3301508128643036,-52.16214370727539,5.005293846130371,17.65296173095703,-1.0941671133041382,-1.4206650257110596,0.05955658480525017,,,,,,,,,
1739354819.5679011,0.3331963276087727,1.1546180419641137,0.297933957644077,-1.22027359146944,-1.3954759376325596,1.0730588634602722,0.11205816617812674,-1.910401046593789e-05,-0.0006783811221640384,0.0009565930140448355,0.00020155156283532393,5.667345240304499e-05,0.0011568075161111934,0.0009090530510854618,-0.3063471019268036,-52.11056900024414,4.953719139099121,17.60138702392578,-1.1014913320541382,-1.4270737171173096,-0.0072769103571772575,,,,,,,,,
1739354819.5788476,0.33319804056340707,1.1546211948879799,0.29793187781856045,-1.220274461675927,-1.3954768036966505,1.073056495378819,0.11205231038299504,-0.00016646729396572134,-1.8174021000029114e-05,-0.00019648171063236174,-0.0009305623824661045,-0.00010418042715517085,-0.00010849465286503313,-0.0004351588087356784,-0.3301508128643036,-52.18594741821289,4.981490135192871,17.65296173095703,-1.0941671133041382,-1.4069321155548096,0.0064559997990727425,,,,,,,,,
1739354819.5888972,0.33319461410675566,1.1546214912030488,0.29793187785422565,-1.2202730806769342,-1.3954772862551468,1.073056495378893,0.11204864123513314,-0.0023417081688946488,0.0011131790563076469,0.0008043653865455202,0.00045476602128782936,-3.749341117869785e-06,0.0007133356119427268,-0.0014366417674882652,-0.2825433909893036,-52.18594741821289,4.981490135192871,17.62519073486328,-1.0941671133041382,-1.4069321155548096,0.07328949868679047,,,,,,,,,
1739354819.5989134,0.3331980404563893,1.1546174271741023,0.29793187496529516,-1.2202733656708233,-1.3954775611993604,1.0730581189362036,0.11205502534612641,-0.0005929689123748022,-0.0004695865321846458,0.0009118900864132517,0.0003531781030320075,-0.0005105786577264291,0.0013666104327006942,0.0003648836296127826,-0.3301508128643036,-52.11056900024414,4.981490135192871,17.60138702392578,-1.0877584218978882,-1.4206650257110596,0.019273381680250168,,,,,,,,,
1739354819.6098292,0.33319632793568027,1.154617782142317,0.29793187785421,-1.2202712980505097,-1.3954772235395387,1.0730564822969408,0.11204915123184372,-5.0131643787835025e-05,-0.0006282579483747804,0.0006425097638644392,-0.0005103896655431835,-0.0008125040964842526,-0.0009938814943474036,-0.0013139648130220797,-0.3063471019268036,-52.13437271118164,4.981490135192871,17.60138702392578,-1.0877584218978882,-1.4069321155548096,0.06596527993679047,733,763,755,41.391,0,0
1739354819.6198938,0.33319632793568027,1.1546167579397253,0.2979293840721634,-1.2202744567486363,-1.3954768035253893,1.0730549379220216,0.11205380395898476,5.464719645644292e-05,-0.00011531857635708963,-0.002127734437533242,-0.0004115730000232603,0.00045869894653997596,-4.6779559700544165e-05,-0.0001811370327725355,-0.3063471019268036,-52.13437271118164,5.005293846130371,17.62519073486328,-1.0941671133041382,-1.4206650257110596,0.026597600430250168,733,770,756,41.391,0,0
1739354819.6308181,0.33319632793568027,1.1546176800896444,0.29793009503052975,-1.2202754933657198,-1.3954761819393324,1.0730572435205985,0.11204950671371902,-0.0009648939697618977,0.0006516797616252941,-0.0007897513750218062,-0.0013087311880706249,-8.793820610012609e-06,0.00013797440881931663,-0.0011659027202930525,-0.3063471019268036,-52.13437271118164,5.005293846130371,17.65296173095703,-1.1014913320541382,-1.4142563343048096,0.06596527993679047,733,758,754,41.500,0,0
1739354819.6409333,0.33319804045641144,1.1546210894487914,0.2979298611737845,-1.2202729734763036,-1.3954768050251336,1.0730588722336372,0.11205654261937403,-0.0004518495999105938,0.0001671672234775608,-0.0005132720764564184,0.00017075314488905065,-0.0008383936290998915,0.00022796936971320082,0.0023739701496541922,-0.3301508128643036,-52.16214370727539,5.005293846130371,17.60138702392578,-1.0941671133041382,-1.4270737171173096,0.0064559997990727425,732,757,755,41.391,0,0
1739354819.6518724,0.3331980142864506,1.1546196259866823,0.2979318778529053,-1.2202754685692074,-1.3954775597376436,1.073058118936179,0.11205340227711891,-0.0007753127037957294,-0.0004352104053618525,0.0001539995139492544,-6.767865075041473e-05,-0.0003280815343982863,0.0009779827413222537,0.00023677153671399466,-0.3301508128643036,-52.13437271118164,4.981490135192871,17.62519073486328,-1.0877584218978882,-1.4206650257110596,0.03300629183650017,732,760,755,41.500,0,0
1739354819.6618927,0.3331997529766995,1.154621625292667,0.2979300951772072,-1.2202726366696073,-1.3954753408817842,1.073052239383773,0.11204841384553456,-0.0005481058757677813,0.00036216400158133977,-5.7367796694110567e-05,-9.579506636270578e-05,-0.0017253231225838306,-0.0022373470684330706,-0.0020564813603321476,-0.3539545238018036,-52.16214370727539,5.005293846130371,17.62519073486328,-1.1079000234603882,-1.4069321155548096,0.03941498324275017,737,760,756,41.500,1,0
1739354819.6738572,0.3331997530128085,1.1546189130798385,0.2979300951415414,-1.2202736931237492,-1.395475983502369,1.0730581189121786,0.1120526069923786,0.0006147667382680157,0.0002641446617986296,-0.0006997855181277996,-0.00011411198126169686,-0.0002195996860252681,0.0010395973788905662,-0.00018795834027699013,-0.3539545238018036,-52.13437271118164,5.005293846130371,17.60138702392578,-1.1014913320541382,-1.4206650257110596,0.03941498324275017,730,762,754,41.391,0,0
1739354819.6839204,0.33320186029189436,1.154618141478526,0.29793009517720703,-1.2202698115200514,-1.3954791960213815,1.0730581188823682,0.11205258120942665,0.0011108533522778642,0.0011497320894305206,-0.0011119521715920887,-0.00026698651081036025,0.00018551203429487313,0.0006860893590073272,-2.3655131644116428e-05,-0.3539545238018036,-52.11056900024414,5.005293846130371,17.57758331298828,-1.1014913320541382,-1.4206650257110596,0.012864691205322742,732,762,755,41.283,0,0
1739354819.694785,0.3331980490498761,1.154619763080631,0.29793187785422626,-1.2202729999302966,-1.3954775612463666,1.0730564541949685,0.11204784404000742,0.0001115275982668885,0.0011952867738854057,-0.00033244748135633943,-0.0003462934315260639,-6.529599830837243e-05,-0.0009825977890051407,-0.00277024201926022,-0.3301508128643036,-52.16214370727539,4.981490135192871,17.60138702392578,-1.0877584218978882,-1.4069321155548096,0.07969819009304047,732,760,755,41.283,0,0
1739354819.7048182,0.333195421890434,1.1546160771372946,0.29793430202647386,-1.2202754906731077,-1.3954759376338752,1.0730564953786605,0.11205339493873775,-0.0007507751990807682,-0.0005802431094677947,0.0018939923640900462,-0.0011629378869707622,-0.0004914447936072023,0.0003011142472955432,0.0007810747820521205,-0.2825433909893036,-52.11056900024414,4.953719139099121,17.65296173095703,-1.1014913320541382,-1.4069321155548096,0.03300629183650017,732,759,755,41.391,0,0
1739354819.7157822,0.333198040460964,1.1546137370712286,0.29793009517915126,-1.2202753694617878,-1.3954760583148842,1.0730572435385555,0.11205654142419133,0.00016825193034199337,-0.0025784384594827164,-0.0007597012254196109,-0.0005821929282553229,-0.00030441137789609,0.00014488039899865896,0.002265060565167207,-0.3301508128643036,-52.08279800415039,5.005293846130371,17.62519073486328,-1.1014913320541382,-1.4142563343048096,0.0064559997990727425,731,761,755,41.500,0,0
1739354819.725863,0.33319804045641155,1.1546211650294658,0.29793001717606715,-1.2202751729516026,-1.3954759376359187,1.0730564953768993,0.11204594748217783,0.00035253939630852877,0.0002547401644093526,-0.0008580320417770755,-0.00034663873724608593,0.0006375650711129138,-8.801502582583197e-05,-0.003413910657773936,-0.3301508128643036,-52.16214370727539,5.005293846130371,17.62519073486328,-1.1014913320541382,-1.4069321155548096,0.06596527993679047,732,760,755,41.391,1,0
1739354819.735874,0.3331941821684684,1.154613497352031,0.2979317738487433,-1.2202773188642662,-1.3954767904491552,1.073056495378893,0.11205340307287037,-0.001012827614429511,-0.0007444814124493691,-0.00013545223995489514,-0.0005348775736316667,0.0010442374236608607,3.400149002394311e-05,-0.0006014930655314376,-0.3063471019268036,-52.08279800415039,4.981490135192871,17.65296173095703,-1.0941671133041382,-1.4069321155548096,0.03300629183650017,732,760,755,41.391,1,0
1739354819.7458973,0.33319975296502974,1.1546158480707802,0.29792986117319986,-1.2202726906274561,-1.3954768559342114,1.0730573612761254,0.11204864130680267,0.000323012764782837,-0.0009234422714081452,0.00014784271295043125,0.0007500548796793649,-0.0006447633555257901,0.0004926041762786785,-0.0019370316774703624,-0.3539545238018036,-52.11056900024414,5.005293846130371,17.62519073486328,-1.0941671133041382,-1.4142563343048096,0.07328949868679047,732,764,754,41.391,1,0
1739354819.7568088,0.3331963279356802,1.15462159942388,0.2979317995307729,-1.2202747933582525,-1.3954777396591882,1.073056495378893,0.1120515132930951,-0.0006951137914644049,0.0008096394452117084,0.00027088956167684557,-0.0005969071544105585,-0.0007868870599345265,-0.0005081153391166589,-0.0013019999035601263,-0.3063471019268036,-52.16214370727539,4.981490135192871,17.65296173095703,-1.0877584218978882,-1.4069321155548096,0.012864691205322742,733,762,755,41.391,1,0
1739354819.7678883,0.3331980316260937,1.1546160281296693,0.2979303763782439,-1.2202774576459974,-1.3954767977179139,1.0730531986731,0.11205890997743338,-2.571464832673727e-05,-0.0013890733331642397,-0.0007563842432140614,-0.0009546425652163255,-3.2970979413541715e-05,-0.0007633195947076227,0.002206035633534445,-0.3301508128643036,-52.08279800415039,5.029097557067871,17.65296173095703,-1.0941671133041382,-1.4069321155548096,-0.013685601763427258,731,763,755,41.391,1,0
1739354819.7788157,0.33319804045636164,1.1546208584404851,0.29793187786587694,-1.220270912675259,-1.3954743822767646,1.0730581058356414,0.11205284478981911,0.00012568935758018124,7.738117551043904e-05,0.00047606519781437666,-8.51589889531696e-05,0.0008952136600667848,0.0007526920693826059,0.0007485416477524471,-0.3301508128643036,-52.16214370727539,4.981490135192871,17.60138702392578,-1.0877584218978882,-1.4206650257110596,0.04673920199275017,732,761,757,41.391,0,0
1739354819.7888331,0.3331980405634089,1.1546235377847227,0.29793395764408204,-1.220276563616452,-1.3954792275820054,1.0730564952171657,0.11205416142013254,0.000282180251968967,0.001755143553474923,0.00048742760424061676,0.00027873346918014697,0.0003038468012551508,-0.0009144946061674362,0.0004915198540956878,-0.3301508128643036,-52.18594741821289,4.953719139099121,17.65296173095703,-1.1014913320541382,-1.4069321155548096,0.026597600430250168,736,762,755,41.391,1,0
1739354819.799852,0.33319959731910953,1.1546181349750118,0.29793224192556556,-1.2202726655683642,-1.3954768029036568,1.0730581189362027,0.1120574041218965,4.3711483492785835e-07,0.00038251715800235233,0.0005773920682003838,-4.108489789601041e-05,0.0005842063985392294,-0.000158098937386009,0.001810969838055026,-0.3817255198955536,-52.11056900024414,5.005293846130371,17.60138702392578,-1.0941671133041382,-1.4206650257110596,-0.0008682189509272575,735,761,756,41.391,1,0
1739354819.8108544,0.33319975390364837,1.1546196865511003,0.2979318778905817,-1.2202735835246383,-1.395476628145896,1.0730573612761254,0.11205182354960466,0.0004339537518588612,0.000338392227381978,0.0004464460545335697,0.0007206889846731505,-0.00029481410527094725,0.00028697229496232825,0.0001943439604917032,-0.3539545238018036,-52.16214370727539,4.981490135192871,17.60138702392578,-1.1079000234603882,-1.4142563343048096,0.019273381680250168,735,764,755,41.283,0,0
1739354819.8208673,0.33319812230946494,1.1546218539277917,0.2979318778542265,-1.220275446002246,-1.3954764503265724,1.073057007578899,0.11205095763436142,6.961737245095328e-05,0.0014819239397797753,0.0009320968628303743,-0.00046767305941196053,-7.940132195549645e-05,-0.0003287527919549641,-0.0007069374564525072,-0.3301508128643036,-52.16214370727539,4.981490135192871,17.62519073486328,-1.0941671133041382,-1.4142563343048096,0.026597600430250168,733,764,755,41.391,0,0
1739354819.8318188,0.33320185606587166,1.1546191672343789,0.29793419606266097,-1.220271225896566,-1.395477561185204,1.0730581189302137,0.11205026464753416,0.0006738827739940401,0.0003636562976555427,0.0013228978315392135,0.0004241653508661933,-0.0010423353206509352,0.0003997349461354264,-0.0012043995300106058,-0.3539545238018036,-52.13437271118164,4.953719139099121,17.57758331298828,-1.0877584218978882,-1.4206650257110596,0.05955658480525017,736,762,752,41.283,1,0
1739354819.8428662,0.33319844264910164,1.1546180296453235,0.2979300691772758,-1.2202763537049857,-1.3954790093632956,1.0730557246368624,0.11204875959627082,-0.00015884527379824703,-7.774740714048292e-05,-0.00014282224766472732,-0.0009452578420655461,-0.001352910994991019,-0.00010271083625298309,-0.0013998445186333218,-0.3063471019268036,-52.11056900024414,5.005293846130371,17.67676544189453,-1.0877584218978882,-1.4005234241485596,0.07328949868679047,735,762,755,41.391,1,0
1739354819.8537943,0.33320017249951117,1.154615838964358,0.2979279891462784,-1.2202712003704637,-1.3954770238263137,1.0730564953788193,0.11205026681237704,0.0011448721256919771,-0.0009408002922871079,-0.0011742513576584828,0.00042192725092111906,0.0004182336858663186,-0.000774861708599926,-0.00021330288808327214,-0.3301508128643036,-52.08279800415039,5.005293846130371,17.57758331298828,-1.1014913320541382,-1.4069321155548096,0.05955658480525017,734,762,755,41.391,1,0
1739354819.8648982,0.333199779013629,1.1546181188032623,0.29793187781856045,-1.2202713164115455,-1.3954783858116224,1.0730568510799892,0.11205582438915858,0.0014072504989551039,-2.7441589834243307e-05,1.9570375795486367e-05,0.0005651477011695458,-0.0016994809878604598,-0.0004060307171288862,0.0018339712639605515,-0.3539545238018036,-52.11056900024414,4.981490135192871,17.60138702392578,-1.0941671133041382,-1.4142563343048096,0.012864691205322742,736,759,756,41.283,1,0
1739354819.876842,0.3331963279357293,1.1546175265816776,0.29793419606266086,-1.2202733874375526,-1.3954736782557007,1.073053316463545,0.11205264608202087,-0.001072791247822585,-0.00035952107217191776,0.0007733320071174705,0.0006207897001948567,0.0005009273210205751,-0.0006416009608077741,0.00025369160332149146,-0.3063471019268036,-52.13437271118164,4.953719139099121,17.60138702392578,-1.0941671133041382,-1.4069321155548096,0.03941498324275017,735,760,755,41.283,0,0
1739354819.8878932,0.3331980404564115,1.154621854836692,0.29793008362282863,-1.2202736970222599,-1.3954776818007173,1.0730522567545955,0.11205502729933577,0.0003534448975327323,0.0006655459180815186,-0.0007922972098799936,-0.00046185657189550585,0.0005353942735680688,-0.0009812710968286396,0.0010521291983366613,-0.3301508128643036,-52.16214370727539,5.005293846130371,17.60138702392578,-1.0877584218978882,-1.4069321155548096,0.019273381680250168,736,760,755,41.391,1,0
1739354819.8998551,0.3331980404564115,1.1546185059174847,0.2979318867089724,-1.2202724174744235,-1.3954759396206204,1.0730570592900988,0.11205582877021687,-5.1969205474001844e-05,0.0015051490489930625,-9.650552757354785e-05,0.00028525903282958486,0.000385160873999057,6.276450477845361e-05,0.0017030835206926888,-0.3301508128643036,-52.13437271118164,4.981490135192871,17.62519073486328,-1.1014913320541382,-1.4206650257110596,0.012864691205322742,735,762,755,41.391,0,0
1739354819.910783,0.33320164827110366,1.1546153893564928,0.2979325931100136,-1.2202751470064652,-1.3954775611911967,1.073057356909493,0.1120502648648049,0.00037183050512627097,-0.00019794806607054515,0.00013397492891173998,0.0002629097719328704,-0.00040999333550337637,0.0009535178015040146,-0.0003114471684201156,-0.3817255198955536,-52.11056900024414,4.981490135192871,17.62519073486328,-1.0877584218978882,-1.4142563343048096,0.05955658480525017,735,758,754,41.391,0,0
1739354819.9209087,0.3331965619385211,1.154619780399014,0.2979318781853127,-1.2202719118256233,-1.3954768035311074,1.0730573612761007,0.11205019999236834,3.417637988878923e-05,0.0006710864700708,2.5951755401496315e-05,8.53004102051993e-05,-0.0005622531410115566,0.00032524652075293156,-0.0021617788123612603,-0.3063471019268036,-52.13437271118164,4.981490135192871,17.57758331298828,-1.0941671133041382,-1.4142563343048096,0.03300629183650017,735,758,755,41.391,1,0
1739354819.9309213,0.33319632793964316,1.1546197426209637,0.2979262327103382,-1.220272931099885,-1.395478010341199,1.0730573612761254,0.11205026415923244,0.0006770883414592007,-0.0006227345327093231,-0.0020842810107250627,0.00014369537641387506,-0.00011599932813153075,-0.0002166942769914668,-0.0006524146811758406,-0.3063471019268036,-52.13437271118164,5.056868553161621,17.60138702392578,-1.0941671133041382,-1.4142563343048096,0.05955658480525017,736,754,755,41.500,1,0
1739354819.9417803,0.3331980405634089,1.1546236924465856,0.2979301213471681,-1.2202708648012552,-1.3954759371561707,1.0730522566648704,0.11205578495930002,-0.0003462679939541161,0.00025624710830095016,-0.0002793834291770237,-0.00025966962821734297,-2.7729827153035185e-05,-0.000999153431812125,0.0008221837549584568,-0.3301508128643036,-52.18594741821289,5.005293846130371,17.60138702392578,-1.1014913320541382,-1.4069321155548096,0.012864691205322742,736,754,755,41.283,1,0
1739354819.9518564,0.3331963279356821,1.1546131363273158,0.29792831250063134,-1.2202736972909758,-1.3954768035310992,1.0730581188644208,0.11204950720403883,-0.0005658362998537353,-0.0017643072756164636,-0.0015637089496414066,-9.557827231796376e-05,0.0003545243167483495,6.674441018699788e-05,-0.00036328844901966284,-0.3063471019268036,-52.08279800415039,5.029097557067871,17.60138702392578,-1.0941671133041382,-1.4206650257110596,0.06596527993679047,735,754,754,41.391,1,0
1739354819.9627833,0.33319975329813506,1.154618835892438,0.2979300691768272,-1.2202718890471405,-1.3954768030465905,1.0730581189362034,0.11205102252463595,0.0007269228938922253,-0.0011119625591961748,0.0008869002942892935,0.0005057853108123646,-0.0003054603221748996,0.0005987149347777619,-0.0011717607424834833,-0.3539545238018036,-52.16214370727539,5.005293846130371,17.57758331298828,-1.0941671133041382,-1.4206650257110596,0.05314789339900017,738,756,754,41.391,0,0
1739354819.9727874,0.3331997529771481,1.154616065480341,0.2979300951767669,-1.2202736169248816,-1.3954784393707593,1.0730573612761254,0.11205416123933601,0.00042909161021075426,0.00042296463003222584,5.922363058562491e-06,-0.00024013248422552548,-0.0003432023098901471,-0.0003274069376337496,0.0005402864873543486,-0.3539545238018036,-52.11056900024414,5.005293846130371,17.60138702392578,-1.0813497304916382,-1.4142563343048096,0.026597600430250168,735,757,754,41.391,1,0
1739354819.9828346,0.333199761643936,1.154616069917775,0.2979339576440818,-1.2202698398629432,-1.395477385808026,1.073056495378893,0.11205166152731684,0.0008331767861124619,0.00017778540218824968,0.0011791193813473764,0.0009286845109146829,-3.084812095748707e-06,-6.096501318412814e-05,-0.0005875699672889929,-0.3539545238018036,-52.08279800415039,4.953719139099121,17.57758331298828,-1.1014913320541382,-1.4069321155548096,0.04673920199275017,735,758,755,41.391,0,0
1739354819.9928758,0.33319974403795544,1.154620936215562,0.29793187785422626,-1.220272775171532,-1.3954783185568154,1.0730573554619245,0.11205106195244807,1.6518529829649697e-05,0.0003680946588081736,1.0120906774112385e-05,0.0013722231556386531,-0.001565031068355159,9.027603770633157e-05,0.000884932070674417,-0.3539545238018036,-52.16214370727539,4.981490135192871,17.60138702392578,-1.0813497304916382,-1.4142563343048096,0.05314789339900017,735,758,755,41.500,1,0
1739354820.003878,0.33319804174033035,1.154618118908263,0.2979322222366183,-1.2202727164133604,-1.3954778916467068,1.0730564952173547,0.11205822111510755,0.0004725556250365917,0.0007863216485384105,0.0010416982030990137,0.0007175974367866401,-0.0009849714867128645,-0.00014080941839637992,0.0004249690527248875,-0.3301508128643036,-52.11056900024414,4.981490135192871,17.62519073486328,-1.0941671133041382,-1.4069321155548096,0.019273381680250168,734,758,755,41.391,1,0
1739354820.0148656,0.33319471945214224,1.1546196150730819,0.29793425915303023,-1.2202698455175505,-1.3954768080069169,1.0730564953788921,0.11205309344932454,-0.0012794869279796886,6.237669376945318e-05,0.0007024303903602448,0.0011676938546203955,-6.601119311558716e-05,0.0002429615011424327,-0.0006316756211908359,-0.2825433909893036,-52.13437271118164,4.981490135192871,17.57758331298828,-1.0941671133041382,-1.4069321155548096,0.026597600430250168,734,755,755,41.391,0,0
1739354820.0259182,0.3332000909838449,1.1546218463774747,0.297927610530255,-1.2202716737009318,-1.395477546714073,1.0730570549374236,0.11204543753906389,0.00044352827975422825,0.0013611653578272176,-0.0013552039350009418,0.0006685888963336439,-0.000114153000163736,-0.0003390645321473914,-0.002263323134356818,-0.3539545238018036,-52.16214370727539,5.029097557067871,17.57758331298828,-1.1014913320541382,-1.4206650257110596,0.07328949868679047,735,761,754,41.391,1,0
1739354820.036871,0.33320256101882145,1.1546218281152734,0.29793187785290537,-1.2202734554210737,-1.3954768035341352,1.073056495376891,0.11205614128203366,0.000664613405802869,0.00048164771280139536,0.0002935876627596829,0.0005547718613795201,-0.0011982581902034754,0.0005868741395659662,0.0009292183201428925,-0.3539545238018036,-52.16214370727539,4.981490135192871,17.60138702392578,-1.0941671133041382,-1.4069321155548096,0.012864691205322742,736,755,755,41.500,2,0
1739354820.0478542,0.3332019850759678,1.1546181444228023,0.29793574064814965,-1.2202716595597611,-1.3954771660707646,1.0730581189362036,0.11205090500759998,0.0012493574698080284,0.00018380696886366856,0.0014194824210680542,0.0004275688958967677,-0.0014267126874339816,0.0006429684583930011,-0.0004281990063080788,-0.3817255198955536,-52.11056900024414,4.929915428161621,17.57758331298828,-1.0941671133041382,-1.4206650257110596,0.05314789339900017,739,757,755,41.391,0,0
1739354820.0578923,0.33320175091931753,1.1546189263084419,0.2979283125365288,-1.220274557882248,-1.3954759378014647,1.073056495378893,0.11204954663319704,0.0013966552502766203,-0.000316337626359851,-0.0015197120798631865,0.0011507779200209116,0.0008467042893151337,-7.552194041649164e-05,-0.002001827843078815,-0.3817255198955536,-52.13437271118164,5.029097557067871,17.62519073486328,-1.1014913320541382,-1.4069321155548096,0.06596527993679047,742,758,757,41.391,1,0
1739354820.068815,0.3331993699801433,1.1546181439875807,0.2979301216681611,-1.2202753915154765,-1.3954766342710085,1.0730557377188146,0.11205637855056606,-0.0002947683560733705,-0.0004589001424908885,-0.00030510495138279324,-0.00012408028091752995,-0.001696043661614828,-0.0006133646043015987,0.0019448609544957807,-0.3063471019268036,-52.11056900024414,5.005293846130371,17.62519073486328,-1.1079000234603882,-1.4005234241485596,0.0064559997990727425,743,759,754,41.391,0,0
1739354820.078906,0.33319975302865995,1.1546235587973162,0.29793187753368255,-1.220273668048409,-1.3954775610543086,1.073056495378893,0.1120534037392465,0.0006546392201204862,0.003039680322292554,-0.0003242840915248627,0.0011565880657190795,0.00033573695119213504,-0.00022196208537800715,0.0006720671875047324,-0.3539545238018036,-52.18594741821289,4.981490135192871,17.60138702392578,-1.0877584218978882,-1.4069321155548096,0.03300629183650017,738,760,755,41.391,0,0
1739354820.089854,0.3331963279112302,1.1546176940770345,0.29793224000589164,-1.2202754799809163,-1.395476808662947,1.0730556976818941,0.11205264608194666,-0.00022498230458430584,0.0006302781745094397,0.00029928241228579247,-0.0015074439822945073,-0.0007946091652436861,0.00038492526593355625,0.0008611987585980042,-0.3063471019268036,-52.11056900024414,5.005293846130371,17.62519073486328,-1.0941671133041382,-1.4270737171173096,0.03941498324275017,737,758,755,41.391,1,0
1739354820.09986,0.33319990806861405,1.154619624513676,0.29792976897083595,-1.2202696178345043,-1.3954815772385987,1.0730577013530478,0.11205284478989735,0.00026167616773682537,-5.598748811160074e-06,-0.0012098075372662406,0.0014899670162861044,-0.00028812613478907095,8.677590538572173e-05,-0.0006582506580097649,-0.3301508128643036,-52.13437271118164,4.981490135192871,17.57758331298828,-1.0813497304916382,-1.4142563343048096,0.04673920199275017,736,756,755,41.391,1,0
1739354820.1108222,0.333196327946223,1.1546195508249928,0.29793085522672613,-1.2202698480396725,-1.3954791962602406,1.0730573612780452,0.11205416140811308,-1.154071598609321e-05,-0.0007154782801166205,0.0003201050177311954,0.001712749317802489,-0.0005029150039625337,0.0003986244346241504,0.0016730297370356607,-0.3063471019268036,-52.13437271118164,5.005293846130371,17.57758331298828,-1.1014913320541382,-1.4142563343048096,0.026597600430250168,734,758,755,41.391,1,0
1739354820.1218255,0.3331978020378324,1.1546180677871285,0.29792728714045497,-1.2202709307904793,-1.3954756023734094,1.0730573612761256,0.11205026486455763,-0.00040259443441515244,-0.0006252430375735796,-0.0010622156694417783,0.0006591131218382188,0.00040338172109303367,-0.0003069415911518266,-0.0005294200219617241,-0.3301508128643036,-52.11056900024414,5.005293846130371,17.60138702392578,-1.1014913320541382,-1.4142563343048096,0.05955658480525017,734,755,755,41.391,1,0
1739354820.1318903,0.33319656204206033,1.1546180556100376,0.29793395759652747,-1.2202736860634178,-1.3954768050153186,1.0730557769646714,0.112055784959304,-0.00044112412163446426,-0.0012044411303697242,0.001023775284176266,0.0002889264567454778,0.0011721884913961757,0.00013644691582121257,0.000913273449269779,-0.3063471019268036,-52.11056900024414,4.953719139099121,17.60138702392578,-1.0941671133041382,-1.4005234241485596,0.012864691205322742,736,756,753,41.283,1,0
1739354820.1428795,0.3331980139667798,1.1546177957002204,0.2979328318555912,-1.2202708941646112,-1.3954783723842348,1.073057361276347,0.1120548954577861,0.00024721529854490897,-0.0010394839646748315,0.0014980618561946173,0.0024352132459136712,-0.0005356979999011021,0.00031857601126102753,0.0005296533767473694,-0.3301508128643036,-52.13437271118164,4.981490135192871,17.57758331298828,-1.0941671133041382,-1.4142563343048096,0.019273381680250168,735,756,755,41.283,1,0
1739354820.1538634,0.33319804334519304,1.1546188257632977,0.29793395775848347,-1.2202736972981916,-1.3954789212594803,1.0730564952173876,0.11205502735267905,0.0008105053199564265,-0.0003016146932984133,0.001847174034898856,-0.00016846980582388755,2.0264677614680168e-05,-1.2187620287745359e-05,-0.0003269276114424613,-0.3301508128643036,-52.11056900024414,4.953719139099121,17.60138702392578,-1.1079000234603882,-1.4069321155548096,0.019273381680250168,733,758,754,41.391,0,0
1739354820.1648333,0.33319461873188627,1.154618403834998,0.2979298612101264,-1.2202736954856683,-1.3954763012430922,1.0730564953788921,0.1120478055908246,-0.0016720133828478098,0.00021294525087713274,-0.0007083795450444308,-0.0012934615798995855,-0.0005619977478548345,3.5423280108128074e-05,-0.0015606362172675848,-0.2825433909893036,-52.13437271118164,5.005293846130371,17.60138702392578,-1.1014913320541382,-1.4069321155548096,0.05314789339900017,735,758,754,41.391,1,0
