IITGN-Robotics/Franka_IITGN_ROBOTICS/franka_ros/franka_iitgn/data02/s_b_013.csv
time,fr3_joint1_pos,fr3_joint2_pos,fr3_joint3_pos,fr3_joint4_pos,fr3_joint5_pos,fr3_joint6_pos,fr3_joint7_pos,fr3_joint1_vel,fr3_joint2_vel,fr3_joint3_vel,fr3_joint4_vel,fr3_joint5_vel,fr3_joint6_vel,fr3_joint7_vel,fr3_joint1_eff,fr3_joint2_eff,fr3_joint3_eff,fr3_joint4_eff,fr3_joint5_eff,fr3_joint6_eff,fr3_joint7_eff,flexpin1,flexpin2,flexpin3,Force,ContactMic,ContactMic_gt
1739355831.6127841,0.3238880259648589,1.1799709454815637,0.3213290428064313,-1.190357168668936,-1.4229430675003738,1.0390417240427496,0.09558982346905485,1.718444945293215e-05,0.001471544849067441,0.0004345807929325814,0.00019431979437262842,-0.0010989393423014642,-0.001108141745159596,0.0004755438807370284,-0.6316644549369812,-52.69772720336914,5.056868553161621,18.02191925048828,-1.3102315664291382,-1.4536240100860596,0.012864691205322742,,,,,,,,,
1739355831.6228046,0.3238897478835366,1.179969079110307,0.3213251803401987,-1.1903573531112028,-1.4229425533623008,1.0390458305920145,0.0955897350183063,0.00044703173991631303,-0.0005462125507800326,-0.0007987877479771328,-0.000588072438938617,0.0002145313116981547,-0.0003939020759029605,-0.0005312437787091783,-0.6554681658744812,-52.67392349243164,5.108443260192871,18.02191925048828,-1.3175557851791382,-1.4536240100860596,0.0064559997990727425,,,,,,,,,
1739355831.6337132,0.3238879993952393,1.1799692756337625,0.3213290424830528,-1.1903516959299745,-1.422943080582988,1.0390452388537004,0.09558706944148387,-0.00042134021842142664,0.00044223400677942935,0.0004312160884691388,0.0009873457931825055,-1.6530484119090105e-05,-0.00045847077378606657,-0.002358749651730567,-0.6316644549369812,-52.67392349243164,5.056868553161621,17.97431182861328,-1.3102315664291382,-1.4472153186798096,0.03300629183650017,,,,,,,,,
1739355831.6447837,0.32388894456319084,1.1799689302582894,0.3213255235621712,-1.1903508307990842,-1.422941483189141,1.0390452889954338,0.09558945049714089,9.11434881960529e-05,0.000576167407886352,0.00019291803175927732,0.0023340881159414845,0.0015113128845802885,-0.0002911593082946599,-0.0005067395402797869,-0.6316644549369812,-52.69772720336914,5.132246971130371,17.94654083251953,-1.3239644765853882,-1.4600327014923096,0.012864691205322742,,,,,,,,,
1739355831.654811,0.32388978688866915,1.1799688754245945,0.32132339769918195,-1.1903556508854312,-1.4229452443106734,1.0390420206688673,0.09558599194170715,0.00015536530162993343,-0.00019600424887334858,-0.0004290696382444595,-0.00118661865856901,-0.001429779800410566,-0.001000735682687896,2.6615193550151182e-05,-0.6554681658744812,-52.69772720336914,5.132246971130371,17.99811553955078,-1.3038228750228882,-1.4472153186798096,0.05314789339900017,,,,,,,,,
1739355831.666777,0.3238911839055327,1.1799686157038611,0.32132518034019875,-1.1903592191991264,-1.4229438382989097,1.0390441850240286,0.09558387546676345,0.0010481319414209155,0.000144078879003964,-0.0003903283581743679,-0.0016510955467909836,-0.00023908367638911628,0.0010001166547456428,-0.001409253574628688,-0.6316644549369812,-52.69772720336914,5.108443260192871,18.04572296142578,-1.3038228750228882,-1.4472153186798096,0.03300629183650017,,,,,,,,,
1739355831.676809,0.3238881131443704,1.1799692726462172,0.3213272601300543,-1.1903535018639655,-1.422943067500448,1.039042700609855,0.09558782692190834,0.0004434997271593118,0.0007139125132764805,-0.0004440853351347382,-0.0007558000526803883,0.0007883603805951361,-0.0010637095684343162,-0.00032763080533887445,-0.6316644549369812,-52.67392349243164,5.080672264099121,17.99811553955078,-1.3102315664291382,-1.4536240100860596,0.026597600430250168,,,,,,,,,
1739355831.6868374,0.3238844715811462,1.1799690957004767,0.3213317626813211,-1.1903594992510853,-1.4229446351483392,1.0390474549986422,0.09558600467467579,-0.0007690111013847964,-0.0006690824784984739,-2.8092324328671844e-05,-0.0016602404988425318,0.00019398541032799747,0.00038452661104715,-0.0014961709141134438,-0.5285150408744812,-52.59457778930664,5.132246971130371,17.89893341064453,-1.2974141836166382,-1.4270737171173096,0.03300629183650017,,,,,,,,,
1739355831.6968389,0.32388837793695807,1.1799593912460027,0.3213357187246922,-1.1903804359408658,-1.4229445813678663,1.039057267226034,0.0955910740364197,-1.4274879078521015e-05,-0.0014421430040551931,0.0008701742205231867,-0.0029280399562209214,0.0008270472348164582,-0.0007715612351514561,0.0008118838762204293,-0.5047113299369812,-52.44382095336914,5.207625389099121,17.82355499267578,-1.2974141836166382,-1.4005234241485596,-0.0008682189509272575,,,,,,,,,
1739355831.7068803,0.3238849984017669,1.1799677740712968,0.3213390644317388,-1.1903982439106064,-1.4229446482302668,1.0390720335727068,0.09559409026147005,-0.0015507398393117206,-0.00044715478202584833,-0.00035774484577763343,-0.0008459705166504834,0.0008355630004962271,0.0007733440130264154,0.0008527242644636171,-0.3817255198955536,-52.44382095336914,5.259200096130371,17.77594757080078,-1.2974141836166382,-1.3941147327423096,-0.027418512850999832,,,,,,,,,
1739355831.7178516,0.3238896532100738,1.1799711070222592,0.3213377564982943,-1.1904219309248147,-1.4229476657897602,1.0390857051004547,0.09558706927778174,0.000491841777184871,-0.00026928763498192685,0.0005691875302665306,-0.002386646993278823,-0.001258475356854241,0.0007891421595078201,-0.000654786845290963,-0.4293329417705536,-52.39224624633789,5.283003807067871,17.82355499267578,-1.2717794179916382,-1.3877060413360596,0.03300629183650017,,,,,,,,,
1739355831.7288182,0.3238923686286644,1.1799717845685365,0.3213386687215855,-1.190438607425399,-1.4229453797267606,1.0390961321887935,0.09559334703479401,0.0005019744490508838,-0.001013204011480679,0.0005508260782636869,-0.0009191930170000286,0.0008635853139933429,0.0008613993003336063,0.0010603264169211442,-0.4293329417705536,-52.39224624633789,5.310774803161621,17.82355499267578,-1.2910054922103882,-1.3941147327423096,-0.020094294100999832,,,,,,,,,
1739355831.7388284,0.32388720937169446,1.1799719445032428,0.3213360290270338,-1.1904477928182546,-1.4229492375028927,1.039108614649479,0.09558945098468313,-0.0010117420216377885,-0.0006402079405197437,0.00023180519889703114,-0.0003857440348342719,9.158912759075553e-06,-6.0758489191385374e-05,-0.0009387045277203709,-0.3539545238018036,-52.34067153930664,5.334578514099121,17.74817657470703,-1.2580465078353882,-1.3877060413360596,0.012864691205322742,,,,,,,,,
1739355831.7497728,0.32389239062541375,1.1799692974408116,0.32133484904726617,-1.190450160252224,-1.4229500497351752,1.0391143309989854,0.09558631161978358,0.0007842913762568563,-0.00045362901392879235,0.0011115843341149593,-0.00034098136825871835,8.06327135198622e-05,0.0004531503428897225,-0.0006043335704155193,-0.3817255198955536,-52.31290054321289,5.334578514099121,17.72437286376953,-1.2781881093978882,-1.3877060413360596,0.03941498324275017,,,,,,,,,
1739355831.7598221,0.3238896861679949,1.1799690075706641,0.3213356255374009,-1.1904498797024665,-1.422950025020594,1.0391085280055452,0.09558869283716992,0.000706652079636146,1.55385774827186e-05,0.00010184211082709435,-0.00012136701820841155,0.000494593946540275,0.000635478464948211,0.0002504379566471754,-0.3539545238018036,-52.31290054321289,5.310774803161621,17.72437286376953,-1.2644551992416382,-1.3611557483673096,0.019273381680250168,,,,,,,,,
1739355831.7698472,0.32389008362934474,1.1799759779367773,0.32133562422427875,-1.190450161565334,-1.422952891269649,1.0391092856205064,0.09559439999012516,0.0005811362820527393,0.001310099671110778,0.0006953234289306971,0.0005681255591637687,-0.002333450412923248,0.0010816003934814428,0.0020497612279863197,-0.3539545238018036,-52.36447525024414,5.310774803161621,17.72437286376953,-1.2580465078353882,-1.3675644397735596,-0.020094294100999832,,,,,,,,,
1739355831.7817862,0.32389228369667966,1.1799741827162076,0.3213362823939377,-1.1904540617568988,-1.4229495433774846,1.03910933625717,0.09559226929228105,-0.0002131626302344739,0.0002947719848681072,0.000481709781690639,-0.0016163518272017735,0.001144872413825186,-0.0009854091347846158,0.0008583746193119946,-0.3817255198955536,-52.34067153930664,5.334578514099121,17.77594757080078,-1.2644551992416382,-1.3812973499298096,-0.020094294100999832,,,,,,,,,
1739355831.7918231,0.323888414290517,1.1799683431707702,0.3213358342030719,-1.1904524123204867,-1.4229542860490823,1.0391092985142982,0.09558747206545927,-0.0005957721761183416,-0.0010611277782783166,0.00045857061782544233,-3.892687069878193e-05,-0.0005007036444772112,-0.0009636614197953198,-0.001538172356775903,-0.3301508128643036,-52.26132583618164,5.310774803161621,17.72437286376953,-1.2516378164291382,-1.3675644397735596,0.026597600430250168,,,,,,,,,
1739355831.802754,0.3238904015313475,1.179970509335098,0.32133688615346234,-1.1904484163350006,-1.4229493955331913,1.0391140462445565,0.0955925893726023,-0.00032911044595147494,0.00014551459022340486,0.0010451310048331182,-0.00010902036416069794,0.0015773641487699505,-0.0012293179061748168,0.0010681576051858144,-0.3539545238018036,-52.28909683227539,5.334578514099121,17.70056915283203,-1.2580465078353882,-1.3812973499298096,-0.013685601763427258,,,,,,,,,
1739355831.8128686,0.3238875287361921,1.1799705916383623,0.32133559900221226,-1.1904520492304271,-1.4229484800067829,1.039116376145585,0.0955933076049724,-0.0009797989415077006,0.000887812996546737,0.0002608599550765398,-0.0013257100694557306,0.0018944386838408687,0.000428854026610883,0.0009845930103062593,-0.3539545238018036,-52.28909683227539,5.310774803161621,17.74817657470703,-1.2644551992416382,-1.4005234241485596,-0.020094294100999832,,,,,,,,,
1739355831.823837,0.32389050937010955,1.1799705914136496,0.32133381530113214,-1.1904502137171031,-1.4229492822397214,1.0391172819191965,0.09559100581071812,-0.001109718121405083,-0.00047703972877757167,7.553818416482867e-05,0.0005122743176052993,0.00014548359531964516,0.0007151714502112943,0.0007307904559518269,-0.3539545238018036,-52.28909683227539,5.334578514099121,17.72437286376953,-1.2580465078353882,-1.3812973499298096,-0.027418512850999832,,,,,,,,,
1739355831.834817,0.32389412066188467,1.1799708948180363,0.32133173857146513,-1.190450930171721,-1.4229528914052338,1.039111708884917,0.09558524245313954,0.0006064176074336222,-0.0003757555238021519,-0.000653348585652074,0.0010005412004677023,-0.0005672382576088816,-0.0007738007696223709,-0.0033396491085328738,-0.4055292308330536,-52.28909683227539,5.362349510192871,17.72437286376953,-1.2580465078353882,-1.3611557483673096,0.03941498324275017,,,,,,,,,
1739355831.8448672,0.3238904275334251,1.1799723042786756,0.32133276038840347,-1.1904484397371824,-1.4229523374159891,1.0391141033275986,0.0955877855448578,9.45477527675652e-05,-0.0004492734762678336,-0.0010958596403162749,0.0014595112807035651,-0.003166337307665989,0.0002564862617434627,-0.0017377698725662342,-0.3539545238018036,-52.31290054321289,5.362349510192871,17.70056915283203,-1.2452291250228882,-1.3812973499298096,0.026597600430250168,,,,,,,,,
1739355831.855853,0.32389250756382715,1.179974304031334,0.32133278534372145,-1.1904524520388777,-1.4229492522624623,1.0391124796090043,0.09558943800369059,5.128722033205426e-05,0.0011324651227109972,0.0005135978994562416,7.484142153198621e-05,0.0014596172379461076,-0.00010168063399619338,0.0003349847481061447,-0.3539545238018036,-52.34067153930664,5.362349510192871,17.72437286376953,-1.2580465078353882,-1.3675644397735596,0.012864691205322742,,,,,,,,,
1739355831.8668346,0.3238907960178148,1.1799705926976298,0.3213301932634452,-1.1904516191241756,-1.422954404965106,1.0391141031663143,0.09559182733336541,-0.0003088210137320612,-0.0006477581327933644,-0.0013929844391395744,-0.0001246197762176988,0.00022216607146046774,0.0008045704126294613,0.0004820376906439748,-0.3301508128643036,-52.28909683227539,5.386153221130371,17.70056915283203,-1.2516378164291382,-1.3812973499298096,-0.0072769103571772575,,,,,,,,,
1739355831.877765,0.3238924264846683,1.1799740794578262,0.3213338269672243,-1.190454949989582,-1.4229550090581853,1.0391141031663143,0.09559095576495936,-0.0007903923346472662,-1.9756413624763352e-05,0.001156626399042326,8.978259873543073e-05,-0.0021094942732474164,-0.0003804127577576945,0.0015062034053087826,-0.3817255198955536,-52.34067153930664,5.334578514099121,17.74817657470703,-1.2452291250228882,-1.3812973499298096,-0.0008682189509272575,,,,,,,,,
1739355831.8887718,0.32389544290963856,1.179972533858032,0.32133392071601785,-1.1904572671038383,-1.4229536505533062,1.0391141031663143,0.09559258937260233,0.0007839635104153573,-0.0003260510236325419,-0.0002732930249848018,-0.0003518959668658453,-0.001130485713589641,0.00031144426644133354,0.0009738362473770822,-0.3817255198955536,-52.31290054321289,5.334578514099121,17.77594757080078,-1.2580465078353882,-1.3812973499298096,-0.013685601763427258,,,,,,,,,
1739355831.898846,0.32389242591930145,1.1799727345778805,0.32133697385429305,-1.1904531221138248,-1.4229546257142311,1.0391148608263925,0.0955909557649841,0.00037143704217861733,0.0008761672532373795,0.0018651898278624185,0.0005840902784731165,0.00011598530996214933,-0.0006649765903559763,0.0004392174502096272,-0.3817255198955536,-52.28909683227539,5.334578514099121,17.74817657470703,-1.2516378164291382,-1.3877060413360596,-0.0008682189509272575,,,,,,,,,
1739355831.9097798,0.323894817509243,1.1799726105083,0.32133417767217975,-1.1904534057194998,-1.4229532083215206,1.0391141031663143,0.09559103462395954,-4.121196792843034e-05,0.00021169871540184434,-0.0012258466801658959,-0.0001178857605732755,0.00013681101221622258,6.778106741583525e-05,-1.549760057946507e-06,-0.3817255198955536,-52.31290054321289,5.362349510192871,17.72437286376953,-1.2644551992416382,-1.3812973499298096,-0.0008682189509272575,,,,,,,,,
1739355831.9198337,0.3238904392369499,1.179972993148492,0.32133418655227025,-1.1904516318844625,-1.4229507720472998,1.0391148651870432,0.09559417350153707,0.00022073313930015358,0.0018045655580118925,-0.0004850396837147051,-0.0005820602931180833,0.0006920639289690765,0.00032021528442777885,0.0005148355589105533,-0.3539545238018036,-52.31290054321289,5.362349510192871,17.70056915283203,-1.2580465078353882,-1.3877060413360596,-0.027418512850999832,,,,,,,,,
1739355831.9298632,0.32389110782369546,1.179968593823625,0.3213362942080457,-1.1904551884083328,-1.4229503533707393,1.0391156735434843,0.09559107405378113,-0.0008733535692289618,-0.001785926186980592,0.0012354621956112903,-0.0010294649985258745,0.0015415038493029394,-0.0005998842732572712,0.00037802207665698013,-0.3539545238018036,-52.26132583618164,5.334578514099121,17.74817657470703,-1.2580465078353882,-1.3675644397735596,-0.0008682189509272575,,,,,,,,,
1739355831.9407773,0.3238924027946593,1.1799723042735433,0.3213339329345888,-1.1904551884081833,-1.4229538294357058,1.0391124796270332,0.09558914349794588,-0.0008698972237257124,-0.0014767494561581723,-0.00018184821672556113,-0.0005864621269123969,0.001848798611260075,-0.0012185323632136467,-0.0006883152746242515,-0.3817255198955536,-52.31290054321289,5.334578514099121,17.74817657470703,-1.2580465078353882,-1.3675644397735596,0.0064559997990727425,,,,,,,,,
1739355831.9517848,0.3238963249157721,1.17997335814964,0.3213360578495227,-1.1904536519989144,-1.4229539916587823,1.0391151649040165,0.0955899146386726,0.0008974284407678725,-0.0008880406806878757,-4.369353832031804e-05,0.0009206567617452344,-0.00035620793467181275,-0.0007327191764770953,-0.0008206837366521282,-0.4055292308330536,-52.28909683227539,5.334578514099121,17.72437286376953,-1.2580465078353882,-1.3812973499298096,0.03300629183650017,,,,,,,,,
1739355831.961811,0.323890911718326,1.1799708252758918,0.32133413123384685,-1.1904534057325542,-1.4229540049051423,1.0391147598166186,0.09559101302098302,-0.0014001475224557612,-0.0007737643600303772,0.00036993239563662346,0.0002714492485223016,-0.0007990108402506749,-0.00039224459302803936,0.00027789571336721763,-0.3301508128643036,-52.28909683227539,5.334578514099121,17.72437286376953,-1.2580465078353882,-1.3748886585235596,-0.027418512850999832,,,,,,,,,
1739355831.9728584,0.3238935595038112,1.1799736542956705,0.3213338269676505,-1.190457268307055,-1.4229551495700612,1.0391187139971838,0.09558956144129935,0.0015159861424472647,0.0014329595565841062,0.0005613539272475271,-0.0004926491330642256,-0.0006419172656477363,-8.951926997114189e-05,-0.0006575963814429925,-0.3539545238018036,-52.28909683227539,5.334578514099121,17.77594757080078,-1.2452291250228882,-1.3812973499298096,-0.027418512850999832,,,,,,,,,
1739355831.9838176,0.3238935257692287,1.1799707706660953,0.3213348065783529,-1.1904551884081838,-1.4229561475483543,1.0391180853652182,0.09559334652174829,0.0003089367040959387,-0.0011898065459717481,0.0003173468553879953,-0.0007347756075976452,-0.0008339530383550234,0.0007508198714504628,0.002058979067985521,-0.3539545238018036,-52.26132583618164,5.362349510192871,17.74817657470703,-1.2388204336166382,-1.3877060413360596,-0.020094294100999832,,,,,,,,,
1739355831.9947915,0.3238945431852717,1.1799750634741273,0.32133455451740256,-1.1904534057675027,-1.4229497275367888,1.0391151759584334,0.09559169776173333,0.00041522615066184274,-0.00019687065728626988,0.0013201283168234677,-0.00039078743650759106,2.7935976442714336e-05,-0.00015832458032149946,0.003808879977958858,-0.3817255198955536,-52.31290054321289,5.334578514099121,17.72437286376953,-1.2580465078353882,-1.3812973499298096,-0.020094294100999832,,,,,,,,,
1739355832.004837,0.32389142713974767,1.1799706312149767,0.3213405165247831,-1.1904534057311646,-1.4229503510919723,1.0391129943454638,0.09559372660296284,0.00027194163004801207,-0.002030168349130198,0.0018114046448870413,6.429993364981916e-05,0.0017155528984548602,-0.0012101342106539308,-2.8046651696268994e-05,-0.3539545238018036,-52.28909683227539,5.283003807067871,17.72437286376953,-1.2580465078353882,-1.3675644397735596,-0.027418512850999832,,,,,,,,,
1739355832.0148728,0.32388870058526026,1.1799713186255065,0.32133276799690635,-1.1904534335303125,-1.4229495958650376,1.0391183611082186,0.09559181645360301,-0.0015895213771926259,-5.049663961595121e-05,0.0015340501976982006,0.0004139429672656706,0.002212518432717135,0.00021311975747336732,0.0007355417823473449,-0.3301508128643036,-52.28909683227539,5.362349510192871,17.72437286376953,-1.2644551992416382,-1.3812973499298096,-0.0072769103571772575,,,,,,,,,
1739355832.0257723,0.3238935576723727,1.1799728914187595,0.32133066147307915,-1.1904573430058698,-1.4229506680177568,1.0391135046132711,0.0955886921880332,-2.1595641771373687e-05,-0.00013906565233678535,-0.0020106561602145066,-0.0007185811880752843,0.0025087998861407974,-0.002281066982219834,-0.0005138833382459017,-0.3539545238018036,-52.28909683227539,5.386153221130371,17.74817657470703,-1.2580465078353882,-1.3748886585235596,0.019273381680250168,,,,,,,,,
1739355832.0358326,0.3238934465197419,1.1799709247839678,0.32133618033930905,-1.1904523387824355,-1.4229527756297098,1.0391170778371484,0.09559258937459457,-0.00036996020726451356,-5.049026789775708e-05,0.001317613472529718,0.0012256239507916636,6.352492924552739e-05,0.0002312229072710775,0.0011106382861209812,-0.3539545238018036,-52.28909683227539,5.334578514099121,17.70056915283203,-1.2580465078353882,-1.3675644397735596,-0.013685601763427258,,,,,,,,,
1739355832.0468209,0.3238915330215416,1.1799734601907474,0.3213345592657188,-1.1904555544458555,-1.422950350064326,1.0391156402947388,0.09559039700817726,0.0008967366764404553,-0.0015185972698853495,-0.00011427502606365509,0.00010601257174265126,0.0026904189053275087,0.0021676711854325937,-0.00045146745817005365,-0.3301508128643036,-52.28909683227539,5.334578514099121,17.72437286376953,-1.2516378164291382,-1.3812973499298096,0.012864691205322742,,,,,,,,,
1739355832.0578032,0.323893560577293,1.1799751372780074,0.3213319720504907,-1.1904516235386784,-1.42295388757342,1.039117129686423,0.09559421277510687,-0.00037207460000522336,0.0006507173598663287,-0.0005021675894446318,0.0010502171669465631,-0.0007605630103745139,0.00074000264899604,0.0009178187608867541,-0.3539545238018036,-52.31290054321289,5.362349510192871,17.70056915283203,-1.2580465078353882,-1.3675644397735596,-0.027418512850999832,,,,,,,,,
1739355832.0688515,0.3238971887596176,1.179973614628423,0.32133176186627954,-1.1904595326839695,-1.4229532344855353,1.039114895017048,0.09558402619488257,0.0013015188103846446,-0.0008567930760918998,-0.0002520118486580485,-0.002057547554970287,-0.0004477901789633093,0.0009279882767245466,-0.0024606086550752557,-0.4055292308330536,-52.28909683227539,5.362349510192871,17.77594757080078,-1.2644551992416382,-1.3748886585235596,0.04673920199275017,,,,,,,,,
1739355832.0807483,0.3238928497945554,1.1799716236398123,0.3213320504954214,-1.190458009993851,-1.422953180079687,1.0391161820255677,0.09558631356194747,-0.000549172580888022,-0.0006771270223377395,-0.000758792174955749,-0.0015598330177388593,0.0003664598554936714,0.00012733615402022542,-0.001170772929506299,-0.3539545238018036,-52.28909683227539,5.362349510192871,17.77594757080078,-1.2516378164291382,-1.3675644397735596,0.03941498324275017,,,,,,,,,
1739355832.090819,0.3238954516254608,1.179969869758674,0.32133173551304883,-1.1904535219830323,-1.4229507718984684,1.0391155181376261,0.09558600467468706,0.001370336364143898,-0.001885094989367259,-0.0006388686110322565,0.0008417425925814738,0.001487841718359229,-0.0009677218344836744,-0.0011669155824167827,-0.3817255198955536,-52.23752212524414,5.362349510192871,17.72437286376953,-1.2452291250228882,-1.3812973499298096,0.03300629183650017,,,,,,,,,
1739355832.1017632,0.3238934824346646,1.179973462586599,0.32133381530112637,-1.1904573343214064,-1.4229505223170824,1.0391195766358947,0.09558782206604857,-4.325047402229786e-05,-0.00048728010105868094,-0.0008410629917168286,0.0008806457129536857,0.0009348791481544048,0.0020448591026213923,-0.002851985737871039,-0.3539545238018036,-52.28909683227539,5.334578514099121,17.74817657470703,-1.2516378164291382,-1.3877060413360596,0.026597600430250168,,,,,,,,,
1739355832.111779,0.32389485394645806,1.1799733355635713,0.321338672609388,-1.190451862599228,-1.4229545908130463,1.039116135653357,0.09558631161969829,0.00022724061663926154,0.00038424838648001727,0.00247977680934986,0.0010076319786338152,-1.947369624720832e-05,-0.0013020818505530799,-0.0010044461641647486,-0.3817255198955536,-52.31290054321289,5.310774803161621,17.70056915283203,-1.2516378164291382,-1.3611557483673096,0.03941498324275017,,,,,,,,,
1739355832.121823,0.3238932138954057,1.1799736570412616,0.3213385117312379,-1.1904553035334193,-1.422950468899071,1.0391179418683656,0.09559466316021212,0.0001804803963536236,0.00019004163458731591,0.0019473429376099507,-0.00011756349860513998,0.0002952752739736012,0.00014794544196319184,0.0016268545419470422,-0.3539545238018036,-52.28909683227539,5.310774803161621,17.74817657470703,-1.2580465078353882,-1.3748886585235596,-0.04023589566349983,,,,,,,,,
1739355832.1319208,0.32389161276507944,1.1799774016553461,0.32133460671672365,-1.190457986399165,-1.4229551658222368,1.0391147605344873,0.09559095526015875,-0.001047410948100989,0.0008352201535542223,0.00015852525759432398,-0.0012864766413405752,-0.001662722412459618,-0.0010830490609470367,-0.0009527998418247736,-0.3301508128643036,-52.34067153930664,5.334578514099121,17.77594757080078,-1.2452291250228882,-1.3748886585235596,-0.0008682189509272575,,,,,,,,,
1739355832.1427855,0.3238936024918419,1.1799736911943404,0.321334101522917,-1.1904537246159121,-1.4229540053837266,1.0391191565758497,0.09558188233447651,-4.081138164528379e-05,-0.0005469737024040235,0.0005369865529010463,-0.00020612391823477463,-0.0012445499003994442,0.00018678114902972477,-0.004004315894059928,-0.3539545238018036,-52.28909683227539,5.362349510192871,17.72437286376953,-1.2580465078353882,-1.3877060413360596,0.03941498324275017,,,,,,,,,
1739355832.1528177,0.32389355929533864,1.1799774016559246,0.3213328136612728,-1.1904554268285623,-1.4229544098371052,1.0391187536361528,0.0955902080781255,0.00019683527262693,0.0007441335141298018,0.0002559050335458031,-0.0004995494297151853,-0.001830766366445333,-0.000573791876909459,0.00018727079919318845,-0.3539545238018036,-52.34067153930664,5.386153221130371,17.74817657470703,-1.2516378164291382,-1.3812973499298096,0.0064559997990727425,,,,,,,,,
1739355832.1637456,0.3238926245653832,1.179973691521389,0.32133394405166404,-1.1904535244512264,-1.4229539899579848,1.0391187533151438,0.09559258980806255,-0.0014002411826891713,-0.0005464510580877239,0.0005051566629159126,0.0005044458346905044,-0.0011099606401292748,-0.00021023051271458674,0.0007939560824065049,-0.3539545238018036,-52.28909683227539,5.362349510192871,17.72437286376953,-1.2452291250228882,-1.3812973499298096,-0.013685601763427258,,,,,,,,,
1739355832.1738,0.3238957063304318,1.1799716932534925,0.32132995330368097,-1.1904552238404809,-1.4229532078118559,1.0391179961382455,0.09559097335841998,-0.00013500306689630758,0.00027745005566873687,-0.0015019075493292685,-0.0011618022530699645,-0.00020696676795360755,-0.0007384376977133363,0.0014501206238634982,-0.3539545238018036,-52.26132583618164,5.386153221130371,17.74817657470703,-1.2644551992416382,-1.3748886585235596,-0.027418512850999832,,,,,,,,,
1739355832.1838937,0.32389013557394747,1.1799754037150716,0.3213339202838008,-1.1904561424101483,-1.422955520063195,1.0391181080616227,0.09558959611145848,-0.0008170284846876182,0.00105075552443551,-3.30943877466654e-06,0.0004779901483537263,-0.0012885154030230024,0.00038680609043162796,0.0002571885570659357,-0.3063471019268036,-52.31290054321289,5.334578514099121,17.74817657470703,-1.2452291250228882,-1.3748886585235596,-0.0008682189509272575,,,,,,,,,
1739355832.1948411,0.323893531582763,1.1799736913033565,0.32133562422440465,-1.1904534175103063,-1.42294976667571,1.0391172479805526,0.0955873537196478,-0.0003808452052368697,0.0010866358037931508,0.00012355351533919925,0.0004805102521683826,-0.0001567109801176697,0.0011655352483126303,-0.0014240116957838144,-0.3539545238018036,-52.28909683227539,5.310774803161621,17.72437286376953,-1.2580465078353882,-1.3675644397735596,0.026597600430250168,,,,,,,,,
1739355832.205834,0.3238955585197607,1.1799682686480906,0.3213367631284275,-1.1904575818604235,-1.4229492013867246,1.0391181124242674,0.09558544425951333,0.0012996992576536723,-0.001678519530449941,0.0005231274711198357,-0.0003992282146890926,0.002181259062559318,0.00014527286657060838,-0.0003200272398149824,-0.3817255198955536,-52.21371841430664,5.334578514099121,17.74817657470703,-1.2717794179916382,-1.3748886585235596,0.04673920199275017,,,,,,,,,
1739355832.215887,0.32389379803467344,1.1799775494822908,0.3213358366903213,-1.190454466390973,-1.4229515840815656,1.0391168947678509,0.09558263999654187,0.0006816917455046491,0.0010315720584063409,-0.00045032781535696645,0.0007526582466314379,-2.5062247833663163e-05,-0.0005232407837664379,-0.001777755966721396,-0.3539545238018036,-52.31290054321289,5.334578514099121,17.72437286376953,-1.2516378164291382,-1.3675644397735596,0.03300629183650017,,,,,,,,,
1739355832.2268143,0.32388974188623526,1.1799754832000442,0.3213365789438479,-1.1904524208775236,-1.4229540053717913,1.0391181138758239,0.09559317614723034,-0.0008861436781438947,0.0002163310909564198,0.0017308872422572069,0.001407839551445294,-0.0004904504937947532,-3.596218893485026e-05,0.0015964618543476109,-0.3301508128643036,-52.31290054321289,5.310774803161621,17.70056915283203,-1.2580465078353882,-1.3748886585235596,-0.020094294100999832,,,,,,,,,
1739355832.237794,0.323892749361352,1.1799737176857423,0.3213317359488358,-1.190455532795079,-1.42295384840631,1.0391172474960686,0.09559254848345554,-7.455909319255e-05,-0.00015301531201269622,-0.001481309236729864,-0.0003601239015772664,-0.0002721584633886653,-0.0003605671738395004,0.0005097422616654411,-0.3817255198955536,-52.28909683227539,5.362349510192871,17.74817657470703,-1.2580465078353882,-1.3675644397735596,-0.013685601763427258,,,,,,,,,
1739355832.249779,0.32389555850406665,1.1799738429454343,0.32133480672229864,-1.190454372307683,-1.4229532413762191,1.0391187538003235,0.09559240284140177,-0.0002441953266658132,-0.0012844891003372238,-0.0012463849501578655,0.0009851999103231484,0.0011511458967724902,0.0008221393535029541,0.001919150122243237,-0.3817255198955536,-52.26132583618164,5.362349510192871,17.72437286376953,-1.2644551992416382,-1.3812973499298096,-0.04023589566349983,,,,,,,,,
1739355832.2597814,0.3238901355376089,1.1799757480746058,0.3213345590896937,-1.1904534365155468,-1.4229544610717282,1.0391188671765808,0.09558706482590829,-0.001032499052167226,0.000785514955953012,0.0006338364460608248,0.00019971261788016788,0.000282300866439884,0.0008538082687456311,-0.0025154447847921084,-0.3063471019268036,-52.31290054321289,5.334578514099121,17.72437286376953,-1.2452291250228882,-1.3812973499298096,0.03300629183650017,,,,,,,,,
1739355832.2698805,0.32389356057907137,1.1799724073643287,0.32133381952598994,-1.1904526680846157,-1.4229535344215118,1.0391172479805115,0.09558818463731855,0.0007346607005527307,-0.0010192594829726877,0.00014183013731185597,0.0007869741633629595,-0.0004358369998930774,-0.0004638186367632504,-0.0011943114769349757,-0.3539545238018036,-52.26132583618164,5.334578514099121,17.70056915283203,-1.2580465078353882,-1.3675644397735596,0.019273381680250168,,,,,,,,,
1739355832.2807808,0.32389356015108156,1.179975392381411,0.321336754851815,-1.190458050890582,-1.4229525406555577,1.039118871537896,0.09559101905952086,-0.0003349705722680296,0.0007201712150179862,0.0004781656639505717,-0.0011816402155966144,0.0006257303281833722,0.00035054045176642894,0.0011560259523289698,-0.3539545238018036,-52.31290054321289,5.334578514099121,17.74817657470703,-1.2644551992416382,-1.3812973499298096,-0.027418512850999832,,,,,,,,,
1739355832.2908552,0.32389555563098604,1.1799754066583188,0.32133584633569473,-1.1904544786087383,-1.4229547623918182,1.0391137168883235,0.0955957281980946,0.0011456297042535734,0.0011092657017643252,0.001297443639606057,0.00013851361985533947,-0.00110336779782936,-0.0014318900817899016,0.003214446359024268,-0.3817255198955536,-52.31290054321289,5.310774803161621,17.72437286376953,-1.2516378164291382,-1.3748886585235596,-0.04023589566349983,,,,,,,,,
1739355832.3017612,0.32389184516939273,1.1799736911943568,0.32133583710673225,-1.190454602801867,-1.4229541064055002,1.0391181138529966,0.09559189161977256,8.979724090847367e-05,-0.00013022430057649102,0.0018205856194149716,0.0004583414773600694,0.0007805203891345816,-5.8519969751185386e-05,0.0005957373705510863,-0.3301508128643036,-52.28909683227539,5.310774803161621,17.70056915283203,-1.2452291250228882,-1.3748886585235596,0.019273381680250168,,,,,,,,,
1739355832.3128233,0.3238935870700083,1.1799700072237094,0.3213317364846824,-1.1904537632486678,-1.4229513020145788,1.0391172478190795,0.095587866341047,0.0007801502130003844,-0.0006574611370521218,-0.0017550487430876634,-0.0003967227370549875,0.0008543084609001015,-0.00022492949028648352,-0.00027712441404342055,-0.3539545238018036,-52.23752212524414,5.362349510192871,17.72437286376953,-1.2452291250228882,-1.3675644397735596,0.026597600430250168,,,,,,,,,
1739355832.323915,0.3238935567273128,1.1799737745919352,0.3213338156611547,-1.19045653177468,-1.4229522176815679,1.0391172479805844,0.09559251041424381,0.0003184083340483344,0.0006395777463396252,0.0008229412461798927,0.0010325774760283437,0.0007622320634160256,-2.0244031178560982e-05,0.0003999671545723123,-0.3539545238018036,-52.28909683227539,5.334578514099121,17.72437286376953,-1.2452291250228882,-1.3675644397735596,-0.013685601763427258,,,,,,,,,
1739355832.3348055,0.32389356057904967,1.1799775760827236,0.3213327603883537,-1.1904523437716836,-1.4229547192631562,1.0391188717034394,0.09558995451084841,-0.0003034884072903324,0.0011368650076529145,-0.0004869525348529456,0.0007852218959828914,-6.973787512509587e-05,0.00019243422289727373,0.00018364159275617207,-0.3539545238018036,-52.31290054321289,5.362349510192871,17.67676544189453,-1.2516378164291382,-1.3812973499298096,-0.027418512850999832,,,,,,,,,
1739355832.344895,0.3238955556309933,1.1799736912311296,0.32133389771792864,-1.190456624369869,-1.4229547609495008,1.0391172479805881,0.09559255003518223,-3.6564890586226724e-05,6.391908894250371e-05,-0.0008848436395567359,0.0005533614274901757,-0.0007518388354085706,-0.0003579893191764528,0.0008326876786933285,-0.3817255198955536,-52.28909683227539,5.362349510192871,17.72437286376953,-1.2516378164291382,-1.3675644397735596,-0.013685601763427258,,,,,,,,,
1739355832.3557956,0.323895706346267,1.179971693289826,0.3213361774233287,-1.190456907999315,-1.4229544098370932,1.0391188715378963,0.09558625662727932,0.00033675812927269784,-0.0009761772110505653,-0.00010817304076153969,0.00015029045007608358,-0.00018457850540373933,0.0004725229442419345,-0.0020293941296888637,-0.3539545238018036,-52.26132583618164,5.334578514099121,17.70056915283203,-1.2516378164291382,-1.3812973499298096,0.012864691205322742,,,,,,,,,
1739355832.365812,0.32389356363152694,1.1799768629136564,0.3213327883741294,-1.1904584071639797,-1.4229555206919482,1.0391167790168243,0.09558631145751542,0.0010871306229724917,0.00040283416791606655,0.0005863476032749745,0.0001695670240688924,-0.0010441104361533031,-0.0011837757424780046,-0.0005249876445651577,-0.3539545238018036,-52.28909683227539,5.362349510192871,17.74817657470703,-1.2452291250228882,-1.3675644397735596,0.03941498324275017,,,,,,,,,
1739355832.376771,0.3238955585199302,1.1799724438364634,0.3213317705074741,-1.1904548387615237,-1.4229515841354268,1.0391196291970919,0.09559210987047397,0.0007756495040291418,0.0006058646079035583,-0.0023889156111806123,0.0009915789618406817,-0.0005401291451755579,0.0001777944674435428,0.00026797206283622933,-0.3817255198955536,-52.26132583618164,5.362349510192871,17.70056915283203,-1.2516378164291382,-1.3877060413360596,-0.013685601763427258,,,,,,,,,
1739355832.3877544,0.3238907525380286,1.179971799221537,0.3213338153013239,-1.1904565969098657,-1.422954723732178,1.0391172479805852,0.095585948111151,-0.0007086812703157723,-0.000656611043470155,6.59469913293528e-05,0.00019290209582672904,-0.0011395524443945752,-0.0003086482140601618,-0.0009130918750634345,-0.3539545238018036,-52.26132583618164,5.334578514099121,17.72437286376953,-1.2516378164291382,-1.3675644397735596,0.0064559997990727425,,,,,,,,,
1739355832.397794,0.32389356085856574,1.179972661739682,0.32133173659133935,-1.1904565445816082,-1.4229532283483224,1.0391187716789942,0.09559070142728247,-2.187297726620875e-05,-0.0008873119220624756,-0.0009245227839830459,-0.0005261119127054904,0.0006104685603723743,0.000358686547477691,0.0010799048286902501,-0.3539545238018036,-52.31290054321289,5.362349510192871,17.72437286376953,-1.2644551992416382,-1.3812973499298096,-0.0008682189509272575,,,,,,,,,
1739355832.4078813,0.3238955585199291,1.179967225954233,0.32133381562516516,-1.190461162116786,-1.4229540034513415,1.039118871536205,0.09558831897773616,0.0005739000382640404,-0.0014120069541513425,-0.001122944651697265,-0.0015394576232365981,-0.0008173953306046221,0.0001398969110991309,-0.0005827176963106606,-0.3817255198955536,-52.23752212524414,5.334578514099121,17.74817657470703,-1.2580465078353882,-1.3812973499298096,0.019273381680250168,,,,,,,,,
1739355832.4188275,0.3238936400519311,1.179975492329747,0.32133270674494707,-1.1904547622476556,-1.422950793043682,1.0391172479805852,0.09558383554559,-6.099603703270062e-05,0.0007886840925510574,-0.0007925527535098016,0.0007455916407701187,0.0004729021308379505,-0.00018136297208165946,-0.0016598772841753594,-0.3539545238018036,-52.31290054321289,5.362349510192871,17.70056915283203,-1.2580465078353882,-1.3675644397735596,0.03300629183650017,,,,,,,,,
1739355832.4298093,0.32389356090746607,1.1799737837506528,0.3213355981026002,-1.1904547660099882,-1.422955507089023,1.0391172479805852,0.09559334698003044,0.0005317767825998797,0.00041981107356660184,0.0004570746673462744,0.0004564580615257672,0.00012770604628048276,-0.000512618882907294,0.0001316982425684552,-0.3539545238018036,-52.28909683227539,5.310774803161621,17.70056915283203,-1.2452291250228882,-1.3675644397735596,-0.020094294100999832,,,,,,,,,
1739355832.4398143,0.32389427583481056,1.1799754419803044,0.32133208559750237,-1.1904566243815546,-1.4229529413908797,1.0391172479805852,0.09559421287793857,-7.975128074496626e-05,4.2192148137129223e-05,-8.330805228112273e-05,0.00039646691573097715,0.00020553947152196565,-0.00027426080530478306,0.0011222343314795835,-0.3539545238018036,-52.31290054321289,5.362349510192871,17.72437286376953,-1.2580465078353882,-1.3675644397735596,-0.027418512850999832,,,,,,,,,
1739355832.450769,0.323891851005817,1.179974089213251,0.3213324451183077,-1.1904566243819819,-1.4229512309167107,1.0391196291979743,0.09559106091117471,-0.0005364395514565736,-0.0008998619646884078,-0.0006008735709853668,0.00034043447828897535,0.0010072384586050699,0.0005984234484652178,0.00036990438204664486,-0.3301508128643036,-52.26132583618164,5.362349510192871,17.72437286376953,-1.2516378164291382,-1.3877060413360596,-0.0008682189509272575,,,,,,,,,
1739355832.460813,0.3238935870701744,1.1799738420858656,0.3213366595056031,-1.1904548417049627,-1.4229515795953251,1.039118871537896,0.09559287387626712,-0.00050705111083506,-0.0007249704786660865,0.0017790057991450433,0.0008634499478833218,-2.1007908695765353e-05,5.165886922040152e-05,-0.00027289700300310896,-0.3539545238018036,-52.26132583618164,5.310774803161621,17.70056915283203,-1.2516378164291382,-1.3812973499298096,-0.020094294100999832,,,,,,,,,
1739355832.4718745,0.32389137669255413,1.1799731597965426,0.32133408666435553,-1.1904512762055697,-1.4229547630438246,1.0391172479805852,0.09559264906250059,-0.0008960882194201331,0.0007339056028740777,-3.276453038461103e-05,0.0017701434176070005,-0.0010459120816092363,-0.00034446736219616195,0.0003284104950554144,-0.3539545238018036,-52.23752212524414,5.334578514099121,17.65296173095703,-1.2516378164291382,-1.3675644397735596,0.012864691205322742,,,,,,,,,
1739355832.4819157,0.3238935575461585,1.1799745573827296,0.3213338940427218,-1.1904581686404194,-1.4229522240579353,1.0391181138778176,0.09558228534485527,-0.00031287460386872254,-0.0004964980772044331,0.0005556519667587013,-0.0011735944722954242,0.0007791893603567664,-0.00013748737953941486,-0.003612603980235019,-0.3539545238018036,-52.26132583618164,5.334578514099121,17.74817657470703,-1.2452291250228882,-1.3748886585235596,0.03300629183650017,,,,,,,,,
1739355832.4927404,0.323893595900291,1.179976633155865,0.3213356362139068,-1.1904543988108238,-1.4229550633569812,1.0391196291979743,0.0955867136813979,-9.659054816254316e-06,-0.00018581627293731652,0.000467165804658297,-0.0002071873080403666,-0.0007798317702987287,0.0007939886809133546,-0.0021037057542175872,-0.3539545238018036,-52.28909683227539,5.310774803161621,17.72437286376953,-1.2580465078353882,-1.3877060413360596,0.03300629183650017,,,,,,,,,
1739355832.5027988,0.32389356057927077,1.179974831448737,0.3213317738539214,-1.1904546032374816,-1.4229494136304817,1.039118871537896,0.09558659611999266,-0.0003449704002027946,-0.0008841420077507152,-0.0004232212557801338,0.0006795282111460772,-0.0005079243897981953,-2.7385739344634366e-05,-0.0019120114423749335,-0.3539545238018036,-52.26132583618164,5.362349510192871,17.70056915283203,-1.2580465078353882,-1.3812973499298096,0.03300629183650017,,,,,,,,,
1739355832.514838,0.3238897773488291,1.1799749115768021,0.3213357120336045,-1.1904509132593857,-1.422950715333587,1.039116490320507,0.09558939506959745,-0.000979838927229127,0.0003299836065213155,-0.0003174409107820022,0.0019939803143095617,0.0002254680754301504,-0.0007057640788164475,-0.00035009061206851583,-0.3301508128643036,-52.26132583618164,5.310774803161621,17.67676544189453,-1.2580465078353882,-1.3611557483673096,-0.013685601763427258,,,,,,,,,
1739355832.5257528,0.3238918479396535,1.1799764501077223,0.3213320885143307,-1.190456627204292,-1.4229515317890455,1.0391181138778176,0.0955890885960298,-0.0013460321845839584,0.0004450406304448405,0.00019555571512272122,0.00023103515474703424,0.0009291355825871472,0.0004074379010959391,0.00022060048734657623,-0.3301508128643036,-52.31290054321289,5.362349510192871,17.72437286376953,-1.2516378164291382,-1.3748886585235596,-0.020094294100999832,,,,,,,,,
1739355832.5358164,0.3238935605790707,1.1799823318340648,0.3213326895378451,-1.190458407059017,-1.4229540039179458,1.0391184759208452,0.09559299219653232,-0.000363861440109171,0.00300680107842296,-1.5817672040639014e-05,-0.0010288954907776448,-0.0003431202195894891,0.001133754057525674,-0.0006422799453029561,-0.3539545238018036,-52.36447525024414,5.362349510192871,17.74817657470703,-1.2580465078353882,-1.3748886585235596,-0.020094294100999832,,,,,,,,,
1739355832.5458348,0.32389256331407745,1.1799709472164672,0.3213342026200905,-1.1904584070590012,-1.42295440983708,1.039119233587055,0.09558907546477866,-0.0008545566089669379,-0.0011980605094702257,-0.0007889768416056803,9.736520275679897e-05,-0.0007417275425065342,8.987024647781946e-05,-0.0002482109468188088,-0.3301508128643036,-52.23752212524414,5.362349510192871,17.74817657470703,-1.2516378164291382,-1.3812973499298096,-0.020094294100999832,,,,,,,,,
1739355832.5567675,0.32389061777511013,1.1799767940571675,0.32133393196246046,-1.1904584070590012,-1.4229532475123234,1.0391188730298289,0.09559147682201972,-0.0009030834330236501,8.236394780599456e-05,-9.719002119288105e-05,-0.00031709103333152,-0.0011304216687951002,0.0003544682889680428,0.0005737641885022397,-0.3063471019268036,-52.28909683227539,5.334578514099121,17.74817657470703,-1.2644551992416382,-1.3812973499298096,-0.0072769103571772575,,,,,,,,,
1739355832.5668645,0.3238935605872381,1.1799764765967165,0.32133310523240816,-1.1904540911279544,-1.422953887652163,1.0391172479806106,0.09558995687016021,0.00041146960236966817,0.0007792712344083151,-0.00036647425334243437,0.0010402651418877737,0.000484044274487613,-0.00010037398433231115,-0.000534080101642212,-0.3539545238018036,-52.31290054321289,5.386153221130371,17.70056915283203,-1.2580465078353882,-1.3675644397735596,-0.0008682189509272575,,,,,,,,,
1739355832.5777376,0.3238918481673565,1.1799718114331785,0.3213348066320847,-1.1904622695216387,-1.4229493549973182,1.0391181138778178,0.09559381668035224,-0.0014124305518430952,-0.0009841270154623202,0.0014862724570594977,-0.0006096999874644169,0.0010610479039463109,-0.00030213157041980804,0.001304127895659642,-0.3301508128643036,-52.26132583618164,5.362349510192871,17.79975128173828,-1.2580465078353882,-1.3748886585235596,-0.027418512850999832,,,,,,,,,
1739355832.5887704,0.3238935610151383,1.1799766713740723,0.32133176191695395,-1.1904530590279436,-1.422953887573412,1.0391172479805855,0.09558865340063775,0.0001268821142938309,0.0007945410477801888,-0.0006736790552901458,0.0008188341353283963,-0.0007288040514146912,-0.000719962303607346,4.842301474705505e-05,-0.3539545238018036,-52.28909683227539,5.362349510192871,17.67676544189453,-1.2580465078353882,-1.3675644397735596,0.019273381680250168,,,,,,,,,
1739355832.5988498,0.3238973467706259,1.1799768744135246,0.3213348432025483,-1.1904584073739368,-1.4229525920537156,1.0391172479805855,0.09559816932039755,0.0008490938924250547,0.0008083240209020403,0.00035159700057819704,-0.0008153815025251339,0.0008937711289303138,-0.00045877328438774403,0.0039636325333659095,-0.4055292308330536,-52.28909683227539,5.334578514099121,17.74817657470703,-1.2580465078353882,-1.3675644397735596,-0.03382720425724983,,,,,,,,,
1739355832.6098316,0.32389256331450494,1.17997459390365,0.32133278829592593,-1.1904548417049647,-1.422954005327923,1.0391164903205072,0.09558830523961818,-0.00041545107877563755,-0.0006465804221396441,-0.0005935862303216349,-0.0001255840611531875,-0.0010154603337918478,-0.0006647917314932147,0.0005140334784938475,-0.3301508128643036,-52.26132583618164,5.362349510192871,17.70056915283203,-1.2580465078353882,-1.3611557483673096,0.026597600430250168,,,,,,,,,
1739355832.620832,0.3238918493786483,1.1799786091695357,0.32133664985095134,-1.1904559091262448,-1.4229540034516686,1.0391196291979745,0.09558830084175651,-0.00038858331090964776,0.0020053263450450502,0.0005635753303101734,0.0006419759193047126,-0.0005836281783698688,0.0005227261998883108,-0.00021409849496767733,-0.3301508128643036,-52.31290054321289,5.334578514099121,17.72437286376953,-1.2580465078353882,-1.3877060413360596,0.026597600430250168,,,,,,,,,
1739355832.6317828,0.32389256331407995,1.1799769098451334,0.3213338617396221,-1.1904541264478796,-1.4229538832915123,1.0391172477472994,0.09559218193400748,1.5489410054353144e-05,0.0006920734926550733,0.0005896085056336586,0.0006137467174460801,0.0007619813925549828,-0.0008223826578149195,-0.0010661444754626048,-0.3301508128643036,-52.28909683227539,5.362349510192871,17.70056915283203,-1.2580465078353882,-1.3675644397735596,-0.013685601763427258,,,,,,,,,
1739355832.642751,0.3238935724658823,1.1799748206576883,0.32133665085318897,-1.1904566243779444,-1.422953286490309,1.0391181138778165,0.09559257168567777,-0.00048316338628887333,-0.00037905237976912354,0.0003286294378203452,0.0005942812616699791,0.00017292783774668785,-0.00036395323374244573,-0.00019060069995491626,-0.3539545238018036,-52.26132583618164,5.334578514099121,17.72437286376953,-1.2644551992416382,-1.3748886585235596,-0.013685601763427258,,,,,,,,,
1739355832.6528237,0.32389555852012575,1.1799700999405003,0.3213356767631656,-1.1904548417049627,-1.4229540037753372,1.0391176100236128,0.09558785779571459,-0.00022327227613472934,-0.001789824750023491,-0.0008389513110895415,7.390657550907707e-05,-0.0003553234361327478,-0.00027884457510093756,-0.0007528881636573632,-0.3817255198955536,-52.23752212524414,5.310774803161621,17.70056915283203,-1.2580465078353882,-1.3675644397735596,-0.013685601763427258,,,,,,,,,
1739355832.663903,0.3238918480583402,1.1799790552678249,0.32133478671525695,-1.1904565449091222,-1.422954660526653,1.0391172479826292,0.09559254991807407,-0.0005319202988122045,0.0002926489703194928,3.094598828202926e-05,0.0006462388072399317,-0.00031894863070845215,-0.0006409764270965661,-0.0008068829112322747,-0.3301508128643036,-52.28909683227539,5.334578514099121,17.72437286376953,-1.2644551992416382,-1.3675644397735596,-0.013685601763427258,,,,,,,,,
1739355832.6747725,0.3238939938255521,1.1799764765017722,0.32133388766141807,-1.1904566243815333,-1.4229540034058097,1.0391181138778178,0.0955905414150414,0.0002294115021007111,0.000283402947784231,0.00023962944562847048,2.8868139443292832e-05,0.0005512005082990167,-0.0005549934349000312,-0.0002649217341206822,-0.3301508128643036,-52.31290054321289,5.362349510192871,17.72437286376953,-1.2580465078353882,-1.3748886585235596,-0.027418512850999832,,,,,,,,,
1739355832.6847823,0.32389555844926576,1.1799727366663602,0.32133664997757605,-1.1904566215435213,-1.422954802295638,1.039119953306328,0.09558478695827557,0.0002585594426950274,-0.0009100006715991692,0.0005423307441091848,0.0003361602542807312,-0.001534017065519171,0.0006609568308004678,-0.0025778134189320323,-0.3817255198955536,-52.26132583618164,5.334578514099121,17.72437286376953,-1.2516378164291382,-1.3812973499298096,0.03941498324275017,,,,,,,,,
1739355832.6957695,0.32389770428713593,1.1799748029847734,0.32133843295817066,-1.190458407058985,-1.4229576399325383,1.039117247986692,0.09558945048853139,0.001378215195443333,-0.0010159983892104336,0.0017042175626439447,-0.0006379959409101984,-0.0010984145285748512,-0.0005364517064284468,-0.00047698990022641466,-0.3817255198955536,-52.26132583618164,5.310774803161621,17.74817657470703,-1.2452291250228882,-1.3675644397735596,0.012864691205322742,,,,,,,,,
1739355832.7067752,0.3238935605911843,1.179982253353999,0.3213338506353726,-1.1904541264492254,-1.422955519268306,1.0391181153677067,0.09559491363791797,-0.0004676289356321075,0.002202400830109218,0.0006214929870878564,0.0011178419463211667,-0.0006827601943933582,-0.00018463439433700062,0.002307369999016759,-0.3539545238018036,-52.36447525024414,5.334578514099121,17.70056915283203,-1.2452291250228882,-1.3748886585235596,-0.03382720425724983,,,,,,,,,
1739355832.7167845,0.3238942758348089,1.179972527717168,0.32133559830276437,-1.1904562612796763,-1.4229539530619033,1.039118113877843,0.09559222985555096,-0.00036311173281946825,-0.0007286727206178126,0.0006930327768631505,-6.847620945401095e-05,0.0005661387097958119,-6.017237355787587e-05,0.001122388866737098,-0.3539545238018036,-52.26132583618164,5.310774803161621,17.74817657470703,-1.2580465078353882,-1.3748886585235596,-0.020094294100999832,,,,,,,,,
1739355832.7278197,0.3238918481713941,1.1799749118545075,0.3213339060268894,-1.1904566251693216,-1.4229512821570804,1.0391172494704743,0.09559334508133582,-0.0006201809952222706,4.472721267070515e-05,-0.0005611521882994249,-9.524838079672539e-05,0.0014886403889070863,9.721883556211025e-05,0.0004442700461919878,-0.3301508128643036,-52.26132583618164,5.334578514099121,17.72437286376953,-1.2452291250228882,-1.3675644397735596,-0.020094294100999832,,,,,,,,,
1739355832.7389457,0.32389356057907204,1.1799737839126763,0.32133396639344647,-1.1904604733533577,-1.4229554872004757,1.039118113877826,0.09558395487623696,0.00027177941112405666,-0.0009512752104026576,-0.0005327526342317567,-0.0009239564172305911,-0.0006256290039246946,-0.00037015576839683514,-0.004491110963769539,-0.3539545238018036,-52.28909683227539,5.362349510192871,17.74817657470703,-1.2452291250228882,-1.3748886585235596,0.019273381680250168,,,,,,,,,
1739355832.7498608,0.32389356068808767,1.179974911886659,0.32133626040898605,-1.1904591043737112,-1.4229554814638474,1.0391164903205072,0.09558473423790845,0.0005372152640275595,-0.0009348639320309862,0.00040109896632873867,-0.0015149874164139964,-0.001213675935566174,-0.000451115390603234,-0.0033825711481344682,-0.3539545238018036,-52.26132583618164,5.334578514099121,17.74817657470703,-1.2452291250228882,-1.3611557483673096,0.03941498324275017,,,,,,,,,
1739355832.760791,0.3238917528871384,1.1799728520577426,0.3213338647722831,-1.1904566272203414,-1.4229547615960432,1.0391181138778178,0.0955894504882338,-0.001781332538170261,-0.0016998673922635405,8.178428443089106e-05,0.00027990698644501575,0.0005691451343500218,-0.0003415546103177918,0.0013950744529212604,-0.3301508128643036,-52.23752212524414,5.362349510192871,17.72437286376953,-1.2516378164291382,-1.3748886585235596,0.012864691205322742,,,,,,,,,
1739355832.7708092,0.323891455527824,1.179974911462358,0.3213339207518795,-1.1904584070590492,-1.4229549150265437,1.0391188715378963,0.09558387546430981,-0.00047914369251397955,-0.0003000875526307088,0.0003918272814000252,-0.0004959583497427088,-0.0010941613181509454,7.553511401870724e-05,-0.000777799642151401,-0.3539545238018036,-52.26132583618164,5.334578514099121,17.74817657470703,-1.2516378164291382,-1.3812973499298096,0.03300629183650017,,,,,,,,,
1739355832.7818086,0.32389356154833476,1.179976910826302,0.32133177147814995,-1.1904550712932243,-1.4229548153784817,1.0391188715378963,0.09559322872730006,-0.00047242895197068305,0.0005906301173890662,-0.0007922987762281209,0.0006456858486673328,-0.0013148714412327196,-0.0003386784350438507,0.0014013252301919021,-0.3539545238018036,-52.28909683227539,5.362349510192871,17.70056915283203,-1.2516378164291382,-1.3812973499298096,-0.020094294100999832,,,,,,,,,
1739355832.7927465,0.32389356057907687,1.179978596856088,0.32133672857032525,-1.190458168641718,-1.4229528930636937,1.0391181138778178,0.09559421244457064,-0.0005973047945357224,0.0005013101861363346,0.0010112223069825078,-0.00019654143380481607,0.0006897751599375614,-0.00022627386700072686,0.0008008404674077438,-0.3539545238018036,-52.31290054321289,5.334578514099121,17.74817657470703,-1.2644551992416382,-1.3748886585235596,-0.027418512850999832,,,,,,,,,
1739355832.8028648,0.3238918598320972,1.1799749122309218,0.3213338153504628,-1.1904566243779444,-1.4229558074136857,1.0391188715378963,0.09559421293201817,-0.0009161025316756027,0.0006744339790439039,0.00017831545885578688,9.02600166980607e-05,-0.000277758777530165,0.0001250156112885654,0.0014026420530942195,-0.3301508128643036,-52.26132583618164,5.334578514099121,17.72437286376953,-1.2388204336166382,-1.3812973499298096,-0.027418512850999832,,,,,,,,,
1739355832.8138022,0.32388844994396254,1.1799749120133232,0.32133003549550104,-1.1904566281612126,-1.4229547630471562,1.039120506367833,0.09559103462462729,-0.0016637403971372226,0.0015583096176040269,-0.0016767981851079255,-0.0003102621971402351,-0.0008057045089875786,0.0001957992997711651,0.0009171790016787884,-0.2825433909893036,-52.26132583618164,5.386153221130371,17.72437286376953,-1.2516378164291382,-1.3675644397735596,-0.0008682189509272575,,,,,,,,,
1739355832.8238108,0.3238918480587962,1.1799786135355734,0.3213348690174383,-1.190454841705027,-1.4229540623144796,1.0391172882627695,0.09558699535627062,-0.0006721254420695184,0.000951088970966801,0.0009655073870416355,0.00028222668794218456,0.0007203461105318968,-3.6385006643948946e-05,-0.001953682037559959,-0.3301508128643036,-52.31290054321289,5.334578514099121,17.70056915283203,-1.2452291250228882,-1.3675644397735596,0.0064559997990727425,,,,,,,,,
1739355832.835798,0.3238935605790714,1.1799747653860917,0.32133384457693326,-1.190458716186141,-1.4229515840733589,1.0391181272870462,0.09559368274775662,0.0008040013487078981,-0.0005661637779608185,0.0013766267594254977,-0.0002720027028390048,0.0010437858149438984,-2.441925832123571e-06,0.0009337406054499113,-0.3539545238018036,-52.28909683227539,5.334578514099121,17.72437286376953,-1.2516378164291382,-1.3748886585235596,-0.027418512850999832,,,,,,,,,
1739355832.8458035,0.3238947090812894,1.1799786223537838,0.32133245580917574,-1.1904566243937902,-1.422954005317956,1.0391188715379718,0.09559480783968363,-0.0003665561244132527,0.00036819582430534597,-0.0002084177412759933,3.247169695274276e-07,-0.0003390024862076964,7.211002875559136e-05,0.001733556555716598,-0.3301508128643036,-52.31290054321289,5.362349510192871,17.72437286376953,-1.2580465078353882,-1.3812973499298096,-0.03382720425724983,,,,,,,,,
1739355832.856774,0.32389773962455787,1.1799750352017044,0.3213317745418151,-1.1904568539702434,-1.422955520225376,1.0391181138778178,0.09559020669593399,0.0012132214460467891,-0.0002885425544488105,-0.0007986772572780507,0.000668660767867302,-0.0004712494424900282,3.6804133616963924e-05,0.000854577619135242,-0.3817255198955536,-52.26132583618164,5.362349510192871,17.72437286376953,-1.2452291250228882,-1.3748886585235596,0.0064559997990727425,,,,,,,,,
1739355832.8678079,0.3238935880998222,1.1799786115739748,0.3213359404681142,-1.1904586366485583,-1.4229551093551709,1.0391181138778178,0.09558782677766663,0.0001583504597950018,0.00027363716193200353,0.0008559931332198676,-0.0003651425671197518,0.0003221591154784012,-0.0006479832376219405,-0.0006258550285851715,-0.3539545238018036,-52.31290054321289,5.310774803161621,17.74817657470703,-1.2452291250228882,-1.3748886585235596,0.026597600430250168,,,,,,,,,
1739355832.8778114,0.3238935616697001,1.1799769098449753,0.3213318262428321,-1.1904611621220256,-1.4229540053827703,1.039122458394148,0.09558243830410199,-3.8453584820414364e-05,-0.0001467810331735934,-0.0005014682390233062,-0.00045037013217525757,0.00038678423404731185,0.002349276288758588,-0.002343444918928071,-0.3539545238018036,-52.28909683227539,5.362349510192871,17.74817657470703,-1.2580465078353882,-1.3748886585235596,0.03300629183650017,,,,,,,,,
1739355832.8878467,0.32389187454931184,1.1799749913771647,0.3213338426283981,-1.1904550713398814,-1.42295396614388,1.0391181139513923,0.09558595570014171,-0.00020059832746195433,-0.0003225115894419485,5.629352403915789e-05,0.0004074468600009901,0.0007369760453967019,0.00036545983494213447,-0.0014635205107936154,-0.3301508128643036,-52.26132583618164,5.334578514099121,17.70056915283203,-1.2580465078353882,-1.3748886585235596,0.03941498324275017,,,,,,,,,
1739355832.8978586,0.32389471006288445,1.179976909846504,0.3213366508056469,-1.1904584070628899,-1.4229547238032936,1.03911724814613,0.09559481286679086,0.00015389394167876952,-8.697626085491967e-05,3.9150602011894575e-05,-0.00014828899493964386,0.00036589238198341727,-0.0005906261615026158,0.001547077152507096,-0.3301508128643036,-52.28909683227539,5.334578514099121,17.74817657470703,-1.2516378164291382,-1.3675644397735596,-0.03382720425724983,,,,,,,,,
1739355832.9087696,0.32389555853608054,1.1799790559394188,0.32133384188682,-1.190454841704963,-1.4229547756470289,1.0391172479805864,0.09559491801811894,0.0005618082854710509,6.811245715685355e-05,-0.0006971947922516856,0.0007001434085360234,-0.0013096664784825387,-0.0008049341059368548,0.0022641064965259325,-0.3817255198955536,-52.28909683227539,5.334578514099121,17.70056915283203,-1.2516378164291382,-1.3675644397735596,-0.03382720425724983,,,,,,,,,
1739355832.9197443,0.32389556146336373,1.179978634151761,0.3213359171745648,-1.19045659136762,-1.4229539923616907,1.0391181139329988,0.0955925499444872,-0.00013162901434686416,0.0011180361669556045,0.001413705964888113,0.00011726688857988078,-0.00039124213828786356,0.00024839472882866813,-0.0004853405621216795,-0.3817255198955536,-52.31290054321289,5.310774803161621,17.70056915283203,-1.2580465078353882,-1.3748886585235596,-0.013685601763427258,,,,,,,,,
1739355832.9298606,0.3238935870700745,1.1799745822393088,0.3213324054594015,-1.1904607942559124,-1.4229542919378089,1.0391183341096688,0.09558549463986167,-0.0004711164217842291,-0.0011290009170078644,-0.0007151648171349731,-0.0016107652535591345,-9.136091374361036e-05,8.086103216965333e-05,-0.0009324195848840731,-0.3539545238018036,-52.26132583618164,5.386153221130371,17.77594757080078,-1.2516378164291382,-1.3675644397735596,0.019273381680250168,,,,,,,,,
1739355832.9408035,0.3238972828509009,1.1799749119024439,0.3213367645502513,-1.1904548502099672,-1.4229506295435483,1.0391208684721729,0.0955890362915168,0.0013275404509011093,-0.0009777120831158013,0.0010257454638062757,0.0012772020304232978,0.0009242428493316797,0.0006988133853329164,7.515042690213491e-05,-0.4055292308330536,-52.26132583618164,5.334578514099121,17.70056915283203,-1.2580465078353882,-1.3675644397735596,-0.013685601763427258,,,,,,,,,
1739355832.95088,0.3238979431419805,1.1799749040551335,0.32133006953160476,-1.190456624382126,-1.4229515855318067,1.0391172480418986,0.09558908242529816,0.0016795354278675712,-0.0006919092951608441,-0.0012726722110379955,-0.0008573032960420429,0.0007830571797130504,-0.0008226605299100656,-2.5048968362067733e-05,-0.3817255198955536,-52.26132583618164,5.386153221130371,17.72437286376953,-1.2516378164291382,-1.3675644397735596,0.012864691205322742,,,,,,,,,
1739355832.9618003,0.32389750979974485,1.1799786567059696,0.32133200783322224,-1.190457313461702,-1.4229550650099287,1.0391181183474851,0.09558694639087513,0.0012675640424601893,0.001280528367445884,-0.0008897209455845979,-0.0002496691063866896,0.00034095742125098925,0.00017797116187982012,-0.001969391359625742,-0.4055292308330536,-52.31290054321289,5.362349510192871,17.72437286376953,-1.2580465078353882,-1.3748886585235596,0.03300629183650017,,,,,,,,,
1739355832.9718163,0.32389355769418365,1.179974832432027,0.3213307440971093,-1.1904566247085875,-1.4229521837488228,1.0391184759209209,0.0955835685171241,-0.00012333764418692196,-0.000541906195525479,-0.0019919776775551186,0.0007571496403600898,0.0007803085418076382,-0.00016934495213094113,-0.0008960080443231383,-0.3539545238018036,-52.26132583618164,5.386153221130371,17.72437286376953,-1.2644551992416382,-1.3748886585235596,0.026597600430250168,,,,,,,,,
1739355832.9818175,0.3238926110631542,1.1799808031259775,0.32133688994576903,-1.190458483903363,-1.4229540039181678,1.039118115373838,0.09559166013079966,-0.0007131929793491085,0.001386187043193007,0.000702664760090721,-0.001163585002153495,-0.0006989812076740365,3.6781726773849373e-05,-0.0004290201349334161,-0.3301508128643036,-52.31290054321289,5.334578514099121,17.74817657470703,-1.2580465078353882,-1.3748886585235596,-0.0072769103571772575,,,,,,,,,
1739355832.9927666,0.32389357235713556,1.1799731993232068,0.3213318418433784,-1.1904584070594348,-1.4229473861043385,1.0391199914065536,0.09559321121999549,-0.0004717401738515559,-0.0012514405279367197,-2.5862335336543328e-05,0.00022158239908485908,0.0017770189184723537,0.002283918353525174,0.0006648030901842798,-0.3539545238018036,-52.23752212524414,5.362349510192871,17.74817657470703,-1.2781881093978882,-1.3877060413360596,-0.020094294100999832,,,,,,,,,
1739355833.0028107,0.3238918480585396,1.1799748991494006,0.32134055064423245,-1.1904567009114024,-1.4229546452404729,1.03911887154403,0.09559449580931918,-0.0006840260159336145,-0.0006733240901013599,0.0009459717826371817,1.2161758594970295e-05,-7.898950125970961e-05,0.0008619135382438969,0.0007958751167645337,-0.3301508128643036,-52.26132583618164,5.283003807067871,17.72437286376953,-1.2516378164291382,-1.3812973499298096,-0.03382720425724983,,,,,,,,,
1739355833.0128434,0.323896434356924,1.1799797448130032,0.3213357693054873,-1.1904566253280857,-1.4229554814620415,1.039118115367707,0.09559407694789335,0.0003184544061589829,0.0012273658814927137,0.0008453758594275583,4.0325490305263123e-05,-0.0009773772295321123,0.001638983596480483,0.0010197762608226777,-0.3539545238018036,-52.28909683227539,5.310774803161621,17.72437286376953,-1.2452291250228882,-1.3748886585235596,-0.027418512850999832,,,,,,,,,
1739355833.022877,0.32389192757986757,1.1799758338097115,0.32133466174399117,-1.1904586363202296,-1.422954005389072,1.0391173701515086,0.09558945049483525,0.0001368910496648982,0.0015488926628572381,-0.0003344733226085393,-0.0006444844890781693,0.00010792821525229394,-0.0007122073389807968,-0.0007607628049597642,-0.3301508128643036,-52.23752212524414,5.362349510192871,17.74817657470703,-1.2580465078353882,-1.3675644397735596,0.012864691205322742,,,,,,,,,
1739355833.033843,0.3238955673506911,1.1799769101870785,0.32133093283300035,-1.1904586906776284,-1.4229539602758439,1.0391188715385857,0.09559112998441861,0.0007938471794615004,0.0002609210744061772,-0.0013302420278470258,-0.0003331662632136303,0.0005725512991566729,0.00031103327976659265,0.00031028707436037215,-0.3817255198955536,-52.28909683227539,5.386153221130371,17.72437286376953,-1.2580465078353882,-1.3812973499298096,-0.013685601763427258,,,,,,,,,
1739355833.044815,0.3238935605791213,1.179972766137095,0.32133247183555996,-1.1904584070706654,-1.4229532477294036,1.0391188717034394,0.09559334702655571,-0.00019022338003916068,-0.001193426506450489,-0.0003834071845688467,-0.0003255588967291569,0.0006717118974735268,0.00037173237740129343,0.0006180435649062754,-0.3539545238018036,-52.26132583618164,5.362349510192871,17.74817657470703,-1.2644551992416382,-1.3812973499298096,-0.020094294100999832,,,,,,,,,
1739355833.0558283,0.323894099789365,1.179974911892192,0.3213331328843448,-1.190456627216405,-1.4229544098371052,1.0391183341648498,0.09559136699604852,0.0005635924694733824,-0.0007473727115475614,-0.00047383286579576265,0.00017597180426054225,-0.0007843415304794343,-0.0002908060561669476,-0.0008025366586900549,-0.3301508128643036,-52.26132583618164,5.386153221130371,17.72437286376953,-1.2516378164291382,-1.3675644397735596,-0.013685601763427258,,,,,,,,,
1739355833.0658357,0.3238958127842946,1.1799779061290054,0.32133802193170674,-1.190454841705011,-1.4229546002462057,1.0391196292163691,0.09559258935390448,4.832635693638343e-05,0.00023819681737531227,0.0024787631870094424,0.0013403771280211603,2.217353940241632e-05,0.0002901051855599383,0.0002855466923833707,-0.3539545238018036,-52.31290054321289,5.283003807067871,17.70056915283203,-1.2516378164291382,-1.3877060413360596,-0.013685601763427258,,,,,,,,,
1739355833.0767457,0.32389356498877464,1.1799786223618463,0.32133252399928336,-1.190458372052666,-1.4229524339439747,1.0391166124914053,0.09558507232657722,4.9132136129604025e-05,0.0009107092179248238,-9.107951863631471e-05,-0.0008038915789409685,-1.257444098786884e-05,-0.0002486072515048937,-0.0015491994522000801,-0.3539545238018036,-52.31290054321289,5.362349510192871,17.74817657470703,-1.2717794179916382,-1.3611557483673096,0.012864691205322742,,,,,,,,,
1739355833.0868688,0.32389364005200577,1.1799734378021531,0.32133625745755834,-1.190456627530748,-1.4229555202262592,1.0391172479826543,0.09559059364550035,-0.00071003635293367,-0.0009718659786286219,0.002011892912509394,0.00021866815714216502,-0.0006629270812062323,-0.0006520190085222881,0.0004206477665401162,-0.3539545238018036,-52.23752212524414,5.334578514099121,17.72437286376953,-1.2452291250228882,-1.3675644397735596,-0.03382720425724983,,,,,,,,,
1739355833.0978398,0.3238919393054055,1.1799769363374573,0.32133870797741904,-1.1904530599727692,-1.4229544098371023,1.0391192738079267,0.09559647578115517,-0.0015549031739243086,0.0004832788770821556,0.0006667072692562042,0.0011164376896831726,-0.0003071930646207726,-1.1750155111940085e-05,0.0023091844879071584,-0.3301508128643036,-52.28909683227539,5.310774803161621,17.67676544189453,-1.2516378164291382,-1.3812973499298096,-0.04756011441349983,,,,,,,,,
1739355833.1088145,0.32389016202907733,1.1799749119044545,0.3213339492734021,-1.1904584073739422,-1.4229562783679777,1.039119629696875,0.09559094992286085,-0.0015697188754655853,-5.105559621690182e-05,-0.00036844016938760164,-0.0004056298286064879,-0.0006695362102027169,0.0002601593138483502,-0.0007296187447604235,-0.3063471019268036,-52.26132583618164,5.362349510192871,17.74817657470703,-1.2388204336166382,-1.3877060413360596,-0.0008682189509272575,,,,,,,,,
1739355833.119817,0.323894570705795,1.179976197569199,0.3213345977415216,-1.190458398263678,-1.422954763049815,1.039118871537899,0.09558817813937413,4.336201538158931e-05,-0.0011044496435547485,-0.0003685767061884897,-0.0006596147385896933,-0.00032107986922211014,-0.0008070302535257751,-0.002284079780773592,-0.3539545238018036,-52.28909683227539,5.362349510192871,17.74817657470703,-1.2516378164291382,-1.3812973499298096,0.019273381680250168,,,,,,,,,
1739355833.1298647,0.32388845377657205,1.1799741966365052,0.3213387751563688,-1.1904566243818329,-1.422953534439457,1.0391172481461286,0.09558944594506777,-0.0025261150810280786,-0.0012840267939866188,0.001845204141841823,-0.0002737005405016973,0.0023824521785798486,-0.00016459354114161488,-0.0012034087939913416,-0.2825433909893036,-52.26132583618164,5.310774803161621,17.72437286376953,-1.2580465078353882,-1.3675644397735596,0.012864691205322742,,,,,,,,,
1739355833.1418347,0.3238978131945622,1.1799749030699496,0.32133629548055465,-1.1904548417049627,-1.4229549206766052,1.03911887220007,0.09559658971421096,0.00035969610791659965,-0.0009255325199310016,0.0010719284370818757,0.00017760717057648082,-0.0013866208771164945,-0.0002008691898548493,0.0020348645957697794,-0.3817255198955536,-52.26132583618164,5.334578514099121,17.70056915283203,-1.2516378164291382,-1.3812973499298096,-0.04756011441349983,,,,,,,,,
1739355833.1527393,0.3238955596143297,1.1799769108747395,0.3213387076562801,-1.1904581799781138,-1.4229559246730417,1.0391232167164006,0.09558356851919689,0.0008256354602095989,0.0005087186944546772,0.001750892197964159,-0.0006448891963258157,-0.0005514164087166494,0.00040484142125551243,-0.0015786517691772338,-0.3817255198955536,-52.28909683227539,5.310774803161621,17.74817657470703,-1.2388204336166382,-1.3812973499298096,0.026597600430250168,,,,,,,,,
1739355833.162786,0.32389627671915655,1.1799769481099207,0.3213378027721303,-1.190456907987778,-1.4229548807694152,1.0391181155884646,0.09559090248875053,0.0005553403205622844,0.00020548772255484248,0.00022205842516382322,0.0008119855445026007,0.0003454147608371766,-0.0004767945865339061,-0.0001985556619057011,-0.3817255198955536,-52.28909683227539,5.310774803161621,17.70056915283203,-1.2516378164291382,-1.3748886585235596,-0.0008682189509272575,,,,,,,,,
1739355833.172789,0.32389478953934975,1.1799749115774723,0.3213387476145962,-1.1904549182810404,-1.422953208484466,1.0391181317564955,0.09559257184927193,6.946904705295242e-05,-0.001019435805303423,0.001891010973363535,0.00024140648411159738,-0.0002933699083602951,0.0003025947444982111,0.0013719566545510081,-0.3301508128643036,-52.26132583618164,5.310774803161621,17.70056915283203,-1.2644551992416382,-1.3748886585235596,-0.013685601763427258,,,,,,,,,
1739355833.1838095,0.32389774387664655,1.1799770615961007,0.32133479519312924,-1.1904613963720165,-1.422954005874032,1.0391181138779186,0.09558877505347835,0.0016149910143245195,-0.0005810166064543257,-0.0009250490327370085,-0.0033829260524083486,8.234070803114497e-05,-0.0005186023130049807,-0.0006537119396100987,-0.3817255198955536,-52.26132583618164,5.334578514099121,17.77594757080078,-1.2580465078353882,-1.3748886585235596,0.0064559997990727425,,,,,,,,,
1739355833.1948211,0.32389459809923465,1.179976473558357,0.3213345817495413,-1.1904584070991282,-1.4229547630498176,1.0391181138778178,0.09559254750578268,0.0010639863926779638,0.0008689104533975572,-7.979484972471174e-05,-0.0007400834414942874,-0.0005599835495102533,-0.0005943457797173789,0.001470557389991316,-0.3539545238018036,-52.31290054321289,5.362349510192871,17.74817657470703,-1.2516378164291382,-1.3748886585235596,-0.013685601763427258,,,,,,,,,
1739355833.204844,0.3238958852592515,1.1799769170038417,0.32133668779173097,-1.1904587132816622,-1.4229542920995353,1.0391164923070257,0.09559020377541615,0.000530656852522808,-0.00034887182108416924,-0.00045138681724681245,-0.0014384325516661753,0.0003352797537487812,-0.00043927687779672013,0.00011678817614959019,-0.3817255198955536,-52.28909683227539,5.334578514099121,17.74817657470703,-1.2516378164291382,-1.3611557483673096,0.0064559997990727425,,,,,,,,,
1739355833.215809,0.3238943818004661,1.1799749119043454,0.3213345788080376,-1.1904527044427484,-1.4229540053870782,1.039118114540002,0.09558711499523082,0.00022069583852139265,-0.0009613492032876321,-0.0005571975802451963,0.001218237259821499,-0.00031645401149810377,-0.0009233946026838318,-0.0027107457507112775,-0.3539545238018036,-52.26132583618164,5.362349510192871,17.70056915283203,-1.2580465078353882,-1.3748886585235596,0.019273381680250168,,,,,,,,,
1739355833.2277403,0.3238919275358357,1.1799786223658895,0.3213300315873021,-1.19045662720434,-1.4229532477296583,1.0391181677345498,0.09559142280376669,-0.0007220519577338751,0.0010298212608484535,-0.0019726606924075542,-2.8049340258518107e-05,0.00021990845406639667,-0.00043719909890697407,-0.000362777660609106,-0.3301508128643036,-52.31290054321289,5.386153221130371,17.72437286376953,-1.2644551992416382,-1.3748886585235596,-0.0072769103571772575,,,,,,,,,
1739355833.2378113,0.32389300081353867,1.1799779430855206,0.32133692169074723,-1.19045742368931,-1.4229553971581224,1.0391175764505016,0.09559247059142792,0.00011427159977933491,0.0008989252759970638,0.0005797840530861712,-0.0007351677378820791,-1.1258792008816433e-05,-0.0007414180603041676,0.001813266925972978,-0.3063471019268036,-52.31290054321289,5.334578514099121,17.72437286376953,-1.2452291250228882,-1.3611557483673096,-0.013685601763427258,,,,,,,,,
1739355833.2488546,0.32389195403965754,1.1799749119030267,0.3213338506372151,-1.1904530590294478,-1.4229540049049874,1.0391172479826292,0.09558612508636415,-0.0007022538162814451,-0.0005189995564155066,-0.0003170488995368733,0.0010342634985433937,0.0002742378307308142,-0.00015862824379470487,-0.0005881225378560436,-0.3301508128643036,-52.26132583618164,5.334578514099121,17.67676544189453,-1.2580465078353882,-1.3675644397735596,0.012864691205322742,,,,,,,,,
1739355833.2597792,0.3238922813054192,1.1799727662461093,0.3213320854896943,-1.1904584070590012,-1.422954005389734,1.0391181138778178,0.0955874070622685,-0.001251577652443945,-0.0009406294868269419,-0.000992546619465023,-0.00045739175799864315,-0.000260253829670466,-2.075363890619917e-05,-0.001058791045757749,-0.3063471019268036,-52.26132583618164,5.362349510192871,17.74817657470703,-1.2580465078353882,-1.3748886585235596,-0.0008682189509272575,,,,,,,,,
1739355833.269796,0.32389334108830525,1.179976909699805,0.3213324821686109,-1.1904551478226446,-1.4229564398875039,1.0391193544274762,0.09558757323169412,0.00016885967357493058,0.0005296977356931728,-0.0010860133094754477,-0.00011818391231857908,-0.0005193119098038143,0.0002524876312561958,-2.389213841136003e-05,-0.3063471019268036,-52.28909683227539,5.362349510192871,17.70056915283203,-1.2644551992416382,-1.3812973499298096,-0.0072769103571772575,,,,,,,,,
1739355833.2798185,0.3238935619415529,1.1799776515918463,0.32133595225328615,-1.19045659904694,-1.4229542921535947,1.0391207173217534,0.09558549894950293,-0.00018538515320487496,0.00019696760394627142,0.0014171649163012164,-0.0014887289177003275,0.0008286897383705332,0.0009334368214615783,-0.0017901381596756357,-0.3539545238018036,-52.28909683227539,5.310774803161621,17.72437286376953,-1.2516378164291382,-1.3877060413360596,0.019273381680250168,,,,,,,,,
1739355833.2907424,0.3238938092451874,1.1799749113634108,0.3213339674029982,-1.1904566243818389,-1.4229529457489491,1.0391188730339276,0.09558655667414884,0.00012182845944974636,-0.0008137123378726011,-0.0013399162950590029,-8.73208552186939e-05,5.8632210992532904e-05,-6.256692882239287e-05,-0.001058154971625059,-0.3539545238018036,-52.26132583618164,5.362349510192871,17.72437286376953,-1.2580465078353882,-1.3812973499298096,0.03300629183650017,,,,,,,,,
1739355833.300767,0.32389379943792673,1.179976909845149,0.32133699538486016,-1.1904567264212091,-1.4229547455892668,1.0391205078577475,0.09558831978667882,-0.0004944986410131298,0.0012137166148304787,0.000781599714377003,-0.0014287548697171962,-0.0008101190409560258,-0.0002391234219333222,1.2896958689653901e-05,-0.3539545238018036,-52.28909683227539,5.334578514099121,17.72437286376953,-1.2516378164291382,-1.3675644397735596,0.019273381680250168,,,,,,,,,
1739355833.3108594,0.32389423519161553,1.1799769108263045,0.32133605055691916,-1.19045662438371,-1.4229523287132573,1.0391221299803501,0.0955915233027411,0.000215867481563837,0.0007649991899454468,0.0005963971914160749,-0.00026429798120042845,-0.000631130586488221,0.000648034366965681,0.0005640317313855898,-0.3301508128643036,-52.28909683227539,5.334578514099121,17.72437286376953,-1.2452291250228882,-1.3812973499298096,-0.013685601763427258,,,,,,,,,
1739355833.321827,0.32389579709733396,1.1799788205574708,0.3213302679388785,-1.1904581689553577,-1.422954758671145,1.039117730723016,0.09558932614385011,0.0006616552307209056,0.0006446273245550216,-0.0010996416080012333,-0.0006552993579141524,-0.00037981672212026457,-0.00039606569896893365,-6.49904859426672e-05,-0.3817255198955536,-52.31290054321289,5.386153221130371,17.74817657470703,-1.2516378164291382,-1.3675644397735596,0.012864691205322742,,,,,,,,,
1739355833.332804,0.32389187564080285,1.1799769095192283,0.3213356106167266,-1.1904567132975366,-1.422954780492393,1.0391181317592109,0.09559419329754497,-0.0007799707623579869,0.0013938710648597516,-8.190611883542509e-05,-0.0010845352216309603,-0.0007801877162232581,-0.00011542906723283639,0.0016123333389959577,-0.3301508128643036,-52.28909683227539,5.310774803161621,17.72437286376953,-1.2516378164291382,-1.3748886585235596,-0.027418512850999832,,,,,,,,,
1739355833.3447485,0.3238918745857879,1.179978618441302,0.32133604629086804,-1.190458407059503,-1.4229525925389959,1.0391196351576313,0.09559279345833815,0.0004671683182054834,0.0008314874442707393,0.000416100408168978,1.5250498076762144e-05,0.0012847730171071127,-5.745964709775119e-05,0.0005631649591139819,-0.3301508128643036,-52.31290054321289,5.334578514099121,17.74817657470703,-1.2580465078353882,-1.3877060413360596,-0.027418512850999832,,,,,,,,,
1739355833.3548586,0.32389257512432296,1.1799790821033012,0.3213338889646107,-1.190455125322296,-1.422950824529306,1.0391205063678668,0.09558548587033387,-0.0012250958294674841,0.0013284119747666314,-0.0008732554846520729,0.001085041610336648,0.0010494005112335798,0.0008296191919297725,-0.0026451231624904864,-0.3301508128643036,-52.28909683227539,5.362349510192871,17.67676544189453,-1.2580465078353882,-1.3675644397735596,0.019273381680250168,,,,,,,,,
1739355833.3657272,0.32389590334248586,1.1799751503351465,0.32133617886337074,-1.1904612776645322,-1.4229555206919373,1.0391181138962113,0.09558426207541021,0.0012021011840416236,-0.0006402085807893888,-1.4982292398274511e-05,-0.002003257220444697,0.0007979103119901997,4.0366074041447574e-05,-0.001961830671147114,-0.3817255198955536,-52.26132583618164,5.334578514099121,17.77594757080078,-1.2452291250228882,-1.3748886585235596,0.019273381680250168,,,,,,,,,
1739355833.3758278,0.32389356352835025,1.1799786223699271,0.32133699398300086,-1.1904548417183554,-1.4229540053897363,1.0391192000069005,0.09558706482373254,-0.0007763998207975405,0.0016917951861223062,0.0006078403506687201,0.0006404493800835946,0.0005905518745970398,0.0019347839237994803,-0.001060341502913685,-0.3539545238018036,-52.31290054321289,5.334578514099121,17.70056915283203,-1.2580465078353882,-1.3748886585235596,0.03300629183650017,,,,,,,,,
1739355833.3877509,0.32389364103309415,1.179978817193791,0.3213338504573014,-1.190456624381982,-1.4229554027569826,1.0391188717647517,0.095590767109319,-0.00012956301354728387,0.0007910778830691181,-0.0004458762170459452,0.0003513746902508358,-0.00034005635799207396,-0.0002537817363534304,-0.0006241888503052528,-0.3539545238018036,-52.28909683227539,5.334578514099121,17.72437286376953,-1.2452291250228882,-1.3812973499298096,-0.0072769103571772575,769,768,736,41.065,0,0
1739355833.3978066,0.3238964482024443,1.1799786341867522,0.32133181435647595,-1.1904584070590012,-1.422954763049149,1.039123991592974,0.09559417300940717,-0.00012720423200142985,0.0002703711200603458,-0.0006974383494330036,-0.00010006620362454295,-0.0007129248515928627,0.00164130257344523,0.0019927581352959297,-0.3539545238018036,-52.31290054321289,5.362349510192871,17.74817657470703,-1.2516378164291382,-1.3877060413360596,-0.027418512850999832,768,769,732,40.848,0,0
1739355833.4087977,0.3238982290919235,1.1799732749319147,0.3213317747542078,-1.1904548417399556,-1.422954763049815,1.039117248005211,0.09558770816345943,0.0024020020173803943,-0.001250848064469223,-0.0009249191580544024,0.00014531923511862561,-0.00011427466049231049,-0.0013622214807733546,-0.0017527268868666134,-0.4055292308330536,-52.23752212524414,5.362349510192871,17.70056915283203,-1.2516378164291382,-1.3675644397735596,0.026597600430250168,768,767,737,41.065,0,0
1739355833.4197543,0.32389300554163925,1.1799749119047314,0.3213387750001114,-1.1904566244869608,-1.4229540010290858,1.0391188715378963,0.09558461803329227,-0.0017122175773186421,-0.00013603318927407688,0.0015211074849654233,0.0002918383399655237,0.00030610866643772215,-0.00034235157641378087,-0.0022118011893719576,-0.3063471019268036,-52.26132583618164,5.310774803161621,17.72437286376953,-1.2580465078353882,-1.3812973499298096,0.026597600430250168,770,769,737,40.957,1,0
1739355833.4297786,0.3238918759060924,1.1799772305710199,0.321336995400866,-1.1904573216500367,-1.4229532433689336,1.0391181183474847,0.09558676228041132,-0.0014011733689080407,0.000830601752403491,0.0004867398244360604,-0.0009221003772283673,-0.0002683723142556792,-5.665494612987406e-05,-0.0028222419474383613,-0.3301508128643036,-52.28909683227539,5.334578514099121,17.72437286376953,-1.2644551992416382,-1.3748886585235596,0.026597600430250168,768,769,736,41.065,0,0
1739355833.4408114,0.32389300582709823,1.179978622803765,0.32133605595736114,-1.190456916541513,-1.4229523417954806,1.0391172479806106,0.09559258785414422,-0.00018433648911042166,0.001233215044554916,3.770080463764226e-05,-0.00028576390883067567,0.0009573499350266618,-0.0006881712731884506,-0.00027987441219803335,-0.3063471019268036,-52.31290054321289,5.334578514099121,17.70056915283203,-1.2452291250228882,-1.3675644397735596,-0.013685601763427258,770,774,735,41.065,0,0
1739355833.450812,0.323895664532346,1.1799749123403775,0.3213348160128294,-1.1904568549501884,-1.4229555337380102,1.039118276275719,0.09558631161975507,5.4789715491478964e-05,-0.0011278451686250828,0.00021767897183884476,-0.0006340015712349705,-0.000630314709627363,0.0008993258534765874,-0.00036047379959994294,-0.3817255198955536,-52.26132583618164,5.362349510192871,17.72437286376953,-1.2452291250228882,-1.3748886585235596,0.03941498324275017,770,775,734,41.065,0,0
1739355833.461831,0.3238947885547475,1.1799738793180428,0.32133846784577363,-1.1904584070603026,-1.4229562783700451,1.0391188720354425,0.09559805912087965,-6.615690792653804e-05,-0.0005727738509635335,0.000585664248526571,-0.0008912404048663677,-0.0011952328286238879,8.901845744082915e-05,0.002953427930423679,-0.3301508128643036,-52.23752212524414,5.310774803161621,17.74817657470703,-1.2388204336166382,-1.3812973499298096,-0.06037749722599983,770,774,733,41.065,2,0
1739355833.472789,0.32389365285977245,1.1799750178719561,0.32133393210874317,-1.190456624381982,-1.4229589797990785,1.039118871537899,0.09559444047977465,-0.00029925924160622116,0.0008101262616827941,9.299208906923199e-05,-0.00011276628741518796,-0.0009442193644339422,-0.001255173649517277,0.0006096400703134996,-0.3539545238018036,-52.26132583618164,5.334578514099121,17.72437286376953,-1.2516378164291382,-1.3812973499298096,-0.03382720425724983,772,773,734,41.174,0,0
1739355833.483827,0.32389673949398035,1.1799769098457564,0.3213338703034918,-1.190456624381982,-1.4229523418193089,1.0391181138778178,0.09559274082827349,0.00015995302336001586,-0.0010334143391520648,-0.0002751431819784787,0.00044411262162360646,-0.00013998707917760078,-0.0002976609120129725,0.0001601271167568673,-0.3539545238018036,-52.28909683227539,5.362349510192871,17.72437286376953,-1.2452291250228882,-1.3748886585235596,-0.027418512850999832,770,773,736,40.957,0,0
1739355833.494807,0.3238960256728787,1.1799732022543357,0.32133381671726646,-1.190454841704963,-1.4229547237860134,1.0391188760075631,0.0955921030651625,0.0008552843445807243,-0.001090923068619146,-0.000581953283860023,0.0011055306524165144,-0.0003868885505424938,-0.0001510890678930155,-0.00014975906418539776,-0.3539545238018036,-52.23752212524414,5.334578514099121,17.70056915283203,-1.2516378164291382,-1.3812973499298096,-0.013685601763427258,772,774,734,41.065,1,0
1739355833.5060284,0.32389185101569495,1.1799751513403853,0.32133463910544685,-1.1904539783257968,-1.4229536521768051,1.0391172479806106,0.09558631156294806,-0.0016838726268454257,3.69002260969416e-06,0.000774961651534696,0.00017096760640371506,0.001356558574739425,1.5455042266577167e-05,-0.0011425854519880037,-0.3301508128643036,-52.26132583618164,5.334578514099121,17.67676544189453,-1.2580465078353882,-1.3675644397735596,0.03941498324275017,771,770,734,41.065,0,0
1739355833.5167522,0.3238966642722509,1.1799766714279307,0.32133460411586706,-1.1904584070641904,-1.422954307150453,1.0391213722650654,0.09558968006138535,-0.0001769245376935226,-0.0004069953459401665,0.00047507573209500033,-0.00017794509672547566,-0.0005215345043576705,0.0005140457339664145,0.0014632833640971558,-0.3539545238018036,-52.28909683227539,5.334578514099121,17.74817657470703,-1.2644551992416382,-1.3748886585235596,-0.020094294100999832,772,769,737,40.957,0,0
1739355833.5268111,0.3238936444651431,1.1799732350278562,0.32133231916987454,-1.190455072238032,-1.4229546453301862,1.0391188762282875,0.09558861523183944,-0.0008951726707213546,-0.0014985156713935943,-0.0007346381770214332,-0.0001659984604305468,0.0004944359173380199,-0.0009232065916956035,-0.001566707830817094,-0.3539545238018036,-52.23752212524414,5.386153221130371,17.70056915283203,-1.2516378164291382,-1.3812973499298096,-0.020094294100999832,771,769,734,41.174,0,0
1739355833.5377636,0.32389208658640906,1.1799786226931395,0.3213340646303162,-1.1904549293513065,-1.4229540053890721,1.0391188717034658,0.0955877080828861,-0.0016041307989136688,-0.00016407366110169963,9.9723508798827e-05,9.804378456862374e-05,0.0007674382034100142,-0.0002506520776837933,-0.0004922578820872807,-0.3301508128643036,-52.31290054321289,5.334578514099121,17.70056915283203,-1.2580465078353882,-1.3812973499298096,0.026597600430250168,772,770,735,41.065,1,0
1739355833.5478287,0.32389387858356594,1.1799769098451636,0.32133207778922795,-1.190456624698402,-1.4229554640214337,1.0391181140433636,0.0955948518138392,-0.0005932736229220278,0.00011836874832429287,-0.0013763374439098616,-0.00037412825416688046,-0.0005140133355826285,-0.00038651063795690785,0.0006352405049226873,-0.3539545238018036,-52.28909683227539,5.362349510192871,17.72437286376953,-1.2452291250228882,-1.3748886585235596,-0.03382720425724983,768,770,735,41.065,1,0
1739355833.5587628,0.32389571528741246,1.1799769363361114,0.3213369124357299,-1.1904548417049647,-1.422953247729338,1.0391172539401423,0.0955956755161545,-0.00045526515528137825,0.0001810603020742954,0.0002753320392276591,0.0006051230117945456,-0.0004695995104791361,-0.0005168700031269252,0.0018246158911010056,-0.3539545238018036,-52.28909683227539,5.334578514099121,17.70056915283203,-1.2644551992416382,-1.3675644397735596,-0.04023589566349983,772,775,736,41.065,0,0
1739355833.568765,0.323899416953374,1.1799795761496708,0.321332105463393,-1.1904509387705386,-1.422955389890371,1.0391213858397106,0.09559659398625978,0.0003624449315420289,0.0005107829724492329,-0.0003205913863161795,0.001801644402574007,0.0006268271257431218,0.0008932057957855942,0.0011842707388987864,-0.4055292308330536,-52.31290054321289,5.386153221130371,17.67676544189453,-1.2452291250228882,-1.3748886585235596,-0.04756011441349983,770,775,734,41.174,0,0
1739355833.579754,0.3238918569371104,1.1799769098505424,0.32133663334404317,-1.1904530590159748,-1.422952795538727,1.0391172481645987,0.09559390582465813,-0.0018184382243519367,0.0008099714973143399,0.001264648548551127,0.000980698928974889,0.0008956884060028653,-0.0008789793139952736,0.0006438881529499689,-0.3301508128643036,-52.28909683227539,5.310774803161621,17.67676544189453,-1.2324117422103882,-1.3675644397735596,-0.03382720425724983,774,775,734,41.065,1,0
1739355833.5907197,0.3238918485307941,1.179978013110304,0.3213342118263639,-1.1904548445393857,-1.4229555076040035,1.0391188775526343,0.0955860040196149,-0.0012892000785415443,0.0011476034890587341,2.882746402286412e-05,0.00024842007540234204,-0.0005894378962085885,-0.00036304143727921466,-0.0020136074364201736,-0.3301508128643036,-52.31290054321289,5.362349510192871,17.70056915283203,-1.2452291250228882,-1.3812973499298096,0.03300629183650017,773,773,735,41.065,1,0
1739355833.6007273,0.3238955624445181,1.179976918665158,0.32133173695729655,-1.190458415562318,-1.4229523417952832,1.0391213722651673,0.09558356265970991,0.0005413633991573321,0.00020711021692758043,-0.002167532437550205,-0.0007646731899201835,0.0002500562656783391,0.00015716616099834866,-0.002012045559494445,-0.3817255198955536,-52.28909683227539,5.362349510192871,17.74817657470703,-1.2452291250228882,-1.3748886585235596,0.026597600430250168,774,773,735,40.957,0,0
1739355833.610799,0.3238925633141439,1.1799771512073258,0.32133665372139375,-1.190457321650179,-1.4229562783161365,1.039118334164849,0.09558645566296443,-0.0006113838408501168,-0.0003226744710796364,0.0014626870009057978,-0.0005856923244817858,1.6208542372915654e-05,0.00010602618945011161,-0.0011733379570604756,-0.3301508128643036,-52.28909683227539,5.334578514099121,17.72437286376953,-1.2388204336166382,-1.3675644397735596,-0.0008682189509272575,772,766,735,41.065,1,0
1739355833.6217606,0.3238945153839269,1.179978622367252,0.32133302748151726,-1.1904548415635439,-1.4229565803480224,1.0391199576731103,0.09559221741314748,-0.00014192923248114098,0.0007693192082897303,-0.0012491341650120546,0.0010288092108132723,-0.0003415847179214751,8.360868017179073e-05,0.0012676626098679093,-0.3539545238018036,-52.31290054321289,5.386153221130371,17.70056915283203,-1.2452291250228882,-1.3812973499298096,-0.04756011441349983,772,768,735,40.957,1,0
1739355833.631805,0.32389367931395746,1.179977296090096,0.3213370009074821,-1.190458483588419,-1.4229571848065865,1.0391189922372992,0.09559222475225322,-0.00021899505672847957,0.00021565489859186988,0.0010096115555514587,-0.0009250123745632526,-0.0010135234098898954,0.000505520019470281,-0.0013540628564391735,-0.3539545238018036,-52.26132583618164,5.334578514099121,17.74817657470703,-1.2580465078353882,-1.3812973499298096,-0.020094294100999832,774,768,735,41.065,1,0
1739355833.6429772,0.323893800306516,1.1799807263203528,0.3213368873941894,-1.1904565331357972,-1.4229544099088882,1.0391181322537968,0.09559022995539664,-0.0004392457051770681,0.0003724815347546736,0.0004954691680280256,0.0007621783484002067,-2.720316962081729e-05,0.00011185904302655534,-0.0003868576756671562,-0.3539545238018036,-52.34067153930664,5.334578514099121,17.72437286376953,-1.2516378164291382,-1.3748886585235596,0.0064559997990727425,773,769,735,41.065,0,0
1739355833.6547506,0.32389782333425476,1.1799769822691963,0.32133487788994286,-1.1904557858822358,-1.422954763209327,1.0391181140434647,0.09559420692843178,0.00018029106978244738,-0.00047191777891225433,0.0004908370228972894,-0.0006706031122944594,-0.0006754883840062376,0.0008402353144243292,0.0021810684064509965,-0.3817255198955536,-52.26132583618164,5.334578514099121,17.70056915283203,-1.2516378164291382,-1.3748886585235596,-0.027418512850999832,774,769,734,41.065,1,0
1739355833.6657915,0.323896604870854,1.1799775986216297,0.3213327707990107,-1.1904530590332736,-1.4229537033578512,1.0391201541355337,0.09559334265366884,0.001539689771565665,0.0007217738054906099,0.00020348495042091404,0.0010594578568404258,-0.00015027174962964772,0.0033317607315920764,0.0015851400668635005,-0.3817255198955536,-52.28909683227539,5.362349510192871,17.67676544189453,-1.2516378164291382,-1.3877060413360596,-0.020094294100999832,774,773,734,41.065,1,0
1739355833.6767604,0.32389364430553447,1.1799806206350874,0.3213306124582695,-1.1904559092662161,-1.4229555207078994,1.0391197487087427,0.09558838129450536,0.0001949723957952889,0.0007463555397334651,-0.00021286515294214334,0.0007536291845421331,-0.0003628002336960286,-0.00014333909647538533,0.00016494014477338396,-0.3539545238018036,-52.34067153930664,5.409956932067871,17.72437286376953,-1.2452291250228882,-1.3611557483673096,0.012864691205322742,775,773,735,40.957,0,0
1739355833.6867654,0.3238963561933786,1.1799776264090962,0.32132825001566173,-1.1904568539581326,-1.422954763049815,1.0391192002276246,0.09559334652989905,0.0005459193418281974,-0.0004599974259469707,-0.0015126987462167894,0.0008982294121917911,0.00024789644502617704,0.0007894392580388669,0.00012181608388563158,-0.3817255198955536,-52.28909683227539,5.409956932067871,17.72437286376953,-1.2516378164291382,-1.3748886585235596,-0.020094294100999832,776,770,735,40.957,0,0
1739355833.696768,0.3238938817545069,1.1799732788685686,0.3213348777659464,-1.1904575427389152,-1.4229547601427144,1.0391189922373028,0.09559135390685371,-0.00024094830329781828,-0.0018129814361151284,0.0011299939287382017,-0.00010939579620122591,0.00010800219820469403,-3.54819454147425e-05,0.0006207984161755953,-0.3539545238018036,-52.23752212524414,5.334578514099121,17.72437286376953,-1.2516378164291382,-1.3812973499298096,-0.013685601763427258,776,770,736,41.065,0,0
1739355833.7067814,0.3238921250741174,1.1799777840479608,0.3213323975874881,-1.1904566584106102,-1.4229570360300008,1.0391196833326521,0.09558706779857265,-0.00043559366496086064,0.0003457597262850776,-0.00033880312358022303,-4.3422232407813486e-05,-0.0011263783541863672,0.0006495474132106783,-0.0012004155084179501,-0.3301508128643036,-52.28909683227539,5.386153221130371,17.72437286376953,-1.2324117422103882,-1.3877060413360596,0.03300629183650017,776,769,733,40.957,0,0
1739355833.7177591,0.32389383726392446,1.1799732262065108,0.3213320505090733,-1.1904548426499626,-1.4229551500545807,1.0391197902718354,0.09559247108513243,0.0003195919881270147,-0.0008490188073658057,-0.00015270837930257447,0.00032354955510381417,-9.510745563030333e-05,0.0011761390835619283,0.000528639881370134,-0.3539545238018036,-52.23752212524414,5.362349510192871,17.70056915283203,-1.2452291250228882,-1.3877060413360596,-0.013685601763427258,776,769,735,41.065,0,0
1739355833.7287228,0.3238935736625855,1.179981574017549,0.3213327630182967,-1.1904566498917941,-1.4229531357503618,1.0391188720354352,0.09559197485590343,-0.00025219726360833493,0.0012151675031463558,4.886547975799039e-05,-4.018882234748877e-05,0.0011771364762257625,-4.390345508662754e-06,8.008671183758762e-05,-0.3539545238018036,-52.34067153930664,5.362349510192871,17.72437286376953,-1.2644551992416382,-1.3812973499298096,-0.04756011441349983,776,773,734,41.065,0,0
1739355833.7397225,0.3238955589562111,1.1799769101883582,0.32133666045901393,-1.190456624382414,-1.4229517164933303,1.0391189922189137,0.09559423920166765,0.00019129979687408378,0.00018836196721954424,0.002405098310517667,0.0004578139176023787,0.0011880867456830427,-0.000457102738954991,0.0003037458536524517,-0.3817255198955536,-52.28909683227539,5.310774803161621,17.72437286376953,-1.2644551992416382,-1.3812973499298096,-0.027418512850999832,777,768,737,41.065,2,0
1739355833.7498014,0.3238912069494978,1.1799794118048599,0.32133807515744645,-1.1904548429647064,-1.4229547632026767,1.0391186010722027,0.09559334687267967,9.120607280549268e-05,0.0014116516789612504,0.001825461647187,0.00041467352681888144,0.0003110447750777369,-0.0009043440971849434,0.0007072406429664594,-0.3063471019268036,-52.28909683227539,5.310774803161621,17.70056915283203,-1.2516378164291382,-1.3748886585235596,-0.020094294100999832,774,770,733,41.065,1,0
1739355833.760839,0.32389357367916805,1.1799718049056687,0.32133454857438626,-1.1904548429647277,-1.422957184304127,1.0391181138860683,0.09559373539307325,-0.0009646220590725182,-0.0009129635251258071,-0.0006824870609490536,0.00039398112402092315,-0.0008108268589775108,0.0005553019794195801,0.002286115148370703,-0.3539545238018036,-52.21371841430664,5.334578514099121,17.70056915283203,-1.2580465078353882,-1.3748886585235596,-0.027418512850999832,777,771,732,40.957,0,0
1739355833.7717795,0.32389591467609813,1.1799749119049034,0.3213362605177801,-1.1904566243819843,-1.42295552069793,1.0391215929935453,0.09558706468151912,0.000284036209830045,-0.0015747990327888474,0.0004243806921790407,0.00037811695448902087,-0.00010228451581865083,-0.0001260354146241166,-0.0007940530085648633,-0.3817255198955536,-52.26132583618164,5.334578514099121,17.72437286376953,-1.2452291250228882,-1.3675644397735596,0.03300629183650017,776,773,735,41.065,0,0
1739355833.7817974,0.32389313264174113,1.1799749132125001,0.32133776323304886,-1.1904593282464695,-1.4229563961075413,1.0391164905596335,0.09558777436676417,-0.001999527067176936,-0.0004745324360502648,0.001572096127329497,-0.0013190671985393722,-0.0006530875417880606,-0.00020080995383289253,-0.0006381108333115928,-0.3539545238018036,-52.26132583618164,5.310774803161621,17.74817657470703,-1.2388204336166382,-1.3611557483673096,0.026597600430250168,775,770,731,40.957,2,0
1739355833.7927573,0.3238918746558939,1.179978860784476,0.3213367678248371,-1.1904586621622695,-1.4229540053904013,1.0391176100236141,0.09558933074701283,-0.00146532989108606,0.00031985249562784635,-0.0003694701068463919,-0.00025962406978507856,0.0007909706425845562,-0.0014665352566921915,-0.0006916015213485561,-0.3301508128643036,-52.31290054321289,5.334578514099121,17.74817657470703,-1.2580465078353882,-1.3675644397735596,0.012864691205322742,775,773,735,40.957,1,0
1739355833.8028045,0.32389219244118267,1.1799749119083427,0.32133181473029937,-1.1904584070633213,-1.4229547252575085,1.0391196292041056,0.09558681546942599,-0.0011642411939246507,-0.0013452340994809012,-0.0005180889464936787,-0.0006421287893326426,-0.0004726686167306782,-0.0005692654040648768,-0.0003111109817545279,-0.3301508128643036,-52.26132583618164,5.362349510192871,17.74817657470703,-1.2516378164291382,-1.3877060413360596,-0.0008682189509272575,776,769,734,41.174,0,0
1739355833.8137946,0.323893569883737,1.1799732350682326,0.3213387738482639,-1.1904566502067246,-1.422953129991875,1.0391195620499278,0.09559334636170362,-0.0004157682496104734,-0.0008787437835305261,0.001311511138681935,0.0009415997287744157,0.0006408549547597833,-0.00043695966355893604,0.0007231795621882556,-0.3539545238018036,-52.23752212524414,5.310774803161621,17.72437286376953,-1.2644551992416382,-1.3748886585235596,-0.020094294100999832,774,770,736,41.065,1,0
1739355833.8257473,0.323892907696522,1.1799796585657225,0.3213348967099372,-1.1904587161512232,-1.4229555207092286,1.039118884955072,0.09559131907275514,-0.0008034920765240325,0.0029381014932052764,0.00018601443278775938,-0.0008324716139274089,-7.53391340622362e-05,0.00016527967240650694,-0.0009508600283747699,-0.3301508128643036,-52.31290054321289,5.362349510192871,17.74817657470703,-1.2452291250228882,-1.3812973499298096,-0.0072769103571772575,775,771,734,41.174,1,0
1739355833.8357697,0.323896740928616,1.1799769128061457,0.3213317397770734,-1.190455531734725,-1.4229555163492424,1.039119684717683,0.09558780940689073,0.0010388242658506805,0.0006225320204597304,-0.0022651254658411788,0.00033824236513371216,-0.0004934087681798031,0.0016606430799996279,-0.00010235471040007788,-0.3539545238018036,-52.28909683227539,5.362349510192871,17.70056915283203,-1.2452291250228882,-1.3748886585235596,0.026597600430250168,776,769,735,41.065,0,0
1739355833.8457968,0.3238946320089109,1.1799771496809655,0.32133184056630243,-1.190458408007704,-1.4229547630497903,1.0391197487166224,0.09559497053791824,-0.00034364741918092845,-0.00036560278716454636,-0.001912875105612755,-0.0005478370289878572,-0.00027015599017588703,-0.00025954551288850925,0.0027294194024405395,-0.3539545238018036,-52.28909683227539,5.362349510192871,17.74817657470703,-1.2516378164291382,-1.3611557483673096,-0.03382720425724983,776,770,735,40.957,0,0
1739355833.8568125,0.32389842002132574,1.179976945167783,0.32133479852415514,-1.1904544796995544,-1.422957889636394,1.039118168028845,0.09558939792404238,0.0008339373856811186,0.0004050020287317271,0.0009177891570910394,0.0009923771213327852,-2.5191091213774797e-05,-0.0004971288037266486,7.905006666071893e-05,-0.3817255198955536,-52.28909683227539,5.334578514099121,17.72437286376953,-1.2516378164291382,-1.3748886585235596,0.012864691205322742,776,772,733,40.957,1,0
1739355833.867738,0.32389502713423646,1.1799786223660889,0.3213340645865062,-1.1904566243335364,-1.4229538877236516,1.0391181138781234,0.09558647620961205,0.00042929778068090743,0.000903294028289482,0.00029924454926547663,0.0001366136655120753,0.002116376608969027,0.0015546811656420808,-0.0019232768693836135,-0.3301508128643036,-52.31290054321289,5.334578514099121,17.72437286376953,-1.2580465078353882,-1.3748886585235596,0.03300629183650017,776,771,735,41.065,1,0
1739355833.8777726,0.32389366670573855,1.1799748981682552,0.32133416859578234,-1.1904584070590003,-1.4229547238019655,1.0391172484772149,0.09558891194679757,-0.00016490232850345,9.32217969644949e-05,0.0005268638787945456,0.00014316910655251097,-0.0005069826091767144,-0.0006571746351111542,-0.0006655741962744169,-0.3539545238018036,-52.26132583618164,5.334578514099121,17.74817657470703,-1.2516378164291382,-1.3675644397735596,0.019273381680250168,775,772,735,41.065,1,0
1739355833.8897836,0.3238956775662887,1.1799790825393108,0.3213282577887916,-1.190459406140612,-1.4229578242264114,1.0391205203286478,0.09559101857683863,0.00018920019797724678,0.0006736044997425171,-0.0026338750557021754,-0.0019154579666323538,-0.000640627185014042,-0.00038110967802146436,0.0027054299716161535,-0.3817255198955536,-52.28909683227539,5.409956932067871,17.74817657470703,-1.2516378164291382,-1.3675644397735596,-0.027418512850999832,777,772,734,40.957,0,0
1739355833.8998177,0.323895888222131,1.1799786236863496,0.3213323967419373,-1.1904548430753248,-1.4229547630670953,1.0391177754197645,0.09559058757302101,0.0002936849889661992,0.0002412860946319434,-0.001550750638521416,0.00036697839877425224,-0.000123774043134521,-0.000287919934543467,-0.00010026607659474666,-0.3817255198955536,-52.31290054321289,5.386153221130371,17.70056915283203,-1.2516378164291382,-1.3675644397735596,-0.0008682189509272575,777,772,735,40.957,1,0
