IITGN-Robotics/Franka_IITGN_ROBOTICS/franka_ros/franka_iitgn/data02/s_b_002.csv
time,fr3_joint1_pos,fr3_joint2_pos,fr3_joint3_pos,fr3_joint4_pos,fr3_joint5_pos,fr3_joint6_pos,fr3_joint7_pos,fr3_joint1_vel,fr3_joint2_vel,fr3_joint3_vel,fr3_joint4_vel,fr3_joint5_vel,fr3_joint6_vel,fr3_joint7_vel,fr3_joint1_eff,fr3_joint2_eff,fr3_joint3_eff,fr3_joint4_eff,fr3_joint5_eff,fr3_joint6_eff,fr3_joint7_eff,flexpin1,flexpin2,flexpin3,Force,ContactMic,ContactMic_gt
1739354044.0425956,0.3484283819607473,1.167298764091347,0.27890361391173624,-1.1918537915836114,-1.3780543637934508,1.0675154596471397,0.10785482035102917,-0.00040540943874626644,0.000198940041464979,0.0002726051515406057,-0.0009079790093187779,0.00034250675250225654,-0.0008293053598355427,0.0008113240839626017,0.1697271168231964,-52.18594741821289,4.775191307067871,17.84735870361328,-1.1536763906478882,-1.2888290882110596,-0.05396880581974983,,,,,,,,,
1739354044.0545378,0.34842568960181175,1.1673033129871682,0.2788982793159588,-1.1918559702008402,-1.3780511848819428,1.0675162709452657,0.10784842695883144,-0.0025237859466642493,0.00130894105639807,-0.00037243141730443287,-0.0014176117723256128,0.0003210080429178376,0.0005694784616037596,-0.0020415641232085662,0.1935308277606964,-52.21371841430664,4.775191307067871,17.84735870361328,-1.1536763906478882,-1.2952377796173096,-0.0008682189509272575,,,,,,,,,
1739354044.0656059,0.34843248246573283,1.1673022506744861,0.27889719778086897,-1.191854270937165,-1.3780536061183075,1.0675162709453667,0.1078516846119971,0.0007247975432165333,0.0006332762344010421,0.0006627087313667165,-0.0004265759789789883,0.0003367378778107829,0.00014888495011300764,0.0007118251773005924,0.1419561207294464,-52.21371841430664,4.775191307067871,17.82355499267578,-1.1600850820541382,-1.2952377796173096,-0.027418512850999832,,,,,,,,,
1739354044.0765405,0.3484303449553977,1.167296662946762,0.2788967543214116,-1.1918581245741928,-1.3780543637963307,1.06751475562521,0.10784854573509005,-0.0007870808160644481,-0.0008911373372991918,0.0006244149792654794,-0.00104478090772056,-0.00010081954306897369,-0.0006922622473528633,-0.0007183020207549783,0.1419561207294464,-52.16214370727539,4.751387596130371,17.87512969970703,-1.1536763906478882,-1.2824203968048096,-0.0008682189509272575,,,,,,,,,
1739354044.0865602,0.3484322596163635,1.1673042056415714,0.27889429298873136,-1.1918560565889995,-1.3780571846528415,1.067516271209159,0.10785168461266759,0.0009166773536986987,0.001213912912907838,-0.0016823298022053054,-0.00042356775927443094,0.0002974314586336096,-0.0001187833421446493,-0.0002838654191466642,0.11815241724252701,-52.23752212524414,4.775191307067871,17.84735870361328,-1.1536763906478882,-1.2952377796173096,-0.027418512850999832,,,,,,,,,
1739354044.0975287,0.3484320574309481,1.1673025921357498,0.27890257598341006,-1.1918549597024701,-1.3780536063455298,1.067515513285293,0.10785770890021575,0.0003998895683461435,0.0001813812516624516,0.0011250370068705002,0.0005926315929402717,-0.0008218448259758508,-0.00043328860894968055,0.001992420470442225,0.11815241724252701,-52.23752212524414,4.699812889099121,17.82355499267578,-1.1600850820541382,-1.2888290882110596,-0.06037749722599983,,,,,,,,,
1739354044.1075704,0.3484275894363533,1.1673031054236636,0.27889474876436676,-1.1918552315498843,-1.378054498976505,1.0675162709453667,0.1078500216915239,-0.0009596178146941041,0.0003022684199007043,-0.00042033677646486316,0.001124455972762888,-0.0006755993277093031,-0.00027083494469961055,-6.627864704985295e-05,0.1419561207294464,-52.21371841430664,4.727583885192871,17.79975128173828,-1.1536763906478882,-1.2952377796173096,-0.013685601763427258,,,,,,,,,
1739354044.117599,0.34843034476733636,1.1673025723004533,0.27889193763201064,-1.191854272021817,-1.378054363318682,1.0675182477153873,0.10784692071541567,0.0003479009093652572,-0.00024924966659485196,-0.0020464263657575914,0.0004211727628256805,0.0004702933586162313,0.0003575903476214518,-0.0010857494731418473,0.1419561207294464,-52.21371841430664,4.802962303161621,17.82355499267578,-1.1536763906478882,-1.3089706897735596,0.012864691205322742,,,,,,,,,
1739354044.1285694,0.34842671318274415,1.1673017603008957,0.2788975789956449,-1.1918590601518106,-1.3780559873536409,1.0675162709460313,0.10784995206539087,-0.0016665195811993087,0.0011240558384739566,0.00016017732815026765,-0.0013576512696555458,-0.000996073862746329,-0.0001543756784954735,-0.00044581262727876584,0.1935308277606964,-52.23752212524414,4.727583885192871,17.87512969970703,-1.1399434804916382,-1.2952377796173096,-0.0008682189509272575,,,,,,,,,
1739354044.1396043,0.3484313163223481,1.1673064417656591,0.27889572150580894,-1.1918560539452854,-1.378054363796331,1.0675155132852885,0.10784849082093471,0.0009183930289187655,0.0016747970329811317,-0.000832450345518538,0.00012281016799069156,-7.861402705708023e-05,-8.145992546479652e-05,-0.0004987648018867793,0.1419561207294464,-52.28909683227539,4.751387596130371,17.84735870361328,-1.1536763906478882,-1.2888290882110596,-0.027418512850999832,,,,,,,,,
1739354044.1505358,0.3484337699537388,1.1673045157699011,0.27889191152988957,-1.1918563881115611,-1.3780548282863871,1.0675162709453667,0.10784930126772503,-3.610804586962784e-05,0.0005287437745253855,-0.0014627492867162369,-0.00019080487281709528,-0.0001791339693480557,-0.00012929109488749572,-0.0024604548856419616,0.09434870630502701,-52.26132583618164,4.802962303161621,17.84735870361328,-1.1536763906478882,-1.2952377796173096,-0.0072769103571772575,,,,,,,,,
1739354044.1605558,0.3484303449073288,1.1673044337685392,0.2788975280260469,-1.1918570292529977,-1.3780536061388746,1.0675145947171978,0.1078555810961138,-0.0005188861071530396,0.0011353819100982294,0.000818112675113819,-0.0001831136616094727,0.0003780513336902924,-0.0010443035244130199,0.0013275905038686463,0.1419561207294464,-52.26132583618164,4.699812889099121,17.82355499267578,-1.1600850820541382,-1.2824203968048096,-0.06037749722599983,,,,,,,,,
1739354044.172509,0.3484321361645239,1.1673031066679853,0.278897582907844,-1.1918563625823304,-1.378054363796331,1.0675163232722673,0.10784680388831423,0.0006198318511071695,-0.00014427661400055156,0.00028647518673595895,-0.0003986172349355889,-2.4602420193202925e-05,0.0007829719236914284,-0.0014941308831732292,0.11815241724252701,-52.21371841430664,4.727583885192871,17.84735870361328,-1.1536763906478882,-1.2952377796173096,0.012864691205322742,,,,,,,,,
1739354044.182529,0.34842663541825075,1.1673002909968797,0.27889758291989425,-1.1918543739234149,-1.3780543636348253,1.0675178945029729,0.10785006105457899,-0.0011169189247765545,0.00010002764545307338,0.0005687545382167423,-8.277583803768752e-05,0.0018834713141489144,0.0005681841848578467,-0.0010525060897682219,0.1935308277606964,-52.21371841430664,4.727583885192871,17.82355499267578,-1.1536763906478882,-1.3089706897735596,-0.013685601763427258,,,,,,,,,
1739354044.1935627,0.3484303462034276,1.1672996431151867,0.27889750418289444,-1.1918546035116762,-1.3780522090381797,1.0675162709453667,0.10785470520067023,-5.756323859564197e-05,0.00022324778041663777,0.00041957870727453374,0.0010141029288748995,-0.0009848013528390108,-0.0007536103780200784,0.0007126677257424172,0.1419561207294464,-52.16214370727539,4.727583885192871,17.82355499267578,-1.1729024648666382,-1.2952377796173096,-0.05396880581974983,,,,,,,,,
1739354044.2035875,0.3484320924217535,1.167299098867992,0.27889758288344757,-1.1918534869591837,-1.3780583003714646,1.067517096615596,0.10785410520512298,0.0005080644439748889,-0.000859672036240159,2.7970487696077036e-06,-0.0005581031492948559,-0.0006580422905335403,0.00019182560781670627,0.00012045080738027925,0.11815241724252701,-52.18594741821289,4.727583885192871,17.79975128173828,-1.1472676992416382,-1.3025619983673096,-0.04756011441349983,,,,,,,,,
1739354044.2136035,0.34842821900892446,1.1672991217043418,0.2788995839727494,-1.1918543049676245,-1.378054363850166,1.0675162709446855,0.10785163016204055,-0.00021274824403254834,-0.0004968744208560373,0.00030010582874398625,0.000581162806831903,-0.0004543874009871238,-0.00014144216469726093,0.00024389311105395424,0.1419561207294464,-52.18594741821289,4.699812889099121,17.82355499267578,-1.1536763906478882,-1.2952377796173096,-0.05396880581974983,,,,,,,,,
1739354044.2245471,0.3484306598433276,1.1673039951770918,0.2788940146492266,-1.1918542794760898,-1.3780525464981235,1.0675194498597547,0.10784930337714198,-0.00046036180441847395,0.0012476154401836633,-7.43654492633191e-06,0.0012817717463538495,0.0011699280579237324,0.00038841612895887086,-0.0009777836315298873,0.1419561207294464,-52.23752212524414,4.775191307067871,17.82355499267578,-1.1600850820541382,-1.2952377796173096,-0.0072769103571772575,,,,,,,,,
1739354044.2355597,0.3484324708441059,1.167300385618349,0.2788973467088782,-1.1918590505446003,-1.378054363790349,1.067513012576064,0.10785005223897652,0.00010638682707458588,0.00022823547484772513,-1.4791243068794558e-05,-0.00057083187688876,0.00037504067537132775,-0.0017366203649036324,-0.00046980343662872447,0.1419561207294464,-52.21371841430664,4.727583885192871,17.84735870361328,-1.1536763906478882,-1.2952377796173096,-0.013685601763427258,,,,,,,,,
1739354044.2474945,0.3484304235123205,1.1673002815081697,0.27889580024154187,-1.191855353879167,-1.378054363796331,1.0675162723805232,0.10785375596417465,-0.001241059172585724,-0.00013048731984928073,0.00024358546350726766,0.0002886531026327632,-0.0002506844479637094,0.0003708859295765654,-0.0004907705784048406,0.1419561207294464,-52.18594741821289,4.751387596130371,17.79975128173828,-1.1536763906478882,-1.2952377796173096,-0.05396880581974983,,,,,,,,,
1739354044.2575505,0.34842834707492637,1.167302099608763,0.27889391247518286,-1.191859076105528,-1.3780536061362527,1.0675162709453747,0.10785282753403855,-0.0010950333927984938,0.00013625355789819186,-0.0005156923037564861,-0.0003828231390134676,0.0002151631973805187,-0.0003381255834175201,0.0007280705736948554,0.1697271168231964,-52.23752212524414,4.775191307067871,17.84735870361328,-1.1600850820541382,-1.2952377796173096,-0.04023589566349983,,,,,,,,,
1739354044.2676203,0.34843205645546416,1.1672995479254236,0.278897492516374,-1.1918573580953613,-1.3780551229099596,1.0675162709453667,0.1078531984661539,-2.9681023208613135e-06,-0.00011772309263680635,5.77261509318301e-05,-0.0013938273392624827,0.0006026792569162661,-1.0954746851104795e-05,0.001070985030379827,0.11815241724252701,-52.16214370727539,4.727583885192871,17.82355499267578,-1.1472676992416382,-1.2952377796173096,-0.04023589566349983,,,,,,,,,
1739354044.278603,0.3484330061597641,1.167304040636836,0.27889650404866106,-1.1918528743895118,-1.378052206367374,1.067517136842599,0.10784853983953918,0.0006781947230737438,0.000762809127630517,0.0002793141987979318,0.0013068193618069402,0.0013886192790100256,-0.0006432662803217464,-0.0012683143894491491,0.11815241724252701,-52.23752212524414,4.699812889099121,17.77594757080078,-1.1600850820541382,-1.3025619983673096,-0.0008682189509272575,,,,,,,,,
1739354044.2896025,0.348432464979311,1.1673038089642593,0.27889473869763637,-1.1918563726220288,-1.3780536017677,1.06751475562521,0.10785167141527291,-0.0005277753260143401,0.001590890156394241,7.10782020404828e-05,0.00039878822137747626,0.0010223825905758177,-0.0005999475744696163,0.001663963328028256,0.1419561207294464,-52.26132583618164,4.751387596130371,17.82355499267578,-1.1600850820541382,-1.2824203968048096,-0.027418512850999832,,,,,,,,,
1739354044.300608,0.3484337703922505,1.1673025118773799,0.27889474648596846,-1.1918565710662514,-1.3780561829204139,1.0675172938260256,0.10785193882750929,0.0007523569979390739,-0.00012449912351793799,-0.000641417245132561,-0.00016899170199860062,-0.0001470067471527676,0.0008095485761928695,0.001070484307835852,0.09434870630502701,-52.18594741821289,4.751387596130371,17.82355499267578,-1.1664937734603882,-1.3025619983673096,-0.04023589566349983,,,,,,,,,
1739354044.3115315,0.34843201692495457,1.1673007610452655,0.2788926901434323,-1.1918535209483734,-1.3780517888568677,1.067517136843485,0.10785482786410733,0.0003947727475706803,-0.001546375680614983,-0.00017191300949743788,0.0003385808307481307,0.0012923939138124,0.00021539407634594388,0.0012311152338288023,0.11815241724252701,-52.21371841430664,4.751387596130371,17.79975128173828,-1.1664937734603882,-1.3025619983673096,-0.05396880581974983,,,,,,,,,
1739354044.3224902,0.3484319797703641,1.167300358439137,0.2788926377484978,-1.1918555610958923,-1.3780544621472492,1.0675155132852885,0.10785442951646904,-9.656585777103452e-05,-0.0004932052266617312,-0.001061643802607923,-0.0013138429235835993,0.00040914969769447027,-0.0005806146116266543,0.0007539668664951246,0.11815241724252701,-52.21371841430664,4.751387596130371,17.79975128173828,-1.1536763906478882,-1.2888290882110596,-0.05396880581974983,,,,,,,,,
1739354044.3325872,0.3484314177081563,1.1673049563232998,0.27889647386170074,-1.1918560651093641,-1.3780536048458736,1.0675155132852885,0.10784858793512679,-0.0006416901590759671,0.00213369270901723,-0.0012891847211501726,0.0010390403879073854,0.00029294498324340895,0.000256877814778859,-0.0010850559208433553,0.1697271168231964,-52.23752212524414,4.699812889099121,17.84735870361328,-1.1600850820541382,-1.2888290882110596,-0.04023589566349983,,,,,,,,,
1739354044.34359,0.3484331804633898,1.167303270192993,0.27889448447313947,-1.1918528215800712,-1.378054363796309,1.0675162307183637,0.10784819078859112,-0.0007251253729717685,0.0001408067105401737,5.804759132894936e-05,0.0011936013463298076,-0.0001559277437563035,-0.00024645930470751365,-0.0005876740069172565,0.1419561207294464,-52.21371841430664,4.727583885192871,17.79975128173828,-1.1536763906478882,-1.2952377796173096,-0.0008682189509272575,,,,,,,,,
1739354044.3545794,0.3484320574688619,1.1673000481457625,0.27889647520550986,-1.1918594694161893,-1.378054363850166,1.0675162730628085,0.10785831110684721,0.00029048882805807034,-0.000378698279186276,0.0005354555481948801,-0.001352402535934274,-2.1393521799060314e-06,-0.0001784705732571107,0.0023936549320932627,0.11815241724252701,-52.21371841430664,4.699812889099121,17.84735870361328,-1.1536763906478882,-1.2952377796173096,-0.04756011441349983,,,,,,,,,
1739354044.3655639,0.34842993152852725,1.1672943088359808,0.27889261431057255,-1.1918566731128968,-1.3780534491528265,1.067520315756999,0.10784930341913311,-0.0008243655604044246,-0.002576074696611671,-0.0008228384934046973,-0.00010811075835639842,0.0012975323487533588,0.0002092997906850523,-0.0009345558248527191,0.11815241724252701,-52.13437271118164,4.751387596130371,17.82355499267578,-1.1600850820541382,-1.3025619983673096,-0.0072769103571772575,,,,,,,,,
1739354044.3766286,0.3484340061472541,1.1673056676705162,0.2788943969876005,-1.1918553581099476,-1.3780559868682387,1.0675162709633117,0.10785168439631754,0.0010019651236032377,0.0007434520506350078,0.0002170180129673177,-1.3594995391061153e-05,-0.000996760143331274,-0.0003379199611952963,-0.0010271862674066433,0.09434870630502701,-52.26132583618164,4.727583885192871,17.79975128173828,-1.1399434804916382,-1.2952377796173096,-0.027418512850999832,,,,,,,,,
1739354044.3876503,0.34843205742885736,1.167298129575198,0.2788964742932983,-1.1918573703778679,-1.3780541283211882,1.0675163101912235,0.10784580312130117,-0.00036577553708407685,9.211025159190024e-05,0.000368938598321564,0.000276232091191685,0.0009061311089221719,-5.864101371891116e-05,-0.002306619212526491,0.11815241724252701,-52.18594741821289,4.699812889099121,17.82355499267578,-1.1536763906478882,-1.2952377796173096,-0.013685601763427258,,,,,,,,,
1739354044.3995075,0.34843302884120986,1.1673049745574964,0.2788926201429378,-1.1918537247164749,-1.3780520908147664,1.0675162709455883,0.10784763785686105,-4.1723508909693703e-05,0.0013812765693812308,-0.00041085816157190977,0.0020358019978063253,-7.024601255176588e-05,-0.00027650256535407224,-0.0010331926697342284,0.11815241724252701,-52.23752212524414,4.751387596130371,17.77594757080078,-1.1729024648666382,-1.2952377796173096,-0.020094294100999832,,,,,,,,,
1739354044.4095592,0.34843779665940494,1.1672963193816448,0.2788964738613038,-1.1918555863369698,-1.378054363796331,1.0675162709453667,0.10784692221391083,0.0030550890523254543,-0.0014448191346742281,0.0010606283807950753,0.00040931761593597906,-0.0007954044516820924,-0.0005015288994954353,-0.001503522437001706,0.04277399927377701,-52.16214370727539,4.699812889099121,17.79975128173828,-1.1536763906478882,-1.2952377796173096,0.012864691205322742,,,,,,,,,
1739354044.4195724,0.3484303536612401,1.167302813833124,0.27889508496200016,-1.1918591517964163,-1.3780519425420212,1.0675162709453667,0.10784720667999914,-0.0008127546319088174,0.0026226914926334873,0.00036357164229390126,-0.00031796513784576586,0.0012720719848044577,-0.00018677804129718897,-0.0018901159788477268,0.1419561207294464,-52.23752212524414,4.727583885192871,17.84735870361328,-1.1472676992416382,-1.2952377796173096,0.0064559997990727425,,,,,,,,,
1739354044.4305444,0.3484305811183779,1.1673024801415668,0.27889261183030734,-1.1918553496469466,-1.3780536061183075,1.067515670268715,0.10784854573241907,-0.0013163420428497692,-0.0005708424654831031,-0.0004143929442380624,0.0007434105342820374,0.0003936912224497096,-0.00037744050670853417,-0.0014342352275353908,0.1419561207294464,-52.23752212524414,4.751387596130371,17.79975128173828,-1.1600850820541382,-1.2888290882110596,-0.0008682189509272575,,,,,,,,,
1739354044.4405677,0.34843660491627887,1.1673026112728826,0.27889046562717523,-1.1918595133079215,-1.378055121456409,1.0675162724015754,0.10785427914164494,0.0012862510297025828,0.001004102469602774,-0.0011419366945140167,-0.00024097613542397716,6.588092807137874e-05,0.00034274602124398596,0.00132934278998284,0.09434870630502701,-52.21371841430664,4.751387596130371,17.82355499267578,-1.1472676992416382,-1.2952377796173096,-0.04023589566349983,,,,,,,,,
1739354044.451557,0.3484360097384868,1.1672985676433554,0.27889419160699075,-1.1918535212799184,-1.3780524952634645,1.067516270945375,0.10785299684987448,0.001112392106095407,-0.0017401767417707533,0.0007160961712711184,0.0013323718997174843,0.0003131836143279941,-0.0002678921876537121,0.00020938292122081972,0.09434870630502701,-52.16214370727539,4.727583885192871,17.79975128173828,-1.1664937734603882,-1.2952377796173096,-0.04756011441349983,,,,,,,,,
1739354044.4625657,0.34842834701512176,1.1672966766264399,0.2788964738601115,-1.191851024409525,-1.3780537238718287,1.0675155137698051,0.10785402623193802,-0.0005337288473497103,-0.00034629394115690557,0.0011585395887334995,0.002075843045140557,0.000170230478155128,-0.0002671825503117452,-0.0008199863982515499,0.1697271168231964,-52.16214370727539,4.699812889099121,17.77594757080078,-1.1600850820541382,-1.2888290882110596,-0.04756011441349983,,,,,,,,,
1739354044.4725726,0.34843491820518746,1.167301741975072,0.2788925319215201,-1.1918555631263947,-1.3780574916395596,1.0675171760884639,0.107851684611997,0.0012121542550273744,-0.0004170735265079244,-0.0009953897375252852,0.00015501233465100856,-0.0011314416726380405,-0.0001606904396946454,-0.0002055397791867971,0.11815241724252701,-52.23752212524414,4.751387596130371,17.79975128173828,-1.1600850820541382,-1.3025619983673096,-0.027418512850999832,,,,,,,,,
1739354044.482633,0.34842858322592296,1.167296429327314,0.2788926113930339,-1.191855576364037,-1.3780543651541768,1.0675163886836012,0.10784970618685237,-0.001828746979308449,-0.0008776768480693315,-0.0011293157976360532,0.0002191298807555324,0.0001234609938086694,-4.996948173469613e-05,-0.0006305798231451959,0.1697271168231964,-52.16214370727539,4.751387596130371,17.79975128173828,-1.1536763906478882,-1.2952377796173096,-0.013685601763427258,,,,,,,,,
1739354044.4935932,0.34843128978866345,1.167306778991124,0.2788943940713989,-1.1918591529511406,-1.3780536061362603,1.0675162767602322,0.10785017934270828,0.0005577702081232044,0.002377513691702016,0.0004995005745931588,6.829587196222463e-05,-2.790066697443193e-05,-0.00013224813719248818,0.0012424639059396266,0.1419561207294464,-52.26132583618164,4.727583885192871,17.84735870361328,-1.1600850820541382,-1.2952377796173096,-0.013685601763427258,,,,,,,,,
1739354044.505556,0.3484303462447473,1.167299145068012,0.27889292925856457,-1.1918591445529136,-1.3780535660993318,1.0675162709453996,0.10785319993349202,0.0006369759710040132,-0.0010366207820958215,0.00022798591261805973,-0.0003651684852881468,-0.000753061461952151,-0.0009424256370327774,0.0008919054542862876,0.1419561207294464,-52.18594741821289,4.751387596130371,17.84735870361328,-1.1335347890853882,-1.2952377796173096,-0.04023589566349983,,,,,,,,,
1739354044.5155997,0.3484297412570039,1.1673002572435396,0.2788964738630488,-1.191859153056135,-1.3780504286574697,1.0675166241580765,0.1078461095796192,-0.0009284311241428086,-0.0014854544368355076,0.000490633884713508,-0.0004916097927088753,0.0007927040276249697,0.0004984900131863424,-0.002384759928790412,0.1419561207294464,-52.18594741821289,4.699812889099121,17.84735870361328,-1.1600850820541382,-1.2952377796173096,-0.0072769103571772575,,,,,,,,,
1739354044.5265346,0.34843206145637245,1.167303268455164,0.2788943950434606,-1.191855587702145,-1.3780536099944496,1.0675162709473607,0.10785168459463841,-0.00018703895686381902,0.0007265244672286216,0.0001519300452311278,9.797658625430991e-05,-0.00016582219570955163,0.00010868910282392849,-0.0004920211945461686,0.11815241724252701,-52.21371841430664,4.727583885192871,17.79975128173828,-1.1600850820541382,-1.2952377796173096,-0.027418512850999832,,,,,,,,,
1739354044.537504,0.3484303450153584,1.1672983891527615,0.278894630282404,-1.191857370379164,-1.3780493297914507,1.0675213753951165,0.1078516451828459,-0.001091348470815488,-0.0007807769373219429,0.0009138469365896067,-0.00038459077038865237,0.0011416395021569717,0.0010213081502564573,4.248771352573878e-05,0.1419561207294464,-52.18594741821289,4.727583885192871,17.82355499267578,-1.1600850820541382,-1.3025619983673096,-0.027418512850999832,,,,,,,,,
1739354044.5485237,0.3484303751492498,1.1673032310937608,0.27889439759759166,-1.1918583240534804,-1.3780528482905285,1.0675155133092151,0.10785081855294996,-0.0010112234496007658,0.0002153510722128121,0.0006318829861029833,-0.00016417903966081692,0.0010057291458146923,-0.0007474780092280686,-0.0003641080912584289,0.1419561207294464,-52.21371841430664,4.727583885192871,17.82355499267578,-1.1664937734603882,-1.2888290882110596,-0.020094294100999832,,,,,,,,,
1739354044.5585487,0.34843213648905663,1.167303326267516,0.278897302536968,-1.1918555927693828,-1.3780528484761712,1.0675162711068726,0.1078534638914691,0.00010579886053192971,0.0012235429934962822,0.0005973988505968403,0.0014656646402933782,0.0011922451238141158,-0.00023446357288021275,0.0017805072887159498,0.11815241724252701,-52.21371841430664,4.676009178161621,17.79975128173828,-1.1664937734603882,-1.2952377796173096,-0.05396880581974983,,,,,,,,,
1739354044.568597,0.3484348922875573,1.1673017696090588,0.27889258485495827,-1.1918573691196779,-1.378054363796331,1.0675178945026855,0.10785633874077652,0.0003338886327565676,0.0013393378264928888,-0.00022358898214062592,-0.0004133579166345679,0.0010740008427276833,-0.00026102597476569965,0.0013100326831810307,0.11815241724252701,-52.23752212524414,4.751387596130371,17.82355499267578,-1.1536763906478882,-1.3089706897735596,-0.06678618490695953,,,,,,,,,
1739354044.5786371,0.3484320692482802,1.1673020048198195,0.27889644736985175,-1.1918573590414507,-1.378054363796331,1.0675175074979117,0.10784544727933103,-0.00031771286441039694,-0.00019290338369932282,0.0009763959777801364,0.0006419173577086642,2.4178788608030113e-05,0.0013838825721466678,-0.003262657098438141,0.11815241724252701,-52.23752212524414,4.699812889099121,17.82355499267578,-1.1536763906478882,-1.3025619983673096,-0.013685601763427258,,,,,,,,,
1739354044.589557,0.3484337699482774,1.1673025116403166,0.2788944028199046,-1.191857371687338,-1.3780520908160958,1.0675171368432965,0.10785002161674352,0.0007176880221734256,-0.0004997590086232214,0.0005747088534926233,-0.0003019210278741914,6.410861016879982e-05,-0.0007617105767693483,-0.0010344211430994748,0.09434870630502701,-52.23752212524414,4.727583885192871,17.82355499267578,-1.1729024648666382,-1.3025619983673096,-0.013685601763427258,,,,,,,,,
1739354044.6005118,0.3484304537782422,1.1673002730836515,0.27889224826789755,-1.191857476379323,-1.3780545981783208,1.0675162709992019,0.10784783820597198,0.000124924408622249,-0.0006683275157919263,3.6513957819573973e-06,-0.00022273610803319954,0.0013446651422838359,-0.00026716992105557387,-0.0012513664018896271,0.1419561207294464,-52.21371841430664,4.727583885192871,17.82355499267578,-1.1472676992416382,-1.2952377796173096,0.0064559997990727425,,,,,,,,,
1739354044.6114895,0.34843058111894304,1.1672988821262609,0.27889260843882746,-1.1918573703797624,-1.3780536017726481,1.06751714120325,0.10785319993371828,-0.0004818610870927736,0.00041817620589074556,-0.00022655307981636136,0.0005964185334761507,-0.00019676128535124773,0.00015399165142858943,0.0011976706048031143,0.1419561207294464,-52.18594741821289,4.751387596130371,17.82355499267578,-1.1600850820541382,-1.3025619983673096,-0.04023589566349983,,,,,,,,,
1739354044.6215627,0.34843418754278876,1.1673024890635124,0.2788926084508905,-1.1918538050251262,-1.3780547693367757,1.0675163886830104,0.10785081725507144,0.00011819919604696483,-0.00014626372790023276,0.0004399861434109606,0.0008630562076346128,-0.0018573422561160965,-0.0005024100573896705,-0.0002773583270610058,0.11815241724252701,-52.21371841430664,4.751387596130371,17.77594757080078,-1.1536763906478882,-1.2952377796173096,-0.020094294100999832,,,,,,,,,
1739354044.6325517,0.34843042369235555,1.167304791875712,0.2788897116706387,-1.1918558261207244,-1.3780528484784635,1.0675171368432637,0.10785480596576161,0.00010060168862125021,-0.00024851371102145234,-0.001290284125812211,0.00012991332244284665,0.0012982200902387439,-0.00024950284342039887,0.0011133150651732224,0.1419561207294464,-52.23752212524414,4.751387596130371,17.79975128173828,-1.1664937734603882,-1.3025619983673096,-0.05396880581974983,,,,,,,,,
1739354044.6435604,0.3484338487937067,1.1673010223855247,0.27889438969437913,-1.191857370345517,-1.3780528479916574,1.0675171760884556,0.1078531867894515,-0.00024007047230665255,-0.0001179731575860589,-0.0010576038883512795,-0.000888985915444788,0.0006121427804514802,-9.563166259441131e-05,-3.479519074057532e-05,0.09434870630502701,-52.21371841430664,4.727583885192871,17.82355499267578,-1.1664937734603882,-1.3025619983673096,-0.04023589566349983,,,,,,,,,
1739354044.6545496,0.34843047286591783,1.1672987692273213,0.27889261139435506,-1.1918616180230288,-1.37805360613625,1.0675194498599763,0.10784807273941936,-0.0009956046917166152,-0.0008157754438784465,-0.0008181845256482229,-0.0011176962020611615,0.0012324499063618784,0.00023840357960194265,-0.000753346967577101,0.1697271168231964,-52.18594741821289,4.751387596130371,17.84735870361328,-1.1600850820541382,-1.2952377796173096,-0.0008682189509272575,,,,,,,,,
1739354044.6655266,0.34843045087405783,1.1673031059075456,0.2788925040133554,-1.191857370358086,-1.378054363796331,1.0675155176638842,0.1078509764320515,0.0003478542533558724,-0.0001191157006808815,-0.001343447093123678,0.00038048165009942514,-0.0003756491278187075,-0.0003284153632218794,0.00020228688029602117,0.1419561207294464,-52.21371841430664,4.751387596130371,17.82355499267578,-1.1536763906478882,-1.2888290882110596,-0.020094294100999832,,,,,,,,,
1739354044.6764998,0.34843418429918094,1.1673057504434126,0.2788904643183665,-1.1918555478021908,-1.3780536104969034,1.0675203157570117,0.10784980741021472,0.00032334013088715905,0.0009525422065702067,-0.0008047989229455687,0.000543605871115688,-0.0002666308904608586,0.0010455613266293095,-0.000488213960285426,0.11815241724252701,-52.26132583618164,4.751387596130371,17.79975128173828,-1.1600850820541382,-1.3025619983673096,-0.04756011441349983,,,,,,,,,
1739354044.6865962,0.34843135185473584,1.1672970510496363,0.2788922471776633,-1.1918591530555074,-1.378054359435754,1.0675194500750955,0.10785319969844492,-0.0001027709921648548,-0.0018169203132016988,0.0003198686386826291,-0.0008417242325147679,-0.00011314412475918668,-1.844013866544029e-05,0.0008325418769728616,0.11815241724252701,-52.16214370727539,4.727583885192871,17.84735870361328,-1.1536763906478882,-1.2952377796173096,-0.04023589566349983,,,,,,,,,
1739354044.6966026,0.34843376993630626,1.167300843787981,0.27889022608206826,-1.191857448907216,-1.3780544219382669,1.067515513500633,0.10784727239636388,0.0007876012454391279,-0.0004014810294948221,-0.0019121526427733095,0.00017819793923406314,-0.00038242447228182955,-0.0007161351162933509,-0.0022248750835872216,0.09434870630502701,-52.21371841430664,4.751387596130371,17.82355499267578,-1.1536763906478882,-1.2888290882110596,0.0064559997990727425,,,,,,,,,
1739354044.7075326,0.34842922321954856,1.1673031824212479,0.27889538369176337,-1.1918612456013855,-1.3780551388993405,1.0675162709453678,0.10784930339286838,-0.0004966124779988357,0.0005410746264735999,-8.262417455551056e-05,-0.0007846907967264208,-0.0005421348641184994,-0.0006966227548590899,-0.00018045556465668365,0.11815241724252701,-52.21371841430664,4.676009178161621,17.87512969970703,-1.1472676992416382,-1.2952377796173096,-0.0072769103571772575,,,,,,,,,
1739354044.7175438,0.3484283469184782,1.1672993687823183,0.27889439369569813,-1.1918573704883964,-1.3780543637966263,1.067519791245168,0.10785319847246048,-0.000831301967484149,0.001146139567696955,0.0004411715760952046,0.0005530114814832637,-6.386633645528792e-05,0.0015885885772192313,0.00020610946470591443,0.1697271168231964,-52.16214370727539,4.727583885192871,17.82355499267578,-1.1536763906478882,-1.2888290882110596,-0.04023589566349983,,,,,,,,,
1739354044.7275527,0.34843516705298794,1.167301013921173,0.27889149478373304,-1.1918591521113773,-1.3780551214564094,1.0675191294303479,0.10785482349011027,0.002116482140431524,-0.0008031308596483382,-0.0012810608917797194,-0.00025888102983377215,0.001053762610606963,0.0011009511163513756,0.0013689081858316576,0.11815241724252701,-52.18594741821289,4.727583885192871,17.84735870361328,-1.1472676992416382,-1.2824203968048096,-0.05396880581974983,,,,,,,,,
1739354044.7376325,0.34843229369118545,1.1673036886748973,0.27889612942976266,-1.191862307550911,-1.378054346353728,1.067516271180943,0.10785156470057641,-0.00035998277665043234,0.0005455148719977857,0.0008476049983211335,-0.0016352176473555802,0.0004093903359187715,-0.0004624718148823957,-0.0006387891110481017,0.11815241724252701,-52.26132583618164,4.699812889099121,17.84735870361328,-1.1536763906478882,-1.2952377796173096,-0.027418512850999832,,,,,,,,,
1739354044.7484908,0.3484320584035869,1.167300029565304,0.2788963678916085,-1.1918591792856221,-1.3780524440285102,1.0675163886829406,0.10785369343526643,0.0005349483675029609,-0.00039163081009308204,0.0011257423225937194,-0.00020520971343546428,0.0008644029258890753,0.0009934818252428292,7.908905992509664e-05,0.11815241724252701,-52.21371841430664,4.699812889099121,17.84735870361328,-1.1729024648666382,-1.2952377796173096,-0.04756011441349983,,,,,,,,,
1739354044.7585497,0.3484320613157764,1.1673032440606408,0.278893360560237,-1.191857370379312,-1.3780536061382467,1.0675203288934392,0.10785328567090308,-0.00020224862660459355,0.0013813062552413843,0.00031019969108479696,-0.00011117906877962802,-0.000518608081700672,0.0006778092076162325,0.000175394955372134,0.11815241724252701,-52.21371841430664,4.727583885192871,17.82355499267578,-1.1600850820541382,-1.3025619983673096,-0.05396880581974983,,,,,,,,,
1739354044.7706513,0.34843279234221386,1.167301089158246,0.27889012123894164,-1.1918538138554438,-1.3780540790245994,1.067516271017221,0.10784688035942464,0.0005453835831720656,-0.0002339517723390911,-0.0018248749636709779,0.0007519591933329887,0.0005567530748857443,-0.0001945030839109863,-0.0028898076318432664,0.11815241724252701,-52.21371841430664,4.751387596130371,17.77594757080078,-1.1600850820541382,-1.2952377796173096,0.012864691205322742,,,,,,,,,
1739354044.7815263,0.3484358495436762,1.167302575549703,0.27889237198996863,-1.1918591882374994,-1.3780536061371425,1.067517254580169,0.10785325227146168,0.0009390997309784638,-0.0007596315309919926,-0.00044336886214034173,-0.0005554041569969533,0.0009272369786787278,-0.0010061775709866792,-0.00010720451169730238,0.06657771021127701,-52.21371841430664,4.751387596130371,17.84735870361328,-1.1600850820541382,-1.3025619983673096,-0.04023589566349983,,,,,,,,,
1739354044.7915616,0.3484340061634033,1.167298770670631,0.2788918922018938,-1.1918591618882883,-1.3780535036669348,1.0675208259591051,0.10785132974693232,0.001170957801474255,0.0003012665291510102,-0.0007038252442841599,-0.0009003143812622292,-0.0005647214030147238,0.0007261612633545202,0.00044783425624568443,0.09434870630502701,-52.18594741821289,4.751387596130371,17.84735870361328,-1.1729024648666382,-1.3025619983673096,-0.027418512850999832,,,,,,,,,
1739354044.802526,0.348432162410635,1.1673067786149958,0.27889229345313604,-1.1918620141881653,-1.3780510006441202,1.067517490223756,0.1078519381858055,0.00034107478489117107,0.0014352443438321364,-0.00041564546619086713,-0.00015873374241399518,0.0006194636992011419,0.0009054506636857165,0.00037526898344495893,0.11815241724252701,-52.26132583618164,4.751387596130371,17.84735870361328,-1.1472676992416382,-1.3025619983673096,0.0064559997990727425,,,,,,,,,
1739354044.8145947,0.3484338004427842,1.1673010188016486,0.27889216882953244,-1.1918555877182964,-1.3780543637730687,1.0675171373829457,0.10785240286696285,0.0013039047987800604,-0.0004322753729932979,-0.0003001229870823126,0.00040516324929631395,-0.000689297400755663,0.0010641737479667624,0.0008947847317876273,0.09434870630502701,-52.21371841430664,4.727583885192871,17.79975128173828,-1.1536763906478882,-1.3025619983673096,-0.03382720425724983,,,,,,,,,
1739354044.8265188,0.3484291638883901,1.1673050569499304,0.27888951051933986,-1.1918591628676474,-1.3780551214564094,1.0675203157569881,0.10785081936441161,-0.0008036180147988033,0.000680397306173649,-0.001770081837196645,-0.0006468956493465931,0.00018269960587920014,0.0010973938218312655,0.000987059206228606,0.1419561207294464,-52.23752212524414,4.751387596130371,17.84735870361328,-1.1472676992416382,-1.3025619983673096,-0.020094294100999832,,,,,,,,,
1739354044.836554,0.3484283469598089,1.1673038107788591,0.2788898748801848,-1.1918577334694125,-1.3780543642808476,1.0675163887008816,0.1078525603458642,-0.0013007403868156035,0.00225345910095018,-0.0012064401379930471,6.480188492597361e-05,-0.0004581624060299758,0.0008687114349503161,0.0006770649409392006,0.1697271168231964,-52.26132583618164,4.775191307067871,17.79975128173828,-1.1536763906478882,-1.2952377796173096,-0.03382720425724983,,,,,,,,,
1739354044.846608,0.34843058209038985,1.1673032314926706,0.27889586837943686,-1.1918559325206022,-1.3780528484761987,1.0675171499305338,0.1078497526558871,5.540178229567849e-05,0.0007910480518330423,0.0015126891055902158,-0.001208247189713814,0.0009993671428353127,0.0008914564399359967,-0.001582967356483429,0.1419561207294464,-52.21371841430664,4.676009178161621,17.79975128173828,-1.1664937734603882,-1.3025619983673096,-0.020094294100999832,,,,,,,,,
1739354044.857538,0.34843349454378053,1.1672965931984989,0.2788879676899178,-1.1918573590421209,-1.378054363796331,1.0675162883879943,0.10785431947397306,0.0004358526251754162,-0.0009911011536218486,-0.0006469852728453388,0.00013934315624583094,0.00035649323480050536,-0.0004558326578295239,0.0006927666805667493,0.1419561207294464,-52.16214370727539,4.775191307067871,17.82355499267578,-1.1536763906478882,-1.2952377796173096,-0.013685601763427258,,,,,,,,,
1739354044.8676004,0.34843205748086337,1.1673012326334804,0.278892611345928,-1.1918591530559912,-1.3780536061362527,1.0675172545804643,0.1078501789300403,-0.0009157179585036302,0.00013295866902458424,9.53937701536269e-05,0.0005530163734548607,0.0006954603805167335,0.00046272318720839316,0.0016301358482547512,0.11815241724252701,-52.18594741821289,4.751387596130371,17.84735870361328,-1.1600850820541382,-1.3025619983673096,-0.013685601763427258,,,,,,,,,
1739354044.8784952,0.3484337709203178,1.1673048183331178,0.2788926110673302,-1.1918556151742448,-1.3780536061362527,1.0675162709473607,0.10785244373510591,0.0001277939177245376,0.00041365820552303367,-0.0002791945137247811,0.00042925427292106016,4.8163111612866186e-05,-6.006753804823236e-05,0.0005405158967292418,0.09434870630502701,-52.23752212524414,4.751387596130371,17.79975128173828,-1.1600850820541382,-1.2952377796173096,-0.03382720425724983,,,,,,,,,
1739354044.8885288,0.34843320568500785,1.1673013560227488,0.2788897500443762,-1.1918574501795378,-1.3780543245504742,1.0675171760884556,0.10785319993284904,-0.0008731010601121312,0.0003301151566406543,-0.0006158842163233298,-0.0004386041075183805,-0.0001434764292475232,0.000831815591243411,-0.00017935660161213596,0.1419561207294464,-52.18594741821289,4.751387596130371,17.82355499267578,-1.1536763906478882,-1.3025619983673096,-0.04023589566349983,,,,,,,,,
1739354044.8985434,0.34843589597140817,1.167301351730904,0.27889439405524646,-1.1918612328464893,-1.3780543637422742,1.0675171368428207,0.10785319993282429,0.0011967663297769954,0.0013940249211351775,0.0004856939803421758,-0.0012852947884464442,0.000525262228146787,-0.0001553448178911558,0.0010174790608594249,0.09434870630502701,-52.18594741821289,4.727583885192871,17.87512969970703,-1.1536763906478882,-1.3025619983673096,-0.04023589566349983,,,,,,,,,
1739354044.909556,0.3484303452673538,1.1672981377212788,0.2788908195599939,-1.1918573703791642,-1.3780528542903743,1.0675171762499613,0.10785624247692452,-0.0010757047797014681,-0.0014071777071006666,0.00047152018401705784,0.0004568311886241079,0.0009676142431219736,0.0007401894405626979,0.0005576729817411023,0.1419561207294464,-52.18594741821289,4.775191307067871,17.82355499267578,-1.1664937734603882,-1.3025619983673096,-0.05396880581974983,,,,,,,,,
1739354044.920591,0.3484303453393569,1.1673023650415322,0.27888851007284376,-1.1918555877021453,-1.3780511848819539,1.0675171368426732,0.10785406727506133,-0.0003889754012703064,0.0009369384218032956,-0.0018483826095991342,0.0010043259770133475,-5.336811370087624e-05,0.0005082313356181104,0.0016585432469011397,0.1419561207294464,-52.21371841430664,4.802962303161621,17.79975128173828,-1.1536763906478882,-1.3025619983673096,-0.04756011441349983,,,,,,,,,
1739354044.9315898,0.34843037990155346,1.1673024932828215,0.27889031336885733,-1.1918555878475001,-1.3780583003528524,1.0675162711607074,0.10784854865582574,-0.0004433321658177345,-0.0002610150128486132,-0.0005405350107439735,0.0008260845052755432,-0.0008101767192097637,-0.0006108355561077537,-0.0013428993330092712,0.1419561207294464,-52.21371841430664,4.775191307067871,17.79975128173828,-1.1472676992416382,-1.2952377796173096,-0.0008682189509272575,,,,,,,,,
1739354044.9424875,0.34843341565091707,1.1673012703175132,0.27889145356686246,-1.1918539227626983,-1.37805500393418,1.0675155147388422,0.10784970618690186,8.86769988715794e-05,0.0007072290398747332,0.0002708593137518197,0.0007611624144240104,-0.00014954946585946343,-0.0011788363544909274,-0.0007157752237562533,0.1419561207294464,-52.18594741821289,4.727583885192871,17.77594757080078,-1.1472676992416382,-1.2888290882110596,-0.013685601763427258,,,,,,,,,
1739354044.9534814,0.34843377000159187,1.1673032305124544,0.27889145352265193,-1.191855599585583,-1.3780543637956675,1.0675162709453747,0.1078524422707427,-3.160148473392127e-05,0.001346564213566124,-6.351808653429867e-05,-3.2157898289618305e-05,0.0002719774676616393,-0.0009552712730100514,0.0010026677542800907,0.09434870630502701,-52.21371841430664,4.727583885192871,17.79975128173828,-1.1536763906478882,-1.2952377796173096,-0.03382720425724983,,,,,,,,,
1739354044.9635136,0.3484341833265213,1.1672973355099923,0.2788898745903798,-1.191857095701232,-1.3780543636348253,1.0675162709992019,0.10784917196242974,0.0002556083064105258,-0.001212665169337311,-0.0012186490155933396,-0.0007302000541618081,-0.0010347732188876115,-0.00024857110734363144,-0.0004918491270832987,0.11815241724252701,-52.16214370727539,4.775191307067871,17.84735870361328,-1.1536763906478882,-1.2952377796173096,-0.0072769103571772575,,,,,,,,,
1739354044.9745488,0.3484283558590405,1.1672995292826869,0.27889437101646924,-1.1918555879943524,-1.3780536453821066,1.0675194503442722,0.10785620304487711,-0.00096913915604264,-0.0005721850839654444,0.0007972981375258327,0.0014465024517836167,3.759828794172278e-05,-0.00012544224822846282,0.002994744672634784,0.1697271168231964,-52.16214370727539,4.727583885192871,17.79975128173828,-1.1600850820541382,-1.2952377796173096,-0.05396880581974983,,,,,,,,,
1739354044.985601,0.3484337699482719,1.1673004942921665,0.2788896433900891,-1.1918576102149552,-1.3780547300910668,1.067521073423048,0.10785698602274904,-7.834745268184669e-05,-0.00014759053044836288,-0.0014042645028465744,0.00017359066097715338,-0.0004898195980564989,0.0011281062959968542,0.003037379395846407,0.09434870630502701,-52.18594741821289,4.751387596130371,17.82355499267578,-1.1536763906478882,-1.3089706897735596,-0.06037749722599983,,,,,,,,,
1739354044.9965591,0.348430347823514,1.1673023242302623,0.27889261123227027,-1.1918580866174016,-1.3780535538105116,1.0675182008593243,0.10785406583798722,-0.0007645878127284711,-0.00013576760653520088,0.0006870922628448787,0.0005664024412447067,0.0008631454766733357,0.0009572855249226009,0.0005887238713794896,0.1419561207294464,-52.21371841430664,4.751387596130371,17.82355499267578,-1.1600850820541382,-1.3025619983673096,-0.04756011441349983,,,,,,,,,
1739354045.0075536,0.3484321361645733,1.167300347055574,0.2788943927632009,-1.1918595161585055,-1.3780544161232535,1.0675162709633859,0.10785300122487373,-8.012729656669737e-05,-0.000336830786055497,0.0008363424742017364,-0.0009352532162961483,-0.0007486524856476399,-0.00030800104306324017,-0.0002306086922623202,0.11815241724252701,-52.21371841430664,4.727583885192871,17.82355499267578,-1.1536763906478882,-1.2952377796173096,-0.04756011441349983,,,,,,,,,
1739354045.0185273,0.34843039412862103,1.1673012696355476,0.27888941939803713,-1.1918612988395456,-1.3780557766472685,1.0675179338023693,0.10784692217577609,-0.0016767243761956184,0.00019958751087947022,-0.001560803532293055,-0.0008246732433521974,-0.00047941762199062924,-0.00045137680075398365,-0.001665926854893056,0.1697271168231964,-52.18594741821289,4.751387596130371,17.84735870361328,-1.1536763906478882,-1.3089706897735596,0.012864691205322742,,,,,,,,,
1739354045.0285425,0.34843205746219286,1.1673001078494802,0.27889259825837087,-1.191857370415503,-1.378055121480336,1.0675171368432645,0.10784693532105316,-0.0004680512127944363,-0.0009854398404274107,-0.00033093092349379094,-0.0003976620207616427,-0.0010842259056125583,-6.73180712274878e-05,-0.000808012263477539,0.11815241724252701,-52.21371841430664,4.751387596130371,17.82355499267578,-1.1472676992416382,-1.3025619983673096,0.012864691205322742,,,,,,,,,
1739354045.0385792,0.34843034501533626,1.1673022733435783,0.27889344039686,-1.1918556676110705,-1.3780567913493589,1.0675162709453667,0.10785006105546933,-0.0008456980144651519,0.0010175078552098465,-0.00022243201370425567,0.0004024283238366486,-0.0005624266623378086,-0.0003583734825048972,0.0007188922254663334,0.1419561207294464,-52.21371841430664,4.727583885192871,17.79975128173828,-1.1600850820541382,-1.2952377796173096,-0.013685601763427258,,,,,,,,,
1739354045.0486019,0.3484312897513293,1.1672995241029929,0.2788943940552483,-1.1918573707075661,-1.3780543580360718,1.067518018538965,0.10785169824272939,-5.135839032189844e-05,-0.0020873130583850884,0.0008449261184444116,-8.063341390657333e-05,-0.00022765504147952563,-0.00011240117728792483,0.001137315943416497,0.1419561207294464,-52.16214370727539,4.727583885192871,17.82355499267578,-1.1536763906478882,-1.3089706897735596,-0.027418512850999832,,,,,,,,,
1739354045.0595539,0.34843206034904284,1.1673039646644754,0.27889404827179526,-1.191857370488182,-1.3780547987801715,1.0675197118015853,0.10785108862206669,0.00012368615481723848,4.5194180630930055e-05,-0.0002950709283114304,0.0006335527571048759,0.0013007789225818025,0.0007936610519809775,-0.0008166940724909251,0.11815241724252701,-52.23752212524414,4.727583885192871,17.82355499267578,-1.1729024648666382,-1.3153793811798096,-0.027418512850999832,,,,,,,,,
1739354045.0704885,0.34842820442745537,1.1673030212314937,0.27889011829548044,-1.1918591618865029,-1.378054324596334,1.0675155134647392,0.10784930338507524,-0.0011149988037926404,-0.00023838288232704217,-0.0014862115883996787,0.0005247230926854972,-4.359700503556285e-05,-0.0011185971778732847,-0.0009301110038535289,0.1419561207294464,-52.21371841430664,4.751387596130371,17.84735870361328,-1.1536763906478882,-1.2888290882110596,-0.0072769103571772575,,,,,,,,,
1739354045.080489,0.34843523605728827,1.1673009985486171,0.2788916566885046,-1.1918595250130823,-1.3780543637961096,1.0675164279287943,0.10784975411025206,0.00038790692355336154,-0.00042396582059638804,-0.001388943606388382,-0.0001334820279507744,7.782991521328499e-05,0.0005007080208714622,0.0005953556702456815,0.11815241724252701,-52.18594741821289,4.751387596130371,17.82355499267578,-1.1536763906478882,-1.2952377796173096,-0.020094294100999832,,,,,,,,,
1739354045.0906143,0.3484320574813544,1.1673028311806124,0.2788901046151377,-1.191855584904211,-1.378049669561786,1.0675171368452574,0.10785086842670019,-0.0005090430627600802,0.0019204903381795464,-0.0009099503192795009,0.0004958956659913488,0.002157113193895335,0.0014464054825050598,0.001459361176864818,0.11815241724252701,-52.23752212524414,4.775191307067871,17.79975128173828,-1.1664937734603882,-1.3025619983673096,-0.04756011441349983,,,,,,,,,
1739354045.1015902,0.34843205757153345,1.1672963057653918,0.2788904651506765,-1.1918573703791482,-1.378057542692774,1.067517136842599,0.10784742617388587,-0.0010675845867142153,-0.0013317856527277786,-0.0004084423733700861,0.00041876654975600504,-0.0005455374866624712,0.00048245065910241093,-0.0007312261427028421,0.11815241724252701,-52.16214370727539,4.751387596130371,17.82355499267578,-1.1536763906478882,-1.3025619983673096,-0.027418512850999832,,,,,,,,,
1739354045.1125534,0.3484320574275248,1.1672983493017424,0.2788935745251406,-1.1918573707062128,-1.3780551215281895,1.0675178945026775,0.1078547825218231,0.00042727551662656544,-0.000398632796118116,0.0006905774249585744,0.00028014490146709744,2.6042963498910585e-05,0.0012793130355490691,0.0006571113131748901,0.11815241724252701,-52.18594741821289,4.699812889099121,17.82355499267578,-1.1472676992416382,-1.3089706897735596,-0.05396880581974983,,,,,,,,,
1739354045.1235213,0.34842663444574457,1.1673031057635572,0.27889259859037585,-1.191853831516085,-1.3780551214564105,1.0675214931326864,0.10785081871474139,-0.0017768229709063453,0.0006360381263832298,0.0001060606219956703,0.00033276056354496664,0.001184156623974671,0.0010508944054949507,-0.00039285593005333475,0.1935308277606964,-52.21371841430664,4.751387596130371,17.77594757080078,-1.1472676992416382,-1.3025619983673096,-0.020094294100999832,,,,,,,,,
1739354045.1345706,0.3484337702722758,1.1673033540794586,0.27889643853991114,-1.1918595957284015,-1.3780536003220516,1.0675171368671905,0.10784994276578196,0.0003424107877831196,0.0007881361917967495,0.0014342611136341555,4.6277243817335195e-05,0.0007303586547683922,-0.0004437906501670166,-0.0003819954844919838,0.09434870630502701,-52.21371841430664,4.699812889099121,17.82355499267578,-1.1600850820541382,-1.3025619983673096,-0.013685601763427258,,,,,,,,,
1739354045.1464202,0.34843205785955206,1.1673033530256904,0.278896225582693,-1.1918593886445268,-1.3780504315825044,1.067515527013263,0.10784742617368355,0.0006921482134972343,0.0004427593065666762,0.000741597687617809,-1.2823980353228199e-05,0.00014194773745441287,-0.0004973833269230368,-0.0014170289023467313,0.11815241724252701,-52.21371841430664,4.699812889099121,17.84735870361328,-1.1600850820541382,-1.2888290882110596,-0.027418512850999832,,,,,,,,,
1739354045.1565318,0.3484285862376722,1.1672982690899887,0.2788961548419126,-1.191855587703475,-1.3780517931807752,1.067516624158154,0.10785406142492637,-0.000797125500162924,-0.001405112160804328,0.0008789004516443592,0.00018313560805438225,0.0001322891821705957,0.00032456329153564614,0.0005276986956676956,0.1697271168231964,-52.18594741821289,4.699812889099121,17.79975128173828,-1.1664937734603882,-1.2952377796173096,-0.04756011441349983,,,,,,,,,
1739354045.1665587,0.34843205840363783,1.167300300442525,0.27889344039167985,-1.191857452795463,-1.3780532016710125,1.0675171368485807,0.10784894852669945,-0.0013193702155911095,-0.0004915238792908802,5.2627430505228765e-06,0.0006531846185332489,-0.0005224196631875818,-0.0005215680898737172,-0.0017495299698897114,0.11815241724252701,-52.21371841430664,4.727583885192871,17.82355499267578,-1.1664937734603882,-1.3025619983673096,-0.0072769103571772575,,,,,,,,,
1739354045.1765587,0.3484327660605726,1.167300613899014,0.27889504814104105,-1.1918555906497714,-1.3780539462849544,1.0675203157569872,0.10785006103721756,-0.0006352469273465055,-0.00040306577967449194,0.0009880738834724518,0.0011560284174756208,-0.0005409550894124132,0.0008276073833449712,-0.00108389241256528,0.11815241724252701,-52.18594741821289,4.676009178161621,17.79975128173828,-1.1600850820541382,-1.3025619983673096,-0.013685601763427258,,,,,,,,,
1739354045.186573,0.34843206131977117,1.167304471461762,0.27889571919619394,-1.191851725562336,-1.3780528479935776,1.067520315774932,0.10785482349013491,0.00025205341909148506,0.00124902739054438,0.001008263278685493,0.0024411495010203364,0.00032228793667567776,0.0007913401209168912,0.0007715703667177074,0.11815241724252701,-52.26132583618164,4.699812889099121,17.74817657470703,-1.1664937734603882,-1.3025619983673096,-0.05396880581974983,,,,,,,,,
1739354045.1965754,0.3484303449073947,1.1672988831597426,0.2788934371138141,-1.191859755546107,-1.3780560230299033,1.0675163234885165,0.10784854573509005,-0.0014592392041733295,-0.001796516043955844,0.0002811860317394881,0.0005077886461781269,3.601981916099081e-05,-0.00020755917421668918,-0.00015804486864760424,0.1419561207294464,-52.18594741821289,4.727583885192871,17.82355499267578,-1.1664937734603882,-1.2952377796173096,-0.0008682189509272575,,,,,,,,,
1739354045.207501,0.3484337709203169,1.1673012451824787,0.2788912935343058,-1.1918591795969395,-1.3780543638680864,1.0675171760887523,0.10785406583005666,3.2389171050942796e-05,1.8517394340330042e-05,-0.0002444250204853379,0.000829209498262484,0.00018850993917599222,9.946066389708423e-05,-0.00013906191828566192,0.09434870630502701,-52.18594741821289,4.727583885192871,17.84735870361328,-1.1536763906478882,-1.3025619983673096,-0.04756011441349983,,,,,,,,,
1739354045.2185109,0.3484348923915639,1.1672995322592974,0.2788897372369705,-1.1918591541467953,-1.3780493675837364,1.0675172545808336,0.10785320139318805,0.0007103553867850525,3.972392874617423e-05,-0.0003750106251020453,-0.00017230153601520572,0.002279504649369228,-0.0008428696717998242,0.0006408761037758443,0.11815241724252701,-52.16214370727539,4.751387596130371,17.84735870361328,-1.1600850820541382,-1.3025619983673096,-0.04023589566349983,,,,,,,,,
1739354045.2295604,0.3484320579115572,1.167304544573517,0.27889251867798814,-1.1918586959739974,-1.3780534941889568,1.0675185889937946,0.10785094284636328,-0.0001890744965519834,0.0022482034627006034,-0.0009876407009571956,-0.0010456966640847915,0.0006501209890315775,0.0014994208509681616,0.0003526033772254171,0.11815241724252701,-52.26132583618164,4.751387596130371,17.79975128173828,-1.1600850820541382,-1.3025619983673096,-0.020094294100999832,,,,,,,,,
1739354045.2405126,0.34843442929414115,1.1673003670899689,0.27889141723665933,-1.191854626262638,-1.3780532023346956,1.067517293828758,0.10784849085143951,0.001122746828977394,-0.0008914330307752434,-0.0007625222635673555,0.000596586220653424,0.00019728062010795292,0.0007771326161959505,-0.0004526851561751739,0.11815241724252701,-52.18594741821289,4.727583885192871,17.77594757080078,-1.1664937734603882,-1.3025619983673096,-0.027418512850999832,,,,,,,,,
1739354045.2505498,0.3484310535804956,1.1673018436275606,0.2788916488393327,-1.1918573796594545,-1.3780543638023235,1.0675171412059083,0.10784616446372446,-0.00019574085782516314,-0.0001772947586819348,-0.000777211980132387,0.0008461698866913708,-0.0005806698009234984,-0.0003169438816663815,-0.0023081237769885924,0.1419561207294464,-52.21371841430664,4.751387596130371,17.82355499267578,-1.1536763906478882,-1.3025619983673096,0.019273381680250168,,,,,,,,,
1739354045.2605968,0.34843420960819194,1.1673011257115942,0.2788918872594219,-1.1918584794681535,-1.3780539124749545,1.0675165729236393,0.10784536506281196,0.0002810904441999188,4.566547330827137e-05,-0.0007871641169956976,-0.0009155940175010332,-0.0002461319570909842,-0.0006066050100857022,-0.0008598996582922768,0.11815241724252701,-52.21371841430664,4.751387596130371,17.79975128173828,-1.1664937734603882,-1.2888290882110596,-0.0008682189509272575,,,,,,,,,
1739354045.2715278,0.3484330622913676,1.167300762529372,0.278889839393362,-1.191859948928836,-1.3780559890245347,1.0675181964827223,0.10785006104926174,-0.00037491206242826474,-0.0013448039209082558,-5.504712570665593e-08,-0.000922579738384997,-0.0011213429927020493,0.00023750391266493963,-0.0007785439576793122,0.09434870630502701,-52.21371841430664,4.775191307067871,17.84735870361328,-1.1399434804916382,-1.3025619983673096,-0.013685601763427258,,,,,,,,,
1739354045.2816079,0.34842967514481465,1.1673050257452426,0.2788912553672596,-1.1918567808556841,-1.3780543652499095,1.0675194498776996,0.10785163203957204,-0.0013600261037056238,0.0012820188707991244,-0.0005522259701459867,-0.0006148920507830477,-0.0013956201678474126,-0.00017616795136266315,0.000214787667309626,0.1419561207294464,-52.23752212524414,4.727583885192871,17.77594757080078,-1.1536763906478882,-1.2952377796173096,-0.027418512850999832,,,,,,,,,
1739354045.2924857,0.348428347927195,1.1673033174507021,0.2788943582609086,-1.1918599479441925,-1.3780543637963554,1.0675171375424568,0.10785394753970155,-0.0013134294285989548,-0.0001924801716950265,-0.00018746552872340148,-0.0007778077313551433,-0.00047930726827406767,-0.0005627003566561438,3.130044646181538e-05,0.1697271168231964,-52.21371841430664,4.727583885192871,17.84735870361328,-1.1536763906478882,-1.3025619983673096,-0.04756011441349983,,,,,,,,,
1739354045.3026066,0.34843577955385435,1.1673020874048006,0.2788912827468951,-1.1918592328605788,-1.3780535886936498,1.0675166648574872,0.10785470520000248,0.0021027319762632426,0.00015973197295708565,-0.0006020888845352371,-0.00018618834261262805,0.0011313668782247403,-0.00016522189422342337,0.0012063788962796552,0.06657771021127701,-52.23752212524414,4.727583885192871,17.84735870361328,-1.1600850820541382,-1.2952377796173096,-0.05396880581974983,,,,,,,,,
1739354045.313539,0.34843417943833993,1.1673011284848094,0.278891268085015,-1.1918565770252318,-1.3780536061899893,1.0675155133413472,0.10785406582938892,-0.0008054811789526147,0.0016332884761171655,-3.874682141658491e-05,-0.0004966838904591654,0.0011196063389866116,0.0001837794965465787,0.0013527830119446325,0.11815241724252701,-52.21371841430664,4.727583885192871,17.79975128173828,-1.1600850820541382,-1.2888290882110596,-0.04756011441349983,,,,,,,,,
1739354045.3236194,0.34843384882919837,1.1673032304752482,0.27888942806640216,-1.19185927190067,-1.3780551216179158,1.067517939562736,0.10785162918779787,0.0007240675125677175,-0.0004901785465761753,-0.0018387798089816517,-0.0005807821288797205,-0.00031494700544736255,0.0004262242896937537,9.234238740950154e-05,0.09434870630502701,-52.21371841430664,4.751387596130371,17.84735870361328,-1.1472676992416382,-1.3089706897735596,-0.05396880581974983,,,,,,,,,
1739354045.3345308,0.34843065985577365,1.1672991308992378,0.2788943557523799,-1.1918602126949833,-1.3780525484361912,1.0675178945029318,0.10785006098312727,-0.00037449742929170245,0.00019127296569413613,0.00013330232454924492,-0.00131540959700453,0.00011688012306246254,-0.0001036440705488059,-0.0003196965720583802,0.1419561207294464,-52.18594741821289,4.727583885192871,17.84735870361328,-1.1600850820541382,-1.3089706897735596,-0.013685601763427258,,,,,,,,,
1739354045.345551,0.3484360055059749,1.1672986423636202,0.27888963554074486,-1.1918573747821353,-1.3780543637903602,1.0675210864990177,0.10785719156380941,0.0019437953581112337,-0.0003850956736622242,-0.0009862255502714413,0.00014740576782342233,-0.0007998964775767489,0.0011657894771918862,0.0025145087045042166,0.06657771021127701,-52.16214370727539,4.751387596130371,17.82355499267578,-1.1536763906478882,-1.3089706897735596,-0.07411040365695953,,,,,,,,,
1739354045.3575068,0.3484337712456788,1.1673032703022623,0.2788941229038864,-1.1918563425308129,-1.378054363796331,1.0675173831446645,0.1078468681442459,0.0007042261141575364,0.0004083439814600284,0.0012832847885002512,0.000850452753865839,-0.00034497857632570213,0.0005503256174241014,-0.0014056806885936685,0.09434870630502701,-52.21371841430664,4.727583885192871,17.79975128173828,-1.1536763906478882,-1.2952377796173096,0.012864691205322742,,,,,,,,,
1739354045.367507,0.3484303714770233,1.1673033405139184,0.27889800623539035,-1.1918604963159065,-1.3780547682436997,1.0675172552324697,0.10785172258182041,-0.00025416026865171277,0.0006920576068135732,0.001588110466501018,0.0005301241364303617,-3.436954543366229e-05,-0.0002493729199954517,-0.00018257962638187046,0.1419561207294464,-52.21371841430664,4.676009178161621,17.82355499267578,-1.1472676992416382,-1.3025619983673096,-0.027418512850999832,,,,,,,,,
1739354045.3775325,0.3484320846457023,1.167298389153015,0.2788897234401734,-1.191855690884473,-1.378052090810114,1.0675171382981543,0.10785168315294684,-0.0006195800334096369,0.0007724435717732774,-0.0007783457035883826,0.0010831741000947967,-0.0002389088086752802,-0.00031649194551466105,0.0009636930630310753,0.11815241724252701,-52.18594741821289,4.751387596130371,17.79975128173828,-1.1729024648666382,-1.3025619983673096,-0.027418512850999832,,,,,,,,,
1739354045.3875585,0.3484320836736516,1.1673001118706399,0.27888964424969365,-1.1918602328210721,-1.3780528487991852,1.0675162709453914,0.10785244211045858,-0.000535845880517298,0.00016780703139104792,0.00010735381771493248,5.649587288488497e-06,0.0009025587230152168,0.0006068871683530605,-0.0002518136534041113,0.11815241724252701,-52.21371841430664,4.751387596130371,17.82355499267578,-1.1664937734603882,-1.2952377796173096,-0.03382720425724983,,,,,,,,,
1739354045.3985794,0.3484337963020768,1.1672974047567484,0.2788963678443531,-1.1918595161988732,-1.3780528486376815,1.0675178951486999,0.10785319993282336,0.0014650141983073633,-0.000867954767109638,0.0013077955652560907,1.957301836860046e-05,0.00011741897430490237,-0.0003390903336592113,0.0009647963159058368,0.09434870630502701,-52.16214370727539,4.699812889099121,17.82355499267578,-1.1664937734603882,-1.3089706897735596,-0.04023589566349983,,,,,,,,,
1739354045.410597,0.34843037993770204,1.167306412701968,0.2788918995605457,-1.1918576925343505,-1.3780554234882962,1.0675194499135936,0.10785406583005666,-0.000929705626547691,0.0012096331742410295,-0.0013177789488233727,0.0002250063119478665,-0.0005676319397721782,-4.1951722705436896e-05,-5.820563352733994e-05,0.1419561207294464,-52.26132583618164,4.727583885192871,17.82355499267578,-1.1536763906478882,-1.2952377796173096,-0.04756011441349983,,,,,,,,,
1739354045.4215043,0.34843421832080906,1.1672990454304915,0.278894248459021,-1.1918595516136081,-1.3780533041601954,1.0675162714358652,0.10784448580595828,-0.00011604070491941609,-0.0005387209426473322,0.0008902702877430722,0.00032911489060934,0.0007953976424724378,0.0002909096183257976,-0.0017821901489025985,0.11815241724252701,-52.18594741821289,4.699812889099121,17.82355499267578,-1.1536763906478882,-1.2952377796173096,0.0064559997990727425,,,,,,,,,
1739354045.4315069,0.34843113533811465,1.1673003300236058,0.2788982554104234,-1.191858121102128,-1.3780543637783857,1.0675166241580847,0.10784918488934976,-0.00012205267891269097,-6.193554244419096e-05,0.001615645032478022,-0.00034806791475131807,-0.0002614303976246565,-8.623155737559924e-05,-0.0009106828798694756,0.1419561207294464,-52.18594741821289,4.676009178161621,17.82355499267578,-1.1536763906478882,-1.2952377796173096,-0.0072769103571772575,,,,,,,,,
1739354045.4415095,0.34843205744091005,1.1673025288830083,0.27889141825429986,-1.1918601894865608,-1.378053959348962,1.0675171368485807,0.10785426891709174,-0.00030294669789291285,-0.0006293324869706327,-0.00042047138927742486,-0.0008848323246137116,-0.0003769797153170133,0.0001937198699508379,0.0026175864751548923,0.11815241724252701,-52.21371841430664,4.727583885192871,17.84735870361328,-1.1600850820541382,-1.3025619983673096,-0.04023589566349983,,,,,,,,,
1739354045.451545,0.3484348948757054,1.1673024929352682,0.27889257493255043,-1.1918577697893264,-1.3780532002413153,1.0675158664979982,0.10785308166146285,-5.752267054563025e-05,0.0005875760318423752,7.517690245938916e-05,-0.00029837456088136155,-0.00020207303516556728,-0.000560566093521982,-0.0001725957850192506,0.11815241724252701,-52.21371841430664,4.751387596130371,17.79975128173828,-1.1664937734603882,-1.2888290882110596,-0.04023589566349983,,,,,,,,,
1739354045.4615488,0.3484323375373607,1.1673022456857625,0.2788933256023343,-1.1918557026422458,-1.378054363802288,1.0675214931386678,0.10785188137146365,9.19938541631172e-05,0.0007051332550104539,0.00026876881517574593,-0.00035489149496723834,-0.0006315629857258675,0.0016570313437821902,-0.0007022097637063056,0.11815241724252701,-52.21371841430664,4.727583885192871,17.79975128173828,-1.1536763906478882,-1.3025619983673096,-0.020094294100999832,,,,,,,,,
1739354045.4735782,0.3484366045898392,1.1673030783361218,0.2788911768862691,-1.1918623703449465,-1.378054346353728,1.0675171369210257,0.10785006106124546,0.0018032494387074799,-2.117618641878811e-05,0.00035626213743994916,-0.0018413361778434848,0.0010432765338757796,-0.00021919800302748656,0.00018845802246828073,0.09434870630502701,-52.21371841430664,4.727583885192871,17.84735870361328,-1.1536763906478882,-1.3025619983673096,-0.013685601763427258,,,,,,,,,
1739354045.4845293,0.34843205744485867,1.1672996421364947,0.2788911842630144,-1.1918584078203673,-1.378053606190055,1.0675171368242053,0.10785168655981929,-0.00036696392765901725,-0.0001791395162859153,0.0009317209872656228,-5.4463110801321775e-05,0.000401495553173804,0.0007357826315366206,0.00024329364156792693,0.11815241724252701,-52.16214370727539,4.727583885192871,17.82355499267578,-1.1600850820541382,-1.3025619983673096,-0.027418512850999832,,,,,,,,,
1739354045.495533,0.3484303449073291,1.1673042211645746,0.278893253914504,-1.1918587666341023,-1.3780528484761752,1.067515513285288,0.10784646216322703,-0.0004071732766483959,0.0026245982043501255,-0.0001520183177019113,0.0003149492506148538,0.0007440872680379722,-0.0009121054221582018,-0.0032727745069393347,0.1419561207294464,-52.26132583618164,4.699812889099121,17.79975128173828,-1.1664937734603882,-1.2888290882110596,0.012864691205322742,,,,,,,,,
1739354045.5074818,0.34843254955532643,1.1673033527068386,0.2788933346832938,-1.191855861593332,-1.378054411763489,1.0675178959562277,0.10784732350823395,0.0001269449922508089,0.0009245322241419275,0.0005153388226923887,9.964093044024852e-06,-0.0003233036095540494,-0.0005517833177275614,-0.0018735125882810527,0.1419561207294464,-52.21371841430664,4.699812889099121,17.79975128173828,-1.1536763906478882,-1.3089706897735596,0.0064559997990727425,,,,,,,,,
1739354045.5175648,0.3484323199326379,1.1672992850122719,0.2788911757480784,-1.1918573973077284,-1.3780559875154181,1.0675162709453747,0.10784926396333532,0.0006297268176269651,0.00014851305250516706,6.0915638991877215e-05,0.000347023855717363,-0.00064201445618404,-0.001457889637109028,-0.0005451644932600495,0.11815241724252701,-52.16214370727539,4.727583885192871,17.82355499267578,-1.1399434804916382,-1.2952377796173096,-0.0072769103571772575,,,,,,,,,
1739354045.5275855,0.3484345174770599,1.1673056700452658,0.27889722191939437,-1.1918593914761304,-1.378053607589811,1.067517190623958,0.10785598393945359,0.0023152286397130927,0.0019359724408864974,0.0014341571760244703,-0.0005540287899447858,-0.00036245486741185145,-0.00016982437797741657,0.0009954570967583105,0.09434870630502701,-52.26132583618164,4.676009178161621,17.84735870361328,-1.1600850820541382,-1.3025619983673096,-0.06678618490695953,,,,,,,,,
1739354045.538547,0.3484337700576687,1.167301033044357,0.27889118819170694,-1.1918583329205856,-1.3780536061362554,1.0675170438737986,0.10785406631617683,0.00033606930419621117,0.0002530398481637329,0.0007081358597525682,8.154205354759403e-05,8.512686499389198e-05,0.0008417582462048743,0.0007201716184126363,0.09434870630502701,-52.21371841430664,4.727583885192871,17.82355499267578,-1.1600850820541382,-1.2888290882110596,-0.04756011441349983,,,,,,,,,
1739354045.5485654,0.3484348777026202,1.167300016272413,0.27889117574827865,-1.1918556260157576,-1.3780528659187772,1.0675179338262961,0.10785319993284898,0.0010283139718361139,-0.0008808463779580513,-0.00028667343249488207,0.00022538470553130343,0.0004553734741242881,0.0013605567946316437,0.0013646013723912433,0.11815241724252701,-52.21371841430664,4.727583885192871,17.79975128173828,-1.1664937734603882,-1.3089706897735596,-0.04023589566349983,,,,,,,,,
1739354045.5595055,0.3484320616330976,1.1673003765361194,0.2788876087704612,-1.1918584516686057,-1.378055725412544,1.0675171368965082,0.10784716725017693,-0.0002578841602792804,-0.00010311802534526641,-0.001031647862650913,0.0010506627136910945,0.00013850874032113588,0.0002320390319401364,-0.002130132153864283,0.11815241724252701,-52.21371841430664,4.775191307067871,17.79975128173828,-1.1600850820541382,-1.3025619983673096,0.0064559997990727425,,,,,,,,,
1739354045.569566,0.3484327748091498,1.1672989003524594,0.27888868421955726,-1.1918574058579527,-1.378054363832221,1.0675167549775995,0.10785112370459742,-0.00020998255949599472,-0.0007899490238843369,-0.0017173342432090376,0.0013449165834199205,-0.0005823585386721314,-6.127512490834331e-05,0.00018190996430734958,0.11815241724252701,-52.16214370727539,4.751387596130371,17.82355499267578,-1.1536763906478882,-1.2952377796173096,-0.013685601763427258,,,,,,,,,
1739354045.5804796,0.3484320578275988,1.1673013560981267,0.2788932552064369,-1.1918574802677628,-1.3780528484761743,1.067516624160809,0.10785244222465708,0.00015820682730581355,0.0010061984237997943,0.0005577893403954407,0.0012984573639995864,0.0006183799056809188,-0.00037061084883019955,0.0009223197052582561,0.11815241724252701,-52.18594741821289,4.699812889099121,17.82355499267578,-1.1664937734603882,-1.2952377796173096,-0.03382720425724983,,,,,,,,,
1739354045.590553,0.34842994027708935,1.1673029867687126,0.2788876110476892,-1.191857983663554,-1.3780551258170601,1.0675178945086592,0.10785405203773143,-0.0006389654417217849,0.0007650034934128996,-0.0010152904569795326,0.0004177118142473586,-0.0007803708536118588,0.00015413029860025454,0.0003062350574819926,0.11815241724252701,-52.21371841430664,4.775191307067871,17.79975128173828,-1.1472676992416382,-1.3089706897735596,-0.04756011441349983,,,,,,,,,
1739354045.601506,0.3484338486733037,1.167300303319079,0.27889117836402577,-1.191861617055408,-1.378058300370822,1.0675194498597547,0.10785017934463367,0.0006223966734375444,-0.0004780156004421402,-0.0008557425805750453,-0.0004015235353641054,-0.0010059178534483411,0.0008683496828860518,0.00037011258147956244,0.09434870630502701,-52.21371841430664,4.727583885192871,17.84735870361328,-1.1472676992416382,-1.2952377796173096,-0.013685601763427258,,,,,,,,,
1739354045.6115468,0.3484338499826706,1.1673010432073154,0.27889117542063085,-1.1918595176053155,-1.37805523940932,1.0675178947180182,0.10784686724170077,0.0004031700702994087,-0.00014636988461003408,-0.0006812013699142429,-0.0006660047859783789,-0.0012373896598007674,-0.00010726683836078407,-0.0004812396218874318,0.09434870630502701,-52.21371841430664,4.727583885192871,17.82355499267578,-1.1472676992416382,-1.3089706897735596,-0.013685601763427258,,,,,,,,,
1739354045.622531,0.34843384868570687,1.1673010128576127,0.2788912146664376,-1.1918555890588003,-1.3780543637969966,1.0675171370041059,0.10785116300202975,0.0005062128498705451,0.0008202289993824134,0.0009630034902435649,0.0015743077340625755,0.00010560667552458555,-0.0007283737509437755,0.0003080703463654908,0.09434870630502701,-52.18594741821289,4.727583885192871,17.79975128173828,-1.1536763906478882,-1.3025619983673096,0.012864691205322742,,,,,,,,,
1739354045.6335223,0.348432061640236,1.1673049797742523,0.2788911754571413,-1.1918591798741929,-1.3780536061362527,1.0675171760884565,0.10785244229668552,-0.00010850842911743532,0.00020873528695523669,0.0006613110844262444,-0.0006860923083413459,-0.0002571541340629607,0.0014692443254512523,-0.0009357231994325695,0.11815241724252701,-52.23752212524414,4.727583885192871,17.84735870361328,-1.1600850820541382,-1.3025619983673096,-0.03382720425724983,,,,,,,,,
1739354045.6445572,0.34843592079686025,1.1673022734734326,0.2788893940517574,-1.1918577335058471,-1.3780540640045802,1.0675163145520956,0.10784854573509019,0.0005619408386633955,-0.00024336551730429068,-0.0006305411585793998,0.000686879906854767,0.00041155874358436863,0.001584719291421321,-0.0014102506916201054,0.09434870630502701,-52.21371841430664,4.751387596130371,17.79975128173828,-1.1600850820541382,-1.2952377796173096,-0.0008682189509272575,,,,,,,,,
1739354045.6564748,0.34843447999748495,1.16729641713001,0.27889735609589766,-1.1918580949133972,-1.3780543255923738,1.0675191111244795,0.1078508187154352,0.0008867559930729546,-0.0007072160345918932,0.002099208658876494,0.0008119619297101947,0.0009478074222783539,0.0014334994500518196,-0.00043847890256834023,0.09434870630502701,-52.16214370727539,4.648238182067871,17.82355499267578,-1.1600850820541382,-1.3089706897735596,-0.020094294100999832,,,,,,,,,
1739354045.667469,0.34843369427545784,1.167301091853947,0.27889117949186754,-1.1918577720652062,-1.3780543638003921,1.0675155132921563,0.10784890060348441,-0.0004161222826822202,-0.0003211053745987775,0.00012433071893027135,0.00056748163583168,0.00028464131246484157,-0.0001828543816804347,-4.2570776811778985e-05,0.09434870630502701,-52.21371841430664,4.727583885192871,17.79975128173828,-1.1536763906478882,-1.2888290882110596,-0.0008682189509272575,,,,,,,,,
1739354045.6776195,0.34843341672996586,1.167303106329293,0.278887837147453,-1.1918604973414615,-1.3780537238738226,1.067521414640973,0.10784764041003932,-0.0009195514744623797,0.0006445282102086124,-0.0013158124819217373,-0.0009507270675515159,0.0002080628592329559,0.0008260102275514389,-5.285261022228247e-05,0.1419561207294464,-52.21371841430664,4.775191307067871,17.82355499267578,-1.1600850820541382,-1.3025619983673096,0.0064559997990727425,,,,,,,,,
1739354045.6876376,0.3484377177489656,1.1673032706344892,0.2788911754321179,-1.1918559086958893,-1.3780532021793823,1.06751632349051,0.10784854573308691,0.001271636496922603,0.0005385466676010922,-4.584048380302253e-05,0.0011375828631329478,0.0001563144058444743,-9.630404172736973e-05,-0.0008094021976928888,0.04277399927377701,-52.21371841430664,4.727583885192871,17.79975128173828,-1.1664937734603882,-1.2952377796173096,-0.0008682189509272575,,,,,,,,,
1739354045.698559,0.3484341833269676,1.1673040459507529,0.27888842547047543,-1.191855588175153,-1.3780543768789486,1.0675155132853873,0.10785320009508692,0.000316702903690765,0.00020013562672009555,-0.0017443140422703802,0.0014183144996851391,-0.0004952559978250009,-0.001331624967091936,0.0003420164871443848,0.11815241724252701,-52.23752212524414,4.751387596130371,17.79975128173828,-1.1536763906478882,-1.2888290882110596,-0.04023589566349983,,,,,,,,,
1739354045.7095075,0.348435772137378,1.1673023646157725,0.27889034640149746,-1.1918612991504518,-1.3780544815341225,1.0675162714298834,0.10785416167663868,0.0010323060413006315,0.0003449460638234312,-0.00032049621968171507,-0.0003648257916201901,-0.0010990308378429716,-0.0008377637447409875,0.0025000792280825824,0.06657771021127701,-52.21371841430664,4.751387596130371,17.84735870361328,-1.1536763906478882,-1.2952377796173096,-0.06037749722599983,,,,,,,,,
1739354045.719536,0.34843376994832714,1.1673022822000017,0.2788893927597122,-1.1918573705245246,-1.3780536062997522,1.0675162767595758,0.10785319455411824,-4.201628221627007e-05,-0.00042821008796418546,0.00016139875319861772,0.0015295695861193947,0.00018103760502228162,-0.0011189419031693612,0.0002928238331746176,0.09434870630502701,-52.21371841430664,4.751387596130371,17.82355499267578,-1.1600850820541382,-1.2952377796173096,-0.04023589566349983,,,,,,,,,
1739354045.7295995,0.348429639190515,1.167296336409569,0.2788932818104061,-1.1918584871351603,-1.3780528441155244,1.0675155263672733,0.10785002162539478,-0.0010398518857364675,-0.00018601701214458126,7.444034493243304e-05,0.00011156541345902531,0.0017025774639155328,0.0002651963136191689,-0.00038848794327406554,0.1419561207294464,-52.16214370727539,4.699812889099121,17.79975128173828,-1.1664937734603882,-1.2888290882110596,-0.013685601763427258,,,,,,,,,
1739354045.7414744,0.34843377383251833,1.167300770629654,0.2788889225292922,-1.1918580945179251,-1.3780539124749296,1.0675155132853622,0.10785482202954867,0.00042343093392655277,-0.0010252422462560674,-0.0005532361097750802,0.00019435076821857505,-0.00012501892857921706,-0.000605960545591292,0.0022332485591447563,0.09434870630502701,-52.21371841430664,4.751387596130371,17.82355499267578,-1.1664937734603882,-1.2888290882110596,-0.05396880581974983,,,,,,,,,
1739354045.7515323,0.34843116727157175,1.167303024401081,0.27888939274090757,-1.1918641772705212,-1.3780543638023373,1.0675156310228584,0.10784651237129493,-0.00026908264573102347,0.0003877380760565614,-0.0005072084955114911,-0.0003435892624425522,0.00010908915156130304,-0.00045590843657542825,-0.0015876184996504589,0.1419561207294464,-52.21371841430664,4.751387596130371,17.87512969970703,-1.1536763906478882,-1.2888290882110596,-0.013685601763427258,,,,,,,,,
1739354045.7616537,0.34843421833467,1.167301557584375,0.27889117542058095,-1.1918598708261612,-1.3780533041582017,1.0675181964827223,0.1078539458578682,0.00020503639789350007,0.000585828098236492,-0.00021515656998383572,-0.0004712839896069827,0.00021916743934840044,-6.78185666582995e-05,0.0013725907870749436,0.11815241724252701,-52.18594741821289,4.727583885192871,17.82355499267578,-1.1536763906478882,-1.3025619983673096,-0.04756011441349983,,,,,,,,,
1739354045.77236,0.34843308115312455,1.1673026092851257,0.2788933565090639,-1.1918595516190085,-1.3780544161061947,1.0675163247446708,0.10785482300131535,0.0008202900738978885,0.00018192895624034736,-2.7875149364816644e-06,0.0001691845354847577,-0.000583856383735685,0.000573537909503588,0.0009734985958280072,0.11815241724252701,-52.21371841430664,4.727583885192871,17.82355499267578,-1.1536763906478882,-1.2952377796173096,-0.05396880581974983,,,,,,,,,
1739354045.7825804,0.3484320690980437,1.1673013561358028,0.2788940368192301,-1.1918587680823964,-1.3780543250352864,1.0675171368429028,0.10785406583005391,0.0008887611981032779,0.0004657693355847688,0.0005408205883028747,-0.0006140567859174698,0.00068420652991399,-0.00034765129495107543,-0.00011335276575374529,0.11815241724252701,-52.18594741821289,4.727583885192871,17.79975128173828,-1.1536763906478882,-1.3025619983673096,-0.04756011441349983,,,,,,,,,
1739354045.793507,0.3484320839972771,1.1673039907806029,0.2788875877616146,-1.1918577691356302,-1.378054363796112,1.067518667431008,0.10785406583005666,0.0008379624455464063,0.0007446228487203961,-0.0010654713396334244,-7.677491047052067e-05,0.0005114936253081956,0.0014625269180125772,0.0012572083435493926,0.11815241724252701,-52.23752212524414,4.775191307067871,17.79975128173828,-1.1536763906478882,-1.3025619983673096,-0.04756011441349983,,,,,,,,,
1739354045.8035417,0.3484303487960257,1.167301088010109,0.2788902305762046,-1.1918574852102375,-1.378052769984461,1.0675194498856753,0.10785168461266759,-3.969710170873328e-05,-0.0007330006502236815,-0.0001645732102533462,-4.5862969143300254e-05,-0.00020829098520979208,-0.0001519108098923579,0.0003588397124031276,0.1419561207294464,-52.21371841430664,4.727583885192871,17.82355499267578,-1.1664937734603882,-1.2952377796173096,-0.027418512850999832,,,,,,,,,
1739354045.8145049,0.348433796229946,1.1673007991628008,0.27889042584940205,-1.1918563118251873,-1.3780543618578207,1.067520315936438,0.10785319538947036,0.00043097163564197465,-0.00036537851765032383,0.0007261856347701699,0.0008304337420779299,3.5424265357436645e-05,0.00024724625454056496,-0.00023117373034550423,0.09434870630502701,-52.21371841430664,4.751387596130371,17.79975128173828,-1.1536763906478882,-1.3025619983673096,-0.04023589566349983,784,790,825,42.912,0,0
1739354045.8255882,0.3484341833269661,1.1673022826257062,0.2788932552279323,-1.1918577702201025,-1.3780551064363573,1.0675163104065672,0.10784926396526986,0.0006771830852989045,0.00042256369843190675,0.00043841757461374637,0.0003310915817441449,-9.315763557789645e-05,-0.001050173394786271,-0.00041400979534871095,0.11815241724252701,-52.21371841430664,4.699812889099121,17.79975128173828,-1.1472676992416382,-1.2952377796173096,-0.0072769103571772575,784,789,824,43.129,0,0
1739354045.8365796,0.3484331794873278,1.1673007716974448,0.27888939274356206,-1.1918579758248422,-1.3780567850505558,1.0675173355903917,0.10785633880962871,0.0014625498531714695,-4.985188418816594e-06,-0.0008295547292929712,1.9711740285134572e-05,-0.0008961327194273502,0.0008425270716142779,0.0022078169373417706,0.1419561207294464,-52.21371841430664,4.751387596130371,17.79975128173828,-1.1600850820541382,-1.2952377796173096,-0.06678618490695953,786,789,824,42.912,1,0
1739354045.8475785,0.3484328448135242,1.1673001367781681,0.27889121106890075,-1.191859391960647,-1.378054416142085,1.0675151102974798,0.10785129187329433,0.0004310563755869683,-0.001472179074948733,-0.0002352892661413802,-0.0007177458538286328,-0.0007414206890714074,-0.0006209992661306872,0.0007734912160315846,0.11815241724252701,-52.21371841430664,4.727583885192871,17.84735870361328,-1.1536763906478882,-1.2824203968048096,-0.020094294100999832,784,789,825,42.912,0,0
1739354045.8576105,0.3484341846359377,1.167298266887485,0.27888939274416563,-1.1918595194209098,-1.378053002181037,1.067516270951373,0.10784610958763216,-0.0009412927725293892,-0.0011158623670780904,-0.0006224699819756412,0.0002491940078857218,0.0002715026583291027,5.621548022330836e-06,-0.0002636511106506958,0.11815241724252701,-52.18594741821289,4.751387596130371,17.82355499267578,-1.1472676992416382,-1.2952377796173096,-0.0072769103571772575,784,790,825,42.912,0,0
1739354045.8685308,0.3484358557146877,1.167301033178808,0.2788911754569197,-1.1918604787035056,-1.3780551214344765,1.067517136842599,0.10785482346609612,0.0009313913638537419,-0.000451464433817909,0.0008701928156832948,0.0010949094659827578,-0.0003567534356132417,-0.0009785394964640264,3.4657875566059004e-05,0.06657771021127701,-52.21371841430664,4.727583885192871,17.82355499267578,-1.1472676992416382,-1.3025619983673096,-0.05396880581974983,785,790,824,42.912,0,0
1739354045.8794978,0.3484324795553771,1.1673007868799918,0.27888939274356217,-1.1918577643748465,-1.3780551626403328,1.067517136842599,0.1078556473925923,-0.0007059061192457128,0.0005877086148941243,-0.0006776687722018154,0.0018095179002947086,-0.0009789204259472895,-0.0002568238427020932,0.0019779082256440074,0.1419561207294464,-52.21371841430664,4.751387596130371,17.79975128173828,-1.1472676992416382,-1.3025619983673096,-0.03382720425724983,784,790,825,42.912,1,0
1739354045.8904696,0.3484358963993366,1.1673024922564275,0.2788914148203065,-1.1918574881290214,-1.3780543644425856,1.0675171520241238,0.10785228311118879,0.00025147367937412444,-0.0006442506837065971,0.0005178365114985959,0.001537348222185769,-0.0007488153163036025,0.0007828303695676959,0.0001890958829895996,0.09434870630502701,-52.21371841430664,4.727583885192871,17.82355499267578,-1.1536763906478882,-1.3025619983673096,-0.03382720425724983,785,789,824,43.020,1,0
1739354045.9005704,0.34843034494334046,1.167301237079647,0.27889117250845,-1.191860346198238,-1.3780551214564203,1.0675179476218073,0.10784692217508392,-0.00019955383525206493,0.00014276594180294397,-0.0005369422499474009,-0.0007799696023168511,-0.0002424934496187826,1.314712824901582e-05,-0.00264652496774915,0.1419561207294464,-52.18594741821289,4.727583885192871,17.82355499267578,-1.1472676992416382,-1.2824203968048096,0.012864691205322742,784,790,824,42.912,0,0
1739354045.9115448,0.3484321390807093,1.1673011274834697,0.2788911754205646,-1.1918596324108555,-1.3780536046827023,1.0675181979522974,0.10785168795111964,-0.0003316143390287789,0.00021684322938656702,0.0007005853425152039,0.00021852321571291648,0.00017032655222268985,0.0003342385479670197,-0.0010270341821228509,0.11815241724252701,-52.21371841430664,4.727583885192871,17.82355499267578,-1.1600850820541382,-1.3025619983673096,-0.0008682189509272575,784,790,825,43.129,1,0
1739354045.9215813,0.3484338516028231,1.1673047785025263,0.27888652746897824,-1.1918602681789034,-1.378054416124115,1.067517136860569,0.1078555813656897,0.0002681257400176162,0.0007756858309261346,-0.001013691250464454,-0.00039914378150166256,-0.0001510361713572536,-0.0009309121457075101,0.002072607489872677,0.09434870630502701,-52.23752212524414,4.751387596130371,17.82355499267578,-1.1536763906478882,-1.3025619983673096,-0.06037749722599983,784,789,824,42.912,1,0
1739354045.9324992,0.348432320856713,1.1672965809872813,0.2788893926913851,-1.1918587679774253,-1.378053606136548,1.0675162709453667,0.10785154733847511,0.00029551058129519684,-0.0014673682630259317,-0.0001765143232725358,-0.00042826785987530114,0.0003209796897992271,-0.0013791582490912026,-0.00044314830128748225,0.11815241724252701,-52.16214370727539,4.751387596130371,17.79975128173828,-1.1600850820541382,-1.2952377796173096,-0.027418512850999832,783,789,825,43.020,0,0
1739354045.9425526,0.34843377124879865,1.1672993688464135,0.27888939274356106,-1.191858449760099,-1.3780528486376797,1.067515569973748,0.107850061052922,-0.00020217814110100053,0.00021531131151697003,0.00048470823717384587,0.0011919023387158027,0.00048672144692377546,-0.00017267363817955256,-0.001806819615908192,0.09434870630502701,-52.16214370727539,4.751387596130371,17.79975128173828,-1.1664937734603882,-1.2888290882110596,-0.013685601763427258,784,790,823,42.912,0,0
1739354045.953521,0.3484341872507775,1.1673033537401476,0.27889112931143956,-1.1918557068004054,-1.3780553321628817,1.067518051486424,0.10785406631684458,0.0010957073514381711,0.000958136532730424,0.0009736270130306039,0.0005850590015146328,-0.00022204223290126575,0.00014858521361749892,-0.00015576563614940533,0.11815241724252701,-52.21371841430664,4.699812889099121,17.79975128173828,-1.1335347890853882,-1.3089706897735596,-0.04756011441349983,783,792,823,42.912,1,0
1739354045.9644783,0.3484320587716315,1.1672996391724868,0.2788893826869233,-1.1918556185544213,-1.3780540790166238,1.0675162711077584,0.10785407015706316,0.0001385812299531249,-0.0005176554666759189,-0.0006230949018909733,0.0018058692838136391,-0.0002583673020538402,-5.128524159877978e-05,0.0015898830807918615,0.11815241724252701,-52.16214370727539,4.751387596130371,17.79975128173828,-1.1600850820541382,-1.2952377796173096,-0.04756011441349983,784,791,824,42.912,1,0
1739354045.975522,0.3484320574275468,1.1672956020227199,0.27889116961529437,-1.191863382974424,-1.3780551214644177,1.0675194498597576,0.10784767983793095,0.00022887997899436168,-0.0023164784102186783,-0.00026501514494199337,-0.0022499022585511725,9.111415253296531e-05,0.0009266606635794565,-0.001446795738316924,0.11815241724252701,-52.11056900024414,4.727583885192871,17.87512969970703,-1.1472676992416382,-1.2952377796173096,0.0064559997990727425,784,790,823,42.912,0,0
1739354045.9855466,0.34843034533935624,1.1672990199544977,0.2788876110116542,-1.1918601096860764,-1.3780551258170601,1.0675173306014412,0.10785593601860771,-0.0013573598508737435,-0.0003351967264016505,-0.0006559231330559943,-0.0005580489480388124,-0.0014681680089061934,0.0003709661018303241,0.0029040123360212634,0.1419561207294464,-52.18594741821289,4.775191307067871,17.84735870361328,-1.1472676992416382,-1.2952377796173096,-0.06037749722599983,784,791,823,42.912,0,0
1739354045.995586,0.3484324708063331,1.1673002730961954,0.27888939274357794,-1.1918558393278933,-1.3780501252438873,1.0675171383140947,0.10785087202051719,0.00022458626107548906,-0.0005434784587863955,6.385271481770095e-05,-0.000505373762111216,0.001253131828635336,-0.0008332734357187448,0.00017063276676200078,0.1419561207294464,-52.21371841430664,4.751387596130371,17.79975128173828,-1.1536763906478882,-1.3025619983673096,-0.04756011441349983,782,789,824,42.912,1,0
1739354046.006546,0.3484324708183265,1.1673011048037774,0.27889010799929925,-1.1918577730436828,-1.378053146769505,1.0675162753060257,0.10785406143093623,-0.000673156782592264,-0.0004642436476045846,-0.0002975249641811171,0.00045264337449528306,0.001121730823102097,-0.0004225786010024639,2.7314109593661938e-05,0.1419561207294464,-52.18594741821289,4.751387596130371,17.79975128173828,-1.1729024648666382,-1.2952377796173096,-0.04756011441349983,784,789,824,43.129,1,0
1739354046.017584,0.34843400653127854,1.1673030244142457,0.2788903944368116,-1.1918577161184263,-1.3780543631562694,1.0675156329609499,0.10785010048504351,-0.000657420155737703,-0.001309711542405786,-0.0010288895392204396,0.0004715343348744762,0.00040096168694550756,-0.00012615130866901815,1.5480446823972686e-05,0.09434870630502701,-52.21371841430664,4.699812889099121,17.82355499267578,-1.1536763906478882,-1.2888290882110596,-0.013685601763427258,785,790,826,42.912,1,0
1739354046.0284963,0.3484303488329135,1.1673032350332342,0.27889340097155224,-1.1918574803785307,-1.3780514356253315,1.067518012240923,0.10784994276600454,-0.00018706156658097618,0.0007907587034149155,-0.00041568448149915504,0.0014375724939503156,0.0017156581596786552,0.00023184929746772716,0.0005549059750464023,0.1419561207294464,-52.21371841430664,4.727583885192871,17.82355499267578,-1.1664937734603882,-1.3089706897735596,-0.013685601763427258,784,790,824,43.020,1,0
1739354046.0394661,0.34842821911636085,1.1672990942321126,0.27889149463277835,-1.1918602432855074,-1.3780559875071716,1.0675155134474588,0.10785318678888267,-0.0017703152010028322,-7.115057289256774e-05,0.00040051445208555647,-0.00043114123472665246,-0.0010952677185287057,-0.0007541336273397699,0.001253634072096499,0.1419561207294464,-52.18594741821289,4.727583885192871,17.82355499267578,-1.1399434804916382,-1.2888290882110596,-0.04023589566349983,784,790,824,42.803,1,0
1739354046.0494719,0.3484337699122547,1.1673050665632858,0.2788893840004123,-1.1918576913717114,-1.3780546656128791,1.0675171368426017,0.10784850630504587,-0.0007012874943142885,0.0013392725655922292,-0.0003795349063863062,-0.0005300121679736111,-0.0011550282626283102,-0.00016691370311875173,-0.0008732427944559097,0.09434870630502701,-52.23752212524414,4.751387596130371,17.82355499267578,-1.1600850820541382,-1.3025619983673096,-0.0008682189509272575,785,787,825,43.020,1,0
1739354046.0595365,0.3484347151162726,1.1673032716645595,0.27888939274311775,-1.191858363642694,-1.378053723443133,1.0675169392180799,0.10785340401455433,0.0010416960203470564,0.0012733720048377323,-0.0005233743899103849,-0.00037859443846073354,-0.0009721381957908614,0.0008262480529638879,0.0004560826262756258,0.09434870630502701,-52.21371841430664,4.751387596130371,17.82355499267578,-1.1600850820541382,-1.2888290882110596,-0.05396880581974983,784,790,825,42.912,0,0
1739354046.0705683,0.34843095936313084,1.1672991034273705,0.2788961162333858,-1.1918602710169643,-1.3780560273912243,1.0675162710072512,0.10785406382080445,0.00048621217333083186,0.0004129999847221416,0.0017721594931930666,-0.0006478318553428784,-0.00010527446221062658,-5.76667218415683e-05,0.0002941086051941466,0.11815241724252701,-52.18594741821289,4.699812889099121,17.82355499267578,-1.1664937734603882,-1.2952377796173096,-0.04756011441349983,785,791,824,42.912,1,0
1739354046.0815957,0.3484338490072095,1.167302365081034,0.27889117528195534,-1.1918563426937139,-1.3780536061422344,1.067517137075885,0.10785168315230005,8.518459191076441e-05,0.0013631136754484827,0.00033303375018073534,0.0009131918696342172,-0.0003217641272504452,0.0006412185227698853,6.846291948194595e-05,0.09434870630502701,-52.21371841430664,4.727583885192871,17.79975128173828,-1.1600850820541382,-1.3025619983673096,-0.027418512850999832,784,790,824,42.912,2,0
1739354046.0924842,0.3484327660618619,1.1673025712788523,0.2788893930706084,-1.1918644150437008,-1.378051788838045,1.067520433494561,0.10785451535335633,-0.000698746600368415,-0.0008121958846968274,0.00038342744009835315,-0.0014725559934566982,0.001786704686029789,0.000633734164782492,0.0006190125165500152,0.11815241724252701,-52.21371841430664,4.751387596130371,17.87512969970703,-1.1664937734603882,-1.3025619983673096,-0.05396880581974983,786,789,824,42.912,1,0
1739354046.1035433,0.34843230660334695,1.1672981007483065,0.27888947210841664,-1.191860562538823,-1.3780551388930307,1.0675166242305212,0.10784930339342896,-0.000365332924684867,-0.0002506470367647015,-0.00013798436433429967,-0.0010997396213563472,-0.0004957794942795739,0.00014936081087838488,0.0010131158472292258,0.11815241724252701,-52.18594741821289,4.751387596130371,17.82355499267578,-1.1472676992416382,-1.2952377796173096,-0.0072769103571772575,785,791,825,42.912,0,0
1739354046.1144648,0.34842630855444084,1.1673003670883584,0.2788911981327516,-1.1918587669979406,-1.3780521932855119,1.067516270947361,0.10784854573509005,-0.001967785804660239,4.081530759066291e-05,0.0002934631238270327,-0.001166955632877603,-0.0005155445076532063,-0.00044051807087185676,-0.0003908474308058958,0.1697271168231964,-52.18594741821289,4.727583885192871,17.79975128173828,-1.1600850820541382,-1.2952377796173096,-0.0008682189509272575,787,790,825,42.912,1,0
1739354046.1245825,0.3484303186501553,1.1673033539622233,0.27888553024081325,-1.1918549159777014,-1.3780582611169652,1.0675176252893168,0.1078466285382111,0.0005323534288961143,0.0013653864743852183,-0.0023852400327856738,0.0016465250117765455,-0.001548661793851757,0.00039675280039576345,-0.0017040336919402993,0.1419561207294464,-52.21371841430664,4.802962303161621,17.74817657470703,-1.1472676992416382,-1.3025619983673096,0.0064559997990727425,786,790,823,42.912,1,0
1739354046.135486,0.348433796301484,1.167298773762638,0.2788911754205804,-1.1918584079410264,-1.3780570862907981,1.0675178945109494,0.10785316048519883,0.0004255635356276856,-0.0011991770764405911,-5.36891635923725e-05,0.00043146446251716324,-0.0017334150149983791,5.1674684994197574e-05,0.0004257429962139093,0.09434870630502701,-52.18594741821289,4.727583885192871,17.82355499267578,-1.1399434804916382,-1.3089706897735596,-0.04023589566349983,786,790,825,42.803,1,0
1739354046.1455712,0.34843401631204834,1.16730111963116,0.278891175420581,-1.1918584403070185,-1.3780536061424562,1.067519568259811,0.10784854573486737,0.0009495552707383554,0.0009680579456146621,0.00042701632920468305,-6.407539883625596e-05,-0.0002524561614615529,0.000780719911700536,-0.0007745640028627979,0.09434870630502701,-52.21371841430664,4.727583885192871,17.82355499267578,-1.1600850820541382,-1.3217880725860596,-0.0008682189509272575,785,791,825,42.912,0,0
1739354046.157531,0.3484349269551329,1.167303349998306,0.2788932542383748,-1.1918598354974048,-1.3780551229099596,1.0675186521636502,0.10785406583005666,0.001153534420477346,0.0016215484516481286,0.0011721783903010697,-0.00045072849433740463,-0.0014704257103874446,0.0002090590828901424,0.00015075424214620187,0.11815241724252701,-52.21371841430664,4.699812889099121,17.82355499267578,-1.1472676992416382,-1.3153793811798096,-0.04756011441349983,785,791,831,43.129,2,0
1739354046.1675527,0.34843037088117573,1.167305066149353,0.2788876100665374,-1.1918622535291123,-1.3780544030421957,1.0675152440180926,0.10785081920222311,-0.0007697154615933007,0.0017401920762189172,-0.000995892170225091,0.0003386764393567055,-0.0014043296231977895,0.0002700930218037834,-0.0009827755260155967,0.1419561207294464,-52.23752212524414,4.775191307067871,17.84735870361328,-1.1536763906478882,-1.2824203968048096,-0.020094294100999832,786,790,825,43.020,2,0
1739354046.1785104,0.3484312894274535,1.167299130899933,0.2788884391510077,-1.1918583549589254,-1.3780528484763959,1.067517136845356,0.10785554172039451,-0.00045998395412229253,0.00027295682186633246,-0.00010521672364670627,-0.0006121469983936742,0.0009342608229897735,-0.0006022063887217262,0.0003946431337153674,0.1419561207294464,-52.18594741821289,4.751387596130371,17.82355499267578,-1.1664937734603882,-1.3025619983673096,-0.06037749722599983,787,790,824,42.912,0,0
1739354046.1894734,0.3484262298213662,1.1672991338308132,0.27888726683918186,-1.1918566340458476,-1.3780535909218354,1.0675162709453667,0.10784767983763509,-0.0024833084407040826,-0.00013908157393009094,-0.0010841510898226367,0.00047702143358970537,0.0015313770381160303,-0.0010953515315109236,-0.0019308249885539076,0.1697271168231964,-52.18594741821289,4.751387596130371,17.79975128173828,-1.1472676992416382,-1.2952377796173096,0.0064559997990727425,785,791,824,42.912,1,0
1739354046.1994793,0.34843447854540016,1.1673010908170405,0.2788893927075595,-1.1918645160202133,-1.3780543637704112,1.0675176470387353,0.10784685409642367,0.0004130633405410526,0.0014226118006630461,0.00016403592977762662,-0.0017183985931998192,-0.0008148465684913817,0.0009633236114097453,-0.0011166027071769493,0.09434870630502701,-52.21371841430664,4.751387596130371,17.84735870361328,-1.1536763906478882,-1.3025619983673096,-0.013685601763427258,786,790,823,42.912,2,0
1739354046.2096195,0.348434183446528,1.1673060358676026,0.2788893664978947,-1.1918602259761033,-1.378055123394476,1.0675171368512393,0.10785081866112507,-0.0005957679824813422,-0.00026891324192700964,0.000550758774936715,0.0009819724810466617,-0.0011925269223872527,-0.0005690473213725014,-7.024168644863846e-05,0.11815241724252701,-52.26132583618164,4.751387596130371,17.84735870361328,-1.1472676992416382,-1.3025619983673096,-0.020094294100999832,786,789,824,42.912,2,0
1739354046.220494,0.34843205747552775,1.1673002772015038,0.2788911637196898,-1.1918584619221195,-1.378055634140943,1.0675181965345635,0.10784752211857097,-0.0003277080802291066,0.0006656113050881679,-0.0003863525092751642,0.0007232486503812915,-0.000969366745524507,0.0007090292809076666,-0.0017306196031028893,0.11815241724252701,-52.21371841430664,4.727583885192871,17.79975128173828,-1.1399434804916382,-1.3025619983673096,0.0064559997990727425,785,790,824,42.912,0,0
1739354046.230538,0.3484330056197361,1.1673012360246495,0.27889127263564023,-1.1918587975168122,-1.3780556341349501,1.067517136860545,0.10785320869233586,0.0006160299483723086,-0.0003831140793512124,0.0009064199628047213,0.0008078685861719159,-0.00016265878495044502,-0.0006851186027122319,0.0004179411930474363,0.11815241724252701,-52.18594741821289,4.727583885192871,17.79975128173828,-1.1399434804916382,-1.3025619983673096,-0.04023589566349983,784,791,824,42.912,1,0
1739354046.241531,0.3484312900807006,1.1673003671437416,0.27889112931198834,-1.1918605082488771,-1.3780561810925447,1.0675162709453667,0.10785076565560127,-0.00014327456288586518,-0.0005884161832216625,0.0009027853015219046,-0.00027660337892471956,-0.0007842891667923461,-0.00017291599892032243,-0.0017114611095707076,0.1419561207294464,-52.18594741821289,4.699812889099121,17.82355499267578,-1.1472676992416382,-1.2952377796173096,-0.020094294100999832,785,789,824,43.020,2,0
1739354046.2525392,0.3484337963072642,1.167306530398142,0.27889301895143387,-1.191857023675488,-1.3780536235848373,1.067517136842599,0.10784894151179247,-0.0003780597957057977,0.0002868348095381694,0.0005511772113592337,0.0016549295002600236,-0.000743757890425355,-3.2365509559873266e-05,0.00016101030441109383,0.09434870630502701,-52.26132583618164,4.699812889099121,17.77594757080078,-1.1600850820541382,-1.3025619983673096,-0.04023589566349983,787,789,823,43.020,1,0
1739354046.2625544,0.34843489195996635,1.1672983616769332,0.27888939273956087,-1.191862371270936,-1.378059343051136,1.067517136842599,0.10785096762670734,0.00031507858047038204,-0.001035319768059439,-0.00067471998023032,-0.00036252079281175474,-0.0016064035511027743,-0.0003063038495714443,-0.0019592171812579324,0.11815241724252701,-52.18594741821289,4.751387596130371,17.84735870361328,-1.1472676992416382,-1.3025619983673096,-0.06037749722599983,786,789,824,42.912,1,0
1739354046.2734914,0.3484342883251885,1.1673049746341757,0.2788893930706107,-1.1918596349922754,-1.3780536584878926,1.067520433548392,0.10785190456412322,0.00019702879414750814,-0.00042208814841366687,-0.000611707196742532,-0.00011369821820906155,-0.000166630339464858,0.0007139201700161027,0.00031172537589772343,0.11815241724252701,-52.23752212524414,4.751387596130371,17.82355499267578,-1.1600850820541382,-1.3025619983673096,-0.04023589566349983,786,789,823,42.912,1,0
1739354046.2836728,0.3484324708441062,1.1673033225372624,0.2788893927435675,-1.1918547983106993,-1.3780536056526225,1.067517136898429,0.10785482330593518,-0.00047100004695615485,0.000653720230249955,-7.38238157929655e-05,0.002588936224737281,0.001189691745648726,-0.00021428300106222654,0.0008596069159601664,0.1419561207294464,-52.21371841430664,4.751387596130371,17.77594757080078,-1.1600850820541382,-1.3025619983673096,-0.05396880581974983,785,789,824,42.912,2,0
1739354046.294517,0.3484320399424139,1.1673050542785375,0.278891175420581,-1.1918616521870669,-1.3780551258170572,1.0675179337485343,0.10785796236716098,-0.0003559022507453631,0.0011394685956152219,-0.00013729015475907224,-0.000356064719593531,-0.0006442552251179367,-0.0004365383743658751,0.0019012483626347184,0.11815241724252701,-52.23752212524414,4.727583885192871,17.84735870361328,-1.1472676992416382,-1.3089706897735596,-0.08051909506320953,786,790,824,42.912,1,0
1739354046.3045182,0.3484306627712174,1.167302059932699,0.27888939274356195,-1.1918566340826127,-1.3780551170958324,1.0675176077935433,0.10785511729196588,0.0007894666293981594,0.001529203473378247,-0.00024832101794539514,-0.00012975052056173124,-0.0009669526890167563,-9.752059118408609e-05,0.001117638827613238,0.1419561207294464,-52.23752212524414,4.751387596130371,17.79975128173828,-1.1472676992416382,-1.3025619983673096,-0.04756011441349983,785,790,824,43.020,0,0
1739354046.3145332,0.34843037990693404,1.1673011164669946,0.27888908662588013,-1.1918605625022411,-1.3780567850505667,1.0675189541487824,0.10785558554911125,-0.0010632970305408302,8.592305584285536e-05,-0.0014644191208565667,-0.0018309457920434283,-0.0007321318561817345,-0.00023275444710658066,0.0024413090630165646,0.1419561207294464,-52.21371841430664,4.751387596130371,17.82355499267578,-1.1600850820541382,-1.3089706897735596,-0.06037749722599983,784,795,823,42.912,1,0
1739354046.325524,0.34843247080652334,1.1673043156472185,0.2788909392078533,-1.191862121514515,-1.3780543623607258,1.0675175045967928,0.10785482202979609,-0.0010780259465189375,0.0011431686031191765,-0.00044660668917096704,-0.000741467483145638,0.00016363465375242187,0.0006845919246841652,0.001005657945466895,0.1419561207294464,-52.23752212524414,4.727583885192871,17.84735870361328,-1.1536763906478882,-1.3025619983673096,-0.05396880581974983,785,789,824,43.129,1,0
1739354046.336521,0.34843229379453355,1.167303075216019,0.27888947236044326,-1.1918582048427786,-1.378054665774374,1.0675214950728293,0.10785168461265934,0.0005625094532813084,0.0006908009780117655,-0.0006124796791146038,0.0001269060487051651,-0.0004986061053275699,0.000867865289281039,-0.00017533803713329235,0.11815241724252701,-52.23752212524414,4.751387596130371,17.82355499267578,-1.1600850820541382,-1.3025619983673096,-0.027418512850999832,787,790,824,43.129,2,0
