IITGN-Robotics/Franka_IITGN_ROBOTICS/franka_ros/franka_iitgn/data02/s_b_001.csv
time,fr3_joint1_pos,fr3_joint2_pos,fr3_joint3_pos,fr3_joint4_pos,fr3_joint5_pos,fr3_joint6_pos,fr3_joint7_pos,fr3_joint1_vel,fr3_joint2_vel,fr3_joint3_vel,fr3_joint4_vel,fr3_joint5_vel,fr3_joint6_vel,fr3_joint7_vel,fr3_joint1_eff,fr3_joint2_eff,fr3_joint3_eff,fr3_joint4_eff,fr3_joint5_eff,fr3_joint6_eff,fr3_joint7_eff,flexpin1,flexpin2,flexpin3,Force,ContactMic,ContactMic_gt
1739353208.9201257,0.35418371160799106,1.1670058772079857,0.26963463865099113,-1.1917573012788485,-1.3724692976884043,1.0709220685340428,0.13055943438239714,-9.487330553582254e-06,0.0016194511440116625,0.000785527984110736,0.0024023146620223094,0.003495322951821195,0.0032682806001272094,-0.0006762188841721048,-0.4055292308330536,-52.13437271118164,4.192000389099121,17.55377960205078,-1.0355733633041382,-1.6568710803985596,0.012864691205322742,,,,,,,,,
1739353208.9320915,0.35418223408311306,1.1670098869257324,0.269633318757072,-1.1917587955419955,-1.3724738655566924,1.0709598851602278,0.13055823937704256,0.00017741094461019922,0.0010711316788382186,0.0006415947521356661,0.0007313638572474147,0.00032646864088260264,0.0029083385379188396,-0.00047399275855279204,-0.3539545238018036,-52.16214370727539,4.243575096130371,17.60138702392578,-1.0685323476791382,-1.5451767444610596,0.026597600430250168,,,,,,,,,
1739353208.9420955,0.35417987488990454,1.167011637794326,0.2696302014450805,-1.1917616277135863,-1.3724751724118596,1.0709892106773495,0.1305535998434554,-0.0004282042433673306,0.001157312874555427,-0.0004732186188059988,-0.0005613081068943516,0.0006167077705810416,0.003328387389415001,-0.0018985121601160367,-0.3063471019268036,-52.18594741821289,4.295149803161621,17.65296173095703,-1.0941671133041382,-1.5323593616485596,0.05314789339900017,,,,,,,,,
1739353208.9540243,0.35417911111946937,1.1670121394260606,0.2696347842224898,-1.191765227378145,-1.372476051273983,1.0710102833590411,0.130555470624422,-0.0002299017871866026,-0.0003166578780343115,0.0007938667395552577,-0.0013421670180497546,-0.0006435734850344588,0.002480692609308009,-0.0009193845449579261,-0.2825433909893036,-52.13437271118164,4.243575096130371,17.70056915283203,-1.0877584218978882,-1.5387680530548096,0.019273381680250168,,,,,,,,,
1739353208.964058,0.3541830593982397,1.1670035327731672,0.26963441882349154,-1.1917623517343228,-1.3724730763731106,1.071018778799778,0.13055466588025494,-0.0001530186076212401,-0.000993228291601216,0.0006830166621796172,-0.0005894991382332269,0.0010678583952590617,0.001266190946304619,-0.0010791638550189766,-0.3063471019268036,-52.03122329711914,4.267378807067871,17.65296173095703,-1.0813497304916382,-1.5387680530548096,0.05314789339900017,,,,,,,,,
1739353208.974102,0.3541793532948417,1.1670066142889792,0.26963893035361297,-1.1917598004889185,-1.3724711689902145,1.071024204381276,0.13055315126391304,-0.00027065344970741767,0.0008701676107804944,0.0006839557345890993,-1.959319642320493e-05,-0.0004688260668835464,0.0024290775871236665,-0.001092752087667789,-0.2547723948955536,-52.08279800415039,4.219771385192871,17.62519073486328,-1.1014913320541382,-1.5323593616485596,0.06596527993679047,,,,,,,,,
1739353208.9850738,0.3541803864420424,1.167011499776523,0.26963161882542586,-1.191759545388189,-1.3724742599253237,1.0710243811571236,0.13055456078725383,0.0011028630618768191,0.001041235417910443,-0.0007067426351808819,-0.0005160610738892185,-0.0003734570839762748,0.0001245167225141087,-0.0011880372669695717,-0.2547723948955536,-52.11056900024414,4.318953514099121,17.62519073486328,-1.0877584218978882,-1.5323593616485596,0.05314789339900017,,,,,,,,,
1739353208.9950953,0.3541842123111579,1.167011474283016,0.26963516681296595,-1.1917598511895093,-1.3724727924646645,1.0710228658379648,0.1305601861863625,0.0005712007127665149,2.3109472121268917e-05,1.9103471328069113e-05,-0.000213776302685195,0.0012429374820863148,-0.00022574661251533173,1.3641993506978238e-05,-0.2825433909893036,-52.11056900024414,4.267378807067871,17.62519073486328,-1.0877584218978882,-1.5195419788360596,0.0064559997990727425,,,,,,,,,
1739353209.0060835,0.3541841234107308,1.1670095018518265,0.26963331448380035,-1.1917615983724417,-1.372475306741551,1.0710204846205758,0.13055867087166617,0.0009267336768303178,-0.0012219952527922852,0.0004989244084452789,-0.0006591203326334514,0.0010852628990927842,-8.369398448665623e-05,-0.0008728962020117094,-0.3063471019268036,-52.08279800415039,4.295149803161621,17.65296173095703,-1.0941671133041382,-1.4994003772735596,0.019273381680250168,,,,,,,,,
1739353209.017098,0.35418206649743844,1.1670159256555,0.26962843179521107,-1.1917654750926323,-1.372473212607006,1.0710228658379648,0.13055483138989604,-0.000402877107271778,-0.0003826996877538911,-0.0011840713771663182,-0.0017856810763763253,-0.001017563388170072,0.00041112055683194693,-0.000890301040148148,-0.2825433909893036,-52.16214370727539,4.318953514099121,17.67676544189453,-1.0877584218978882,-1.5195419788360596,0.04673920199275017,,,,,,,,,
1739353209.0290234,0.3541830650659917,1.1670160767658062,0.2696323401497094,-1.191763691026219,-1.3724742394042675,1.0710208890679442,0.13055542305169848,-0.00020296596569960063,0.0008130364570201057,0.0005239392699874141,0.0001241918462455343,-0.0006114314978398899,-0.0003867302448355595,-0.0010632733310026825,-0.3063471019268036,-52.13437271118164,4.295149803161621,17.65296173095703,-1.1143087148666382,-1.5058090686798096,0.04673920199275017,,,,,,,,,
1739353209.0400963,0.3541844892690141,1.1670155296155666,0.2696304757353208,-1.1917595451184677,-1.3724712275107145,1.0710228658359708,0.13055466609696242,0.0004499035299485129,0.0011216409618492388,0.000575677187987489,0.001416811336384524,-2.0765881912655e-05,3.947983401288564e-05,-0.0009496759464882855,-0.2825433909893036,-52.16214370727539,4.295149803161621,17.62519073486328,-1.1014913320541382,-1.5195419788360596,0.05314789339900017,,,,,,,,,
1739353209.0501194,0.35418455709484,1.167009581762698,0.26963332527953265,-1.1917595450718115,-1.372471182733307,1.0710219999407324,0.13055542375704476,-0.0006812901710361929,-0.00038951143274705763,6.924390929127533e-05,0.0006979386381559811,0.0009508219977222411,0.00022333169477941416,-0.0012201013727776127,-0.2825433909893036,-52.08279800415039,4.267378807067871,17.62519073486328,-1.1014913320541382,-1.5122177600860596,0.04673920199275017,,,,,,,,,
1739353209.0610628,0.35418034670539594,1.1670087822527657,0.2696333888657836,-1.1917616248616671,-1.3724734890233847,1.071023629457599,0.1305594475458886,-0.0008888218894273847,-0.0008639442203169571,-0.0005764062578447898,-0.00012544687443681796,0.0009494861291734745,0.00021419161094293575,0.0005326266028077971,-0.2547723948955536,-52.05899429321289,4.295149803161621,17.65296173095703,-1.0941671133041382,-1.5259506702423096,0.012864691205322742,,,,,,,,,
1739353209.0730674,0.3541823246804872,1.1670139315320849,0.2696345325846909,-1.1917595450834755,-1.3724759315830655,1.0710236234980541,0.13056018624592022,0.0005826381248278537,0.001183584088399531,-0.0002862575109851449,-0.00035745347886384537,0.0011567725478137448,-0.0005828872481744859,0.0006243589460378007,-0.2547723948955536,-52.13437271118164,4.267378807067871,17.62519073486328,-1.0877584218978882,-1.5259506702423096,0.0064559997990727425,,,,,,,,,
1739353209.083091,0.3541819345443361,1.1670117270961022,0.26963631958865153,-1.19176089512928,-1.372477017948311,1.0710247098478498,0.1305587235265242,0.0008435041706034391,-0.0005080753524357311,0.0001452884065782531,0.0010150877401422006,-0.0009317515260985292,-0.00037701070114215486,0.0003280626354723409,-0.2547723948955536,-52.08279800415039,4.243575096130371,17.62519073486328,-1.0877584218978882,-1.5259506702423096,0.019273381680250168,,,,,,,,,
1739353209.0940933,0.3541845309508785,1.167016155899504,0.26963158395987086,-1.191765190658483,-1.3724730048807838,1.0710261242436099,0.1305546665854031,-0.00014552743623421932,0.0016741921700961383,-0.0007885976803624965,-0.001915118808129793,-3.744333006276289e-05,0.00037231275418620434,-0.00025912487770403663,-0.2825433909893036,-52.13437271118164,4.318953514099121,17.70056915283203,-1.0941671133041382,-1.5195419788360596,0.05314789339900017,,,,,,,,,
1739353209.105042,0.35418413631293444,1.167016958223078,0.2696263812396392,-1.1917617014960669,-1.3724781762066383,1.0710234486339971,0.13055559056249394,0.00047203520291183413,0.0010005946812971388,-0.0004868996438850043,0.00048308175876360203,-0.0021641916302086,5.201748981675477e-05,0.001256324711260969,-0.3063471019268036,-52.18594741821289,4.346724510192871,17.65296173095703,-1.0813497304916382,-1.5122177600860596,0.019273381680250168,,,,,,,,,
1739353209.1150937,0.35418449037733324,1.1670077936924903,0.2696332644347045,-1.1917651939962335,-1.3724750123677252,1.0710212429673607,0.13056104618624018,0.00019509569215379465,-0.0022905442988365764,0.0007279457427858387,-0.0013725705121830929,-0.0018380092687157795,9.338992684622874e-05,-9.023796493091009e-05,-0.2825433909893036,-52.05899429321289,4.267378807067871,17.70056915283203,-1.0813497304916382,-1.5058090686798096,-0.0008682189509272575,,,,,,,,,
1739353209.1251001,0.3541845737370989,1.1670116188386626,0.2696285183796549,-1.1917616286409618,-1.3724733758163496,1.0710212825076686,0.13056105208884525,0.0007086488895291351,-1.4574752170354565e-05,-0.0013266669705955263,-0.0006665498582547345,0.0001645115503202109,0.0008011962398420532,0.0005454588885673012,-0.2825433909893036,-52.11056900024414,4.318953514099121,17.65296173095703,-1.0941671133041382,-1.5058090686798096,-0.0008682189509272575,,,,,,,,,
1739353209.136099,0.35418350795943027,1.1670096078177996,0.2696273221789455,-1.1917577623948563,-1.3724710885629563,1.0710228660041892,0.13056024609695843,0.0008161863938864595,-0.0016673726222251957,-0.0009846186410126991,0.000989416442265048,2.4482935643402857e-05,-0.00031510785268076174,-0.0012459548947042357,-0.2547723948955536,-52.08279800415039,4.346724510192871,17.60138702392578,-1.1014913320541382,-1.5195419788360596,0.03300629183650017,,,,,,,,,
1739353209.1470995,0.3541824241246091,1.1670161087673894,0.26963300284705943,-1.191762316460874,-1.372473498346935,1.0710268818852915,0.13055630283604877,0.00016368735166618254,0.0017255242115087543,-0.0009308408106133884,-0.0009991246316753406,-0.0007220038014657798,-0.00027599524405972,0.0011031906362768975,-0.2825433909893036,-52.13437271118164,4.267378807067871,17.65296173095703,-1.0941671133041382,-1.5259506702423096,0.03941498324275017,,,,,,,,,
1739353209.1580591,0.35418185668590924,1.167010218433466,0.26963335538929806,-1.1917595450731127,-1.3724755925818144,1.0710302946551373,0.13056118663403318,-0.00021238824375814172,-0.0010790921700381637,-2.5991176034451853e-05,-0.00016127094107976347,-0.0003555565587067206,0.002029322598993392,0.002226370292094453,-0.2547723948955536,-52.08279800415039,4.267378807067871,17.62519073486328,-1.0941671133041382,-1.5451767444610596,0.0064559997990727425,,,,,,,,,
1739353209.1681137,0.35418085941284005,1.1670126811055428,0.2696330815965681,-1.191761624534618,-1.372475231260275,1.0710295221148767,0.1305610564937926,-0.00022975013724849352,3.087404514528645e-05,0.0006004920111591097,-0.00019220916190340945,0.00023675084704616312,0.001024023805890282,0.000686416256471036,-0.2309686839580536,-52.08279800415039,4.267378807067871,17.65296173095703,-1.0941671133041382,-1.5451767444610596,-0.0008682189509272575,,,,,,,,,
1739353209.179057,0.3541806210063738,1.1670109007098266,0.2696354028664313,-1.1917615453888055,-1.3724724569330204,1.0710287277366182,0.1305610520889701,0.0005246600655825015,-0.0012393729698635465,0.0010760999460381602,3.681350991656862e-06,0.00047667977045134956,0.00046355784359669805,-8.210471395817302e-05,-0.2309686839580536,-52.05899429321289,4.267378807067871,17.65296173095703,-1.0941671133041382,-1.5323593616485596,-0.0008682189509272575,,,,,,,,,
1739353209.1891005,0.35418085952791284,1.167012454610293,0.26963152856701744,-1.1917623405291018,-1.3724719726543817,1.071025250021387,0.13055792344786357,0.0003796212428893795,0.00014849675968055574,0.0011888875484032642,0.00046094588615321595,0.0007151562353342661,0.00030536497140603875,-0.0004379786004615064,-0.2309686839580536,-52.08279800415039,4.318953514099121,17.70056915283203,-1.0941671133041382,-1.4994003772735596,0.026597600430250168,,,,,,,,,
1739353209.2000883,0.3541845698865378,1.1670162435272684,0.2696322929299828,-1.1917622651411224,-1.3724711827326253,1.0710268273735433,0.13055786488023813,0.0012122319494062097,0.00010423573684967128,-0.0004802392766760875,-0.0008355406604096232,0.0022693114036943223,0.00171629203708256,-0.0003940430722075871,-0.2825433909893036,-52.16214370727539,4.267378807067871,17.67676544189453,-1.1014913320541382,-1.5122177600860596,0.05314789339900017,,,,,,,,,
1739353209.2110684,0.35418558390135824,1.1670088579508744,0.2696312629133012,-1.191761624855218,-1.372476318652167,1.071024434773516,0.13055780938039585,0.0011217781921943693,-0.0014700085007342603,0.0007977840481865914,-0.00028188749338950534,-0.0005603392685202322,-0.000207791839022889,-0.00023979312553566183,-0.2825433909893036,-52.05899429321289,4.295149803161621,17.65296173095703,-1.0941671133041382,-1.5195419788360596,0.026597600430250168,,,,,,,,,
1739353209.2211246,0.35418085954912293,1.1670123937446208,0.2696284317594798,-1.1917634074296695,-1.3724771905796505,1.0710236301463418,0.13056256740917652,-0.0010955295946568635,-0.00010690690227444519,-0.0015166578122345733,-0.001246536312135612,-0.00016377065950744652,-0.0008243135872161181,0.0008336045129017818,-0.2309686839580536,-52.08279800415039,4.318953514099121,17.67676544189453,-1.0813497304916382,-1.5259506702423096,-0.013685601763427258,,,,,,,,,
1739353209.2320194,0.3541815614352144,1.1670174718132216,0.26963324067268507,-1.1917636911560188,-1.3724757110186507,1.0710294899562962,0.13055943291953925,-0.0012361574367013395,0.0012515250283714997,0.0006910740351406342,-0.0007456485419709885,-0.0008541207793673844,0.0005293105083509818,-0.0002257223536382376,-0.2309686839580536,-52.16214370727539,4.267378807067871,17.65296173095703,-1.0941671133041382,-1.5387680530548096,0.012864691205322742,,,,,,,,,
1739353209.242024,0.3541791469161104,1.1670119954193785,0.2696326442748551,-1.191757754544275,-1.3724743008781197,1.071027407062079,0.1305563042807008,-0.0011899895329003842,-0.0008035609648521334,0.00011544953867916453,0.0009344707687884534,-0.00011524765072445247,-0.0005250040562267974,-0.0006481459490708181,-0.2071649730205536,-52.08279800415039,4.267378807067871,17.60138702392578,-1.0877584218978882,-1.5259506702423096,0.03941498324275017,,,,,,,,,
1739353209.2530227,0.3541825716186355,1.16701396786254,0.2696372284557067,-1.1917573983234087,-1.3724757599012303,1.0710292687327607,0.1305562372161887,1.2517719562802977e-05,0.0005120837277942105,0.0015634574292675083,0.0010807834558178176,-8.550171481932356e-05,0.0005756264805248807,-0.0012024090854737678,-0.2547723948955536,-52.11056900024414,4.243575096130371,17.62519073486328,-1.1014913320541382,-1.5323593616485596,0.03941498324275017,,,,,,,,,
1739353209.2630856,0.3541808594249475,1.1670144407664944,0.26963548176037994,-1.1917595449264398,-1.3724746752774528,1.071026010351745,0.13056419821580245,-0.0006047404444877149,0.000853872425033357,0.0013025126081612443,0.0002804277788059664,0.0005744939452348094,1.0865325894252216e-05,0.0005611239864623289,-0.2309686839580536,-52.11056900024414,4.267378807067871,17.62519073486328,-1.1014913320541382,-1.5323593616485596,-0.0008682189509272575,,,,,,,,,
1739353209.2731462,0.3541825719456842,1.1670197852651054,0.2696354817609893,-1.191760233836593,-1.3724748115324075,1.0710265252578521,0.13055634252492973,-0.00048197885990330756,0.0020600732444236193,0.0016535667733048709,0.0007236917698554659,0.0006299317034985572,-7.45499988505223e-05,-0.0001786609734901513,-0.2547723948955536,-52.18594741821289,4.267378807067871,17.62519073486328,-1.1079000234603882,-1.5122177600860596,0.03941498324275017,,,,,,,,,
1739353209.284021,0.35418264885666156,1.1670097796779202,0.2696352334532215,-1.191761625180491,-1.3724724162161832,1.071023288219452,0.1305546836488841,-0.00014421301717013892,-0.0008634397011001332,0.0003479544126403717,0.00027585513574054037,0.0005294359044808441,-0.001343700806341492,-0.0006601589126161098,-0.2547723948955536,-52.08279800415039,4.267378807067871,17.65296173095703,-1.0941671133041382,-1.5195419788360596,0.05314789339900017,,,,,,,,,
1739353209.2940655,0.3541794726124558,1.1670184285283738,0.2696313565092227,-1.1917616248616725,-1.3724722959596056,1.0710268859560963,0.13055942999456663,-0.0012299712561738292,0.0006820355973645844,0.0006766309988742206,0.00014741027579110106,0.0007736074509211963,0.0003400978400763116,0.0009279907969894365,-0.2547723948955536,-52.16214370727539,4.318953514099121,17.65296173095703,-1.0941671133041382,-1.5122177600860596,0.012864691205322742,,,,,,,,,
1739353209.3040705,0.3541862824617784,1.167013478585784,0.26962843081919297,-1.1917651902157052,-1.3724754512707535,1.0710277131918067,0.13055828481403686,0.0009305776426001642,-0.0016086057262711653,-0.0009287930736854549,-0.000913951074945251,-0.00023728865470269914,5.3839214258218044e-05,-0.0007653731160486363,-0.3063471019268036,-52.13437271118164,4.318953514099121,17.70056915283203,-1.1014913320541382,-1.5195419788360596,-0.013685601763427258,,,,,,,,,
1739353209.314093,0.35418366746599667,1.1670134786448079,0.2696312660576901,-1.1917616248616671,-1.372477558779003,1.0710225430045925,0.13056105347905403,0.0005970059919996278,-0.00038220686103885177,-0.000608127853818253,0.00020644466783596008,-0.0001439376190477343,-0.0005858101681844919,-0.00019082294998366313,-0.2309686839580536,-52.13437271118164,4.318953514099121,17.65296173095703,-1.0877584218978882,-1.5122177600860596,-0.0008682189509272575,,,,,,,,,
1739353209.3250194,0.35418265862946907,1.1670164040206885,0.26963033090212346,-1.1917595447797553,-1.3724725502020807,1.0710284915202892,0.1305618097490314,0.0006475965235786936,0.000613429986608221,-0.000839227898458422,0.0012096874135284377,-0.0010338771418484177,0.0002807066963595595,0.0015918700638100185,-0.2547723948955536,-52.13437271118164,4.295149803161621,17.62519073486328,-1.1014913320541382,-1.5259506702423096,-0.0072769103571772575,,,,,,,,,
1739353209.3351042,0.3541825809349379,1.1670115836803858,0.26963232315640884,-1.1917594702641325,-1.3724712286132046,1.0710285110785833,0.1305563291454204,0.0006027055421193479,0.0003296300967733516,-0.0008546981449792588,0.00018827226294586014,0.0022651288791711134,0.0010099086682683184,-0.00011186851652986987,-0.2547723948955536,-52.11056900024414,4.267378807067871,17.65296173095703,-1.1014913320541382,-1.5259506702423096,0.03941498324275017,,,,,,,,,
1739353209.345137,0.35418249236396043,1.167010928129061,0.2696323519829704,-1.1917616248251786,-1.372476782009943,1.0710292685734497,0.13055784446624585,0.00024717098730382995,0.00042118674712908423,0.0004405319968471188,-0.00020410237908306968,-0.0008329427505446043,0.000498217928312434,-0.0006573027565684752,-0.2547723948955536,-52.05899429321289,4.295149803161621,17.65296173095703,-1.0941671133041382,-1.5323593616485596,0.026597600430250168,,,,,,,,,
1739353209.3551614,0.35417912041192084,1.1670147145177034,0.2696332643624015,-1.1917595450718106,-1.3724737297284624,1.0710285110789117,0.13055466609763522,-0.0017809237837498302,0.00039133490287830583,-0.0003862018763640321,0.00019006057745761033,0.0011651717824869119,-0.0004963889129463141,-0.0022164476158765436,-0.2071649730205536,-52.11056900024414,4.267378807067871,17.62519073486328,-1.1079000234603882,-1.5259506702423096,0.05314789339900017,,,,,,,,,
1739353209.366067,0.354184881890948,1.1670115381120199,0.26963268151686753,-1.1917598524492368,-1.3724767656940493,1.0710268875216038,0.1305626273142374,0.001228747411225682,-0.000162001892311085,-0.00020080234863747946,-0.00013346591366567668,-0.0007034039720669439,0.0001666952144726705,-0.0004900908820693168,-0.2825433909893036,-52.11056900024414,4.295149803161621,17.62519073486328,-1.0941671133041382,-1.5122177600860596,0.012864691205322742,,,,,,,,,
1739353209.376072,0.35418259805834545,1.1670156849121884,0.2696326541194441,-1.1917592525863685,-1.3724751780658395,1.0710277534188362,0.1305610521431169,2.7013788204620435e-05,0.000599702623696231,-6.244845334789562e-05,0.0009313008239418454,0.00038908883166581667,0.0003967475723422564,0.0003175496641945248,-0.2547723948955536,-52.13437271118164,4.295149803161621,17.62519073486328,-1.1079000234603882,-1.5195419788360596,-0.0008682189509272575,,,,,,,,,
1739353209.3870726,0.3541818566900943,1.167017607645125,0.26963126794358216,-1.1917616244239508,-1.372471591210196,1.0710268875216038,0.1305595016005948,-0.0004600943572439897,0.0005660327710330465,-0.0007696466916231638,0.00036315280613943195,0.000987886865721348,0.00015656096038054628,0.00015558083637136919,-0.2547723948955536,-52.16214370727539,4.318953514099121,17.65296173095703,-1.1014913320541382,-1.5122177600860596,0.03941498324275017,,,,,,,,,
1739353209.3990235,0.3541826066088199,1.1670122978054418,0.2696341144879997,-1.1917634075386834,-1.372476801102604,1.0710277529222065,0.1305624489538037,0.00026402730872545965,-0.0009522835354272457,0.0005120525576098778,-0.00023989207080016688,-1.4621739628968024e-05,0.0005906801596313702,0.000455637972904686,-0.2547723948955536,-52.11056900024414,4.243575096130371,17.67676544189453,-1.0941671133041382,-1.5195419788360596,-0.013685601763427258,,,,,,,,,
1739353209.4091682,0.35418457084970995,1.1670161807220332,0.2696322942087957,-1.1917595450718113,-1.3724751378394418,1.0710277534188335,0.1305585523975678,0.001574788400698031,0.0002627161813049804,0.00015709974396699723,0.0005932559826936802,0.0005952349856242884,0.0004822775226215447,-0.0008026701765614006,-0.2825433909893036,-52.13437271118164,4.267378807067871,17.62519073486328,-1.1079000234603882,-1.5195419788360596,0.019273381680250168,,,,,,,,,
1739353209.4200592,0.35418085942496935,1.1670096092832651,0.2696315915903774,-1.1917595332980544,-1.3724775592831557,1.0710285503247712,0.13055628965227076,-0.0005816702432514125,-0.0027410816737714594,-0.0006276463992905764,0.00026387717388628415,-0.0013992544536393478,-0.00015916737158319611,-0.00025933845447112535,-0.2309686839580536,-52.08279800415039,4.318953514099121,17.62519073486328,-1.0877584218978882,-1.5259506702423096,0.03941498324275017,,,,,,,,,
1739353209.4301467,0.35418467797646624,1.1670090059537006,0.2696323393995028,-1.1917616248616005,-1.372474433918412,1.071033218395633,0.1305546660969664,0.0003058111146692251,-0.0010517772407681607,-0.00044247194836925774,-0.000436077465845402,0.0003193604363457352,0.0006440404602141116,-0.0005391578658944188,-0.2547723948955536,-52.03122329711914,4.295149803161621,17.65296173095703,-1.1014913320541382,-1.5387680530548096,0.05314789339900017,,,,,,,,,
1739353209.4421554,0.35418086824629824,1.1670126851814944,0.2696287555582664,-1.1917619394826178,-1.372471919505179,1.0710285503427899,0.13056304130282084,-0.0010943803582478472,-0.0009232402900704656,-0.0009045425047501547,-0.0007149524394962801,0.0019984383748676503,6.298093460847927e-05,0.0021363883525463293,-0.2309686839580536,-52.08279800415039,4.318953514099121,17.65296173095703,-1.1079000234603882,-1.5259506702423096,-0.013685601763427258,,,,,,,,,
1739353209.4522028,0.3541780854407551,1.1670124811028635,0.26963090772876463,-1.1917616238822966,-1.372474418898086,1.071029675070797,0.13055391282746803,-0.0010775955904538514,-0.0007816730361798349,-0.0006178415495943765,-0.000796479895278414,-0.0001298810165132159,0.00028510252338451815,-0.0014151268946302367,-0.1793939769268036,-52.08279800415039,4.318953514099121,17.65296173095703,-1.1143087148666382,-1.5058090686798096,0.05955658480525017,,,,,,,,,
1739353209.4630437,0.35418256901810424,1.1670147150600827,0.26962706365098993,-1.1917577628146903,-1.3724767875525592,1.0710268875816422,0.1305621183498872,-0.00038041019550839037,0.00016427141192925545,-0.0013282099374502929,0.0007415744857770508,0.0005415160866533502,-0.000539144512792501,0.0014657089831927282,-0.2547723948955536,-52.11056900024414,4.346724510192871,17.60138702392578,-1.0941671133041382,-1.5122177600860596,-0.0008682189509272575,,,,,,,,,
1739353209.4731286,0.35418257526255553,1.1670147184435842,0.26963418976483694,-1.1917602338366025,-1.37247410352919,1.0710268896211774,0.13055781149309076,-0.00015489254776075338,-0.00046910113545332784,0.0018948110621873906,0.0003542579371383671,0.001405025964837761,0.00017261011811432788,-0.001504508453285919,-0.2547723948955536,-52.11056900024414,4.243575096130371,17.62519073486328,-1.1079000234603882,-1.5122177600860596,0.026597600430250168,,,,,,,,,
1739353209.4831457,0.35418628369125654,1.1670146801789312,0.26963032977069,-1.191763407397219,-1.3724743664830108,1.0710277534188481,0.1305601861917496,0.000623743740296783,-0.0008687845650945751,0.0008406896883953298,2.5103410091579788e-05,0.0008289845861194061,7.380332141952522e-05,0.0017910970434214125,-0.3063471019268036,-52.11056900024414,4.295149803161621,17.67676544189453,-1.1143087148666382,-1.5195419788360596,0.0064559997990727425,,,,,,,,,
1739353209.4940572,0.35418537932658006,1.1670144672699427,0.26963230490191364,-1.1917651902157043,-1.3724768016234543,1.0710277535803419,0.13055202461080653,0.000955343124483831,-0.00037921890643601063,0.00020040683570889952,-0.00034672724297919223,-0.0007547712029353284,-0.000909394924565286,-0.0017485466570720462,-0.2547723948955536,-52.11056900024414,4.267378807067871,17.70056915283203,-1.0941671133041382,-1.5195419788360596,0.03941498324275017,,,,,,,,,
1739353209.504064,0.3541808594724962,1.1670165074895393,0.2696340872544566,-1.1917616238805206,-1.3724747757964173,1.071027753418839,0.1305578443933482,-0.0010105384147793732,9.100022685338859e-05,0.0007299783899974204,0.00018577262990234584,0.0010602986536166847,-0.0005688170209377984,0.0001544672591314242,-0.2309686839580536,-52.13437271118164,4.243575096130371,17.65296173095703,-1.1079000234603882,-1.5195419788360596,0.026597600430250168,,,,,,,,,
1739353209.5140932,0.3541791478672012,1.1670163927035502,0.2696330836215107,-1.19176162769604,-1.3724751780460105,1.0710285110789146,0.1305601905816203,-0.0008956920896569199,0.0009721965596154666,0.00016874083818918062,-0.0002202451078118599,9.924940203626174e-05,-2.1614109936960563e-05,-0.0005177220071494921,-0.2071649730205536,-52.13437271118164,4.295149803161621,17.65296173095703,-1.1079000234603882,-1.5259506702423096,0.0064559997990727425,,,,,,,,,
1739353209.5250196,0.35418351662616027,1.1670138069467348,0.26963234296328653,-1.1917595454217453,-1.372475820859718,1.0710285241608666,0.1305546659344597,-4.343277190127222e-05,-0.0009709024980317509,-0.0005701378104056736,0.0012260629787654324,-0.0003277751011811121,-0.0004959500819669787,-0.001259192777721991,-0.2547723948955536,-52.08279800415039,4.295149803161621,17.62519073486328,-1.1014913320541382,-1.5259506702423096,0.05314789339900017,,,,,,,,,
1739353209.5350604,0.3541856140061454,1.1670141969123822,0.2696380629385978,-1.1917577623947981,-1.3724729717356845,1.0710285112406417,0.13056114572794228,0.0018707838572462306,-8.387951183793677e-05,0.0020351575708997547,0.0010587124961542551,-0.00010443338113882262,4.7425979236207476e-05,-0.0007634574408337304,-0.2547723948955536,-52.13437271118164,4.219771385192871,17.60138702392578,-1.1143087148666382,-1.5259506702423096,-0.013685601763427258,,,,,,,,,
1739353209.5451028,0.3541855059517357,1.1670125016690047,0.2696323235157711,-1.1917595226750246,-1.3724753474675593,1.0710306815898347,0.13055780478784254,0.0012302138800314565,-0.0007570124546836937,0.0005923278536987181,0.0008598097875069765,0.0007994045569588031,0.0008109290994085243,-0.00012119095314846627,-0.2825433909893036,-52.11056900024414,4.267378807067871,17.62519073486328,-1.0941671133041382,-1.5323593616485596,0.026597600430250168,,,,,,,,,
1739353209.555123,0.3541867539343117,1.1670126408833712,0.2696312497729849,-1.191762543214333,-1.3724729662500772,1.0710307216506794,0.13055152136851567,0.0019318488351637397,-0.001098967999662486,-0.0006727184211369152,-0.0007398523595227918,0.0024088863781455486,-0.0004677245593540322,-0.0010272740724191487,-0.2825433909893036,-52.08279800415039,4.295149803161621,17.65296173095703,-1.1143087148666382,-1.5058090686798096,0.07969819009304047,,,,,,,,,
1739353209.565855,0.35418459988280987,1.1670147133912059,0.2696351119328764,-1.191759541162778,-1.372476661384023,1.0710268875993663,0.13056256740900282,-0.00034376486594703417,0.0002340383224714,0.0013604473063056574,0.0008980503951811399,-0.00032794722738679666,-0.0003196201451432774,0.0009102253644622436,-0.2825433909893036,-52.11056900024414,4.243575096130371,17.62519073486328,-1.0941671133041382,-1.5122177600860596,-0.013685601763427258,,,,,,,,,
1739353209.5770879,0.35418291865325296,1.1670120039388274,0.26963236962942866,-1.1917595450717893,-1.3724759357257346,1.0710269007650621,0.13055415713254184,0.00019705970111798818,-0.0010579377446404143,0.0009562611142043727,0.00025631915536094326,0.0006351711665447628,-0.0009190706742053442,-0.002578714282838805,-0.2547723948955536,-52.08279800415039,4.295149803161621,17.62519073486328,-1.1014913320541382,-1.5122177600860596,0.03941498324275017,,,,,,,,,
1739353209.587117,0.3541808598549,1.1670102838556184,0.2696311574747784,-1.1917617264648293,-1.372475164657447,1.0710292730997184,0.13055786481335954,-0.0016107721102647352,-0.0019466214228588538,-0.00028466953733259333,-0.0006173500298660873,0.00025078389572851445,-0.00028695041376911983,-0.0008277808099693443,-0.2309686839580536,-52.05899429321289,4.295149803161621,17.65296173095703,-1.1079000234603882,-1.5323593616485596,0.05314789339900017,,,,,,,,,
1739353209.5980234,0.3541845727754708,1.1670147184395536,0.2696326923534027,-1.1917609096065032,-1.3724726799892404,1.0710289322481104,0.13055669191212313,0.0005675690361647767,4.5496672614497424e-05,0.00041388712817423847,-5.6993069858590566e-05,0.001468414742743335,-9.660203295452224e-05,1.5213049119694238e-05,-0.2825433909893036,-52.11056900024414,4.295149803161621,17.65296173095703,-1.1014913320541382,-1.5195419788360596,0.03300629183650017,,,,,,,,,
1739353209.6080334,0.35418475597765525,1.1670164299832262,0.2696351668009723,-1.1917595450596985,-1.3724758818698428,1.0710292845117257,0.1305594285256157,0.00017897077707889437,-0.0001411648473818111,0.0009289679414692426,0.0008672849212687012,0.000921603598163038,0.0009972518608380304,0.0006826328619816861,-0.2547723948955536,-52.13437271118164,4.267378807067871,17.62519073486328,-1.1014913320541382,-1.5195419788360596,0.012864691205322742,,,,,,,,,
1739353209.6180918,0.35418335210106916,1.1670127208177077,0.26963473391616677,-1.1917540635388226,-1.3724766823953876,1.0710303327637023,0.13055911993084504,0.0009012014213609003,-0.00011028707960717338,-0.000203996287679063,0.002077138274052683,-0.0004393408193614118,-0.00047775603604770104,-0.000140058388360996,-0.2547723948955536,-52.08279800415039,4.267378807067871,17.57758331298828,-1.0941671133041382,-1.5323593616485596,0.0064559997990727425,,,,,,,,,
1739353209.6291242,0.3541826499600363,1.1670147184436468,0.2696345369043258,-1.1917651537718208,-1.372475779122556,1.0710303327557924,0.1305546660789092,0.0001523916974568742,0.0011482674179277299,0.00029132462347767837,-0.0014850826975769944,6.737202438586139e-05,-0.0001638481485736754,-0.001765250701373038,-0.2547723948955536,-52.11056900024414,4.267378807067871,17.70056915283203,-1.1143087148666382,-1.5323593616485596,0.05314789339900017,,,,,,,,,
1739353209.6411734,0.35418085978175795,1.1670126900872495,0.26963445428996596,-1.191763411317848,-1.3724750573879954,1.0710277665027905,0.13056425087154813,-0.0006187502576993174,-0.0009452777678872895,-8.468897400850842e-05,-0.0008957829195236819,-0.000538286042262073,-0.000406752153962898,0.0016087099148298953,-0.2309686839580536,-52.08279800415039,4.267378807067871,17.67676544189453,-1.1079000234603882,-1.5195419788360596,-0.0008682189509272575,,,,,,,,,
1739353209.6520398,0.3541825729086619,1.1670127205027312,0.26962925619812217,-1.1917595450834826,-1.3724786189217393,1.071027754872411,0.13056186964223102,-0.0004485983568866397,-0.0004121720069904713,-0.0005872087756727544,0.0015904669143560583,-0.0014014244340013655,-0.0008369192435636203,0.0006634162993903562,-0.2547723948955536,-52.08279800415039,4.318953514099121,17.62519073486328,-1.0877584218978882,-1.5195419788360596,0.019273381680250168,,,,,,,,,
1739353209.6630175,0.35418675391846477,1.1670140041327117,0.26963103581554126,-1.1917598627022203,-1.3724775592898186,1.0710295726551189,0.1305618696723263,0.0008331771982745563,0.0002692311040404018,0.00017530310467952576,-0.0008084943893483733,0.00018185585388809952,0.0003670572263220437,0.0012532733772918426,-0.2825433909893036,-52.11056900024414,4.295149803161621,17.60138702392578,-1.0877584218978882,-1.5259506702423096,0.019273381680250168,,,,,,,,,
1739353209.674094,0.3541846046976948,1.1670184288931287,0.2696369114315235,-1.1917620762932273,-1.3724767479877547,1.0710277539213309,0.13056110496048984,0.0008878373017593322,0.0010592862413348297,0.001400022673456545,-4.951003458834348e-06,8.873921053227757e-05,-0.001081330067495273,0.00031889154349818783,-0.2825433909893036,-52.16214370727539,4.243575096130371,17.65296173095703,-1.0941671133041382,-1.5195419788360596,-0.0008682189509272575,,,,,,,,,
1739353209.6850893,0.35418087108787144,1.1670184289052257,0.2696353646795619,-1.1917594652744512,-1.3724760534637934,1.0710277710229477,0.13055780513724727,-0.0006003519949544292,0.0013682281011199917,-0.0006419317104302995,0.0007852234084721214,-0.0007487997767284268,-0.00017896042565730734,0.0008204033787042335,-0.2309686839580536,-52.16214370727539,4.267378807067871,17.62519073486328,-1.1014913320541382,-1.5195419788360596,0.026597600430250168,,,,,,,,,
1739353209.69608,0.354183979470578,1.1670134050276022,0.26962843480767595,-1.1917577636543857,-1.3724754660846634,1.0710329598414527,0.1305601861917131,0.00029617722940670653,-0.00021789569490441175,-0.0015472594880396777,0.0023446776238898086,0.0004467372541438636,-5.960392731028301e-05,6.8548443031848e-05,-0.2309686839580536,-52.08279800415039,4.318953514099121,17.60138702392578,-1.1014913320541382,-1.5323593616485596,0.0064559997990727425,,,,,,,,,
1739353209.706121,0.3541846780293045,1.1670184289168182,0.2696344539137937,-1.1917595450718328,-1.3724759357185727,1.071031543719804,0.1305594680227777,0.00040432008457135925,0.0013582761511721476,0.002021726734658391,0.00015633187651130522,-0.0005098063216655237,-0.0008344925555346186,0.00047288304920986395,-0.2547723948955536,-52.16214370727539,4.267378807067871,17.62519073486328,-1.1014913320541382,-1.5515854358673096,0.012864691205322742,,,,,,,,,
1739353209.717116,0.3541832739678338,1.167018487992342,0.2696331153249161,-1.1917616248616671,-1.372475178066448,1.071032043852046,0.1305594285318574,-0.00029584713099897557,0.0015487002950449595,0.0014297287647475005,-0.0005217121339133853,0.0015797077036420382,0.001125427051384571,0.00022724260743058988,-0.2547723948955536,-52.13437271118164,4.267378807067871,17.65296173095703,-1.1079000234603882,-1.5259506702423096,0.012864691205322742,,,,,,,,,
1739353209.7271192,0.35418478295285216,1.1670102927611559,0.2696322929264215,-1.1917595450718115,-1.3724744290186548,1.0710262912654305,0.13055426385717728,0.0011030825249442014,-0.0014235508724506326,-0.0009916262562371077,0.0007722585810435432,0.00039555917693884246,-0.00044426097151599914,-0.0006289345419118583,-0.2547723948955536,-52.05899429321289,4.267378807067871,17.62519073486328,-1.1143087148666382,-1.5058090686798096,0.05955658480525017,,,,,,,,,
1739353209.7381077,0.35418260662533874,1.1670119251039435,0.26963311866092987,-1.1917634065575395,-1.3724748451278252,1.071028864777052,0.13055948097181183,0.00024966880471328427,-0.0010560435081043507,0.0003389248740900202,-0.00042573950828201724,0.0005825909296496561,0.0019419734627200923,0.0007702217378662462,-0.2547723948955536,-52.08279800415039,4.267378807067871,17.67676544189453,-1.1014913320541382,-1.5259506702423096,0.012864691205322742,,,,,,,,,
1739353209.7500162,0.35418257194587993,1.167012720389282,0.2696313438272833,-1.1917669728927185,-1.3724751378332884,1.0710277550358887,0.1305530323032356,-0.000452054180053165,-8.255511556583495e-05,0.0008322173600659938,-0.001256423442484736,0.0010161307891227171,-0.0016240209983937703,-0.0028226419454767024,-0.2547723948955536,-52.08279800415039,4.318953514099121,17.72437286376953,-1.1079000234603882,-1.5195419788360596,0.06596527993679047,,,,,,,,,
1739353209.7600245,0.3541863604084085,1.1670147183346244,0.26963058692700326,-1.1917616503714739,-1.3724773878229948,1.0710316904778285,0.13055942869348067,0.0014750927586668061,4.772941723759055e-05,-0.000675118208421341,-8.641302786023098e-05,-0.00046309891939251254,0.001640340828273818,-8.256760520875269e-05,-0.3063471019268036,-52.11056900024414,4.318953514099121,17.65296173095703,-1.1014913320541382,-1.5259506702423096,0.012864691205322742,,,,,,,,,
1739353209.7700264,0.3541855842236715,1.1670162118413723,0.26963151008169745,-1.1917568087209078,-1.3724751780910394,1.0710278716947663,0.13055628965427987,0.0007895829691993148,3.897631449478148e-05,-0.0001249391115710236,0.001627464360289376,0.00031240382775551777,-0.0005696118969847873,-0.00103830274364421,-0.2825433909893036,-52.16214370727539,4.318953514099121,17.60138702392578,-1.1079000234603882,-1.5195419788360596,0.03941498324275017,,,,,,,,,
1739353209.7800786,0.35418296590090276,1.1670125641235014,0.26963030066034754,-1.1917624637257023,-1.3724759357265268,1.0710268938223246,0.13055462644330817,-0.0009637103161178869,0.0002154919373392115,-0.0003652507714419245,-0.00112859982217431,0.000839058350535455,-0.0018585254415600186,-0.002518943109309152,-0.2309686839580536,-52.11056900024414,4.295149803161621,17.65296173095703,-1.1014913320541382,-1.5122177600860596,0.05314789339900017,,,,,,,,,
1739353209.7901344,0.3541829658124008,1.1670127204663048,0.26963546377932984,-1.1917616248758731,-1.3724759357265264,1.07102864238306,0.13055624291207438,-0.00038461055610106837,-0.0001701322290763342,0.0005161998575739153,3.903178563208258e-05,0.0002336892791572231,-4.957082419285649e-05,0.0002681726799977351,-0.2309686839580536,-52.08279800415039,4.267378807067871,17.65296173095703,-1.1014913320541382,-1.5259506702423096,0.012864691205322742,,,,,,,,,
1739353209.801075,0.35418188559114866,1.167014717135446,0.2696333727731781,-1.1917595362414937,-1.372476814705711,1.071029038718395,0.13055704745888755,0.00011430937047748722,0.0010535051584307357,0.0007847111751674696,-0.00039300472713640444,0.0008123340365813439,0.0008032951825145253,-0.001042751560645508,-0.2547723948955536,-52.11056900024414,4.295149803161621,17.62519073486328,-1.0941671133041382,-1.5259506702423096,0.03300629183650017,,,,,,,,,
1739353209.8110864,0.35417914699959574,1.167014718334603,0.26963265823541116,-1.1917616160311997,-1.3724795677127475,1.0710279602506212,0.13056105208894767,-0.0013316007106360015,8.694472128316838e-06,0.00018292101039199554,0.0006888673718599284,-0.0013736049489041003,-0.0011669720910539136,-0.00021207187196186486,-0.2071649730205536,-52.11056900024414,4.295149803161621,17.65296173095703,-1.1014913320541382,-1.5122177600860596,-0.0008682189509272575,,,,,,,,,
1739353209.8220472,0.3541863776141372,1.1670130644649446,0.2696266932673217,-1.1917573993045496,-1.372475935747029,1.0710289852279724,0.13056141189713924,0.0018278432318576175,8.25526874641807e-05,-0.0017720350650122666,0.0010457622015766972,-0.0005414956469038106,-0.0002647722629030299,0.00045127329484194136,-0.3063471019268036,-52.05899429321289,4.346724510192871,17.62519073486328,-1.1014913320541382,-1.5195419788360596,-0.0008682189509272575,,,,,,,,,
1739353209.8331273,0.35418480485454684,1.1670184279589058,0.2696309217614394,-1.1917616252452428,-1.3724780291578542,1.0710322060245006,0.13056019058571097,-7.680506944294401e-05,0.0014536121132015134,-0.0011213304356861757,-0.000442258743421678,-0.001167275159243238,0.0015892597663127155,0.0017195638993632847,-0.2825433909893036,-52.16214370727539,4.295149803161621,17.65296173095703,-1.1014913320541382,-1.5259506702423096,0.0064559997990727425,,,,,,,,,
1739353209.8440578,0.3541856410015008,1.1670147066698826,0.2696326204986293,-1.1917595439816493,-1.3724751601917191,1.0710286856734024,0.13056020325579532,0.0003512632067016501,-0.00012782865616792178,0.00022902897835426955,0.0003736582600517339,0.0016533681920637153,-0.000170006973830694,-0.0007331477145050726,-0.2547723948955536,-52.11056900024414,4.267378807067871,17.62519073486328,-1.1079000234603882,-1.5259506702423096,0.0064559997990727425,,,,,,,,,
1739353209.8541253,0.35417923651306105,1.1670164309641733,0.2696303194069347,-1.1917643799207849,-1.3724768030770063,1.0710285291704966,0.13055542375733373,-0.0005465936337538132,-0.0005628015470782634,-0.0018207737363273692,-0.000496927164583828,-0.0012193068045079068,-0.0010851154847471873,-0.0023628239839877012,-0.2071649730205536,-52.13437271118164,4.295149803161621,17.65296173095703,-1.0941671133041382,-1.5259506702423096,0.04673920199275017,,,,,,,,,
1739353209.8641372,0.3541810934298908,1.1670147184436415,0.26963305964519546,-1.1917577624414493,-1.372477676524802,1.0710261691076883,0.13055780351179888,0.0001444286012828246,0.00044890172586050357,0.0008495476557168516,0.0002974776977980389,-0.00022039012847759612,-0.0013029905298197065,0.0010688520628101535,-0.2309686839580536,-52.11056900024414,4.295149803161621,17.60138702392578,-1.0877584218978882,-1.5058090686798096,0.026597600430250168,,,,,,,,,
1739353209.875083,0.35418257194700514,1.1670184058664543,0.26963445396579083,-1.1917546590286785,-1.3724768408702772,1.071027916701202,0.1305608108841548,-4.320597809502575e-05,0.0025978952501556404,0.0003266666635211923,0.0020482762811368646,-0.001119277640703744,-0.00089908808391616,0.0010420458662285179,-0.2547723948955536,-52.16214370727539,4.267378807067871,17.60138702392578,-1.0941671133041382,-1.5195419788360596,0.012864691205322742,,,,,,,,,
1739353209.886015,0.3541829742295258,1.167016403165094,0.2696302160510226,-1.1917616113486451,-1.3724744204065913,1.071031125337814,0.1305601774237066,0.0005152889786319775,0.0014094086726967354,-0.0017544769466438382,-0.0006831781026341533,0.0012075649469067537,-7.799712552986689e-05,-0.0003496457350880633,-0.2309686839580536,-52.13437271118164,4.295149803161621,17.62519073486328,-1.1143087148666382,-1.5387680530548096,0.0064559997990727425,,,,,,,,,
1739353209.8960364,0.3541819036488689,1.1670144004427154,0.2696322972328178,-1.1917629759352746,-1.3724751824270986,1.0710289820478047,0.13055467048472275,-0.0006768546908318881,-0.0009287859948556851,0.0008412758657888961,0.00014665692733950995,0.0017167326255179659,-0.0006462496209312655,-0.000660992027511999,-0.2309686839580536,-52.11056900024414,4.267378807067871,17.65296173095703,-1.1079000234603882,-1.5259506702423096,0.05314789339900017,,,,,,,,,
1739353209.9061172,0.35417914695727387,1.1670126413287085,0.2696274131194507,-1.191761701459729,-1.372475935726748,1.0710278716648507,0.13055460667959878,-0.0019241550626292454,6.745688484004875e-05,-0.0018508596824326287,-0.0010261172054669622,0.0006093826482760817,-0.002248741967463751,-0.0006283472045008903,-0.2071649730205536,-52.08279800415039,4.346724510192871,17.65296173095703,-1.1014913320541382,-1.5195419788360596,0.026597600430250168,,,,,,,,,
1739353209.9161272,0.3541791568906506,1.1670147154997552,0.2696354553953123,-1.1917580941626846,-1.372475164657447,1.0710278059626532,0.1305618097309691,-0.001789829590187828,0.0002142899925033056,0.0011728071977501484,0.00025467854973178303,0.0004349471550500433,-0.0021712392065641037,-0.0007609148318952251,-0.2071649730205536,-52.11056900024414,4.267378807067871,17.60138702392578,-1.1079000234603882,-1.5195419788360596,-0.0072769103571772575,,,,,,,,,
1739353209.9280725,0.3541866759173756,1.1670126145389588,0.2696324566949588,-1.1917616219201006,-1.372476797207851,1.0710310937314333,0.1305576206043531,0.0003003722477123759,-0.0005252207874894132,0.0003658157160913295,-8.93179110197822e-05,-0.0005447598726380016,-0.0010430688972562672,0.0004018043520253908,-0.2825433909893036,-52.08279800415039,4.295149803161621,17.65296173095703,-1.0941671133041382,-1.5195419788360596,0.05955658480525017,,,,,,,,,
1739353209.9390197,0.3541854696545518,1.1670146917950208,0.26963237299780074,-1.191762300130942,-1.3724768016237503,1.071031637963379,0.1305610520959303,0.00168503970824249,-6.947666089470724e-05,-0.0007875583325522527,-0.0003865703227455934,-0.0016571737509534236,0.0015040094848630357,0.0016128759589908274,-0.2547723948955536,-52.11056900024414,4.267378807067871,17.62519073486328,-1.0941671133041382,-1.5122177600860596,-0.0008682189509272575,,,,,,,,,
1739353209.949054,0.35418366740605245,1.1670146919522368,0.269632645772257,-1.1917595451184684,-1.372475178066448,1.0710311844580858,0.13056140750923453,0.00028896681436092167,0.0006641465893936585,0.0006940328311596225,0.0006763323989159786,0.0009033602379248031,0.0002169365827484872,-0.0003244038703959819,-0.2309686839580536,-52.11056900024414,4.267378807067871,17.62519073486328,-1.1079000234603882,-1.5122177600860596,-0.0008682189509272575,,,,,,,,,
1739353209.9600964,0.354180938543621,1.167012720175291,0.2696371729081714,-1.1917616248616678,-1.3724762889392361,1.071032009648231,0.13055784447159616,-0.0005723046883985716,0.0002622542756442066,-0.0001770466603586581,-0.0003433054676621861,-7.46766509659682e-05,-0.00010649569244346738,-0.0001629501024321792,-0.2309686839580536,-52.08279800415039,4.243575096130371,17.65296173095703,-1.1014913320541382,-1.5195419788360596,0.026597600430250168,,,,,,,,,
1739353209.971047,0.3541848831752158,1.1670147439534477,0.2696344201134013,-1.1917634161469335,-1.3724754530031542,1.071028858681329,0.13055628965435148,0.0009348409059549351,0.00044134597886051857,0.0003124244482954448,-0.0009094015334437933,7.817268941577127e-05,-0.0007370189420808518,-0.0010983575135117155,-0.2825433909893036,-52.11056900024414,4.267378807067871,17.67676544189453,-1.1014913320541382,-1.5195419788360596,0.03941498324275017,,,,,,,,,
1739353209.9810991,0.3541825720579872,1.1670147155006343,0.2696291478631981,-1.1917577624999167,-1.3724751734230627,1.0710339784220133,0.1305601861917128,0.0001662256935955132,0.00042370053483687514,-0.00044991968172266347,0.000906094837171013,0.0011093198157810587,0.0006696782869953672,-0.0007031059946287607,-0.2547723948955536,-52.11056900024414,4.318953514099121,17.60138702392578,-1.1079000234603882,-1.5323593616485596,0.0064559997990727425,,,,,,,,,
1739353209.993083,0.3541832835857159,1.167018428905209,0.2696354725304527,-1.1917616248616676,-1.3724751780664217,1.0710328189813023,0.13055780497443384,-0.0003436752268260253,0.0014390108377289796,0.001575140617465583,-0.0014657900787051611,-3.9434120506553496e-05,-0.0008474737561167235,0.0003814729506261533,-0.2547723948955536,-52.16214370727539,4.267378807067871,17.65296173095703,-1.1079000234603882,-1.5323593616485596,0.026597600430250168,,,,,,,,,
1739353210.0040607,0.3541848051752659,1.1670147183346251,0.2696315011945979,-1.1917643799208033,-1.3724759357265264,1.0710289041004584,0.13055942804408946,0.0001260698246755036,0.00024000272807556187,-0.00042347410635295554,-0.0013998605411961616,1.7654320799031793e-05,0.0013283518423769156,-0.00011586579800247437,-0.2825433909893036,-52.11056900024414,4.318953514099121,17.65296173095703,-1.1014913320541382,-1.5259506702423096,0.012864691205322742,,,,,,,,,
1739353210.0140624,0.35418260982676564,1.1670161925457918,0.26963046202244373,-1.1917679705042565,-1.3724767201886061,1.0710325042737183,0.1305677085861824,-0.0006080245013823883,-0.00030539581703965525,-0.0008355825494388206,-0.0014563473668610777,-0.00041370517341826987,0.0021159151718641643,0.0014185918789386635,-0.2547723948955536,-52.13437271118164,4.295149803161621,17.70056915283203,-1.0941671133041382,-1.5195419788360596,-0.020094294100999832,,,,,,,,,
1739353210.0250804,0.35418085953216427,1.1670183493220039,0.2696302958572969,-1.1917616503871686,-1.3724759357260667,1.071028476978699,0.1305586708964113,-0.00026262101478335964,0.0018187861462605382,-0.00027674834309064904,-0.0003225819833651062,1.3927220064113896e-05,-0.00020659302406589162,0.0005365916610501726,-0.2309686839580536,-52.16214370727539,4.295149803161621,17.65296173095703,-1.1014913320541382,-1.5122177600860596,0.019273381680250168,,,,,,,,,
1739353210.0350873,0.3541847559776081,1.1670117668271243,0.26963442788546804,-1.1917595450722436,-1.3724759357265264,1.0710317037481947,0.13056030466514296,-0.0005001593977039978,-0.0016055727348608822,0.0014400353096939821,0.00019574644744694094,-0.0010530582349787703,0.00042405961651472356,0.0005597790931480863,-0.2547723948955536,-52.08279800415039,4.267378807067871,17.62519073486328,-1.1014913320541382,-1.5259506702423096,0.0064559997990727425,,,,,,,,,
1739353210.0460165,0.3541828868871703,1.1670106870327794,0.2696333440832956,-1.1917577623947924,-1.3724751489348783,1.0710316102858815,0.13055942836978826,0.0006051096498213389,-0.00129260836189104,0.0007138407040487416,-3.595690537150538e-05,0.001382137047793738,0.0006667638355128782,6.33402231932357e-05,-0.2547723948955536,-52.05899429321289,4.267378807067871,17.60138702392578,-1.1079000234603882,-1.5122177600860596,0.012864691205322742,,,,,,,,,
1739353210.0571237,0.354179848919816,1.16701468180874,0.2696305914646469,-1.1917595437636161,-1.37247517822746,1.0710325216281404,0.13055867087166348,-0.002001758013914618,-0.0007029066545903011,-0.0012761330954861741,-0.0001029450935109826,0.00013342962532530763,0.0010933710475121488,-0.0006394290551397679,-0.2071649730205536,-52.11056900024414,4.318953514099121,17.62519073486328,-1.1079000234603882,-1.5195419788360596,0.019273381680250168,,,,,,,,,
1739353210.0691094,0.35418460551800857,1.1670147182564952,0.26963092273176525,-1.1917601681741725,-1.372476853951568,1.071032111386787,0.1305554235403581,0.0004914521340011531,-0.0007774361766127843,-0.0008334020181259532,0.0007114046119192897,-0.0009157439315419288,-5.050916323843945e-05,-0.0001391216570522509,-0.2825433909893036,-52.11056900024414,4.295149803161621,17.65296173095703,-1.0941671133041382,-1.5195419788360596,0.04673920199275017,,,,,,,,,
1739353210.0800524,0.35418916877064477,1.1670147065608671,0.26963520726556406,-1.1917616248171052,-1.3724775592841323,1.0710315207106964,0.1305562898167909,0.0013105440030167347,-0.00011112751845713273,0.0012711061778589675,0.00015584026390476005,-0.0007238182297244565,-0.0015669077630116376,-0.0012640982555208887,-0.3063471019268036,-52.11056900024414,4.267378807067871,17.65296173095703,-1.0877584218978882,-1.5122177600860596,0.03941498324275017,,,,,,,,,
1739353210.0901222,0.3541809374780525,1.1670146388253597,0.269631619148556,-1.191761570898614,-1.3724759357265264,1.0710294394765485,0.13055860063265742,-0.0011625136081676527,0.0011340117358165885,0.0008609589062248615,-0.00018274436014533967,-0.00017601925391121554,-0.0011491737786435868,0.0019716807157815984,-0.2309686839580536,-52.11056900024414,4.318953514099121,17.65296173095703,-1.1014913320541382,-1.5323593616485596,0.03300629183650017,,,,,,,,,
1739353210.101069,0.3541846780839043,1.1670161130724843,0.26962916667436976,-1.1917594819285735,-1.3724796500826235,1.0710332731258252,0.130557047323124,-0.00011407789512394954,-0.0002126210651135941,-0.001059878892912082,-0.0001826059104447876,0.0005942024652242159,0.0007978168105008839,-0.00119757266161784,-0.2547723948955536,-52.13437271118164,4.318953514099121,17.65296173095703,-1.0877584218978882,-1.5259506702423096,0.03300629183650017,,,,,,,,,
1739353210.111074,0.35418257198135183,1.1670164044680358,0.269634760125632,-1.1917598511532024,-1.3724751824625065,1.071029299269416,0.13056018635422795,-0.000991774123336954,-0.0009712042356619925,0.0005951445227035303,0.00011081882856343829,0.0005531784068236746,-3.296543644592639e-05,0.0006514241871579205,-0.2547723948955536,-52.13437271118164,4.267378807067871,17.62519073486328,-1.1079000234603882,-1.5195419788360596,0.0064559997990727425,,,,,,,,,
1739353210.1220078,0.3541835079593653,1.1670147269467608,0.26963257816274755,-1.1917631691218347,-1.3724759223175502,1.0710316377325344,0.13056256740910283,0.0003991021051778413,-2.381560732162317e-05,7.433471270640584e-05,-0.0006362857688690067,4.964868049653889e-05,0.00023112407284034804,0.0016221065211249302,-0.2547723948955536,-52.11056900024414,4.295149803161621,17.67676544189453,-1.1014913320541382,-1.5122177600860596,-0.013685601763427258,,,,,,,,,
1739353210.1330824,0.35418501931417895,1.1670164309645166,0.2696270714255829,-1.191762692278911,-1.3724751780662208,1.0710305831727969,0.13055780497443384,0.00010028361970801456,0.00040564060509742374,-0.001272898904060933,-1.4978116421967354e-05,-5.211277694284698e-05,-0.000435619983740009,-0.0014231269511658662,-0.2547723948955536,-52.13437271118164,4.346724510192871,17.67676544189453,-1.1079000234603882,-1.5122177600860596,0.026597600430250168,,,,,,,,,
1739353210.143227,0.3541828407727565,1.1670145565544827,0.26962646842331045,-1.1917616248576293,-1.372477559283837,1.0710332789599242,0.13055781131251856,-0.000349475991154776,0.00042791720666862914,-0.0007708874129702241,-0.0004266382829401357,-0.0009722701609619382,0.0004184687708608947,0.0010793870167171646,-0.2547723948955536,-52.11056900024414,4.346724510192871,17.65296173095703,-1.0877584218978882,-1.5259506702423096,0.026597600430250168,,,,,,,,,
1739353210.1541123,0.3541826627880356,1.1670147184427275,0.26963307400897246,-1.1917595705816182,-1.3724759357265264,1.07103252162891,0.13055628965431293,0.0003266643730521671,0.001402855927548358,0.0014980822430796013,0.0006785686918891985,-0.00014976828003155396,0.0014946026955156171,-0.0008373549284243465,-0.2547723948955536,-52.11056900024414,4.295149803161621,17.62519073486328,-1.1014913320541382,-1.5195419788360596,0.03941498324275017,,,,,,,,,
1739353210.1651165,0.35418260661337037,1.1670110079820573,0.2696302485650376,-1.1917595450719554,-1.3724753015630378,1.0710310958576261,0.1305588040016992,0.00021031367525150332,-0.001006898929200864,0.00043975876585641203,0.0011348954668163797,0.00039561105588254976,-0.0015768179886727447,-0.0013802692821128044,-0.2547723948955536,-52.05899429321289,4.295149803161621,17.62519073486328,-1.1079000234603882,-1.5195419788360596,0.0064559997990727425,,,,,,,,,
1739353210.1760554,0.3541855851855233,1.167015715599619,0.2696302131228383,-1.1917616248616671,-1.372477559284534,1.0710311655541869,0.13055780496663133,0.0011304003150811347,0.00025369502319220414,-0.0008165263436709996,-4.1383009150829434e-05,-0.00022101053883361098,-0.001469091366550673,0.0007004147456190734,-0.2825433909893036,-52.13437271118164,4.295149803161621,17.65296173095703,-1.0877584218978882,-1.5122177600860596,0.026597600430250168,,,,,,,,,
1739353210.187274,0.35418257237940537,1.1670127112323674,0.26963325042929726,-1.1917616155952842,-1.3724755312791577,1.0710316421624435,0.13055316394008368,-0.0007868056511207521,-0.001398190619894728,0.000285819657204425,-2.7846562095955885e-05,0.0005339390632482152,0.0006661735286133361,-0.001890190001088282,-0.2547723948955536,-52.08279800415039,4.267378807067871,17.65296173095703,-1.1079000234603882,-1.5122177600860596,0.06596527993679047,,,,,,,,,
1739353210.1990192,0.3541826846140001,1.1670147202968657,0.26963245308228306,-1.191759545071759,-1.372477558789201,1.0710332750897684,0.13055942853170877,-0.00022176913921514752,0.00028909792707573485,0.0006936123489594752,0.0008425420841442007,-0.0006724362949994289,0.0006684836124250234,-0.0006614922726372902,-0.2547723948955536,-52.11056900024414,4.295149803161621,17.62519073486328,-1.0877584218978882,-1.5259506702423096,0.012864691205322742,,,,,,,,,
1739353210.2091737,0.3541845699941707,1.167019211533326,0.2696331275203496,-1.1917616247526508,-1.372475177900902,1.0710261880842633,0.1305601861917128,0.00025167061368494754,0.002465011765642708,0.0009362864861010483,0.0006135372052999473,0.0013120441811165467,-0.0019411162161052237,0.0007722090945175496,-0.2825433909893036,-52.13437271118164,4.295149803161621,17.65296173095703,-1.1079000234603882,-1.5058090686798096,0.0064559997990727425,,,,,,,,,
1739353210.2200499,0.3541825979460648,1.1670147184593378,0.26963022231967304,-1.1917634075023467,-1.372475178066447,1.0710324693821853,0.1305625674091019,-0.0009353665055832208,-0.0005017174620386687,7.713679112074964e-05,-0.00024358772409104634,0.0006249004062364436,-0.001046850086089879,0.00029062280587931785,-0.2547723948955536,-52.11056900024414,4.295149803161621,17.67676544189453,-1.1079000234603882,-1.5195419788360596,-0.013685601763427258,,,,,,,,,
1739353210.2301123,0.3541825835027296,1.1670127195216426,0.2696372357626546,-1.191761386443086,-1.3724783169439154,1.0710282832352382,0.13055466609696642,0.0008817594112324221,-0.0005238809271183391,0.001547018947063567,-0.00012773899924344002,0.0009159168326212674,0.000150559278752868,-0.0016040054319634985,-0.2547723948955536,-52.08279800415039,4.243575096130371,17.65296173095703,-1.0813497304916382,-1.5195419788360596,0.05314789339900017,,,,,,,,,
1739353210.2411714,0.3541853829232342,1.1670184259617846,0.2696284305955748,-1.1917595185804095,-1.3724727296670873,1.071033240124884,0.13055784446557708,-7.185560956188167e-05,0.0010803385508309994,-0.0014841866374398858,0.0010320662753494996,0.0010738543770057892,0.0002931648155429743,-0.0005141002446848523,-0.2547723948955536,-52.16214370727539,4.318953514099121,17.62519073486328,-1.1014913320541382,-1.5259506702423096,0.026597600430250168,,,,,,,,,
1739353210.252061,0.35418327397181293,1.1670167871363348,0.2696333985689185,-1.1917616248251786,-1.372479114622816,1.071032202315707,0.13055706047829282,-0.00018037256677511427,0.0005738760029891458,0.00037119840066070556,-0.00014248591568331468,-0.0002087447027838575,0.000546664290499687,-0.0006620623087646024,-0.2547723948955536,-52.11056900024414,4.295149803161621,17.65296173095703,-1.1014913320541382,-1.5259506702423096,0.03300629183650017,,,,,,,,,
1739353210.2620735,0.35418296685859074,1.1670147155352355,0.2696354686921018,-1.1917616248616663,-1.3724744379028073,1.0710313020162125,0.1305570523525432,0.0006252634813932925,0.0003414172905354076,0.0007851145087312561,-0.0009208767521447906,-0.0003872752180066512,-0.0008412597186587677,-0.0004034144038252798,-0.2309686839580536,-52.11056900024414,4.267378807067871,17.65296173095703,-1.1143087148666382,-1.5122177600860596,0.03300629183650017,,,,,,,,,
1739353210.273021,0.3541831994948449,1.167014002626623,0.2696304624562499,-1.191763410373109,-1.372476801624055,1.0710332779909535,0.1305601978928776,-0.00048140332879925425,6.307248274314196e-05,-0.0006474727944553801,-0.00024317083454779206,-0.00048675449160068626,-0.0005753529343406393,0.0011189403597767701,-0.2309686839580536,-52.11056900024414,4.295149803161621,17.67676544189453,-1.0941671133041382,-1.5259506702423096,0.0064559997990727425,,,,,,,,,
1739353210.2830565,0.3541866791404525,1.1670171959274875,0.2696330520123183,-1.191761627696106,-1.3724779124965467,1.0710316558931776,0.13055537693761088,-1.8656432155952224e-05,0.0020508941187126865,0.0005217657620751625,-7.2988145484718416e-06,-0.0010314623509672253,2.7054693126107063e-05,-0.0005818624689864456,-0.2825433909893036,-52.13437271118164,4.295149803161621,17.65296173095703,-1.0877584218978882,-1.5122177600860596,0.05314789339900017,,,,,,,,,
1739353210.294109,0.35418694794055416,1.1670104920051834,0.2696287455497025,-1.1917594655989996,-1.3724756618646536,1.0710308567426368,0.13055578502472986,0.0012345336736108619,-0.001391386581258296,-0.0009659979675575271,0.0010738697220715992,0.00047791696015642984,0.0009046199112110146,0.0005563693352156641,-0.2825433909893036,-52.08279800415039,4.318953514099121,17.62519073486328,-1.0941671133041382,-1.5323593616485596,0.05314789339900017,,,,,,,,,
1739353210.3041594,0.35418351195854325,1.1670147182968853,0.2696312380050554,-1.1917584511582304,-1.3724760534447944,1.0710293383000142,0.13055872305792804,0.00019502917596454965,0.0003419283797647127,0.00010101125156608212,0.0010380569875347613,-0.0004108181813012335,3.422034553796866e-05,0.0005370653369971837,-0.2547723948955536,-52.11056900024414,4.295149803161621,17.60138702392578,-1.1014913320541382,-1.5195419788360596,0.019273381680250168,,,,,,,,,
1739353210.3160336,0.3541825806142463,1.167014288976391,0.26962945834882057,-1.191763044449789,-1.3724775592840583,1.0710318210311478,0.13056257325973983,-0.00022522136780635867,0.0009813803353610664,0.00037971655459904073,-0.0002665771071795604,-0.001059445778006183,-0.001306598625598039,0.001683963640355004,-0.2547723948955536,-52.13437271118164,4.318953514099121,17.70056915283203,-1.0877584218978882,-1.5259506702423096,-0.013685601763427258,,,,,,,,,
1739353210.3260982,0.354187253195267,1.1670147184073667,0.26963444907081885,-1.1917595450354725,-1.3724759415407273,1.0710332794257982,0.1305594811865912,0.000935043708058751,0.0011688617514533177,0.0004751845236113971,0.00025693904459198963,6.407947290495227e-06,0.000655738968189726,0.0006933177922592536,-0.3063471019268036,-52.11056900024414,4.267378807067871,17.62519073486328,-1.1014913320541382,-1.5259506702423096,0.012864691205322742,,,,,,,,,
1739353210.3361254,0.3541798490626259,1.167012694011835,0.26963124978463826,-1.1917616248616667,-1.3724751780664808,1.0710332794504964,0.13056176830799762,-0.0008618239992958643,-1.3383974944913732e-05,-0.00025206204159907363,0.0005298509110943308,-0.0003030154739115541,-0.00038304356222275307,0.001295228011499621,-0.2071649730205536,-52.08279800415039,4.295149803161621,17.65296173095703,-1.1079000234603882,-1.5259506702423096,-0.0072769103571772575,,,,,,,,,
1739353210.3471053,0.35418479492864136,1.167016430964223,0.26962878377790783,-1.1917595450718113,-1.3724748145335313,1.0710314939030863,0.13055867087143228,0.00021768498670998187,0.0003231638179868948,-0.00038824518300997854,0.0004111930549260169,0.0012685539039232294,-0.0002923467815018184,-0.0005067405819929067,-0.2547723948955536,-52.13437271118164,4.318953514099121,17.62519073486328,-1.1079000234603882,-1.5122177600860596,0.019273381680250168,,,,,,,,,
1739353210.358019,0.3541826095143375,1.1670107339151583,0.26963150151463,-1.1917616219182279,-1.3724748160213682,1.071032519851437,0.1305540269103178,-2.5314241951742734e-06,-0.0012864835662813492,1.556980799986439e-05,-0.0004517268528458755,0.0010426385289675133,-0.00038182451411403445,-0.0011458057621645664,-0.2547723948955536,-52.05899429321289,4.318953514099121,17.65296173095703,-1.1079000234603882,-1.5195419788360596,0.05955658480525017,,,,,,,,,
1739353210.3680704,0.35418265315738395,1.1670184289005843,0.2696294133600409,-1.1917595450717615,-1.3724744204002384,1.0710316035653442,0.1305590262939618,-0.0006908648397041433,0.0011436734152197024,0.00018066963465459814,0.0012154591035420988,0.0006944938839904317,-0.0005381576569052609,0.0007371243808534119,-0.2547723948955536,-52.16214370727539,4.318953514099121,17.62519073486328,-1.1143087148666382,-1.5122177600860596,0.019273381680250168,,,,,,,,,
1739353210.3790765,0.3541832749202972,1.1670164296561774,0.26962704513269137,-1.19176162769609,-1.3724807425588756,1.0710325217895322,0.13055593862791184,-4.278119034425683e-05,0.0008067844574293768,-0.0014256874940354524,-0.001099169182517026,-5.728984319927405e-05,0.00034170351493677774,-0.0012536773631534135,-0.2547723948955536,-52.13437271118164,4.370528221130371,17.65296173095703,-1.0877584218978882,-1.5195419788360596,0.03941498324275017,,,,,,,,,
1739353210.3890884,0.3541876122638975,1.167015718543036,0.2696323770820002,-1.1917636911560672,-1.3724768018391733,1.0710321685777087,0.13055628964833246,0.0008515715764467346,0.000575791874206547,0.0003010546016518832,-0.0007096358846490149,0.0003027857317712441,0.00022549416781914418,-0.0008865000263200713,-0.2825433909893036,-52.13437271118164,4.295149803161621,17.65296173095703,-1.0941671133041382,-1.5195419788360596,0.03941498324275017,,,,,,,,,
1739353210.3991332,0.35418196687482145,1.1670164317961425,0.2696287727675719,-1.1917623001776048,-1.3724768423231668,1.0710282657933041,0.1305554237570447,-8.583699138273073e-05,-0.00021548486813964182,-4.911312997661876e-05,-0.0009725243458700383,-0.00010160114959085104,-0.0009565577727962175,-0.0008578395139140364,-0.2071649730205536,-52.13437271118164,4.318953514099121,17.62519073486328,-1.0941671133041382,-1.5195419788360596,0.04673920199275017,,,,,,,,,
1739353210.4101045,0.35418771609110233,1.1670117668284767,0.2696305655271316,-1.1917634452375288,-1.3724753290905483,1.07103088512713,0.13055467194750614,0.002438123514645282,-0.0014136239662927803,-0.000971769500481468,-0.0007949416678612705,0.00035482047243453685,0.00010951973882314923,-0.001123890553688327,-0.2825433909893036,-52.08279800415039,4.318953514099121,17.67676544189453,-1.1079000234603882,-1.5058090686798096,0.05314789339900017,,,,,,,,,
1739353210.4210448,0.35417949370071333,1.1670162830962914,0.2696347600172096,-1.191759161203229,-1.3724751761346168,1.0710325217903442,0.13056363805790738,-0.000437856365968506,0.00046102371838881216,0.0017972987003035364,0.0009495492675766907,0.0005824877677392814,0.0006347975098333989,0.0014358294459768757,-0.2071649730205536,-52.16214370727539,4.267378807067871,17.65296173095703,-1.1079000234603882,-1.5195419788360596,-0.013685601763427258,,,,,,,,,
1739353210.4320202,0.35418366750361924,1.1670147184315283,0.2696312633952577,-1.1917616248477596,-1.372474649639621,1.0710316544396357,0.13055942859184996,-0.0005614959551743022,-0.0001974216824772368,-6.649813941853467e-05,-0.000631449914361356,0.00014855997818178084,-1.6536021214150274e-05,-0.00030086537886773074,-0.2309686839580536,-52.11056900024414,4.295149803161621,17.65296173095703,-1.0877584218978882,-1.5122177600860596,0.012864691205322742,,,,,,,,,
1739353210.4421167,0.354181795486189,1.1670138972240909,0.26963702775876425,-1.1917610087017174,-1.3724751780171727,1.071028463896821,0.13056034561892174,-0.0006706310718978531,-0.0008075286334882234,0.0012628123866350314,-0.00012143004025722204,0.000991336758318626,-0.001056402977531111,0.00011357958584846809,-0.2309686839580536,-52.11056900024414,4.243575096130371,17.65296173095703,-1.1079000234603882,-1.5122177600860596,0.0064559997990727425,,,,,,,,,
1739353210.4530466,0.35418296546101913,1.1670165074891572,0.2696292568587614,-1.1917609096024515,-1.3724743532243977,1.07103146213427,0.13055780497533379,-0.0005635619723133262,0.0005913987137448767,-0.0005250075549792514,0.00023890916797260554,0.00011343197932447708,-0.00011092411076747294,-0.0010903378811440473,-0.2309686839580536,-52.13437271118164,4.318953514099121,17.65296173095703,-1.0877584218978882,-1.5195419788360596,0.026597600430250168,,,,,,,,,
1739353210.4631577,0.3541798503411152,1.1670184289065215,0.2696272958377782,-1.1917634062183777,-1.3724752955841797,1.0710332779790008,0.13056105208894522,-0.00039804693867830847,0.0013239928040102134,-0.0017856770704973222,-0.0007150059187395784,0.00023884262170791092,0.0007337970099788474,-0.0005478800902606798,-0.2071649730205536,-52.16214370727539,4.346724510192871,17.67676544189453,-1.1079000234603882,-1.5259506702423096,-0.0008682189509272575,,,,,,,,,
1739353210.474066,0.3541837579898082,1.1670164309643727,0.2696291972898633,-1.191759545071804,-1.3724737804845246,1.0710316557316721,0.13055326924979904,-0.00018211842332408802,0.0003762311144831506,-0.000932922099534478,0.00011289901803048831,0.0007430421581273347,-7.266227746412788e-05,-0.0017445724868553108,-0.2309686839580536,-52.13437271118164,4.346724510192871,17.62519073486328,-1.1207174062728882,-1.5122177600860596,0.06596527993679047,,,,,,,,,
1739353210.4850483,0.3541845788906854,1.1670125725674132,0.269628439318251,-1.191757762709728,-1.372475177624318,1.0710316554086683,0.13056018619238158,-0.00040518918495711367,-0.00041230854785052906,-0.0012072414720476136,0.0008354001855479937,0.0005323407043210714,-0.00017050223883091823,0.0012813762328523972,-0.2825433909893036,-52.11056900024414,4.318953514099121,17.60138702392578,-1.1079000234603882,-1.5122177600860596,0.0064559997990727425,,,,,,,,,
1739353210.49506,0.354180117692226,1.1670154772537156,0.26963024466079116,-1.191761633142871,-1.3724791148024125,1.0710332794504884,0.13055628965427715,-0.0010094965031842954,-0.00014817212239029415,-0.001282926184908627,0.00010723793804952796,-0.0010170828645079094,0.0002928389296780818,-5.504611496848237e-05,-0.2071649730205536,-52.13437271118164,4.295149803161621,17.65296173095703,-1.1014913320541382,-1.5259506702423096,0.03941498324275017,,,,,,,,,
1739353210.5060303,0.3541837034582844,1.1670164563597794,0.26963126600967574,-1.191759553575127,-1.3724726859695098,1.0710308982331076,0.1305594884368801,-0.00042406779340680714,0.00017709105219337298,0.0014220458932837625,0.0005264354875553497,0.0004990675972696942,-0.0008633994929782942,4.132056224355608e-05,-0.2309686839580536,-52.13437271118164,4.295149803161621,17.62519073486328,-1.1014913320541382,-1.5058090686798096,0.03941498324275017,,,,,,,,,
1739353210.5170887,0.3541829658997795,1.1670147100333814,0.2696309319502278,-1.191762313626499,-1.3724751795016532,1.0710325173759323,0.1305594285496917,-0.0005453210877456335,0.001157963724922472,-0.000390975279383991,0.0002516144224224136,0.0009654433181449611,-0.00019746639702190435,0.0013382914123617668,-0.2309686839580536,-52.11056900024414,4.295149803161621,17.65296173095703,-1.1079000234603882,-1.5195419788360596,0.012864691205322742,,,,,,,,,
1739353210.5271008,0.3541830728098494,1.1670127120922429,0.26963150120078827,-1.191761611377828,-1.3724768030773333,1.0710332773508493,0.13055958649620775,0.0007771768196963599,0.00032684195149375534,-0.0011599042084422164,2.6527655715639377e-05,0.0002955180440467374,0.00032960562178875705,0.0026095199306249124,-0.2309686839580536,-52.08279800415039,4.318953514099121,17.62519073486328,-1.0941671133041382,-1.5259506702423096,0.012864691205322742,,,,,,,,,
1739353210.5380628,0.35418164344341985,1.1670129500910023,0.26963339905428185,-1.1917595450834757,-1.372478474718414,1.0710325174297557,0.1305546704857629,-0.00012781311156054634,0.00013632061669379797,0.0006798010956675219,0.0004441714640974391,-0.0004253890775145375,-0.0007027382933536397,-0.0002080012320550156,-0.2309686839580536,-52.08279800415039,4.295149803161621,17.62519073486328,-1.1079000234603882,-1.5195419788360596,0.05314789339900017,,,,,,,,,
1739353210.5480852,0.3541835426398159,1.1670124820880974,0.269633083782879,-1.191763407538686,-1.3724799807554813,1.0710340371105012,0.13055466609704075,0.002210568362818736,-0.0005207935933840395,-0.0006232527589465631,-0.0012083784634594455,-0.0007576196989962739,-0.0001813963154947807,-0.00025107330471302796,-0.2547723948955536,-52.08279800415039,4.295149803161621,17.67676544189453,-1.0941671133041382,-1.5323593616485596,0.05314789339900017,,,,,,,,,
1739353210.5591033,0.35418370545556965,1.167014717776085,0.26963328434986855,-1.1917616239854991,-1.372480174350825,1.071028283237901,0.13055542375704476,0.0004289511719074582,-0.0005469605521227334,0.0006525187590667247,-0.0001700796543588773,-0.0012903422712417022,-0.0012529542170089353,-6.493738871891214e-05,-0.2309686839580536,-52.11056900024414,4.295149803161621,17.65296173095703,-1.1014913320541382,-1.5195419788360596,0.04673920199275017,,,,,,,,,
1739353210.5700893,0.3541800830766319,1.1670146919526845,0.2696312409332414,-1.1917625392901219,-1.3724791146648414,1.0710332794265698,0.13055944169534886,-0.0006749605292785041,-0.0006584112205128774,0.00012315766650090832,-0.001102850505949807,-0.0006793726359527729,0.00016755487639782274,0.0007490698662089724,-0.2071649730205536,-52.11056900024414,4.295149803161621,17.65296173095703,-1.1014913320541382,-1.5259506702423096,0.012864691205322742,,,,,,,,,
1739353210.5810225,0.35418327524519894,1.1670147184434918,0.26962948031408873,-1.1917595450769733,-1.3724759357444716,1.0710340240286227,0.13056100375711108,-0.0007509123291035191,0.0004069547526284813,-0.00045207464008353653,-0.0003916126917418012,-0.0007802002397097036,0.00017035412147975394,0.0011332163915090529,-0.2547723948955536,-52.11056900024414,4.318953514099121,17.62519073486328,-1.1014913320541382,-1.5323593616485596,0.026597600430250168,,,,,,,,,
1739353210.5910723,0.3541836703668373,1.1670105747355766,0.2696315886919499,-1.1917633810477326,-1.372476801623759,1.0710316558929645,0.13056318466485217,-0.0005127171269070378,-0.00024637446098391954,0.0002964926181500255,-0.0010600673807960352,0.00038739438207918415,-0.000531927511867411,0.0015450799200261833,-0.2309686839580536,-52.08279800415039,4.318953514099121,17.67676544189453,-1.0941671133041382,-1.5122177600860596,-0.0008682189509272575,,,,,,,,,
1739353210.6010728,0.35418086824634737,1.1670147867608018,0.2696344231852503,-1.1917636911555707,-1.3724767657574064,1.0710332794504966,0.13055834914316775,-0.0011692979561193078,-4.953235381455765e-05,0.0008255411613048281,-0.0004908931993905302,0.0003409721718618772,0.0005259789130233227,-0.0002465929165219259,-0.2309686839580536,-52.08279800415039,4.267378807067871,17.65296173095703,-1.0941671133041382,-1.5259506702423096,0.012864691205322742,,,,,,,,,
1739353210.6110828,0.3541866773084355,1.1670180845578257,0.2696302145628037,-1.1917616248966598,-1.3724736627456837,1.071031655893186,0.13056105207066568,0.0006836698852509693,0.0002975059228608665,-0.0007540325151336768,0.0002565977966243872,0.0009247209734300503,-0.0005797829836076564,0.0006253125143881609,-0.2825433909893036,-52.16214370727539,4.295149803161621,17.65296173095703,-1.1207174062728882,-1.5122177600860596,-0.0008682189509272575,,,,,,,,,
1739353210.6210842,0.3541819081426367,1.1670157157028038,0.2696287833040505,-1.1917616248616676,-1.372476419920264,1.071031655893186,0.13055946802277738,0.0006641679769945441,-0.0005728395598695803,-0.0005613715162936378,6.230913486567882e-05,-0.001445603161363203,-0.00048661283397518794,-0.00035089773616003405,-0.2309686839580536,-52.13437271118164,4.318953514099121,17.65296173095703,-1.1014913320541382,-1.5122177600860596,0.012864691205322742,,,,,,,,,
1739353210.6321063,0.3541853833452337,1.1670110079780196,0.26963476295933636,-1.1917617269358871,-1.372475178069181,1.0710332794504966,0.1305633250695133,0.0011753704390859428,-0.002180026339993919,0.001860017095224672,-0.0011220081788329967,-0.0004218937565177371,0.0006315596523925942,0.001548338395460193,-0.2547723948955536,-52.05899429321289,4.267378807067871,17.65296173095703,-1.1079000234603882,-1.5259506702423096,-0.020094294100999832,,,,,,,,,
1739353210.6430988,0.3541831997960181,1.1670171197291566,0.26963245665504765,-1.1917634045958228,-1.372478317428432,1.0710325217904184,0.13055273566807166,-0.0006387182152155885,0.0009676218431192026,-0.00024432930629151434,4.357617700081703e-06,-0.0016247322485984641,0.0003457571032858609,-0.001156709841531872,-0.2309686839580536,-52.13437271118164,4.295149803161621,17.67676544189453,-1.0813497304916382,-1.5195419788360596,0.03941498324275017,,,,,,,,,
1739353210.654016,0.35418227983839595,1.167011778056699,0.269631606543969,-1.1917616248616503,-1.3724768030773116,1.0710325217904184,0.13056256733486787,0.0008448298236536956,-0.0020497626355079858,0.00023897250081430805,0.00029104758986722506,0.0006945557978572342,0.00020139645989321916,0.0008161477612114566,-0.2071649730205536,-52.11056900024414,4.318953514099121,17.65296173095703,-1.0941671133041382,-1.5195419788360596,-0.013685601763427258,,,,,,,,,
1739353210.6640851,0.35418481592672824,1.1670148685092472,0.2696303184831128,-1.191761624861667,-1.3724752958040423,1.0710308982331076,0.13056103453732473,0.0007319651509176631,-0.00022593971613548076,-0.00015067727294090154,-0.0004588088655578528,0.00030326141129812255,-0.0007486477044532146,-0.0004830624086742571,-0.2825433909893036,-52.11056900024414,4.295149803161621,17.65296173095703,-1.1079000234603882,-1.5058090686798096,-0.0008682189509272575,,,,,,,,,
1739353210.6741383,0.3541846808778975,1.1670164283434934,0.2696302931610733,-1.1917618409544248,-1.3724775592898186,1.0710332789659798,0.13056117202411818,-0.0014500353890882806,0.0008979590842314719,-0.00012065006668583641,-0.00030351581070245414,-0.0007961090587808369,-9.550321912880143e-06,0.0008395392060519465,-0.2547723948955536,-52.13437271118164,4.295149803161621,17.62519073486328,-1.0877584218978882,-1.5259506702423096,-0.0008682189509272575,,,,,,,,,
1739353210.6850636,0.3541791815872521,1.1670162828109598,0.2696277263154531,-1.191761633485899,-1.3724774386028278,1.0710316554086683,0.13055466609719207,-0.0010669541152542995,0.0005365454618337741,0.0005408099519835638,0.0007406552277168844,-0.0003768513071812849,-0.0009226795776973621,-0.001825402157671559,-0.2071649730205536,-52.16214370727539,4.370528221130371,17.65296173095703,-1.0877584218978882,-1.5122177600860596,0.05314789339900017,,,,,,,,,
1739353210.6951218,0.35418564908589767,1.167011007945713,0.2696311620163774,-1.191761624861813,-1.3724743008945453,1.0710332794504884,0.13055406656397606,0.0010755992596527012,-0.0011717971916242022,-0.0007570863872831034,-4.895623535418705e-05,0.0008476234191539743,1.37377492855037e-05,-0.0011500164208161545,-0.2547723948955536,-52.05899429321289,4.295149803161621,17.65296173095703,-1.0877584218978882,-1.5259506702423096,0.05955658480525017,719,709,686,45.410,0,0
1739353210.7070339,0.3541866760416873,1.1670127205027883,0.26962946288853673,-1.1917595449264562,-1.372477601240431,1.0710300875079914,0.13055942858669875,0.0003792764556912073,-0.00020078434019039215,-0.0007491871953215542,0.0010438250511265804,-0.000536780799928193,-0.0009429754365705656,0.00032363993114234636,-0.2825433909893036,-52.08279800415039,4.318953514099121,17.62519073486328,-1.1143087148666382,-1.5259506702423096,0.012864691205322742,718,710,686,45.410,0,0
1739353210.7170877,0.35418390247994813,1.1670147180075763,0.2696310300923445,-1.1917616248616663,-1.372474577407752,1.071033279432478,0.13055593714190727,-4.927597577722594e-05,0.0008011755039796262,0.00010186809683265449,-0.00036220720478064906,-0.00016157293726689085,-0.00015376056370757364,0.00017605483673936782,-0.2309686839580536,-52.11056900024414,4.295149803161621,17.65296173095703,-1.1143087148666382,-1.5259506702423096,0.04673920199275017,719,709,686,45.410,0,0
1739353210.7280278,0.3541832779676944,1.1670168612674114,0.2696309092076349,-1.1917637251690951,-1.3724759357274126,1.0710325217904182,0.13055314499206486,-0.0002197988651219626,0.0006900059523483408,-0.0008317772307904268,-0.0013642083968376684,0.0005522797578188083,-0.0004950719284586017,-0.0002000410633424794,-0.2547723948955536,-52.11056900024414,4.318953514099121,17.65296173095703,-1.1014913320541382,-1.5195419788360596,0.03941498324275017,719,711,686,45.410,0,0
1739353210.738073,0.3541811724044469,1.1670146034637294,0.26963331998190265,-1.1917611396496743,-1.3724759357265264,1.0710313026804763,0.13055628895096202,-0.0009830536638657035,-0.0009725647817077843,0.00044791239955823856,-0.000438334557760847,0.0011593849813985972,-0.001260647616218046,-3.243304717476685e-05,-0.2309686839580536,-52.11056900024414,4.295149803161621,17.65296173095703,-1.1014913320541382,-1.5122177600860596,0.03941498324275017,719,709,686,45.301,0,0
1739353210.7491,0.3541874164484282,1.1670146389701326,0.26963046148394665,-1.1917595332953153,-1.3724771546709253,1.071031655891192,0.1305563072058924,0.0004194645995428709,-9.119903688901852e-05,-3.619869030035755e-05,0.0007437174809352546,1.4023075327583958e-05,-0.00024953583176309124,-0.0012684450902106213,-0.2825433909893036,-52.11056900024414,4.295149803161621,17.62519073486328,-1.0941671133041382,-1.5122177600860596,0.03941498324275017,718,710,686,45.410,0,0
1739353210.7600436,0.35418358608357153,1.1670130742759608,0.26963242683261324,-1.1917616333648695,-1.3724759222643372,1.0710339346412574,0.13055542375714385,0.0005566429080650247,-0.0007100809090454146,-0.0007456313979804989,0.0003043499008976775,2.02544518122187e-05,0.0004553999836816904,-0.0013551665930331695,-0.2547723948955536,-52.05899429321289,4.295149803161621,17.65296173095703,-1.1014913320541382,-1.5195419788360596,0.04673920199275017,718,711,686,45.518,0,0
1739353210.7701013,0.35418362107284285,1.1670201414609498,0.26963118857006724,-1.1917565261504521,-1.372475935887804,1.0710332794744233,0.1305626273142374,0.0002840305095122885,0.0022431437507150847,0.00022178270958989158,0.0012057305835877236,0.0003700729495292713,0.0002584435715949814,0.0005289571699268028,-0.2547723948955536,-52.18594741821289,4.295149803161621,17.60138702392578,-1.1014913320541382,-1.5259506702423096,0.012864691205322742,720,710,686,45.518,1,0
1739353210.7810643,0.3541866847326982,1.1670154072434185,0.2696326891133725,-1.1917595450648326,-1.3724752173123054,1.0710332794504966,0.1305618097670808,0.0012912895717556439,0.0002195856290721583,0.0006232934237864026,0.0004465185308799931,0.00013406966162101845,0.0010230687350066827,0.0008312457082510063,-0.2825433909893036,-52.11056900024414,4.295149803161621,17.62519073486328,-1.1079000234603882,-1.5259506702423096,-0.0072769103571772575,719,709,687,45.301,0,0
1739353210.7911322,0.35418117563822893,1.167014717147111,0.26963334278109014,-1.1917574445033534,-1.3724795961422107,1.0710325217904184,0.1305601905796179,-1.0008165479650968e-05,0.0006293518379640612,0.0001870752439135381,0.0013152675576659386,-0.0014600360512982942,-0.00011488059537681096,-0.0002693300974918965,-0.2309686839580536,-52.11056900024414,4.267378807067871,17.60138702392578,-1.1014913320541382,-1.5195419788360596,0.0064559997990727425,717,709,686,45.410,0,0
1739353210.8020153,0.35418548538099887,1.1670147184436341,0.2696312659074174,-1.1917634075368915,-1.3724747736397425,1.0710340327499241,0.13056105208896998,0.0011092979082032465,0.0006040092281446648,0.0003995270258328695,-0.0020060621419033782,0.0005760421069936006,0.0005191873121670406,5.598746105622539e-06,-0.2547723948955536,-52.11056900024414,4.295149803161621,17.67676544189453,-1.1143087148666382,-1.5323593616485596,-0.0008682189509272575,718,708,686,45.410,0,0
1739353210.812108,0.3541832817812137,1.1670191176700095,0.26963300451516503,-1.1917595705816182,-1.3724768035797719,1.0710332663683229,0.13055630281799155,0.00023439466901475393,0.002167462915089625,0.00030055940455626874,0.0009437542980609327,-0.0003505694826509782,-0.0009019012151489268,-0.0011393711557680848,-0.2309686839580536,-52.16214370727539,4.267378807067871,17.62519073486328,-1.0941671133041382,-1.5259506702423096,0.03941498324275017,720,707,686,45.410,0,0
1739353210.822111,0.3541836220596682,1.1670088357355564,0.2696288178684847,-1.191763397400605,-1.3724751782279865,1.0710309113148382,0.13055786487979226,0.00039772342049724624,-0.0019288047098636521,-0.0008067056354909228,-0.000997598086353517,-0.00033583608737840107,-0.0007720977344962125,-0.0002543892854190434,-0.2547723948955536,-52.05899429321289,4.346724510192871,17.67676544189453,-1.1079000234603882,-1.5058090686798096,0.05314789339900017,718,709,686,45.410,0,0
1739353210.833061,0.3541819085844676,1.1670120019603627,0.26962808820034545,-1.1917595479062153,-1.3724768030773093,1.071032168577733,0.13055391041114428,0.0009538406407243361,-0.0008936957516432882,-0.0018132192699293354,0.0005637252037204996,-0.000365783451850739,-0.00017985553596326176,-0.0011794745667780171,-0.2309686839580536,-52.08279800415039,4.295149803161621,17.62519073486328,-1.0941671133041382,-1.5195419788360596,0.05955658480525017,719,710,687,45.410,0,0
1739353210.8440802,0.35418699211254767,1.167016430952204,0.26963453661098774,-1.1917577623948403,-1.372475630371983,1.0710325217844365,0.1305546675596348,0.0014935131691298817,0.0001338632516357366,0.0006109076523944382,-1.163081820133654e-05,0.0005794224578537545,-0.00017270764023119567,-0.0011400235839331252,-0.2825433909893036,-52.13437271118164,4.267378807067871,17.60138702392578,-1.1014913320541382,-1.5195419788360596,0.05314789339900017,719,709,686,45.410,0,0
1739353210.855028,0.3541818253430344,1.1670146301404638,0.2696285132310978,-1.191757762709728,-1.3724775592280811,1.0710316951390426,0.1305594285316372,-0.0014992625602814962,-0.0004058601339302356,-0.001067790255884958,0.0010832449512328138,-0.0002702817141626733,-3.681397977937809e-05,-0.0016080012284725295,-0.2309686839580536,-52.11056900024414,4.318953514099121,17.60138702392578,-1.0877584218978882,-1.5122177600860596,0.012864691205322742,718,710,686,45.301,0,0
1739353210.8660219,0.35418491795469037,1.167010574735078,0.2696302174433799,-1.191761624861669,-1.3724807383597302,1.0710308982333292,0.13055466625948142,0.0011550238424070085,-0.0002403921583144885,-0.001280172398898744,-6.404299993865417e-06,-0.001802269445885074,-0.0006299389670235046,-0.0019919676839502912,-0.2825433909893036,-52.08279800415039,4.295149803161621,17.65296173095703,-1.0877584218978882,-1.5058090686798096,0.05314789339900017,719,709,685,45.518,1,0
1739353210.8761444,0.35418260663054124,1.1670110333828476,0.26963029574810454,-1.191765473833038,-1.3724767673724703,1.0710347947706533,0.13055640812771513,6.935518485673909e-05,-0.0005616022935976638,-0.0011359363422189528,-0.001073755739103216,-0.00014938703920600307,0.0006833794339870796,-0.0012961032309640368,-0.2547723948955536,-52.05899429321289,4.295149803161621,17.67676544189453,-1.0941671133041382,-1.5387680530548096,0.03941498324275017,719,709,687,45.410,0,0
1739353210.887033,0.3541829229330469,1.1670167847380415,0.26963240959605883,-1.1917634065614275,-1.3724757922610527,1.071034037110575,0.13055786493396393,-0.0006284561097853402,0.0005748497810431103,0.00048604587904955987,-0.0006979368190555099,0.00029029118183778276,0.00029594795408555597,-0.0004486730318662756,-0.2547723948955536,-52.11056900024414,4.267378807067871,17.67676544189453,-1.1014913320541382,-1.5323593616485596,0.05314789339900017,717,710,686,45.301,0,0
1739353210.8971324,0.3541846818343184,1.167014003222897,0.269630214096676,-1.1917634071026042,-1.3724726682884987,1.0710316544396357,0.13055628970844974,0.0004078692293901069,-0.00020455678176059815,0.0005898323548112294,-0.0013493762413240582,0.0024920442715499046,-0.00046054072702818424,-0.0002789747447096677,-0.2547723948955536,-52.11056900024414,4.295149803161621,17.67676544189453,-1.1014913320541382,-1.5122177600860596,0.03941498324275017,720,713,686,45.410,0,0
1739353210.9080982,0.3541869132733916,1.1670110069887984,0.2696323516584541,-1.191759545071804,-1.3724775635891533,1.0710316558931614,0.13055836227076772,0.0008054447862656476,-0.0006063608777490508,-0.0003232618391983792,0.000831367449317215,-0.001222061535466317,-0.0008465858134267513,-0.0005143070857106596,-0.2825433909893036,-52.05899429321289,4.295149803161621,17.62519073486328,-1.0877584218978882,-1.5122177600860596,0.012864691205322742,719,710,686,45.518,0,0
1739353210.918113,0.3541811292144154,1.1670125726764238,0.26962843092572103,-1.1917574796132504,-1.372475230394281,1.0710341992457162,0.1305619750359341,-0.0006359900867156992,0.0010673524238241495,-0.0004295446320731245,0.0011030646230019312,-0.00015903038511667293,0.0004287449582795149,0.0012490105737534732,-0.2309686839580536,-52.11056900024414,4.318953514099121,17.62519073486328,-1.1079000234603882,-1.5058090686798096,-0.013685601763427258,719,709,687,45.518,0,0
1739353210.9300616,0.35418570483250406,1.167014664105088,0.2696323842862989,-1.19175884032014,-1.372479398902098,1.071033279522966,0.1305636804862356,0.0003943158603483188,0.0005535083995273494,8.314480575648329e-05,0.0004141827135636736,-0.000982598668132153,0.0001990623353977557,0.001419689472349887,-0.2547723948955536,-52.11056900024414,4.267378807067871,17.65296173095703,-1.1079000234603882,-1.5259506702423096,-0.020094294100999832,720,710,686,45.518,0,0
1739353210.9410758,0.3541847082983051,1.1670184287961072,0.2696309334325506,-1.1917619309741092,-1.372476459012557,1.0710325217904184,0.130558670872335,0.00113801098573552,0.0008664209732850146,-0.0003133945555855372,-0.0006055899745694602,-0.0004999233643479933,-0.0006119258861479362,-0.0010424419704955128,-0.2547723948955536,-52.16214370727539,4.295149803161621,17.65296173095703,-1.1014913320541382,-1.5195419788360596,0.019273381680250168,718,709,687,45.410,0,0
1739353210.9511673,0.3541828926532172,1.1670127175593474,0.26963127300613976,-1.1917654823414912,-1.3724783571512034,1.0710337504007763,0.13055628965427715,0.00044540201934950487,-0.000832134477225811,0.0005063698356138327,-0.0017897456858735421,0.00011312572191269222,-0.00010323065583696937,-0.0012321449191038153,-0.2547723948955536,-52.08279800415039,4.295149803161621,17.67676544189453,-1.1079000234603882,-1.5259506702423096,0.03941498324275017,718,709,686,45.518,0,0
1739353210.9620886,0.3541823020824642,1.1670203710142015,0.26963466478509307,-1.1917595450835237,-1.372475017822404,1.0710325217930767,0.13055944169534886,0.0005142172218594496,0.0031443152866048973,0.00023406602155776112,0.0003003959214876039,0.0012033887363014839,-0.00035500099819853583,0.000590072555527692,-0.2071649730205536,-52.18594741821289,4.267378807067871,17.62519073486328,-1.1079000234603882,-1.5195419788360596,0.012864691205322742,719,710,687,45.518,0,0
1739353210.972118,0.35418538023164914,1.1670118988510612,0.26962881876065636,-1.1917633987083682,-1.3724759223148115,1.0710332794504966,0.13055780497465677,0.0011732187860961298,-0.0010565055486552706,-0.0007001420762572827,-0.0008809785196701983,0.0005689765765762994,-0.00018056205959445746,0.0005119035489043432,-0.2825433909893036,-52.08279800415039,4.346724510192871,17.67676544189453,-1.1014913320541382,-1.5259506702423096,0.026597600430250168,719,710,685,45.301,0,0
1739353210.9830513,0.35418457324369834,1.1670164309597344,0.26962921894562153,-1.1917636911559695,-1.372478752597811,1.0710332794504966,0.13056085021279132,-0.0007516324748828992,0.0003090808691562412,-0.001155953448610612,-0.0013080723564751198,-0.00041751630459251456,-0.00034185662221491113,0.0012599533626963214,-0.2825433909893036,-52.13437271118164,4.318953514099121,17.65296173095703,-1.1014913320541382,-1.5259506702423096,0.012864691205322742,720,709,685,45.301,0,0
1739353210.9930813,0.35418323444737787,1.1670126410299286,0.2696264326463226,-1.1917616250016385,-1.372475935935736,1.0710325217904184,0.13055780499851014,-0.0006494259744208547,0.00012093477673199139,-0.0019141376911735674,-0.0003354543977576321,0.000480854009937699,-0.0001381320647055096,-0.0002993171763115627,-0.2309686839580536,-52.08279800415039,4.346724510192871,17.65296173095703,-1.1014913320541382,-1.5195419788360596,0.026597600430250168,720,706,686,45.410,1,0
1739353211.0040047,0.35418230562497666,1.1670127088335616,0.2696287463661433,-1.1917652153984637,-1.3724759357265275,1.0710340356570247,0.13055470558810978,0.00044764238408599266,-0.0009982395908341825,-0.0016260382600369243,-0.0009203034477974892,0.0003882011695593685,0.0007168785250502258,-0.00046108384442252354,-0.2071649730205536,-52.08279800415039,4.318953514099121,17.70056915283203,-1.1014913320541382,-1.5323593616485596,0.05314789339900017,720,709,686,45.410,0,0
1739353211.0140479,0.354184660459872,1.1670146909713441,0.2696303194067372,-1.1917651902161315,-1.372476803077309,1.0710340371105505,0.1305546660976352,0.0010865770924942545,-0.00012423589814150035,0.0005321855602722043,-0.0008829491292421405,-0.00012075016652183656,0.00048519836033000954,-3.8197461974008e-05,-0.2825433909893036,-52.11056900024414,4.295149803161621,17.70056915283203,-1.0941671133041382,-1.5323593616485596,0.05314789339900017,720,709,686,45.410,0,0
1739353211.0240676,0.3541845703160609,1.1670132523644552,0.2696332848394955,-1.1917618544499284,-1.3724759357265508,1.0710332794504966,0.13055542375704476,0.00016551027233948875,-0.00014284754352206414,0.000737143232666933,-0.0016628181810172044,-0.000333627133295705,-0.00012351029243810988,-0.00021100407847577692,-0.2825433909893036,-52.13437271118164,4.295149803161621,17.65296173095703,-1.1014913320541382,-1.5259506702423096,0.04673920199275017,720,709,686,45.410,0,0
1739353211.0350535,0.3541819562292412,1.1670127459587654,0.26963159196639586,-1.1917597746639608,-1.372475936211043,1.0710316384505831,0.1305546665845114,-1.086640409068908e-05,-0.00033477785642928775,0.0014582215539467609,-0.0008798162279820233,0.0011225297254044693,-0.0005498874224255808,0.00031702110034508723,-0.2071649730205536,-52.08279800415039,4.318953514099121,17.62519073486328,-1.1014913320541382,-1.5122177600860596,0.05314789339900017,719,710,686,45.410,0,0
1739353211.0460365,0.35418398380329463,1.1670164308554043,0.26963545551527124,-1.1917623136268831,-1.3724740875394794,1.0710325217903855,0.13056259224353273,5.132990022614276e-05,0.0013730732920330263,0.001783672665014564,-0.001077809023594202,0.0011964213991925486,-5.6509523778750716e-05,0.0031676429731835962,-0.2309686839580536,-52.13437271118164,4.267378807067871,17.65296173095703,-1.1079000234603882,-1.5195419788360596,-0.0008682189509272575,720,709,685,45.410,0,0
1739353211.0560966,0.35418156437705645,1.1670164639031135,0.2696351305222408,-1.1917616248733314,-1.3724746953239428,1.0710332794504966,0.13055786490565202,-0.000619469561407824,0.00036246970927227424,-0.0006479741986375402,0.0005492059047361892,0.0024152218312151813,-0.0001627035119662561,-0.00028111464308342186,-0.2309686839580536,-52.11056900024414,4.267378807067871,17.65296173095703,-1.1079000234603882,-1.5259506702423096,0.05314789339900017,719,709,687,45.410,0,0
1739353211.0670493,0.3541798580489109,1.1670120076552621,0.26963305742727217,-1.1917651996637817,-1.3724726904185056,1.0710332809040468,0.13054995201182373,-0.0015511300515035618,-0.0006663225529375641,0.0009708944488517373,-0.0020704139833248067,0.00031636271072299976,0.00019159391485647022,-0.0016732536830175635,-0.2071649730205536,-52.08279800415039,4.295149803161621,17.70056915283203,-1.1014913320541382,-1.5259506702423096,0.06596527993679047,720,709,687,45.410,0,0
1739353211.0780346,0.35418183057347735,1.167014715496178,0.26963265412970006,-1.1917634075387393,-1.3724750573671187,1.0710332794505046,0.13056105255843306,-0.000436541228901843,-0.0002629525725209483,0.0006170801713953396,-0.0007157441082132973,0.0008341619375861475,0.0009067286020491102,0.0014538361243915526,-0.2309686839580536,-52.11056900024414,4.295149803161621,17.67676544189453,-1.1079000234603882,-1.5259506702423096,-0.0008682189509272575,719,709,685,45.410,0,0
1739353211.089085,0.35418222683126377,1.167018428905209,0.2696330753541718,-1.1917613069702282,-1.3724751780657665,1.0710332794504966,0.1305594285316371,-8.760620967396715e-05,0.0010991495075509123,-0.00013754360833303939,-0.00022119313573273908,-0.0003052578813417701,0.00041977760933527676,0.0001803200632664919,-0.2071649730205536,-52.16214370727539,4.295149803161621,17.65296173095703,-1.1079000234603882,-1.5259506702423096,0.012864691205322742,718,710,685,45.518,1,0
1739353211.0994296,0.3541808854774919,1.1670164953929871,0.2696305663535379,-1.191763407424286,-1.3724771543398386,1.0710331617129267,0.13055974446078042,-0.0011558842606078398,0.00032918310306067743,0.0005681435390520069,-0.0009606902350420433,0.0006155606532941625,-0.0004266123651512635,0.0016626529816785441,-0.2309686839580536,-52.13437271118164,4.295149803161621,17.67676544189453,-1.0941671133041382,-1.5259506702423096,0.012864691205322742,719,710,686,45.410,0,0
1739353211.1100743,0.354183594734443,1.1670184326848199,0.2696324444383231,-1.1917595453867467,-1.372475974974374,1.0710316558925213,0.13055542424637318,-0.00024224211947033482,0.0024875397264914403,0.0010359431040526256,0.0011410552444000804,0.0009664629764747168,-0.0006027384113281725,-0.0018793651554550898,-0.2547723948955536,-52.16214370727539,4.295149803161621,17.62519073486328,-1.1014913320541382,-1.5122177600860596,0.04673920199275017,718,710,684,45.301,0,0
1739353211.1210682,0.3541829943864857,1.1670157157086567,0.26963090061107253,-1.191761624861669,-1.3724769551378742,1.071034037110575,0.13055867087166897,-0.0006115677337192891,0.0004347211422866779,0.0007810198109836632,-0.00025637564653633454,0.000628218043383843,0.0004349012099604946,-2.4457619302645163e-05,-0.2309686839580536,-52.13437271118164,4.318953514099121,17.65296173095703,-1.1014913320541382,-1.5323593616485596,0.019273381680250168,721,705,686,45.410,0,0
1739353211.1311157,0.35418327409909806,1.1670147184315285,0.2696326342559993,-1.1917595450718115,-1.3724788279483793,1.0710325217904184,0.13056137339626794,-0.0005275503749380264,-3.364202444475057e-05,0.00011523919088084883,0.0009973650243595288,-0.0004279756649302938,-0.00019451104376584286,-6.513257648506766e-05,-0.2547723948955536,-52.11056900024414,4.267378807067871,17.62519073486328,-1.1079000234603882,-1.5195419788360596,-0.0072769103571772575,721,710,686,45.410,0,0
1739353211.1420796,0.3541793900063888,1.1670164309280338,0.26963032732381687,-1.1917618544135895,-1.3724751824477024,1.0710332794504966,0.13055867233183793,-0.0015316663222708672,0.0004611167722186906,0.00014967573724567477,-0.0008200967659983219,-0.0003636279066298047,0.0001423955409396914,0.0006304251339247131,-0.2071649730205536,-52.13437271118164,4.295149803161621,17.65296173095703,-1.1079000234603882,-1.5259506702423096,0.019273381680250168,719,708,686,45.301,0,0
1739353211.1529999,0.3541857276228099,1.1670127205027883,0.2696309251404968,-1.1917616250029344,-1.3724771120968782,1.0710326395279883,0.13055786634221253,0.0005384600929139016,0.00032720198592229465,-0.000775169471441207,-0.0006248571935829701,-0.0006881986451056409,-0.00015631324945367039,-0.0009409002577680291,-0.2547723948955536,-52.08279800415039,4.295149803161621,17.65296173095703,-1.1014913320541382,-1.5195419788360596,0.05314789339900017,719,709,686,45.410,1,0
1739353211.1630278,0.35418327890470386,1.1670163511644642,0.2696287833160842,-1.1917588298160764,-1.3724787102134675,1.0710332794524906,0.13055780519114527,-0.00013963786102198355,0.0011471656802091105,-0.0004649892429432101,-0.0004536085223241364,-0.0005524153751953479,6.365106703225243e-05,-0.0006494629878631634,-0.2309686839580536,-52.13437271118164,4.318953514099121,17.62519073486328,-1.1079000234603882,-1.5259506702423096,0.026597600430250168,721,710,685,45.410,0,0
1739353211.1731122,0.3541857306583403,1.16701471844229,0.26962851210478017,-1.1917595450596985,-1.3724768018450815,1.071031655893186,0.13055735591514847,0.000777787749170871,0.0007910323493923695,-0.001407799264354261,-0.00027799657802658523,0.00044874900086264857,-0.0006850159630532732,-2.773365928769231e-05,-0.2547723948955536,-52.11056900024414,4.318953514099121,17.62519073486328,-1.0941671133041382,-1.5122177600860596,0.03941498324275017,720,710,687,45.410,0,0
1739353211.1840475,0.35418109444484713,1.1670127205027885,0.26962852127984827,-1.1917595559734382,-1.372475178066449,1.0710332789659798,0.1305550683427746,-0.0009590511169385653,-0.00012085515249872928,-0.0011968513714260564,0.0007787713070797795,0.0007896680337878439,0.0003929245019801246,-0.0013480455904709397,-0.2309686839580536,-52.08279800415039,4.318953514099121,17.62519073486328,-1.1079000234603882,-1.5259506702423096,0.04673920199275017,722,709,686,45.410,0,0
1739353211.1940796,0.35418401713763803,1.167014719388449,0.2696315015141737,-1.1917595453869319,-1.3724751955090508,1.0710332794504884,0.13055542391354077,0.00012988905953839196,0.00013805777899760077,-0.00022674306250400578,9.088463585789629e-05,-5.47218033187434e-05,-0.00021943268654875853,-6.726006129133315e-05,-0.2309686839580536,-52.11056900024414,4.318953514099121,17.62519073486328,-1.1079000234603882,-1.5259506702423096,0.04673920199275017,723,710,683,45.301,1,0
1739353211.2050633,0.3541819119766809,1.1670127459035842,0.2696340756428514,-1.1917595362414954,-1.3724759415408256,1.0710332794504966,0.1305539479280322,-7.243208760735799e-05,0.0003717816587411881,0.001872255467759523,0.0005416609695634278,0.0005839550723805819,-0.00025281178168216163,-0.0007494543208446673,-0.2309686839580536,-52.08279800415039,4.243575096130371,17.62519073486328,-1.1014913320541382,-1.5259506702423096,0.05955658480525017,722,710,685,45.518,0,0
