IITGN-Robotics/Franka_IITGN_ROBOTICS/franka_ros/franka_iitgn/data02/s_b_003.csv
time,fr3_joint1_pos,fr3_joint2_pos,fr3_joint3_pos,fr3_joint4_pos,fr3_joint5_pos,fr3_joint6_pos,fr3_joint7_pos,fr3_joint1_vel,fr3_joint2_vel,fr3_joint3_vel,fr3_joint4_vel,fr3_joint5_vel,fr3_joint6_vel,fr3_joint7_vel,fr3_joint1_eff,fr3_joint2_eff,fr3_joint3_eff,fr3_joint4_eff,fr3_joint5_eff,fr3_joint6_eff,fr3_joint7_eff,flexpin1,flexpin2,flexpin3,Force,ContactMic,ContactMic_gt
1739354542.1596718,0.3399587920907487,1.1453026534736102,0.28450589611370897,-1.2258220984127386,-1.3762878108604473,1.0884496867995255,0.10642191340592297,-0.0003815341253284256,0.0010139597577068756,0.002711015721895386,0.002147839866185833,0.0004137416075701505,-0.0011010038965590765,-0.0012309407854484257,-0.6792718768119812,-51.49563980102539,4.497481346130371,17.25623321533203,-1.0483907461166382,-1.3217880725860596,-0.013685601763427258,,,,,,,,,
1739354542.1706862,0.3399605590657828,1.1453008486710032,0.2845227002324757,-1.225800541212937,-1.376285944789041,1.0884467662417199,0.10642822790965581,-0.0007648727759766674,-0.0013702079292184865,0.0020522337117366922,0.0038412846203513414,0.0008507903687726094,-0.0007564524336249424,0.0003012443272028449,-0.6038934588432312,-51.49563980102539,4.572859764099121,17.25623321533203,-1.0685323476791382,-1.3025619983673096,-0.04023589566349983,,,,,,,,,
1739354542.1807318,0.33996007828070696,1.1453038343822468,0.2845341567043381,-1.2257821630209689,-1.3762867041209181,1.0884437434292757,0.10642318069062154,-0.0007305836173800251,-4.100841646688912e-06,0.0001280342517252175,0.003498321997199803,0.0006282861847360684,-0.0010100319325712574,-0.001688072951032882,-0.5047113299369812,-51.54721450805664,4.648238182067871,17.28003692626953,-1.0621236562728882,-1.2760117053985596,-0.027418512850999832,,,,,,,,,
1739354542.1926465,0.3399578064021978,1.1453046710056372,0.2845388980738117,-1.2257692715640596,-1.3762843134031228,1.0884455618586777,0.10642381628286153,-0.0006504634079363303,-0.0003940179997653689,-0.0005214061989313904,0.00021987248486788962,0.0007069737053856934,0.00034731494347312313,-0.0006963550048285956,-0.4293329417705536,-51.51944351196289,4.676009178161621,17.35541534423828,-1.0813497304916382,-1.2824203968048096,0.0064559997990727425,,,,,,,,,
1739354542.2026484,0.33995784296331577,1.1453055303807538,0.2845441182214372,-1.2257539656747003,-1.3762867193885153,1.0884486868361891,0.10642006951212528,-0.000665287609218153,-0.0005571862746839849,0.0010987229875888825,0.0019801425196667244,-0.0008480374668381577,0.0013782655807768286,-0.000989335929477621,-0.4293329417705536,-51.57101821899414,4.648238182067871,17.28003692626953,-1.0749410390853882,-1.2824203968048096,-0.0008682189509272575,,,,,,,,,
1739354542.2136207,0.3399607078111255,1.1453055597990518,0.28454227596951337,-1.2257575135979142,-1.376285188755576,1.0884479154328845,0.10642609940057296,-0.0008571583288512222,-0.0022463721292355658,-0.0001865730063914653,0.0004252050459097673,7.254615896681885e-05,-0.00027496547417065934,0.0008922431714816126,-0.4293329417705536,-51.57101821899414,4.676009178161621,17.35541534423828,-1.0749410390853882,-1.2888290882110596,-0.04023589566349983,,,,,,,,,
1739354542.2237303,0.33996306235633855,1.1453084115234828,0.28454727989663114,-1.2257586734266805,-1.3762821799517608,1.088447069004953,0.10642711394278072,0.0014554188663860944,-0.001713295654654367,0.00011346896829494701,0.0002468142948459939,0.0007855872950756229,-0.0003710068462464447,0.0009004243623324381,-0.4571039378643036,-51.57101821899414,4.648238182067871,17.43079376220703,-1.0749410390853882,-1.2696030139923096,-0.03382720425724983,,,,,,,,,
1739354542.2346945,0.3399610644215247,1.1453105198370939,0.2845480620433002,-1.2257555820554378,-1.3762847843024473,1.0884470509404864,0.10642869181470749,0.0003699702624838858,-0.001398377230482873,-6.467468815448692e-05,0.0005633518106590409,4.5952761819872414e-05,0.0004921251040813728,0.0022581043644946423,-0.4293329417705536,-51.59878921508789,4.676009178161621,17.40302276611328,-1.0813497304916382,-1.2696030139923096,-0.03382720425724983,,,,,,,,,
1739354542.2456312,0.3399613031671527,1.1453149467542412,0.2845455188081659,-1.2257527210153571,-1.3762844321103909,1.088447185082175,0.10642515850365895,-0.00035981442284919855,0.0014520199503140151,-0.0007190894512856943,0.0009138726643320816,0.0003995170103069216,0.0021346096918915887,0.0005058371903158049,-0.4293329417705536,-51.62259292602539,4.676009178161621,17.40302276611328,-1.0813497304916382,-1.2696030139923096,-0.0072769103571772575,,,,,,,,,
1739354542.2566876,0.3399610909165212,1.1453141289613862,0.28454729226231196,-1.2257573967611615,-1.3762844296871588,1.0884462417336795,0.10642018298154243,-0.0006881974605613255,0.00017220837655080614,-0.0005795923723460473,-0.000850188403760412,0.0023617432551941687,0.002467089945939691,-0.0009566180197592402,-0.4293329417705536,-51.65036392211914,4.648238182067871,17.43079376220703,-1.0813497304916382,-1.2622787952423096,-0.0008682189509272575,,,,,,,,,
1739354542.267635,0.33996182454727986,1.1453118220167102,0.28454623377994415,-1.2257545356633242,-1.3762883677689914,1.0884450347102237,0.10641851190086794,-0.0004639987120563454,-0.0022767909676758413,-0.0015332079033959789,-0.0003078585455931087,-0.0006356719691728244,0.0016482226263449759,-0.0016156248439276953,-0.4055292308330536,-51.62259292602539,4.676009178161621,17.40302276611328,-1.0749410390853882,-1.2824203968048096,0.03941498324275017,,,,,,,,,
1739354542.278635,0.33996404421348725,1.1453158417597404,0.28454353274357674,-1.2257515343970482,-1.3762862484568457,1.0884457979080742,0.10642533959508407,0.0010974825227463682,0.00034002892561922995,-0.0010103746236806515,0.001391543638741009,-3.109143712598685e-05,0.0009640862896747615,-0.000642630725726811,-0.4293329417705536,-51.67416763305664,4.699812889099121,17.37921905517578,-1.0749410390853882,-1.2696030139923096,-0.03382720425724983,,,,,,,,,
1739354542.2896965,0.33996256030003713,1.1453199059966914,0.2845477025095997,-1.2257505836700593,-1.3762847843713477,1.08844480263713,0.10643002300050239,0.00039086443928600556,0.0012387889844203647,0.0007110722826250415,0.0007147926634727207,-9.730844192577931e-05,0.001634398776587323,0.0024427475860971555,-0.4055292308330536,-51.70193862915039,4.676009178161621,17.37921905517578,-1.0813497304916382,-1.2760117053985596,-0.05396880581974983,,,,,,,,,
1739354542.2997022,0.3399662015402781,1.1453141292524194,0.28455041660462255,-1.2257487983605158,-1.3762809518279144,1.0884417663967136,0.1064213914378383,0.0014126019284015417,0.0002068028287101048,0.0013320104370439314,0.0002056940122640094,0.001187534174781087,-0.000981265120689013,-0.001953981032783651,-0.4571039378643036,-51.65036392211914,4.648238182067871,17.35541534423828,-1.0813497304916382,-1.2622787952423096,0.026597600430250168,,,,,,,,,
1739354542.309713,0.33996428307099674,1.1453121309728536,0.2845504990235716,-1.2257485144161226,-1.3762855417930526,1.0884461603235662,0.10641893036065307,0.0005372365093622453,-0.0006554818189716812,0.0006742140308293598,-0.0009332668161757478,0.0003098265292124317,0.0005382451105666834,-0.0019338901651517906,-0.4293329417705536,-51.62259292602539,4.648238182067871,17.37921905517578,-1.0749410390853882,-1.2696030139923096,0.012864691205322742,,,,,,,,,
1739354542.320698,0.3399662548432348,1.1453093468063715,0.28455049891595113,-1.2257439424803283,-1.3762833257236982,1.0884440907760788,0.10642509169822358,0.0015195827772838497,-0.00019264387099253625,0.0002527974537267885,0.0012017480013236403,-0.0002513321976597528,0.00015565463150861057,-0.00025820224129819607,-0.4571039378643036,-51.62259292602539,4.648238182067871,17.33161163330078,-1.0941671133041382,-1.2824203968048096,-0.04023589566349983,,,,,,,,,
1739354542.3316975,0.3399642831078607,1.1453158152898073,0.28454663655809215,-1.2257492642960388,-1.3762867046077583,1.0884449335128987,0.10642251558777048,0.0012825519165561505,0.00012505974735650156,-0.00010842786992350061,0.0007769358428677505,0.0005224615255876393,3.8268538978752735e-05,-0.0006540456357250758,-0.4293329417705536,-51.67416763305664,4.699812889099121,17.40302276611328,-1.0621236562728882,-1.2622787952423096,0.0064559997990727425,,,,,,,,,
1739354542.341705,0.33996085803088083,1.1453158672708448,0.2845505359767423,-1.2257440183740507,-1.3762867046054525,1.0884446679414994,0.10641845280041409,-0.0005549115102813096,0.00033850268335465885,0.0009972453251480941,0.0013546873102829311,-2.9930667183980975e-05,0.0014492997753854657,-0.0024418948383833072,-0.3817255198955536,-51.67416763305664,4.676009178161621,17.33161163330078,-1.0621236562728882,-1.2760117053985596,0.012864691205322742,,,,,,,,,
1739354542.3517437,0.339962219158179,1.1453094386143332,0.28454567376225703,-1.2257439159166381,-1.3762866408974748,1.088443870519055,0.10642376511683331,-0.00019019015228001772,-0.002897601783434779,-0.001271950087770177,0.0016071595463538872,-0.00047808158550961355,0.00031266790849055723,-0.0011352724811176393,-0.4293329417705536,-51.59878921508789,4.699812889099121,17.33161163330078,-1.0749410390853882,-1.2696030139923096,0.0064559997990727425,,,,,,,,,
1739354542.36267,0.33996257057562645,1.1453157194394012,0.2845466365526578,-1.2257453355017291,-1.3762860051494084,1.0884415936924257,0.10642428602969584,-0.00039504478855369445,0.0010133975620165601,0.00010988459363722463,0.00017015133382622304,-0.0008018351875091641,-0.0005637523074821753,0.00047423218174739296,-0.4055292308330536,-51.70193862915039,4.699812889099121,17.37921905517578,-1.0685323476791382,-1.2622787952423096,-0.027418512850999832,,,,,,,,,
1739354542.372681,0.3399611730313695,1.14531581512561,0.2845504990249673,-1.2257492374186683,-1.376285190739832,1.0884463942181146,0.10642368835532288,-0.00032371058072768057,0.0009352455072260282,0.0010678034728256024,-0.00021174276923562329,0.00022089888270077643,0.0007579997892518816,0.0013218078935133004,-0.3817255198955536,-51.67416763305664,4.648238182067871,17.40302276611328,-1.0749410390853882,-1.2760117053985596,-0.027418512850999832,,,,,,,,,
1739354542.383683,0.3399608618845666,1.1453176012836097,0.2845484187990468,-1.2257482033265346,-1.376288356086768,1.0884459912422082,0.10642287727182784,-0.0007207727293044231,0.0007713730289244402,0.00046863950480498684,0.0003167525408228908,-0.001202014425999826,0.0010429012083654496,0.0004901794775335764,-0.3817255198955536,-51.70193862915039,4.676009178161621,17.40302276611328,-1.0749410390853882,-1.2696030139923096,0.0064559997990727425,,,,,,,,,
1739354542.3937027,0.3399625744035849,1.1453178392622365,0.28455049902496,-1.2257466512011113,-1.3762851859473086,1.0884441300070402,0.10641730289398567,-0.00015983118033701483,0.001230077074247952,0.0007550206763864596,0.001214980286291148,0.00013577366908041808,0.00046688112816970135,-0.002368194189944377,-0.4055292308330536,-51.70193862915039,4.648238182067871,17.37921905517578,-1.0749410390853882,-1.2824203968048096,0.026597600430250168,,,,,,,,,
1739354542.4046535,0.33996502371780457,1.145314231747299,0.28454452348667675,-1.2257452207029127,-1.3762853067536656,1.088443635020201,0.1064231311719179,0.0011713763769335868,0.00010374034770406829,-0.0008779831727968659,-0.0002918707517480017,9.168580299213656e-05,-0.0005674861768578633,0.0008178962394407702,-0.4055292308330536,-51.62259292602539,4.699812889099121,17.37921905517578,-1.0749410390853882,-1.2696030139923096,-0.013685601763427258,,,,,,,,,
1739354542.4146652,0.3399609371435394,1.1453158419020362,0.2845504988801661,-1.2257453772826958,-1.3762844311426903,1.0884432158081494,0.10641811748019743,-0.0008990715666348243,0.00176351586143909,0.000849851612522568,0.0007842497268565388,-0.0002686110763712439,-0.0011110710863097616,-0.0007559304057786842,-0.3817255198955536,-51.67416763305664,4.648238182067871,17.35541534423828,-1.0813497304916382,-1.2760117053985596,0.019273381680250168,,,,,,,,,
1739354542.425632,0.3399625965524381,1.1453158427062946,0.28454841923511104,-1.225748918144543,-1.376285188800771,1.088440951985383,0.10642078187731109,6.191062637474584e-05,0.0004580735804606091,0.0006070374297905061,-0.0004921193366022762,0.0011838175761913357,-0.0006779013964080901,-0.000992553067614042,-0.4055292308330536,-51.67416763305664,4.676009178161621,17.40302276611328,-1.0749410390853882,-1.2558701038360596,-0.0072769103571772575,,,,,,,,,
1739354542.4356833,0.3399628315188291,1.1453178397023553,0.2845466247843358,-1.2257489858396031,-1.376285307991891,1.0884475715957775,0.10641877305001045,0.0004452388028692698,0.0004625002304724069,0.0004708757101909973,-0.0004956226375891621,-0.00017154717017868855,0.0015198970079846855,-0.0005137391482911955,-0.4055292308330536,-51.70193862915039,4.699812889099121,17.40302276611328,-1.0749410390853882,-1.2760117053985596,0.012864691205322742,,,,,,,,,
1739354542.4466279,0.33996089280652425,1.1453141334399002,0.2845484192710477,-1.225746435001904,-1.3762882654080197,1.0884408733567528,0.10642002889954444,-0.002490461860544974,-7.163451057761529e-05,0.0004077014909434969,0.00011988374204461718,-0.0005853679370261537,-0.0008679484933701096,-0.0005872245570227447,-0.3817255198955536,-51.65036392211914,4.676009178161621,17.37921905517578,-1.0877584218978882,-1.2558701038360596,0.026597600430250168,,,,,,,,,
1739354542.456752,0.33996478454340817,1.145315038436505,0.28454568288377696,-1.2257442627639288,-1.3762844443004096,1.0884446680470767,0.10641917687033974,-9.855614366759138e-05,-0.0003455790614623922,-0.0005490506632178843,0.00020806269195606755,-0.00015911672176983403,0.000690035376359098,-0.002084451913306679,-0.4055292308330536,-51.65036392211914,4.699812889099121,17.37921905517578,-1.0813497304916382,-1.2760117053985596,0.0064559997990727425,,,,,,,,,
1739354542.466858,0.33996562172835176,1.1453141548709378,0.2845445567520867,-1.2257461250950532,-1.3762838943337468,1.0884432547356582,0.10642464285866961,-0.00017413320183063893,-0.00044760341957597783,-0.0008875464753797995,1.220620032853204e-06,4.010652486942379e-05,0.0009634251182251131,0.00011288663559471345,-0.4055292308330536,-51.65036392211914,4.727583885192871,17.40302276611328,-1.0749410390853882,-1.2760117053985596,-0.0008682189509272575,,,,,,,,,
1739354542.4777052,0.33996297406531484,1.1453121328262745,0.284548410404794,-1.2257488403411854,-1.37628823906268,1.0884426516000756,0.1064237496826731,-0.0004724964937510037,-0.000948304319220693,-0.00017819919759368542,-0.0004902309503508426,-0.0010521177646795289,0.0005580966507050707,-0.0011761123078992755,-0.3817255198955536,-51.62259292602539,4.676009178161621,17.43079376220703,-1.0621236562728882,-1.2622787952423096,-0.0008682189509272575,,,,,,,,,
1739354542.4886725,0.33996130802526864,1.1453123608518334,0.284548419235062,-1.2257449778778982,-1.3762855434756958,1.0884442894833084,0.10642748406082175,-0.0004592598022872814,-0.0011235771483394373,-0.0006790030326912686,0.0005506513323273061,0.00024162849429984668,-2.058095848772095e-05,0.0013477365547223956,-0.3539545238018036,-51.62259292602539,4.676009178161621,17.37921905517578,-1.0749410390853882,-1.2760117053985596,-0.03382720425724983,,,,,,,,,
1739354542.4996483,0.339965728309801,1.1453148190916143,0.2845466368821134,-1.2257442629492095,-1.3762844316272116,1.0884428636747143,0.10642377265422692,0.001420328457400878,0.0001879679059866564,-0.00046715018004357667,-0.0007042710419467701,0.0002952883494808193,-0.0003267828762725056,-0.00014568944678914502,-0.4055292308330536,-51.65036392211914,4.699812889099121,17.37921905517578,-1.0813497304916382,-1.2696030139923096,0.0064559997990727425,,,,,,,,,
1739354542.509685,0.3399611300718717,1.1453161955467899,0.28454884086704635,-1.2257445775661282,-1.376284431140701,1.0884427691289584,0.10642126511511626,-0.0005187795937016201,-0.00012396296737249675,-0.0002659086413147941,0.00017262936743214915,0.00019142815363514388,-0.00029175764021478377,-0.00033248751349174534,-0.3817255198955536,-51.65036392211914,4.699812889099121,17.37921905517578,-1.0813497304916382,-1.2622787952423096,-0.0008682189509272575,,,,,,,,,
1739354542.5206938,0.3399657294388241,1.1453141296023481,0.28454655713367877,-1.2257429458553917,-1.3762859464608495,1.0884432167638902,0.1064270477652247,-0.000365308770928864,-0.0008678223118753715,-0.000261853366178078,0.0006744782320106681,0.0001999435366102741,0.0007760967973681253,0.0009620247739314644,-0.4055292308330536,-51.65036392211914,4.699812889099121,17.40302276611328,-1.0685323476791382,-1.2760117053985596,-0.020094294100999832,,,,,,,,,
1739354542.5317156,0.339967364117373,1.145312168147407,0.28454947108874373,-1.2257460455697018,-1.3762859464608495,1.0884458307834417,0.10642982163317813,-1.45831347556419e-05,-0.000818247787653477,0.0002511533532507915,-0.0003614247730129923,0.00012607418965996,0.0013763322228270876,0.0023419470951634522,-0.4293329417705536,-51.62259292602539,4.699812889099121,17.40302276611328,-1.0685323476791382,-1.2622787952423096,-0.04756011441349983,,,,,,,,,
1739354542.542662,0.3399657295976378,1.1453175501668638,0.2845504989212848,-1.2257421443890302,-1.3762894292913552,1.08844321531167,0.10641964592460212,0.0011720961681804705,0.00127537327087683,0.0006940932604779803,0.0005424434826805501,-0.0008318623597521246,-0.0009032972744423442,-0.0013622128830717546,-0.4055292308330536,-51.70193862915039,4.648238182067871,17.35541534423828,-1.0749410390853882,-1.2760117053985596,0.0064559997990727425,,,,,,,,,
1739354542.5526717,0.33996191104627127,1.145315841756583,0.28454734519109004,-1.2257442537821228,-1.3762837129597896,1.0884479249679964,0.10641815494417049,-0.0010088414792903432,0.00021447093796891312,-0.0005504770188114348,-5.3963499273642366e-05,-0.000826288692132927,0.0015285075913325408,0.00038413581207303584,-0.3817255198955536,-51.67416763305664,4.699812889099121,17.37921905517578,-1.0877584218978882,-1.2760117053985596,0.019273381680250168,,,,,,,,,
1739354542.5626903,0.3399637050368272,1.1453141293457336,0.284546662923767,-1.225744236018004,-1.3762851907395064,1.0884424729048987,0.10642445258875892,-0.0011300345824621217,9.596184638504905e-06,-0.0001649061951515183,3.3499576812972913e-05,-0.00038052447346328006,-0.0005836978724482445,0.0003163664058064109,-0.3817255198955536,-51.65036392211914,4.699812889099121,17.37921905517578,-1.0749410390853882,-1.2696030139923096,-0.0072769103571772575,,,,,,,,,
1739354542.573649,0.3399678666964417,1.1453134204896558,0.2845468727329025,-1.2257478837228293,-1.3762836734806252,1.08844321530378,0.10642596153690599,0.0011508898139846453,0.00013057138148131497,0.0009872595814727058,-0.00118732409917648,0.0017716349086162435,-0.0006136171975480063,0.0008647244596160634,-0.4055292308330536,-51.65036392211914,4.699812889099121,17.43079376220703,-1.0877584218978882,-1.2760117053985596,-0.013685601763427258,,,,,,,,,
1739354542.5836835,0.3399640171132453,1.1453159656077945,0.2845481808205324,-1.2257460354795906,-1.3762844317867151,1.0884456372040257,0.1064257189790162,-0.00019469297219024606,0.000507873399041014,0.0005159229264325368,0.0009090618510934804,0.0009378208201782044,0.0002898702713332637,-0.0001818725527269376,-0.3817255198955536,-51.65036392211914,4.676009178161621,17.40302276611328,-1.0813497304916382,-1.2696030139923096,-0.04756011441349983,,,,,,,,,
1739354542.594731,0.3399657295977848,1.1453158417718527,0.284548844108929,-1.2257459439964593,-1.3762883677151627,1.0884435172996934,0.10642580190482019,0.00048245737595711976,0.0014558967400427687,8.328029666812694e-05,-0.000956676798753291,-0.0009888835519994644,-0.00027832526176692986,-0.0019108518829323647,-0.4055292308330536,-51.67416763305664,4.699812889099121,17.43079376220703,-1.0749410390853882,-1.2696030139923096,-0.013685601763427258,,,,,,,,,
1739354542.6056962,0.33996401707705337,1.1453158800261964,0.2845445568167012,-1.225742865023908,-1.376285306610121,1.088446752890574,0.10643015848810951,-0.0003263812167392309,0.00015219256143066451,-0.00036296969137648524,0.0012036441836531485,0.0001756086206345452,0.001327848305313077,0.0027654941087365817,-0.3817255198955536,-51.67416763305664,4.727583885192871,17.40302276611328,-1.0749410390853882,-1.2696030139923096,-0.04756011441349983,,,,,,,,,
1739354542.6156964,0.3399657295977846,1.1453185969262494,0.28454841923511265,-1.225745806822705,-1.376284313405118,1.0884462233147238,0.10642929259087722,0.0005120588478408343,0.000608543388584232,9.795324267859436e-05,-0.0005610699708282467,-0.0002056600730496153,0.0020193508300041575,-0.0009481471065246346,-0.4055292308330536,-51.67416763305664,4.676009178161621,17.40302276611328,-1.0813497304916382,-1.2622787952423096,-0.04023589566349983,,,,,,,,,
1739354542.6266863,0.3399657295977846,1.1453171139037057,0.28455049902496743,-1.2257481246112476,-1.3762866016509454,1.0884447706869163,0.10642160769620136,0.0004994605898910809,0.0006526605081443537,0.001159589111090472,-0.001608326733699124,-0.0001787542742961751,-0.0006006106118472346,-0.003871252692420566,-0.4055292308330536,-51.65036392211914,4.648238182067871,17.43079376220703,-1.0749410390853882,-1.2622787952423096,0.012864691205322742,,,,,,,,,
1739354542.637618,0.3399641766771692,1.1453162127566587,0.2845466365580928,-1.2257414467939252,-1.3762877637670325,1.0884436864334242,0.10642001604270998,-0.0008062411044959729,-0.0004093180903443666,-0.0001960469064724775,0.0005878740161401584,-0.002179972866930114,-0.0004335527646483798,-0.002185927314390314,-0.3539545238018036,-51.67416763305664,4.699812889099121,17.35541534423828,-1.0621236562728882,-1.2760117053985596,0.026597600430250168,,,,,,,,,
1739354542.6476364,0.33996605635607924,1.145316501659072,0.28455051068970816,-1.225739981881835,-1.3762844442405902,1.0884432153116723,0.10642243093586205,0.0005225186512424798,0.0003933832647578374,0.0018214969038233392,0.0018314217651337244,-0.000125877887279866,-0.0005235366139957284,-0.0004205930625223379,-0.4055292308330536,-51.65036392211914,4.648238182067871,17.33161163330078,-1.0813497304916382,-1.2760117053985596,0.019273381680250168,,,,,,,,,
1739354542.6577628,0.3399640436825565,1.145310418819348,0.2845484192353094,-1.2257403076708238,-1.3762883677153808,1.0884456365580035,0.10642894275556736,-0.0006479080871866984,-0.0020775121296733316,-7.241286641690759e-05,0.0007796981605444506,-0.0002420288048496091,0.0007562884259599194,0.0014522207377444774,-0.3817255198955536,-51.59878921508789,4.676009178161621,17.35541534423828,-1.0749410390853882,-1.2696030139923096,-0.04023589566349983,,,,,,,,,
1739354542.6686823,0.3399627343920878,1.1453144272175089,0.28454841923511187,-1.2257437906084157,-1.3762859508932803,1.0884463942360267,0.10642602114656688,-0.0011810474212229415,-0.0008144222646753274,-0.0003155119788482432,-0.0002613714986807656,-0.0006191869377142002,0.0012697748031041604,0.0001774673749424257,-0.3539545238018036,-51.62259292602539,4.676009178161621,17.40302276611328,-1.0685323476791382,-1.2760117053985596,-0.020094294100999832,,,,,,,,,
1739354542.680743,0.3399642554996701,1.1453166073835872,0.28454687309311305,-1.2257438628857362,-1.3762851888007959,1.0884417620450475,0.10641956561757089,-0.0004520582955738747,3.921813609158553e-05,-0.00022649212004749068,-0.0009482061576730138,-0.0007789846391729464,-0.0007867773464527942,-0.0011116841824275422,-0.3817255198955536,-51.67416763305664,4.699812889099121,17.40302276611328,-1.0749410390853882,-1.2622787952423096,0.0064559997990727425,,,,,,,,,
1739354542.6916742,0.3399621339307796,1.1453179847926194,0.2845456828842215,-1.2257481207081273,-1.376285188800771,1.0884424968897923,0.10642020027028298,-0.0014276321541701708,0.0009804969112739512,-0.001458632099745096,-0.002074762095743491,0.000224133407086363,-0.001299349285690615,-0.001825861585498114,-0.3539545238018036,-51.67416763305664,4.699812889099121,17.43079376220703,-1.0749410390853882,-1.2696030139923096,-0.0008682189509272575,,,,,,,,,
1739354542.7016857,0.33996413198214437,1.1453178897770988,0.2845484192189613,-1.2257411628494719,-1.376285946945366,1.0884456370431848,0.10642323701782128,-7.921830540452536e-05,0.00029013231410829744,0.00047293872148834086,-0.0004726645289458661,0.0007544167525715888,0.0003971604462153507,0.00022350077945387063,-0.3817255198955536,-51.70193862915039,4.676009178161621,17.37921905517578,-1.0685323476791382,-1.2696030139923096,-0.0008682189509272575,,,,,,,,,
1739354542.7126203,0.3399650797682868,1.1453124374178665,0.28454912786811076,-1.2257431577637414,-1.3762870191809338,1.0884432153216417,0.1064250023590193,-0.0004554571358232254,-0.0005371254844061122,-0.00017305383724224927,-0.0003768257308699591,-0.0005221368000019303,1.0699866158335458e-05,-0.001114752179756001,-0.3817255198955536,-51.62259292602539,4.676009178161621,17.40302276611328,-1.0685323476791382,-1.2760117053985596,-0.03382720425724983,,,,,,,,,
1739354542.722743,0.3399705546959866,1.1453141292563076,0.28454663659409507,-1.2257460186574871,-1.3762867099896283,1.088445754295574,0.10642723274994217,-0.00015311628217348,-0.001438840306424269,-0.0009154627956113917,0.00047916410165294937,-0.00028947129391539427,0.0025004245376761217,0.0019260887886199621,-0.4293329417705536,-51.65036392211914,4.699812889099121,17.40302276611328,-1.0621236562728882,-1.2696030139923096,-0.03382720425724983,,,,,,,,,
1739354542.732756,0.33996688236920763,1.1453134140899965,0.28455049891595136,-1.2257435430742623,-1.3762829158205692,1.0884456409372636,0.10642683345253012,-0.0002675769005284252,-0.0005839568312341482,0.0010129159801234504,0.001080243644501002,0.0023730187726783763,0.00019207064749432733,0.00263213848054437,-0.3817255198955536,-51.65036392211914,4.648238182067871,17.37921905517578,-1.0941671133041382,-1.2696030139923096,-0.05396880581974983,,,,,,,,,
1739354542.7427723,0.33996719745717685,1.1453161954139799,0.28455049902496554,-1.225741446672726,-1.3762852280466276,1.0884429680551666,0.1064239088896503,0.00041871685454393233,-0.0008770844235080342,0.0008568007263463605,0.0006527311800094515,-0.00012044556195018844,0.0016718000294748674,-0.0008351804355785729,-0.3817255198955536,-51.65036392211914,4.648238182067871,17.35541534423828,-1.0749410390853882,-1.2696030139923096,0.0064559997990727425,,,,,,,,,
1739354542.7536292,0.3399672342741049,1.14531584177315,0.28454733636077406,-1.2257413971923516,-1.376285345784419,1.0884415917492642,0.10642945528897371,-0.00014933066600913666,0.00033938687889490966,-0.00023860116122023257,0.0010491168632701942,-0.00036700076537650797,-0.0008186522457092706,0.00202233342495354,-0.3817255198955536,-51.67416763305664,4.699812889099121,17.37921905517578,-1.0749410390853882,-1.2622787952423096,-0.04023589566349983,,,,,,,,,
1739354542.7636402,0.33996679027154386,1.145312358364639,0.2845485242296296,-1.225741999064815,-1.3762844317893734,1.0884424576436154,0.10642925225401878,0.00011749351887497801,-0.0012058503006504547,0.0005863843102335113,0.0005771022317603345,0.0006707441554640215,-0.0004267766431977687,0.0019688502424698023,-0.4055292308330536,-51.62259292602539,4.676009178161621,17.37921905517578,-1.0813497304916382,-1.2696030139923096,-0.04756011441349983,,,,,,,,,
1739354542.7736473,0.3399681265564416,1.145319552226916,0.2845466404481178,-1.2257411499472928,-1.3762840281468853,1.0884464116606847,0.10642688708252863,0.0006860292788749184,0.000962837263681129,-0.0006716046203661687,0.001187078026119674,0.0010889110594247224,0.0013437663576658808,0.0002477529254572919,-0.4055292308330536,-51.72574234008789,4.699812889099121,17.37921905517578,-1.0877584218978882,-1.2760117053985596,-0.027418512850999832,,,,,,,,,
1739354542.784648,0.33996894809860895,1.1453158417614864,0.2845484222953282,-1.2257449860529928,-1.3762824354182068,1.0884456365760469,0.1064234152055132,0.00042850117007788875,0.00019196669832951358,0.00013707821182092127,-0.0008677118319749098,1.1687084342779395e-05,-0.00038227902490487527,-0.00023583596615155513,-0.4055292308330536,-51.67416763305664,4.676009178161621,17.43079376220703,-1.0813497304916382,-1.2696030139923096,-0.020094294100999832,,,,,,,,,
1739354542.794723,0.3399649990413877,1.1453120546614652,0.2845468727691443,-1.2257477677855262,-1.376287359600902,1.0884418953933253,0.1064279466137091,-0.0013081994282001389,-0.0012221669358520564,-0.00026823297708041525,-0.0011696580038801016,0.0003867707278191497,-0.0009797848174818062,0.001305022574219136,-0.3539545238018036,-51.62259292602539,4.699812889099121,17.43079376220703,-1.0685323476791382,-1.2558701038360596,-0.027418512850999832,,,,,,,,,
1739354542.805686,0.33996499794987983,1.1453159182904742,0.2845445566605544,-1.225745926574409,-1.3762851902622983,1.0884450726448132,0.10642759829797009,-0.0007763473346052074,0.001091431981019194,3.790387007156638e-05,-0.0006339720558349035,0.0002598298070859676,0.00023903094838796863,-0.0001547189851260906,-0.3539545238018036,-51.67416763305664,4.727583885192871,17.40302276611328,-1.0749410390853882,-1.2558701038360596,-0.027418512850999832,,,,,,,,,
1739354542.8166955,0.3399672357265173,1.1453195900508018,0.2845487624570892,-1.2257428624191595,-1.376285086385297,1.0884424969133988,0.10642313209860922,0.0008294467560994614,0.001130590411975883,0.0008808629311014978,0.0006999741365058853,-0.00034615516478522286,0.0003090909455558849,0.0009323678163841,-0.3817255198955536,-51.72574234008789,4.699812889099121,17.40302276611328,-1.0877584218978882,-1.2696030139923096,0.012864691205322742,,,,,,,,,
1739354542.8267236,0.33996720934492486,1.1453152421763673,0.2845504990609697,-1.2257431986744571,-1.3762851888246985,1.088443994531407,0.10642339481425352,-2.0450713284034358e-05,-0.000718174166161208,0.0010627589629322854,9.68564494844008e-05,5.127115446100969e-06,0.0006426172640096736,-0.00041433068721144175,-0.3817255198955536,-51.65036392211914,4.648238182067871,17.37921905517578,-1.0749410390853882,-1.2696030139923096,-0.0008682189509272575,,,,,,,,,
1739354542.8376155,0.33996723576372456,1.1453158418727476,0.284546636558093,-1.2257438611481979,-1.3762852282619684,1.088442379757244,0.10642158044392347,0.0007832713908115067,0.0009003981437304657,0.000868342645851609,0.00039387669255735026,-0.0002199296771937339,0.0010477247878477093,-0.000612499444417366,-0.3817255198955536,-51.67416763305664,4.699812889099121,17.40302276611328,-1.0749410390853882,-1.2558701038360596,-0.013685601763427258,,,,,,,,,
1739354542.8476493,0.3399672004066009,1.145314129240757,0.28455049902496743,-1.2257431985823544,-1.3762859464615176,1.0884448142934544,0.1064223233704157,6.1028097514181624e-05,-0.00031083062727054714,0.0013544072018782632,-0.0006491652633980665,-0.00026412296947446955,-0.0006681318481103018,0.0014584785477669564,-0.3817255198955536,-51.65036392211914,4.648238182067871,17.37921905517578,-1.0685323476791382,-1.2622787952423096,-0.0072769103571772575,,,,,,,,,
1739354542.8576806,0.33996720923631985,1.1453134139850178,0.28454841923511187,-1.2257449064706685,-1.3762884202044734,1.088443215358268,0.10642236676262144,-0.0005842362235992081,-0.0016258794825685097,0.0006354960070287475,-0.0016613790721412718,-0.001030240755926173,-0.00041950073925670794,-0.0010039366927883618,-0.3817255198955536,-51.65036392211914,4.676009178161621,17.43079376220703,-1.0749410390853882,-1.2760117053985596,0.0064559997990727425,,,,,,,,,
1739354542.868702,0.3399665204719844,1.1453141292717104,0.2845505455661363,-1.2257474044032752,-1.3762840311260514,1.0884458081307677,0.1064243103768819,-0.00040221013415106175,-0.0009752363779502436,0.0010248528847076074,-0.0015354150492660798,-3.68585756488648e-05,0.00030162531093728663,0.0011436765478070776,-0.3817255198955536,-51.65036392211914,4.676009178161621,17.45459747314453,-1.0877584218978882,-1.2696030139923096,-0.0072769103571772575,,,,,,,,,
1739354542.8796816,0.33996523778298054,1.1453188398017564,0.28454455678024043,-1.225742826648362,-1.3762843177657924,1.0884425143509884,0.1064290559537173,-0.0014174107643022773,0.0003456863697098144,-0.0014589103574430724,0.00012149834439729476,0.0009493252878536836,6.112738598855591e-07,0.0017438864830475265,-0.3539545238018036,-51.72574234008789,4.727583885192871,17.40302276611328,-1.0813497304916382,-1.2696030139923096,-0.04023589566349983,,,,,,,,,
1739354542.891676,0.3399671562550115,1.1453161478751466,0.2845504990249675,-1.225742122640284,-1.376287507585123,1.0884424592589912,0.10642821851930032,8.230116877366167e-05,8.455724781430737e-05,0.0009530814365120907,0.0008381677386828841,-0.0010553696705329434,-0.00045274050032323703,-0.0005206682352364789,-0.3817255198955536,-51.67416763305664,4.648238182067871,17.35541534423828,-1.0941671133041382,-1.2696030139923096,-0.03382720425724983,,,,,,,,,
1739354542.901725,0.33996894828415614,1.145316886029751,0.284544530277284,-1.225742862090764,-1.3762844442485656,1.0884464392781483,0.10642553235403891,0.0008280111701792451,-0.000136081854146179,-0.0011985413012323865,-6.075416779943049e-05,0.0008464322004134807,0.0023702545818039366,-0.001421189142850034,-0.4055292308330536,-51.70193862915039,4.727583885192871,17.40302276611328,-1.0813497304916382,-1.2760117053985596,-0.0072769103571772575,,,,,,,,,
1739354542.912702,0.3399635255903081,1.145312135377918,0.28454849797166315,-1.2257420771150815,-1.3762844442228668,1.088446222812065,0.10642463758413806,-0.0015050454192605993,-0.001308183588587087,0.00113489069351318,-0.0012770596943364513,0.001183203940251367,0.001740127438022826,-0.0015545275082233339,-0.3301508128643036,-51.62259292602539,4.676009178161621,17.37921905517578,-1.0813497304916382,-1.2622787952423096,-0.0008682189509272575,,,,,,,,,
1739354542.9236388,0.339967238644057,1.1453179080558462,0.2845465296132816,-1.2257449153027804,-1.3762836734806387,1.0884433767103205,0.10642360442459825,0.00018943367817170776,0.0005179253728171676,-0.00016545294737689003,-0.001677851928305512,0.0007143662675891831,0.0009671489292676031,0.00026583646855886313,-0.3817255198955536,-51.67416763305664,4.699812889099121,17.43079376220703,-1.0877584218978882,-1.2760117053985596,-0.0008682189509272575,,,,,,,,,
1739354542.9336553,0.33996918543171323,1.1453121407829716,0.28454841923330076,-1.2257410439674554,-1.376286103444276,1.0884435728797877,0.10642374755373733,0.0005196889668288452,-0.0003289640092604488,5.647257325967446e-05,0.0019055194602308272,-4.481381606372234e-05,0.0016295865053139115,0.0003925320223007294,-0.4055292308330536,-51.62259292602539,4.676009178161621,17.37921905517578,-1.0685323476791382,-1.2760117053985596,-0.0008682189509272575,,,,,,,,,
1739354542.944611,0.33996723798826944,1.1453144300169922,0.28454947109008877,-1.2257410444397092,-1.3762863007675954,1.0884463956736505,0.10642677026573183,3.6024078123838784e-05,-0.00024408812424999327,0.0009054475984762729,0.0006776009290899293,-0.001604539654757367,0.0005875497071778706,0.0009698430490782393,-0.3817255198955536,-51.62259292602539,4.699812889099121,17.37921905517578,-1.0749410390853882,-1.2760117053985596,-0.027418512850999832,,,,,,,,,
1739354542.954682,0.33996515831419677,1.1453158409242474,0.28455073571599754,-1.2257428266443324,-1.3762872056265434,1.0884417620271272,0.10641677862150181,-0.0012573225376137547,-0.0005583894826674664,0.0011541548081417615,0.0005876299320150339,-0.0009809343413793895,0.0009593350917496852,-0.0029893593538252617,-0.3539545238018036,-51.67416763305664,4.648238182067871,17.40302276611328,-1.0877584218978882,-1.2622787952423096,0.026597600430250168,,,,,,,,,
1739354542.9656858,0.33996523778656956,1.1453130572679528,0.2845445839873017,-1.2257428011345175,-1.3762886697669843,1.0884432545505116,0.10642394685010868,-0.0009245621009130098,-0.0015797768151476668,-0.0002901953741501297,-0.0003318829828718843,-0.0008987930923698419,0.0003697728650856151,0.00015602822070989817,-0.3539545238018036,-51.67416763305664,4.727583885192871,17.40302276611328,-1.0813497304916382,-1.2760117053985596,0.0064559997990727425,,,,,,,,,
1739354542.9756992,0.33996723561885495,1.1453159182437511,0.2845438017812712,-1.2257392623800167,-1.3762890244312516,1.0884416091896505,0.10642150811068535,0.000388292508091384,0.00028678647442179344,0.0001316734922522951,-4.62837221678689e-05,0.0006167285433480395,-4.193978548038743e-05,-0.0007580530072841033,-0.3817255198955536,-51.67416763305664,4.699812889099121,17.35541534423828,-1.0813497304916382,-1.2622787952423096,0.026597600430250168,,,,,,,,,
1739354542.9866407,0.3399672357638729,1.145317920011422,0.284547808766771,-1.22574112376722,-1.3762859467021193,1.0884408340864031,0.10642790735391591,-0.00045381564351490195,-0.00028613818313103076,0.00046153277564561746,0.0005623488166195162,0.0008408072627651526,0.0001639426441871653,0.0006552162234549682,-0.3817255198955536,-51.70193862915039,4.699812889099121,17.37921905517578,-1.0685323476791382,-1.2558701038360596,-0.027418512850999832,,,,,,,,,
1739354542.9966757,0.3399693655151157,1.1453158156918075,0.2845445567880887,-1.2257411234415163,-1.3762883677151632,1.0884463943795872,0.10642553636207712,0.0011799217870640446,-0.0004547149122139905,-0.001748481883994897,0.0003680152688574965,-1.910300843609863e-05,0.001706681170128036,-0.0002750864409218281,-0.3817255198955536,-51.67416763305664,4.727583885192871,17.37921905517578,-1.0749410390853882,-1.2760117053985596,-0.020094294100999832,,,,,,,,,
1739354543.007608,0.33996524201130834,1.1453158756653985,0.28454245609076323,-1.2257410468062144,-1.376285188818716,1.08844369063257,0.1064211057674247,-0.0012467422071269795,0.0001990465496660209,-0.0008004745594469417,0.0008972070784584456,0.0010625854701036062,0.0005377298097016712,-0.003175680951603023,-0.3539545238018036,-51.67416763305664,4.751387596130371,17.37921905517578,-1.0749410390853882,-1.2760117053985596,-0.0008682189509272575,,,,,,,,,
1739354543.0176547,0.33996893941835626,1.1453093857375476,0.28454839273877325,-1.2257407379586878,-1.376284431140693,1.0884413181265864,0.10642319066870903,0.0006896293707947364,-0.003746333500617995,0.0007863637091004435,-0.00011045612846333284,0.0018174551378206522,2.9647120865542397e-05,0.0006448820284868531,-0.4055292308330536,-51.59878921508789,4.676009178161621,17.37921905517578,-1.0813497304916382,-1.2558701038360596,0.012864691205322742,,,,,,,,,
1739354543.0287173,0.3399709770132659,1.1453179335481507,0.28454449079043215,-1.225740355197339,-1.3762870060989787,1.0884425099796213,0.10641875084544732,0.0007396133432134081,0.00028405174048075365,-0.001599714688556138,0.0002967572024835942,0.00044708814584763627,-0.0005784199361118288,-0.004116758009258378,-0.4293329417705536,-51.67416763305664,4.699812889099121,17.37921905517578,-1.0685323476791382,-1.2696030139923096,0.019273381680250168,,,,,,,,,
1739354543.038752,0.3399676091153853,1.1453161983813385,0.28454841922299895,-1.2257390316981367,-1.3762864054283084,1.0884433766480663,0.1064239439356264,-0.0011513256545540526,0.00013060395882731382,4.2466390880514164e-05,0.0012744816519134124,-0.0010590268646214407,-8.713946918196058e-05,-0.0003536911567948922,-0.3539545238018036,-51.65036392211914,4.676009178161621,17.35541534423828,-1.0749410390853882,-1.2760117053985596,0.0064559997990727425,,,,,,,,,
1739354543.048778,0.3399661826711755,1.145315842216442,0.2845467415407591,-1.225741043963417,-1.376285946481453,1.0884426513872447,0.10642185240232295,-0.0009707723155544222,-0.0005542418914529741,-7.554774249842833e-05,0.0006332174405158498,0.0002855717436904496,-0.0015069359679534557,-0.0012227484845961218,-0.3539545238018036,-51.67416763305664,4.699812889099121,17.37921905517578,-1.0685323476791382,-1.2622787952423096,-0.0072769103571772575,,,,,,,,,
1739354543.060642,0.33996547400335175,1.1453158417614888,0.284544591763052,-1.2257410099542294,-1.3762833204832452,1.0884415917523647,0.10642359301541228,-0.0012978607792272848,-0.0007388179114905624,-0.0003708694540989037,4.084455058101514e-05,0.00045910499987100555,-0.0014992768966738562,0.0006858812132274896,-0.3539545238018036,-51.67416763305664,4.727583885192871,17.37921905517578,-1.0877584218978882,-1.2622787952423096,0.0064559997990727425,,,,,,,,,
1739354543.0706778,0.3399679803311545,1.1453188999948651,0.28455049902556007,-1.2257392616167588,-1.3762887732496996,1.088441893724434,0.10642783341055456,0.0003505889695841363,0.002263377086567384,0.0013193075408931396,3.0033127201165672e-05,-0.0002650013447653975,-0.0010462728361414196,0.0018242816625234333,-0.3817255198955536,-51.67416763305664,4.648238182067871,17.35541534423828,-1.0749410390853882,-1.2558701038360596,-0.027418512850999832,,,,,,,,,
1739354543.0806825,0.3399680723316241,1.1453141322319482,0.2845505421906696,-1.2257427501149094,-1.376284666838041,1.0884443662313474,0.10641923925396764,-0.0008530096030775449,-0.0004805367592822824,0.00017065779783702318,-0.001040671053977171,0.0007638578939342289,0.0011835051152204444,-0.0006305617725602293,-0.3539545238018036,-51.65036392211914,4.676009178161621,17.40302276611328,-1.0813497304916382,-1.2558701038360596,0.019273381680250168,,,,,,,,,
1739354543.091719,0.3399694531260119,1.145317839375296,0.28454663661009055,-1.2257449064340358,-1.3762883682001192,1.088440847677365,0.10642470610466728,-0.000576003068940233,0.0005924847522753305,0.000850239195788931,-0.0010128981561899895,0.00032061534676580965,-0.0009355606780141637,0.0007200843272892572,-0.3817255198955536,-51.70193862915039,4.699812889099121,17.43079376220703,-1.0749410390853882,-1.2558701038360596,-0.027418512850999832,,,,,,,,,
1739354543.1037178,0.33996898325534186,1.1453165390295375,0.28454458430998647,-1.2257392612902862,-1.3762847374973421,1.0884424620043427,0.10642212172690904,0.00012272076553462283,-1.8577737511333344e-05,-0.0007633882025249401,0.0005688432891403968,-0.0011184238992570387,-0.00038550102709603614,-0.0020582757450756193,-0.4055292308330536,-51.67416763305664,4.727583885192871,17.35541534423828,-1.0877584218978882,-1.2696030139923096,0.012864691205322742,,,,,,,,,
1739354543.1147523,0.3399694782743413,1.1453160713510597,0.2845468726116763,-1.2257371184548491,-1.3762851892872898,1.0884432167572522,0.10642313765158908,4.152123387706993e-05,0.0005188631567432276,-0.00025536892137199515,0.0019307702170510673,0.0005452133371617111,-0.0003908213317001536,0.0006923066548273229,-0.3817255198955536,-51.67416763305664,4.699812889099121,17.35541534423828,-1.0749410390853882,-1.2760117053985596,0.012864691205322742,,,,,,,,,
1739354543.1257012,0.3399707405270567,1.1453168843011874,0.2845445826881876,-1.225740071647115,-1.376287951278991,1.0884433330412717,0.10642465656923787,0.00040782771940404223,0.001999754978576582,-0.0010807856313957112,0.00011884719066045143,-0.0009429051954121113,-0.0007260888179027223,-6.510396050913978e-05,-0.4293329417705536,-51.65036392211914,4.727583885192871,17.40302276611328,-1.0877584218978882,-1.2760117053985596,-0.0008682189509272575,,,,,,,,,
1739354543.1366131,0.3399694753585405,1.1453162758593107,0.2845465574094,-1.225737195089398,-1.3762877670626554,1.0884417096461232,0.10642317631564302,-0.0002545971843790502,8.28444827659456e-06,0.0007142616284969429,0.0008438804669359063,-0.0016292548632572607,-0.0002544811549707605,0.001402220765271424,-0.3817255198955536,-51.65036392211914,4.699812889099121,17.35541534423828,-1.0813497304916382,-1.2622787952423096,-0.027418512850999832,,,,,,,,,
1739354543.1476045,0.33997205434776917,1.145314133056339,0.28454662772643463,-1.2257392272422192,-1.3762861078733704,1.0884447842292366,0.10642931068637534,0.00036357390959966464,-0.0005131274559382765,0.0003928410298038417,0.0007395092123812933,0.00020359933206963037,-0.0005867606339989599,0.0006030237133194958,-0.4055292308330536,-51.65036392211914,4.699812889099121,17.35541534423828,-1.0941671133041382,-1.2622787952423096,-0.04023589566349983,,,,,,,,,
1739354543.1577203,0.3399713933614028,1.1453161478791896,0.284548419235062,-1.225744591813037,-1.3762862484569196,1.0884426577012516,0.10642156257598026,1.5075779990584735e-05,0.00010587074808601348,0.0003785132522179394,-0.0013406555042281606,0.0003524960031017668,-0.0005382930065498785,-0.0006188650481018416,-0.4055292308330536,-51.67416763305664,4.676009178161621,17.43079376220703,-1.0749410390853882,-1.2622787952423096,0.026597600430250168,,,,,,,,,
1739354543.1696837,0.33996976580231986,1.1453160727161977,0.2845504990609697,-1.2257421509533528,-1.3762887209876857,1.0884442749478405,0.10641678150814836,8.626834433099587e-05,-3.0775298672513726e-05,0.002187389874210121,-0.0013681793056366715,-0.0018532952763334488,-0.00022519423239032802,-0.001417983380578237,-0.4055292308330536,-51.67416763305664,4.648238182067871,17.43079376220703,-1.0749410390853882,-1.2760117053985596,0.026597600430250168,,,,,,,,,
1739354543.1796975,0.3399703419377339,1.145314278219145,0.28454663393867435,-1.225738671399745,-1.3762860426423953,1.0884416440801736,0.10642008122285347,0.0015403241709221567,-0.000673500664070542,0.00019937352813359619,0.0011350334101434454,0.0006901246354652435,-0.0007662748823032656,-0.0005258701269959704,-0.3817255198955536,-51.62259292602539,4.699812889099121,17.37921905517578,-1.0941671133041382,-1.2622787952423096,-0.0008682189509272575,,,,,,,,,
1739354543.190671,0.33996963428878313,1.1453141293820919,0.2845487634291071,-1.2257410397279804,-1.3762859471598248,1.0884457547809763,0.10642057860318531,-0.00015471193692448404,-0.002160992098209186,0.0007097496816119543,0.00034520885053961905,0.00020549547134476203,0.0005129701797532735,0.00010512105223609327,-0.3817255198955536,-51.65036392211914,4.699812889099121,17.37921905517578,-1.0685323476791382,-1.2696030139923096,0.0064559997990727425,,,,,,,,,
1739354543.2007556,0.33996526537830934,1.1453179166516751,0.28454455681624574,-1.2257399826682653,-1.376284432594247,1.088442457716063,0.10642201221379975,-0.0013033780976924071,0.0004705774046481416,-0.0003775363042978997,0.00010576068114342633,0.00039949809226316204,-0.0006931387704377991,0.0005147816586280687,-0.3539545238018036,-51.70193862915039,4.727583885192871,17.40302276611328,-1.0813497304916382,-1.2696030139923096,-0.013685601763427258,,,,,,,,,
1739354543.211636,0.3399703370369636,1.1453158710509581,0.2845445564411887,-1.2257389772019913,-1.3762844768467808,1.0884471671464127,0.10642469139596802,8.9714473104858e-05,-0.000921352284315092,-0.000718889633899822,-0.00015619523104432067,0.00013566968595272072,0.0014809775021949242,0.0006116929138951486,-0.3817255198955536,-51.67416763305664,4.727583885192871,17.37921905517578,-1.0813497304916382,-1.2696030139923096,-0.04023589566349983,,,,,,,,,
1739354543.2217011,0.3399721069617019,1.14531882640938,0.28454455284364605,-1.2257418232235886,-1.3762868916416329,1.0884417488095655,0.10642931019958338,0.0012728444475644282,1.0561269303300847e-05,-0.0006472542617696025,0.0005547170506848934,0.00041015239630127684,0.0003333303210770913,0.0025843136041482835,-0.4055292308330536,-51.67416763305664,4.727583885192871,17.40302276611328,-1.0877584218978882,-1.2622787952423096,-0.04023589566349983,,,,,,,,,
1739354543.2317133,0.33996622199900645,1.1453171640821438,0.28454841923504537,-1.2257398378857671,-1.37628660170611,1.0884447764776317,0.10642383009944612,-0.00025185838142990056,0.0006955965236026877,0.0019283978666552128,7.025381055594815e-05,-0.0018110420192036993,0.0012976424167053442,-0.002045362237513278,-0.3539545238018036,-51.65036392211914,4.676009178161621,17.40302276611328,-1.0749410390853882,-1.2622787952423096,0.0064559997990727425,,,,,,,,,
1739354543.2426944,0.33996737679640326,1.1453161491560433,0.28454376670482584,-1.2257424863567237,-1.3762836778492409,1.0884458739233855,0.10642713613239468,-0.0004169721106577124,-3.194744841473611e-05,0.0002186643055880722,-0.0008885290965623335,0.0006775629866384088,0.0007389353357462429,0.0027100554777240164,-0.3539545238018036,-51.67416763305664,4.699812889099121,17.40302276611328,-1.0877584218978882,-1.2622787952423096,-0.04756011441349983,,,,,,,,,
1739354543.2536266,0.3399722328572528,1.145315840817068,0.2845484162391334,-1.2257442087442914,-1.3762851888007956,1.0884433781793295,0.10642980798573112,0.001701782035061731,-0.0004216650490586178,0.0017773215941685003,-0.000257077867135915,3.207986858073174e-05,0.0005544699018923376,0.0015699891845317576,-0.4055292308330536,-51.67416763305664,4.676009178161621,17.43079376220703,-1.0749410390853882,-1.2760117053985596,-0.04756011441349983,,,,,,,,,
1739354543.2636814,0.3399697149729277,1.1453178308720056,0.28454253567258836,-1.2257410435355753,-1.376288367715159,1.0884467099268653,0.10642475869288706,5.580591554526281e-05,7.925263340554918e-05,-0.001010207032997842,-7.894872781284788e-05,-0.0009693205521175543,0.0014232835659665328,0.0014250802006034256,-0.3817255198955536,-51.70193862915039,4.751387596130371,17.37921905517578,-1.0749410390853882,-1.2696030139923096,-0.027418512850999832,,,,,,,,,
1739354543.274707,0.33996842565944624,1.145318562795085,0.28454627346655403,-1.2257368888782496,-1.3762847858248979,1.088441649912397,0.10642464340823075,-0.000313169938204529,0.0016774654228622569,-8.352214263234587e-05,0.0009151134040961534,-0.00020933222693387236,0.000825729629102296,0.0005531464705798168,-0.3539545238018036,-51.70193862915039,4.676009178161621,17.35541534423828,-1.0813497304916382,-1.2622787952423096,-0.0008682189509272575,,,,,,,,,
1739354543.2856205,0.3399704245763612,1.145316884081903,0.2845445566107693,-1.2257392356271155,-1.376286299837067,1.0884435685167317,0.10642269842569783,0.0003713041972555708,0.0011980574829886165,-0.000856713249079712,0.0001955495072525987,-0.0004085404051992666,0.0003745109880479744,0.0002512467283097005,-0.3817255198955536,-51.65036392211914,4.727583885192871,17.35541534423828,-1.0685323476791382,-1.2760117053985596,0.012864691205322742,,,,,,,,,
1739354543.2956471,0.33996840038984705,1.1453178400639288,0.2845445567682346,-1.2257409671225143,-1.376289079600364,1.0884417269325375,0.10642479464670718,-0.0005405945001199387,0.00019148137539233507,7.171947982733415e-05,-0.0010731898514703179,-0.0017721108503785908,-0.0002853403721110746,-0.0005150016980416322,-0.3539545238018036,-51.70193862915039,4.727583885192871,17.37921905517578,-1.0813497304916382,-1.2622787952423096,-0.0008682189509272575,,,,,,,,,
1739354543.3056989,0.3399684266350692,1.145315918290913,0.2845466365580928,-1.2257409550491052,-1.376285188879493,1.0884415917486723,0.10642835401060109,-0.0007783924271159379,-0.0015327433979354162,0.0004558565569698033,-5.6298621032051775e-05,0.0007899266327202945,-0.001112642303814641,0.0018558718018164104,-0.3539545238018036,-51.67416763305664,4.699812889099121,17.37921905517578,-1.0749410390853882,-1.2622787952423096,-0.03382720425724983,,,,,,,,,
1739354543.3157084,0.3399704130196328,1.145320619291432,0.2845467152950927,-1.2257407378481175,-1.376284431140694,1.0884424576436154,0.10642279642725451,-3.1287779556509386e-05,0.0010608754533835908,0.0008119526590645357,0.0002511734601997213,0.0005791589708766796,0.0006093308600294309,0.0015722938927505827,-0.3817255198955536,-51.70193862915039,4.699812889099121,17.37921905517578,-1.0813497304916382,-1.2696030139923096,0.012864691205322742,,,,,,,,,
1739354543.3266776,0.3399682986773045,1.145314141678917,0.28454841036889983,-1.2257382840788407,-1.3762897807275036,1.0884423782950179,0.10642158483080187,-0.0002832067753384777,0.00044698714755986486,0.0007490706040899723,0.0012614065594653595,-0.0012731160908363301,0.0005742140502832744,0.0003352173535274473,-0.3817255198955536,-51.65036392211914,4.676009178161621,17.35541534423828,-1.0749410390853882,-1.2558701038360596,-0.013685601763427258,,,,,,,,,
1739354543.336693,0.339965001558049,1.1453187531094868,0.2845445567680871,-1.2257389691531348,-1.3762852019604879,1.0884424576697667,0.10642327044171075,-0.0013885622938367291,0.0011458936941584244,-0.00020357217001494413,0.0005328692815697287,-0.0006968497579992427,7.100442623766623e-05,0.001393691994796278,-0.3063471019268036,-51.70193862915039,4.727583885192871,17.37921905517578,-1.0749410390853882,-1.2696030139923096,-0.0008682189509272575,,,,,,,,,
1739354543.3466947,0.33997039865472,1.1453167856398072,0.2845504763132448,-1.225742755072001,-1.3762858963195634,1.0884417094839534,0.10642295890100824,0.0007039240894937041,0.000134767197197335,0.0008146198104779816,-0.000635389045662686,-0.001110962908308798,0.0003535436927255888,0.000626242345171905,-0.3817255198955536,-51.67416763305664,4.648238182067871,17.43079376220703,-1.0813497304916382,-1.2622787952423096,-0.013685601763427258,,,,,,,,,
1739354543.357631,0.3399714284639526,1.145317843801834,0.2845466365579646,-1.2257439056956883,-1.3762856599208273,1.0884432327469613,0.10642206922206886,0.0005396430528022356,0.0018369527597142628,-0.0001272894023990955,-0.0017422697171613555,0.0006087991208416574,0.0002541359976897602,0.0016984828540128267,-0.4055292308330536,-51.70193862915039,4.699812889099121,17.45459747314453,-1.0749410390853882,-1.2760117053985596,-0.013685601763427258,,,,,,,,,
1739354543.3676662,0.33997042456436594,1.1453185370754404,0.28454455676823726,-1.2257428117484603,-1.3762864305010598,1.0884424968897675,0.1064211407527599,-0.0004538445611380436,0.0005280172553475663,-0.0013215454708992143,-0.0007850918996487935,-0.0006277863524456013,-0.00038646662762212216,-0.0007219031354760313,-0.3817255198955536,-51.70193862915039,4.727583885192871,17.43079376220703,-1.0685323476791382,-1.2696030139923096,-0.0008682189509272575,,,,,,,,,
1739354543.3786542,0.3399684266355136,1.1453159447494579,0.28454241100102534,-1.2257402521716687,-1.3762836778439973,1.088441748730031,0.1064286917669261,-0.0004461202893508529,0.00012052678158870592,-0.0009487241707725293,0.00018368898910560828,0.0008230140037164368,-0.0008638168012406435,0.0016064221085866916,-0.3539545238018036,-51.67416763305664,4.727583885192871,17.37921905517578,-1.0877584218978882,-1.2622787952423096,-0.03382720425724983,,,,,,,,,
1739354543.388682,0.33997255144742544,1.1453178482073523,0.2845504985525636,-1.225744971033405,-1.3762879763498166,1.0884435172844031,0.10642481363945057,0.0007767369457840451,0.00040844674655301193,0.0017750116081348356,-0.0021044022666817375,-0.00043675238719711654,-5.6146624272756834e-05,0.0005602104679370072,-0.3817255198955536,-51.70193862915039,4.648238182067871,17.40302276611328,-1.0813497304916382,-1.2696030139923096,-0.0008682189509272575,,,,,,,,,
1739354543.3997056,0.339966713154727,1.1453161930466236,0.2845445567682346,-1.2257403550746548,-1.376285492467726,1.0884442766166957,0.10642789453549707,-0.0011934075572247692,-0.00024462997979623943,-0.0002941388234938437,-0.0011537856806871094,-2.8322040898168466e-05,0.0008072034114188272,0.001812432774409771,-0.3301508128643036,-51.65036392211914,4.727583885192871,17.37921905517578,-1.0813497304916382,-1.2760117053985596,-0.027418512850999832,,,,,,,,,
1739354543.4106758,0.33996842663550825,1.1453121313465453,0.2845484453717622,-1.225744651017287,-1.376289484047739,1.0884408733381525,0.10642997886601462,0.00017309635880475357,-0.0012160193689432649,0.0007643521795833795,-0.0008451450347141031,-0.0014439243177654605,8.748567520411855e-05,0.0023107844048618114,-0.3539545238018036,-51.62259292602539,4.676009178161621,17.43079376220703,-1.0749410390853882,-1.2558701038360596,-0.04756011441349983,,,,,,,,,
1739354543.4216862,0.3399704210481427,1.1453150475938008,0.2845445525167503,-1.2257407260205186,-1.3762844705723019,1.088440886898852,0.10642075451994783,0.00038815641949576323,0.0004938219647233202,-0.0005692441519363554,-0.0007332085336303649,0.0005113578916613426,-0.0022196595691402208,-0.0003517165230862624,-0.3817255198955536,-51.65036392211914,4.727583885192871,17.40302276611328,-1.0813497304916382,-1.2558701038360596,0.0064559997990727425,,,,,,,,,
1739354543.4326963,0.33997213677301763,1.1453159183064592,0.2845466326334351,-1.2257427159612753,-1.376285952275718,1.088444822989474,0.1064248082310177,0.000988131172574177,-0.00022878779725161557,-0.00010652162367054405,0.0006723437274467168,-0.0014914221412831259,0.0007266373918949191,0.0002502034241795029,-0.4055292308330536,-51.67416763305664,4.699812889099121,17.40302276611328,-1.0685323476791382,-1.2622787952423096,-0.0008682189509272575,,,,,,,,,
1739354543.4427779,0.3399721370970961,1.1453158445963414,0.28454841923508967,-1.225738287507829,-1.3762852018827558,1.0884429479928055,0.10641837119522723,0.001136752695089808,0.0005286040958869914,0.0005674707017170121,-0.0006850030982443258,-0.0003103965830887767,0.0007518027224301834,-0.0007544560670279215,-0.4055292308330536,-51.67416763305664,4.676009178161621,17.37921905517578,-1.0749410390853882,-1.2696030139923096,0.026597600430250168,,,,,,,,,
1739354543.4536839,0.33997136945636763,1.145316071804671,0.2845448979619034,-1.2257404273072081,-1.376284444222719,1.0884424576463834,0.1064245863067487,0.0003537739483881403,0.00024618843470662806,-0.000307006766481185,8.653089601713795e-05,0.0005244031086474093,-0.0005034898295872593,-0.0005426557916654404,-0.3817255198955536,-51.67416763305664,4.727583885192871,17.40302276611328,-1.0813497304916382,-1.2696030139923096,-0.027418512850999832,,,,,,,,,
1739354543.464643,0.3399739294762337,1.1453143931583267,0.28454663656001883,-1.225738285115394,-1.3762839138009955,1.088445688885812,0.10642156301329399,0.0015111861231302478,-0.00045845505842016327,-0.0001465584467999393,0.00044329403735941596,0.0003659372025906155,-0.0003807031985191544,0.0014604179774820988,-0.4293329417705536,-51.65036392211914,4.699812889099121,17.37921905517578,-1.0877584218978882,-1.2696030139923096,-0.0008682189509272575,,,,,,,,,
1739354543.474677,0.33996842372068087,1.1453141292452245,0.28454455676823726,-1.2257364679722076,-1.3762845488823325,1.0884416442904188,0.10642615414800577,-0.0009172258878076574,-0.0009681474804394941,-0.000748392706951513,0.00102246836168777,5.6755898347710214e-05,-0.000564603136065538,0.0002955796949040019,-0.3539545238018036,-51.65036392211914,4.727583885192871,17.35541534423828,-1.0813497304916382,-1.2622787952423096,-0.013685601763427258,,,,,,,,,
1739354543.485602,0.33997042446834336,1.1453141292407552,0.28454664822283354,-1.2257399835623357,-1.3762863403736307,1.0884454258518284,0.10641893214752775,0.00011593016934626052,0.0005053490295426994,0.00046959651843448644,-0.00047472424284436895,0.00045045731443664374,6.3940884433593e-05,-0.0009200457798417059,-0.3817255198955536,-51.65036392211914,4.699812889099121,17.40302276611328,-1.0685323476791382,-1.2558701038360596,0.012864691205322742,,,,,,,,,
1739354543.4956849,0.3399701883653652,1.1453159296285986,0.2845466364492741,-1.2257446395303573,-1.3762840969923127,1.0884432153814556,0.10642041803499049,2.3247915106732717e-05,-1.8311355993728658e-06,-0.0002419084298443079,-0.0020614228470194782,0.0005358061128279566,0.0010755480768513386,-0.0007646151414563521,-0.3817255198955536,-51.67416763305664,4.699812889099121,17.43079376220703,-1.0813497304916382,-1.2760117053985596,-0.0008682189509272575,,,,,,,,,
1739354543.5066023,0.3399684350587152,1.1453199146054351,0.2845444772953769,-1.225737944681738,-1.3762851889603902,1.088443228547152,0.10642172574549193,-0.0014104295256637577,0.0004770371519101115,-0.0015183690529781747,0.0016670292426699766,0.0005977627140757006,0.0004262589097002655,-0.00276521720147175,-0.3539545238018036,-51.70193862915039,4.727583885192871,17.37921905517578,-1.0749410390853882,-1.2760117053985596,0.012864691205322742,,,,,,,,,
1739354543.516604,0.33996842663565635,1.1453168451823599,0.2845484231220129,-1.2257379786438338,-1.376282916466561,1.088442457805345,0.10642177107086342,-0.0006302196373716061,-0.0007738958625791825,0.00022213038627255942,-4.5874002784603055e-05,0.0004959270753780319,-0.00041573085922497996,-0.00042943333586123846,-0.3539545238018036,-51.67416763305664,4.676009178161621,17.37921905517578,-1.0941671133041382,-1.2696030139923096,0.012864691205322742,,,,,,,,,
1739354543.5266697,0.3399694505405328,1.1453171140101244,0.28454663655815865,-1.2257361656285661,-1.3762859595428125,1.0884416309922424,0.10641853733947228,3.422126510034323e-06,-2.5016367670490074e-05,-0.00027656989536027957,0.000958730195086092,-0.0008255670234129052,-0.000654435884968283,-0.003170436040560112,-0.3539545238018036,-51.65036392211914,4.699812889099121,17.35541534423828,-1.0685323476791382,-1.2622787952423096,0.012864691205322742,,,,,,,,,
1739354543.5367482,0.33997055255185055,1.145315926844723,0.28454455676823726,-1.2257408398228957,-1.3762866074660327,1.0884432547117207,0.10642150819416848,-0.00021896896780344182,0.0003063295394168949,0.00023927177847939078,-0.0001098170676339005,0.0002999307930084849,-0.0008815142795851875,-0.00031743618181914843,-0.3539545238018036,-51.67416763305664,4.727583885192871,17.40302276611328,-1.0749410390853882,-1.2760117053985596,0.026597600430250168,,,,,,,,,
1739354543.5486808,0.33997045094204104,1.1453185284676037,0.28455299033498543,-1.2257418069989323,-1.3762883675616617,1.0884423796949554,0.10642265845563247,0.0002465720890009069,-0.00018357178339424373,0.0025206461037754584,-0.0019087749194828007,-0.0006025628697185734,2.0149891963125335e-06,-0.002477507118750821,-0.3817255198955536,-51.70193862915039,4.624434471130371,17.43079376220703,-1.0749410390853882,-1.2558701038360596,0.012864691205322742,,,,,,,,,
1739354543.5596695,0.339970660787416,1.1453178397152997,0.2845469835582087,-1.2257381744289741,-1.3762876149241747,1.0884425754020386,0.10642661460190575,0.0003076966541799547,-5.997080662553046e-05,0.00036836271797597024,0.0005281122291624986,-0.0006556830325052739,-0.0002679934471778753,0.0008919073043128282,-0.3817255198955536,-51.70193862915039,4.699812889099121,17.37921905517578,-1.0813497304916382,-1.2696030139923096,-0.04756011441349983,,,,,,,,,
1739354543.5706758,0.33997051497944075,1.1453157742440774,0.2845445567701961,-1.2257406996911897,-1.376287912589456,1.0884424576442802,0.10642231618567018,0.0006524934234577586,-0.0016654562826261309,-0.0006704765082855525,0.0007196766254212017,-0.001201450378977839,-0.0017906615915583323,-0.0017722403133375653,-0.3817255198955536,-51.67416763305664,4.727583885192871,17.37921905517578,-1.0877584218978882,-1.2696030139923096,-0.020094294100999832,,,,,,,,,
1739354543.5816832,0.33996937148002265,1.145316760534065,0.28454746556079547,-1.2257380465805572,-1.3762830185291242,1.0884432603637513,0.10642158031338207,-0.000756066028637088,0.0007623015166202021,0.0009195217894218638,0.0003536116973086326,0.0015851380138461445,-0.00015808715512754238,-0.0020437057078042187,-0.3539545238018036,-51.67416763305664,4.676009178161621,17.37921905517578,-1.0813497304916382,-1.2760117053985596,-0.0008682189509272575,,,,,,,,,
1739354543.592615,0.33997357830996566,1.1453141319713482,0.284545921296972,-1.2257397301427737,-1.3762844330707855,1.0884408361861317,0.10642747544693248,0.0029178316496950617,-0.0019599590800700433,-0.00031606661752431114,0.00015381559043894778,0.0010221751322296816,-0.0011972936484484725,-0.0010939279697873762,-0.3817255198955536,-51.65036392211914,4.699812889099121,17.40302276611328,-1.0813497304916382,-1.2558701038360596,-0.027418512850999832,,,,,,,,,
1739354543.6026702,0.3399684528265822,1.145317866471936,0.28454525655880547,-1.2257336724193202,-1.3762883849215108,1.0884415917464185,0.10641993979142433,-0.0005108347290621115,0.00048688775476963517,-0.0007201805665654772,0.0019060018358986854,-0.0006872966820444871,-0.0007685088170439886,-0.0012236464766975518,-0.3539545238018036,-51.70193862915039,4.727583885192871,17.33161163330078,-1.0877584218978882,-1.2622787952423096,0.012864691205322742,,,,,,,,,
1739354543.6126812,0.33997045114738456,1.1453195522244306,0.28454875856805717,-1.225739735670158,-1.3762853067777068,1.0884424576436154,0.10642409688540033,0.000354941828419491,0.0013489177902872454,-1.9090971731257507e-05,-0.0003465984414821871,5.432525313545881e-05,-0.00014433126636478552,-0.00092555664797151,-0.3817255198955536,-51.72574234008789,4.699812889099121,17.40302276611328,-1.0749410390853882,-1.2696030139923096,-0.03382720425724983,,,,,,,,,
1739354543.6227384,0.33996703035901427,1.145315867271293,0.2845427753992793,-1.225742490765249,-1.376285188801437,1.0884435305252025,0.10642952393035886,-0.0007097386042759844,-0.0006212363802624823,-0.0013259901163332644,-0.0006807482452710206,-0.0006928991309954141,-0.00013465386691575217,0.0015763706163589653,-0.3301508128643036,-51.67416763305664,4.751387596130371,17.40302276611328,-1.0749410390853882,-1.2696030139923096,-0.013685601763427258,,,,,,,,,
1739354543.633636,0.33996742566575183,1.1453121317549535,0.28454653059428725,-1.2257376863598277,-1.3762851931614217,1.0884461835176664,0.10642500006019057,-0.00020779604809658488,-0.0018124218118672451,-0.0008367856275426234,-0.00020034416651246048,-1.233367837953937e-05,0.0016480439255883261,-0.0007755148007030639,-0.3301508128643036,-51.62259292602539,4.699812889099121,17.40302276611328,-1.0749410390853882,-1.2622787952423096,-0.03382720425724983,,,,,,,,,
1739354543.6436808,0.33997053831963897,1.145320147342567,0.2845447925413773,-1.2257400587957228,-1.3762844355014172,1.0884424577213774,0.10642692445689865,0.0002562060922936449,0.0016921358579480626,-0.000623938353564278,-9.718672272587958e-05,0.001220933580380904,-0.00020749477708189424,0.0005792399802909509,-0.3817255198955536,-51.70193862915039,4.727583885192871,17.40302276611328,-1.0813497304916382,-1.2696030139923096,-0.020094294100999832,,,,,,,,,
1739354543.654608,0.3399711341833537,1.145315842220481,0.28454687277308527,-1.2257397272084116,-1.37628368510909,1.088448368499717,0.10642353793341765,0.0009082303581907174,-0.001015670202349052,0.0005833427232461564,0.0008183577391817989,0.0003765420300166147,0.002221928625945249,-0.0004360153717510607,-0.3817255198955536,-51.67416763305664,4.699812889099121,17.40302276611328,-1.0877584218978882,-1.2824203968048096,-0.020094294100999832,,,,,,,,,
1739354543.664644,0.3399704597186038,1.145315841761489,0.2845465541431273,-1.2257397301771906,-1.376283997465376,1.0884424591219786,0.10642934996070705,0.0003949357451269037,-0.0005842070856453241,0.00026854624753383635,9.502408987896395e-05,-0.0006666244146693883,-2.398436830271845e-05,0.0018687101087601424,-0.3817255198955536,-51.67416763305664,4.699812889099121,17.40302276611328,-1.0685323476791382,-1.2696030139923096,-0.04023589566349983,,,,,,,,,
1739354543.674724,0.3399711345060431,1.1453164254383046,0.28454619399364456,-1.2257398055855433,-1.3762840944552734,1.0884415917464079,0.10641857549322757,-8.50036619070583e-05,4.2028245363180563e-05,0.00017933303930156954,0.0002183901198157355,-0.00122489631905767,-0.0007543872888978111,-0.0006292576062907091,-0.3817255198955536,-51.65036392211914,4.676009178161621,17.40302276611328,-1.0941671133041382,-1.2622787952423096,0.012864691205322742,,,,,,,,,
1739354543.6857057,0.33996830837201114,1.1453178397502943,0.2845504989760671,-1.225736162164136,-1.376284566327519,1.0884411872990145,0.10642632741942555,-0.00048206692444594207,0.0005393540606857888,0.0009454145646342527,0.0014512964766420018,-0.0006603339034884271,-0.0007323061612061553,0.0009327719382539251,-0.3539545238018036,-51.70193862915039,4.648238182067871,17.35541534423828,-1.0813497304916382,-1.2558701038360596,-0.013685601763427258,,,,,,,,,
1739354543.6957138,0.3399704369951526,1.145317916336739,0.284546636558092,-1.225741806992657,-1.3762895843390044,1.0884432167632256,0.10642318215795132,-0.0009136670736512678,0.00030024724426062335,0.0003107862845755464,-0.0012220272319893957,-0.0014892335634475447,0.0006193206308165573,0.00042151081122710377,-0.3817255198955536,-51.70193862915039,4.699812889099121,17.43079376220703,-1.0749410390853882,-1.2760117053985596,-0.027418512850999832,,,,,,,,,
1739354543.7067106,0.3399714973785794,1.1453104187796035,0.2845467152950927,-1.2257376107246216,-1.3762897996484698,1.0884456423722124,0.10642551633494751,-0.00019712373746719333,-0.003294659908113088,0.00046196733639116626,0.0011780563080453696,-0.0022459719708790055,0.0003586720059477052,0.000322077645600502,-0.3539545238018036,-51.59878921508789,4.699812889099121,17.40302276611328,-1.0749410390853882,-1.2696030139923096,-0.03382720425724983,,,,,,,,,
1739354543.717595,0.3399691482466701,1.1453178511450097,0.2845445567686817,-1.2257361618368101,-1.3762880853920396,1.0884424707435454,0.10642341389539715,-0.0007652374897629829,0.0002469368339588397,1.411151788173286e-05,0.0009751225614987196,-0.00033212942459402164,-0.00032410011014039183,-0.0009703488853940046,-0.3539545238018036,-51.70193862915039,4.727583885192871,17.35541534423828,-1.0813497304916382,-1.2696030139923096,-0.020094294100999832,,,,,,,,,
1739354543.7275968,0.3399684559175929,1.1453128213246235,0.28454838260564563,-1.2257390119470584,-1.3762868524568872,1.0884426664047533,0.10642313556895981,-0.0012663317345021927,0.0004162111410602225,0.0005549789717060286,1.0214389819124497e-05,0.0007997279540121935,6.23821722098115e-05,-0.0004918816575929263,-0.3539545238018036,-51.62259292602539,4.676009178161621,17.40302276611328,-1.0877584218978882,-1.2622787952423096,-0.013685601763427258,,,,,,,,,
1739354543.7376554,0.3399645883242882,1.145319577744563,0.2845466277271547,-1.2257418069805386,-1.3762862486542422,1.0884432217821165,0.10642433912972173,-0.0027387912296505047,0.0014712305276885036,0.0007805993415864562,-0.0012820091592239563,-0.0006571785541889719,0.0007321277427555849,-0.002876344020804795,-0.3301508128643036,-51.72574234008789,4.699812889099121,17.43079376220703,-1.0749410390853882,-1.2760117053985596,-0.0008682189509272575,,,,,,,,,
1739354543.7486806,0.3399725767930367,1.1453162081329749,0.2845505003209001,-1.22574041596758,-1.376286852412951,1.0884415917464927,0.1064205025610826,0.00012683879473170226,-0.00057537843434094,0.002000150151095501,-0.0005727379298621917,0.0013246086309402956,-0.00044468245736759015,-0.0011929035374905832,-0.3817255198955536,-51.65036392211914,4.648238182067871,17.40302276611328,-1.0877584218978882,-1.2622787952423096,0.026597600430250168,,,,,,,,,
1739354543.759705,0.3399704249044371,1.145320138434952,0.2845484195591349,-1.2257420705952846,-1.376282993283395,1.088442462506728,0.10642934365049692,-0.0006493312712163027,0.0007640985503494252,-0.0005325726302110622,-0.0017366746220824742,0.002400262765057678,-1.797436955020206e-05,0.0023343398924564555,-0.3817255198955536,-51.70193862915039,4.676009178161621,17.43079376220703,-1.1014913320541382,-1.2696030139923096,-0.04023589566349983,,,,,,,,,
1739354543.7707126,0.3399732594323851,1.1453160713977169,0.2845466482228353,-1.2257418069941395,-1.3762813116492203,1.0884474538562385,0.10642369474496444,0.00030143632305637373,-0.0001690042565131711,0.00021521234978259048,-0.0002893340616138594,0.0007485319373766678,0.002440864251893104,0.002261288968859635,-0.3817255198955536,-51.67416763305664,4.699812889099121,17.43079376220703,-1.1079000234603882,-1.2760117053985596,-0.027418512850999832,,,,,,,,,
1739354543.7816708,0.3399725893738356,1.1453142311722624,0.28454663655815865,-1.2257379530640387,-1.3762837912721289,1.0884424707494942,0.10642954825307002,0.0007681480979647933,-0.000989422887439905,0.00011989927737728882,0.0010777288946767845,-0.00026786344437955775,0.0004675203816759046,0.0017645556897279077,-0.3817255198955536,-51.65036392211914,4.699812889099121,17.37921905517578,-1.0877584218978882,-1.2696030139923096,-0.05396880581974983,,,,,,,,,
1739354543.7926745,0.33997326218077734,1.1453131246392192,0.2845466365580928,-1.2257379701406104,-1.3762876144702316,1.088445638711485,0.10641897198756983,0.0008535721007323733,-0.00010659953722952538,-0.0007652677101581667,0.0001852026800637168,-0.0005617237692804075,0.0007803465376275615,-0.0027287742457473662,-0.3817255198955536,-51.62259292602539,4.699812889099121,17.37921905517578,-1.0813497304916382,-1.2696030139923096,0.03941498324275017,,,,,,,,,
1739354543.8036094,0.33997045961864397,1.1453186223472516,0.2845522552110332,-1.225739718372912,-1.3762847375333043,1.0884461138608723,0.10642271301201246,-0.0007971665808873449,0.00146551864254543,0.0019354473532981452,0.000418404609018404,0.00011098422138717013,0.0010690674071204668,-0.0008571340752470181,-0.3817255198955536,-51.67416763305664,4.624434471130371,17.40302276611328,-1.0877584218978882,-1.2696030139923096,0.012864691205322742,,,,,,,,,
1739354543.8137312,0.3399745868012503,1.1453202665447508,0.2845466365576442,-1.2257400108199796,-1.3762863007847288,1.0884424577055336,0.10641921485775817,0.001626283261431435,0.0015331396813934917,-0.0003942794247830866,0.0013249849483448284,-9.37166523896469e-05,-3.1959439039576325e-05,-0.002150244661153677,-0.4055292308330536,-51.72574234008789,4.699812889099121,17.37921905517578,-1.0749410390853882,-1.2696030139923096,0.0064559997990727425,,,,,,,,,
1739354543.8246706,0.339971370088254,1.1453160808018565,0.28454841923511187,-1.2257401129060137,-1.376283674186749,1.0884426528380629,0.10642607588224973,-0.0007848977268060456,0.0007852460910581205,0.0011990590775755577,-0.0006291611743938041,-0.0005444593073891504,-0.00029346599454347624,0.001997110689429936,-0.3539545238018036,-51.67416763305664,4.676009178161621,17.37921905517578,-1.0877584218978882,-1.2622787952423096,-0.04756011441349983,,,,,,,,,
1739354543.8350065,0.3399714831682033,1.1453178397036887,0.28454660138083093,-1.2257397300494595,-1.3762859464608534,1.0884432719981432,0.1064278998661285,-0.00026105935309172644,-0.0002928647705075511,0.0005014063596375364,6.997934643102608e-05,-2.12392293191683e-05,0.00013589897598836735,0.0014553868099694538,-0.3817255198955536,-51.70193862915039,4.699812889099121,17.40302276611328,-1.0685323476791382,-1.2760117053985596,-0.027418512850999832,,,,,,,,,
1739354543.8456023,0.33997336442102555,1.1453179418465451,0.2845466365578942,-1.2257379454706006,-1.376290942673445,1.0884435859593264,0.10642083972095935,0.001390103950914762,-0.0010054653678157445,0.0010570720263629394,0.00034629770559090056,-0.001204768700642383,0.0010001646279939932,-0.0008579339211399461,-0.3817255198955536,-51.70193862915039,4.699812889099121,17.37921905517578,-1.0621236562728882,-1.2760117053985596,-0.0072769103571772575,,,,,,,,,
1739354543.8556263,0.33997352161481553,1.1453223072839367,0.2845425356726391,-1.225738005901952,-1.376285307094638,1.0884458303051772,0.10642303276982344,-0.0006978352673950427,0.00026766569368325607,-0.0007454412467438062,0.0004658085481053774,-0.0003834381235434498,0.002451503847137432,0.0004452405543321843,-0.3817255198955536,-51.72574234008789,4.751387596130371,17.37921905517578,-1.0749410390853882,-1.2622787952423096,0.012864691205322742,,,,,,,,,
1739354543.8666494,0.33996851446257254,1.145318826529415,0.28454660995677744,-1.2257397317818257,-1.3762844311413605,1.0884425884870643,0.10642560258795719,-0.0011061853625802585,0.0009535219706218724,0.0017260707841414394,-0.0004246245588061579,-0.00041475101803649747,0.0001266220839128741,0.0012084343752421752,-0.3539545238018036,-51.67416763305664,4.699812889099121,17.40302276611328,-1.0813497304916382,-1.2696030139923096,-0.04756011441349983,,,,,,,,,
1739354543.8776433,0.339970564307754,1.1453216197940153,0.2845438402041545,-1.2257396612254654,-1.3762898873959664,1.0884447726534117,0.10642127385528703,-0.00023834359399494976,0.0021912167340168926,-0.0014411063865758691,-0.0006014494624551935,-0.0016720504177651172,-3.2281406846325385e-05,-0.0006645464351944335,-0.3539545238018036,-51.72574234008789,4.727583885192871,17.43079376220703,-1.0621236562728882,-1.2622787952423096,-0.0072769103571772575,,,,,,,,,
1739354543.8876765,0.33996843682436,1.1453161955701219,0.2845466247722007,-1.2257351314996658,-1.3762884070149246,1.0884447459459716,0.10642318627763328,-0.0007756540731440572,-0.0005444900656306948,-0.00019775019872213403,0.002348551218098055,-0.0018871656289757388,0.0006541906407192004,0.0005340630078281591,-0.3539545238018036,-51.65036392211914,4.699812889099121,17.35541534423828,-1.0749410390853882,-1.2760117053985596,0.012864691205322742,,,,,,,,,
1739354543.8986835,0.33997160624948025,1.1453141377556886,0.28454817198614846,-1.2257397271969797,-1.3762847858789549,1.0884439773330632,0.10641964204754444,0.0005855010083314717,-0.000911342639855085,0.0012442649301380399,-0.00035486994531364155,0.00028453255186141913,0.00037445686961380025,-0.0003996073828336868,-0.3539545238018036,-51.65036392211914,4.676009178161621,17.40302276611328,-1.0813497304916382,-1.2824203968048096,0.012864691205322742,,,,,,,,,
1739354543.9096382,0.339973577314517,1.1453148189503948,0.28454407724970004,-1.2257397281476035,-1.376284435503346,1.0884408340863294,0.10642828097443637,0.0008219327668793116,-0.00033629550344465567,-0.0009978862242965175,3.496254548113599e-05,-0.0011363924914249007,-0.00036229704712313084,0.0014103218608646664,-0.3817255198955536,-51.65036392211914,4.727583885192871,17.40302276611328,-1.0813497304916382,-1.2558701038360596,-0.04023589566349983,,,,,,,,,
1739354543.9197006,0.3399716145113359,1.1453163060892837,0.28454660351027444,-1.2257364254501109,-1.3762845488783364,1.0884447750214217,0.1064270872490584,0.00015000875313485773,0.0003202488356826784,0.00017393534825423855,0.0009087839576170509,-0.001046193894658801,-7.41868275846614e-05,-0.000690126174270844,-0.3539545238018036,-51.65036392211914,4.727583885192871,17.35541534423828,-1.0813497304916382,-1.2622787952423096,-0.020094294100999832,,,,,,,,,
1739354543.9306734,0.3399749716830918,1.145314990064363,0.284549471137645,-1.2257409294895985,-1.3762844136987544,1.0884415918181878,0.10642281833875354,0.0016348112093802626,0.00019357119091227977,0.0006893429387720595,-0.001826477672922576,0.0010565008591845314,-0.001729893996863192,-0.000637164167792643,-0.4055292308330536,-51.70193862915039,4.699812889099121,17.37921905517578,-1.0813497304916382,-1.2622787952423096,0.012864691205322742,765,778,782,42.260,0,0
1739354543.9415908,0.3399694065257381,1.145315051320606,0.2845444906978659,-1.2257406711874772,-1.3762844442225466,1.0884417225659053,0.10642388712327468,-0.00025926815178706273,-0.0006447092390811612,-0.0015196903453485637,-0.0008453926569346639,0.0015257100401120766,-0.00039462923253593546,0.0005415882999418846,-0.3539545238018036,-51.65036392211914,4.699812889099121,17.40302276611328,-1.0813497304916382,-1.2622787952423096,-0.020094294100999832,763,778,781,42.369,0,0
1739354543.9527242,0.3399685408153577,1.1453208243653525,0.2845484541929937,-1.2257400362369062,-1.3762844369551153,1.0884416048305505,0.10642382939888141,-0.0008374299637579087,0.0014784210817083568,0.00018923050549197963,0.0006601112010313692,-0.00012664590492626082,-0.00038050775736831664,-0.0007813939992300141,-0.3539545238018036,-51.70193862915039,4.676009178161621,17.37921905517578,-1.0813497304916382,-1.2622787952423096,0.0064559997990727425,763,778,782,42.477,0,0
1739354543.962756,0.33997148326023885,1.1453142257238413,0.2845445580645169,-1.2257438732988115,-1.3762884200430006,1.0884408908286733,0.10641840457791531,0.0008926940765067021,-0.0012051970466006613,-0.00014581540608977692,-0.0005189425627646023,-0.000571678366905731,-0.0004888565789292439,-0.0020838248486332906,-0.3817255198955536,-51.62259292602539,4.727583885192871,17.43079376220703,-1.0749410390853882,-1.2558701038360596,0.012864691205322742,764,779,782,42.260,1,0
1739354543.9736905,0.3399715007326982,1.145316531482901,0.28454445080443164,-1.2257397276343749,-1.376285492896635,1.088442470725888,0.10642465508215578,-0.0007939559301894178,0.0006399325679219956,-0.000944979613639271,0.0009168352225399374,0.001416711970524215,-0.0007016545708161052,-3.598199221784134e-05,-0.3539545238018036,-51.67416763305664,4.727583885192871,17.40302276611328,-1.0813497304916382,-1.2696030139923096,-0.0008682189509272575,764,778,781,42.369,0,0
1739354543.9846737,0.33996948861230264,1.1453186050004374,0.2845484182533673,-1.2257379075208126,-1.376285896540675,1.0884432153037675,0.10642834497913789,-0.0005702101239848133,0.00036572773508322166,0.0012200157179934105,0.0005124434787332871,0.00039103527993077195,0.00022777514419042159,0.001050581776840649,-0.3539545238018036,-51.70193862915039,4.676009178161621,17.37921905517578,-1.0813497304916382,-1.2760117053985596,-0.04023589566349983,765,777,781,42.369,1,0
1739354543.9956365,0.33997153239071615,1.1453183694253481,0.2845484192350952,-1.2257415685734456,-1.3762829163298695,1.088441710937503,0.10642627027089091,-0.0003675950176198096,0.0010562878323002536,0.0012746432291168021,-0.0009935973081185933,0.0016474607734348634,0.00017025071958905896,0.00139527694478277,-0.3539545238018036,-51.70193862915039,4.676009178161621,17.43079376220703,-1.0941671133041382,-1.2622787952423096,-0.04023589566349983,763,777,782,42.369,0,0
1739354544.0066302,0.3399697892318995,1.1453233352382959,0.28455049891595113,-1.2257379446303067,-1.3762905515233705,1.088441605313076,0.10642156715026534,-0.0006303579839087949,0.0017850183798736926,0.0007875709626348058,0.0005532302705758673,-0.0019972239524511997,-0.0012479063030932018,-0.0016892049275305018,-0.3301508128643036,-51.74954605102539,4.648238182067871,17.37921905517578,-1.0685323476791382,-1.2622787952423096,0.026597600430250168,764,777,787,42.477,0,0
1739354544.016703,0.3399694895830861,1.145317945870797,0.28455262492396255,-1.2257400109251095,-1.376284431864702,1.0884415917466126,0.10642009496537658,0.0004777592679328346,0.0003476073152058249,0.0012348507032554099,-0.0006375218783819976,0.00015103289058137286,-0.0008970174149341427,-0.002722873012883137,-0.3539545238018036,-51.70193862915039,4.648238182067871,17.37921905517578,-1.0813497304916382,-1.2622787952423096,0.026597600430250168,763,776,780,42.369,0,0
1739354544.0276885,0.3399736133768591,1.145316913904464,0.2845448453089524,-1.2257358439689838,-1.3762859464608534,1.0884426513845122,0.10642795315809077,0.000992400043068836,0.0008288638923757032,-0.0006819164607725557,0.002201213264703532,-0.0003016501903173837,-0.00046822735375227323,0.0014867111509550114,-0.3817255198955536,-51.65036392211914,4.727583885192871,17.35541534423828,-1.0685323476791382,-1.2622787952423096,-0.027418512850999832,763,776,780,42.260,0,0
1739354544.0377355,0.3399732620785505,1.1453198596476544,0.2845445567731237,-1.2257420997144255,-1.3762844311406928,1.0884424576615603,0.10642641540335908,-0.0001361407529574146,0.0014018849507854707,-0.0005609839813043564,0.0002047234149970789,0.00028459357730640676,-0.0008530012097966406,0.0013743536057889633,-0.3817255198955536,-51.72574234008789,4.727583885192871,17.40302276611328,-1.0813497304916382,-1.2696030139923096,-0.027418512850999832,764,776,782,42.369,1,0
1739354544.0487115,0.33997151049935925,1.1453203434487318,0.28454455676823726,-1.2257397276361033,-1.3762887252885194,1.088443522342253,0.10642318214930768,4.926136154436318e-05,0.001540217391363874,-0.0005944973084301444,-0.0010272392867127127,-0.001395820117295105,0.0010651430656686241,-0.0011746439626104596,-0.3539545238018036,-51.72574234008789,4.727583885192871,17.40302276611328,-1.0749410390853882,-1.2696030139923096,-0.027418512850999832,764,777,781,42.369,1,0
1739354544.0596702,0.3399705396210796,1.1453169183174337,0.28454054885114655,-1.2257397272027983,-1.3762868531148233,1.088444888404351,0.10642758853703932,3.314892873712761e-05,0.0005563637075238373,-0.0025300554533712423,-0.0003912259638222707,-9.827609931897361e-05,0.0008669168633693589,0.0009800626801342478,-0.3817255198955536,-51.65036392211914,4.751387596130371,17.40302276611328,-1.0877584218978882,-1.2622787952423096,-0.03382720425724983,764,777,781,42.369,0,0
1739354544.0706248,0.3399715363696347,1.1453206968514402,0.28455125371820755,-1.2257379568082765,-1.3762836737139041,1.0884415923033446,0.10642235519745431,-0.00038316520483473845,0.0017102714210154497,0.0014581039481998963,0.0003207374963509246,0.001063760183814393,0.0007649560088851992,-0.0012753708387808536,-0.3539545238018036,-51.70193862915039,4.676009178161621,17.37921905517578,-1.0877584218978882,-1.2622787952423096,-0.020094294100999832,764,775,780,42.151,0,0
1739354544.081596,0.33997316991223625,1.145318834564595,0.284544556784238,-1.2257361704570746,-1.3762829347166905,1.0884415980451037,0.10642169725432478,-0.00045030364938623444,0.0014719045643530235,-0.0003222829743066716,0.0005477959824437997,-0.0004797638428682837,-0.0010524704975169395,-0.0016844236875643882,-0.4055292308330536,-51.70193862915039,4.727583885192871,17.35541534423828,-1.0941671133041382,-1.2622787952423096,-0.013685601763427258,764,776,781,42.369,1,0
1739354544.091647,0.3399716154474965,1.1453159135716036,0.2845445567682375,-1.2257418154960662,-1.3762866410592922,1.0884447706608775,0.10642377459891776,0.00045430125266091015,0.00102195374776824,0.0005112988276325356,-0.0011996372028903368,-0.0014915373916859678,-7.044163187592059e-05,0.001566246719967061,-0.3539545238018036,-51.67416763305664,4.727583885192871,17.43079376220703,-1.0749410390853882,-1.2622787952423096,-0.020094294100999832,764,775,781,42.369,1,0
1739354544.10268,0.33997460856403866,1.1453205796436126,0.2845466276914363,-1.2257394093114051,-1.3762844376091141,1.0884418981030297,0.1064268841073394,0.0005601987465940677,0.001120948839301744,-8.277184142907424e-05,0.0003013548581631679,-0.0006596519672018402,-0.0005691782152042009,0.002463415143692034,-0.4055292308330536,-51.70193862915039,4.699812889099121,17.40302276611328,-1.0813497304916382,-1.2558701038360596,-0.027418512850999832,764,776,781,42.260,0,0
1739354544.113645,0.3399716154799595,1.1453195522385375,0.28454455629578335,-1.22574180702585,-1.3762851946150085,1.0884418943764627,0.10642706968468146,-0.0009834343356891174,0.00039834791877837853,-0.0008337627847389245,-0.00025930667974039077,0.0014132326297208778,-0.000673978059627589,-0.0003489008186470003,-0.3539545238018036,-51.72574234008789,4.727583885192871,17.43079376220703,-1.0749410390853882,-1.2558701038360596,-0.020094294100999832,765,776,782,42.477,1,0
1739354544.1237078,0.33996990199121613,1.1453107532410827,0.284550507773515,-1.2257418925929369,-1.3762853457842958,1.0884424620222222,0.1064250465047866,-0.0011388338477313397,-0.0019976751990863776,0.001489989754317642,-0.0012726899476605312,-0.0005742678431278628,-0.0007226977868025423,2.305671891003429e-05,-0.3301508128643036,-51.59878921508789,4.648238182067871,17.40302276611328,-1.0749410390853882,-1.2696030139923096,-0.04023589566349983,763,777,780,42.477,1,0
1739354544.1346748,0.3399716154839927,1.1453149285536994,0.28454360309406895,-1.2257418155325914,-1.376287057336296,1.088444770660845,0.1064251570375077,-0.0005613031213652113,-9.475699389534481e-05,-0.0013245181480256761,-0.0012862838497522738,-0.00025311751829682004,-4.588259460882118e-06,0.0009453802638319563,-0.3539545238018036,-51.65036392211914,4.727583885192871,17.43079376220703,-1.0621236562728882,-1.2622787952423096,-0.03382720425724983,764,776,779,42.369,1,0
1739354544.145609,0.3399716144039406,1.1453169098112022,0.2845426817526443,-1.225739727517748,-1.3762837127271355,1.088442457649597,0.10642269858223803,-0.00025077802136483325,0.0008054903902664257,-0.0007075461461895913,0.000223825262124455,0.0006544050731041169,9.464352090543715e-05,-0.0028705785310191327,-0.3539545238018036,-51.65036392211914,4.751387596130371,17.40302276611328,-1.0877584218978882,-1.2696030139923096,0.012864691205322742,764,775,780,42.151,0,0
1739354544.1556873,0.33996992920892627,1.145317839854407,0.2845466369885565,-1.2257379445257823,-1.3762856612052656,1.088445869544757,0.10642305490934863,-0.0007066579407674237,0.0005736029696416091,0.00014550710774877224,0.0008430484694900825,-0.00043206642150154953,0.001486692418657512,0.0008578492197514375,-0.3301508128643036,-51.70193862915039,4.699812889099121,17.37921905517578,-1.0749410390853882,-1.2622787952423096,0.012864691205322742,764,775,782,42.369,1,0
1739354544.1666906,0.33997066678791404,1.145318787344423,0.28454568288377885,-1.2257418069926516,-1.3762844705507218,1.0884416315009047,0.10642696292113228,-0.0006639184798950098,0.0012550189855178742,-0.0004539748227398003,-0.0013012132767838984,-0.000361088747643904,-0.00014224345487996438,0.001899714798147256,-0.3539545238018036,-51.70193862915039,4.699812889099121,17.43079376220703,-1.0813497304916382,-1.2622787952423096,-0.020094294100999832,765,775,782,42.369,0,0
1739354544.1766922,0.3399716154679429,1.1453158420924705,0.2845466277116245,-1.2257400834249639,-1.3762883044923655,1.0884439097409844,0.10642946832218964,-0.000979507362990159,0.0009503568029121507,0.000772934582216874,-0.0008624688573149596,-0.0007566781591461249,4.0984096137374767e-05,0.0034396500368028687,-0.3539545238018036,-51.67416763305664,4.699812889099121,17.37921905517578,-1.0877584218978882,-1.2696030139923096,-0.04023589566349983,765,776,781,42.369,2,0
1739354544.1886973,0.3399736147209444,1.1453165305262722,0.28454384151245,-1.2257400333325519,-1.376285543132773,1.0884424595898794,0.10642708721508055,0.000510172027031804,-0.0002537788784156879,0.00012678748845677617,-0.0007841263870976289,-0.0004668453567550019,-0.00044123256380228324,0.003178916040101258,-0.3817255198955536,-51.67416763305664,4.727583885192871,17.40302276611328,-1.0813497304916382,-1.2696030139923096,-0.020094294100999832,766,776,781,42.260,0,0
1739354544.19966,0.3399736134248646,1.1453180705516404,0.28454216996168163,-1.22573863359396,-1.3762864174311664,1.0884448229885835,0.10642044366779091,0.00048763801487776247,0.000931224873389873,-0.0007421872195826287,0.0004763612930901327,-0.00031246029579564213,0.0004370073201436809,-0.00294861863197635,-0.3817255198955536,-51.70193862915039,4.727583885192871,17.37921905517578,-1.0685323476791382,-1.2622787952423096,0.026597600430250168,767,776,782,42.260,0,0
1739354544.211664,0.33997161548400917,1.1453121195274483,0.2845483127854215,-1.225737865056807,-1.3762847845175668,1.088442475158294,0.10642142924472603,0.00047046121112926786,-0.0008533276776620224,0.0007742019398898766,0.001028150406766592,0.0009767408712710165,-0.0003150285092628786,-0.001442096548586281,-0.3539545238018036,-51.62259292602539,4.676009178161621,17.37921905517578,-1.0813497304916382,-1.2696030139923096,0.026597600430250168,765,775,782,42.260,1,0
1739354544.2226582,0.339971580489787,1.1453121341343029,0.2845459290853076,-1.2257397271905335,-1.3762854927175538,1.088443972963805,0.10642363771910612,-0.00032486612181119654,-0.0018430255214682484,0.0010568658005543619,-0.00070391374540387,0.00032637434066020874,0.00024073522303174504,-0.00024393149793530537,-0.3539545238018036,-51.62259292602539,4.676009178161621,17.40302276611328,-1.0813497304916382,-1.2824203968048096,-0.027418512850999832,765,776,782,42.260,0,0
1739354544.2336144,0.33997532886158105,1.1453160713497637,0.28454455577303384,-1.2257418069926513,-1.3762844332462578,1.0884426146270418,0.10641968848613462,0.0014568604636440701,-0.00037952484642329024,-0.0008043595289500403,-0.0006918131978373739,0.0009333058434113511,-0.00013938500698754822,-0.0007168969063985937,-0.4055292308330536,-51.67416763305664,4.727583885192871,17.43079376220703,-1.0813497304916382,-1.2696030139923096,0.0064559997990727425,765,780,781,42.260,1,0
1739354544.2436645,0.3399716154840585,1.1453185313054344,0.284548419235095,-1.2257397281476037,-1.3762859471069073,1.0884447706634295,0.10642288371426656,8.22288282170489e-05,0.0016519068925376001,0.0005565966870924883,0.00021161742059408331,1.1847701510967531e-05,-0.0005351593685797598,-0.0011088095643552018,-0.3539545238018036,-51.70193862915039,4.676009178161621,17.40302276611328,-1.0685323476791382,-1.2622787952423096,0.0064559997990727425,766,777,782,42.369,2,0
1739354544.2546737,0.33997161548400917,1.1453165337923203,0.28454360309392085,-1.225737944525793,-1.3762889690378441,1.0884442764492086,0.10642926830021326,0.0005590515384807065,0.0009229579770632817,-0.0009281164709050733,0.0006440997574752598,-0.00014171112963670885,7.962333163821745e-05,0.0011638113035053318,-0.3539545238018036,-51.67416763305664,4.727583885192871,17.37921905517578,-1.0685323476791382,-1.2760117053985596,-0.04756011441349983,765,777,781,42.260,0,0
1739354544.2667181,0.3399699031792916,1.145314129347036,0.28453991392951994,-1.2257379945642441,-1.3762852285368319,1.088442575383182,0.10642390749940013,-0.0005838919666679277,-0.00040455528048650194,-0.0014295086369852713,-0.00022901490730734336,0.00022073342064133137,1.7240713153989385e-05,0.0007878822726362006,-0.3301508128643036,-51.65036392211914,4.751387596130371,17.37921905517578,-1.0749410390853882,-1.2696030139923096,0.0064559997990727425,765,778,781,42.369,1,0
1739354544.2776682,0.3399723242370162,1.1453127676513177,0.28454631866127206,-1.225739727093874,-1.3762859508754102,1.0884415917466046,0.1064276328615957,-0.0004586973775518435,-0.0010897074828685833,0.00044204741489371074,-0.0004956556117917042,0.00020776923721234174,-0.0006824290814084731,0.0012160650167277738,-0.3539545238018036,-51.59878921508789,4.699812889099121,17.40302276611328,-1.0685323476791382,-1.2622787952423096,-0.03382720425724983,766,776,782,42.369,0,0
1739354544.2886982,0.3399736134648654,1.1453141292540145,0.2845466272899155,-1.2257418069926507,-1.3762836734806392,1.088444770660771,0.10642596889304602,0.0006281311908285111,-0.0009451713678954438,-0.000227827682318411,-0.0004616037339176079,0.0010053474866699554,-9.218268668290846e-05,-0.0008924663861361688,-0.3817255198955536,-51.65036392211914,4.699812889099121,17.43079376220703,-1.0877584218978882,-1.2622787952423096,-0.013685601763427258,766,777,781,42.260,1,0
1739354544.2996552,0.3399761483098147,1.1453181033036766,0.2845466686088234,-1.225739727202796,-1.3762847858069527,1.088442863202079,0.10642503925359369,0.0012358430635317488,0.001233046320924425,0.00011425301071537171,5.219692032095913e-05,0.001010211454200125,0.00030052677639262956,-0.0007935308527569364,-0.4055292308330536,-51.70193862915039,4.699812889099121,17.40302276611328,-1.0813497304916382,-1.2696030139923096,-0.03382720425724983,765,777,781,42.260,1,0
1739354544.3096972,0.3399718517089356,1.1453139320347896,0.28454584183003856,-1.2257418069926513,-1.3762862484449065,1.0884425753880533,0.10642516379618346,8.033335706154497e-05,-0.0004427950765558574,-0.0002181371850440001,-0.0011683998607554236,-0.000557773895033158,-0.0006979201358620769,-1.0752557459320548e-05,-0.3539545238018036,-51.65036392211914,4.699812889099121,17.43079376220703,-1.0749410390853882,-1.2696030139923096,-0.0072769103571772575,765,777,781,42.260,1,0
1739354544.3207014,0.33997161645740437,1.1453180947992943,0.2845466375256683,-1.2257418067705812,-1.376284449073794,1.0884408529831227,0.10642553251677661,0.00017900750169620646,0.0007520358080813614,0.00046882279537555375,-0.0006141863267588423,0.0007593238231539025,-0.0010369685782788505,-0.0009136433775772906,-0.3539545238018036,-51.70193862915039,4.699812889099121,17.43079376220703,-1.0813497304916382,-1.2558701038360596,-0.0072769103571772575,764,778,782,42.369,1,0
1739354544.3316572,0.33997162426857247,1.145314129557131,0.28454277419923046,-1.2257418070276431,-1.3762844311946292,1.0884432153576356,0.10642390890745977,0.00036085074586410904,-0.0002201743525415533,-0.0009118444417722572,-0.0014238756865815351,0.0006257988502152517,-0.000790647127902166,-0.0006704489910026657,-0.3539545238018036,-51.65036392211914,4.751387596130371,17.43079376220703,-1.0813497304916382,-1.2760117053985596,0.0064559997990727425,764,779,782,42.369,1,0
1739354544.343635,0.3399757393239088,1.1453185285721037,0.2845484192351124,-1.2257372321044626,-1.3762854907788225,1.0884424595816826,0.10641847027997785,7.133555345108548e-05,0.000392345996162587,0.0017645856835420879,0.0014880553715106975,0.0009902099346067524,0.00044663014796103844,-0.004130406181117544,-0.3817255198955536,-51.70193862915039,4.676009178161621,17.37921905517578,-1.0813497304916382,-1.2696030139923096,0.03941498324275017,764,778,783,42.260,1,0
1739354544.3536766,0.3399716154960099,1.1453156948838237,0.2845466365580928,-1.2257397271987744,-1.3762836741864535,1.0884449290977587,0.10642794731601835,0.00010879961530801588,-6.290006828192244e-05,0.000548990592906541,-0.0005090793239293174,0.0006653699304158924,0.0002718826677438002,0.001802621409401745,-0.3539545238018036,-51.70193862915039,4.699812889099121,17.40302276611328,-1.0877584218978882,-1.2622787952423096,-0.027418512850999832,765,779,784,42.260,0,0
1739354544.3645926,0.3399753288617786,1.1453159535516186,0.2845444907908809,-1.2257379445257768,-1.3762840781433276,1.0884456367921835,0.10642428181186875,0.00022879975441033343,0.0012319167206966773,-0.00045017074734326004,0.0004108025664196624,0.0010627435445787544,0.0009580739935120511,-0.00047854817198064687,-0.4055292308330536,-51.67416763305664,4.699812889099121,17.37921905517578,-1.0813497304916382,-1.2696030139923096,-0.027418512850999832,764,778,781,42.369,1,0
1739354544.3746486,0.33997361342491156,1.1453148973712757,0.2845484161463176,-1.2257389664872747,-1.3762846016846102,1.0884428168858709,0.10642551330991439,0.001104334456151073,-0.0002604450600054455,-0.0003717862275818698,-0.000911305433235438,0.0003339751213002049,0.0006068338299273997,0.0005970265950661502,-0.3817255198955536,-51.65036392211914,4.676009178161621,17.40302276611328,-1.0813497304916382,-1.2696030139923096,-0.0072769103571772575,764,777,782,42.151,2,0
1739354544.38566,0.3399736134248622,1.1453178398116541,0.28454455741323276,-1.225743590610184,-1.3762859639044152,1.0884417487318374,0.10642359336060349,-0.0010315688365052109,1.8523161203322716e-05,0.00011457555922811304,-0.002056870878995769,0.0005717471250166096,0.00010235986580025305,0.0012951408520457516,-0.3817255198955536,-51.70193862915039,4.727583885192871,17.45459747314453,-1.0685323476791382,-1.2622787952423096,0.0064559997990727425,765,778,781,42.260,1,0
1739354544.3976517,0.3399752472085935,1.1453178655620755,0.2845445436499499,-1.225737944525782,-1.3762868916409574,1.0884400769654643,0.10642935003282654,0.001230424771968499,-0.00036817298056910806,-0.001395084703916031,0.00019371454406573056,0.00011753542119867847,-0.00020284313480762413,0.0018724099828627799,-0.4055292308330536,-51.70193862915039,4.727583885192871,17.37921905517578,-1.0877584218978882,-1.2494614124298096,-0.04023589566349983,764,779,781,42.260,1,0
1739354544.4076974,0.33997161548356464,1.1453158417616323,0.2845445566591469,-1.2257379457855204,-1.3762859595609682,1.088440834140143,0.10642871077172356,-0.0005809085520412371,0.0005745864782733845,-0.001336796938008952,0.00033215098659844283,-0.0008026111084099695,3.7045506556961e-05,0.0006407783461385782,-0.3539545238018036,-51.67416763305664,4.727583885192871,17.37921905517578,-1.0685323476791382,-1.2558701038360596,-0.03382720425724983,765,777,782,42.151,1,0
1739354544.4186618,0.3399729067359866,1.1453143588290164,0.28454663947427733,-1.2257380465650112,-1.376285360319774,1.0884419464126434,0.1064212116568673,0.00021341270608963789,-0.0007930084694161484,0.0003955148817934014,0.0007619840135422626,-0.0013327905923701713,-0.0013321821422134588,-0.002176198427050878,-0.3817255198955536,-51.65036392211914,4.699812889099121,17.37921905517578,-1.0749410390853882,-1.2622787952423096,0.026597600430250168,765,776,781,42.369,0,0
1739354544.4286807,0.33997162756880944,1.1453158417653744,0.2845466355769958,-1.2257379435463585,-1.3762879632706952,1.0884417501893662,0.10642596889311046,-0.0004527804953145154,-0.0007251990498578986,0.0001794824607073587,0.0008362345860150236,-0.0005381520671150968,-0.0009595169654288953,-0.0012018797043901307,-0.3539545238018036,-51.67416763305664,4.699812889099121,17.37921905517578,-1.0813497304916382,-1.2622787952423096,-0.013685601763427258,765,778,781,42.260,0,0
1739354544.4396152,0.33997256356828176,1.1453158417614864,0.28454636281823714,-1.2257361618487521,-1.376285086566733,1.0884442749427174,0.10642444753583202,-3.2959476943714985e-05,-0.00036567777263866975,-0.000602969899096923,0.001645735721326145,-0.0005692664326349287,-0.0002452030066844579,0.00026747542920778486,-0.3539545238018036,-51.67416763305664,4.699812889099121,17.35541534423828,-1.0877584218978882,-1.2760117053985596,-0.03382720425724983,764,776,781,42.260,1,0
1739354544.4497051,0.3399684266696023,1.1453158417614864,0.28454663655345697,-1.225740010820129,-1.3762836778651957,1.0884436350372597,0.10642708557434342,-0.0017927903712345972,9.698518899124177e-05,0.0006153637525100858,0.00041365355430002465,0.00141413792165045,-5.562869453238853e-05,0.0010867803403840101,-0.3063471019268036,-51.67416763305664,4.699812889099121,17.37921905517578,-1.0877584218978882,-1.2696030139923096,-0.020094294100999832,764,775,782,42.477,2,0
