IITGN-Robotics/Franka_IITGN_ROBOTICS/franka_ros/franka_iitgn/data02/s_b_006.csv
time,fr3_joint1_pos,fr3_joint2_pos,fr3_joint3_pos,fr3_joint4_pos,fr3_joint5_pos,fr3_joint6_pos,fr3_joint7_pos,fr3_joint1_vel,fr3_joint2_vel,fr3_joint3_vel,fr3_joint4_vel,fr3_joint5_vel,fr3_joint6_vel,fr3_joint7_vel,fr3_joint1_eff,fr3_joint2_eff,fr3_joint3_eff,fr3_joint4_eff,fr3_joint5_eff,fr3_joint6_eff,fr3_joint7_eff,flexpin1,flexpin2,flexpin3,Force,ContactMic,ContactMic_gt
1739354894.6317341,0.32951225447411575,1.1502473249750305,0.29900371779304996,-1.228212551830001,-1.3968390374051847,1.0772076053934925,0.11471396631543107,-0.000755187128624297,0.0002445093708280632,-0.0012824521295161195,0.0004949465625872871,-0.00035911126848325143,-2.609119301811121e-05,-0.001278423318948495,-1.603649377822876,-51.26553726196289,4.168196678161621,17.01026153564453,-1.0877584218978882,-1.5259506702423096,0.019273381680250168,,,,,,,,,
1739354894.6417692,0.32951658567762293,1.1502443555702557,0.2990019214727365,-1.228214338431689,-1.3968374007657085,1.0772068477334116,0.11471128094192773,0.0002888527568837263,-0.0008936918573203565,-0.0004135225397582402,-0.0003172434168610194,-0.000414808045132698,9.882351558146755e-05,-6.68467977194677e-05,-1.651256799697876,-51.23776626586914,4.192000389099121,17.03406524658203,-1.1014913320541382,-1.5195419788360596,0.026597600430250168,,,,,,,,,
1739354894.6518083,0.3295139284917634,1.1502501274040084,0.2990057424549592,-1.2282144136529807,-1.396834278551508,1.0772083630535683,0.11470688644533661,-0.0024192133596610075,0.0005153393431928662,-0.0009823840297576295,0.00019863557595208516,0.0010194461878081634,0.00045905539566874325,-0.002142769080991611,-1.627453088760376,-51.28934097290039,4.168196678161621,17.03406524658203,-1.1271260976791382,-1.5323593616485596,0.05314789339900017,,,,,,,,,
1739354894.6627438,0.3295148649174362,1.1502434236086345,0.29900585233245325,-1.2282087458349773,-1.396836669267762,1.0772083630535683,0.11470695466725045,-0.00023691463757563418,-0.0010008106885661357,0.0008188497252437595,0.001253209863490021,-3.2821979067627796e-05,0.0004148653182022877,-0.0021876867615111743,-1.627453088760376,-51.23776626586914,4.168196678161621,16.95868682861328,-1.1079000234603882,-1.5323593616485596,0.07969819009304047,,,,,,,,,
1739354894.6737933,0.32951595047609633,1.150244279054464,0.29901938447523924,-1.2282101713720825,-1.3968351520115323,1.0772116373100498,0.11471228386451471,-0.001318688188238954,-0.0009386378222199398,0.0033329997401492038,0.0007059396509126478,0.0004949206349996163,0.0007189481108406206,-0.00170764905945152,-1.302135705947876,-51.23776626586914,4.370528221130371,17.08167266845703,-1.1207174062728882,-1.4664413928985596,0.0064559997990727425,,,,,,,,,
1739354894.6838164,0.3295314193567487,1.150254506351623,0.29906376560170717,-1.2281842801235592,-1.396837877181949,1.0772238118916686,0.11470831417049979,0.002142099440645996,0.0008487296027115286,0.002454894040970246,0.0010713277734562456,-0.0006760507131185441,0.0013976621360774924,-0.0009172407515748234,-0.6554681658744812,-51.36868667602539,4.854537010192871,17.10944366455078,-1.1335347890853882,-1.3812973499298096,0.05314789339900017,,,,,,,,,
1739354894.6958265,0.32955772403418326,1.1502537616660569,0.29908359334465856,-1.22814849375227,-1.396833643498537,1.0772188062757568,0.11471680131543967,0.0016332150816835778,-0.000282423718195742,0.0018836645344917793,0.004173144616286144,-0.00037595902740860624,-0.0004722078658882016,0.002294727123555055,-0.5562860369682312,-51.36868667602539,4.878340721130371,17.15705108642578,-1.1335347890853882,-1.3089706897735596,-0.020094294100999832,,,,,,,,,
1739354894.706823,0.3295619182175967,1.1502553724701214,0.29908444210503055,-1.2281256165793712,-1.3968334410049323,1.0772194617071884,0.11471390551240286,-0.0007965183986507866,-0.0017619211191789105,0.0006193134400916621,0.002529575548555704,0.00014368247945442455,-0.000365768036113199,-1.0384339628511296e-05,-0.4293329417705536,-51.39249038696289,4.953719139099121,17.15705108642578,-1.1472676992416382,-1.3025619983673096,-0.0072769103571772575,,,,,,,,,
1739354894.7168286,0.32956937887313165,1.1502649653238208,0.29908050529358754,-1.2281198011586423,-1.3968335453616783,1.0772217340440602,0.11471148480910143,0.0008083941781858533,0.0005945214967582532,0.0007514155933918522,0.0004989801542445105,-0.0002746081354283323,4.6246130698816764e-05,-0.0015468206480825806,-0.4571039378643036,-51.49563980102539,5.005293846130371,17.18085479736328,-1.1472676992416382,-1.3217880725860596,0.012864691205322742,,,,,,,,,
1739354894.7278519,0.3295683389376187,1.1502629119301702,0.29908441150198084,-1.2281195215811904,-1.396833762207129,1.0772209765454763,0.11471166387754446,0.00037912951543001857,-0.00023978969777915799,0.0008983499237014175,0.0006849041171032271,-0.0007390304524628791,-0.0004888510647847963,-0.000371182181561396,-0.4293329417705536,-51.49563980102539,4.953719139099121,17.23242950439453,-1.1335347890853882,-1.3153793811798096,0.03941498324275017,,,,,,,,,
1739354894.7387743,0.3295715147155072,1.1502632558565098,0.2990823403538098,-1.2281155634987297,-1.3968312574127513,1.0772178381525341,0.11470593838454685,-0.00045798409163329333,-8.343288450126892e-05,0.0001060371715841783,0.0005594450544544237,-4.049692270762172e-05,1.616445580785639e-05,-0.0027634243285004044,-0.4293329417705536,-51.47183609008789,4.981490135192871,17.20862579345703,-1.1536763906478882,-1.2888290882110596,0.05955658480525017,,,,,,,,,
1739354894.7488136,0.32957275479619585,1.1502686758343172,0.299082130064505,-1.228119012701823,-1.3968330747102613,1.0772146592381489,0.11471310397769002,0.0012165290578971533,-0.00045411145502881014,-0.000454933827765565,-0.0007044670335737047,6.721052417911797e-05,-0.0001921675100556219,-0.0015173115565775726,-0.4055292308330536,-51.54721450805664,4.981490135192871,17.25623321533203,-1.1472676992416382,-1.2888290882110596,-0.0008682189509272575,,,,,,,,,
1739354894.7597427,0.3295683481780993,1.1502666109571595,0.29907459566345435,-1.2281149160448341,-1.3968338757794552,1.0772146587356872,0.11471462368587537,-0.001443281125664614,-0.00013941887045987127,-0.0011196613687086978,-0.0002401052959816872,-0.0002177235276829311,-0.0002170690137491741,0.001121179307998512,-0.3539545238018036,-51.54721450805664,5.056868553161621,17.23242950439453,-1.1335347890853882,-1.2888290882110596,-0.013685601763427258,,,,,,,,,
1739354894.7697723,0.3295732435138162,1.1502672835404548,0.2990795603056541,-1.2281106209543635,-1.3968317283663494,1.077217080277109,0.11470783490223736,1.6705893794344252e-05,0.0005792724885556309,-0.0007420576832083421,0.0015701501720618456,0.0011614294688415273,-0.00017252595047594858,-0.00044868891677011684,-0.4055292308330536,-51.54721450805664,5.005293846130371,17.15705108642578,-1.1536763906478882,-1.2824203968048096,0.04673920199275017,,,,,,,,,
1739354894.7798321,0.3295791782543916,1.1502621794421144,0.2990792609531262,-1.2281102579960503,-1.3968330001684601,1.0772185434848025,0.11470834593708512,0.0010884793934547391,-0.0012207812643679418,-0.0005508561545884706,0.0012151814067628414,0.0001191418911195877,0.0015045518373080567,-0.002244623829743252,-0.4571039378643036,-51.47183609008789,4.981490135192871,17.18085479736328,-1.1399434804916382,-1.2952377796173096,0.03941498324275017,,,,,,,,,
1739354894.7908528,0.3295772200331286,1.150271380590816,0.29908614930489075,-1.228114083361057,-1.396832014589634,1.0772198613111625,0.11471356317862814,6.617692807901002e-06,0.0016293127530777368,0.0011365632673810344,6.30410765679223e-05,0.00014289975526533583,0.0013165470908444046,0.0011745795876609262,-0.4293329417705536,-51.57101821899414,4.929915428161621,17.23242950439453,-1.1472676992416382,-1.3089706897735596,-0.0072769103571772575,,,,,,,,,
1739354894.8018548,0.3295779699674792,1.150271207399862,0.29907880099346956,-1.228114032341327,-1.3968328809693635,1.0772179963151851,0.1147186284601402,0.000616284660109066,0.001304070879191504,-0.00017955460429295298,0.0006398761837868587,0.00030143517765537524,-0.0003343412708347798,0.003385983476890193,-0.4293329417705536,-51.59878921508789,5.029097557067871,17.23242950439453,-1.1399434804916382,-1.3025619983673096,-0.04756011441349983,,,,,,,,,
1739354894.8128285,0.3295762353002091,1.1502697398010033,0.29908130813245404,-1.2281120510782884,-1.396832920215221,1.077214870710868,0.11471538718754364,0.0007681680849836987,0.0006060309911207064,0.0007315137147243798,0.00015226849937568986,-0.0003724963546323392,-0.0018793061360804046,0.0006826586206661676,-0.4055292308330536,-51.54721450805664,4.981490135192871,17.23242950439453,-1.1399434804916382,-1.2760117053985596,-0.020094294100999832,,,,,,,,,
1739354894.8238213,0.3295732403300477,1.1502591488318477,0.299081655152521,-1.2281066895415034,-1.3968368174363817,1.077216322824183,0.11471568829111618,-0.0008248733122595576,-0.0022858727997898394,-0.0004473628017059945,0.0015062486122945989,-0.0006707156068832531,-0.00019691556692738067,6.823776273411715e-05,-0.3539545238018036,-51.44406509399414,4.981490135192871,17.13324737548828,-1.1335347890853882,-1.2760117053985596,-0.013685601763427258,,,,,,,,,
1739354894.8347428,0.329578014588131,1.1502641637798854,0.29908054903510073,-1.2281092722604998,-1.396833690981178,1.077217837937196,0.11471386602782503,0.00021941208479234902,7.811351940127935e-05,-0.0002555799147961176,-0.00043979920817118303,-0.0003382738954645756,-0.0004122039031803644,0.0014347728776948334,-0.4293329417705536,-51.47183609008789,5.005293846130371,17.20862579345703,-1.1335347890853882,-1.2888290882110596,-0.0072769103571772575,,,,,,,,,
1739354894.8457468,0.329580856333343,1.1502697457232731,0.29907459566419753,-1.2281145836021528,-1.3968328809702508,1.0772185958126115,0.1147085446390261,0.0009427289880099458,-0.00014625312710252257,-0.0008300527686464855,-0.0009540639754807792,0.00035528565876974454,-0.0003141209239412237,-6.696811945575875e-05,-0.4293329417705536,-51.54721450805664,5.056868553161621,17.28003692626953,-1.1399434804916382,-1.2952377796173096,0.04673920199275017,,,,,,,,,
1739354894.8558524,0.3295809899169713,1.1502731137674835,0.299080505137652,-1.2281128006095732,-1.3968317282008278,1.077217702972364,0.1147173669547481,0.0002490196372237788,0.0007587953814517337,-0.00041764294389282466,0.00013917579434084926,-0.002278448456105548,0.00011732899580782837,0.0010061982698100279,-0.4293329417705536,-51.59878921508789,5.005293846130371,17.25623321533203,-1.1536763906478882,-1.2888290882110596,-0.0008682189509272575,,,,,,,,,
1739354894.866815,0.32958309228808835,1.150269739837187,0.2990787974649505,-1.228109243758802,-1.39683605988641,1.0772132463865467,0.1147146178052286,0.00023208660412558178,-0.0003463517985642132,-0.0005497620245643219,0.0003933750745588069,-0.0007201478489133872,-0.0009720177422193612,0.001999904604999191,-0.4571039378643036,-51.54721450805664,5.029097557067871,17.20862579345703,-1.1399434804916382,-1.2888290882110596,-0.013685601763427258,,,,,,,,,
1739354894.8788075,0.32958041893753365,1.1502653229520827,0.2990780664389529,-1.2281071555007186,-1.3968306818241012,1.0772158518561799,0.11471232587120199,0.0007700832155744093,-0.0008571343211180811,-0.0007838918961185563,0.0010420469254479453,0.0014829618739333808,-0.0011910848500391868,0.0008642583141292204,-0.4293329417705536,-51.49563980102539,5.029097557067871,17.18085479736328,-1.1536763906478882,-1.2760117053985596,-0.0072769103571772575,,,,,,,,,
1739354894.8897977,0.32957791034611755,1.1502677507151422,0.29908141879010425,-1.2281145028325842,-1.39683606009801,1.0772181897866935,0.11471236075507778,-0.0005475891597233893,-0.0001597007651407917,0.00017267261697851083,-0.0008864898006843841,-0.000554971373674467,0.00026020113479144417,0.0010014696416628132,-0.3817255198955536,-51.51944351196289,4.981490135192871,17.28003692626953,-1.1399434804916382,-1.2952377796173096,0.0064559997990727425,,,,,,,,,
1739354894.8998663,0.3295793818311757,1.1502621769764874,0.2990797963205893,-1.2281107795126107,-1.3968308531800295,1.0772170761249316,0.11470783490424055,0.00019956165109859193,-0.0015276023218395735,-1.382851954556685e-05,8.049558834329388e-06,0.001035991267289809,0.00010121057597133981,-0.0007356953298559216,-0.4055292308330536,-51.47183609008789,5.005293846130371,17.23242950439453,-1.1600850820541382,-1.2824203968048096,0.04673920199275017,,,,,,,,,
1739354894.910776,0.32958109434782484,1.1502668875980369,0.29907573060620046,-1.228107154374169,-1.396830382177906,1.0772177202534368,0.11471080594878928,0.0006773462663196396,-0.00010437102116353926,-0.002005054844011279,-0.0004620730656331283,-0.00026651724299201174,-0.0003215145855459889,-0.0006122535619622342,-0.4293329417705536,-51.54721450805664,5.029097557067871,17.18085479736328,-1.1600850820541382,-1.2888290882110596,0.019273381680250168,,,,,,,,,
1739354894.9208612,0.32958031073858834,1.1502660116684642,0.29908035954141576,-1.2281068096660557,-1.3968320165236912,1.0772202193679292,0.11470986125256658,-5.3292909614064765e-05,0.00035724656703022705,0.0014982866802367423,0.0009544030993584066,-0.0007110594369871329,0.0007599137752005629,-0.0007366313707881255,-0.4571039378643036,-51.49563980102539,5.005293846130371,17.18085479736328,-1.1472676992416382,-1.3089706897735596,0.026597600430250168,,,,,,,,,
1739354894.9308784,0.32957828724082266,1.1502677507281518,0.29908032157019376,-1.2281078802204575,-1.3968317797585224,1.0772159808174087,0.11471310836574347,-0.0007925643079950833,-0.0006101997783277285,0.0018453240056404393,0.0005232774904819796,0.0008933695788880523,-0.000647299036823152,0.0003660769522580178,-0.4293329417705536,-51.51944351196289,5.005293846130371,17.23242950439453,-1.1472676992416382,-1.3089706897735596,-0.0008682189509272575,,,,,,,,,
1739354894.9429028,0.3295832401355293,1.150269735914551,0.29908055735148614,-1.2281110051235975,-1.3968312574107251,1.0772156676176925,0.11470985534652067,3.1935389467060787e-05,-0.0005450165155956364,0.00033084458660384905,-0.0005448284790094199,0.0013469902577429266,-0.0008516322040300112,0.0005169184477217488,-0.4293329417705536,-51.54721450805664,5.005293846130371,17.23242950439453,-1.1536763906478882,-1.2824203968048096,0.026597600430250168,,,,,,,,,
1739354894.9538298,0.32958343961854686,1.1502697442724408,0.29907834104017916,-1.228116021145128,-1.3968291893704536,1.0772170804897998,0.11471041708491903,0.0004542105385654682,0.0005880632970546763,-0.0018291847075553246,-0.0011451514136527005,-0.0003284570336102533,0.0011821229552274797,-0.0005264586879676403,-0.4571039378643036,-51.54721450805664,5.005293846130371,17.30384063720703,-1.1472676992416382,-1.2824203968048096,0.012864691205322742,,,,,,,,,
1739354894.964743,0.32957946130191407,1.1502695863078671,0.2990813076517687,-1.228110699712118,-1.3968334298450868,1.0772178359991291,0.11470832109061815,2.910587672213929e-05,0.00026881034757206875,0.0003955984300502475,0.0007764236375756804,-0.0019121897996795998,0.0004252543291405896,-0.0017806478236243755,-0.4055292308330536,-51.54721450805664,4.981490135192871,17.23242950439453,-1.1472676992416382,-1.2888290882110596,0.026597600430250168,,,,,,,,,
1739354894.974865,0.32957992202257147,1.1502677418900344,0.29907987242767203,-1.2281080479861834,-1.3968328810412423,1.0772178381524273,0.11470834585282713,-0.0006832232450795059,0.00021316698244855614,-0.00014160911023969428,-0.0002919044053216819,-0.000686298192219145,0.0010447139695203185,-0.0019488544997814897,-0.3817255198955536,-51.51944351196289,5.005293846130371,17.23242950439453,-1.1399434804916382,-1.2888290882110596,0.03941498324275017,,,,,,,,,
1739354894.9858534,0.3295841949285712,1.1502697133481334,0.2990777493506397,-1.2281080734953922,-1.396831375149624,1.0772159652590196,0.11471386115037156,0.0005577499185471505,0.0007455218742405017,-0.0007063604286380687,0.00026893074262415966,-0.00023754454743887257,-0.0007835378804156208,0.000877734207151598,-0.4293329417705536,-51.54721450805664,5.005293846130371,17.23242950439453,-1.1536763906478882,-1.2760117053985596,-0.0072769103571772575,,,,,,,,,
1739354894.9967637,0.32958430402274774,1.1502704279339266,0.2990823663303233,-1.2281087568811524,-1.3968312968196372,1.0772164122190728,0.11470747987131884,0.0006400615946824532,0.00034948321830764577,0.0002955490730088709,0.0006448651015301744,0.0005613335764493349,-0.00015186548027621354,-0.00011027319042150965,-0.4293329417705536,-51.57101821899414,4.981490135192871,17.23242950439453,-1.1536763906478882,-1.2888290882110596,0.04673920199275017,,,,,,,,,
1739354895.0067992,0.32958317192490993,1.1502714307571482,0.2990766754546394,-1.2281113650880544,-1.3968336791515474,1.077220218861261,0.11470915852923277,0.000861191874596843,-4.957324428251828e-05,-0.000634965235500796,-0.001246660677339461,0.0013008795257137482,0.0009159949045098369,-0.0008189103431498907,-0.4571039378643036,-51.57101821899414,5.029097557067871,17.28003692626953,-1.1600850820541382,-1.3089706897735596,0.05955658480525017,,,,,,,,,
1739354895.018346,0.32958358449787833,1.1502674328369904,0.29907958692861575,-1.2281067407271116,-1.3968335992938634,1.0772170804924555,0.11471417298895571,0.0003603232438067978,-0.0016523762347691953,-2.9983493903294362e-05,0.0006439329052707256,0.0009197511900311804,0.00011979762633476193,0.0008798467959910416,-0.4293329417705536,-51.51944351196289,5.005293846130371,17.20862579345703,-1.1335347890853882,-1.2824203968048096,-0.0008682189509272575,,,,,,,,,
1739354895.0287895,0.329578739206078,1.1502677502907417,0.2990821304550502,-1.228109582435245,-1.39683201507191,1.0772170804924583,0.11470834593708523,-0.0010789599300516962,0.0004210172119087048,0.00022460500824441726,-0.0007144738428714823,0.001320549803475362,0.0005137055125402524,-0.0012235125443967325,-0.3817255198955536,-51.51944351196289,4.981490135192871,17.25623321533203,-1.1472676992416382,-1.2824203968048096,0.03941498324275017,,,,,,,,,
1739354895.038816,0.3295818719948165,1.1502707371041228,0.2990803444674486,-1.2281113646357804,-1.3968368175438306,1.0772143514458967,0.11471021546956657,0.00047746409721894983,0.0009228414688106706,-0.0007311873374572979,-0.0009938754166714141,-0.0024223286680713258,-0.0014220636644677294,-0.00038820008397422905,-0.4055292308330536,-51.57101821899414,5.005293846130371,17.28003692626953,-1.1335347890853882,-1.2952377796173096,0.026597600430250168,,,,,,,,,
1739354895.0497673,0.32958180574520224,1.150266808169558,0.29907837842125085,-1.2281111262171933,-1.3968312617906493,1.0772177858007683,0.11471462368789971,-0.00032330893085362336,-0.0017415874511604798,0.0009816583984764936,-0.0004392850544030159,-0.0003315829380635669,0.000709120575437012,0.0016006984531339767,-0.4055292308330536,-51.54721450805664,5.005293846130371,17.28003692626953,-1.1536763906478882,-1.2888290882110596,-0.013685601763427258,,,,,,,,,
1739354895.059823,0.32958630994489047,1.1502677505697874,0.2990805459748954,-1.2281096176030357,-1.3968338101484457,1.077213599599133,0.11471148480843275,0.0011920700552151121,-0.0014873098262508746,0.0001428463070208873,-4.255908575088161e-05,-0.0012964560490239217,-2.3471680882037823e-05,0.0003951537100341315,-0.4571039378643036,-51.51944351196289,5.005293846130371,17.25623321533203,-1.1335347890853882,-1.2888290882110596,0.012864691205322742,,,,,,,,,
1739354895.070759,0.32958260036888964,1.1502702555954003,0.2990791896857216,-1.2281077992819356,-1.3968319147781332,1.0772170804146963,0.11471374852521084,-0.0007093124409447137,0.00024768531426130896,-0.0003780545235587329,0.001074945089742987,-2.8904076324181153e-05,0.0005842628754531707,0.00013409629299229427,-0.4055292308330536,-51.51944351196289,4.981490135192871,17.23242950439453,-1.1472676992416382,-1.2824203968048096,-0.0072769103571772575,,,,,,,,,
1739354895.0808444,0.32958431364365376,1.1502677507710213,0.2990759288574363,-1.2281060166047153,-1.396831039377818,1.0772178381525357,0.11471070959485538,0.0002965910123668153,3.954954002883057e-05,-0.00017343155049247307,0.0003650981164432423,0.00030907343210797997,0.0010392024266069574,-0.000361771873431674,-0.4293329417705536,-51.51944351196289,5.029097557067871,17.20862579345703,-1.1536763906478882,-1.2888290882110596,0.019273381680250168,,,,,,,,,
1739354895.0917864,0.32958088795718393,1.1502676029372354,0.29908021418677905,-1.2281060166047153,-1.396833786948651,1.0772162695520016,0.11470909026482524,-6.835636677032914e-05,0.00015231511622045262,0.0012860511628531787,-0.0005395473369550209,-0.000943003899726757,-0.0011111010379318868,-0.0005940662041675363,-0.3817255198955536,-51.54721450805664,4.981490135192871,17.20862579345703,-1.1472676992416382,-1.3025619983673096,0.03300629183650017,,,,,,,,,
1739354895.1018107,0.32958431310664954,1.1502704985401968,0.2990805052572088,-1.2281056495899367,-1.396833691471775,1.077217080438399,0.1147098612510064,0.001149802512100408,-6.87093543561922e-05,0.0001969332634735392,0.0009016392224329836,-0.0001330798654942082,-0.00020970623214036746,0.00026210345186332683,-0.4293329417705536,-51.57101821899414,5.005293846130371,17.23242950439453,-1.1335347890853882,-1.2824203968048096,0.026597600430250168,,,,,,,,,
1739354895.1118495,0.3295826005859202,1.150269748653152,0.29908444249994864,-1.2281039367784545,-1.396828954542231,1.0772132069799467,0.11471310836574346,-6.766708264380693e-05,-0.00042632415202903753,0.0005120836400764109,0.002011896101635977,-0.0001225419523022015,-0.0012847358556382354,0.0011809984964383153,-0.4055292308330536,-51.54721450805664,4.953719139099121,17.18085479736328,-1.1472676992416382,-1.2888290882110596,-0.0008682189509272575,,,,,,,,,
1739354895.1227689,0.32958262672357874,1.1502652605789971,0.2990805798183718,-1.2281053025481565,-1.396832217702476,1.0772159772216785,0.11470746687012859,0.00011858042137881694,-0.0013960121132284553,0.0006962089300700176,0.00021760470114900137,2.1823931184654583e-05,-0.000990576218762874,-0.0009610107512284061,-0.4055292308330536,-51.51944351196289,5.005293846130371,17.20862579345703,-1.1729024648666382,-1.2824203968048096,0.04673920199275017,,,,,,,,,
1739354895.1328046,0.32958431299908714,1.1502694277924055,0.29907743325451264,-1.228109581946661,-1.3968320194875383,1.0772178361957858,0.11470471804533133,0.00036497294573470965,-0.0002565809848734305,-0.0010126320217060346,-0.0006883539411008105,0.00047278155092146613,-0.000771386875759872,-0.004408839438155164,-0.4293329417705536,-51.54721450805664,5.005293846130371,17.25623321533203,-1.1472676992416382,-1.2888290882110596,0.06596527993679047,,,,,,,,,
1739354895.1428428,0.3295846279466423,1.1502676028968084,0.29907668640819945,-1.2281074332481021,-1.3968312574121282,1.0772183975495286,0.11471072714018309,0.0016306712795845471,-0.0015129969651618749,-2.8795553133028826e-05,-0.00017411353114678703,0.001002095063808036,0.0008227158594752015,0.0007349359389899211,-0.4293329417705536,-51.54721450805664,5.056868553161621,17.25623321533203,-1.1536763906478882,-1.3025619983673096,0.019273381680250168,,,,,,,,,
1739354895.1538417,0.3295863109412736,1.1502712194149818,0.29907869298656287,-1.2281106493679055,-1.3968320165256822,1.0772182418940406,0.11471082073318249,2.9253208726325855e-05,0.00043270510599000694,-0.00036609253355152343,-0.0002239687119496757,0.0012357259218961387,0.0010772316032705291,-0.0010613616852536887,-0.4571039378643036,-51.57101821899414,5.029097557067871,17.28003692626953,-1.1472676992416382,-1.2952377796173096,0.0064559997990727425,,,,,,,,,
1739354895.1648273,0.3295843917356426,1.150270974540198,0.2990784860810109,-1.2281099421014694,-1.3968330751947862,1.0772185958106173,0.1147066624606034,-0.00010681392269514184,0.0007318036577124928,-0.0009583389007087888,0.00011017257153224524,-0.0012248674347486391,0.0004362207342020535,-0.000704847716315003,-0.4293329417705536,-51.57101821899414,5.029097557067871,17.23242950439453,-1.1472676992416382,-1.2952377796173096,0.026597600430250168,,,,,,,,,
1739354895.1758013,0.3295843129999761,1.150271143290505,0.2990766372148787,-1.2281077964836002,-1.3968305120608167,1.0772194617098474,0.11470596449699953,-0.000627634037908769,0.00034529907639256304,-0.0008292588735427855,2.8810025231847296e-05,1.3614343530876877e-05,0.0003025688213588618,-0.002503180081648116,-0.4293329417705536,-51.57101821899414,5.029097557067871,17.23242950439453,-1.1335347890853882,-1.3025619983673096,0.05955658480525017,,,,,,,,,
1739354895.1858628,0.32958269120367273,1.1502714611883909,0.2990823277769929,-1.2281059371318397,-1.3968336971844844,1.0772124882427145,0.11471072714846327,0.0003571424624346373,0.0004092944205735838,-6.683661227561229e-05,0.0002632236161467695,-0.001547463733974282,-0.0014972857004963748,3.034632540573408e-05,-0.4055292308330536,-51.57101821899414,4.981490135192871,17.20862579345703,-1.1335347890853882,-1.2824203968048096,0.019273381680250168,,,,,,,,,
1739354895.1967375,0.329582600479448,1.1502723143673321,0.2990805830579408,-1.228105990112416,-1.3968321328106936,1.077218595734845,0.11471398415277159,-0.0004650202316382955,0.001371452843952862,-0.0014281942296939163,0.001121438891509008,0.000533232033242067,3.9260290133828475e-05,0.00010656612493559442,-0.4055292308330536,-51.54721450805664,5.005293846130371,17.20862579345703,-1.1472676992416382,-1.2952377796173096,-0.0072769103571772575,,,,,,,,,
1739354895.2068079,0.32958217597998635,1.150274112028124,0.29907880135363724,-1.2281113646356228,-1.3968360657524532,1.077220937784147,0.11470748003450984,-0.00011295848349599674,0.0008585693085956078,0.00018799385756316736,-0.00048767180767336787,-0.0011433467681890906,0.0002774310968525948,-0.001608684577395417,-0.4293329417705536,-51.62259292602539,5.029097557067871,17.28003692626953,-1.1399434804916382,-1.3153793811798096,0.04673920199275017,,,,,,,,,
1739354895.2178574,0.32958619392503335,1.1502694029728855,0.29907879127300263,-1.2281074361915416,-1.396832002008158,1.0772178381523154,0.11470667849471662,0.0015544911982391038,-0.0007182759577082116,0.000470066920759565,-4.163608175659884e-05,0.0011631536626244344,0.0001224200615867392,-0.00043157458806431415,-0.4809076488018036,-51.54721450805664,5.029097557067871,17.25623321533203,-1.1472676992416382,-1.2888290882110596,0.05314789339900017,,,,,,,,,
1739354895.2288275,0.32958472636658076,1.1502714640226568,0.29907643632740405,-1.228105289563108,-1.3968328859759636,1.0772170804924583,0.11471310766126412,-0.0003110159536502474,0.0008739935731636659,-0.0006935681092740918,0.0009917572996164712,2.24312634048876e-05,-0.0007005120612036935,0.0027245198381131313,-0.4055292308330536,-51.57101821899414,5.029097557067871,17.20862579345703,-1.1399434804916382,-1.2824203968048096,-0.0008682189509272575,,,,,,,,,
1739354895.2398078,0.3295809226363544,1.1502714611902014,0.29907960417909035,-1.22810598127934,-1.3968344891387954,1.0772178381525368,0.11470276571439274,-0.0008581371600638381,0.0017258006331650347,0.00040924448255268397,0.0010325036540680757,0.0003809403247636297,-0.00032911234867227107,-0.0015790396411386007,-0.3817255198955536,-51.57101821899414,5.005293846130371,17.20862579345703,-1.1536763906478882,-1.2888290882110596,0.05955658480525017,,,,,,,,,
1739354895.2498171,0.32958092295198976,1.1502678272580216,0.29907853013182706,-1.2281060133336288,-1.3968349481340492,1.0772185914519643,0.11470479004885797,-0.001306640593215847,-4.761721105770795e-05,-0.0005270025499567055,0.0004373420011332361,9.709820129706236e-05,0.0006319565870044221,-0.0022053183439359907,-0.3817255198955536,-51.51944351196289,5.029097557067871,17.20862579345703,-1.1399434804916382,-1.2952377796173096,0.03941498324275017,,,,,,,,,
1739354895.2607477,0.3295856712211047,1.1502668611559839,0.2990804786144368,-1.2281077992817158,-1.3968312574775579,1.0772170804924337,0.11470974270355762,0.000743179988091519,-0.0010568412638978198,0.000500479165207732,-0.0001671526943330708,0.0005083060476304936,0.0007874520556433901,-0.0002913051417089004,-0.4055292308330536,-51.54721450805664,5.005293846130371,17.23242950439453,-1.1536763906478882,-1.2824203968048096,0.026597600430250168,,,,,,,,,
1739354895.2708201,0.329585551709318,1.1502695363295408,0.299078486403858,-1.2281077738809438,-1.396832368284843,1.077218595812615,0.11470836280337296,0.0005161756912028948,-0.001073222773629735,-0.0008646516794858974,-0.0006533837791635096,0.0003242461953666232,0.0011492400355437716,0.0013467677093241886,-0.4055292308330536,-51.54721450805664,5.029097557067871,17.23242950439453,-1.1472676992416382,-1.2952377796173096,0.03941498324275017,,,,,,,,,
1739354895.2818236,0.32958183281783876,1.15027345912984,0.29907836664807774,-1.228107799281591,-1.3968336444456375,1.077218595812615,0.11470752251541703,-0.0012928471321128911,0.0006520677532000696,-6.4189485085487e-06,-0.0005081920338554123,0.00013500056880145974,0.0011349942691168606,-0.0002607791253080098,-0.3817255198955536,-51.59878921508789,5.005293846130371,17.23242950439453,-1.1335347890853882,-1.2952377796173096,0.019273381680250168,,,,,,,,,
1739354895.2918541,0.32958567134491534,1.1502697779584918,0.2990787711821776,-1.2281060430956685,-1.3968360603683676,1.0772194428136943,0.1147060582984154,0.0008762725649687499,0.0011114800831612446,-0.00022889903946046242,3.859534675300651e-05,-0.00028190130988182347,0.0009835310698554016,-0.0011673426573101803,-0.4055292308330536,-51.54721450805664,5.029097557067871,17.20862579345703,-1.1399434804916382,-1.3025619983673096,0.04673920199275017,,,,,,,,,
1739354895.3037922,0.3295843394056536,1.1502656020181152,0.2990805752459337,-1.2281077993182226,-1.3968339406254415,1.0772155497424372,0.11470881902673713,0.00043178469778233094,-0.0005537190810739978,-0.0004969632062308522,-0.0009080012843131896,-0.000254126764909602,-0.0005601063740404145,0.0003781800695742785,-0.4293329417705536,-51.51944351196289,5.005293846130371,17.23242950439453,-1.1399434804916382,-1.2824203968048096,0.03941498324275017,,,,,,,,,
1739354895.3138368,0.32958750082122207,1.150267032517295,0.29908221421173414,-1.228105644684205,-1.3968316106307452,1.0772176811604692,0.1147097018266948,0.0008415899312902389,-0.0008779759329798372,0.000290447300661139,2.5901174826662934e-05,-2.1923218229764744e-05,-0.0001989344911150688,0.0003841316106908461,-0.4293329417705536,-51.51944351196289,4.953719139099121,17.23242950439453,-1.1536763906478882,-1.2888290882110596,0.026597600430250168,,,,,,,,,
1739354895.3238564,0.32958455315187535,1.1502674997606894,0.29907797851959034,-1.2281074273247354,-1.3968351939925017,1.0772170674078474,0.1147087899496998,0.0004166147174936485,-0.0016509178749653597,-0.001990876216486967,-0.0001962260068487505,-0.0006159056956315627,1.858036427492617e-05,-0.0008272013796492503,-0.4293329417705536,-51.54721450805664,5.029097557067871,17.25623321533203,-1.1472676992416382,-1.2824203968048096,0.026597600430250168,,,,,,,,,
1739354895.334744,0.32958183701480215,1.1502718466385067,0.2990776704330005,-1.228107796326132,-1.396832015090077,1.0772135995999457,0.11470321498432488,0.0003770040979346296,0.0005251731555788173,5.886327767085878e-05,-0.00035738620244438635,0.0005094775501094061,-0.00022933632448163662,-0.001400984724926423,-0.3817255198955536,-51.54721450805664,5.005293846130371,17.23242950439453,-1.1472676992416382,-1.2888290882110596,0.04673920199275017,,,,,,,,,
1739354895.344786,0.3295875007291385,1.1502716909189548,0.2990823662263114,-1.2281095024858437,-1.3968327637163114,1.077217837919251,0.1147107269137205,0.001021836607908382,0.0008751684229819782,0.0014298621709124117,-0.0009218899957182914,0.0012368229629280314,0.0004020204544663968,0.00036245840182614025,-0.4293329417705536,-51.57101821899414,4.981490135192871,17.25623321533203,-1.1399434804916382,-1.2888290882110596,0.019273381680250168,,,,,,,,,
1739354895.3548577,0.32958313163763764,1.1502714611940759,0.2990805830585919,-1.2281092640659688,-1.3968289534088114,1.0772178366989826,0.11470786571444974,-0.000732875924797694,0.0006240787859163777,-1.7470022736905573e-05,-0.000569316830278602,0.0012085867316203396,-0.0007393895532155212,-0.0021651401817699275,-0.3817255198955536,-51.57101821899414,5.005293846130371,17.25623321533203,-1.1472676992416382,-1.2888290882110596,0.03300629183650017,,,,,,,,,
1739354895.3658378,0.3295829431243348,1.150272721543095,0.2990803351828542,-1.228109581956959,-1.3968328815442683,1.0772190692512729,0.11470305539366164,-0.0014890371016322533,0.00035897544164945104,0.0003202879647464491,-0.0006070881886505072,-0.000273294772470068,-0.00044946904731830235,-0.00227341141426244,-0.4055292308330536,-51.54721450805664,5.005293846130371,17.25623321533203,-1.1399434804916382,-1.3025619983673096,0.04673920199275017,,,,,,,,,
1739354895.3768022,0.3295874227340485,1.1502704809326814,0.29908236634625324,-1.2281077992817344,-1.39683519447104,1.0772178381503215,0.11471006310229863,0.0006902088714843612,0.0007114039333799285,0.0014747012286296154,0.0009538920517884085,-0.0002730289107527338,0.0003004417592710841,-5.772261546807176e-05,-0.4293329417705536,-51.57101821899414,4.981490135192871,17.23242950439453,-1.1472676992416382,-1.2888290882110596,0.012864691205322742,,,,,,,,,
1739354895.3868468,0.32958578921706033,1.1502697523230678,0.2990822879706749,-1.22810593320727,-1.3968343181581981,1.077214152159957,0.11471461781128368,0.0012812699906328633,8.038579570633815e-06,3.3080418231956122e-06,0.0001986271580699907,0.0005498082150948582,-0.0006415012524825156,0.0025834615595425325,-0.4055292308330536,-51.54721450805664,4.981490135192871,17.20862579345703,-1.1536763906478882,-1.2696030139923096,-0.013685601763427258,,,,,,,,,
1739354895.3978128,0.32958334844340753,1.1502653200087138,0.2990816580742374,-1.228105298405068,-1.3968328810404775,1.0772178381445603,0.11471546474877957,0.00045080156432034677,-0.0012791943055144453,-6.0951377531106915e-06,0.0009258878264785522,-0.0009643042092446435,3.6527238711983365e-05,0.0026626621557340633,-0.4055292308330536,-51.49563980102539,4.981490135192871,17.20862579345703,-1.1399434804916382,-1.2888290882110596,-0.03382720425724983,,,,,,,,,
1739354895.408816,0.329585786396443,1.1502718149597524,0.2990759667816442,-1.2281052925146059,-1.3968314681185257,1.0772170804924583,0.11470910141559296,-4.936902384775852e-05,0.0009244820699403598,-0.0016201728113754443,0.0003328954145681136,0.0008320709869297104,-0.0003454665421845814,-0.0001879721204688375,-0.4055292308330536,-51.54721450805664,5.029097557067871,17.20862579345703,-1.1399434804916382,-1.2824203968048096,0.03300629183650017,,,,,,,,,
1739354895.4197352,0.32958555573480947,1.1502697486811186,0.299077750463811,-1.228109581954666,-1.3968337565743778,1.077215446950215,0.11471305571087351,0.00019451891568853858,-1.7355161709805634e-05,-0.0001655009597946203,-0.0002350386712254703,-0.0008411605890568872,-0.0006596952623157697,0.0017953334711077206,-0.4055292308330536,-51.54721450805664,5.005293846130371,17.25623321533203,-1.1335347890853882,-1.2696030139923096,-0.0008682189509272575,,,,,,,,,
1739354895.430847,0.329587265308162,1.1502677507286012,0.29908058290260653,-1.2281077992817344,-1.3968351944730342,1.077217079036906,0.11471345746223822,0.00044662003218232376,-0.00047737521110086524,0.00032489780038852156,0.0007519645192482001,0.00025666662233796405,0.0001380311707797033,0.0016977800773016784,-0.4293329417705536,-51.51944351196289,5.005293846130371,17.23242950439453,-1.1472676992416382,-1.2824203968048096,-0.0072769103571772575,,,,,,,,,
1739354895.4418666,0.32958536719914056,1.150269668869546,0.2990804702634353,-1.2281074361552027,-1.3968312574359811,1.0772185958126124,0.1147117261136394,0.0004934694365692752,-0.0005940321708248747,0.00022791400497583681,0.0003061444187427711,0.00014458545764753686,-0.000145550602972164,0.00041754214692893887,-0.4293329417705536,-51.54721450805664,5.005293846130371,17.25623321533203,-1.1536763906478882,-1.2952377796173096,-0.0008682189509272575,,,,,,,,,
1739354895.4528294,0.3295874989189028,1.1502714582462956,0.29907984612716193,-1.228103897207327,-1.3968312617727043,1.0772178379910313,0.11470904367810526,0.0016207100014169328,-0.00019524149684762182,-0.0014224818375532932,0.0005732280175149909,0.001648647118743165,0.00046588540294975443,0.0004430125311710841,-0.4293329417705536,-51.57101821899414,5.005293846130371,17.20862579345703,-1.1536763906478882,-1.2888290882110596,0.0064559997990727425,,,,,,,,,
1739354895.4637742,0.32958792630904454,1.1502661402470806,0.2990784464627586,-1.2281075574716869,-1.396831257412078,1.077217838152536,0.11471243842189625,0.0006993411911264255,-0.0004338322994419577,-0.0004143819797393089,-0.0012906888038246621,0.0004968943016122291,0.0008196414576786756,0.0011361120769234978,-0.4055292308330536,-51.49563980102539,5.005293846130371,17.23242950439453,-1.1536763906478882,-1.2888290882110596,-0.0072769103571772575,,,,,,,,,
1739354895.4738157,0.32958407392568057,1.1502696427073695,0.29907869927821557,-1.2281093435360793,-1.396832015072132,1.0772152631942509,0.11471070745997376,-0.0003440655899460452,0.00039629706004609406,-0.0014643348263491344,-0.0014036261556015246,0.0005058633046353648,-0.0012144212824032152,-7.052249465605977e-05,-0.3817255198955536,-51.54721450805664,5.029097557067871,17.25623321533203,-1.1472676992416382,-1.2760117053985596,0.019273381680250168,,,,,,,,,
1739354895.4847362,0.3295851397371253,1.1502697488088278,0.2990766754540695,-1.2281055707698287,-1.3968308015146855,1.0772178379312145,0.1147152116780538,0.000782434954346571,0.0004978787834894293,-0.00038327257193662766,0.000502163708956791,0.0009184058650804441,0.0005087980184228501,0.001635100507944018,-0.4293329417705536,-51.54721450805664,5.029097557067871,17.23242950439453,-1.1664937734603882,-1.2888290882110596,-0.020094294100999832,,,,,,,,,
1739354895.4957492,0.3295840767563393,1.1502725037285912,0.2990803477716591,-1.2281075607052203,-1.3968319931133533,1.0772178375065133,0.11471212399412355,-0.00019945692793242812,0.000876440042550502,0.0008077112292912212,-0.0008308572889138771,0.0009425256159717907,0.0003567975507942654,-8.223212941530259e-05,-0.3817255198955536,-51.54721450805664,5.005293846130371,17.23242950439453,-1.1472676992416382,-1.2888290882110596,0.0064559997990727425,,,,,,,,,
1739354895.5057852,0.3295840768056749,1.150269710342385,0.2990787226126418,-1.228106614640902,-1.3968362710668805,1.0772177989066694,0.1147106080229684,-0.0007644879636469718,-0.00014144591034001273,-0.00010815675494791303,0.00013543545010521638,-0.0007557933435127882,0.00040367027752477856,-0.00010270972974434757,-0.3817255198955536,-51.54721450805664,5.029097557067871,17.25623321533203,-1.1472676992416382,-1.2888290882110596,0.019273381680250168,,,,,,,,,
1739354895.515843,0.32958570961734535,1.1502705057870883,0.2990821300633203,-1.228107533013755,-1.39683288104144,1.0772128417777709,0.11471273522930263,0.00018377153007758596,0.0005266928560498001,0.0009358645261381335,0.0003829109319378295,-0.0002657812053725794,-0.0005631807872298235,-0.0006314432177809718,-0.4055292308330536,-51.51944351196289,4.981490135192871,17.23242950439453,-1.1399434804916382,-1.2824203968048096,-0.0008682189509272575,,,,,,,,,
1739354895.5268047,0.3295819509062288,1.1502660382234224,0.29908050529232605,-1.228111351843027,-1.3968328867835658,1.0772185827067353,0.11470986108661071,-0.0009046406592728303,-0.0015432598403622266,0.0007931137971021495,-0.0017130787007402725,-0.00046718786574307856,-0.0003785316503921004,0.000484759177909317,-0.3817255198955536,-51.49563980102539,5.005293846130371,17.28003692626953,-1.1399434804916382,-1.2952377796173096,0.026597600430250168,,,,,,,,,
1739354895.5378094,0.32958578639822106,1.1502677476761456,0.29907992445615067,-1.2281110365694097,-1.3968360535850675,1.0772139015779965,0.11470834593107447,-0.00040096268186555814,-0.0009743646636064166,-0.0015208639715770273,-0.00029430787756967063,-9.619002561271688e-05,-0.0014790585898854373,-4.496038126686349e-05,-0.4055292308330536,-51.51944351196289,4.981490135192871,17.28003692626953,-1.1399434804916382,-1.2824203968048096,0.03941498324275017,,,,,,,,,
1739354895.5479107,0.3295884469370844,1.1502714523598159,0.29908228135069004,-1.2281092611183195,-1.3968351959783154,1.077216020800494,0.11470980843385943,0.0005403489655572166,0.0010431540551916782,0.0017845020343983092,-0.0011145090377823207,-0.0012132964824963836,-0.0011548710273717143,0.0006538567349558797,-0.4571039378643036,-51.57101821899414,4.953719139099121,17.25623321533203,-1.1472676992416382,-1.2824203968048096,0.026597600430250168,,,,,,,,,
1739354895.5587912,0.3295857893204636,1.1502714611901355,0.29907809270842145,-1.228107560861344,-1.3968300552856423,1.0772194602503151,0.11471071328022027,-0.0003525460879470361,0.0005384562097652195,-0.0006996708310346511,-0.000739355680492799,0.00014372406494291923,0.0004256312010144769,-0.001208398885853297,-0.4055292308330536,-51.57101821899414,5.029097557067871,17.23242950439453,-1.1399434804916382,-1.3025619983673096,0.019273381680250168,,,,,,,,,
1739354895.5697527,0.3295874229661291,1.150269747361259,0.29908233170945836,-1.2281085919806738,-1.3968312573961024,1.0772185958126068,0.11471421512313,0.0007854825956653197,-0.0005273701381055687,0.0006124457596970902,-0.0007847283596331672,0.0015564782596574824,0.00022298091622701587,0.00045055860054892037,-0.4293329417705536,-51.54721450805664,4.981490135192871,17.25623321533203,-1.1536763906478882,-1.2952377796173096,-0.013685601763427258,,,,,,,,,
1739354895.5798664,0.3295868697694778,1.1502673641565924,0.2990787660348073,-1.2281053356063183,-1.3968330742257444,1.0772177204149669,0.11471346322721876,0.0003362201216932935,-0.000930663249023258,-0.0006969513904674466,-0.0005884433107226634,-0.00040357120127778174,0.00011596415102733753,0.0017609535300563788,-0.4293329417705536,-51.54721450805664,5.029097557067871,17.23242950439453,-1.1472676992416382,-1.2888290882110596,-0.0008682189509272575,,,,,,,,,
1739354895.5908253,0.32958750184357005,1.1502697599573468,0.29907765812466414,-1.228109555417554,-1.3968320166931667,1.0772163228317155,0.1147122419829693,0.00016623050999629334,0.0007540415105268685,-0.0005689623816438903,-0.0016796095978652546,0.00021901333639871506,0.0008391833273357783,0.0018465314944386493,-0.4293329417705536,-51.54721450805664,5.005293846130371,17.25623321533203,-1.1472676992416382,-1.2760117053985596,0.0064559997990727425,,,,,,,,,
1739354895.6027668,0.329585789326407,1.1502734629103328,0.29907751327114934,-1.2281077158478004,-1.3968336444436527,1.0772178381525368,0.114711484320885,0.0003694907292659325,0.0010312102404489872,-0.0003878069212109098,-6.858425250236277e-05,-0.0008711298574189508,0.00037055054327095755,0.0024196810426305474,-0.4055292308330536,-51.59878921508789,5.005293846130371,17.23242950439453,-1.1335347890853882,-1.2888290882110596,0.012864691205322742,,,,,,,,,
1739354895.6127973,0.329585080693408,1.1502697486694757,0.2990784567822457,-1.2281052989931465,-1.3968328809693973,1.0772167785144076,0.11470465797834142,0.0004761849950517972,5.1985114594480685e-05,0.0008791320921112391,0.0008144975839513458,0.0002809996734184796,-0.00030505735870729766,-0.0019353545016421786,-0.4055292308330536,-51.54721450805664,5.005293846130371,17.23242950439453,-1.1399434804916382,-1.2888290882110596,0.03941498324275017,,,,,,,,,
1739354895.6238103,0.3295875018431379,1.150269747688308,0.29907845811965644,-1.2281038674075462,-1.3968298575848526,1.0772154168922454,0.11470427976778652,0.00047772445933195144,6.74835992631428e-05,0.0004973102396904147,0.0007134849637719137,-0.00010188450353268087,-0.0009903791963002406,-0.0019555694799524913,-0.4293329417705536,-51.54721450805664,5.005293846130371,17.20862579345703,-1.1399434804916382,-1.2952377796173096,0.04673920199275017,,,,,,,,,
1739354895.6347325,0.32958750184713814,1.150267754017926,0.29908023407643924,-1.228105935666173,-1.3968333569630853,1.0772177809616155,0.11470352357309613,0.0006160788018475515,-0.00022259893464094657,-0.0007456727134507342,0.00044858933877562604,-0.0011581766286769498,-3.1291249374923713e-06,-0.0012171526371439496,-0.4293329417705536,-51.51944351196289,5.005293846130371,17.20862579345703,-1.1399434804916382,-1.2888290882110596,0.05314789339900017,,,,,,,,,
1739354895.6447792,0.329585789326407,1.1502714608631923,0.29908054514226623,-1.228106808976581,-1.3968304997600363,1.0772178381515685,0.11471148459174575,-0.00030316284450260857,0.00031505375747407666,0.0018674828817215204,-0.00025274016281096783,0.00046948203851716126,-3.905547387562339e-05,4.716144780761203e-05,-0.4055292308330536,-51.57101821899414,5.005293846130371,17.23242950439453,-1.1600850820541382,-1.2888290882110596,0.012864691205322742,,,,,,,,,
1739354895.654805,0.32958411245399555,1.1502677154073246,0.2990802404840047,-1.2281046170800873,-1.3968351998007211,1.0772163228323801,0.11471456518049906,-0.000820021220301696,-0.0012552691365967155,0.00048130725170971583,0.0004918786004203134,-0.0019459035642607943,-0.00014948530723998956,0.0018774447526265074,-0.3817255198955536,-51.51944351196289,4.981490135192871,17.23242950439453,-1.1472676992416382,-1.2760117053985596,-0.013685601763427258,,,,,,,,,
1739354895.664835,0.3295875018477419,1.1502697486688562,0.2990844434373366,-1.2281085094028135,-1.3968318458308255,1.077217484939827,0.11470904368491731,0.00040321504275594685,-6.727082101787925e-06,0.0011398975366501405,0.0002411447741191298,0.0004235935681135227,-0.000871859872992086,0.00033147057685602025,-0.4293329417705536,-51.54721450805664,4.953719139099121,17.25623321533203,-1.1536763906478882,-1.2888290882110596,0.0064559997990727425,,,,,,,,,
1739354895.6748405,0.32958578932640703,1.1502659587350101,0.29908236638360847,-1.2281059371136918,-1.3968320194427477,1.0772175361685041,0.11470898447627906,-0.0006534324225182275,-0.0008616025065577777,0.0012033411584810158,-0.00016869308167055696,0.0005612098820531015,0.0003106928990410337,-0.0005293973443555101,-0.4055292308330536,-51.49563980102539,4.981490135192871,17.20862579345703,-1.1472676992416382,-1.2952377796173096,0.0064559997990727425,,,,,,,,,
1739354895.6848438,0.32958578932640703,1.1502712227702603,0.2990759740483136,-1.2281038708361571,-1.3968328809694384,1.0772178381345918,0.1147073569548191,0.00042140841589342946,0.0011974970373727011,-0.0013279720211407566,-0.00021999501969629446,0.00026284200868015073,-0.00032570142710370084,-0.0016776273563994372,-0.4055292308330536,-51.57101821899414,5.056868553161621,17.20862579345703,-1.1399434804916382,-1.2888290882110596,0.04673920199275017,,,,,,,,,
1739354895.6957734,0.3295857903075534,1.1502696691952488,0.29907952050672443,-1.228106629313687,-1.3968312574120536,1.077214356775581,0.1147023193543704,-0.0008032827358575949,-0.0008862503553271968,-0.001171950239062824,2.8941961339119956e-05,-0.0005173875924520267,-5.5494985937195744e-05,-0.0025583647756966797,-0.4055292308330536,-51.54721450805664,4.981490135192871,17.25623321533203,-1.1536763906478882,-1.2952377796173096,0.05314789339900017,,,,,,,,,
1739354895.7067478,0.3295875018471437,1.150266797053836,0.2990823578350516,-1.2281064785759717,-1.3968328810231996,1.0772178381286073,0.11470502848767254,0.0006744351347572752,-0.0010770796860119537,0.0013475481419275995,-0.00015988884088381393,-0.0003811096017372368,0.0002729043929231347,-0.0005294491183996081,-0.4293329417705536,-51.51944351196289,4.981490135192871,17.25623321533203,-1.1399434804916382,-1.2888290882110596,0.03941498324275017,,,,,,,,,
1739354895.717809,0.3295863296224576,1.1502677507124506,0.2990804789398382,-1.2281113606586307,-1.3968312574120545,1.0772170804924581,0.11470692419373733,0.00023446844259857876,-0.0007678327582070386,-0.0014035382284034036,-0.0020091425041100786,0.0008465539533951765,-1.330203185892088e-06,-0.0031632036558174,-0.4293329417705536,-51.51944351196289,5.005293846130371,17.28003692626953,-1.1536763906478882,-1.2824203968048096,0.03941498324275017,,,,,,,,,
1739354895.7288065,0.32958407680347,1.150271460209039,0.2990801315055453,-1.228102982704471,-1.3968328809693644,1.0772175361744858,0.11470990809977309,-0.00046283189991485794,0.0013916847346254228,-0.000315515996725456,0.0008798594727404765,-0.001025026787892225,0.0011622436822505398,0.0014186346691888183,-0.3817255198955536,-51.57101821899414,4.981490135192871,17.18085479736328,-1.1399434804916382,-1.2952377796173096,-0.0008682189509272575,,,,,,,,,
1739354895.7388344,0.32958579815672473,1.1502682967907745,0.2990821217102723,-1.2281091026410604,-1.396832020886333,1.0772173148565032,0.11471310327358189,0.0006719677314321005,-0.0005170494364787513,0.0011735427234682004,-0.00023381706878298884,-3.5101327887041684e-05,-0.0005972149290456279,0.0010503106533275735,-0.4055292308330536,-51.54721450805664,4.981490135192871,17.28003692626953,-1.1472676992416382,-1.2888290882110596,-0.0008682189509272575,,,,,,,,,
1739354895.7488422,0.32958432405472216,1.1502716903177939,0.2990798724773286,-1.228105190986207,-1.3968321764163079,1.0772178366901246,0.11470934640364872,-0.0006801343162440336,0.002453678608889548,0.0005645089859837544,0.0008494177934324521,-0.0012221536680440367,0.0005796358550603586,-0.00010195016864979737,-0.3817255198955536,-51.57101821899414,5.005293846130371,17.20862579345703,-1.1472676992416382,-1.2888290882110596,0.026597600430250168,,,,,,,,,
1739354895.7588472,0.32958555020340935,1.1502714572694799,0.29908034489142676,-1.2281077874939954,-1.3968344232472218,1.0772194617098227,0.1147106482202457,-0.0015577143517222754,0.0013187999593470103,-0.00021757814750906433,-0.0009162057969984785,-0.00016617009731259303,0.00035178341368824104,0.0005790817028394436,-0.4055292308330536,-51.57101821899414,5.005293846130371,17.23242950439453,-1.1536763906478882,-1.3025619983673096,-0.0072769103571772575,,,,,,,,,
1739354895.7697957,0.32958366342606016,1.1502714607177593,0.2990783761531092,-1.2281081106817864,-1.396833692428673,1.0772174844553104,0.11470960047664161,0.0004495021397507784,-5.097765611266967e-05,2.018525557451752e-05,-0.0005311781589263284,-0.00037563571229822244,-0.00012462157902467217,0.0007155844256481707,-0.4055292308330536,-51.57101821899414,5.005293846130371,17.28003692626953,-1.1335347890853882,-1.2888290882110596,-0.0072769103571772575,,,,,,,,,
1739354895.780767,0.3295843151762518,1.150271221681441,0.2990788807780366,-1.228107771645911,-1.3968320152339413,1.0772178381505402,0.11471148326754697,0.00025482582499856504,-0.00042851526545418107,0.0007702958217244125,-0.0005255669053978266,-0.0003956413583817173,0.0005610705815379908,0.0008756347901470666,-0.3817255198955536,-51.57101821899414,5.029097557067871,17.23242950439453,-1.1472676992416382,-1.2888290882110596,0.012864691205322742,,,,,,,,,
1739354895.790806,0.32958750185117497,1.150267750724545,0.2990815857212189,-1.2281048200846822,-1.3968362928705087,1.0772185956511096,0.11470520689062647,0.0006129710990088212,8.998234930529563e-05,9.06433907631503e-05,-0.0005928094289200889,-0.0013752397609280243,0.0013710038374350302,-0.0018733452982325042,-0.4293329417705536,-51.51944351196289,4.953719139099121,17.23242950439453,-1.1472676992416382,-1.2952377796173096,0.06596527993679047,,,,,,,,,
1739354895.8017952,0.32958540243909445,1.1502677507286012,0.2990795345148963,-1.228104584556854,-1.3968298445315275,1.0772178376680193,0.11471536769482828,0.000822758225741763,8.873043547684396e-05,-0.0003934035707212208,0.0001437541785420889,0.0017212820375069875,0.0007222387038775291,0.002846609157536959,-0.4293329417705536,-51.51944351196289,5.005293846130371,17.23242950439453,-1.1536763906478882,-1.2888290882110596,-0.020094294100999832,,,,,,,,,
1739354895.8118713,0.32958578929085336,1.150269748774433,0.2990822155980993,-1.228104970212129,-1.3968311527325086,1.0772185953280902,0.11471306887436902,-0.0005568574523176948,-0.00031523524195321503,0.0016268897158959533,-0.00020164673599920157,0.0010234889571284608,0.00035570040245135477,0.0012898074524816784,-0.4055292308330536,-51.54721450805664,4.953719139099121,17.20862579345703,-1.1536763906478882,-1.2952377796173096,-0.0008682189509272575,,,,,,,,,
1739354895.8227713,0.3295858158536988,1.150269315422974,0.2990802560012389,-1.2281048999518294,-1.3968325252676774,1.0772160208543262,0.11470965655355665,-0.0005205992795885516,-6.437052214033299e-05,-0.0011048706845836174,0.00038132184223738715,-0.001121440792999782,-0.0006248275209625044,0.0002842415717224338,-0.4055292308330536,-51.57101821899414,5.005293846130371,17.23242950439453,-1.1472676992416382,-1.2824203968048096,0.019273381680250168,,,,,,,,,
1739354895.833793,0.3295895037127266,1.1502734561754864,0.2990823656977651,-1.2281035220780936,-1.396832015075012,1.0772166215249992,0.11470467407646691,0.001024688615428775,0.0015782325547004114,8.030598240814938e-05,7.871037523705655e-05,0.0008730110843923995,-0.0008366565380115445,-0.001875539287449817,-0.4571039378643036,-51.59878921508789,4.981490135192871,17.20862579345703,-1.1472676992416382,-1.2888290882110596,0.03300629183650017,,,,,,,,,
1739354895.8447433,0.32958750199251535,1.1502690334137002,0.29907929466859723,-1.2281046954291348,-1.3968323170501828,1.07721766808029,0.11470874375795498,-0.00012509441168259672,-0.00016717413179042164,-6.14107715747105e-05,-0.0007400866985548027,0.00018028477268349185,-0.00014174915476559106,1.089188751069684e-05,-0.4293329417705536,-51.54721450805664,4.981490135192871,17.23242950439453,-1.1536763906478882,-1.2888290882110596,0.03300629183650017,,,,,,,,,
1739354895.8548367,0.3295820788648252,1.1502676712436284,0.2990800041136315,-1.2281053312098689,-1.3968273208555324,1.077218595809735,0.11470198196784637,-0.00045522287317973265,-1.8115538797028015e-05,-0.00031839964360363726,0.00024595241949728063,0.0025664146041209433,0.001137815777323001,-0.002725618295311926,-0.3539545238018036,-51.51944351196289,4.981490135192871,17.23242950439453,-1.1600850820541382,-1.2952377796173096,0.05314789339900017,,,,,,,,,
1739354895.8648548,0.32958602774498613,1.1502714608617903,0.2990844113552967,-1.2281064427935064,-1.3968328807540238,1.0772163223478635,0.1147114787150988,0.00033228388652734394,0.0005199009130026202,0.0007311354114312628,-0.0014803078708604312,0.00033413412595061255,-0.0008130572149953825,0.0014064082338056823,-0.4055292308330536,-51.57101821899414,4.953719139099121,17.25623321533203,-1.1399434804916382,-1.2760117053985596,0.012864691205322742,,,,,,,,,
1739354895.8758378,0.32958584255494594,1.1502711432987447,0.29908236573542074,-1.228102797954346,-1.396832014587614,1.0772169627548858,0.11471273539380063,0.00027881940643687214,-0.0009043012619861393,0.0012442136658059452,0.0004401259611356509,-0.0006265362034084561,-0.00039246859112054063,0.001726090336363424,-0.4055292308330536,-51.57101821899414,4.981490135192871,17.20862579345703,-1.1472676992416382,-1.2824203968048096,-0.0008682189509272575,,,,,,,,,
1739354895.88684,0.32958758132029836,1.150269709421803,0.2990823624954079,-1.2281064693080872,-1.3968328809693618,1.0772178376673553,0.11471295039906503,0.0009888656179704506,-0.000540950735750946,0.0002794389252625806,-0.0010724736356361514,0.00024547723200701453,-0.00034761104883571266,0.002517141919357827,-0.4293329417705536,-51.54721450805664,4.981490135192871,17.25623321533203,-1.1399434804916382,-1.2888290882110596,-0.0008682189509272575,,,,,,,,,
1739354895.8977664,0.3295840768061244,1.1502713401331555,0.2990780898044348,-1.2281085104929574,-1.3968333749117507,1.0772170804924557,0.114706420662779,-0.0008678820531748065,0.0021160501636402055,-0.0011424480602625752,-0.0004949304141242945,0.0008126834521179184,0.00035557578737739723,-0.002401452282453696,-0.3817255198955536,-51.59878921508789,5.029097557067871,17.25623321533203,-1.1536763906478882,-1.2824203968048096,0.019273381680250168,,,,,,,,,
1739354895.9097517,0.3295860287261325,1.1502697490410683,0.2990822612889702,-1.2281110070200247,-1.3968325292221582,1.0772176811691103,0.11470428122692983,-0.00027459053190105723,-0.0007522565267629363,0.0014683345844393385,-0.002296593983171326,-1.7591892780087286e-05,-0.0006876632224050859,-0.001949353636885413,-0.4055292308330536,-51.54721450805664,4.981490135192871,17.28003692626953,-1.1399434804916382,-1.2888290882110596,0.04673920199275017,,,,,,,,,
1739354895.9207342,0.32958693782907544,1.1502686001672369,0.2990788013534444,-1.228107453433006,-1.396833351847202,1.07721706304956,0.1147073220632509,-0.00036330850322601144,-0.00017296098572700902,0.00030903207148965273,-3.9743970983076456e-05,0.0004270594102794416,-0.0002844134500067392,-0.00029391074214314597,-0.3817255198955536,-51.57101821899414,5.029097557067871,17.23242950439453,-1.1399434804916382,-1.2824203968048096,0.04673920199275017,,,,,,,,,
1739354895.9317565,0.32958578905487573,1.1502697486533038,0.2990862290305463,-1.2281063721544703,-1.3968320150747902,1.0772185899983155,0.11470912118302909,0.0004339338741455105,-0.0007776385555186619,0.0008576293884763409,-0.0008264517860043909,0.0009377922931339093,3.219632818049884e-05,0.0008333106727000988,-0.4055292308330536,-51.54721450805664,4.929915428161621,17.25623321533203,-1.1472676992416382,-1.2952377796173096,-0.0072769103571772575,,,,,,,,,
1739354895.9417963,0.3295884594460356,1.1502734480116776,0.2990801315057406,-1.2281028022056817,-1.3968336387909481,1.0772163228322817,0.11471146522627926,0.0008628397420281595,0.0014500766850138018,0.0002102811893557045,0.000912991270723377,0.0004467961103676038,-0.0004692105691465006,0.00013553516933067686,-0.4293329417705536,-51.57101821899414,4.981490135192871,17.20862579345703,-1.1335347890853882,-1.2760117053985596,0.012864691205322742,,,,,,,,,
1739354895.951799,0.32958846436798933,1.1502675234630297,0.2990784577697909,-1.2281064427808672,-1.3968359423076908,1.0772178379910313,0.11470427540036869,0.0004610073457445538,0.00024933865975963634,0.00013389321864632305,-0.0010793847010422272,-3.901159174948387e-05,0.0007162130505774113,-0.0013981237302007812,-0.4293329417705536,-51.54721450805664,5.005293846130371,17.25623321533203,-1.1399434804916382,-1.2888290882110596,0.04673920199275017,,,,,,,,,
1739354895.9618049,0.32958793914352125,1.1502697486317703,0.2990805051496467,-1.22810851823386,-1.3968346470847572,1.0772170804924557,0.11471072693167875,8.875248010869775e-05,0.0006867051930688589,-0.0003288455511864802,-0.00024076078537859605,0.0008922426899096469,-0.0005166647720912128,0.001633085767384305,-0.4055292308330536,-51.54721450805664,5.005293846130371,17.25623321533203,-1.1399434804916382,-1.2824203968048096,0.019273381680250168,,,,,,,,,
1739354895.9718122,0.3295840807666688,1.1502705075158683,0.29908236659833815,-1.2281090996957649,-1.3968303825288313,1.0772194617098474,0.11470670921004658,0.0002676653816669066,-0.0006691905239292755,0.0009978209888932602,-0.0010479775011578503,0.0011867200451046312,0.00047276688335604755,-0.0004894434385672049,-0.3817255198955536,-51.57101821899414,4.981490135192871,17.28003692626953,-1.1600850820541382,-1.3025619983673096,0.05314789339900017,,,,,,,,,
1739354895.9828196,0.3295862226819263,1.1502714346938487,0.29908232865326373,-1.2281063633133193,-1.3968312575728974,1.0772178250705846,0.11471309520195473,-0.0008886507071216688,-0.00045197735935634465,0.0008651144515306863,0.0006933594593579084,-0.00022447737754734723,0.0003154790213457128,0.0011904914574742368,-0.3817255198955536,-51.57101821899414,4.981490135192871,17.25623321533203,-1.1536763906478882,-1.2888290882110596,-0.0008682189509272575,,,,,,,,,
1739354895.9937737,0.32958579231829854,1.150269850272467,0.29908035621773765,-1.2281027983899624,-1.3968328795158151,1.0772170798463623,0.11470629323449122,-0.001091838754096264,-3.766577728530928e-05,-0.0011098408168373724,0.0006473266125086324,2.0180864602372078e-05,-0.0004293004005945349,-0.0010338112377103947,-0.4055292308330536,-51.54721450805664,5.005293846130371,17.20862579345703,-1.1399434804916382,-1.2824203968048096,0.026597600430250168,,,,,,,,,
1739354896.0047305,0.3295875022832539,1.1502697476900285,0.2990820167616011,-1.2281029039177178,-1.3968344369724393,1.077217820709923,0.1147060532542967,0.0004649972432202181,0.00011977398235799143,-7.135001355969807e-05,0.0006080970582472455,-0.0009746167593330968,-1.7095981637329214e-07,-0.0022213389510663487,-0.4293329417705536,-51.54721450805664,4.981490135192871,17.20862579345703,-1.1536763906478882,-1.2888290882110596,0.04673920199275017,,,,,,,,,
1739354896.0148306,0.3295858702528194,1.1502697496142564,0.29907572963660994,-1.2281049790429783,-1.3968316120962623,1.0772161650577912,0.11471275293740002,0.0005328491463984064,-0.00033175669889638564,-0.0010216245117198198,0.0005733673913183128,-0.000763495578096731,-0.000769499667845465,0.0018486130167064073,-0.4055292308330536,-51.54721450805664,5.029097557067871,17.20862579345703,-1.1536763906478882,-1.3025619983673096,-0.0008682189509272575,,,,,,,,,
1739354896.0258017,0.32958434204271375,1.1502660504903748,0.29907771056285454,-1.2281112451480851,-1.3968329987089365,1.0772177988342353,0.11470274109464705,0.0007251471757491962,0.0007425936665865003,-0.0020701980516569336,-0.001461311270586566,-0.0013705819894271978,0.00015237260673861322,-0.001846096323628171,-0.3817255198955536,-51.49563980102539,5.005293846130371,17.28003692626953,-1.1399434804916382,-1.2888290882110596,0.04673920199275017,,,,,,,,,
1739354896.0368052,0.32959036287457916,1.1502694307782235,0.2990795321270225,-1.2281063643415666,-1.3968320166891817,1.0772170804917924,0.11471025154934125,0.0006004896185115339,-0.0003364868047840891,-0.000573579385775616,-0.00015187868410017515,0.00034823034301134474,0.00015855953941839,0.0004416227438892442,-0.4293329417705536,-51.54721450805664,4.981490135192871,17.25623321533203,-1.1472676992416382,-1.2824203968048096,0.019273381680250168,,,,,,,,,
1739354896.0468194,0.32958578934255756,1.1502734506138623,0.2990787224566324,-1.2281027979539032,-1.3968337621812226,1.0772170804924583,0.1147137473871923,-0.0002337142213361175,0.0006037262970288774,-0.0010314726954612032,0.00046343624974490234,-0.0007843537725239597,7.939175405952085e-05,0.0023134613484861975,-0.4055292308330536,-51.59878921508789,5.029097557067871,17.20862579345703,-1.1335347890853882,-1.2824203968048096,-0.0072769103571772575,,,,,,,,,
1739354896.0578105,0.32958965201133966,1.1502711461331214,0.29907772321655157,-1.2281052958866538,-1.3968288361584413,1.0772167785144076,0.11470198338173374,6.169769035405212e-05,-7.46523504832489e-06,-0.0011748614362045754,0.0002769395818389293,0.00010994895111754715,-0.0005847913693294862,-0.0026967441798170485,-0.4293329417705536,-51.57101821899414,5.005293846130371,17.23242950439453,-1.1472676992416382,-1.2888290882110596,0.05314789339900017,,,,,,,,,
1739354896.068756,0.3295896476507633,1.150273461960126,0.29908026903421414,-1.2281063898110016,-1.3968336385756075,1.0772194616919024,0.11471176638184195,5.448121407122068e-05,0.0015475817707161076,-0.0010416032733586533,5.485927724571736e-05,-0.001376888310768178,0.0014000651140379195,-0.0010452560235606914,-0.4293329417705536,-51.59878921508789,5.005293846130371,17.25623321533203,-1.1335347890853882,-1.3025619983673096,0.0064559997990727425,,,,,,,,,
1739354896.0787754,0.3295840768177889,1.1502677507286172,0.2990783434266029,-1.2281029068612992,-1.3968351809045674,1.0772185914519643,0.11470903051950618,-0.0019328429954694353,-0.0007436645416848307,-0.0008566433470023097,0.0011272311283158356,-0.001916858637158485,0.0005025870533164824,-9.926904925820085e-05,-0.3817255198955536,-51.51944351196289,5.005293846130371,17.20862579345703,-1.1472676992416382,-1.2952377796173096,0.0064559997990727425,,,,,,,,,
1739354896.0887947,0.32958479206141367,1.1502668876465052,0.29908234917849746,-1.2281045806364494,-1.3968320588394803,1.0772178381523154,0.11470747115991516,-0.0010572654970957668,-0.0020570979725809163,-3.8940423458105064e-06,0.0005373587085809246,0.0010103505824157915,-0.000427790011680126,-0.0011132660042470267,-0.3817255198955536,-51.54721450805664,4.981490135192871,17.23242950439453,-1.1472676992416382,-1.2888290882110596,0.019273381680250168,,,,,,,,,
1739354896.1007972,0.3295857894731079,1.1502714611848017,0.29908213048464743,-1.2281085123456355,-1.396829794150612,1.0772170804745134,0.1147149074281857,-0.0005916122303243149,-0.0001099469043457736,0.0014251907892836525,-0.0009675510153649477,0.0001859535374823054,-0.0006506149691538381,0.0019526026425509624,-0.4055292308330536,-51.57101821899414,4.981490135192871,17.25623321533203,-1.1664937734603882,-1.2824203968048096,-0.020094294100999832,,,,,,,,,
1739354896.1118455,0.32958408596304256,1.150270507515869,0.29908349290453773,-1.2281027184971944,-1.3968280784977634,1.0772156676416194,0.11470666198019239,-0.0010235209368626215,-0.0007628968276939865,0.0013723575291217653,0.001071837248149816,0.00017694550955419828,-0.00028117369836191226,0.0010528325351158282,-0.3817255198955536,-51.57101821899414,4.953719139099121,17.20862579345703,-1.1536763906478882,-1.2824203968048096,0.026597600430250168,,,,,,,,,
1739354896.1237695,0.3295857994649717,1.150271814958423,0.29908205164629137,-1.2281063721741434,-1.3968330745308106,1.0772170673486954,0.1147107075744337,8.39513372632734e-05,0.00027536863398498507,0.00034958040751036556,-0.00035323862276575777,-0.00034902973391472874,-5.799009054792951e-05,0.0019588209676809198,-0.4055292308330536,-51.54721450805664,4.981490135192871,17.25623321533203,-1.1472676992416382,-1.2824203968048096,0.019273381680250168,,,,,,,,,
1739354896.1338336,0.3295880529035871,1.1502696512555675,0.29907590794634314,-1.228106472651303,-1.3968346982735527,1.0772178381524626,0.1147054322602878,0.0013961230787566214,-3.5845438972797734e-05,-0.0009369899069026265,-0.000415848496563233,-0.00031539371585270347,0.0006744274425315531,-0.0018101190419101533,-0.4055292308330536,-51.54721450805664,5.056868553161621,17.25623321533203,-1.1335347890853882,-1.2888290882110596,0.05955658480525017,,,,,,,,,
1739354896.1447647,0.32958589630970025,1.1502697457243654,0.2990824687694682,-1.2281063633097873,-1.3968309056708392,1.0772163228323801,0.11471055553723376,0.0001179334526313672,-0.0006277527825004229,0.0015720590554873656,-0.00045375308878439996,0.00046576714057698523,0.00024511367444604104,0.001161304241107478,-0.4055292308330536,-51.54721450805664,4.981490135192871,17.25623321533203,-1.1536763906478882,-1.2760117053985596,-0.013685601763427258,,,,,,,,,
1739354896.1557229,0.3295879733589331,1.1502697005811504,0.2990802028988527,-1.2281083840764848,-1.396832880967379,1.07721783621447,0.11471204186522432,0.0007185250736193491,-0.0006195117570639219,-0.00018898287902663897,-0.0017292106990314695,-0.0009770319955961979,0.00013947745042136518,0.0005912886757251977,-0.4055292308330536,-51.54721450805664,4.981490135192871,17.28003692626953,-1.1399434804916382,-1.2888290882110596,-0.0008682189509272575,,,,,,,,,
1739354896.1658342,0.32958578948409095,1.1502714611899139,0.29908058398244475,-1.2281045809593094,-1.3968318971730564,1.0772170804924475,0.11470736139187784,-0.0010031021863446319,0.000972022305260444,0.000341822680332603,0.00013440834293954574,-0.00035015661650073427,0.00016974396202037079,-0.002485517857542515,-0.4055292308330536,-51.57101821899414,5.005293846130371,17.23242950439453,-1.1472676992416382,-1.2824203968048096,0.04673920199275017,,,,,,,,,
1739354896.175839,0.3295886503493589,1.1502696691965946,0.29908047764390533,-1.2281028892005197,-1.3968309041973472,1.0772185953280984,0.11470942383899986,0.0013813843638533795,-0.0012330716908481188,6.323199159694104e-05,-0.0002546533008353229,0.0011755861537029594,0.00033214143192666044,0.0002871338932640377,-0.4055292308330536,-51.54721450805664,5.005293846130371,17.20862579345703,-1.1536763906478882,-1.2952377796173096,-0.0072769103571772575,,,,,,,,,
1739354896.187794,0.32958589923095616,1.1502660382074212,0.2990775093628164,-1.228105897395941,-1.39683606031244,1.0772170804924557,0.11471054218994146,3.87444768092343e-06,-0.001175682173197635,-0.0005273254039471746,-0.0005047649804618908,-0.00047526550548872124,-6.492340118430634e-05,6.285079464796281e-05,-0.4055292308330536,-51.49563980102539,5.005293846130371,17.20862579345703,-1.1399434804916382,-1.2824203968048096,-0.0072769103571772575,,,,,,,,,
1739354896.1987498,0.3295820818088824,1.1502677520233375,0.29907956043230666,-1.2281063604183315,-1.3968325853079784,1.0772178381525368,0.11470827284335221,-0.001338796949246323,0.00042541916086791145,-0.0004331943327473864,-0.0007008892982207991,-0.0006875743471552563,0.001078575292430575,0.0009002997259922943,-0.3539545238018036,-51.51944351196289,5.005293846130371,17.25623321533203,-1.1335347890853882,-1.2888290882110596,0.012864691205322742,,,,,,,,,
1739354896.2087843,0.32958661156345903,1.1502675999588106,0.2990816483482864,-1.228102797517816,-1.3968336386234965,1.077218595812615,0.11470990509039956,-0.0002697211498304471,-0.0010001483867233623,-0.000555620541550549,0.0013047658519657526,0.00047095555733337314,0.0011075133748754242,0.001208824234347066,-0.4055292308330536,-51.54721450805664,4.981490135192871,17.20862579345703,-1.1335347890853882,-1.2952377796173096,0.012864691205322742,,,,,,,,,
1739354896.2188005,0.32958622686629613,1.1502677534538583,0.2990784580951684,-1.2281045806308943,-1.3968320543179884,1.0772170412466018,0.11470981972965093,4.572699931708866e-05,-0.0009458098107710713,0.00019616734033175463,0.00033070688293470576,0.00041616964751612235,7.357459147333905e-05,-0.0001250649895583648,-0.3817255198955536,-51.51944351196289,5.005293846130371,17.23242950439453,-1.1472676992416382,-1.2824203968048096,0.026597600430250168,,,,,,,,,
1739354896.2297654,0.32958439862574596,1.150267035472869,0.29907774277442173,-1.2281088641841311,-1.3968339929353764,1.077217838152463,0.11471168668450846,-0.0014737574005348213,-0.0006702524231805795,-0.0006739732521728838,-0.0009186404622625352,-0.0016145266824576726,0.0007685673649195951,0.00025639085176971683,-0.3817255198955536,-51.51944351196289,5.029097557067871,17.28003692626953,-1.1399434804916382,-1.2888290882110596,-0.0008682189509272575,,,,,,,,,
1739354896.2408063,0.3295897627409796,1.1502697486573414,0.29907640717493605,-1.2281027979660601,-1.3968316150042452,1.0772185430002896,0.1147073069312994,0.0009088878545389568,0.0006614272482435551,-0.002046484566728092,0.0004259097954813686,-0.0010420414254970426,-0.00048416809627282266,0.0005991014936389775,-0.4293329417705536,-51.54721450805664,5.029097557067871,17.20862579345703,-1.1536763906478882,-1.2952377796173096,0.04673920199275017,,,,,,,,,
1739354896.251826,0.32958857033195244,1.1502697446358525,0.2990813041197005,-1.2281046072308859,-1.3968304999141536,1.0772177989065808,0.11470748280716617,0.0018487189712903423,-0.0004194901235960781,-0.0016622791836016547,-0.00016672290074425198,0.0011290968159791545,-3.9642733082164794e-05,-0.0005278194209006784,-0.4293329417705536,-51.54721450805664,4.981490135192871,17.23242950439453,-1.1600850820541382,-1.2888290882110596,0.019273381680250168,,,,,,,,,
1739354896.2618327,0.3295857935961364,1.150271461190117,0.29908232058054446,-1.2281120084522796,-1.3968361776213252,1.077215667156438,0.1147034835575303,0.00019719445103354155,-0.00036344610213447597,0.0016581913552457623,-0.0022053970515656506,-0.001115615463598309,-0.0007639817936545332,-0.0020424187979102455,-0.4055292308330536,-51.57101821899414,4.953719139099121,17.33161163330078,-1.1399434804916382,-1.2824203968048096,0.05314789339900017,,,,,,,,,
1739354896.2728367,0.3295857981567488,1.1502697486694544,0.2990823652915908,-1.2281045806309165,-1.3968351940051298,1.0772178381445585,0.11471096680069584,1.0677953087692487e-05,-0.0004046372521779773,0.0017341745138704154,-2.0632852857124578e-05,0.00024335331005512052,-0.0004267063350402238,0.0005377686724102585,-0.4055292308330536,-51.54721450805664,4.981490135192871,17.23242950439453,-1.1472676992416382,-1.2888290882110596,0.012864691205322742,,,,,,,,,
1739354896.283794,0.32958589529026977,1.1502704374342383,0.29907869345478305,-1.2281045718005987,-1.3968291893883988,1.077218595812615,0.11470589453464924,7.14262742737287e-05,0.0006221266975507068,-0.0012049943369389505,0.000899148101713288,0.0015884676182758696,0.0007456161842983311,-0.002646233536998832,-0.4055292308330536,-51.54721450805664,5.029097557067871,17.23242950439453,-1.1472676992416382,-1.2952377796173096,0.04673920199275017,,,,,,,,,
1739354896.294736,0.3295865851821036,1.150271459885878,0.2990782215960355,-1.2281063623267392,-1.3968335250212316,1.0772135472722109,0.11470705446319239,-0.0005051052467854984,-0.0001142098133361591,-0.0002306519367926402,-0.00016785773425849563,0.0004398524532079982,-0.0016161287001567586,-0.0016758819714673427,-0.4055292308330536,-51.57101821899414,5.005293846130371,17.25623321533203,-1.1335347890853882,-1.2888290882110596,0.019273381680250168,,,,,,,,,
1739354896.305732,0.32958411508386387,1.150267750728579,0.2990815801708135,-1.2281045806309,-1.3968304997500514,1.0772178379183648,0.11471298771742157,-0.0006840796523599967,-0.0007758373283892428,0.0001623422552470415,-8.412435078207588e-05,0.0014018475364172857,0.00020030279668094308,0.0008057761158878922,-0.3817255198955536,-51.51944351196289,4.981490135192871,17.23242950439453,-1.1600850820541382,-1.2888290882110596,-0.0008682189509272575,,,,,,,,,
1739354896.3157833,0.3295906278888521,1.1502714494164283,0.29908229973999795,-1.2281056598489768,-1.396832015072132,1.0772178381525357,0.11470898511704294,0.0012531083106296554,7.224090488253823e-05,0.0009206268621047545,-0.0006726584242036629,-0.0001795368751826626,9.320281371766188e-05,0.0009659584265256573,-0.4293329417705536,-51.57101821899414,4.981490135192871,17.20862579345703,-1.1472676992416382,-1.2888290882110596,0.03300629183650017,,,,,,,,,
1739354896.3258326,0.32959039039512683,1.1502697489841909,0.2990844348316616,-1.228107441702332,-1.396832132809702,1.0772178366989866,0.11471224181644472,0.0004467740901330568,0.00039541468170609714,0.0013206255444870058,-0.0006673808863677711,-0.0005504747940794077,0.0010465829328391441,0.0020623225087076412,-0.4293329417705536,-51.54721450805664,4.953719139099121,17.23242950439453,-1.1472676992416382,-1.2888290882110596,0.0064559997990727425,,,,,,,,,
1739354896.3358378,0.3295875032042512,1.150273380602992,0.2990802677863824,-1.228104580679369,-1.396832015074126,1.0772128414553999,0.11471310836573241,-0.00048002051509476215,0.0018980199648311268,-0.0006387596266603439,0.0007893049744916639,6.288612032183013e-05,-0.0005177772240710242,0.0022536575261640425,-0.4293329417705536,-51.59878921508789,5.005293846130371,17.23242950439453,-1.1472676992416382,-1.2824203968048096,-0.0008682189509272575,,,,,,,,,
1739354896.3467972,0.32958758528092996,1.1502715377191626,0.29908236666989335,-1.228104580739933,-1.3968281177435222,1.0772170804685288,0.11470426803335398,-0.00020267279396198187,0.0002812157745127408,0.001198879145342142,0.0009965347594175018,0.0015563665978317765,-0.00019882977864901674,-0.0008980487605301375,-0.4293329417705536,-51.57101821899414,4.981490135192871,17.23242950439453,-1.1536763906478882,-1.2824203968048096,0.04673920199275017,,,,,,,,,
1739354896.3577228,0.32958582606536047,1.1502677519887767,0.29907847765708745,-1.228100652186686,-1.39683125739433,1.077215416898227,0.11470544692278747,-0.0012688748948293926,-5.838260957443612e-05,-0.0007117857885017938,0.0008851500223911407,0.0006148403429658743,0.00018312415565348772,-0.0019864930130546613,-0.4055292308330536,-51.51944351196289,5.029097557067871,17.20862579345703,-1.1536763906478882,-1.2952377796173096,0.05955658480525017,,,,,,,,,
1739354896.367772,0.329586116157802,1.1502680581060478,0.29907843188051636,-1.2281027980265748,-1.3968312574120532,1.0772178380987016,0.11471261496145653,-0.00011309737577525105,-0.0002278033277814625,0.0005206085288593567,0.001713049355481529,0.00045551628784145216,0.000460486641426129,0.0004610666852076316,-0.4055292308330536,-51.51944351196289,5.005293846130371,17.20862579345703,-1.1536763906478882,-1.2888290882110596,-0.0008682189509272575,,,,,,,,,
1739354896.3788235,0.3295834900274558,1.1502697487061824,0.29908033905895764,-1.228104474667104,-1.3968280843118666,1.0772170804924581,0.1147104954620862,-0.0010345027422937482,4.717143544818054e-05,0.0004051934653804055,0.0007171620680306753,0.0005474229387338762,0.00017031064638348213,0.001229799001181319,-0.3817255198955536,-51.54721450805664,5.005293846130371,17.23242950439453,-1.1536763906478882,-1.2824203968048096,-0.0072769103571772575,,,,,,,,,
1739354896.3898013,0.3295876199084445,1.1502697486694544,0.2990803476742701,-1.228107793818812,-1.3968309554160905,1.077216721825948,0.11471652443588207,-0.0004757277913398972,0.0003049857065205061,0.00037107254931539283,-0.00014223803765966737,0.0003788235601183569,7.414819786111872e-05,0.001624221427587859,-0.4293329417705536,-51.54721450805664,5.005293846130371,17.25623321533203,-1.1472676992416382,-1.2888290882110596,-0.03382720425724983,,,,,,,,,
1739354896.3998256,0.3295882566777803,1.1502677507286012,0.299081655154494,-1.2281027980871395,-1.3968312588476584,1.0772170785354862,0.11470489356923214,0.0006203365707754383,-3.046350398559235e-05,0.000882328147076578,0.0011127312569458288,0.0010862241871354788,0.0003713525968363074,-0.0024916889337605265,-0.4293329417705536,-51.51944351196289,4.981490135192871,17.20862579345703,-1.1536763906478882,-1.2824203968048096,0.05955658480525017,,,,,,,,,
1739354896.4107609,0.32959040255627015,1.1502697486694544,0.2990794258929193,-1.228106283944093,-1.3968328984119753,1.0772185958126042,0.11470448312134729,0.0002665106010986695,-0.00042675672767774746,-0.0008038142542358186,-0.0004525428419415394,-0.00023019275430838024,0.00047261583362842976,-0.0016808571894745292,-0.4293329417705536,-51.54721450805664,4.981490135192871,17.25623321533203,-1.1399434804916382,-1.2952377796173096,0.03300629183650017,750,787,758,41.283,0,0
1739354896.4207718,0.3295872571756303,1.1502714611901854,0.2990759666722379,-1.2281045806268844,-1.396832015073018,1.0772185420312559,0.11470553545454318,-0.0007292478455219503,0.000544968906214335,-0.0010436353295374548,0.0005063040059861413,0.0005348182684037544,-0.00019039897436998545,-0.0018399247809369982,-0.3817255198955536,-51.57101821899414,5.029097557067871,17.23242950439453,-1.1472676992416382,-1.2952377796173096,0.05314789339900017,749,788,758,41.283,0,0
1739354896.431729,0.32958683557363266,1.150269748774433,0.29908134307334533,-1.2281007270306983,-1.3968312632262545,1.0772178250704834,0.11470828154909717,-6.39527955174367e-05,1.5739143551115296e-06,7.226607410195187e-05,0.0018115470339573913,0.0005971845573021415,0.0007399640188171552,-0.0023498544177171423,-0.4055292308330536,-51.54721450805664,4.981490135192871,17.18085479736328,-1.1536763906478882,-1.2888290882110596,0.026597600430250168,753,788,756,41.391,0,0
1739354896.4428356,0.3295907115463587,1.1502693155279526,0.2990816230746813,-1.2281045806309665,-1.39683605568464,1.0772139015779967,0.11470993131869923,0.00015703461987541626,0.0004074117824063918,0.000692239477867315,-7.07586373784873e-05,0.00022898835209556083,-0.0008908928719029347,0.0013443722073471266,-0.4293329417705536,-51.57101821899414,4.981490135192871,17.23242950439453,-1.1399434804916382,-1.2824203968048096,0.012864691205322742,753,786,757,41.500,1,0
1739354896.4538004,0.329588257400065,1.1502675940355878,0.2990805811018831,-1.2281063633079357,-1.3968312618264682,1.0772166094883435,0.11470462041107235,0.0003931304441496724,-0.0010726491697293648,0.0004793284733314945,0.0010201712286655653,0.0008593501569176215,-0.00028998090345753005,-0.0016684229905415213,-0.4055292308330536,-51.54721450805664,5.005293846130371,17.25623321533203,-1.1536763906478882,-1.2824203968048096,0.03941498324275017,756,787,757,41.391,0,0
1739354896.4638073,0.3295866203713537,1.1502683936940907,0.29908236670766436,-1.2281085065677733,-1.396837877181985,1.077217838149878,0.11471259279298401,0.0003688839832005159,0.0008874849449321657,0.0009070302568393442,-0.0009643183011199929,-0.001215096556406813,0.0005879147678989661,0.002123321758092572,-0.4055292308330536,-51.54721450805664,4.981490135192871,17.25623321533203,-1.1335347890853882,-1.2888290882110596,-0.0008682189509272575,757,786,757,41.283,0,0
1739354896.4748056,0.3295907102099925,1.1502679714635982,0.2990805840306618,-1.2281045796860663,-1.3968320151439122,1.0772170674105062,0.11470305701706815,0.0009549970165939608,-0.001058704634397207,-0.0008184621341279891,0.0003515997799776441,-0.0009694271373249065,-0.00043587088679841203,0.00035179676356171096,-0.4293329417705536,-51.51944351196289,5.005293846130371,17.23242950439453,-1.1472676992416382,-1.2824203968048096,0.04673920199275017,755,785,758,41.283,1,0
1739354896.4848256,0.3295907087240248,1.1502699782614538,0.29907880135364273,-1.2281063633079197,-1.396834436972465,1.0772178381523154,0.11471308862652514,0.00042970257805858354,0.0003476045007450221,-5.81929931727168e-05,-0.0006602952217071305,-0.0003435239661861127,-0.00014124181447093943,0.003006994256081535,-0.4293329417705536,-51.54721450805664,5.029097557067871,17.25623321533203,-1.1536763906478882,-1.2888290882110596,-0.0008682189509272575,756,788,758,41.391,1,0
1739354896.4957888,0.32958996893973486,1.1502700466125106,0.29908260448124707,-1.2281045806309165,-1.3968319613087214,1.0772170790389082,0.11470945295928711,0.00035453173946492706,0.00033620060818708515,0.0005131440958956682,2.53267934586062e-05,0.0014643569325197448,0.0004153921225787086,-0.00037869016286769047,-0.4293329417705536,-51.51944351196289,4.981490135192871,17.23242950439453,-1.1472676992416382,-1.2824203968048096,0.026597600430250168,756,786,759,41.391,1,0
1739354896.5068016,0.329586782299674,1.1502660342992685,0.2990796128334371,-1.2281045806309165,-1.396831912602713,1.0772177989066776,0.11470992498876371,-0.0010479157756277946,-0.0009455335815933545,-0.0016867400333527422,0.00032421367580893253,0.0010491433175322533,-0.0005867640423879375,0.0005100046285639843,-0.4055292308330536,-51.49563980102539,5.005293846130371,17.23242950439453,-1.1600850820541382,-1.2888290882110596,0.012864691205322742,755,787,757,41.283,0,0
1739354896.5177183,0.3295861204507584,1.150267435706556,0.2990823404565318,-1.2281045822661605,-1.3968315310478756,1.077217080492237,0.1147051339759528,0.00026615453331825945,-0.0008755384206712673,0.0018961742516412923,-1.824091387191082e-05,0.0005368432605137325,-9.992690957132176e-05,-0.0017582718648198317,-0.4055292308330536,-51.51944351196289,4.981490135192871,17.23242950439453,-1.1472676992416382,-1.2824203968048096,0.03941498324275017,751,787,759,41.500,0,0
1739354896.5287275,0.32958654472156856,1.1502697741739263,0.2990865208198831,-1.2281063633079632,-1.3968351876796052,1.0772158499440336,0.11470558087695742,-0.0011514365942811582,-0.0007752173875757046,0.0028301390792945177,8.405145503622086e-05,-0.00020162144807763687,-0.0013183907169991042,-0.0007403036198183174,-0.3817255198955536,-51.54721450805664,4.929915428161621,17.25623321533203,-1.1472676992416382,-1.2760117053985596,0.026597600430250168,754,786,757,41.391,0,0
1739354896.5388677,0.3295859045705342,1.1502734591661754,0.2990823667093272,-1.2281045806309165,-1.3968314100527388,1.0772178381498674,0.1147069045072699,-0.0006162094059728242,0.0007365403120190976,0.0010812976479840362,0.0003545707360667774,0.0002017997312375575,0.0005284040841592883,-0.0013343344078479953,-0.4055292308330536,-51.59878921508789,4.981490135192871,17.23242950439453,-1.1536763906478882,-1.2888290882110596,0.03941498324275017,755,787,758,41.283,0,0
1739354896.5507975,0.32958713281395635,1.1502697485240996,0.299082287970681,-1.228104544328499,-1.3968328807548853,1.0772170804924583,0.11470866995402644,-0.0003688978553699878,-6.395751951204315e-05,0.0010807527374580503,0.0002536851076304676,0.0006845390218726958,-0.0003078211783405404,7.397521277557428e-05,-0.3817255198955536,-51.54721450805664,4.981490135192871,17.23242950439453,-1.1399434804916382,-1.2824203968048096,0.026597600430250168,756,787,758,41.391,0,0
1739354896.5628111,0.3295889196737414,1.150269757172723,0.29907877510782793,-1.2281063633078673,-1.3968328811308695,1.0772185899984141,0.11470822160486428,-0.0004991975673750564,-0.0009565726583472342,-0.001194744891531472,-0.0014192877669635849,0.0006798689165236354,7.148162463797608e-05,0.0006880882731782525,-0.4055292308330536,-51.54721450805664,5.029097557067871,17.25623321533203,-1.1399434804916382,-1.2952377796173096,0.03941498324275017,756,786,757,41.391,3,0
1739354896.5737917,0.3295889726554554,1.1502698170230012,0.2990798635887648,-1.2281024535715053,-1.396832015072133,1.0772170804924257,0.1147142755392042,-7.61125691758592e-05,0.0003624893681942504,-0.0007458813617657611,0.0008355993776488359,0.0016623433874160425,-0.0003061650074729196,0.0015835422241636215,-0.4055292308330536,-51.51944351196289,5.005293846130371,17.20862579345703,-1.1472676992416382,-1.2824203968048096,-0.020094294100999832,756,786,757,41.391,1,0
1739354896.585746,0.3295907195167432,1.1502714611940734,0.2990794495370817,-1.228103862431092,-1.3968360598837524,1.0772185914519643,0.11470781741218088,0.0008898405414122422,-1.673144247561439e-05,-0.0009156562747759943,0.0005567423400427361,-0.0005839859069568108,0.00014937460171792426,0.0012890403171592418,-0.4293329417705536,-51.57101821899414,4.981490135192871,17.23242950439453,-1.1399434804916382,-1.2952377796173096,0.03941498324275017,756,788,757,41.391,0,0
1739354896.5967197,0.32959263798479743,1.150271461081169,0.29908234040954446,-1.228104554135909,-1.3968312962451737,1.0772159696196457,0.1147087857889819,0.0008698538517010048,-5.65861205673061e-05,-0.00014907775109384864,0.00031144038071701576,0.0007050949908453437,-0.00018740634153889297,-0.0006874427327121717,-0.4571039378643036,-51.57101821899414,4.981490135192871,17.23242950439453,-1.1536763906478882,-1.2760117053985596,-0.0008682189509272575,754,786,758,41.608,1,0
1739354896.6067486,0.32958892814052343,1.1502696691965941,0.2990788013534943,-1.2281045845916914,-1.3968328809695836,1.0772185953261044,0.11470977201688387,-0.000460576403775218,0.0007796007582399371,0.0001487467164277104,-9.452903738137335e-06,0.000583019195651022,0.0018659193114135032,0.0019681732213978863,-0.4055292308330536,-51.54721450805664,5.029097557067871,17.23242950439453,-1.1399434804916382,-1.2952377796173096,-0.0008682189509272575,757,787,757,41.391,3,0
1739354896.6178153,0.32959040126153255,1.1502697368589099,0.2990766953181206,-1.2281045806309387,-1.39683288113087,1.0772131439179895,0.11470355432019438,0.0002996461345728906,-8.45061403942365e-05,-0.001203625687940246,9.688133344348709e-05,0.0001147053070640106,-0.0007236439345304685,-0.001264413427700769,-0.4293329417705536,-51.54721450805664,5.056868553161621,17.23242950439453,-1.1399434804916382,-1.2760117053985596,0.03941498324275017,756,786,758,41.391,0,0
1739354896.6287518,0.3295884200234329,1.1502704364530254,0.29908057484993067,-1.2281027979538974,-1.396835193986521,1.0772178381345918,0.11470563642153411,9.4680325916475e-05,0.001836149085926336,-0.00016850063491742574,0.001737740046561558,-6.106704447129976e-05,0.0004992603221552049,-0.0003278004187245269,-0.4055292308330536,-51.54721450805664,5.005293846130371,17.20862579345703,-1.1472676992416382,-1.2888290882110596,0.05314789339900017,759,786,758,41.391,0,0
1739354896.6397457,0.32958900699275945,1.1502684394972678,0.29907880135359094,-1.2281045811033204,-1.3968312615753087,1.0772178381525368,0.11471124721410818,-0.00041584852777088843,-0.0008051095785325811,8.951026726163416e-05,-5.345735443141797e-05,0.00024479793775967216,0.0005985424151994897,0.0018531250192205186,-0.4055292308330536,-51.51944351196289,5.029097557067871,17.23242950439453,-1.1536763906478882,-1.2888290882110596,-0.013685601763427258,758,786,757,41.391,1,0
1739354896.6498,0.32958876857748265,1.1502714612018496,0.29908034781966214,-1.2281081459849625,-1.3968323682849124,1.0772170804924583,0.11470613423772175,0.0002676719392127355,0.0008984637578275461,2.8035004332337913e-05,-0.0011533119280056966,0.0002542579020711557,-0.00027246824051250666,-0.0020506017830993805,-0.4055292308330536,-51.57101821899414,5.005293846130371,17.28003692626953,-1.1472676992416382,-1.2824203968048096,0.026597600430250168,757,789,756,41.391,1,0
1739354896.659808,0.32959071755046254,1.1502704374342387,0.2990796054966359,-1.2281027979538974,-1.396832880975346,1.0772166749519398,0.11471156213498482,0.0010909428185763423,-0.0004029010549948053,-0.0009032505993386037,0.0007348254844456826,-0.0010055704792360605,-0.000677277210412611,0.0004664807982548289,-0.4293329417705536,-51.54721450805664,5.005293846130371,17.20862579345703,-1.1399434804916382,-1.2824203968048096,-0.0008682189509272575,758,788,757,41.391,0,0
1739354896.670715,0.32958754158355136,1.1502676722044372,0.2990805577794713,-1.2281045809579652,-1.3968320166871877,1.077217080490169,0.11470760444440352,-0.00043912416620898895,-0.0015822640821140396,-0.0008444773804784696,-0.0005441636334442598,-0.000304594114524539,0.00035749876052181717,-0.00024350194744308799,-0.4293329417705536,-51.51944351196289,5.005293846130371,17.23242950439453,-1.1472676992416382,-1.2824203968048096,0.0064559997990727425,756,787,758,41.391,1,0
1739354896.6808035,0.3295852971347566,1.1502714611888556,0.29907774852615954,-1.2280999364948886,-1.3968320150721594,1.0772169622703718,0.11471295016011013,-0.00043059764446690493,0.0003058197662730726,-0.0008212249376509978,0.0009789148793428078,0.0009911098311458184,-9.237346309568233e-05,0.0028997815805613596,-0.3539545238018036,-51.57101821899414,5.005293846130371,17.20862579345703,-1.1472676992416382,-1.2824203968048096,-0.0008682189509272575,752,788,759,41.283,2,0
1739354896.6918187,0.32958633774857315,1.1502667970542848,0.29908441148730774,-1.2281045805057471,-1.3968312173212978,1.0772164253010303,0.11471149650742084,-0.0014450777773407498,3.821128083344118e-05,0.0007030009884228766,-0.0005794847725526938,0.0012790720119831606,-0.001375996747088799,0.0010349622437897843,-0.3817255198955536,-51.51944351196289,4.953719139099121,17.23242950439453,-1.1271260976791382,-1.2888290882110596,-0.0008682189509272575,752,787,758,41.283,1,0
1739354896.702779,0.3295865537043968,1.1502656049560056,0.29907844071611833,-1.228104215905479,-1.3968312966399647,1.0772170804306476,0.11470830003857678,-0.0009604295369799456,-0.0019454079029189563,0.0006971345439085704,-5.2953418476724254e-05,0.0009772282867770198,0.00041880184278151396,-0.00044533498089161996,-0.3817255198955536,-51.51944351196289,5.005293846130371,17.25623321533203,-1.1536763906478882,-1.2824203968048096,0.03941498324275017,753,788,758,41.391,0,0
1739354896.7137418,0.3295889010280783,1.1502723795311178,0.2990778555254833,-1.2281027979417751,-1.3968329177270562,1.0772178381525366,0.11470998561609037,-0.00027080303973476275,0.0017175456432378684,-0.001464112974643855,0.0005339827411686938,0.0004802984400326915,0.0009105228565678351,0.000996727552847637,-0.4055292308330536,-51.57101821899414,5.029097557067871,17.20862579345703,-1.1472676992416382,-1.2888290882110596,-0.013685601763427258,752,786,759,41.391,0,0
1739354896.7238042,0.3295906145323319,1.1502722510286023,0.2990823579431076,-1.2281043412311907,-1.39683125742734,1.0772170804924583,0.11470192485263159,0.0004611801634279124,0.0017362877462809574,0.0006216400981823668,0.000716605400819618,0.001694470388812364,0.0005775961350057376,-0.0016020220486883373,-0.4293329417705536,-51.57101821899414,4.981490135192871,17.23242950439453,-1.1536763906478882,-1.2824203968048096,0.05314789339900017,757,787,759,41.283,0,0
1739354896.7347338,0.32958729447474905,1.150269817027412,0.29907880135359327,-1.2281007176902867,-1.3968300538141358,1.077218595812615,0.11470355263262444,-0.000732565253947654,0.0003988369888733883,0.0006265177471003651,0.0014165856132448194,0.0004285619157729811,0.0009233965107541579,-0.0038983105272352037,-0.3817255198955536,-51.51944351196289,5.029097557067871,17.18085479736328,-1.1399434804916382,-1.2952377796173096,0.03941498324275017,756,786,758,41.283,1,0
1739354896.7457218,0.3295872836827311,1.1502697487161115,0.29907880135364273,-1.2281028774267544,-1.396831239899656,1.0772178381525368,0.11471335044703472,-6.140089104849066e-05,-0.0008503685292405655,-0.00018861895702459308,0.0001326593280502749,0.00111405926651989,0.0007435036151274677,0.0018929115911222876,-0.3817255198955536,-51.54721450805664,5.029097557067871,17.20862579345703,-1.1536763906478882,-1.2888290882110596,-0.0072769103571772575,757,787,759,41.391,0,0
1739354896.755795,0.329587268965341,1.1502677752572623,0.2990794271930184,-1.2281017196093131,-1.3968320325144383,1.077216726795232,0.11470918688541822,-0.0006287598990503511,-5.8362868170967064e-05,-0.0005113484821714135,0.00013005898944044655,-0.0001796776784652436,-8.044849987714453e-05,-0.000978628143006967,-0.3817255198955536,-51.51944351196289,4.981490135192871,17.23242950439453,-1.1472676992416382,-1.2824203968048096,-0.0072769103571772575,757,786,758,41.391,1,0
1739354896.7668185,0.32959073216224816,1.1502697486698696,0.2990805835488534,-1.228104580255416,-1.3968328808081543,1.0772170804864685,0.11470630788129141,0.0008312232343116815,0.00024078159246167436,0.00022800740401407845,-0.00020907186703914316,-0.00042289012053945053,0.0002456708650391441,0.0002677498141035032,-0.4293329417705536,-51.54721450805664,5.005293846130371,17.23242950439453,-1.1399434804916382,-1.2824203968048096,0.05314789339900017,756,786,758,41.391,3,0
1739354896.7778704,0.32958729153197386,1.1502686690816466,0.2990787974653931,-1.2281045806309143,-1.3968305056200105,1.077217182961776,0.11470912686960576,-0.0019798956300714206,-0.001674832527824671,-0.0010044052982715775,-0.00037763979666578297,0.0011438078465951605,-1.1535744116745073e-05,0.0015342514904760816,-0.3817255198955536,-51.51944351196289,5.029097557067871,17.23242950439453,-1.1600850820541382,-1.2952377796173096,-0.0072769103571772575,757,783,759,41.391,1,0
1739354896.788728,0.32959047909959155,1.1502695102526033,0.29907822188465555,-1.2281063599284312,-1.3968352070684833,1.077217825067926,0.11470558238506953,0.0012307918451264096,0.0004721945916071121,-0.0007260173787208204,-0.00027718159337204566,-0.0007525978943186794,0.00023490198192616368,-0.0004866139920656737,-0.4293329417705536,-51.54721450805664,5.005293846130371,17.25623321533203,-1.1472676992416382,-1.2888290882110596,0.026597600430250168,759,786,759,41.283,0,0
1739354896.798741,0.3295907116635502,1.1502653572723898,0.2990783443604396,-1.2281045889160958,-1.396832028208141,1.077217080492237,0.11471104974623088,0.000800253845273031,-0.0006781216378580115,-0.00048234778567520886,5.021902410785016e-05,-0.000439072190762104,0.000818909893331343,0.0027767282733126026,-0.4293329417705536,-51.51944351196289,5.005293846130371,17.23242950439453,-1.1472676992416382,-1.2824203968048096,-0.013685601763427258,757,788,759,41.391,0,0
1739354896.8096068,0.32958728368258705,1.150271461149652,0.2990805839927328,-1.2281056476162735,-1.3968308529649076,1.0772161658489536,0.11470303730096032,-0.0003048159688439825,0.00028012366834108377,-0.000604366177750576,-0.00034284835512400364,0.0001052262018922921,0.0005142252928160646,-0.0017812349864110427,-0.3817255198955536,-51.57101821899414,5.005293846130371,17.25623321533203,-1.1600850820541382,-1.2760117053985596,0.04673920199275017,758,788,757,41.283,1,0
1739354896.8197658,0.32959000524201937,1.1502735274845368,0.299080581114476,-1.2281006521745652,-1.396831415855012,1.0772174849371685,0.11470988688578561,-0.0006778926693596452,0.0010647444759886832,-0.00043826640249203263,0.0015491023122640212,0.0008823456897890109,-0.0007106582172220892,0.0006534180828332972,-0.4293329417705536,-51.57101821899414,5.005293846130371,17.20862579345703,-1.1536763906478882,-1.2888290882110596,0.012864691205322742,751,786,760,41.391,0,0
1739354896.82979,0.3295885629448742,1.150269740818937,0.29908058359858497,-1.2281081459486156,-1.396832013621265,1.0772178381465551,0.11471259284112538,0.0009199685069300521,-0.0003495591507791777,-9.39777894456965e-05,-0.002320601133583596,0.0003714175076870824,0.0003166777271834802,0.0006944426544621006,-0.4293329417705536,-51.54721450805664,5.005293846130371,17.28003692626953,-1.1472676992416382,-1.2888290882110596,-0.0008682189509272575,753,788,758,41.283,0,0
1739354896.8398259,0.32958892736568424,1.150268439493341,0.29907987539766034,-1.2281063633079354,-1.396830501690034,1.0772184213865856,0.11470373125160793,-0.0013648293493958917,-0.000591896632350875,0.0009393253665849223,-0.00037450828198990074,0.0010512389594025773,0.00048200689907008487,-0.0004614853059296065,-0.4055292308330536,-51.51944351196289,5.005293846130371,17.25623321533203,-1.1600850820541382,-1.2952377796173096,0.06596527993679047,751,787,753,41.174,2,0
1739354896.8498335,0.32958582611803244,1.150271313048442,0.29908000361362175,-1.2281099286619737,-1.3968360598837852,1.0772163223449094,0.11471338432157234,-0.0011397592778548697,0.0002885537004821742,-0.0001998805904337913,-0.0006914116840949069,-0.0008780339903997016,-0.00037145181198275796,0.0015949340377832786,-0.4055292308330536,-51.59878921508789,4.981490135192871,17.30384063720703,-1.1399434804916382,-1.2760117053985596,-0.013685601763427258,753,789,756,41.283,1,0
1739354896.8598337,0.3295907990720546,1.1502693152776131,0.2990865911446606,-1.2281063633079357,-1.3968336905639591,1.0772170804924501,0.11470681118128152,0.0007083032775272734,-1.888851256136271e-05,0.0028466397810165594,-0.0008475379098172442,-0.0005627815336158664,0.0002399074695808089,-0.0013571728676112572,-0.4293329417705536,-51.57101821899414,4.953719139099121,17.25623321533203,-1.1271260976791382,-1.2824203968048096,0.012864691205322742,754,787,757,41.391,1,0
1739354896.8707845,0.32959262719263593,1.1502716907299941,0.2990805724143664,-1.2281045806309165,-1.3968374727306077,1.0772177987451748,0.11470843029112177,0.00047169889100609074,0.0005362153598925458,0.0009438646716299374,-2.5444957024816744e-05,-0.0017713540522850328,0.0006771922034216997,-0.00020966902708757256,-0.4571039378643036,-51.57101821899414,5.005293846130371,17.23242950439453,-1.1399434804916382,-1.2888290882110596,-0.0008682189509272575,756,783,758,41.391,0,0
1739354896.8807974,0.3295889814847264,1.1502659587388975,0.29908236758062373,-1.2281074416538658,-1.3968312574898154,1.0772155651716344,0.11470272346581063,-0.00023251974312728024,-0.0003105541964470674,0.0010686541765306246,-0.0009272285994225795,0.0005040309463881013,-0.00044007514597154535,-0.0006323395470880224,-0.4055292308330536,-51.49563980102539,4.981490135192871,17.23242950439453,-1.1536763906478882,-1.2696030139923096,0.04673920199275017,754,787,757,41.283,1,0
1739354896.8917224,0.329587295456045,1.1502677507272552,0.29908049362893596,-1.228104341388659,-1.3968320150721334,1.0772170800079417,0.11470467985249728,-0.00015177337234901096,0.00017875283030820773,0.00039764138712608836,0.0008939857926336298,0.0004047565374537032,-0.0009878542896564735,6.978020997524766e-05,-0.3817255198955536,-51.51944351196289,5.005293846130371,17.23242950439453,-1.1472676992416382,-1.2824203968048096,0.03300629183650017,758,787,758,41.391,2,0
1739354896.9017453,0.3295890069960784,1.1502715377196058,0.2990823667061499,-1.228104580626865,-1.3968342790364678,1.0772170804924501,0.11470370621563003,0.000614775316744163,-0.0002524758672416927,0.00043564517829469045,0.00010716407738306168,-0.000585858464351126,-0.0005564363130885008,-0.0011827684319891708,-0.4055292308330536,-51.57101821899414,4.981490135192871,17.23242950439453,-1.1271260976791382,-1.2824203968048096,0.03941498324275017,758,788,757,41.391,0,0
1739354896.9118366,0.3295863152548797,1.1502697739576229,0.29908445500383357,-1.2281063633079357,-1.3968319523325259,1.077218595812615,0.1147106211711129,-0.0013422494594558935,-1.1080167594180188e-05,0.0008421540776901562,0.00012665454798548086,-0.0010422220563594503,0.0007336506571575937,0.000910009677973926,-0.3817255198955536,-51.54721450805664,4.953719139099121,17.25623321533203,-1.1600850820541382,-1.2952377796173096,-0.0072769103571772575,756,787,758,41.391,0,0
1739354896.9228232,0.32959071751264474,1.150269439386406,0.2990798711854433,-1.2281042627394776,-1.3968324163798373,1.0772170804924583,0.11471380891057037,0.0006698229690372316,-8.826789252728325e-05,-0.0005918840870783584,0.00034731351372435627,-6.169064707330205e-05,-0.0007232009221997997,0.004053304526870137,-0.4293329417705536,-51.54721450805664,5.005293846130371,17.23242950439453,-1.1399434804916382,-1.2824203968048096,-0.0072769103571772575,755,788,759,41.391,1,0
