IITGN-Robotics/Franka_IITGN_ROBOTICS/franka_ros/franka_iitgn/data02/s_b_009.csv
time,fr3_joint1_pos,fr3_joint2_pos,fr3_joint3_pos,fr3_joint4_pos,fr3_joint5_pos,fr3_joint6_pos,fr3_joint7_pos,fr3_joint1_vel,fr3_joint2_vel,fr3_joint3_vel,fr3_joint4_vel,fr3_joint5_vel,fr3_joint6_vel,fr3_joint7_vel,fr3_joint1_eff,fr3_joint2_eff,fr3_joint3_eff,fr3_joint4_eff,fr3_joint5_eff,fr3_joint6_eff,fr3_joint7_eff,flexpin1,flexpin2,flexpin3,Force,ContactMic,ContactMic_gt
1739355376.2570586,0.32582339275978056,1.1617816411248556,0.3109879532968286,-1.2117608451159863,-1.4041784212838513,1.0618439753538569,0.11356009426197013,0.000499864693138991,0.0005500009837446598,0.0004844037399972781,-7.589173300955694e-05,-0.0003256889790580464,0.00032967478269507673,0.00186747548602696,-1.329906702041626,-50.88071060180664,4.751387596130371,16.81189727783203,-0.7609151601791382,-1.6898300647735596,-0.020094294100999832,,,,,,,,,
1739355376.2671578,0.325818992239363,1.1617844861180897,0.3109943823769328,-1.2117582910436768,-1.4041767159924723,1.0618456325104177,0.11356014458717013,-0.0011086688565779984,0.0009833100569132942,0.0009533482437172158,0.00042604889912189136,-0.001058712909349386,0.0003729671064694692,0.0015197605454351287,-1.155346155166626,-50.96005630493164,4.826766014099121,16.85950469970703,-0.8387349843978882,-1.6046860218048096,0.0064559997990727425,,,,,,,,,
1739355376.2791467,0.3258379486528763,1.16181524265695,0.31102138123414763,-1.211700869242046,-1.4042272036168355,1.0618677193118313,0.11355300634862375,0.0019256831124488034,0.004474016982251837,0.0017847154978571404,0.006761723132468149,-0.00456315147019044,0.002349537808311781,-0.0017420681112929241,-0.7308465838432312,-51.39249038696289,5.132246971130371,17.13324737548828,-1.0026143789291382,-1.4664413928985596,0.03941498324275017,,,,,,,,,
1739355376.2901137,0.32585624932349105,1.1618091161906543,0.311021976728265,-1.2116616787403238,-1.404234756610705,1.0618876068711438,0.11355381656349806,0.0016036417285043162,-0.0003346945138841104,-0.0006001660740300593,0.002750306299768045,-0.0001296968817059678,0.002808064422209932,0.000796388532164543,-0.4571039378643036,-51.31711196899414,5.283003807067871,17.13324737548828,-1.0547994375228882,-1.3748886585235596,0.03300629183650017,,,,,,,,,
1739355376.3020985,0.3258737427232282,1.1618013310242874,0.31102694994624813,-1.2116335217848269,-1.404234753081214,1.0619057819752604,0.11355780812299385,0.001614162280995784,-0.0011471265867187988,0.00015650615647103561,0.0017408131809357702,0.001609832992464998,0.0016549280139238733,0.0010677770168733586,-0.4055292308330536,-51.23776626586914,5.259200096130371,17.05786895751953,-1.0547994375228882,-1.4334824085235596,-0.0008682189509272575,,,,,,,,,
1739355376.3131125,0.3258729266093935,1.16180910389246,0.31102407327734416,-1.2116213759632262,-1.4042373880492722,1.0619124439430694,0.11355528240174449,-0.0010326107208284481,0.0007178743696288207,-0.0007189415656910694,-0.00019895008333858238,-0.00116899928459546,0.00045104402248219156,-0.00030658360485424593,-0.3301508128643036,-51.31711196899414,5.334578514099121,17.10944366455078,-1.0355733633041382,-1.4270737171173096,0.019273381680250168,,,,,,,,,
1739355376.3241022,0.32588109732070253,1.1618203042598279,0.31102308797061695,-1.2116179977990111,-1.4042362740547405,1.0619172307424714,0.1135573086782902,0.0005656504020465549,0.0007500571863834028,0.0006563325479808082,-0.0004804834501753913,0.0012018880039312333,0.00015723187201531003,-1.725965772581624e-05,-0.3539545238018036,-51.47183609008789,5.310774803161621,17.15705108642578,-1.0419820547103882,-1.4206650257110596,-0.0008682189509272575,,,,,,,,,
1739355376.3341043,0.3258856745106292,1.16181939911504,0.3110209893250735,-1.2116171601015022,-1.404240669751539,1.0619125488641898,0.11356007629889456,0.0023724144185853476,0.0011631260997250804,0.00010162258634839106,0.0003230737043877807,-0.000559639488031815,-0.0009657525858646943,0.00035174801480152647,-0.3301508128643036,-51.42026138305664,5.334578514099121,17.18085479736328,-1.0419820547103882,-1.4142563343048096,-0.020094294100999832,,,,,,,,,
1739355376.3451145,0.3258876613354227,1.1618149606228856,0.3110189055336192,-1.2116125269872025,-1.4042402827715725,1.0619160296179668,0.11355933617165148,7.407090930952945e-06,-0.0007308170599446366,0.0003387517904830885,1.5350115954085872e-05,-0.0005318788132733784,0.0002639174053723192,0.0016964905281663888,-0.3539545238018036,-51.36868667602539,5.362349510192871,17.10944366455078,-1.0483907461166382,-1.4069321155548096,-0.013685601763427258,,,,,,,,,
1739355376.3551702,0.3258840919221935,1.1618159144249873,0.3110171267446196,-1.2116114675826628,-1.4042395243598624,1.0619145157758962,0.11354893583908662,-0.0005870683660338453,0.00013903911591138762,-9.84576138453059e-05,-0.0005962342029232936,0.0009703728591352067,-0.00046244718445747566,-0.0011166258852817995,-0.3063471019268036,-51.36868667602539,5.386153221130371,17.10944366455078,-1.0547994375228882,-1.3941147327423096,0.07328949868679047,,,,,,,,,
1739355376.3652089,0.32588739887952145,1.161814527739721,0.3110167799226399,-1.2116072377201201,-1.404238870568844,1.0619152719824336,0.11354986460071151,0.000865185342511544,-0.000785882100241349,-0.0001939009459207335,0.0011601731776636225,0.0008616796143334054,-0.00023042766365801,-0.0008604484196062276,-0.3063471019268036,-51.39249038696289,5.362349510192871,17.08167266845703,-1.0483907461166382,-1.4005234241485596,0.03941498324275017,,,,,,,,,
1739355376.376131,0.3258874906306811,1.1618149650023122,0.31101712336056325,-1.2116100354977097,-1.4042404036460914,1.061913756662269,0.11355001581873242,0.0011996122307478402,-0.0002582222999102277,-0.0005581931477532022,0.00014696295325368122,-0.0011283328173403405,-0.00030476636646232423,-0.0021741741102413396,-0.3063471019268036,-51.36868667602539,5.386153221130371,17.13324737548828,-1.0483907461166382,-1.3877060413360596,0.05314789339900017,,,,,,,,,
1739355376.3870828,0.3258907058167679,1.1618189183561827,0.3110168872576348,-1.2116125282522678,-1.4042410367731804,1.061917052523163,0.11355583847482943,0.0008709821026506716,0.00048769099642851125,-0.0004021855994816477,0.0006085548388664038,-0.0004994735178119132,0.0007993905941573789,1.961491921236388e-05,-0.3539545238018036,-51.42026138305664,5.386153221130371,17.15705108642578,-1.0419820547103882,-1.4142563343048096,0.012864691205322742,,,,,,,,,
1739355376.3970847,0.3258857782079561,1.1618148748425843,0.3110202812145667,-1.2116118404322374,-1.4042368426177867,1.06191765320779,0.11355932349701262,-0.0009919747665037544,-0.0013567762183763904,7.39690579806291e-05,8.956115761621746e-05,0.00020676632506859828,7.103333558643995e-05,0.0019719060098552913,-0.2825433909893036,-51.39249038696289,5.334578514099121,17.15705108642578,-1.0685323476791382,-1.4206650257110596,-0.013685601763427258,,,,,,,,,
1739355376.409073,0.32588651972131144,1.161813804028153,0.31101886394743467,-1.2116117373877338,-1.4042390215265677,1.0619200744720694,0.11355045186763132,-0.0004185017609678053,-0.00036056647873509946,0.0009874818345801646,-0.0005774498144876359,5.914813713940939e-06,0.00046685755574373125,-0.0009630069570806367,-0.2825433909893036,-51.36868667602539,5.334578514099121,17.15705108642578,-1.0621236562728882,-1.4142563343048096,0.03300629183650017,,,,,,,,,
1739355376.4191458,0.3258906164319207,1.1618165637153384,0.31102098981176274,-1.2116118135896237,-1.4042410411356463,1.061920269720352,0.1135561801836272,0.001220934324817135,-0.00015865773281373047,0.0005082784833927124,2.826497347719828e-05,0.0006713315251860023,-0.0012736986141789171,0.0013960907527606097,-0.3063471019268036,-51.42026138305664,5.334578514099121,17.15705108642578,-1.0419820547103882,-1.4069321155548096,0.012864691205322742,,,,,,,,,
1739355376.4300268,0.32589294013017583,1.1618197161338393,0.3110180765907692,-1.2116090471932222,-1.4042454050184923,1.0619161868592422,0.11356003720198217,0.0002090567667538798,-0.0003119693028824736,0.00013081822063937121,0.0008426596091752104,-0.0015029515619764259,0.001043512658325525,0.0013688509718767998,-0.3817255198955536,-51.42026138305664,5.334578514099121,17.15705108642578,-1.0419820547103882,-1.4069321155548096,-0.020094294100999832,,,,,,,,,
1739355376.4401546,0.32589508976948495,1.161821961236614,0.3110179613212193,-1.211613520001979,-1.4042401662033854,1.0619151695139954,0.11354981235248665,0.002808934291879175,0.0019115533246455234,-0.0006667669811942601,-0.0006120091256878837,8.703357434766793e-05,-0.0009248060265872344,-0.0018641625737937702,-0.3817255198955536,-51.49563980102539,5.362349510192871,17.18085479736328,-1.0483907461166382,-1.3877060413360596,0.03941498324275017,,,,,,,,,
1739355376.4501586,0.32588759638761466,1.1618197081752204,0.31101429454911933,-1.2116115265071308,-1.40424183951533,1.0619153117367257,0.1135530530072807,-0.00014524476977288307,0.0001405368048423111,-0.0005963138087136743,0.0015638680905513047,-0.0006022458870984855,-0.0003022131403675187,-0.0012359122891247697,-0.3063471019268036,-51.42026138305664,5.409956932067871,17.18085479736328,-1.0355733633041382,-1.4005234241485596,0.03941498324275017,,,,,,,,,
1739355376.4610624,0.32589070029818046,1.161811541037613,0.3110203273635858,-1.2116090218466995,-1.404241798793913,1.0619153155891572,0.11355496690912549,-5.601684647980681e-05,-0.0018242609562810963,0.0006170981850234131,0.0005465810793823548,0.0002694313156875678,-0.0008023372562096718,0.0002700000795031339,-0.3063471019268036,-51.34091567993164,5.310774803161621,17.15705108642578,-1.0355733633041382,-1.4005234241485596,0.019273381680250168,,,,,,,,,
1739355376.4711623,0.3258941563173858,1.161812841486676,0.3110185096568636,-1.2116051746244376,-1.404244024584811,1.0619192235776498,0.11355928391516913,0.0012419866913657468,-0.0006337859868452688,-7.643015573479295e-06,0.0008312448335678755,-0.0007215423319347203,0.00041516167221887214,0.0008374842726429395,-0.3539545238018036,-51.36868667602539,5.334578514099121,17.10944366455078,-1.0483907461166382,-1.4069321155548096,-0.013685601763427258,,,,,,,,,
1739355376.482064,0.3258907268068303,1.16182333818273,0.3110189003352922,-1.211608718242838,-1.4042452189539285,1.0619168970113164,0.11355051996674319,-0.0005802886854926058,0.0011282974913535177,0.00019108757974549916,-8.270098088688791e-05,-0.0002667378118955379,-0.0020469726337937416,-0.0020753466047837756,-0.3063471019268036,-51.47183609008789,5.362349510192871,17.15705108642578,-1.0355733633041382,-1.4142563343048096,0.05955658480525017,,,,,,,,,
1739355376.4921613,0.3258924471766078,1.1618193068138107,0.3110157212752534,-1.2116100475144578,-1.4042393848013301,1.0619174209174223,0.11355346169272937,4.256165331743481e-05,-3.889600179065485e-05,-0.0019671466792442753,-1.3643588462963448e-05,2.4022470049608376e-05,0.00036760099982490694,-0.0012625298269877724,-0.3301508128643036,-51.44406509399414,5.362349510192871,17.15705108642578,-1.0483907461166382,-1.4142563343048096,0.03300629183650017,,,,,,,,,
1739355376.5031602,0.32589627128779597,1.1618227028781403,0.31101788600288116,-1.2116086778415223,-1.4042417752710012,1.0619169006032103,0.1135514368093085,0.003007917350248355,0.0012661893777785815,0.0008335330601837769,0.0005001470772704906,-0.0008609273295573305,0.0006691381458777763,-0.0016982742931994275,-0.3817255198955536,-51.47183609008789,5.362349510192871,17.15705108642578,-1.0419820547103882,-1.4142563343048096,0.05314789339900017,,,,,,,,,
1739355376.5141125,0.32589096964250086,1.1618098211275887,0.3110185947805475,-1.211605149423741,-1.4042410416426674,1.0619172075028058,0.11355199429855808,-0.00030051826915211834,-0.0016827072815892281,0.0006552542996746672,8.315690251949081e-06,-0.001014907565598813,0.0004877844331860425,-0.0009214366310754212,-0.3063471019268036,-51.31711196899414,5.362349510192871,17.10944366455078,-1.0419820547103882,-1.4069321155548096,0.03941498324275017,,,,,,,,,
1739355376.5241323,0.32589073596212786,1.1618187868906547,0.3110160752085543,-1.2116087103935278,-1.404240283473535,1.0619182213799385,0.11355695493633496,0.0001510311859072148,0.0017055864128096348,-0.0008669138615430089,-0.0009928148445380637,-0.00019055616100832986,-0.00013351356765995624,6.984786154486783e-05,-0.3063471019268036,-51.42026138305664,5.362349510192871,17.15705108642578,-1.0483907461166382,-1.3941147327423096,0.0064559997990727425,,,,,,,,,
1739355376.5360613,0.3258899592371204,1.1618250569699455,0.3110167012043109,-1.2116125677729634,-1.4042457611019639,1.0619159330661432,0.11355452846580755,-0.0011674822939553883,0.003326287660959088,-0.0002841694303513917,-0.0012351400056364674,-0.0005710131596086509,-0.0005567706506102068,0.0006269401619952547,-0.2825433909893036,-51.49563980102539,5.362349510192871,17.20862579345703,-1.0419820547103882,-1.3941147327423096,0.026597600430250168,,,,,,,,,
1739355376.5460682,0.325891449244108,1.1618214287078077,0.3110245009318582,-1.2116076367285815,-1.4042386199059396,1.0619184785177984,0.11355689612183077,-0.00057806280623605,0.0007093676918490452,9.661283155420423e-05,0.0009484656992090493,0.002648969740565107,0.0005914482090792761,0.002520648307127068,-0.3063471019268036,-51.44406509399414,5.283003807067871,17.15705108642578,-1.0355733633041382,-1.4142563343048096,-0.020094294100999832,,,,,,,,,
1739355376.5560722,0.32589629700178,1.1618145363885464,0.3110188346849593,-1.2116087144452117,-1.4042433810019688,1.0619184922690506,0.11355275190444991,0.0010996929135433722,-0.0009914364904789273,0.000912312858150705,-0.0007732521510537665,-0.0020532007310002437,-0.0001081172890937449,-0.00011111433798570143,-0.3539545238018036,-51.39249038696289,5.334578514099121,17.15705108642578,-1.0355733633041382,-1.4005234241485596,0.03300629183650017,,,,,,,,,
1739355376.566088,0.32589284598403145,1.161818675464043,0.31102024198377914,-1.2116082351578903,-1.40424028548684,1.0619201287745361,0.11355333900681419,-0.0020297154479263745,1.1402122142416824e-05,0.0015043663934728342,-0.0009856893975905296,-0.0006435015947293414,0.0011387247712172314,-0.0006734832154749965,-0.3063471019268036,-51.42026138305664,5.334578514099121,17.18085479736328,-1.0483907461166382,-1.4142563343048096,0.03300629183650017,,,,,,,,,
1739355376.5761752,0.32589456328368827,1.1618137686579981,0.3110200060953021,-1.2116007340761785,-1.404244299520955,1.0619184393743628,0.11355456835815561,-0.0004149764238223551,-0.0014217785863319661,-0.00014068248544143612,0.002586498112865135,-0.00020284552466848178,0.00040047733962317615,-7.49266768822556e-05,-0.3301508128643036,-51.36868667602539,5.334578514099121,17.08167266845703,-1.0419820547103882,-1.4142563343048096,0.026597600430250168,,,,,,,,,
1739355376.587134,0.3258907485244722,1.1618165297384018,0.311019953204384,-1.2116086868274425,-1.4042442995944275,1.0619189742374522,0.11355619756469042,-0.000520458530506905,-0.0005961956782462003,-0.00034653681739690455,-0.00012168120160683626,0.000463846818047935,-0.0010820478743060805,0.000715920689165934,-0.3063471019268036,-51.42026138305664,5.334578514099121,17.15705108642578,-1.0419820547103882,-1.4005234241485596,0.012864691205322742,,,,,,,,,
1739355376.598084,0.32589533755269756,1.1618197428542962,0.31101674805866963,-1.2116036351344341,-1.4042435928528723,1.0619199831790251,0.11355450874658211,-0.0005141548704520512,0.0008651559052814924,1.0417734808327268e-06,0.0005784577603879091,-0.0015326612720087428,0.0004441740392826208,0.0012133329152854383,-0.3301508128643036,-51.42026138305664,5.362349510192871,17.13324737548828,-1.0483907461166382,-1.4005234241485596,-0.0008682189509272575,,,,,,,,,
1739355376.6081316,0.3258938943577868,1.161819426095388,0.3110185567428621,-1.211607163690175,-1.4042448020439413,1.0619212569162813,0.11355369367487697,-0.0005360894386110607,0.0010333203456427626,0.00040652728911476875,0.0004884864604064927,-0.0024099122133969266,0.0010841233872254082,-0.0011678943039099545,-0.3063471019268036,-51.42026138305664,5.362349510192871,17.18085479736328,-1.0483907461166382,-1.4142563343048096,0.03300629183650017,,,,,,,,,
1739355376.6181366,0.32589560431514025,1.1618175625659306,0.3110178855108664,-1.2116074465504298,-1.404242558682346,1.0619175667649965,0.11355690286597546,0.0006805664542225292,-0.0006695308307778103,-8.776184063953325e-05,-0.0002952792315980852,-0.0007558970353539231,2.8172540946920532e-05,-0.0002594399485467415,-0.3301508128643036,-51.42026138305664,5.362349510192871,17.18085479736328,-1.0291646718978882,-1.4069321155548096,0.0064559997990727425,,,,,,,,,
1739355376.6290643,0.3258938166821893,1.1618166169155486,0.3110157478393218,-1.2116020586128902,-1.4042410426235066,1.0619191467956586,0.11355856277644431,0.0001346105940881906,0.00017788132111125888,-0.0010203490128413916,0.001133814756942613,-0.0008632966580122913,-0.00011656374710615778,0.0015869663902212212,-0.3063471019268036,-51.42026138305664,5.362349510192871,17.10944366455078,-1.0419820547103882,-1.3941147327423096,-0.0072769103571772575,,,,,,,,,
1739355376.639142,0.3258938946820248,1.1618166326095871,0.311016799430516,-1.2116074065334608,-1.4042417813511054,1.0619142465871532,0.11355305890344167,-0.00023144268131116726,-0.0012507299489743166,-0.00020828673945530836,0.0007688345558570215,0.0009429913879842075,-0.0010769245952227074,-0.0007987384920266178,-0.3063471019268036,-51.42026138305664,5.386153221130371,17.18085479736328,-1.0355733633041382,-1.3877060413360596,0.03941498324275017,,,,,,,,,
1739355376.6500988,0.3258972330568747,1.1618233748489903,0.3110157212375646,-1.2116076059147638,-1.4042421290098366,1.061918511766241,0.11355305836284091,0.00022801373353975585,0.001895929330651544,-0.0004329318337255055,-0.000592109321413669,0.0003947774716031024,-0.0012049790695291772,0.0010605574047313007,-0.3539545238018036,-51.47183609008789,5.362349510192871,17.15705108642578,-1.0483907461166382,-1.3877060413360596,0.03941498324275017,,,,,,,,,
1739355376.660132,0.325893894681878,1.1618187639292445,0.31101785133267956,-1.2116058192041619,-1.4042403237317838,1.0619178304355033,0.11355380293372377,-7.178839369830257e-05,-0.0009565339184459897,-0.00016471461396079247,-0.00017898280797514372,0.00043401306998179105,6.455388164835281e-05,8.496945461209228e-05,-0.3063471019268036,-51.42026138305664,5.362349510192871,17.13324737548828,-1.0483907461166382,-1.3941147327423096,0.03300629183650017,,,,,,,,,
1739355376.6701472,0.3258938946833457,1.1618166049558147,0.3110196887070296,-1.211607522408253,-1.4042386599168974,1.0619161031089248,0.11355857883596931,0.00014009115006886175,-0.001257854847892282,0.0020438351291478143,-0.00018695694635883874,0.00020453926782185047,-0.0020061981890316656,0.001206135248548378,-0.3063471019268036,-51.42026138305664,5.310774803161621,17.15705108642578,-1.0621236562728882,-1.3941147327423096,-0.0072769103571772575,,,,,,,,,
1739355376.6811726,0.3258973197248081,1.1618169998845929,0.3110185125970497,-1.211605413244935,-1.404242279579653,1.0619176190817492,0.1135506183671533,0.0013532538394965816,-0.0002327574569916895,-0.00041369745672100393,-6.640162817607209e-05,-0.0006612440435630859,-0.0002815201168875708,-0.0005385272764143834,-0.3539545238018036,-51.39249038696289,5.334578514099121,17.15705108642578,-1.0355733633041382,-1.4069321155548096,0.03300629183650017,,,,,,,,,
1739355376.69214,0.3258931354089411,1.1618190169168008,0.31101642985843075,-1.2116080200730375,-1.4042395264783352,1.0619192826759842,0.11356009138449048,2.8860316482374505e-05,-0.0003805409752126237,0.0003153185454194452,-0.0005864328114276084,0.0017893059857252568,0.0001696153863455202,0.001758134903607492,-0.2825433909893036,-51.42026138305664,5.362349510192871,17.18085479736328,-1.0547994375228882,-1.3941147327423096,-0.020094294100999832,,,,,,,,,
1739355376.7021677,0.32589560863743167,1.1618175952638816,0.3110179637798199,-1.2116053766179333,-1.4042395258134595,1.0619207980140857,0.11355644285342162,7.34790096089806e-05,-1.7619749935294442e-05,0.0005245302587220128,-1.1223824351322282e-05,0.0008279598348671025,0.0006524613403534847,-0.0012245938992226282,-0.3301508128643036,-51.42026138305664,5.362349510192871,17.15705108642578,-1.0547994375228882,-1.4069321155548096,0.0064559997990727425,,,,,,,,,
1739355376.7140946,0.32589389468335384,1.1618184777349283,0.31101780408412405,-1.2116053796558113,-1.4042398923261428,1.061920604273189,0.11355025244886421,8.624654170181492e-05,-0.00015218990227030486,0.0002886343184739424,-0.0008210414973607926,0.0005854716368605538,-6.221889376966337e-05,-0.0029135567959295916,-0.3063471019268036,-51.44406509399414,5.334578514099121,17.15705108642578,-1.0547994375228882,-1.4142563343048096,0.05314789339900017,,,,,,,,,
1739355376.724137,0.3258936607889418,1.1618128416938,0.3110158002824527,-1.2116071582992456,-1.4042367851405537,1.0619199211569057,0.1135550212769446,-0.0002540730929099028,-0.002077090233168794,-0.0008408511433133088,-0.00047173349265161666,0.0018133690292602095,0.0004838696569239573,-0.0014395402311517774,-0.3063471019268036,-51.36868667602539,5.362349510192871,17.18085479736328,-1.0419820547103882,-1.4005234241485596,-0.013685601763427258,,,,,,,,,
1739355376.7351406,0.3258973465414898,1.1618193063253577,0.3110187459637222,-1.2116053767164041,-1.4042419059386246,1.0619192696113042,0.11355219249533562,0.0008186845333238993,0.001347260875464067,0.0018503722769565617,0.0001707852122047793,0.00017199643496663291,0.0011278974567326971,-0.001136425746474507,-0.3539545238018036,-51.44406509399414,5.334578514099121,17.15705108642578,-1.0483907461166382,-1.3941147327423096,0.04673920199275017,,,,,,,,,
1739355376.745145,0.3258958196236384,1.1618197052858463,0.31101855709750165,-1.2116071867524802,-1.4042410412160347,1.0619216639106537,0.11355178115424115,-0.00036567512582610055,0.0002489945061543784,-0.0003761875390768414,-0.0006925203779667816,-0.00023536542468232828,0.0013054547061399182,-0.0013050531095406895,-0.3301508128643036,-51.42026138305664,5.362349510192871,17.18085479736328,-1.0419820547103882,-1.4142563343048096,0.012864691205322742,,,,,,,,,
1739355376.7552478,0.32589221261569123,1.1618214260918198,0.3110187920884259,-1.2116035942656533,-1.4042410815261517,1.0619216578817767,0.1135563880475506,-0.0004935781342616909,0.0007907026914548687,-4.9317424770719035e-05,0.0015772624869626337,0.0006464929672167427,0.001106846563491955,-0.0004083953733104355,-0.2825433909893036,-51.44406509399414,5.362349510192871,17.13324737548828,-1.0419820547103882,-1.4142563343048096,-0.0008682189509272575,,,,,,,,,
1739355376.7661552,0.3258928974185237,1.1618204203804514,0.3110195837056246,-1.2116035926181432,-1.4042421274284587,1.0619171088496924,0.11355782133029348,-0.0006052038941420806,0.00043855169341420005,0.0007193929742993937,0.001246604373239429,-2.9808261826892832e-05,-0.001400551282647443,0.0014483748049659456,-0.2825433909893036,-51.44406509399414,5.310774803161621,17.13324737548828,-1.0419820547103882,-1.4069321155548096,-0.0008682189509272575,,,,,,,,,
1739355376.7770658,0.3258965608824309,1.1618137715408585,0.31101785878515265,-1.211604661347611,-1.4042402879493256,1.0619207979932606,0.11355381218270338,0.00020492905585246823,-0.0012846409373661952,-0.0006414819656180673,0.0005617012077167134,0.00030377891157817573,0.0007000248012311971,-0.0004934672095097258,-0.3301508128643036,-51.36868667602539,5.362349510192871,17.15705108642578,-1.0483907461166382,-1.4069321155548096,0.03300629183650017,,,,,,,,,
1739355376.7871494,0.325894434345855,1.1618167671503128,0.3110141752236227,-1.211601823447027,-1.404239530945364,1.06191987900993,0.11355782133831024,-0.0004819129253807262,-0.001936220319452845,-0.0014506644665351212,0.0008694795013150582,0.001519896793307474,-0.0006278538067580244,0.0014326428453497605,-0.2825433909893036,-51.42026138305664,5.386153221130371,17.10944366455078,-1.0547994375228882,-1.4005234241485596,-0.0008682189509272575,,,,,,,,,
1739355376.7971823,0.3258956082233642,1.1618170277964035,0.3110166665014491,-1.211604661347825,-1.4042404443816257,1.0619200403512752,0.11355503031451922,0.0002344418882598831,-0.0009867066118118561,-0.0005295477925988411,0.0007459329219799373,0.0009478322235844908,-5.366707108792198e-05,0.00022348553788029135,-0.3301508128643036,-51.39249038696289,5.362349510192871,17.15705108642578,-1.0483907461166382,-1.4005234241485596,-0.0072769103571772575,,,,,,,,,
1739355376.8081427,0.3258965971808164,1.1618167541029116,0.31101819818404053,-1.2116053774714481,-1.404244627990765,1.0619200403540077,0.11355764585835029,0.00011902463493963246,-0.0004526857373165468,4.144767782537708e-05,-2.819201779732518e-06,-0.0012593700274599606,0.0008870043724319176,-0.0009761213400392212,-0.3301508128643036,-51.39249038696289,5.362349510192871,17.15705108642578,-1.0483907461166382,-1.4005234241485596,-0.0008682189509272575,,,,,,,,,
1739355376.8181744,0.3258956072208422,1.161820737964553,0.31102029279526344,-1.2116064440246523,-1.40424301031256,1.0619192822094126,0.11355695495139236,3.9143960187781445e-05,0.0011518234453096235,0.0011195454388496409,-0.00048470656784001617,-8.899386465741445e-06,-0.0003019820511418526,0.0009889310074560956,-0.3301508128643036,-51.44406509399414,5.310774803161621,17.18085479736328,-1.0355733633041382,-1.3941147327423096,0.0064559997990727425,,,,,,,,,
1739355376.8291311,0.3258956075311258,1.1618212179759255,0.3110178010152733,-1.2116053648255611,-1.4042414036801012,1.0619192826939268,0.11356130589119381,0.0005883062912066409,0.0011927382783480124,-0.0005484257160510948,-0.00038003988633129773,-0.0008975933906804366,0.00023401375778245355,0.001001903006897463,-0.3301508128643036,-51.44406509399414,5.334578514099121,17.15705108642578,-1.0419820547103882,-1.3941147327423096,-0.03382720425724983,,,,,,,,,
1739355376.8401725,0.3258940009742093,1.161821278264333,0.31101885973050025,-1.2116071503046357,-1.4042444203694517,1.0619200403540077,0.11355136720863677,0.00014083430484537594,0.0011833708548485528,0.00017263816268785792,5.526209657275049e-06,0.0001488266602807493,0.0009751304696219048,-1.932831683219995e-05,-0.3063471019268036,-51.47183609008789,5.334578514099121,17.18085479736328,-1.0419820547103882,-1.4005234241485596,0.026597600430250168,,,,,,,,,
1739355376.8510768,0.3258950740377677,1.1618187108273852,0.3110227432549016,-1.211601446850879,-1.4042415304984466,1.0619200403540077,0.11354955812495875,-0.00040143207090831065,-0.00023511587328256403,0.0019838366296682846,0.001342634675804199,-0.0001817378688678305,0.0008271442867888052,-0.002055158187941689,-0.2825433909893036,-51.42026138305664,5.310774803161621,17.13324737548828,-1.0419820547103882,-1.4005234241485596,0.03300629183650017,,,,,,,,,
1739355376.8611393,0.3258966668911804,1.1618174002288928,0.3110188508914431,-1.2116053676276608,-1.4042410545508934,1.0619207980140861,0.11355503873587021,0.0008877438057133878,-0.0017229359957238082,0.0010418279260009803,-0.00043120149557430965,0.00037484789813862287,0.00027362910042849387,0.0010794529023141243,-0.3301508128643036,-51.39249038696289,5.334578514099121,17.15705108642578,-1.0419820547103882,-1.4069321155548096,-0.013685601763427258,,,,,,,,,
1739355376.8721435,0.3258941370688312,1.161815595916178,0.31101676814656964,-1.2116050017393554,-1.404239539939879,1.0619192826939294,0.11355782066507199,-0.0003984261482290831,-0.0008443501719424747,-0.0009048326692413406,-0.0002152631249804631,6.616721771886909e-05,-0.00013537851826277017,0.0022677649281349667,-0.3063471019268036,-51.39249038696289,5.362349510192871,17.18085479736328,-1.0547994375228882,-1.3941147327423096,-0.0008682189509272575,,,,,,,,,
1739355376.8831396,0.32589393440297443,1.1618211824285407,0.3110158004323544,-1.2116053412699055,-1.4042438747995254,1.0619200403540077,0.11355466001802769,-0.000586603261473516,-9.346823421886004e-05,-0.0008215810805153006,-2.8135899078307144e-06,0.00010313344075741845,-0.0003111919108601821,0.0009032587809691354,-0.3063471019268036,-51.44406509399414,5.362349510192871,17.15705108642578,-1.0547994375228882,-1.4005234241485596,0.012864691205322742,,,,,,,,,
1739355376.8941357,0.3258958721138334,1.16182336309125,0.31101393854484294,-1.211609238742982,-1.4042387023750118,1.0619200403540077,0.11355352347914985,-0.00048166516482087,-8.358907343296453e-05,-0.0017345864772907327,-0.001175222016026947,0.0006802617254405582,-0.0003741959859489912,0.0005810706817436077,-0.3301508128643036,-51.47183609008789,5.386153221130371,17.20862579345703,-1.0621236562728882,-1.4005234241485596,-0.0008682189509272575,,,,,,,,,
1739355376.905153,0.3258943369069946,1.1618192273424042,0.311017801335291,-1.2116053764943377,-1.4042403239214936,1.0619186275031685,0.11355224038575212,0.00033638677319986746,-0.0001678174825832067,0.0010482512399652647,-8.212130491519226e-06,-0.000731978721803147,-0.0006747350457755883,-0.0003288456709910076,-0.2825433909893036,-51.44406509399414,5.334578514099121,17.15705108642578,-1.0483907461166382,-1.4005234241485596,0.019273381680250168,,,,,,,,,
1739355376.9160953,0.3258942126959644,1.1618231365444076,0.3110142797380638,-1.2116071606370211,-1.4042406566394292,1.0619207980061105,0.11355823244321121,-0.0008467488280557392,0.0011335330426737848,-0.0006782799152075289,-0.0003818610362619654,0.0014955295092759827,0.00038608692564432215,0.0009471623308018721,-0.3063471019268036,-51.47183609008789,5.386153221130371,17.18085479736328,-1.0547994375228882,-1.4069321155548096,-0.013685601763427258,,,,,,,,,
1739355376.9270618,0.32589313681987253,1.1618213495244845,0.311017905995863,-1.2116052702034854,-1.404240285631972,1.0619207980140861,0.11355537933522519,-0.0005856694515817848,-0.00019424824497876134,0.0006107945425015775,-0.0002363225312409144,-3.456935880407372e-05,0.0008569801883826376,0.0003575917288641919,-0.2825433909893036,-51.44406509399414,5.334578514099121,17.15705108642578,-1.0483907461166382,-1.4069321155548096,-0.0072769103571772575,,,,,,,,,
1739355376.9371574,0.32589857420700624,1.1618214377546683,0.3110185096460473,-1.211605270637741,-1.4042417382674022,1.0619192826939294,0.11355695538696547,0.0007595394151054501,0.0012369131729751534,0.0007844127945352188,-0.00015020562988170852,-0.0003985882836514134,0.0003324933555825386,0.00010018663023332277,-0.3301508128643036,-51.47183609008789,5.334578514099121,17.15705108642578,-1.0483907461166382,-1.3941147327423096,0.0064559997990727425,,,,,,,,,
1739355376.948242,0.3258960322700758,1.161822727384783,0.31101653916935545,-1.2116007319204465,-1.4042421428483876,1.0619207805714832,0.11355365738414366,-0.0002744684813947408,-7.464929154175253e-06,-0.0010447591054188513,0.0008213377829411813,0.00023550448541891723,0.0004793027995461087,-0.0010947061161421323,-0.3063471019268036,-51.47183609008789,5.362349510192871,17.13324737548828,-1.0419820547103882,-1.4069321155548096,0.03300629183650017,,,,,,,,,
1739355376.9591439,0.3258933897401412,1.1618194259850227,0.3110195837378316,-1.211605375616824,-1.4042458080263436,1.0619216464686827,0.11355304977076724,-5.713413928386962e-05,-0.0007589319823128272,0.0013538843549094725,-0.0012361914718164674,-0.001521372445332636,0.0004685987745811817,-0.0013892928326178651,-0.2547723948955536,-51.42026138305664,5.310774803161621,17.15705108642578,-1.0419820547103882,-1.4142563343048096,-0.0008682189509272575,,,,,,,,,
1739355376.9691448,0.3258988137538666,1.1618177456045424,0.31101393854439663,-1.2116007319222244,-1.4042442523187204,1.0619192826936341,0.11355653614808571,0.0020236847663905166,4.938629682817015e-05,-0.0017431717935726863,0.0003995404045583305,-0.0009671941396289542,-0.00037716431242913566,0.0014790426220162706,-0.3301508128643036,-51.39249038696289,5.386153221130371,17.13324737548828,-1.0547994375228882,-1.3941147327423096,0.012864691205322742,,,,,,,,,
1739355376.9801383,0.3258966670056623,1.1618175677677538,0.31101576024789307,-1.2116044188792812,-1.404241751040875,1.061918525033851,0.11355934346227566,-6.162433637966949e-05,2.4182916332242025e-05,-0.0003501588364024939,0.0012498792885885686,0.0009346448460752395,-0.0008312633834003957,0.0024705296191556564,-0.3301508128643036,-51.42026138305664,5.362349510192871,17.15705108642578,-1.0483907461166382,-1.3877060413360596,-0.013685601763427258,,,,,,,,,
1739355376.9901483,0.3258939833315198,1.1618212955624114,0.31101572122207577,-1.211601798369179,-1.404243368271327,1.0619200403540077,0.11355774031880099,-0.0017335291492986524,0.0012574394703763771,0.0005441780621215851,0.0008986773099986186,-0.0013662402539013554,0.00026985469391290645,0.0002525008859616453,-0.3063471019268036,-51.47183609008789,5.362349510192871,17.10944366455078,-1.0227559804916382,-1.4005234241485596,-0.013685601763427258,,,,,,,,,
1739355377.0016253,0.32589781900605436,1.161821421065103,0.31101992820634966,-1.2116018111402287,-1.4042433227131044,1.061919271550044,0.11355408791372867,0.000594000977665674,0.0009728388526082698,0.0009012374915067893,0.0008733681458328311,0.0008269321069749194,9.703937889172018e-05,-0.0007458189697889455,-0.3063471019268036,-51.44406509399414,5.334578514099121,17.10944366455078,-1.0547994375228882,-1.3941147327423096,0.026597600430250168,,,,,,,,,
1739355377.012216,0.3258953713909905,1.1618220121625982,0.31101396612216897,-1.211603230836142,-1.4042438857895991,1.061918811743461,0.11355823261530075,-0.0012324603253661024,0.0002519874966869025,-0.0019118252710494071,0.00015709274749533294,-1.561463196925811e-05,-0.0007437788042065713,4.801440022257153e-06,-0.2825433909893036,-51.47183609008789,5.386153221130371,17.15705108642578,-1.0547994375228882,-1.3941147327423096,-0.013685601763427258,,,,,,,,,
1739355377.0231583,0.32589539786993776,1.1618166402909693,0.31101496246146754,-1.211609159593333,-1.404240010035578,1.0619207980132,0.113552073254578,-0.0006860979092574646,-0.0010571603036601675,-0.00029567870000694234,-0.0014652784698510652,0.0003602563476305686,0.0007347256384699892,-0.0016578238530427771,-0.2825433909893036,-51.42026138305664,5.386153221130371,17.20862579345703,-1.0547994375228882,-1.4069321155548096,0.04673920199275017,,,,,,,,,
1739355377.0341058,0.3258988269349467,1.1618156879988477,0.31101574844492325,-1.21160073257589,-1.4042451305818138,1.0619207587682293,0.11355457227604537,0.00015067662915388777,-0.0013855420814077287,-0.0013141275641783286,0.00028793961521766313,-0.0017725276894739004,-0.0001934994499189694,0.00036892345873667354,-0.3301508128643036,-51.36868667602539,5.362349510192871,17.13324737548828,-1.0483907461166382,-1.4069321155548096,0.026597600430250168,,,,,,,,,
1739355377.0441353,0.3258942405374757,1.1618195055624152,0.31101572251795817,-1.2116006412812648,-1.4042430225588434,1.0619200403533429,0.11355604006175433,-0.0020538244328360327,0.0006973045698942137,-0.0009619053301798101,0.0004792400098196152,0.0008592502378917604,-0.00030556850543391064,0.001754977681800679,-0.3063471019268036,-51.42026138305664,5.362349510192871,17.13324737548828,-1.0621236562728882,-1.4005234241485596,0.012864691205322742,,,,,,,,,
1739355377.0541449,0.32589253963281584,1.161816856141857,0.31101856785020093,-1.2115986057939732,-1.404241405237033,1.061919283178446,0.1135514661998113,-0.0010471700650371868,-0.0011888380887077345,0.0010289349018148147,0.0016463942926145596,0.0005300886890733775,-0.00021012353521553226,-0.0021326405378483005,-0.2825433909893036,-51.42026138305664,5.362349510192871,17.10944366455078,-1.0419820547103882,-1.3941147327423096,0.012864691205322742,,,,,,,,,
1739355377.0650628,0.3258971015119523,1.1618168443232317,0.31101397650301105,-1.211607078772084,-1.4042384430920114,1.0619207980140941,0.11355691593120071,-0.00010227324478975977,-0.0012869714776395436,-0.0005361968228187527,-0.0005985710789034874,-0.000410037957854189,0.00021820003793769172,0.0007764867826325167,-0.3063471019268036,-51.42026138305664,5.386153221130371,17.18085479736328,-1.0685323476791382,-1.4069321155548096,0.0064559997990727425,,,,,,,,,
1739355377.0750902,0.3258971133340969,1.1618234451656786,0.3110139647902767,-1.2116053761668362,-1.4042428249273817,1.0619177673737727,0.11355695544092902,-0.0008629490667263124,0.002239108697084797,-0.0007755594106472791,0.0012881427011320842,-0.0006337361835877626,-0.0003397031926712316,0.0016030747340511724,-0.3063471019268036,-51.47183609008789,5.386153221130371,17.15705108642578,-1.0547994375228882,-1.3812973499298096,0.0064559997990727425,,,,,,,,,
1739355377.085104,0.3258961596598472,1.1618213047564754,0.31101394729339576,-1.2115987689548204,-1.4042443729748728,1.061918642771421,0.11355695592945408,-0.00022512702751902814,0.0014928240453605563,-0.0005334074672753563,0.0020201422925791644,-0.0017427315865367354,-0.00010263396116775019,0.0006032842001738529,-0.3063471019268036,-51.47183609008789,5.386153221130371,17.08167266845703,-1.0547994375228882,-1.3877060413360596,0.0064559997990727425,,,,,,,,,
1739355377.09513,0.3258970955756153,1.1618202485706186,0.31101780111942545,-1.2116053673206728,-1.4042457479405932,1.0619168614416135,0.11355300347874485,-0.00032086610374894655,0.0001777527297038661,2.3136328023736527e-05,-0.0015749845966410384,-0.0023709800129226503,-0.0007180186573276392,-0.0012297631332534678,-0.3063471019268036,-51.47183609008789,5.334578514099121,17.15705108642578,-1.0419820547103882,-1.4005234241485596,0.012864691205322742,,,,,,,,,
1739355377.1060908,0.32590053837532523,1.1618229151838446,0.3110139385443976,-1.211601798058192,-1.4042444669647607,1.0619200403001725,0.11355857878210436,0.0008794289124593077,0.0017714168569792437,-0.0017383475067690064,0.001350197484460304,-0.00041580566373665775,3.820480443895023e-06,0.0010367354111127428,-0.3539545238018036,-51.49563980102539,5.386153221130371,17.10944366455078,-1.0419820547103882,-1.4005234241485596,-0.0072769103571772575,,,,,,,,,
1739355377.1161413,0.3258971120259684,1.1618194084220603,0.31101572262550403,-1.2116060512164337,-1.4042400132472153,1.0619185251953562,0.11355786355133676,-0.00011092685869450308,7.0551538745865e-05,-0.0010872925937366134,-0.001070152090286728,-0.0006520102905771172,-0.0003181244766454857,0.0002951109623535508,-0.3063471019268036,-51.42026138305664,5.362349510192871,17.20862579345703,-1.0547994375228882,-1.3877060413360596,0.012864691205322742,,,,,,,,,
1739355377.1271856,0.32589540081342494,1.1618193995662207,0.3110181883140859,-1.2116046495558659,-1.4042399248899111,1.0619200403540086,0.11355275196801498,-0.0007956308899168729,-0.00035298584905940134,0.0015054366952339567,-0.00027512647246045384,0.0007548413734767695,0.00015324941785377225,-0.000973594506562832,-0.2825433909893036,-51.42026138305664,5.362349510192871,17.15705108642578,-1.0621236562728882,-1.4005234241485596,0.03300629183650017,,,,,,,,,
1739355377.138059,0.3258971141608703,1.1618189128085323,0.3110199278962559,-1.211605799473357,-1.4042425449353786,1.0619200403540077,0.11355427243208101,0.0015950057501836932,-0.0005248045364693861,0.0009328442969762154,-0.0008277201970104443,-0.0005401848879998617,-0.0006522028986716786,0.0019355665293984818,-0.3063471019268036,-51.42026138305664,5.334578514099121,17.15705108642578,-1.0419820547103882,-1.4005234241485596,-0.0008682189509272575,,,,,,,,,
1739355377.1481047,0.3258971162503628,1.1618207402566174,0.31101565636014605,-1.2116031131057352,-1.40424142376071,1.0619168614396195,0.11355381488106728,0.00028718456867422,0.0008708850186463017,-0.00021424718213927034,0.0009920918576692317,0.0008777280846901454,-0.0010669251740966779,-0.0007567603041006217,-0.3063471019268036,-51.44406509399414,5.334578514099121,17.15705108642578,-1.0483907461166382,-1.4005234241485596,0.03300629183650017,,,,,,,,,
1739355377.1581306,0.32589540081348173,1.161819230928327,0.3110166786797209,-1.2116034760414178,-1.4042414232579241,1.0619207977987453,0.11355183765127322,-0.00024118575865860533,0.00031783439491890093,0.00016805548037709153,0.00016288593673250361,-0.000322443513291212,0.00016479794301617437,-0.0013375936565205753,-0.2825433909893036,-51.44406509399414,5.334578514099121,17.13324737548828,-1.0483907461166382,-1.4069321155548096,0.04673920199275017,,,,,,,,,
1739355377.1691628,0.3258971136581842,1.1618168829149944,0.3110178126333368,-1.2116050193563785,-1.4042404644187028,1.0619200403540063,0.11355504582088354,0.0010427891072046522,-8.323080692621573e-05,0.0014241096703270766,0.0007627469990214086,0.0009951398846519755,-0.00018426229246779147,0.0011154164644131105,-0.3063471019268036,-51.42026138305664,5.334578514099121,17.15705108642578,-1.0483907461166382,-1.4005234241485596,0.019273381680250168,,,,,,,,,
1739355377.1791773,0.3258988248737538,1.1618234543999775,0.31102097673712936,-1.2116071314751764,-1.4042388209928354,1.0619200403540077,0.11355695397411078,0.001362173832219695,0.0013846085696781675,0.0015692355770713586,-0.002243174184695244,-0.0008699616056264181,0.00012200262326692817,0.002507053442167134,-0.3301508128643036,-51.47183609008789,5.334578514099121,17.18085479736328,-1.0621236562728882,-1.4005234241485596,0.0064559997990727425,,,,,,,,,
1739355377.1900687,0.3258971134421649,1.1618214511657796,0.31101572138335104,-1.2116003796905206,-1.4042429249685253,1.0619186275031685,0.1135539350589185,-0.000495558772915693,0.0015835624276067841,0.00027358180118097335,3.834508032371194e-05,-0.0006860063603860901,-0.0006980015499821086,0.00036185074265479447,-0.3063471019268036,-51.44406509399414,5.362349510192871,17.13324737548828,-1.0547994375228882,-1.4005234241485596,0.03300629183650017,,,,,,,,,
1739355377.2000859,0.3258954007044179,1.161818273232448,0.31101401760541897,-1.2116021847706147,-1.4042428041234478,1.0619200795759374,0.11355219300849072,0.0003028173761296865,-0.0011266957147314826,-0.0008432655157119598,1.4836771476700223e-05,0.0014166334949974897,0.0006378564604247975,0.0017030697429817332,-0.2825433909893036,-51.44406509399414,5.386153221130371,17.15705108642578,-1.0547994375228882,-1.4005234241485596,0.04673920199275017,,,,,,,,,
1739355377.2110972,0.3258988229114549,1.16181974385986,0.3110157225179434,-1.211602839043337,-1.4042435293886106,1.061920040354229,0.11354772439982178,7.028306077770967e-05,0.0014031025015473538,0.00036693985551043305,0.0004738435071209552,-0.0003477327500014662,-0.00028834322018183613,-0.0019955404789349243,-0.3301508128643036,-51.42026138305664,5.362349510192871,17.13324737548828,-1.0621236562728882,-1.4005234241485596,0.05314789339900017,,,,,,,,,
1739355377.221161,0.32589810046059464,1.161821447568241,0.3110139386524246,-1.211602876302455,-1.4042419183859285,1.061918967633926,0.11355695537830685,-0.0005611902618707287,0.0005597923689304215,-0.00031513076664926734,-0.0006771025305374624,0.0014978004415610487,-0.0006517502407924079,0.0001555611293065307,-0.3301508128643036,-51.44406509399414,5.386153221130371,17.15705108642578,-1.0621236562728882,-1.4005234241485596,0.0064559997990727425,,,,,,,,,
1739355377.2321346,0.32589329686833274,1.1618176060687548,0.31101653775326615,-1.2116046568704957,-1.4042459286500992,1.0619207849260783,0.11354880053723954,-0.0016100897997301843,0.0003766852669313384,2.4596351814618826e-05,-0.0006358085363866367,-0.0010401992539002247,-0.00018966400144728894,-0.0012949245658737225,-0.2547723948955536,-51.42026138305664,5.362349510192871,17.18085479736328,-1.0419820547103882,-1.4069321155548096,0.03941498324275017,,,,,,,,,
1739355377.2421525,0.32589711038892916,1.161819743514575,0.3110157212352429,-1.2116027604545858,-1.4042402842184698,1.0619176190994764,0.11354986063496007,-3.432305818962901e-05,6.223334527746338e-05,-0.0007119951257874992,0.00031511237772880677,-3.614793734228512e-05,5.198453062688684e-05,-0.0007684194295414324,-0.3063471019268036,-51.42026138305664,5.362349510192871,17.13324737548828,-1.0483907461166382,-1.4069321155548096,0.03941498324275017,,,,,,,,,
1739355377.2530608,0.3258993446478047,1.1618187903125214,0.31101572413760026,-1.2116031116672474,-1.4042431660027437,1.061920797960251,0.11355859212845479,0.0012663163357041233,-0.00012503537930249616,0.0001545769800210577,-0.0004247612146929823,-0.00013381880038927424,0.000269950415916021,0.0022365326500349116,-0.3063471019268036,-51.42026138305664,5.362349510192871,17.15705108642578,-1.0621236562728882,-1.4069321155548096,-0.0072769103571772575,,,,,,,,,
1739355377.263149,0.3258954008260282,1.1618263232629986,0.31101393868842137,-1.2116021937515964,-1.40424261199868,1.0619207980140857,0.1135578171743904,-0.00035858456937472126,0.002669184462275399,-0.000821271316004505,0.00036221529721455303,0.00011115555246512463,6.235407989350401e-05,0.0014756089302565426,-0.2825433909893036,-51.49563980102539,5.386153221130371,17.15705108642578,-1.0419820547103882,-1.4069321155548096,-0.0008682189509272575,,,,,,,,,
1739355377.2740579,0.32589516228583704,1.161814873292153,0.3110206355432672,-1.2116023963713192,-1.4042403030164943,1.0619200403540077,0.11355746630770393,-0.0014078106327418635,-0.0008713339021104188,0.00042771511305634966,0.0008973179058242364,-0.0003975319319746456,0.00030177023234029927,0.0013906236581457353,-0.2825433909893036,-51.39249038696289,5.334578514099121,17.15705108642578,-1.0483907461166382,-1.4005234241485596,-0.0008682189509272575,,,,,,,,,
1739355377.2850668,0.3258953475821998,1.161816881607051,0.3110159837260842,-1.2116034864948417,-1.4042450302602183,1.0619200403540077,0.1135503157971283,-0.0008620660179459942,0.0010217973932206156,-0.0007507360794380316,-0.0006412423172286227,0.0005850918619610848,0.0003488237138286728,-0.0006335985032925259,-0.2825433909893036,-51.42026138305664,5.362349510192871,17.13324737548828,-1.0483907461166382,-1.4005234241485596,0.026597600430250168,,,,,,,,,
1739355377.2962,0.32589923912404417,1.1618177195133148,0.31101642989091005,-1.2116021682059215,-1.4042438750291018,1.0619207936534352,0.1135530588957034,0.0015561624439040904,-0.0005129110887257235,-0.0007051398388595079,-0.00017876855033655917,0.0004885074398012749,0.00022066457518201736,-0.0007117684407498422,-0.3063471019268036,-51.39249038696289,5.362349510192871,17.15705108642578,-1.0547994375228882,-1.4069321155548096,0.03941498324275017,,,,,,,,,
1739355377.3081157,0.3258988254308298,1.1618156002422926,0.3110157212254153,-1.2116007471960875,-1.4042446660580987,1.0619189807158536,0.11355350523759866,0.0005218367521500432,-0.0005794049520759729,0.0001725535812967322,0.0016298726353529702,-0.0025841068482734975,-0.0006439929249180469,0.0002132932115355183,-0.3301508128643036,-51.39249038696289,5.362349510192871,17.10944366455078,-1.0419820547103882,-1.4005234241485596,0.026597600430250168,,,,,,,,,
1739355377.3190725,0.3258954007044153,1.1618231774340544,0.31101582620408136,-1.2116021580050438,-1.4042453858222994,1.0619200403520137,0.11355780235164403,0.00012556640467638642,0.0009588154804586372,-0.00041982567583422086,0.000576671880059764,0.00030632878166851044,1.8709427155965513e-05,0.000354675787411583,-0.2825433909893036,-51.47183609008789,5.362349510192871,17.15705108642578,-1.0419820547103882,-1.4005234241485596,-0.0008682189509272575,,,,,,,,,
1739355377.3291228,0.3258951623948477,1.161821092067948,0.31101989864162266,-1.21159930785424,-1.404244079931437,1.0619200403540074,0.1135582241291038,-0.0012753558616335698,0.0002934755971269133,0.000780535026285611,0.0014383288845604843,-0.0009639735879968011,0.0005236539783374307,0.0008357145346582136,-0.2825433909893036,-51.42026138305664,5.310774803161621,17.10944366455078,-1.0483907461166382,-1.4005234241485596,-0.0072769103571772575,,,,,,,,,
1739355377.3401275,0.3258934028712334,1.1618182766559915,0.3110139395182354,-1.2116052584882666,-1.4042444127259874,1.0619158018014903,0.11355508379034411,-0.0015477222205524522,-0.001037398059560686,-0.0013489660236928906,-0.0010184637016180341,-0.0009999553205372865,-0.0015670353468943698,0.00010313232267134516,-0.2547723948955536,-51.44406509399414,5.386153221130371,17.15705108642578,-1.0547994375228882,-1.4005234241485596,0.019273381680250168,,,,,,,,,
1739355377.3510616,0.32589711334616434,1.1618167040625156,0.3110178010472745,-1.2116003870914487,-1.4042446460432636,1.061920040346032,0.11355780803217744,0.00018971849498508888,-0.0012505283546064214,0.0014187114559902094,0.0010636736957493104,8.89912091908489e-05,-4.107371570350451e-05,0.0007730238339576791,-0.3063471019268036,-51.39249038696289,5.334578514099121,17.13324737548828,-1.0483907461166382,-1.4005234241485596,-0.0008682189509272575,,,,,,,,,
1739355377.3622057,0.3258974017912101,1.1618145671139588,0.3110157212214154,-1.2116078060400708,-1.4042459108269174,1.0619200403540074,0.11355065329606476,-0.0006003433998264854,-0.00044473406762084535,-0.000311598247068991,-0.0010611493340461045,-0.0013834454522384024,0.0002079026859749391,-0.002877178128022661,-0.3063471019268036,-51.39249038696289,5.362349510192871,17.23242950439453,-1.0419820547103882,-1.4005234241485596,0.04673920199275017,,,,,,,,,
1739355377.3731256,0.3258971134787155,1.1618157584712347,0.3110159574324145,-1.2116039406295624,-1.4042439306518557,1.0619200403540077,0.11355741389399739,-8.370050126397163e-05,-0.0014600257264996963,0.00019571505251780982,3.8021609542483335e-05,-0.0010909941108296487,0.0001453209449876315,0.0014391068272995456,-0.3063471019268036,-51.36868667602539,5.362349510192871,17.18085479736328,-1.0547994375228882,-1.4005234241485596,-0.0008682189509272575,,,,,,,,,
1739355377.3831367,0.3258954795504347,1.1618189453290053,0.31101370110187865,-1.211602396371117,-1.4042415255876703,1.0619200403540077,0.11355751292601585,-0.000768106097563683,-0.0001795856843548489,0.00016760238207775638,-0.0004985509298807801,0.0007622284042663535,0.0005353884683386014,0.001044507948619907,-0.2825433909893036,-51.42026138305664,5.386153221130371,17.15705108642578,-1.0419820547103882,-1.4005234241485596,-0.0072769103571772575,,,,,,,,,
1739355377.3934276,0.32590095175522515,1.1618195052276927,0.311017801979311,-1.2116039409606434,-1.4042449905377183,1.0619200418075578,0.11355199428047928,0.0007092553536985696,-0.00011829350247821474,0.00019220207697151004,-0.0012707777890064189,0.00037424911395425066,0.00010410881846172157,-0.000746872409308805,-0.3301508128643036,-51.42026138305664,5.334578514099121,17.18085479736328,-1.0483907461166382,-1.4005234241485596,0.03941498324275017,,,,,,,,,
1739355377.4041202,0.32589711338216665,1.161820354678505,0.31101780133529644,-1.2116021582795884,-1.4042406651324069,1.0619200403540157,0.11354757954908488,0.00037913352551633333,0.0005474243990458035,0.00025461914181296055,0.0002810124713389923,0.000236159278686138,0.0002055005903540823,-0.0014946392590789886,-0.3063471019268036,-51.47183609008789,5.334578514099121,17.15705108642578,-1.0483907461166382,-1.4005234241485596,0.04673920199275017,,,,,,,,,
1739355377.4141378,0.32589711344217126,1.1618176547468813,0.31101780101127585,-1.2116003752755242,-1.4042400284091352,1.0619217814873827,0.11354951798606099,-0.00018663638053016847,0.00014914134735391656,0.00039138638492095706,0.0007985251886696099,-0.00035482800545671506,0.0004943377273522211,-0.0006623280701999049,-0.3063471019268036,-51.39249038696289,5.334578514099121,17.13324737548828,-1.0547994375228882,-1.4142563343048096,0.03300629183650017,,,,,,,,,
1739355377.4250882,0.3258934028725799,1.1618167920441125,0.31101792193282607,-1.2116003753118574,-1.4042394845210948,1.0619200403546714,0.11355304573617692,-0.0016944411615811548,-0.0016571537620587763,0.0002528503297044784,0.0003143193717103991,0.0009589937251614201,-7.49564658385649e-05,0.0001381972042521387,-0.2547723948955536,-51.39249038696289,5.362349510192871,17.13324737548828,-1.0685323476791382,-1.4005234241485596,0.03941498324275017,,,,,,,,,
1739355377.435153,0.3258989046999015,1.1618192268906986,0.31101873706222055,-1.2116021579525384,-1.4042444397627578,1.0619200403540077,0.11355640186458402,0.0013319034993594706,0.0005164113732626485,0.00039497814165130336,5.3292425622695255e-05,-0.0008952447356984497,9.527113267815318e-05,0.002486632048782341,-0.3301508128643036,-51.44406509399414,5.334578514099121,17.15705108642578,-1.0419820547103882,-1.4005234241485596,-0.0008682189509272575,,,,,,,,,
1739355377.4461393,0.325900951755227,1.1618224742454017,0.31102167224255267,-1.211602157952538,-1.40423871996292,1.0619224616083174,0.1135562645665744,0.0014489835767569033,0.0004118523298708615,0.0011516561511487745,-0.0002460498449209801,0.0008579298899656712,0.0006382756735110028,-0.0014904316025005503,-0.3301508128643036,-51.47183609008789,5.283003807067871,17.15705108642578,-1.0749410390853882,-1.3941147327423096,-0.0008682189509272575,,,,,,,,,
1739355377.4570942,0.325898825858895,1.1618194957186194,0.311013950209153,-1.211602160895977,-1.4042449922063043,1.0619200403599893,0.11355477760142883,-0.000600758410972874,-0.000740607138466656,0.00023019661137404644,0.00031798163586459926,9.109502248625791e-05,1.5537011033015278e-05,-0.0012409096570288674,-0.3301508128643036,-51.42026138305664,5.386153221130371,17.15705108642578,-1.0483907461166382,-1.4005234241485596,0.012864691205322742,,,,,,,,,
1739355377.467126,0.32589742828216334,1.1618167115780083,0.31101783892227036,-1.2116039406297066,-1.4042443667020446,1.0619200403540079,0.113555426905679,0.0006967826957761216,-0.0015914942435798392,0.0011571502184012867,-0.000677899941264158,-0.0006889665888240951,0.00022583750613164316,5.93099761970979e-05,-0.3063471019268036,-51.39249038696289,5.334578514099121,17.18085479736328,-1.0547994375228882,-1.4005234241485596,0.019273381680250168,,,,,,,,,
1739355377.4771793,0.32589540081521023,1.161820592438495,0.31101959387715045,-1.211602157952538,-1.4042440372798548,1.0619192826939294,0.11355782133830984,-0.0013343778174903218,0.0016623883035386691,0.0014224996675754752,0.0007374214458916679,0.000999859447672759,0.00010433191231499833,0.0013325290662294324,-0.2825433909893036,-51.47183609008789,5.310774803161621,17.15705108642578,-1.0547994375228882,-1.3941147327423096,-0.0008682189509272575,,,,,,,,,
1739355377.4881332,0.3258971162503488,1.161815237799362,0.3110158349526944,-1.211602157952538,-1.4042447172118704,1.0619216639113185,0.1135574662536399,0.0005685529959028787,-0.0012472105310096474,0.0003035097417909649,9.985387209518199e-08,-0.001146553653283494,0.0005539016112954167,0.0022340342552239225,-0.3063471019268036,-51.36868667602539,5.362349510192871,17.15705108642578,-1.0419820547103882,-1.4142563343048096,-0.0008682189509272575,,,,,,,,,
1739355377.4991179,0.3259005118846892,1.1618214444022794,0.31101572219411855,-1.2116060207464612,-1.4042431695066198,1.0619192826939294,0.11355853956663672,0.0014479817870362201,9.376302739985397e-05,0.0004705730771406507,-0.0006226305367883962,-0.0012324312527342536,-0.00029643490776500703,-7.977842069317796e-05,-0.3539545238018036,-51.44406509399414,5.362349510192871,17.20862579345703,-1.0621236562728882,-1.3941147327423096,-0.0072769103571772575,,,,,,,,,
1739355377.5101254,0.3258988258547452,1.1618196605893323,0.31101572521767407,-1.211604303614773,-1.4042459150826174,1.0619186275031685,0.11355142171612127,0.0013451236017199056,-0.0009967308349005874,-0.0002498949652289737,-4.299379429928516e-05,-0.0018308634067238227,-0.0008631080534920509,-0.002859528950979004,-0.3301508128643036,-51.42026138305664,5.362349510192871,17.15705108642578,-1.0419820547103882,-1.4005234241485596,0.05314789339900017,,,,,,,,,
1739355377.5201478,0.3258999595309003,1.1618165532944638,0.3110178010114734,-1.2115985927075108,-1.4042450498760668,1.0619177673019924,0.11355660057206521,0.00046246075278050773,-0.0021267112287005722,-0.0002949309937378704,0.0009018464035175349,-0.0021233069516983275,-0.00035322915478354437,-0.0009335055201335697,-0.3063471019268036,-51.42026138305664,5.334578514099121,17.10944366455078,-1.0483907461166382,-1.3812973499298096,0.0064559997990727425,,,,,,,,,
1739355377.5301776,0.32589976693438377,1.161819637896005,0.31101780104727267,-1.2116022374253983,-1.4042429242771686,1.0619232192683952,0.11355862178326552,0.001008651062219837,-0.0001163482217448664,0.0011473242777265001,-0.0003025665904394234,0.0004959971849553768,0.0009535893091032538,0.00037487095019353976,-0.3301508128643036,-51.42026138305664,5.334578514099121,17.15705108642578,-1.0547994375228882,-1.4005234241485596,-0.020094294100999832,,,,,,,,,
1739355377.5402176,0.32590095209384956,1.1618192803230296,0.3110157212214154,-1.2116060469117116,-1.4042404240772757,1.0619207980679213,0.11355542679063145,0.0011656524981146338,8.172973869933391e-05,-0.00014420352065139838,-0.0014056306913858012,0.0016836198262380965,0.0002920739128970812,0.0013261717928572236,-0.3301508128643036,-51.44406509399414,5.362349510192871,17.20862579345703,-1.0483907461166382,-1.4069321155548096,0.019273381680250168,,,,,,,,,
1739355377.551133,0.32590197534689297,1.1618174281422695,0.3110198999323713,-1.2116003667723994,-1.404243561947479,1.0619200403540079,0.11355856585511366,0.0019081455305438228,-0.0007713333813075194,0.0015643483854370487,0.0014427149736528373,0.0021199376558454497,-0.00043274166597058613,0.000685837039398884,-0.3301508128643036,-51.39249038696289,5.310774803161621,17.13324737548828,-1.0483907461166382,-1.4005234241485596,-0.0072769103571772575,,,,,,,,,
1739355377.5620737,0.3258955057775391,1.1618241072928988,0.31101642989220135,-1.2116022634963883,-1.4042455666071845,1.061918525033851,0.11355780819503637,-0.0010701922338088778,0.0007026930966392388,-0.0005700672591356863,0.0002910816516292084,-0.0013686272344693184,-0.0012027508699524187,0.0005278163244039432,-0.2825433909893036,-51.49563980102539,5.362349510192871,17.15705108642578,-1.0419820547103882,-1.3877060413360596,-0.0008682189509272575,,,,,,,,,
1739355377.5731168,0.3258971146308384,1.1618234544424482,0.3110180754606985,-1.2116000918041365,-1.404244046658857,1.0619207980140861,0.11355781695721896,-0.0008503307702488371,0.0019082131741602238,0.0004968837326619298,0.0008898913302928752,-0.0002544887138711514,0.00042965886605436085,0.0023518209093232978,-0.3063471019268036,-51.47183609008789,5.334578514099121,17.15705108642578,-1.0547994375228882,-1.4069321155548096,-0.0008682189509272575,,,,,,,,,
1739355377.5841255,0.32589743994691117,1.16182345444843,0.31101603617096363,-1.2116039396380929,-1.4042451291698925,1.0619207980140861,0.11355384547269494,0.0010549516181938225,0.002110732031046879,-0.00020994917510223495,-0.00029470072615158673,-0.0020217454265495744,0.0006543809722961052,-0.00043113547126786596,-0.3063471019268036,-51.47183609008789,5.362349510192871,17.18085479736328,-1.0483907461166382,-1.4069321155548096,-0.0072769103571772575,,,,,,,,,
1739355377.5951574,0.32589711333600735,1.1618187684002594,0.31101579996019263,-1.2116021579525322,-1.4042451308271586,1.0619207587682293,0.11355619770026527,-0.0003706107703880486,0.00014044026470545144,-0.0014376394651704903,-0.00040150041560698085,-0.001064881931039998,0.00020291710581489298,0.0005524686323059455,-0.3063471019268036,-51.42026138305664,5.362349510192871,17.15705108642578,-1.0483907461166382,-1.4069321155548096,0.012864691205322742,,,,,,,,,
1739355377.606086,0.3258992655148295,1.161815291773064,0.31102026810437805,-1.2116036345118752,-1.4042395412915125,1.061920040353786,0.11355376393661126,0.000591601252625344,-0.0006854420895810335,0.0011129902840031137,-0.0003130040618328473,0.0004939033456161913,-0.00037105079091463987,-0.0013828311544751182,-0.3063471019268036,-51.36868667602539,5.334578514099121,17.18085479736328,-1.0547994375228882,-1.4005234241485596,0.03300629183650017,,,,,,,,,
1739355377.6161094,0.32589924056569025,1.161819028718547,0.31101780245714,-1.2116014691825696,-1.4042439153537596,1.0619207980140861,0.11355142643469622,-0.0001999097622471098,0.001628077294764243,0.0005097482707050001,0.00027228205014876003,0.0010895187860873075,-0.0004709878778573209,-0.0006799316002900381,-0.3063471019268036,-51.42026138305664,5.334578514099121,17.15705108642578,-1.0547994375228882,-1.4069321155548096,0.05314789339900017,,,,,,,,,
1739355377.6281276,0.3258990601065252,1.1618232130460353,0.31101850968027983,-1.211603954121172,-1.4042437027935657,1.0619218445702632,0.11355543952626039,0.0004944968889865281,0.001776188295499996,6.891264032492346e-05,-0.001038103634706715,0.0010212108904554,0.0005126323585985023,0.0003895908034465659,-0.3301508128643036,-51.47183609008789,5.334578514099121,17.20862579345703,-1.0483907461166382,-1.4069321155548096,0.019273381680250168,,,,,,,,,
1739355377.638158,0.32589548246793976,1.1618194259486894,0.31101982411555706,-1.2116032518531086,-1.4042439959963866,1.0619200405752562,0.1135534526644999,-0.001015542263102608,6.278131731011057e-05,0.0008240515096199238,0.00017485693492677118,-0.00014203656300125592,-0.000353050530100071,-0.0006741493080972207,-0.2825433909893036,-51.42026138305664,5.310774803161621,17.18085479736328,-1.0547994375228882,-1.4005234241485596,0.026597600430250168,,,,,,,,,
1739355377.6491,0.3258971134426314,1.1618212029339414,0.31101249803446185,-1.2116003752716304,-1.4042383239751404,1.061918525033852,0.11355143534007442,-0.00017518226608902589,0.0007468830373521623,-0.00040028693790950583,-0.00028014418778370663,0.002321201083756417,-0.00024334997913482966,-0.000576055190711974,-0.3063471019268036,-51.44406509399414,5.409956932067871,17.13324737548828,-1.0685323476791382,-1.3877060413360596,0.05314789339900017,,,,,,,,,
1739355377.6591291,0.32589711430622714,1.1618196635285456,0.3110158116289501,-1.2116021579525378,-1.4042427490377465,1.0619196359066392,0.1135569379167868,0.00017215506137602447,0.0014107395387303614,0.0001260409459288731,-0.0008339312418649312,-0.00013090007966313458,6.796121809876817e-05,0.0010535998458415788,-0.3063471019268036,-51.42026138305664,5.362349510192871,17.15705108642578,-1.0685323476791382,-1.3941147327423096,0.0064559997990727425,,,,,,,,,
1739355377.6691422,0.3258983144064653,1.1618215348889116,0.31101595754195244,-1.2116021579525378,-1.404245428111081,1.061920797858562,0.11355294045169217,0.00042130374071291216,0.0011812300063162948,-0.0002637767158564258,0.00010948721873752475,0.0005410839459850202,0.00029337279230475015,-0.0004319145710972701,-0.2825433909893036,-51.44406509399414,5.362349510192871,17.15705108642578,-1.0419820547103882,-1.4069321155548096,0.03941498324275017,,,,,,,,,
1739355377.6800897,0.32589882619536265,1.1618224654532852,0.3110178010486067,-1.2115985925984998,-1.404246686371729,1.0619192826939285,0.11355840813523387,-0.00019962129883780908,0.0002551331096431887,0.000498307257644986,0.0009989792874989844,-8.286067431171403e-05,-0.0004258942036077232,9.078035475765222e-05,-0.3301508128643036,-51.47183609008789,5.334578514099121,17.10944366455078,-1.0355733633041382,-1.3941147327423096,-0.0072769103571772575,,,,,,,,,
1739355377.6910927,0.3259006258611872,1.161818684004919,0.3110170219241945,-1.211603940629557,-1.4042429518132087,1.0619192826939294,0.11355077336775035,0.0018809359331909245,-0.001536965880758868,-0.00015149754913907991,-0.0006623666494730071,-0.0008609214579704994,-0.00015803492399970697,-0.0024049522651017913,-0.3539545238018036,-51.42026138305664,5.386153221130371,17.18085479736328,-1.0547994375228882,-1.3941147327423096,0.04673920199275017,,,,,,,,,
1739355377.7011259,0.32589711333465743,1.1618197439808624,0.3110139516666337,-1.2116046558503015,-1.404240246667343,1.0619207980140861,0.11355301735646656,-0.00032648668266974275,0.0013696348775912067,-0.0008416879813393031,-0.001297332285973664,-0.0003916281595030378,0.0002071835717075243,-0.0014512930638661136,-0.3063471019268036,-51.42026138305664,5.386153221130371,17.18085479736328,-1.0621236562728882,-1.4069321155548096,0.03941498324275017,,,,,,,,,
1739355377.7121067,0.32589712265471804,1.1618234455817735,0.3110188537541948,-1.2116039405986014,-1.4042435470567525,1.0619185381158032,0.11355543941773283,-0.0009622191927106929,0.0023464014588278678,0.0014471215043230234,0.00015855156859653942,0.0015696909742206396,0.000563460356335526,0.001605356187924515,-0.3063471019268036,-51.47183609008789,5.334578514099121,17.18085479736328,-1.0483907461166382,-1.3877060413360596,0.019273381680250168,,,,,,,,,
1739355377.7221217,0.3259012470087828,1.1618173480271479,0.31101958759436465,-1.2116021575326228,-1.4042444095431725,1.0619207980143077,0.11355695544114014,0.00037440268388604656,-0.0008811961619003153,0.0018321467561491403,-9.425885049998907e-05,-0.0019007054134420017,0.0006422828582418478,0.0013549925351856184,-0.3539545238018036,-51.42026138305664,5.310774803161621,17.15705108642578,-1.0547994375228882,-1.4069321155548096,0.0064559997990727425,,,,,,,,,
1739355377.7330983,0.325897428610184,1.1618148516505404,0.31101783924572035,-1.2116039406295545,-1.4042440468816035,1.0619206802765162,0.11355077331655639,0.00044113207828606633,-0.001875208213887947,2.2944366828803555e-05,-0.0007444384293021193,-1.3915750747260967e-05,0.0005818538832583953,-0.0021587579151527013,-0.3063471019268036,-51.39249038696289,5.334578514099121,17.18085479736328,-1.0547994375228882,-1.4069321155548096,0.04673920199275017,,,,,,,,,
1739355377.74323,0.325897526728447,1.1618155998046817,0.31101850081589416,-1.2115985840952308,-1.404244677189094,1.0619200403480258,0.11355290111230228,-0.0006917761569351435,-9.049557641118008e-05,0.0005079375876999207,0.0016828382291383327,-0.0007033258519202493,0.00022405288126055235,0.0002056705509897081,-0.2825433909893036,-51.39249038696289,5.334578514099121,17.10944366455078,-1.0419820547103882,-1.4005234241485596,0.03941498324275017,,,,,,,,,
1739355377.7540674,0.32589711334616445,1.161822171751199,0.31101783615345213,-1.2116014682428982,-1.4042406507241005,1.0619200403540077,0.11355346169450964,-0.0004136021678451575,0.0012558910729984535,1.791412908275919e-05,0.0006765447411540788,0.0018167074451859487,-5.193921813350836e-05,-0.0005482146526812717,-0.3063471019268036,-51.44406509399414,5.334578514099121,17.15705108642578,-1.0483907461166382,-1.4005234241485596,0.03300629183650017,,,,,,,,,
1739355377.764127,0.325900616893584,1.1618205138476425,0.3110140300264033,-1.2116021841246618,-1.4042414048341378,1.0619192826939294,0.11355193887155025,0.00010998047504041139,0.0014810869325574297,-0.0005077003504959816,0.0008876701486988309,0.0012069068262399447,-0.0003768298610437514,0.00048148527699208056,-0.3539545238018036,-51.47183609008789,5.386153221130371,17.15705108642578,-1.0419820547103882,-1.3941147327423096,0.012864691205322742,,,,,,,,,
1739355377.7751327,0.3258988560252538,1.1618165385649049,0.31101576053642777,-1.2116021579526857,-1.4042410875429414,1.0619200403540077,0.11355384155437463,0.0005453679366194904,-0.0008965861814166718,-0.0005955226745730064,-0.00015000975642662332,0.0010471696701705574,-0.0002761069143067634,0.0002812382662113525,-0.3301508128643036,-51.42026138305664,5.362349510192871,17.15705108642578,-1.0419820547103882,-1.4005234241485596,-0.0072769103571772575,,,,,,,,,
1739355377.786053,0.3258954009216095,1.1618189810570747,0.31102170969551524,-1.2116021494492688,-1.4042414145202655,1.0619200403540077,0.11355777993466815,-0.0003218259659054693,-0.00038317301646953716,0.000783897831846648,-0.0002544593853251398,-0.0006905908095116652,0.00023240312150534583,0.000333726087823616,-0.2825433909893036,-51.44406509399414,5.310774803161621,17.15705108642578,-1.0483907461166382,-1.4005234241485596,-0.0008682189509272575,,,,,,,,,
1739355377.796089,0.32589342911824776,1.16181720908282,0.31101575041927076,-1.2115983004777537,-1.4042435976679946,1.0619193263004367,0.11355513122803777,-0.001497127236146896,-0.0012631669504086058,-0.000462539579998708,-3.3337814778728356e-05,0.00014115635875977149,-1.942824865869302e-05,0.00012229863422573152,-0.2547723948955536,-51.44406509399414,5.362349510192871,17.13324737548828,-1.0483907461166382,-1.3941147327423096,0.012864691205322742,,,,,,,,,
1739355377.8071146,0.3259005383757741,1.1618212087986384,0.3110164386031342,-1.2116014691760415,-1.404242508748162,1.0619200403542537,0.11354748386475738,0.0008803989004034537,0.0003213547813812912,0.00011007209346424211,-0.0003849377234092156,0.0004196163421857952,0.0005986550976533865,0.00012065624640262076,-0.3539545238018036,-51.44406509399414,5.362349510192871,17.15705108642578,-1.0419820547103882,-1.4005234241485596,0.05955658480525017,,,,,,,,,
1739355377.8180833,0.32589553006765865,1.161822782781972,0.31101618109484963,-1.2116021579486496,-1.4042402846208668,1.0619232192683956,0.11355412047399642,-0.0017057238129845784,0.00170971152586685,0.0005267054469850742,0.00024333883355612094,-0.0004797635359128968,0.0005130827022550068,0.0011127872932146128,-0.2547723948955536,-51.49563980102539,5.386153221130371,17.15705108642578,-1.0621236562728882,-1.4005234241485596,0.03941498324275017,,,,,,,,,
1739355377.8281715,0.325898860993148,1.1618194691164567,0.3110166665354187,-1.2116001456872574,-1.4042399223763447,1.06191928290927,0.11355239710819509,0.0013551941888834706,0.00021439633521633218,4.057350507174543e-05,0.00045579713491045214,0.0009198476287073581,-0.0005626316005606129,-0.0003903352757908318,-0.3301508128643036,-51.42026138305664,5.362349510192871,17.13324737548828,-1.0621236562728882,-1.3941147327423096,0.03300629183650017,,,,,,,,,
1739355377.8401265,0.32590166071110965,1.161819505566715,0.31101579996375106,-1.211602132441435,-1.4042450100707409,1.0619192826939305,0.11355658158001591,9.99026186508066e-05,-0.0019326535058993399,-0.00025063363667042,-0.00036752432819293327,-0.0005810973775208561,-0.0004698148495107557,0.0008681277243229904,-0.3301508128643036,-51.42026138305664,5.362349510192871,17.15705108642578,-1.0483907461166382,-1.3941147327423096,0.0064559997990727425,,,,,,,,,
1739355377.851121,0.32590053841696254,1.1618209894932485,0.3110160390857477,-1.211600349765664,-1.4042462287057058,1.0619188117436498,0.11355269743766103,0.0012901910141039227,0.0007325782787158883,-0.0009312022156339826,0.0006699142936250286,-0.0021289741106605077,-0.0009979894687918687,-0.0011448333925599638,-0.3539545238018036,-51.47183609008789,5.362349510192871,17.13324737548828,-1.0483907461166382,-1.3941147327423096,0.03300629183650017,,,,,,,,,
1739355377.8621073,0.32589882725898417,1.1618232061681335,0.31101475259388306,-1.2116014691876098,-1.4042448225606345,1.061919282691271,0.11355269088573067,0.0009284303526303604,0.0019414579878212603,-0.00033749214079439177,-4.2009712054162375e-05,-0.00026001811915081263,-0.00044324384214502696,-0.0010713453736894078,-0.3301508128643036,-51.47183609008789,5.386153221130371,17.15705108642578,-1.0419820547103882,-1.3941147327423096,0.03941498324275017,,,,,,,,,
1739355377.873109,0.3259009206448962,1.1618234161823182,0.3110157216940399,-1.2116000916542975,-1.4042408260351937,1.0619200447146582,0.11355457276143183,0.0003164146587848468,0.0010369229099260943,-0.0007717285763418965,0.00030296436697841084,0.00019366564789111428,0.0002994843675834415,2.8275315843972744e-05,-0.3301508128643036,-51.47183609008789,5.362349510192871,17.15705108642578,-1.0483907461166382,-1.4005234241485596,0.026597600430250168,,,,,,,,,
1739355377.8831286,0.32589610958991366,1.1618173248061847,0.31101459768644296,-1.211597903693744,-1.4042409789610435,1.0619200403540814,0.11354961308111947,-0.0013415175627704418,-0.0008163816947341387,-0.0005123708331520824,0.0014177975723078343,0.0006683445964095541,0.0002307307298597332,-0.0015749560568253601,-0.2825433909893036,-51.42026138305664,5.409956932067871,17.10944366455078,-1.0547994375228882,-1.4005234241485596,0.05955658480525017,,,,,,,,,
1739355377.8940945,0.32589994787016063,1.1618168564229483,0.311015732935942,-1.2116039406256682,-1.4042427321412863,1.0619207980140861,0.1135593366525314,-9.766972667945743e-05,-4.935958297800296e-05,-0.00018686637889051125,-0.00014669790891391635,-0.00126891150997808,-6.128075192778971e-06,0.0020141796513404864,-0.3063471019268036,-51.42026138305664,5.362349510192871,17.18085479736328,-1.0685323476791382,-1.4069321155548096,-0.013685601763427258,,,,,,,,,
1739355377.9041283,0.3258984842412336,1.1618194669276065,0.31101574746727984,-1.211603940629557,-1.404243386588098,1.0619193001365324,0.1135561977810736,0.0005851335806370227,0.0003777099622070798,8.339971689118322e-05,-0.0006619824388377704,-0.0006401513787890128,-0.00020399972257882434,0.001094357456181943,-0.2825433909893036,-51.42026138305664,5.362349510192871,17.18085479736328,-1.0621236562728882,-1.3941147327423096,0.012864691205322742,,,,,,,,,
1739355377.9150994,0.32589885211796743,1.1618192978748816,0.3110205285324363,-1.211602157637602,-1.4042451301643137,1.0619200404079412,0.11355305252138587,0.0011771227659216241,6.0776262557643394e-05,0.001102537481352459,0.000371709925970082,-0.0017586787890574507,-0.00010187431096678792,-0.00042262937985382775,-0.3301508128643036,-51.44406509399414,5.310774803161621,17.15705108642578,-1.0483907461166382,-1.4005234241485596,0.03941498324275017,,,,,,,,,
1739355377.926137,0.32589713957997846,1.1618190286099068,0.31101785014993755,-1.211603251864771,-1.4042395268143202,1.0619200403540079,0.11355171541340998,-0.0010120549695757462,0.0004150556944383164,-4.636612339297075e-05,-0.0005870936131091541,0.0007588059814537248,0.00011824423458485832,-0.000611881671616957,-0.3063471019268036,-51.42026138305664,5.362349510192871,17.18085479736328,-1.0685323476791382,-1.4005234241485596,0.04673920199275017,,,,,,,,,
1739355377.9371145,0.3258982366419551,1.1618234250019228,0.31101811599532353,-1.2116000916465215,-1.4042402870680613,1.0619192826939294,0.11355274740716964,0.0005279491387024625,0.001698080152077454,-0.0003584097282507138,-0.0008315569276193019,0.0004510789900383851,7.378377544203988e-05,-0.0002672663467661225,-0.2825433909893036,-51.47183609008789,5.334578514099121,17.15705108642578,-1.0621236562728882,-1.3941147327423096,0.03300629183650017,,,,,,,,,
1739355377.9480588,0.32589906207123054,1.1618175967539155,0.3110201982600911,-1.21160143517079,-1.4042438762923963,1.0619192826939294,0.11355770234376973,0.0011555701725303425,-0.0005622134052278238,0.0011451493901625707,0.0005439631301760381,2.531732981376621e-05,-0.000844660845463584,0.0012213400639937157,-0.3301508128643036,-51.42026138305664,5.334578514099121,17.15705108642578,-1.0547994375228882,-1.3941147327423096,-0.0008682189509272575,,,,,,,,,
1739355377.9581304,0.3258988258588951,1.161821215000179,0.3110177595974225,-1.2116041762014726,-1.4042458065344825,1.0619207980140861,0.11355183813607445,-0.00013799208944748444,0.00046534875630897864,0.0007584706925141254,-0.0010967479366200221,-0.0011713447366353282,0.00022973834642660783,-0.000622989592634929,-0.3301508128643036,-51.44406509399414,5.334578514099121,17.18085479736328,-1.0419820547103882,-1.4069321155548096,0.04673920199275017,,,,,,,,,
1739355377.9691358,0.3258971103907244,1.1618212288772198,0.3110188245915676,-1.2116003752795081,-1.404244046879556,1.0619207980140861,0.11355690091489515,-0.0006871267813142498,0.0005177764830497138,0.00013844178188489564,0.0008487829697208654,-0.00069558122110465,5.738296917653834e-05,0.0018938171506643231,-0.3063471019268036,-51.47183609008789,5.334578514099121,17.13324737548828,-1.0547994375228882,-1.4069321155548096,0.0064559997990727425,,,,,,,,,
1739355377.9791605,0.3259036998443662,1.1618185679636261,0.311020423376132,-1.2116019170265846,-1.4042450308372196,1.0619192826939294,0.11355781987771288,0.0017515979660189178,-7.685583766304995e-05,0.0006117669357021127,1.3593529268348607e-05,-0.0004712577568182833,-0.0003717680717095312,-0.00012723192075550353,-0.3539545238018036,-51.44406509399414,5.334578514099121,17.15705108642578,-1.0483907461166382,-1.3941147327423096,-0.0008682189509272575,,,,,,,,,
1739355377.9901285,0.32590097834142556,1.161816801076672,0.31101784713521513,-1.2116021579511778,-1.4042410343252714,1.0619192826939294,0.11355857878210435,0.0007692291352985925,-0.0006468746021047458,-0.0005448547228061218,-0.00044807837807541096,0.0005379350940583435,-0.0004850547858907869,0.000938737894992715,-0.3301508128643036,-51.39249038696289,5.362349510192871,17.15705108642578,-1.0547994375228882,-1.3941147327423096,-0.0072769103571772575,,,,,,,,,
1739355378.0011413,0.32589549222368724,1.1618177195390365,0.3110157213654242,-1.2116060165352032,-1.4042451709971733,1.0619192826939294,0.11355456789562643,-0.0013137557148710452,0.0003248297823179235,-0.0007113496917577698,-0.0018393419069649805,-0.0014782977573386644,9.802357914985552e-05,0.0008604027045365846,-0.2825433909893036,-51.39249038696289,5.362349510192871,17.20862579345703,-1.0483907461166382,-1.3941147327423096,0.026597600430250168,,,,,,,,,
1739355378.0120885,0.3258995378362784,1.1618177367674474,0.31102004204557887,-1.211606020419405,-1.404242098070617,1.0619200403540077,0.11355640184676592,0.0006421703271809716,-0.0004998590153387396,1.061040272711406e-05,-0.0016252201560380676,0.0005947956026687636,0.00019185625995785915,0.0014494530970372156,-0.3301508128643036,-51.39249038696289,5.334578514099121,17.20862579345703,-1.0621236562728882,-1.4005234241485596,-0.0008682189509272575,,,,,,,,,
1739355378.022113,0.3258971137782485,1.1618251659878578,0.3110178010492225,-1.211603023257658,-1.4042433265785181,1.0619192826939294,0.11354986360376419,-4.8829513845356946e-05,0.0025979264516924347,-0.0012952316337027903,0.0005363986322430761,0.0010836870072306786,4.29119053456805e-05,-0.002106414727535481,-0.3063471019268036,-51.49563980102539,5.334578514099121,17.18085479736328,-1.0547994375228882,-1.3941147327423096,0.03941498324275017,,,,,,,,,
1739355378.0321295,0.32589882628692973,1.16181878104613,0.3110121562994048,-1.2115983085457163,-1.4042433123479419,1.0619207980140861,0.11355675667908868,0.0003463127321353181,-0.000770985593774628,-0.001809714883935987,0.0009668067822520847,0.00023322381903822422,0.00043178223255999776,0.0014003275619835494,-0.3301508128643036,-51.42026138305664,5.409956932067871,17.13324737548828,-1.0547994375228882,-1.4069321155548096,-0.0008682189509272575,728,758,748,40.414,0,0
1739355378.04305,0.3258961483289029,1.1618206617735443,0.31101643017843683,-1.2116021210933725,-1.4042436002085448,1.0619185762685097,0.11355689611607904,-7.751025100753532e-05,0.0007873174114261183,3.238422464763816e-05,-0.0001276854146937815,0.0009705102249455715,-0.0006255543376132484,0.000276595186954495,-0.2825433909893036,-51.44406509399414,5.362349510192871,17.15705108642578,-1.0483907461166382,-1.3941147327423096,-0.020094294100999832,728,760,748,40.414,0,0
1739355378.0533705,0.32589886086177616,1.1618167567098978,0.311016773088398,-1.2116003752748945,-1.4042409801668267,1.0619207980021228,0.11355021509033121,0.0006959717141764227,-0.001210241729079782,-0.0004947255068423834,0.0005772653343269008,0.001802160393744945,0.0005626384954091647,-0.0017212804130203384,-0.3301508128643036,-51.39249038696289,5.386153221130371,17.13324737548828,-1.0547994375228882,-1.4069321155548096,0.03300629183650017,729,758,747,40.522,0,0
1739355378.0641854,0.3258988272591815,1.161819743545196,0.3110157223534868,-1.2116037110412956,-1.4042458864263931,1.06191580180149,0.11355852180759542,0.0015936954726651297,0.0005554233124021088,-0.00019790266642069122,3.944510321107834e-05,-0.0013752580643567518,-0.0013969784306137045,0.0015655888841683368,-0.3301508128643036,-51.42026138305664,5.362349510192871,17.18085479736328,-1.0419820547103882,-1.4005234241485596,-0.0072769103571772575,728,756,749,40.414,0,0
1739355378.075134,0.32590019671396964,1.1618213083541669,0.3110157300779836,-1.2116003752742226,-1.4042427898367702,1.0619207979901593,0.11355214027080304,0.00022828035084243646,0.001326208554743834,0.0004165788340424736,0.0002533873423551862,-0.000419307745718151,0.0001106272937085183,-0.0008827161525687588,-0.3063471019268036,-51.47183609008789,5.362349510192871,17.13324737548828,-1.0685323476791382,-1.4069321155548096,0.04673920199275017,727,759,748,40.522,0,0
1739355378.0861182,0.3258995621910576,1.1618152823752275,0.31101961004201295,-1.2116039150147715,-1.4042444112422579,1.0619200401925017,0.11355304570605727,0.002092856847374815,-0.0005032197921458804,0.0017508689744020946,-0.001201749793752929,-0.0014729221194475037,-0.00072158164565599,0.00028472356500122416,-0.3301508128643036,-51.39249038696289,5.310774803161621,17.18085479736328,-1.0547994375228882,-1.4005234241485596,0.03941498324275017,729,760,747,40.522,1,0
1739355378.0970507,0.32589883460760694,1.1618203510684086,0.3110159574325633,-1.2116003752403812,-1.4042440513512802,1.0619200403540068,0.11354986443904211,-1.745216672453928e-05,0.0003994360408342603,-0.0008332005169118733,-0.00057223352156779,-0.0005785102033754332,-7.096862559316497e-05,-0.0018428607122449895,-0.3301508128643036,-51.47183609008789,5.362349510192871,17.13324737548828,-1.0547994375228882,-1.4005234241485596,0.03941498324275017,727,758,748,40.522,0,0
1739355378.1071131,0.32589711333460825,1.1618155971776738,0.3110181159712707,-1.2115993548832442,-1.4042451576270034,1.0619207980140861,0.11355568503109735,-0.0011497679614210564,-0.0020424766657140005,0.00020493449603467139,0.0014614909198924207,-0.0007330314187894736,7.11517198280856e-05,-0.0017165765213669852,-0.3063471019268036,-51.39249038696289,5.334578514099121,17.13324737548828,-1.0483907461166382,-1.4069321155548096,0.012864691205322742,727,759,748,40.522,0,0
1739355378.1181653,0.3258983142264374,1.1618227390432943,0.3110178472650136,-1.211600375133627,-1.4042429652037907,1.0619193350217382,0.11355670415914108,-0.00015515685536705772,0.00039868468703565206,-0.0007081080352290948,0.00022447806156748696,0.0006611004755802275,-7.650811804024244e-05,0.0009320560187402003,-0.2825433909893036,-51.47183609008789,5.362349510192871,17.13324737548828,-1.0547994375228882,-1.3941147327423096,-0.0008682189509272575,726,759,748,40.414,0,0
1739355378.1292138,0.3258971398472831,1.1618160214204174,0.31101782838500946,-1.2116039148048134,-1.4042438705699183,1.0619192826942248,0.11355681913422767,0.0002452516248570457,-0.0011699026335471431,0.00018387403804580386,-0.0001918357473049721,0.0006897953717451066,-0.0004608816852421431,-0.000697239762632453,-0.3063471019268036,-51.36868667602539,5.334578514099121,17.18085479736328,-1.0547994375228882,-1.3941147327423096,0.0064559997990727425,727,760,748,40.414,0,0
1739355378.140092,0.3259014871440235,1.1618196252680613,0.3110189100160614,-1.211602128558376,-1.4042429592044083,1.0619208372599427,0.113549746311145,0.0018872170472507865,0.0001588473156318002,-0.0004346787468938355,0.0006302894881993594,0.0007187402548012914,0.0007660258633859164,-0.0034596805863666823,-0.3539545238018036,-51.42026138305664,5.362349510192871,17.15705108642578,-1.0547994375228882,-1.4069321155548096,0.03941498324275017,727,760,748,40.522,1,0
1739355378.151126,0.3258988346448084,1.1618207146512,0.3110181201895383,-1.2116000916580199,-1.4042408220601919,1.0619200403542293,0.11355143527361843,-0.0002224734084074546,0.00015641140006958569,0.001597060758085401,-1.8445389706840356e-05,0.0004841449216013998,7.526453903521072e-05,-0.0014770792039683475,-0.3301508128643036,-51.44406509399414,5.334578514099121,17.15705108642578,-1.0483907461166382,-1.4005234241485596,0.05314789339900017,730,760,747,40.414,0,0
1739355378.1611242,0.3258971134423193,1.1618213044170205,0.3110206385728637,-1.2116057130069942,-1.40424138500725,1.0619192826939294,0.11355781695729192,-0.0008744418192535447,0.0014309397026099984,0.0008663606792049471,-0.0010199539263299785,0.0003290645797551012,-0.0005429934918191867,0.0008806451019667071,-0.3063471019268036,-51.47183609008789,5.334578514099121,17.20862579345703,-1.0483907461166382,-1.3941147327423096,-0.0008682189509272575,727,760,747,40.522,1,0
1739355378.1730387,0.3258973524973513,1.1618212092465434,0.31101803770631786,-1.2116018253435132,-1.4042459272032153,1.0619201973374341,0.11355538453383827,-0.00011841631357223934,-0.0003844095852088982,0.0006964724561429241,-0.00014390560079828682,-0.0006135111986153845,0.0005342560452355595,-0.00045868690013467744,-0.3063471019268036,-51.44406509399414,5.334578514099121,17.15705108642578,-1.0419820547103882,-1.4005234241485596,-0.0072769103571772575,727,760,749,40.414,0,0
1739355378.1830802,0.325897114631596,1.1618232160284552,0.3110178019846683,-1.211606020417535,-1.4042415456578177,1.0619192826948154,0.11355588643684485,-0.000586396615123962,0.0014623849518678098,-0.0003361418845832206,-0.0020242774855973316,0.00011079599175260269,0.000789880248278643,0.0006406270590030025,-0.3063471019268036,-51.47183609008789,5.334578514099121,17.20862579345703,-1.0483907461166382,-1.3941147327423096,0.0064559997990727425,727,760,748,40.414,1,0
1739355378.1931078,0.32589893958613875,1.161821095348472,0.3110178474444489,-1.2116016447469433,-1.404246686147615,1.0619207980140861,0.11355432292472326,0.00016478435889699943,0.0014501233554996538,-0.0007926467538710736,-0.0006129417710381722,-0.0011827181752382516,-0.0001094355524307097,-0.0006233444493184248,-0.3301508128643036,-51.42026138305664,5.362349510192871,17.18085479736328,-1.0355733633041382,-1.4069321155548096,0.019273381680250168,725,759,746,40.305,0,0
1739355378.2031412,0.32589847155835405,1.1618170299410109,0.31101651294769583,-1.2116002645891628,-1.4042418540648458,1.0619192826939294,0.11355252613893971,6.042864190678127e-05,-0.0006440096125853439,-0.0009557835406223534,-0.0002529423007214184,1.712147232810359e-05,0.00045372547070727826,-0.0007664403621175489,-0.2825433909893036,-51.39249038696289,5.362349510192871,17.13324737548828,-1.0483907461166382,-1.3941147327423096,0.0064559997990727425,726,758,748,40.414,0,0
1739355378.214059,0.3258971399571875,1.1618233749715279,0.3110216761194168,-1.211602157636977,-1.4042415657489429,1.0619192826939294,0.1135535613781973,-0.0007735897974420173,0.0014816381268701493,0.000501757653534457,0.0003307124187019668,-0.00019966851672193793,-0.0008404007315424432,0.00020163384354594485,-0.3063471019268036,-51.47183609008789,5.283003807067871,17.15705108642578,-1.0419820547103882,-1.3941147327423096,-0.0008682189509272575,726,760,748,40.631,2,0
1739355378.224211,0.3259020026610764,1.1618188211469578,0.3110158002826494,-1.2116003494507708,-1.4042392421527263,1.0619224215713967,0.11355096065603995,0.0012903035150391448,0.0014091756508709456,-0.0017210267349946518,0.00014347588515634813,0.000580271980918529,0.0001999094812250067,-0.001327595428681375,-0.3301508128643036,-51.44406509399414,5.362349510192871,17.13324737548828,-1.0621236562728882,-1.4206650257110596,0.05314789339900017,726,760,749,40.414,1,0
1739355378.2360437,0.32589711378412417,1.1618187863730671,0.3110156681386772,-1.2116012392494178,-1.4042401549955255,1.0619232193222308,0.1135531414420795,-0.000640124399617705,-0.0012762032663806823,-2.4202998666383527e-05,-0.0002793371753499152,0.0023964881777114658,0.0005831796380041042,-0.0002910068184900456,-0.3063471019268036,-51.42026138305664,5.362349510192871,17.15705108642578,-1.0621236562728882,-1.4005234241485596,0.026597600430250168,725,759,749,40.522,0,0
1739355378.2470765,0.32589958965541366,1.1618183541086946,0.3110206384593517,-1.2116012395627709,-1.404244083429043,1.061920342984063,0.11355745267496963,0.0009324640978560523,-0.0015035290860744741,6.195182738462758e-05,-0.00038630125530961473,-0.0007048007505361978,0.0006198813836724963,0.0011345788401885292,-0.3063471019268036,-51.44406509399414,5.334578514099121,17.15705108642578,-1.0483907461166382,-1.3941147327423096,-0.0008682189509272575,725,759,749,40.522,1,0
1739355378.25716,0.3258973509911891,1.1618190286785692,0.3110159666610499,-1.2116039401940895,-1.404243885955194,1.0619200403719637,0.11355455961399209,-0.00101225834341208,-0.0010235226760443783,0.0002563316778505847,-0.0006101716448664597,0.0015022660620039863,-0.0002560041348272256,-0.0022268322767600096,-0.3063471019268036,-51.42026138305664,5.362349510192871,17.18085479736328,-1.0547994375228882,-1.4005234241485596,0.026597600430250168,725,760,749,40.414,0,0
1739355378.2681134,0.32590026587569504,1.1618229818066999,0.3110159924280222,-1.2116039395447753,-1.4042442882406663,1.061918525033851,0.11355311164025378,0.0006871473401858409,0.0015140792998529623,-0.0003624575938616725,-0.0003047833997114364,0.00038389677384293526,-0.0004353617569461883,-0.0005754121972147069,-0.3063471019268036,-51.49563980102539,5.362349510192871,17.18085479736328,-1.0547994375228882,-1.3877060413360596,0.03941498324275017,724,762,749,40.522,1,0
1739355378.2781165,0.325900299265859,1.1618212136913413,0.3110157601084768,-1.2116014660383765,-1.4042431854519402,1.0619200403540077,0.11355213994749372,-0.0002116255510758483,0.0007939399529406034,-0.0004511804879796133,-0.0002839475333812022,0.0003205238228722254,-0.00044172640598246643,-6.118745949627467e-05,-0.3063471019268036,-51.44406509399414,5.362349510192871,17.15705108642578,-1.0621236562728882,-1.4005234241485596,0.04673920199275017,725,762,748,40.522,0,0
1739355378.289077,0.3258991011103573,1.1618196641855667,0.3110206485043089,-1.2116060203105279,-1.4042435469984138,1.0619192826939294,0.11355305890341687,0.0008387932761369253,0.00010789083433673497,0.0011426958738971877,-0.0011339142746887901,-0.001665388615619854,3.8382308243959735e-05,-0.00048292795820127556,-0.3301508128643036,-51.42026138305664,5.334578514099121,17.20862579345703,-1.0621236562728882,-1.3941147327423096,0.03941498324275017,723,762,749,40.414,1,0
1739355378.2990856,0.32589659123970544,1.1618202755326907,0.311015721593658,-1.2116036845866793,-1.4042434263194399,1.0619207980140861,0.11356007679436442,-0.0010674411711115268,-0.0008077763317974288,-0.00026230151746967295,-0.0006020042208481556,-0.0011063037746178428,-0.00017824258824243307,0.0019782241440991543,-0.2547723948955536,-51.47183609008789,5.362349510192871,17.18085479736328,-1.0621236562728882,-1.4069321155548096,-0.020094294100999832,725,760,748,40.414,1,0
1739355378.31012,0.3258984804669911,1.1618175939137156,0.31101393901242763,-1.2116000066240509,-1.4042444067719069,1.0619192885081303,0.11355315475019671,0.0004518398540348205,-0.0009397759152268274,-0.002438902753733253,0.0004965604477185986,0.0002901970058748969,-0.00042027638679956,-0.0006084207496295013,-0.2825433909893036,-51.42026138305664,5.386153221130371,17.15705108642578,-1.0547994375228882,-1.3941147327423096,0.026597600430250168,724,762,747,40.414,1,0
1739355378.3221533,0.3258981749509611,1.161816874085103,0.31102027102012136,-1.2115985912216334,-1.4042398063857655,1.0619192826939623,0.11355588639277718,-0.0004088636899117272,1.7864843418384975e-05,0.0006360590247922705,0.0007095255831214656,0.001753770549912524,-0.00023998732166469292,-0.0009009064823739865,-0.3063471019268036,-51.42026138305664,5.334578514099121,17.10944366455078,-1.0621236562728882,-1.3941147327423096,0.0064559997990727425,724,761,748,40.414,1,0
1739355378.3331208,0.3258993539504427,1.1618175982021208,0.31101879633733565,-1.2116003724294289,-1.4042424596319583,1.0619177673737727,0.11354899846775589,-0.00013180902039596393,-0.0007157467785511232,0.00018328190124202955,0.0008023079973707893,5.247129934272141e-05,-0.0011066764524573607,-0.0024041784731181686,-0.3063471019268036,-51.42026138305664,5.362349510192871,17.13324737548828,-1.0621236562728882,-1.3812973499298096,0.04673920199275017,724,762,748,40.522,1,0
1739355378.3431427,0.3258979387605217,1.161819504441765,0.3110159967989884,-1.2116018403220807,-1.404244234092587,1.0619203423320587,0.1135593364421787,3.2496754406209915e-05,0.0006819854910109681,-0.0005807649676613871,0.0007222460210953295,0.0013881840246503406,0.0002257365308842623,0.0018904748126924826,-0.3063471019268036,-51.42026138305664,5.362349510192871,17.18085479736328,-1.0547994375228882,-1.3941147327423096,-0.013685601763427258,724,762,751,40.414,1,0
1739355378.3540752,0.3259000658236278,1.16181974103935,0.3110140182581243,-1.2116036322031152,-1.4042466858748888,1.0619192870725251,0.11355050633697547,0.0006793002941711717,0.00047241845902994074,-0.0012138460163995729,0.00016398404707621903,-0.0008627915813578979,-0.00024210969390581932,-0.0015143455024723817,-0.3063471019268036,-51.42026138305664,5.386153221130371,17.18085479736328,-1.0355733633041382,-1.3941147327423096,0.05955658480525017,723,762,749,40.522,1,0
1739355378.3641229,0.32590021177958417,1.161821986964594,0.3110157212218648,-1.2115973027592677,-1.4042440493647708,1.0619207980141108,0.11355846070803073,0.0013435263078495482,-0.00028096703132082616,-0.0002266293239198125,0.001721502141856704,-0.0001865275326780034,0.00038783385112634125,0.0016880652551769315,-0.3063471019268036,-51.49563980102539,5.362349510192871,17.13324737548828,-1.0547994375228882,-1.4069321155548096,-0.0072769103571772575,725,761,749,40.414,1,0
1739355378.3750684,0.3258992396826788,1.1618146161709744,0.3110178098678328,-1.2116009263608416,-1.4042444450433216,1.0619192826939294,0.11355381656312696,-0.00021329185066735194,-0.0025874789951773128,0.0004652162860559247,-0.00020159407706050124,-0.0010658440347070899,0.0007430027680587856,0.0004256161581086417,-0.3063471019268036,-51.39249038696289,5.334578514099121,17.18085479736328,-1.0547994375228882,-1.3941147327423096,0.03300629183650017,725,762,749,40.414,1,0
1739355378.3860452,0.3258971264149968,1.161817270172014,0.3110143081560995,-1.211595501800693,-1.40424441140798,1.0619192826939294,0.11355933665854112,-0.000525331629731503,-0.001275801466014582,-0.001243801202932281,0.0018648892214875577,-0.0004275194524159825,-0.0003961304307930682,0.0021061193505637244,-0.3063471019268036,-51.42026138305664,5.409956932067871,17.10944366455078,-1.0547994375228882,-1.3941147327423096,-0.013685601763427258,725,761,749,40.522,1,0
1739355378.3961124,0.32590030202131337,1.1618234500711129,0.311017801120618,-1.2116000789037213,-1.4042429249951058,1.0619200403540077,0.11355683666489934,0.0006719539875530357,0.0025077310489137602,0.00041873925255979036,0.0005005323566357528,5.864832653334405e-05,8.330495186796729e-05,0.0006508271409245435,-0.3063471019268036,-51.47183609008789,5.334578514099121,17.15705108642578,-1.0547994375228882,-1.4005234241485596,0.0064559997990727425,725,763,749,40.414,0,0
1739355378.4071465,0.32589816447491127,1.1618207368911644,0.3110156948384691,-1.211602910357557,-1.4042430647094675,1.0619192846319965,0.11355776422126455,-0.0003563799199107077,0.0018785113353738435,0.00021581823168090525,-0.00015561017084119962,-0.0004310141524936212,-0.0005240763910173816,-9.119061351414926e-05,-0.3063471019268036,-51.44406509399414,5.362349510192871,17.18085479736328,-1.0621236562728882,-1.3941147327423096,-0.0008682189509272575,725,763,748,40.522,0,0
1739355378.4180703,0.3259011996715681,1.1618234534632215,0.3110146383469281,-1.2116038385845138,-1.4042444133915946,1.0619207994676472,0.11355695544082962,0.0005899067183903692,0.0019110708980114531,-0.000880468217813041,-0.0007433679751673901,-0.0001746964937058658,0.00013612910039192746,0.0018662630606382249,-0.3301508128643036,-51.47183609008789,5.386153221130371,17.18085479736328,-1.0547994375228882,-1.4069321155548096,0.0064559997990727425,724,762,749,40.414,1,0
1739355378.4291255,0.3258985893363736,1.1618205815427058,0.3110157212707347,-1.2116018404969722,-1.4042466863745549,1.0619193219397889,0.11354996093474642,-0.0002782490961975918,0.0007071184164014053,-0.000131087992872616,0.0004265878756724931,-0.002519109217563935,-0.0002506446808844665,-0.0028796675115715185,-0.2825433909893036,-51.47183609008789,5.362349510192871,17.15705108642578,-1.0355733633041382,-1.3941147327423096,0.026597600430250168,725,761,750,40.414,1,0
1739355378.440114,0.32590099112238985,1.1618183300864742,0.3110178010112707,-1.211598296696875,-1.4042435474419062,1.0619200403542293,0.11354895973507104,-5.095117615475813e-05,-0.0009689716189355441,-0.0003579464710313996,0.0007734539099577891,-0.0003998950585734708,-0.00027131674957623703,-0.0013282941731447954,-0.3301508128643036,-51.44406509399414,5.334578514099121,17.13324737548828,-1.0621236562728882,-1.4005234241485596,0.04673920199275017,724,758,749,40.522,1,0
1739355378.4521124,0.3258971484846179,1.161819306471082,0.3110157286617752,-1.211602131171254,-1.4042402890546581,1.0619216789313375,0.11355929282937634,-0.0008989338809684689,0.0009485039684275489,-0.0008846411902467005,4.8004299339659e-05,0.001788574651345246,0.0012571081961073485,0.0011879930981283145,-0.3063471019268036,-51.44406509399414,5.362349510192871,17.15705108642578,-1.0621236562728882,-1.4142563343048096,-0.013685601763427258,725,757,750,40.522,0,0
1739355378.4621348,0.32589935591676855,1.1618175977350933,0.31101803725831434,-1.211603138067788,-1.4042431854356656,1.0619192826940143,0.11355364570098705,-0.00022737171133190297,-0.0002924200893934772,-0.000523310813226277,-0.0004652808246688562,0.0002734377732506398,-0.0011245392968140782,0.0003705483822051399,-0.3063471019268036,-51.42026138305664,5.334578514099121,17.18085479736328,-1.0621236562728882,-1.3941147327423096,0.03300629183650017,725,758,751,40.522,1,0
1739355378.4741073,0.32590130268083467,1.1618209894694684,0.3110178019846658,-1.2116018942066986,-1.404244359756272,1.0619200926818164,0.11355143534544113,0.0008747798452201223,-0.00014429061579829348,0.0009424765022429266,-0.00039828121027452165,-0.0006708806903624318,0.0003259049140949047,-0.0012251268099156888,-0.3301508128643036,-51.47183609008789,5.334578514099121,17.15705108642578,-1.0547994375228882,-1.4005234241485596,0.05314789339900017,725,759,749,40.522,0,0
1739355378.4851403,0.3259016993193439,1.1618203270484835,0.3110195956770562,-1.2116039141734536,-1.4042444112419552,1.0619192826942248,0.11355793999577912,0.0003081627094398816,0.000614374847973574,0.001232562643022374,-0.000722821405439599,0.0008331190336847287,-1.2332953855224776e-05,0.0012114617266105513,-0.3301508128643036,-51.47183609008789,5.310774803161621,17.18085479736328,-1.0547994375228882,-1.3941147327423096,-0.0008682189509272575,725,758,750,40.414,1,0
1739355378.4951608,0.3259002230118514,1.161821456489923,0.31101489213701766,-1.2116050931080413,-1.4042473011727572,1.0619200403540077,0.11355300396619432,0.000527545768249232,-0.00010061060513542766,-0.00043654809094869013,-0.0005824337408597833,-0.00138759459715488,-0.00030366422970075216,-6.30903029947362e-06,-0.3063471019268036,-51.44406509399414,5.386153221130371,17.20862579345703,-1.0419820547103882,-1.4005234241485596,0.012864691205322742,725,759,750,40.522,1,0
1739355378.506138,0.3258981644744653,1.1618172714978774,0.3110157212267979,-1.2115978769189593,-1.404243845013219,1.0619200403540077,0.113558539550612,0.0009180384339023448,-0.0007357647980881499,-0.001987485470942401,0.0002289679128679755,-0.00016745866308773576,0.00011141536973154135,0.0010582334663714976,-0.3063471019268036,-51.42026138305664,5.362349510192871,17.10944366455078,-1.0685323476791382,-1.4005234241485596,-0.0072769103571772575,725,761,750,40.414,1,0
1739355378.517075,0.32589955419896127,1.1618211385742665,0.31101606735957804,-1.2116018517177574,-1.4042458865188243,1.061921099992137,0.1135593347107214,-6.017402471619e-06,0.0002305628251388504,-0.0007394241502738805,-0.0008958138542370367,-0.0008363874191502179,4.9438576128004174e-05,0.0006051252031278771,-0.3063471019268036,-51.44406509399414,5.386153221130371,17.15705108642578,-1.0419820547103882,-1.4005234241485596,-0.013685601763427258,726,759,749,40.522,0,0
1739355378.5271108,0.3258984832709498,1.1618211116873254,0.3110206389394985,-1.2115976173802308,-1.4042433403469512,1.06192081110202,0.11355659755354024,0.00025135057431458017,-0.00019478808358094305,0.0005710570332949345,0.001640244737204165,-0.0007272953624849019,0.0010695753199654763,-0.000694924477189808,-0.2825433909893036,-51.44406509399414,5.334578514099121,17.13324737548828,-1.0547994375228882,-1.4069321155548096,-0.0008682189509272575,727,758,750,40.414,1,0
1739355378.5380466,0.3258999832018029,1.161825166640166,0.31101713479687987,-1.2116051020507985,-1.4042444133882626,1.0619200403540814,0.11355801778129278,-0.0012937916947135635,0.0012747545234494877,-0.00029420827962414894,-0.000866833633539719,0.00019469100126588923,-0.0008009392333715595,0.0026764874581058314,-0.3063471019268036,-51.49563980102539,5.362349510192871,17.20862579345703,-1.0547994375228882,-1.4005234241485596,0.0064559997990727425,725,758,750,40.522,1,0
1739355378.5480957,0.32589858674034067,1.161820590482036,0.3110139396484034,-1.2116020801478211,-1.4042451705577683,1.0619200403540077,0.11355653095066028,-0.0006809250633766519,0.0006505368121596077,-0.000902420240270315,1.4196453772511927e-05,-0.0005699948162576395,-0.00010782076857181582,0.0015825684626525566,-0.2825433909893036,-51.47183609008789,5.386153221130371,17.15705108642578,-1.0483907461166382,-1.4005234241485596,-0.027418512850999832,725,759,750,40.414,1,0
