IITGN-Robotics/Franka_IITGN_ROBOTICS/franka_ros/franka_iitgn/data02/s_b_008.csv
time,fr3_joint1_pos,fr3_joint2_pos,fr3_joint3_pos,fr3_joint4_pos,fr3_joint5_pos,fr3_joint6_pos,fr3_joint7_pos,fr3_joint1_vel,fr3_joint2_vel,fr3_joint3_vel,fr3_joint4_vel,fr3_joint5_vel,fr3_joint6_vel,fr3_joint7_vel,fr3_joint1_eff,fr3_joint2_eff,fr3_joint3_eff,fr3_joint4_eff,fr3_joint5_eff,fr3_joint6_eff,fr3_joint7_eff,flexpin1,flexpin2,flexpin3,Force,ContactMic,ContactMic_gt
1739355176.8679085,0.3272490034029961,1.154501824168005,0.306508790554679,-1.2224663066223846,-1.4011308028354847,1.0699746241545642,0.09725042187625646,0.0005272280335225367,0.0012033756555852315,0.0011490611306774726,-8.268104274739664e-05,-0.0005167361856540358,6.280117486507459e-05,9.115245558936018e-05,-0.9292108416557312,-51.19015884399414,4.648238182067871,16.83570098876953,-1.0749410390853882,-1.5323593616485596,-0.04756011441349983,,,,,,,,,
1739355176.8788972,0.3272468686834872,1.1544978950251334,0.306508048808886,-1.222464086760581,-1.4011351756588752,1.0699738664942589,0.09724955597902407,-0.00013341476891204996,-0.00031055533222074756,-0.0004891426728646716,0.00015751444645858674,-0.0003096334991401491,-0.000946115934127587,0.000615163558660181,-0.9292108416557312,-51.13858413696289,4.648238182067871,16.83570098876953,-1.0749410390853882,-1.5259506702423096,-0.04023589566349983,,,,,,,,,
1739355176.8899093,0.32724931831499215,1.1545036860648334,0.30650673713509635,-1.2224645170761719,-1.401129273848621,1.0699746241543373,0.09725193719641315,0.0010763144498549303,0.0018378728450152084,-0.00046235005940733673,-0.00026779066867303855,0.0009406907873823865,-0.0005243496044817846,0.001068638681888216,-0.9292108416557312,-51.19015884399414,4.676009178161621,16.81189727783203,-1.0877584218978882,-1.5323593616485596,-0.06037749722599983,,,,,,,,,
1739355176.9008765,0.3272472820383107,1.1544973409020662,0.30650879055562613,-1.222466549111039,-1.4011308432823033,1.0699731624701845,0.09724879804775094,-8.683950131405408e-05,-0.0004249758872871699,0.0007753443993363233,-0.0005418096467417305,-0.00048367095295328004,-0.0003305597264666637,-0.00026568596051794626,-0.9054071307182312,-51.11081314086914,4.648238182067871,16.83570098876953,-1.0749410390853882,-1.5195419788360596,-0.03382720425724983,,,,,,,,,
1739355176.912818,0.32725070706716314,1.1545001799268997,0.3065067224304617,-1.2224663106938263,-1.4011330213733593,1.0699739067215646,0.09724804065886586,0.0006620332302987981,-0.00022011230542739736,-0.0007909232002640621,-0.0006404089144973281,-9.631713609318241e-05,-0.00011422006594087402,-0.001041638003772502,-0.9530145525932312,-51.13858413696289,4.676009178161621,16.83570098876953,-1.0941671133041382,-1.5259506702423096,-0.027418512850999832,,,,,,,,,
1739355176.9229114,0.3272482356182549,1.1544981939459467,0.3065066447884305,-1.2224645280154613,-1.4011332361632263,1.0699753818146425,0.0972511795363348,0.0009013165383204993,-0.0011258945257084769,0.00020743093425357564,0.0008293994221617259,-0.0014575591405354311,0.0009951751811484964,0.0009161709584156059,-0.9054071307182312,-51.13858413696289,4.648238182067871,16.81189727783203,-1.0941671133041382,-1.5387680530548096,-0.05396880581974983,,,,,,,,,
1739355176.9339037,0.3272501166710866,1.1544999755270464,0.30650492807658897,-1.2224663106924805,-1.4011297563594705,1.0699753818144155,0.09724827879663966,0.00031557734940288726,0.0004466271655724322,-0.0003306819015889232,0.0001148214275417631,-0.0011881796909345905,0.00010080015524085436,0.0010038445503079885,-0.9054071307182312,-51.13858413696289,4.699812889099121,16.83570098876953,-1.0877584218978882,-1.5387680530548096,-0.020094294100999832,,,,,,,,,
1739355176.945915,0.32724873414780725,1.1545010102684021,0.3065150788548234,-1.2224592175464355,-1.4011306923284337,1.0699794425983111,0.09724643609240777,0.0004609684978720784,0.00042154729218560577,0.0014134668910818094,0.0004661862116419512,-6.204862013336023e-05,0.000948807692548827,-0.0017407284385475765,-0.7546502947807312,-51.19015884399414,4.902144432067871,16.93488311767578,-1.1079000234603882,-1.4929916858673096,-0.013685601763427258,,,,,,,,,
1739355176.9568777,0.32724737949189686,1.154508041302214,0.30655635677918347,-1.2224276272466306,-1.4011337569017501,1.0699804345836859,0.09724957931762596,0.00030572836724915156,0.0012960417837304475,0.003308888744149828,0.0020262537804449704,0.00015435095833409295,-0.00015989350459306355,0.0004638091695506882,-0.5562860369682312,-51.28934097290039,5.029097557067871,17.03406524658203,-1.0941671133041382,-1.4206650257110596,-0.04023589566349983,,,,,,,,,
1739355176.968845,0.32724486268093167,1.1545154620111924,0.30658028880250915,-1.2223902292811986,-1.4011295069940306,1.069973536464226,0.09724821168382203,4.4254818003238144e-05,0.0008350791639046149,0.001554299246287087,0.003229997672076151,0.0005799511254399724,-0.000840973473586391,0.000986200469945385,-0.4293329417705536,-51.39249038696289,5.056868553161621,17.08167266845703,-1.1271260976791382,-1.3877060413360596,-0.027418512850999832,,,,,,,,,
1739355176.9789422,0.32724027197558186,1.1545117513786802,0.30659532717629095,-1.2223564846779829,-1.4011280047538313,1.06997671536167,0.09724434288421518,0.001817793520138411,-0.00036175305408764845,0.0018259251150919622,0.0036771428769866105,0.0007325465710613188,0.00040587509240815707,-0.0028354191712254787,-0.3539545238018036,-51.34091567993164,5.056868553161621,17.01026153564453,-1.1399434804916382,-1.3877060413360596,0.012864691205322742,,,,,,,,,
1739355176.9899504,0.3272344191704244,1.1545137492845396,0.3065939783237806,-1.2223471796978769,-1.4011287885780355,1.0699759969653933,0.09724823922233318,0.00041248074639961254,-0.00041714515216757916,-4.852737891863245e-05,0.0014685210281514469,0.0013003200008437398,5.2914079771697476e-05,-0.00030594111346516066,-0.2825433909893036,-51.36868667602539,5.132246971130371,17.03406524658203,-1.1335347890853882,-1.3812973499298096,-0.020094294100999832,,,,,,,,,
1739355176.999954,0.32723932271708495,1.1545212385961996,0.3065988407092189,-1.222350087170586,-1.4011285884241667,1.0699759577197585,0.09724880276013348,0.0007522887839144496,0.0006612119671467081,-0.0002342145793688737,-0.0004555243162987963,0.0019416790073289222,-9.622377751737373e-05,0.0009231243926238395,-0.3539545238018036,-51.44406509399414,5.108443260192871,17.13324737548828,-1.1335347890853882,-1.3812973499298096,-0.03382720425724983,,,,,,,,,
1739355177.0108602,0.3272341822646392,1.1545236084923576,0.30660612929047887,-1.2223443840838562,-1.401128749331049,1.0699752000594585,0.09724844810038229,-5.566149997087593e-06,0.00145529970755179,0.0009500588943131543,-0.00022699463920367166,-0.00036781740620705225,0.0001797272562646508,-0.000458935888826618,-0.2825433909893036,-51.49563980102539,5.056868553161621,17.08167266845703,-1.1335347890853882,-1.3748886585235596,-0.027418512850999832,,,,,,,,,
1739355177.021869,0.3272344183030135,1.154521170316783,0.3066074459050842,-1.2223479389691083,-1.4011295069920358,1.0699735765021479,0.09724677262119148,-0.00022567063428791757,-0.0004895450089075265,0.0006357371647371797,-0.0008303664629092562,-0.0002857262923876856,-0.0002828486399254251,-0.00011800180210160322,-0.2825433909893036,-51.47183609008789,5.080672264099121,17.13324737548828,-1.1271260976791382,-1.3611557483673096,-0.013685601763427258,,,,,,,,,
1739355177.031917,0.32723539500156523,1.1545233470445615,0.3066035868412586,-1.222343745854687,-1.4011280659029957,1.0699752015130086,0.09724955745745012,0.00015373349074612887,-0.0002513507321382897,-0.00032332997991489583,0.0007530555660839806,-0.00033453669499969904,-0.000340058999027769,-0.0013759976780436172,-0.3063471019268036,-51.47183609008789,5.132246971130371,17.08167266845703,-1.1207174062728882,-1.3748886585235596,-0.04023589566349983,,,,,,,,,
1739355177.042841,0.32723573816760565,1.1545229592736197,0.30660359238562507,-1.2223469469186627,-1.4011310222896614,1.0699735765021505,0.09724424360166918,-0.00022000137261807327,-6.533383473824537e-05,-0.00011538515552511679,-0.0009831859931708632,-0.0006797436060048869,0.0005913873213966411,-0.0023495352224963775,-0.3301508128643036,-51.49563980102539,5.132246971130371,17.13324737548828,-1.1143087148666382,-1.3611557483673096,-0.0072769103571772575,,,,,,,,,
1739355177.0528867,0.32723612297658355,1.1545286636848169,0.30660751953596477,-1.2223429961326098,-1.4011302646521135,1.0699712904399603,0.09724885907439511,-0.00012186402484328873,0.0011591019681139296,0.0018944715210730742,0.0008122854565276254,-0.0011634943264962347,0.00022799995433334629,-0.00027018141680011545,-0.3063471019268036,-51.54721450805664,5.080672264099121,17.08167266845703,-1.1207174062728882,-1.3419296741485596,-0.0072769103571772575,,,,,,,,,
1739355177.0629427,0.32723783542583573,1.1545258968049166,0.30660744606917995,-1.222348637350422,-1.4011316773374098,1.0699743283478034,0.09724717481582106,0.0003443042154971245,0.000452570944112448,0.0012064100824121324,-0.0005459187888509627,-0.0005914790598670745,0.001233138751495927,-0.0006489901150787586,-0.3301508128643036,-51.49563980102539,5.080672264099121,17.15705108642578,-1.1207174062728882,-1.3675644397735596,-0.020094294100999832,,,,,,,,,
1739355177.0749369,0.3272361287900621,1.1545249026786026,0.3066036098467278,-1.2223433097466219,-1.4011262486127627,1.069973576502115,0.09725408884966515,0.0005581974164440985,0.0006130019548616741,9.654649506664792e-05,0.00013187510069097394,0.0009131434506827658,2.4349484949070166e-06,0.0019212211792262453,-0.3063471019268036,-51.51944351196289,5.132246971130371,17.08167266845703,-1.1271260976791382,-1.3611557483673096,-0.04756011441349983,,,,,,,,,
1739355177.0858858,0.3272344190156428,1.1545175715489415,0.3066053652969832,-1.222339063403473,-1.401128749325826,1.0699735764842027,0.09724823937371813,9.746333875673653e-05,-0.0006690024873393243,-0.0011624506186804586,0.0008479510128781881,0.0011694986068925015,0.00014941616913115836,-0.0003973547353623654,-0.2825433909893036,-51.42026138305664,5.108443260192871,17.05786895751953,-1.1335347890853882,-1.3611557483673096,-0.020094294100999832,,,,,,,,,
1739355177.0959165,0.32723430648999563,1.15452192764282,0.3066083187535491,-1.2223417670657755,-1.4011279916718788,1.0699743341622256,0.09724717477966428,-1.8004051658893593e-05,0.000571059050179245,0.00031922457827581564,-0.001207330931756657,0.0005935559999891841,-0.00023377900689215957,-0.0008678924025050857,-0.2825433909893036,-51.44406509399414,5.108443260192871,17.13324737548828,-1.1399434804916382,-1.3675644397735596,-0.020094294100999832,,,,,,,,,
1739355177.1069548,0.3272361307154297,1.1545246066374089,0.3066083189142417,-1.2223450552475157,-1.401129508445586,1.0699752000594585,0.09725067568444158,0.0001750737435104369,0.0013674341565371268,7.878229787622423e-06,-0.0015975164666481032,-0.00010346865965202482,0.000346638847985433,0.00017149215982276053,-0.3063471019268036,-51.51944351196289,5.108443260192871,17.18085479736328,-1.1271260976791382,-1.3748886585235596,-0.013685601763427258,,,,,,,,,
1739355177.1178377,0.3272387978740849,1.1545286597993756,0.3066088982392133,-1.222341852982106,-1.401132685906432,1.0699752000594585,0.09724549486558387,0.0015904847447785022,0.00024854952064379005,0.0005414235725854864,0.0019636356257866907,-0.0008361436149553327,6.639649474034291e-05,0.00013190674526086517,-0.3301508128643036,-51.54721450805664,5.132246971130371,17.10944366455078,-1.1271260976791382,-1.3748886585235596,0.0064559997990727425,,,,,,,,,
1739355177.1279588,0.32723955673665567,1.1545312907080858,0.3066076103185774,-1.2223415694011113,-1.401129507045871,1.0699729213113869,0.09724404905203932,0.001044861952593942,0.0015601220082753762,-0.00042992702731932403,-0.0005658844245394812,0.00024531240327626923,-0.00010452655586724803,-0.0015465326076141343,-0.3539545238018036,-51.57101821899414,5.108443260192871,17.13324737548828,-1.1271260976791382,-1.3675644397735596,0.0064559997990727425,,,,,,,,,
1739355177.1389139,0.3272354523418265,1.1545231974012329,0.3066085551212422,-1.2223376287700212,-1.4011310240847163,1.0699704376167047,0.09725089941528123,-4.1013377387984695e-06,0.00029177860591481336,0.0012152916203682375,0.0010723123964969546,2.7141826385510643e-05,-0.000692350191675003,0.0012953708289224885,-0.2825433909893036,-51.49563980102539,5.108443260192871,17.08167266845703,-1.1143087148666382,-1.3346054553985596,-0.04756011441349983,,,,,,,,,
1739355177.1499264,0.3272324212232908,1.1545221915815571,0.30660290897461795,-1.2223358447480268,-1.4011300931665462,1.0699735765021479,0.09724490183807312,-0.0009648864614291042,0.00023610887059842566,-0.0012599129895518048,0.0005059408395445579,-0.0008639420380055585,0.0009379935609138519,-0.001479801698549578,-0.2547723948955536,-51.47183609008789,5.183821678161621,17.05786895751953,-1.1143087148666382,-1.3611557483673096,-0.0008682189509272575,,,,,,,,,
1739355177.160876,0.32723885471024444,1.1545221652359106,0.306606429227573,-1.222341489891913,-1.401129505000272,1.0699735765021479,0.09724804525630919,0.0017765360707956124,-0.0002834515699725491,-5.312328170575494e-05,-0.00034033481545304024,-6.35509923425515e-05,0.0004308883928809447,-0.00040997290957865674,-0.3539545238018036,-51.47183609008789,5.108443260192871,17.13324737548828,-1.1271260976791382,-1.3611557483673096,-0.027418512850999832,,,,,,,,,
1739355177.1709454,0.327233717463211,1.1545249493545777,0.3066067693893623,-1.2223412514733338,-1.4011306858212513,1.0699736288299566,0.09725037441871713,-0.00030955572675430234,-0.00031044230861570436,-0.0012144354966900145,-0.00037299452003531513,-0.0009625434404715028,0.0004014457233031644,0.00047331657097432684,-0.2825433909893036,-51.49563980102539,5.132246971130371,17.13324737548828,-1.1271260976791382,-1.3611557483673096,-0.020094294100999832,,,,,,,,,
1739355177.181869,0.32723240965777295,1.1545194900838232,0.30660780070843857,-1.2223397073225644,-1.4011287493386118,1.0699753177973237,0.09724329728085775,-0.0017234592220140292,0.0002633183769126482,-2.1911818292854918e-05,0.0002919500979237275,-0.0006909906965486925,0.0010751790620758751,-0.0016932937094015642,-0.2547723948955536,-51.44406509399414,5.080672264099121,17.10944366455078,-1.1335347890853882,-1.3748886585235596,0.012864691205322742,,,,,,,,,
1739355177.1928356,0.3272345668776077,1.1545191725835844,0.3066068516025848,-1.2223354018579184,-1.4011287493319573,1.0699759577202015,0.09725097545270908,-0.00024003153061211233,-0.0009256253078287099,-0.0017794906755681664,0.0004071538997581647,0.0002931384745551463,0.0007194636496535146,0.0012402838225508079,-0.2547723948955536,-51.44406509399414,5.132246971130371,17.08167266845703,-1.1335347890853882,-1.3812973499298096,-0.04023589566349983,,,,,,,,,
1739355177.20285,0.32723441919464846,1.1545220885607583,0.30660677633914396,-1.2223383108308183,-1.4011295843370595,1.0699752000594585,0.09725186035860173,-0.00042081650924619834,0.0005738202200754754,0.0005164050539311288,0.0003414433249026522,-0.000917728245903546,0.00012819482258956,1.6017842034675607e-05,-0.2825433909893036,-51.47183609008789,5.132246971130371,17.13324737548828,-1.1271260976791382,-1.3748886585235596,-0.04756011441349983,,,,,,,,,
1739355177.2128992,0.3272343401941962,1.1545273872024622,0.3066085933612012,-1.222341171838961,-1.4011295069959653,1.0699728188420694,0.09725418686559836,-0.0004057243324433872,0.0024299137424756184,-0.00015916885511499008,2.8320122254660036e-06,-0.0002683299221080033,0.00019613787745586072,0.0010409632623519648,-0.2825433909893036,-51.51944351196289,5.108443260192871,17.13324737548828,-1.1271260976791382,-1.3547470569610596,-0.04023589566349983,,,,,,,,,
1739355177.223862,0.3272378441996253,1.1545286343050765,0.3066049898086118,-1.222340774635577,-1.4011295069920358,1.0699728144275833,0.0972495559877379,0.000989654608708472,0.0006129044144698767,-0.0014146455540897536,-0.0005369593851063208,0.00024317555950756467,0.00039730654198958943,-0.00027246633029813006,-0.3301508128643036,-51.54721450805664,5.156050682067871,17.13324737548828,-1.1271260976791382,-1.3547470569610596,-0.04023589566349983,,,,,,,,,
1739355177.2339065,0.32723613167904275,1.154524977401587,0.306604986856353,-1.2223369120481717,-1.4011287493319573,1.0699728188419946,0.09725042187625661,0.00039925855871115166,0.00028641990423464343,-0.0009789157768362118,0.0005420893232483902,0.0007397652140275187,-0.0002537394554788424,-0.0009257509462653995,-0.3063471019268036,-51.49563980102539,5.156050682067871,17.08167266845703,-1.1335347890853882,-1.3547470569610596,-0.04756011441349983,,,,,,,,,
1739355177.2448764,0.3272377401982538,1.154522199569981,0.3066086601092257,-1.2223396008109777,-1.4011271251124737,1.0699703961342095,0.0972511847277299,0.0007219227933585944,0.0008522373108871516,-0.00030099688383785294,-0.0006752148958673096,0.0005357667871519773,-4.929401098335281e-05,-0.0003210524879173212,-0.3301508128643036,-51.47183609008789,5.108443260192871,17.10944366455078,-1.1472676992416382,-1.3611557483673096,-0.05396880581974983,,,,,,,,,
1739355177.2549126,0.32723418419015293,1.1545228860002086,0.3066114485338747,-1.222337614668333,-1.4011294935830234,1.069972661804783,0.0972521556953243,-0.00046580863746343014,1.916629136667692e-05,0.001664544331660424,-0.0001542832871203703,-0.00033410001757661024,-0.0006132134920314219,0.0017515711378838358,-0.2825433909893036,-51.49563980102539,5.080672264099121,17.08167266845703,-1.1271260976791382,-1.3547470569610596,-0.03382720425724983,,,,,,,,,
1739355177.2658315,0.3272340253259419,1.1545267041874452,0.3066114246573867,-1.2223407358989895,-1.401130269012689,1.0699743336768228,0.09724495924121701,-0.00028784746872501056,0.002228734172338747,0.0010398018083893038,0.00036870323430812527,-0.0009092675240719196,0.0008144946217645106,-0.0009828792437302377,-0.3063471019268036,-51.54721450805664,5.108443260192871,17.13324737548828,-1.1207174062728882,-1.3675644397735596,-0.0008682189509272575,,,,,,,,,
1739355177.2758806,0.3272268861506371,1.1545228858796774,0.30660879149417797,-1.2223351627724723,-1.401129144949082,1.0699752015130004,0.09725072831443086,-0.0033242363537848187,-0.0011357134672158068,-0.00040818347837541784,0.0009156530314781363,-0.0004910150550686645,-4.0613914233368926e-05,0.0009269029049592043,-0.2071649730205536,-51.49563980102539,5.108443260192871,17.08167266845703,-1.1271260976791382,-1.3748886585235596,-0.020094294100999832,,,,,,,,,
1739355177.2859595,0.3272361325174582,1.1545250268120082,0.30661374065765196,-1.2223348909229474,-1.4011296232335855,1.0699728232027448,0.09724885549557485,0.0010571017213496672,0.0008899799700160183,0.0017098200436156284,3.384760141667399e-05,0.000380699674367366,-0.000716165776177203,-0.0004593464692728404,-0.3063471019268036,-51.49563980102539,5.080672264099121,17.05786895751953,-1.1271260976791382,-1.3547470569610596,-0.03382720425724983,,,,,,,,,
1739355177.296909,0.32723702007046773,1.1545211816974743,0.3066068525361731,-1.2223368069407037,-1.4011291434597755,1.0699728188420938,0.09724891660873329,0.0013916154953922382,0.000629930381406191,-0.0008878669426462045,-0.0006716824634842136,-5.993087480276842e-06,0.00026797600687705357,0.0009959525608499733,-0.2825433909893036,-51.47183609008789,5.132246971130371,17.10944366455078,-1.1271260976791382,-1.3547470569610596,-0.03382720425724983,,,,,,,,,
1739355177.306916,0.3272333120193247,1.1545229971553388,0.30661140132466863,-1.2223365799251007,-1.4011306178586673,1.0699735765021479,0.0972496762176438,-0.00020674440762480796,0.0009778642877581157,0.00019951452073963834,0.0006466810004308373,-0.0007027083954103499,0.00017487587587483976,-0.000551523572278243,-0.3063471019268036,-51.49563980102539,5.108443260192871,17.10944366455078,-1.1207174062728882,-1.3611557483673096,-0.04023589566349983,,,,,,,,,
1739355177.3178842,0.32723862065524134,1.154523809900335,0.30660890236087424,-1.2223345189901835,-1.40112874927877,1.0699727795962126,0.09725047445003068,0.0009579625396095659,0.0007740116281692394,-0.00041884315990015644,0.002111093444106808,0.0006624093417486643,-0.00018455514314807676,0.0009240057324591491,-0.3539545238018036,-51.49563980102539,5.132246971130371,17.08167266845703,-1.1335347890853882,-1.3547470569610596,-0.04756011441349983,,,,,,,,,
1739355177.3288403,0.3272324212485131,1.1545246078518394,0.3066114275810024,-1.2223386445794393,-1.401127001740018,1.0699731011909959,0.09724880464748549,-0.0016872306992802718,0.0008556616228830791,0.0005562904644564658,0.0005820498270318641,0.0001654563211047245,-0.000965561133832719,0.0007734502748240735,-0.2547723948955536,-51.51944351196289,5.108443260192871,17.10944366455078,-1.1207174062728882,-1.3611557483673096,-0.03382720425724983,,,,,,,,,
1739355177.3399827,0.3272395832114589,1.1545255902368279,0.3066092754729607,-1.2223400670365787,-1.4011302665349232,1.0699713035138632,0.09724717476174218,0.0006209949684502686,0.0014533585737089203,0.0010825660199616806,0.0004812880098055306,-0.0013908825973733031,-0.0005285358512472785,-0.0006443909770870292,-0.3539545238018036,-51.51944351196289,5.108443260192871,17.15705108642578,-1.1207174062728882,-1.3419296741485596,-0.020094294100999832,,,,,,,,,
1739355177.351018,0.32723785303024117,1.1545241662334067,0.3066049926927891,-1.2223405268967795,-1.4011295107443593,1.069974334162226,0.09725169655919438,0.0005169866099504213,0.0013755537787682416,-0.0015511231257550073,-0.0009036867905761443,-0.0005678792682728215,0.00038856209192191426,0.0018173066817383245,-0.3301508128643036,-51.47183609008789,5.156050682067871,17.13324737548828,-1.1271260976791382,-1.3675644397735596,-0.05396880581974983,,,,,,,,,
1739355177.3619475,0.32723597704150137,1.154522971965911,0.3066070877695853,-1.2223365153863226,-1.401123645737447,1.0699728188420694,0.0972487990410859,-0.0003919422250727808,-0.000222893090511374,-0.00035234905632347725,0.0005308518377880198,0.001601117866930833,0.0013783183304777243,0.0017557552857279434,-0.3063471019268036,-51.49563980102539,5.132246971130371,17.10944366455078,-1.1399434804916382,-1.3547470569610596,-0.03382720425724983,,,,,,,,,
1739355177.3729417,0.3272323432154455,1.1545259527589582,0.3066127961714532,-1.2223431798870859,-1.4011280308932026,1.0699735765021479,0.09724804071295902,-0.0006856868332156375,0.0014078035749918497,0.0003843959426984896,-0.0023254713603938315,0.0003160023961069935,-0.0003859789466641671,-0.0003486992653981406,-0.2547723948955536,-51.49563980102539,5.080672264099121,17.15705108642578,-1.1399434804916382,-1.3611557483673096,-0.027418512850999832,,,,,,,,,
1739355177.3839025,0.32723441912220536,1.154525637909884,0.30660960990993813,-1.2223421997029722,-1.401127763925166,1.0699767554165358,0.097253615691806,-0.0005194524602490488,0.00024784232363931675,-0.0008887194749925809,-0.0010815013897478081,0.0010370857334273055,0.0007860207061460053,0.0012271854192532805,-0.2825433909893036,-51.49563980102539,5.132246971130371,17.15705108642578,-1.1143087148666382,-1.3611557483673096,-0.04756011441349983,,,,,,,,,
1739355177.3948572,0.3272361259556884,1.1545193598627679,0.30660995254751294,-1.2223372136433905,-1.4011293467116521,1.0699752000774034,0.09725124033390085,7.299935009555755e-05,0.00015758107806627467,0.0002610512296874106,-0.0007696948959218109,0.0010082619590987133,0.0008789354199090524,0.0001666453564205194,-0.3063471019268036,-51.47183609008789,5.132246971130371,17.10944366455078,-1.1271260976791382,-1.3748886585235596,-0.027418512850999832,,,,,,,,,
1739355177.404878,0.32723242078937176,1.154521867445102,0.3066099496331632,-1.2223367303744388,-1.4011302631595106,1.0699728188420696,0.0972488027542238,-0.001798485737664629,-0.0003572219325619101,0.0004476780320284535,0.001112326720236717,-0.0006282096040733224,0.0002519313851579014,-0.000287983107882778,-0.2547723948955536,-51.47183609008789,5.132246971130371,17.10944366455078,-1.1207174062728882,-1.3547470569610596,-0.03382720425724983,,,,,,,,,
1739355177.4159362,0.3272380826183506,1.1545248597992506,0.30660926377750997,-1.2223385103151367,-1.4011284208629446,1.0699720606974743,0.09724909328222961,0.0014087390373501785,-4.1480812313920924e-05,-2.7272173474199583e-05,-0.00013803875929492657,0.0013416932269478437,-0.0005500292941285135,0.0007273644244072479,-0.3301508128643036,-51.51944351196289,5.108443260192871,17.13324737548828,-1.1271260976791382,-1.3483383655548096,-0.06037749722599983,,,,,,,,,
1739355177.4269333,0.3272344191596574,1.154522985713967,0.30661075199986626,-1.2223365811202376,-1.4011295460662179,1.0699720611819885,0.09724883719099671,-0.000525880545208171,-0.0005282249902736049,0.0005042397887737441,0.00031580576274533527,0.0002946559287067336,0.0002096859273801361,4.8120915286509636e-05,-0.2825433909893036,-51.49563980102539,5.080672264099121,17.10944366455078,-1.1271260976791382,-1.3483383655548096,-0.03382720425724983,,,,,,,,,
1739355177.4379177,0.32723441915831153,1.1545191726873505,0.30660783134945885,-1.2223365150918906,-1.40113268546385,1.0699728188420694,0.0972504218764759,-0.00033170940075931735,-0.0030018687658691164,-0.0005680733642533834,-0.0002709977514488772,-0.0016395693719545772,0.0007492638628072652,0.0028901833111219582,-0.2825433909893036,-51.44406509399414,5.132246971130371,17.10944366455078,-1.1271260976791382,-1.3547470569610596,-0.04756011441349983,,,,,,,,,
1739355177.4488814,0.32723441915831153,1.1545232143559296,0.30660993500435957,-1.2223368064920033,-1.4011287493498998,1.0699720211450703,0.09724748170662963,-0.00033529481617671777,0.0006309537763938033,0.0007061277056818065,-0.0009092955364482143,0.0006026718497101718,-0.00013501528379064723,0.001553423391164889,-0.2825433909893036,-51.49563980102539,5.132246971130371,17.10944366455078,-1.1335347890853882,-1.3748886585235596,-0.013685601763427258,,,,,,,,,
1739355177.4589252,0.32723645251392075,1.1545211702133236,0.306615602229233,-1.2223326262116017,-1.4011287202003881,1.0699735764483127,0.09724718110790714,0.0013441259621875287,-0.0002526618055710795,0.0016065941029690975,0.0004111862975988212,0.000652967633501063,-0.00020555712746252153,0.0001475783683323499,-0.3063471019268036,-51.47183609008789,5.056868553161621,17.05786895751953,-1.1335347890853882,-1.3611557483673096,-0.020094294100999832,,,,,,,,,
1739355177.4698467,0.32723476257953765,1.1545199662888646,0.30661103534204837,-1.2223364885640766,-1.4011295185839343,1.0699752001132932,0.09725148648147537,0.00035218810147989444,-0.0009202445189014413,3.6159340018047576e-05,0.0006178874356757972,6.060047826052237e-05,0.0003581338353388627,0.0008078035281483387,-0.2825433909893036,-51.44406509399414,5.108443260192871,17.10944366455078,-1.1271260976791382,-1.3748886585235596,-0.04756011441349983,,,,,,,,,
1739355177.4799285,0.3272361346282978,1.154522993284382,0.3066099603139896,-1.2223372126501313,-1.4011302512433093,1.069974334162227,0.09724403590208665,0.000808681135200464,7.898264351247137e-05,-0.00047698456202092965,0.0004428670991841182,-0.00041977516639504536,0.00023875141655539856,-0.001094653808033928,-0.3063471019268036,-51.49563980102539,5.132246971130371,17.10944366455078,-1.1207174062728882,-1.3675644397735596,0.0064559997990727425,,,,,,,,,
1739355177.4909458,0.32723441883733584,1.1545258676913963,0.30660972494303773,-1.222334408451259,-1.4011302646520383,1.0699703975877597,0.09724809559683918,-0.0002433051315852358,0.0004058088666415393,-0.0011679180845309716,0.000648065725575816,-0.0006814726586682458,-0.0012268321420697721,-4.2060536342497555e-05,-0.2825433909893036,-51.49563980102539,5.132246971130371,17.08167266845703,-1.1207174062728882,-1.3611557483673096,-0.0008682189509272575,,,,,,,,,
1739355177.5018373,0.3272344191583097,1.154524901418695,0.30660994963197713,-1.2223364885640744,-1.401130264652114,1.0699728182857724,0.09725042194837319,-0.0004458070503677278,-0.0005350181687012584,-0.0006500589493212841,-9.389186531754037e-05,0.00029276659318950204,-0.0004657661151621925,0.0011673944846299466,-0.2825433909893036,-51.51944351196289,5.132246971130371,17.10944366455078,-1.1207174062728882,-1.3547470569610596,-0.04756011441349983,,,,,,,,,
1739355177.511916,0.327230788169587,1.1545229595779802,0.30660326429898394,-1.2223326262062175,-1.4011295069920358,1.0699728173885097,0.09724491979244415,-0.0010058062546188275,-0.0014674896935142664,-0.0022975220166583108,0.00011525841859602517,6.741703353861571e-05,0.00010606953301310927,-0.0018087206149328978,-0.2309686839580536,-51.49563980102539,5.183821678161621,17.05786895751953,-1.1271260976791382,-1.3547470569610596,-0.0008682189509272575,,,,,,,,,
1739355177.5229218,0.32723441915876017,1.154526661578949,0.3066098562993846,-1.2223355348897602,-1.4011324351630314,1.0699728188420612,0.09724816533076437,0.00017291050644013505,-0.0002947639081491596,-0.0004911300802582535,0.0009213752290524223,-0.0022387929728356613,-0.0006639255076755624,0.00094164389568807,-0.2825433909893036,-51.51944351196289,5.132246971130371,17.10944366455078,-1.1143087148666382,-1.3547470569610596,-0.027418512850999832,,,,,,,,,
1739355177.533837,0.3272378441997739,1.1545235813028927,0.30661560551747735,-1.2223365545360487,-1.4011310615660246,1.069975957719537,0.09725062058491094,0.0009392528037310228,-0.0010299433920769202,0.0012420791006141829,0.00041494533578570627,-0.0009948951270505827,0.0011565988190466354,-0.0001703939914855116,-0.3301508128643036,-51.49563980102539,5.080672264099121,17.08167266845703,-1.1143087148666382,-1.3812973499298096,-0.04023589566349983,,,,,,,,,
1739355177.54387,0.32723753350340884,1.1545249604772918,0.3066057452566839,-1.2223361705999598,-1.4011299754113802,1.069974334162226,0.09724956930258978,3.6104299235181574e-05,0.00028415739457387113,-0.002639733826658634,0.0005365966339209342,-0.001764065723890538,1.731311713084398e-05,0.00038538497427594845,-0.3301508128643036,-51.49563980102539,5.156050682067871,17.10944366455078,-1.1271260976791382,-1.3675644397735596,-0.04023589566349983,,,,,,,,,
1739355177.5538952,0.32723441915304985,1.154522165230339,0.30661379747805084,-1.2223343986303228,-1.4011302646600468,1.0699735765021479,0.0972482393670437,-0.00043975371628151867,-0.0006871899969388454,0.001091446342335566,-4.334790387627629e-05,-0.0003697589567907214,-0.000440122473595891,-0.0006297838165270988,-0.2825433909893036,-51.47183609008789,5.080672264099121,17.08167266845703,-1.1207174062728882,-1.3611557483673096,-0.020094294100999832,,,,,,,,,
1739355177.563927,0.3272321357038513,1.1545235779094116,0.3066159234178119,-1.222336462072951,-1.4011254909447097,1.0699743472441783,0.09724565945939738,-0.0006375050814508525,-0.00012055072858347589,0.0012539300449427116,-0.00012508741505772917,0.0006430044573947439,0.0009120880922488266,-0.0011950755850386706,-0.2547723948955536,-51.47183609008789,5.080672264099121,17.10944366455078,-1.1335347890853882,-1.3675644397735596,-0.0072769103571772575,,,,,,,,,
1739355177.5748732,0.32723441915669976,1.1545235681431398,0.3066099613099047,-1.2223341033969892,-1.4011298586964627,1.0699728188421431,0.09724819902720444,-0.00015545142805496075,0.00043445433918796013,9.707230859645494e-06,0.00034684985693953017,-0.001287810228969106,-9.464100487721876e-05,0.0008828674285462726,-0.2825433909893036,-51.47183609008789,5.132246971130371,17.10944366455078,-1.1271260976791382,-1.3547470569610596,-0.027418512850999832,,,,,,,,,
1739355177.5858884,0.3272344162693804,1.154522160217119,0.3066081757048479,-1.2223344209480644,-1.4011299779443007,1.0699717602970902,0.09724718060398403,-0.0002010922761593288,-0.0008899605925284826,-0.0007464833093433176,0.000317392033004915,-0.000678036779611745,-0.0003333580345335829,4.4930048634178816e-05,-0.2825433909893036,-51.44406509399414,5.156050682067871,17.10944366455078,-1.1271260976791382,-1.3483383655548096,-0.020094294100999832,,,,,,,,,
1739355177.595904,0.32723653025830113,1.1545236059768142,0.3066117436510012,-1.2223356927103013,-1.4011307126049493,1.069972818836974,0.0972464175883334,0.00016493864234234002,0.00013974467054727032,0.0010593851142377082,0.0005193304215764212,-7.269295563943961e-05,-0.0002645910580681717,-0.0008733413837592646,-0.2825433909893036,-51.49563980102539,5.108443260192871,17.10944366455078,-1.1143087148666382,-1.3547470569610596,-0.013685601763427258,,,,,,,,,
1739355177.6068528,0.32723613182381067,1.154523652129058,0.3066117430030039,-1.222336487242403,-1.4011317759818755,1.069972061181991,0.09724687476611364,-0.0007649344490341166,1.9929819523432533e-06,2.3402746684913394e-05,0.000316235487204945,-0.0009504166691993992,0.0007613441912473301,-0.00024284626328245575,-0.3063471019268036,-51.49563980102539,5.108443260192871,17.10944366455078,-1.1079000234603882,-1.3483383655548096,0.0064559997990727425,,,,,,,,,
1739355177.616915,0.32723449863117204,1.1545174600654025,0.30661174397506563,-1.2223364087641602,-1.401129368432336,1.0699728188420694,0.09724881591342402,-0.0008412642306696234,-0.0023623572199168857,0.0010543147895028043,-8.127644105035248e-05,0.0007124429047312629,0.00019272476251017977,0.001312179468196372,-0.2825433909893036,-51.42026138305664,5.108443260192871,17.10944366455078,-1.1271260976791382,-1.3547470569610596,-0.03382720425724983,,,,,,,,,
1739355177.6289053,0.32723519566581044,1.1545212593695582,0.30660996115404293,-1.2223351942564675,-1.401128749331175,1.0699735765021479,0.09724491541145096,-0.0007113345145792492,-0.0011424059131203907,-0.000882903359258155,-0.0003778421559446978,0.0009622038563335371,-7.612780852328375e-05,-0.0015464772139090767,-0.3063471019268036,-51.47183609008789,5.132246971130371,17.13324737548828,-1.1335347890853882,-1.3611557483673096,-0.0008682189509272575,,,,,,,,,
1739355177.6389344,0.3272344456334133,1.154524953223446,0.30661174397506874,-1.2223386300275445,-1.401127991671879,1.0699728188420694,0.09724632174188604,-2.5567400723895412e-05,0.00044082029614734696,-1.0909889097711388e-05,-0.0010774667408649664,0.0010055268055541812,-4.660868156186781e-06,-0.0007129673478570859,-0.2825433909893036,-51.49563980102539,5.108443260192871,17.10944366455078,-1.1399434804916382,-1.3547470569610596,-0.0008682189509272575,,,,,,,,,
1739355177.649856,0.32723513442621155,1.1545257483689602,0.30660996129805207,-1.22233440877825,-1.4011289077689342,1.0699735765021479,0.09725224414418979,0.0003379339461115359,0.0009969039012214648,-0.0010630000042114705,-2.3493260570992816e-05,-0.000811865085227778,-0.0005129998145503345,-0.0005139885574838024,-0.2825433909893036,-51.49563980102539,5.132246971130371,17.08167266845703,-1.1335347890853882,-1.3611557483673096,-0.05396880581974983,,,,,,,,,
1739355177.6599069,0.3272382764953907,1.1545220886092828,0.30660985588335815,-1.2223363826002633,-1.401129506994719,1.069972805760117,0.09725058107393583,0.0004533382063222237,0.0012584120680918603,-0.0005409574636056481,-0.0005461548841446345,0.0005439784917768122,-0.00032228172068798157,0.0011645728998755758,-0.3063471019268036,-51.47183609008789,5.132246971130371,17.10944366455078,-1.1271260976791382,-1.3547470569610596,-0.04756011441349983,,,,,,,,,
1739355177.6708245,0.32723445449169003,1.1545250606552506,0.30660628763635833,-1.2223398125554976,-1.4011287493319573,1.0699751956987338,0.09724252056490956,-0.0006057052000354898,0.0008343861405770211,-0.0011118510420954687,-0.0016974359472054106,-0.0009661259107569235,0.0006547805770407383,-0.002678618819149153,-0.2825433909893036,-51.49563980102539,5.156050682067871,17.15705108642578,-1.1335347890853882,-1.3748886585235596,0.019273381680250168,,,,,,,,,
1739355177.680932,0.3272378442003723,1.154525638244373,0.30660996115802125,-1.222334263319917,-1.4011283872889297,1.0699728188419955,0.09724677196984091,0.0004687025995942639,-0.00016003498948498254,-0.0006077355206852578,0.0013168317281819152,0.0006617070529021112,6.384852964692552e-05,-0.0017987450620882538,-0.3301508128643036,-51.49563980102539,5.132246971130371,17.10944366455078,-1.1335347890853882,-1.3547470569610596,-0.013685601763427258,,,,,,,,,
1739355177.6929288,0.32723613266018914,1.1545257144725218,0.306607362977055,-1.2223362500965966,-1.4011293863089829,1.0699728188420694,0.09724919261916493,-3.8663799697522875e-05,-4.241237031010572e-05,-0.0006314722292524584,0.0004619820637879529,0.0011451884096644242,5.465883756133594e-05,-8.375552059477451e-05,-0.3063471019268036,-51.49563980102539,5.132246971130371,17.10944366455078,-1.1271260976791382,-1.3547470569610596,-0.03382720425724983,,,,,,,,,
1739355177.70295,0.327237844092782,1.1545266700627763,0.3066117478486505,-1.2223343293000146,-1.401127006264185,1.0699728188420694,0.09724880486576473,0.0010469760229572774,0.0004671117385236902,0.0007354029185827945,0.0019605058577404893,0.00022815636890982747,-6.829093844425746e-05,6.46661002527319e-05,-0.3301508128643036,-51.51944351196289,5.108443260192871,17.08167266845703,-1.1207174062728882,-1.3547470569610596,-0.03382720425724983,,,,,,,,,
1739355177.7139084,0.3272361405456986,1.1545276832072509,0.3066117468912782,-1.2223364607644789,-1.4011310221282556,1.0699728188420694,0.0972445931805375,0.000731039869022684,0.001627559223302373,0.0006508735074733888,-0.0003578162575344054,0.0009427829471733394,0.00030450296266772815,-0.0006787654954879241,-0.3063471019268036,-51.51944351196289,5.108443260192871,17.10944366455078,-1.1143087148666382,-1.3547470569610596,-0.0072769103571772575,,,,,,,,,
1739355177.7248368,0.32723441915836154,1.154521341597666,0.30661382333291576,-1.2223333477187228,-1.4011310222570104,1.0699735634201955,0.09724641628184309,0.0006650598845930331,-0.0008068235282688546,0.0006148197865510419,0.0018524880759491014,-0.000859758190317642,-0.00021303576817866161,-0.0002930859503707055,-0.2825433909893036,-51.44406509399414,5.080672264099121,17.08167266845703,-1.1143087148666382,-1.3611557483673096,-0.013685601763427258,,,,,,,,,
1739355177.7348394,0.3272343185362957,1.1545252820517395,0.3066138237649194,-1.2223362487103164,-1.4011254909447086,1.0699735765019263,0.09725148648142566,-0.0001179509551724005,0.0008154393766983058,-0.00017533026966147858,-0.000721364504241572,0.0012444869577551225,-5.5340351601796244e-05,0.0009986924135120668,-0.2825433909893036,-51.49563980102539,5.080672264099121,17.10944366455078,-1.1335347890853882,-1.3611557483673096,-0.04756011441349983,,,,,,,,,
1739355177.7448797,0.3272345669829663,1.1545200906605326,0.3066100662807186,-1.22233423388555,-1.4011291321308483,1.069974334162226,0.09725437336991322,-0.00010060321591450101,-0.00136315679450367,-0.0007791354054811069,0.00011891251138480472,-0.0004350731784353412,-0.00021501989422844349,0.0008992993174183919,-0.2547723948955536,-51.44406509399414,5.132246971130371,17.10944366455078,-1.1271260976791382,-1.3675644397735596,-0.05396880581974983,,,,,,,,,
1739355177.7549603,0.32723537286896665,1.1545249522926815,0.3066099627039191,-1.2223343339283632,-1.4011295069856875,1.0699752000594585,0.09724860743257414,6.968807754383197e-05,-0.0002029617751678379,0.0004357595701770264,0.0009464003352179217,-0.0008356747559783857,0.00021997160674009823,0.0009285073506197467,-0.2825433909893036,-51.49563980102539,5.132246971130371,17.10944366455078,-1.1271260976791382,-1.3748886585235596,-0.020094294100999832,,,,,,,,,
1739355177.7659018,0.32723640542427657,1.1545231124683544,0.30661174397507907,-1.2223356898987303,-1.4011293801307463,1.069973576286807,0.09725129783388707,0.0009286854936509157,0.0010476241476969255,-0.00013519533457676818,5.858327845554903e-05,1.646631312139449e-05,0.0005229614270056018,0.0015325914915704838,-0.3063471019268036,-51.49563980102539,5.108443260192871,17.10944366455078,-1.1271260976791382,-1.3611557483673096,-0.05396880581974983,,,,,,,,,
1739355177.77691,0.3272344191598568,1.154517777202794,0.30660817862103307,-1.2223382581546343,-1.4011295069913194,1.0699743341622248,0.09725081617514021,-4.759356196155321e-05,-0.0008798978213798393,0.00033489844882089666,-3.084054840047512e-05,-0.0012204629392325674,0.00012053563527331248,-0.0005971425463688627,-0.2825433909893036,-51.42026138305664,5.156050682067871,17.13324737548828,-1.1271260976791382,-1.3675644397735596,-0.04756011441349983,,,,,,,,,
1739355177.7869222,0.3272344076025871,1.154523137831883,0.3066117439750712,-1.2223361324077056,-1.401127991671879,1.069973577955698,0.09725469831481932,-0.0005059495735817985,-0.0006785353363542143,0.0006614533105359561,0.0011400976862096285,0.0006868912158536473,0.0003220724566752036,7.284558419789366e-05,-0.2825433909893036,-51.49563980102539,5.108443260192871,17.10944366455078,-1.1399434804916382,-1.3611557483673096,-0.04756011441349983,,,,,,,,,
1739355177.7978382,0.32723615813426493,1.1545212594409822,0.306611747863318,-1.2223373171287029,-1.4011280593044424,1.0699721638128223,0.09724879834308636,-0.00012850135695921842,0.00032134517676840905,1.4298147264524879e-05,0.0008306714437297994,3.2349924542654062e-06,-0.0004953448827257743,-0.0007728409884808998,-0.3063471019268036,-51.47183609008789,5.108443260192871,17.13324737548828,-1.1271260976791382,-1.3611557483673096,-0.03382720425724983,,,,,,,,,
1739355177.8079102,0.3272378442002219,1.1545238015029098,0.30661594966398953,-1.2223382408093981,-1.4011294667405159,1.0699728188181454,0.0972480800886894,0.0012894393455026697,0.00019885790665751324,0.0014384313440987612,-0.0008165692223475885,-0.0007951068014276621,-0.0007012910879564523,0.000512056730432224,-0.3301508128643036,-51.49563980102539,5.080672264099121,17.13324737548828,-1.1271260976791382,-1.3547470569610596,-0.027418512850999832,,,,,,,,,
1739355177.8179424,0.32723610567866274,1.1545232153474136,0.306611744083078,-1.2223369417201362,-1.4011298608901492,1.0699734587645766,0.09724967427049211,-0.00011432320048400239,0.0012421003013155718,0.0006381479292365847,-0.0005990208905111635,0.0026252905270350746,-0.0004817189524996283,-0.00044740902343910755,-0.3063471019268036,-51.49563980102539,5.108443260192871,17.15705108642578,-1.1207174062728882,-1.3611557483673096,-0.04023589566349983,,,,,,,,,
1739355177.8288505,0.32723615816994706,1.154523191821141,0.30660817862103323,-1.2223372351082848,-1.401129502521609,1.0699743361000715,0.0972508950343382,0.0005255666441395406,-0.0005414925826022941,-0.0012489911985711262,-0.00034029715954608537,0.0007901039604809458,0.0003287749769084002,-0.0001968263713265082,-0.3063471019268036,-51.49563980102539,5.156050682067871,17.13324737548828,-1.1271260976791382,-1.3675644397735596,-0.04756011441349983,,,,,,,,,
1739355177.838928,0.3272382774467033,1.1545296556318194,0.3066117673045526,-1.2223358033132627,-1.4011287473453629,1.069974332224192,0.0972451418742268,0.0013816725390782547,0.002053940574837419,-0.0008270917556747679,0.0015184950024211502,0.0006482046457068386,0.00013666256177659954,0.00040788586388505483,-0.3063471019268036,-51.54721450805664,5.108443260192871,17.13324737548828,-1.1335347890853882,-1.3675644397735596,0.0064559997990727425,,,,,,,,,
1739355177.8498578,0.3272368469468929,1.1545211740392187,0.3066138698741998,-1.2223343417654475,-1.4011302646521027,1.069974334162215,0.09725042188249981,0.000494666363252208,-0.002128956742720897,0.00046453973533426595,0.00019632556902020895,0.00015252296229108925,0.00022005529306272034,-0.000884540527660934,-0.3063471019268036,-51.47183609008789,5.108443260192871,17.10944366455078,-1.1207174062728882,-1.3675644397735596,-0.04756011441349983,,,,,,,,,
1739355177.8608298,0.3272361316830804,1.1545266656377102,0.30661385877114966,-1.2223372371006538,-1.4011282680614707,1.0699735765021479,0.09724510048924058,-0.00018203239913143992,0.0013649000696341791,0.0015789896879541136,-0.0012191564584157879,0.0009187332519398933,0.0004350101710629908,-0.0024186905655016713,-0.3063471019268036,-51.51944351196289,5.080672264099121,17.13324737548828,-1.1335347890853882,-1.3611557483673096,0.0064559997990727425,,,,,,,,,
1739355177.8709126,0.3272344191583116,1.154521174126979,0.3066146164180673,-1.2223363727712857,-1.4011295069838854,1.0699728188420694,0.09725361570983487,0.00018666998552569944,-0.001071962666797743,0.0015173217251559454,-0.0007986610962174257,0.00045585301071279316,-0.00033718370727920765,0.0010082571758570436,-0.2825433909893036,-51.47183609008789,5.108443260192871,17.10944366455078,-1.1271260976791382,-1.3547470569610596,-0.04756011441349983,,,,,,,,,
1739355177.8809361,0.32723441915831153,1.1545252129391304,0.3066100401917039,-1.2223352924786148,-1.4011295069920355,1.0699696399276812,0.09725437405502245,-0.0006737548507377342,0.00022669613091693875,0.0008600055614751687,0.00014767421983647892,-0.0009958556824519928,-0.0011127336761501466,0.001342349097406493,-0.2825433909893036,-51.49563980102539,5.132246971130371,17.13324737548828,-1.1271260976791382,-1.3547470569610596,-0.05396880581974983,,,,,,,,,
1739355177.8918986,0.3272345370048977,1.1545221580121854,0.3066099875441641,-1.222331217051775,-1.4011295462378923,1.0699735764303675,0.09725131542228545,-0.00034052308494132515,-0.0007024813197470636,-0.0002657224848846029,0.0019454377752022452,6.379549836950716e-05,-8.76608232362279e-05,0.0022308231026314383,-0.2825433909893036,-51.44406509399414,5.132246971130371,17.08167266845703,-1.1271260976791382,-1.3611557483673096,-0.05396880581974983,,,,,,,,,
1739355177.902857,0.3272362111525677,1.1545238902251946,0.3066116652382194,-1.2223313088786096,-1.4011302650816713,1.069972818842069,0.09724717476240206,5.744847572256755e-06,0.0019149341080131406,-0.00042905743299945166,-0.00019328890565913873,-0.0002751784096779968,-0.00021829181868605971,-0.0011378116233098472,-0.3063471019268036,-51.49563980102539,5.108443260192871,17.08167266845703,-1.1207174062728882,-1.3547470569610596,-0.020094294100999832,,,,,,,,,
1739355177.913902,0.3272361581704446,1.1545221680352624,0.30660964432129634,-1.2223350555343868,-1.4011262083777873,1.0699720211450703,0.09725356075328348,0.0002480370246812584,0.00011619640547299522,-3.640521652103655e-05,0.00026430100327145243,0.0009320859134095992,-0.0003448613327819976,0.0017122988296514384,-0.3063471019268036,-51.47183609008789,5.108443260192871,17.13324737548828,-1.1271260976791382,-1.3748886585235596,-0.07411040365695953,,,,,,,,,
1739355177.9239023,0.3272307351881292,1.154519867447875,0.30660996126249423,-1.2223336185473346,-1.4011290220600747,1.0699743339468852,0.09725274995683594,-0.0016336232032546024,-0.0010155071004022125,-0.0005381155925345197,-0.00026185551400133267,0.0010800668433344127,0.00014416674700343222,0.0008152164535093478,-0.2309686839580536,-51.42026138305664,5.132246971130371,17.10944366455078,-1.1271260976791382,-1.3675644397735596,-0.04023589566349983,,,,,,,,,
1739355177.934849,0.32723513779370267,1.1545246032047987,0.3066100662807184,-1.2223357630082694,-1.4011308376448581,1.0699735765021465,0.0972527498126034,-0.00015508512068336219,0.0009434605747034176,0.00011058007577420461,0.00016778699577440457,-0.00045524586962994445,0.00015159421929927,0.000729731866914657,-0.2825433909893036,-51.51944351196289,5.132246971130371,17.10944366455078,-1.1335347890853882,-1.3611557483673096,-0.04023589566349983,,,,,,,,,
1739355177.9449043,0.32723242221077503,1.1545212760263002,0.3066139287493711,-1.22233530031746,-1.4011295055375126,1.0699735765021479,0.09725193871086477,-0.0011533236948408818,-0.00015178914612317058,0.0019265171877180724,-0.001196249517671329,-0.0003046283341535855,-0.00031815263884339977,0.00039195274849157026,-0.2547723948955536,-51.47183609008789,5.080672264099121,17.13324737548828,-1.1271260976791382,-1.3611557483673096,-0.06037749722599983,,,,,,,,,
1739355177.9549363,0.3272344195943934,1.1545229942175346,0.30660996129983004,-1.2223335083360327,-1.4011279916718544,1.0699735765021479,0.09724440389575134,-0.0004909343424115291,-0.00017128114318423502,0.0005291293707107748,-0.0001729576925957757,0.0002775539819120681,3.833635035167426e-05,-0.002366734182393223,-0.2825433909893036,-51.49563980102539,5.132246971130371,17.10944366455078,-1.1399434804916382,-1.3611557483673096,0.0064559997990727425,,,,,,,,,
1739355177.9658897,0.32723621409534415,1.1545249868157268,0.30661382765317363,-1.2223352944260453,-1.4011238137513948,1.0699728144814185,0.09724420674869515,4.975939018631462e-05,0.0006568231563764353,0.0005527502947103711,-6.5311282962096e-05,0.002885424952763402,-0.00011395994152009278,0.0012269628177439865,-0.3063471019268036,-51.49563980102539,5.080672264099121,17.13324737548828,-1.1472676992416382,-1.3547470569610596,0.0064559997990727425,,,,,,,,,
1739355177.9759316,0.3272361326615849,1.1545267419927847,0.30661594966398953,-1.2223350892238387,-1.4011272473022105,1.0699728144813447,0.0972471747645286,-0.0003195321749221696,0.0008993309715456192,0.0013676312234053383,-0.0004781221755642502,0.0029986389128000153,0.0002641229229170821,0.0011107230355805375,-0.3063471019268036,-51.51944351196289,5.080672264099121,17.13324737548828,-1.1335347890853882,-1.3547470569610596,-0.020094294100999832,,,,,,,,,
1739355177.9859946,0.3272344201395079,1.1545231127407019,0.3066117444070986,-1.2223313000136622,-1.4011295199976768,1.0699728188418478,0.09725117953633496,-0.0005517563369267793,-0.00040378685153084063,-0.00010798856597882712,0.00014138723086345886,-0.0003343232244803656,1.9619248547406848e-05,0.0004378137175306809,-0.2825433909893036,-51.49563980102539,5.108443260192871,17.08167266845703,-1.1271260976791382,-1.3547470569610596,-0.05396880581974983,,,,,,,,,
1739355177.996837,0.3272363700976237,1.1545240395890033,0.3066127968021106,-1.222336862085505,-1.4011291025446915,1.0699728188420694,0.0972449023401945,0.00031317614240095883,-0.00017175271452479052,0.0006794375978488668,-0.0005257175592367581,-0.0001996815304192708,-3.3553897629765855e-05,-0.0013865525561183763,-0.3063471019268036,-51.47183609008789,5.132246971130371,17.15705108642578,-1.1335347890853882,-1.3547470569610596,-0.0008682189509272575,,,,,,,,,
1739355178.0068903,0.3272325020106263,1.1545252140296514,0.306611012973067,-1.2223372346612689,-1.4011254953233054,1.0699735750485975,0.0972464185618387,-0.0010806088375186998,0.0007516673864004238,-0.0001412765456279589,-0.000959251939582965,0.0018310699152759965,-0.00023407058014976033,-0.00123128049914038,-0.2547723948955536,-51.49563980102539,5.156050682067871,17.13324737548828,-1.1335347890853882,-1.3611557483673096,-0.013685601763427258,,,,,,,,,
1739355178.0168982,0.32723613167949883,1.1545221582221488,0.3066117440270734,-1.2223311901720593,-1.4011337454710031,1.0699743341622179,0.09724063673782753,-0.00013425891016605293,-0.00019812208988668865,0.0007504621450828416,0.0010180731172237064,-0.0017247629980395541,0.00069001396861072,-0.002713034468776599,-0.3063471019268036,-51.44406509399414,5.108443260192871,17.08167266845703,-1.1271260976791382,-1.3675644397735596,-0.0008682189509272575,,,,,,,,,
1739355178.0279045,0.32723827744625467,1.1545255263564782,0.3066100439232992,-1.2223368617582497,-1.401128761775663,1.0699735765021479,0.09724809627590089,0.001712630502397151,0.00019398574442579627,0.0003199204370049246,-0.0014270116353272602,0.00026157994519469645,0.0007621954924108289,0.0003668245605830381,-0.3063471019268036,-51.51944351196289,5.132246971130371,17.15705108642578,-1.1335347890853882,-1.3611557483673096,-0.0008682189509272575,,,,,,,,,
1739355178.038891,0.32723616701242664,1.154525286853633,0.30661177184130706,-1.2223332699497464,-1.4011282666079907,1.0699735765021479,0.09724879855332894,0.0008953477512746453,-2.5326772444116043e-05,0.00014987092294388102,0.00048120230399088294,0.000792281873107855,3.186766593122803e-05,-0.00045614079377221745,-0.3063471019268036,-51.51944351196289,5.108443260192871,17.10944366455078,-1.1335347890853882,-1.3611557483673096,-0.03382720425724983,,,,,,,,,
1739355178.0503597,0.3272382784276005,1.154525284052851,0.30661174397522845,-1.2223332699132583,-1.4011295069893108,1.0699735765021479,0.0972530567937669,0.0010153299210983156,0.001056530184106323,0.0003054327399497227,0.00031919422087792713,0.00022826638532227365,0.0003486388028057062,0.0009767982913778252,-0.3063471019268036,-51.51944351196289,5.108443260192871,17.10944366455078,-1.1271260976791382,-1.3611557483673096,-0.03382720425724983,,,,,,,,,
1739355178.0608463,0.32723613169116117,1.1545248276757427,0.30660996162207266,-1.2223308673922506,-1.4011246796486272,1.0699728188420694,0.09724502204194554,0.0006792723983443595,0.0003957815446744382,-0.0008770586253491132,0.00031915367327907585,0.0015166465835922895,0.00016531266385925268,-0.002153107859800201,-0.3063471019268036,-51.51944351196289,5.132246971130371,17.05786895751953,-1.1399434804916382,-1.3547470569610596,-0.0008682189509272575,,,,,,,,,
1739355178.0708957,0.32723621115190266,1.1545228858817338,0.3066103365980725,-1.2223330404587376,-1.401129506770403,1.0699720568213402,0.09725062691448676,0.0009864278107383838,6.318624725042075e-05,-3.316505150117153e-05,0.0004866416912381483,-0.00021059160918308648,-0.00037905881170012225,0.00215213902989286,-0.3063471019268036,-51.49563980102539,5.156050682067871,17.10944366455078,-1.1271260976791382,-1.3483383655548096,-0.04023589566349983,,,,,,,,,
1739355178.081822,0.32723465855848566,1.1545231249141534,0.3066117440232553,-1.2223332964029163,-1.4011314142741278,1.0699720611819665,0.0972500296297166,-1.528554695177328e-05,-0.00026193753827664137,0.0007112199249690227,-0.00010058955281311168,-0.0004261163691138064,-0.0001094382778614677,0.0002079103871418257,-0.2825433909893036,-51.49563980102539,5.108443260192871,17.10944366455078,-1.1143087148666382,-1.3483383655548096,-0.04023589566349983,,,,,,,,,
1739355178.0918772,0.3272361444380004,1.1545229605217042,0.3066115080880929,-1.2223350525907257,-1.4011299026157242,1.0699728190035749,0.09725193720443448,0.00034977371193919016,-0.0005363124631221312,-0.0009169829992477169,-1.6985902757337323e-05,-0.0001420005349462247,0.0004749428896752844,0.0005434871263381024,-0.3063471019268036,-51.49563980102539,5.108443260192871,17.13324737548828,-1.1207174062728882,-1.3547470569610596,-0.06037749722599983,,,,,,,,,
1739355178.102913,0.3272362376429277,1.1545259821529097,0.3066118227467417,-1.2223311862391932,-1.401129506989992,1.0699735706879476,0.09724965034681742,0.00010373414839497893,0.001108441318571208,-0.00035901638811750724,0.0016457181880999857,-0.0006824599000179047,0.0003118270860067195,-0.0011019217222945307,-0.3063471019268036,-51.49563980102539,5.108443260192871,17.08167266845703,-1.1271260976791382,-1.3611557483673096,-0.013685601763427258,,,,,,,,,
1739355178.1138976,0.3272368587454739,1.154522909620464,0.3066141388213778,-1.222334008825504,-1.4011294533560317,1.069973576502115,0.09725225746530616,0.0008003451181572295,-0.0005627048035126273,0.0011074052196868292,0.00031901071142513364,8.003947845571473e-05,-0.00021544890592449533,0.0028927917555618718,-0.3063471019268036,-51.49563980102539,5.080672264099121,17.10944366455078,-1.1271260976791382,-1.3611557483673096,-0.05396880581974983,,,,,,,,,
1739355178.1248467,0.3272344319173192,1.154525972669553,0.3066138266828904,-1.2223368357075326,-1.4011298602044426,1.0699739297148576,0.09725165881044849,-0.0005606164357770887,0.0019512247556294094,0.0011272215370943136,-0.0015752947650968167,-0.00013628162212052467,0.00024349972310642377,0.0019315101366880337,-0.2825433909893036,-51.49563980102539,5.080672264099121,17.15705108642578,-1.1271260976791382,-1.3611557483673096,-0.04756011441349983,,,,,,,,,
1739355178.1349354,0.3272378485606407,1.154522041175153,0.3066110353421216,-1.2223351585540976,-1.4011326859124054,1.0699743341682078,0.0972532630522522,0.0011184133772853223,-1.0235103140863837e-05,-0.000941417088258288,0.00029062997280833783,-0.0004254254627602354,-0.00013658727486166855,0.0008222777182032996,-0.3301508128643036,-51.44406509399414,5.108443260192871,17.13324737548828,-1.1271260976791382,-1.3675644397735596,-0.04023589566349983,,,,,,,,,
1739355178.1458523,0.32723442210182463,1.1545252939305304,0.30661175314365335,-1.2223368352690909,-1.401128984094831,1.0699688822676032,0.09725153446750878,-0.00040413147169204974,0.0011761825705999636,0.00012302507427249746,-0.0009014475053314222,0.0005229153451215003,-0.0010919216812842166,0.0014118113640047949,-0.2825433909893036,-51.51944351196289,5.108443260192871,17.15705108642578,-1.1271260976791382,-1.3483383655548096,-0.05396880581974983,,,,,,,,,
1739355178.1568456,0.3272344191583171,1.1545258940982497,0.30661007826949715,-1.2223350525902772,-1.4011287478410843,1.069973576496166,0.09725229931464693,-4.625503282846606e-05,-1.739642711213568e-05,0.0006091335144876336,-0.00024793440006983826,0.00044567848660276787,0.00014044028317108579,0.0009600155685275076,-0.2825433909893036,-51.49563980102539,5.132246971130371,17.13324737548828,-1.1335347890853882,-1.3611557483673096,-0.027418512850999832,,,,,,,,,
1739355178.1678865,0.3272375454178419,1.1545191836555442,0.30661174397705204,-1.222335065454197,-1.401130382551164,1.0699743341622259,0.09724917127061389,0.0012435236117345437,0.00017222040527730884,0.00045148078688106257,-0.00028152517970827764,-0.0001864854987895636,0.0006307534181775914,-0.0011264824454264417,-0.2825433909893036,-51.44406509399414,5.108443260192871,17.13324737548828,-1.1207174062728882,-1.3675644397735596,-0.03382720425724983,,,,,,,,,
1739355178.1778905,0.32723708537100693,1.1545221693017946,0.3066117439750712,-1.2223332699496696,-1.4011276614562926,1.0699728188420694,0.09725040416533882,0.0013973836791291443,-0.0007990307664338224,-0.000117255337428283,-0.000704328007332071,-0.0010222618044405068,-0.00020709652431065556,0.0006640354692251016,-0.3063471019268036,-51.44406509399414,5.108443260192871,17.10944366455078,-1.1271260976791382,-1.3547470569610596,-0.0072769103571772575,,,,,,,,,
1739355178.1879208,0.32723444534442325,1.1545211790766674,0.3066117439750712,-1.2223350271894873,-1.401129506795238,1.0699720611819912,0.09724566536317557,0.00025541888664293224,-0.0016750182193358187,0.00010842605369960044,6.864153827280587e-05,-0.00010175923251172747,0.00010187110248279494,-0.0006341515955684035,-0.2825433909893036,-51.47183609008789,5.108443260192871,17.13324737548828,-1.1271260976791382,-1.3483383655548096,-0.0072769103571772575,,,,,,,,,
1739355178.1988537,0.32723667481436547,1.1545201246331258,0.30661477282119287,-1.2223332738374137,-1.4011280583232926,1.0699728188420694,0.09724879880583395,0.0010177406961865974,-0.0011082350620340883,0.0015050588948274865,0.0008810368944258862,0.0005340840558404004,-0.0002648903946535004,-0.0015334079577245007,-0.2825433909893036,-51.44406509399414,5.080672264099121,17.10944366455078,-1.1271260976791382,-1.3547470569610596,-0.03382720425724983,,,,,,,,,
1739355178.2088623,0.32723613299997123,1.154527290568431,0.30660996259949186,-1.2223337015516844,-1.4011310221384714,1.0699735765021479,0.09724955808844116,0.000831638425142706,0.00029564916714256887,-0.001079655017741724,-0.0005678348177595628,-0.0007649109805909376,-0.00016819066436981998,-0.0011488350849686204,-0.3063471019268036,-51.54721450805664,5.132246971130371,17.13324737548828,-1.1143087148666382,-1.3611557483673096,-0.04023589566349983,,,,,,,,,
1739355178.2188995,0.32723442057554536,1.1545235511348206,0.30661174537918234,-1.2223311901005227,-1.4011295025223658,1.0699703583419031,0.09725003124633327,-0.0005287643404276891,-0.0001169234127746787,-0.0005011971672279563,0.0014618262306102094,-0.0005534539337823173,-0.0011366055022814445,-0.0002983924122506779,-0.2825433909893036,-51.47183609008789,5.108443260192871,17.08167266845703,-1.1271260976791382,-1.3611557483673096,-0.04023589566349983,,,,,,,,,
1739355178.2298326,0.3272344221017588,1.1545266643913854,0.3066139748567426,-1.2223294079187872,-1.4011295075828516,1.0699735735768807,0.09725062496798134,-4.5991549297422056e-05,-0.0006596022580375527,0.0008534221621960156,0.001050607253212293,-0.001353984801870491,0.00028188241307860963,0.000737878298298924,-0.2825433909893036,-51.51944351196289,5.108443260192871,17.05786895751953,-1.1271260976791382,-1.3611557483673096,-0.04023589566349983,,,,,,,,,
1739355178.239932,0.3272344221018006,1.1545273588466163,0.30660913268339485,-1.2223352910088643,-1.4011243712416137,1.0699735765020981,0.09724881586141432,5.045277550127673e-05,0.0014223043462370153,-0.0008772736180385584,-0.0005221072301163089,0.0010787941454278769,-0.0004287942879952418,-0.00036815558194400286,-0.2825433909893036,-51.51944351196289,5.156050682067871,17.13324737548828,-1.1399434804916382,-1.3611557483673096,-0.03382720425724983,,,,,,,,,
1739355178.2509072,0.32723827744627126,1.1545273544180732,0.3066099613034378,-1.2223332700599592,-1.4011297819076398,1.0699728188420694,0.09725117953643383,0.0005789079827618062,0.0012802955910730923,0.0005441726516103439,0.0004030498792265988,0.0006087641764875127,-0.00010651841104844635,0.0015332650345307051,-0.3063471019268036,-51.51944351196289,5.132246971130371,17.10944366455078,-1.1207174062728882,-1.3547470569610596,-0.05396880581974983,,,,,,,,,
1739355178.2618802,0.3272361583274639,1.1545248134291788,0.3066168945079224,-1.2223368352672972,-1.4011266777931368,1.069974334162226,0.0972488158433109,-0.00013224587841326077,-0.00010112681675373717,0.0012731762893755296,-0.0002785593606659439,-6.516798260448891e-05,0.0006452678197431083,-0.0012399891321783906,-0.3063471019268036,-51.51944351196289,5.080672264099121,17.15705108642578,-1.1143087148666382,-1.3675644397735596,-0.03382720425724983,,,,,,,,,
1739355178.2718906,0.32723443125956864,1.154523937658017,0.30660612512884744,-1.2223352910088563,-1.4011279915983041,1.0699735765021479,0.09724955743968462,-0.00013009461372892768,0.0004218073604248638,-0.0006242337893109223,-0.0006455891896938453,0.00026935683803957117,-0.0005127702731535003,-0.0009589527323511592,-0.2825433909893036,-51.47183609008789,5.183821678161621,17.13324737548828,-1.1399434804916382,-1.3611557483673096,-0.04023589566349983,,,,,,,,,
1739355178.2829013,0.32723613215151487,1.1545267635983718,0.306611849065893,-1.22233505641123,-1.4011273011598466,1.069974334162226,0.09724641715554233,-0.0003345611193839459,0.001037168499563371,-4.635191027468327e-05,-0.0014535194323057493,0.0004873289611477445,0.00021528079915032953,-0.0017989540096557323,-0.3063471019268036,-51.51944351196289,5.108443260192871,17.13324737548828,-1.1335347890853882,-1.3675644397735596,-0.013685601763427258,,,,,,,,,
1739355178.2938552,0.32723899564543385,1.154519872381571,0.30661174408367126,-1.2223339851690171,-1.4011302648054447,1.0699728188420694,0.09724490827179577,0.001138205878848181,-0.0006355005149338612,0.00030006164313086997,-0.00089841465107459,-0.0008082753470092204,0.00023386127701665427,-0.0007368039088550536,-0.3063471019268036,-51.44406509399414,5.108443260192871,17.10944366455078,-1.1207174062728882,-1.3547470569610596,-0.0008682189509272575,,,,,,,,,
1739355178.3039112,0.327238595386195,1.154522916753371,0.30661390486829215,-1.2223350526023902,-1.4011302601824496,1.069974334162226,0.09724491930576493,0.0011886165781455713,3.906837885535758e-05,0.0002832151500827674,-0.0014239087037566794,3.515181206356925e-05,0.0005569695826854167,-0.0005699715342107828,-0.3063471019268036,-51.49563980102539,5.108443260192871,17.13324737548828,-1.1207174062728882,-1.3675644397735596,-0.0008682189509272575,,,,,,,,,
1739355178.3148293,0.3272375322369367,1.154527664929833,0.306612087233644,-1.2223294074463835,-1.4011247332845556,1.0699728188420694,0.09725042187655325,0.0007458032064193452,0.001982886446179808,0.00016961521494321635,0.0005691179092745043,0.0007288474051138046,0.000324632728653645,-1.20844073023077e-05,-0.3301508128643036,-51.51944351196289,5.132246971130371,17.05786895751953,-1.1399434804916382,-1.3547470569610596,-0.04756011441349983,,,,,,,,,
1739355178.3248947,0.3272353728308669,1.1545214097162813,0.30661174539116126,-1.2223305013586185,-1.4011270062464725,1.0699728188420694,0.09725209491569954,0.0008127728308327416,-0.00022447695278286517,0.0005376304512959947,0.0009937747990683137,3.2579630881919406e-05,0.00066520444152797,0.002261673301817444,-0.2825433909893036,-51.47183609008789,5.108443260192871,17.08167266845703,-1.1207174062728882,-1.3547470569610596,-0.06037749722599983,,,,,,,,,
1739355178.3359647,0.3272389956508147,1.1545235426210936,0.3066124526080781,-1.2223385414110068,-1.4011291461634403,1.0699731720547792,0.09724955597991441,0.0005771535502139793,-0.0011277909109347574,0.000535324640232502,-0.001484499340300929,0.0009603274496026006,0.00046672209416186714,0.0006297346528855077,-0.3063471019268036,-51.47183609008789,5.108443260192871,17.18085479736328,-1.1271260976791382,-1.3547470569610596,-0.04023589566349983,,,,,,,,,
1739355178.3469355,0.3272368824135689,1.154522165235329,0.30660996228211457,-1.2223311561090306,-1.4011298124798732,1.0699735765081295,0.09725118002312275,-0.00022673807858939707,-0.0003951810100936108,-0.0009056309933062204,0.0003805180770957731,0.00011741793179316344,0.00027552253814334715,0.0010474861459982146,-0.3063471019268036,-51.47183609008789,5.132246971130371,17.08167266845703,-1.1143087148666382,-1.3611557483673096,-0.05396880581974983,,,,,,,,,
1739355178.3578506,0.32723071265906434,1.1545222627695753,0.3066137975552642,-1.222332986295861,-1.401128788409994,1.0699720611819912,0.0972463212548682,-0.0015113884097592688,-0.0005636779865368757,0.0011156197082630923,0.0006299914194655845,-0.000875741079745461,0.0001547098247514463,-0.0012797050273291696,-0.2309686839580536,-51.44406509399414,5.080672264099121,17.13324737548828,-1.1335347890853882,-1.3483383655548096,-0.0008682189509272575,,,,,,,,,
1739355178.3678877,0.32723539932364826,1.1545296633423627,0.3066081786205892,-1.2223368266240557,-1.4011302302399737,1.069973693755201,0.09724492079005768,-0.0008881641820581797,0.0029069391867487175,-0.0025821604191607903,-0.0001725597327804318,-0.0008283076754372118,-0.00020728603430347097,-0.00045580504727503056,-0.2825433909893036,-51.54721450805664,5.156050682067871,17.15705108642578,-1.1207174062728882,-1.3611557483673096,-0.0008682189509272575,,,,,,,,,
1739355178.3788168,0.3272364495760146,1.1545239043977862,0.30660996129805207,-1.2223350539347622,-1.4011302646519197,1.069974332224821,0.0972504658495393,0.00010115079028804691,-5.049139108054799e-05,-0.0009790591342385816,-0.0010045730362015278,7.098773759811627e-06,-0.0002102891620610998,-8.260004660556408e-05,-0.3063471019268036,-51.49563980102539,5.132246971130371,17.13324737548828,-1.1207174062728882,-1.3675644397735596,-0.04756011441349983,,,,,,,,,
1739355178.3888183,0.3272344293022081,1.1545239536283756,0.306613825061009,-1.2223354169886882,-1.401127656746689,1.0699743341621932,0.09724645847916451,-0.0014903901856683402,-0.0003460143646047331,-7.858925746220694e-05,-1.2591602297811237e-05,0.0004806653196629869,0.00027764241823284764,-0.0008321533114771407,-0.2825433909893036,-51.47183609008789,5.080672264099121,17.10944366455078,-1.1335347890853882,-1.3675644397735596,-0.013685601763427258,,,,,,,,,
1739355178.39892,0.3272379919328193,1.1545249872821493,0.3066141848220897,-1.222333269949619,-1.401129504987014,1.0699751956988075,0.09724804065956813,-0.000127974387132114,0.0006482497766120349,0.0008609553180293672,0.0007441500096346297,0.00026882413034565465,0.0003459662274590091,-0.0007133228070159424,-0.3063471019268036,-51.49563980102539,5.108443260192871,17.10944366455078,-1.1271260976791382,-1.3748886585235596,-0.027418512850999832,,,,,,,,,
1739355178.4099138,0.3272358209071837,1.1545256027647122,0.30660996133938806,-1.2223332670788358,-1.4011287622483324,1.0699748051124318,0.09725675456883272,-0.00033225239012519745,0.0011985264845429352,-0.00059672037974838,0.0005574177290945349,0.0005389995230232636,0.0017229574857699592,0.0021010304167355773,-0.3063471019268036,-51.51944351196289,5.132246971130371,17.10944366455078,-1.1335347890853882,-1.3675644397735596,-0.07411040365695953,,,,,,,,,
1739355178.4218993,0.3272344194968885,1.1545253643361653,0.3066119814821532,-1.2223304246892213,-1.4011247376453064,1.0699720568222266,0.0972465867668948,-0.0014298884076994153,0.0008083292745302917,5.024576352701592e-05,0.0015395665695592036,0.000194383341531031,-0.0001852361174765423,-9.553984600472651e-05,-0.2825433909893036,-51.51944351196289,5.108443260192871,17.08167266845703,-1.1399434804916382,-1.3483383655548096,-0.020094294100999832,,,,,,,,,
1739355178.4328856,0.3272378445268233,1.1545241548202136,0.306614661598394,-1.2223331932774189,-1.4011316774784364,1.0699728188420612,0.09725205597155945,0.0004744472768510974,0.0009060918576227556,0.0005964029570686646,0.0006512473604048593,-0.0016991126513398065,-2.3770718110519018e-05,0.0012858566241679115,-0.3301508128643036,-51.47183609008789,5.056868553161621,17.10944366455078,-1.1207174062728882,-1.3547470569610596,-0.06037749722599983,,,,,,,,,
1739355178.442938,0.3272344456492703,1.1545266619090027,0.30660817860503203,-1.2223347651924155,-1.401131035418071,1.0699735765021479,0.09724569887320127,-0.0011450075066710124,0.0006493221905426956,-0.0018699294985664778,0.00016143593621362022,-0.0004354598449199705,0.00030174736855192205,-0.0009855814322028747,-0.2825433909893036,-51.51944351196289,5.156050682067871,17.15705108642578,-1.1143087148666382,-1.3611557483673096,-0.0072769103571772575,,,,,,,,,
1739355178.4538445,0.327232434335899,1.1545256390589849,0.3066156064419457,-1.2223332699015725,-1.401127991671953,1.069974334162226,0.09724885283941548,-0.0012585155428581063,-6.605798162348487e-05,0.0012699584480938162,0.000581814615966315,0.0008739795152295498,0.0007421325169046215,-0.00047709408300780696,-0.2547723948955536,-51.49563980102539,5.056868553161621,17.10944366455078,-1.1399434804916382,-1.3675644397735596,-0.03382720425724983,,,,,,,,,
1739355178.464861,0.32723546113602753,1.1545266700934698,0.30661206896770854,-1.2223332964042113,-1.4011295069920358,1.069973537256291,0.09724641271446505,3.454609458442492e-05,0.0012684518661799915,-0.00015919068511091207,0.00027532711411927036,-0.00018555753980351004,-0.00033121913895267874,-0.001122534906658612,-0.2825433909893036,-51.51944351196289,5.108443260192871,17.10944366455078,-1.1271260976791382,-1.3611557483673096,-0.013685601763427258,,,,,,,,,
1739355178.4748907,0.3272351344199308,1.1545182510167546,0.30661406001376323,-1.2223325811136307,-1.401130264652114,1.0699735765019263,0.09724389106273358,-0.0011961936047407242,-0.0009748810886634042,0.00013193759368234384,0.0004881943885136317,0.0005116022458625138,-1.9575296949935915e-06,-0.0021612310799917337,-0.2825433909893036,-51.42026138305664,5.080672264099121,17.10944366455078,-1.1207174062728882,-1.3611557483673096,0.0064559997990727425,,,,,,,,,
1739355178.486916,0.32723613299127563,1.1545236055107653,0.3066099962936079,-1.2223348198487685,-1.4011307991618656,1.069971155247838,0.09724804552592908,-0.0003812865113013409,-0.0005979326208212031,-0.0004719955760497399,-6.240433128172705e-05,-0.0013974155979353774,-0.0004206564766505474,-0.00045212149069456093,-0.3063471019268036,-51.49563980102539,5.132246971130371,17.13324737548828,-1.1271260976791382,-1.3675644397735596,-0.027418512850999832,,,,,,,,,
1739355178.4978812,0.32723242121746093,1.154521204572072,0.3066117530477131,-1.2223368352668584,-1.4011302644890022,1.069973576478221,0.09724955597903323,-0.0006815511881449896,-0.0005288835818264106,-0.00011158495458126854,-0.000639108562061151,2.882157091218e-05,0.0006676572862569247,0.0006577454575713182,-0.2547723948955536,-51.47183609008789,5.108443260192871,17.15705108642578,-1.1207174062728882,-1.3611557483673096,-0.04023589566349983,,,,,,,,,
1739355178.5078938,0.3272383040462241,1.1545222712365608,0.3066100400352056,-1.2223350525902772,-1.4011302591770718,1.0699743340007202,0.09724804130791795,0.001398843116093239,0.0004962712032734872,-0.0004512961909772413,-0.001635387674663214,-0.0013244037169861536,-4.0318933897897155e-05,0.00023120933872479275,-0.3063471019268036,-51.44406509399414,5.132246971130371,17.13324737548828,-1.1207174062728882,-1.3675644397735596,-0.027418512850999832,,,,,,,,,
1739355178.5188823,0.32723482376628554,1.154522885685334,0.3066120972421314,-1.2223332699132583,-1.4011287473454077,1.0699720568213393,0.09724956041420658,-0.0009971345226845933,3.510103440898407e-05,0.00016264956993431655,-0.0005757734364783628,0.0005890390740586012,-0.00028041345664355703,0.00011329393281080699,-0.2825433909893036,-51.49563980102539,5.132246971130371,17.10944366455078,-1.1335347890853882,-1.3483383655548096,-0.04023589566349983,,,,,,,,,
1739355178.5289278,0.327238277562123,1.1545235829359435,0.30661212352352596,-1.2223343639345092,-1.4011305666301312,1.0699728057600433,0.09724641710152165,0.00030258722094383587,-0.0005843511139414528,0.0005008550462069228,-0.0004951507127273333,-0.001232764496509811,0.0003666744682640265,-0.0019517337193823872,-0.3063471019268036,-51.49563980102539,5.132246971130371,17.13324737548828,-1.1271260976791382,-1.3547470569610596,-0.013685601763427258,,,,,,,,,
1739355178.53991,0.32723476693232145,1.1545247095748497,0.306611743987277,-1.2223329862570447,-1.401125842011339,1.0699713035218388,0.09724961091699577,-0.00046473387360550277,3.599967912447339e-05,-0.00017257692230401785,0.0005105645044869454,0.0026348537804049693,-0.0013181395809047551,0.0009630434133700374,-0.2825433909893036,-51.51944351196289,5.108443260192871,17.13324737548828,-1.1335347890853882,-1.3419296741485596,-0.013685601763427258,,,,,,,,,
1739355178.550896,0.3272324241667873,1.154525867797687,0.30661232340804895,-1.2223311896684945,-1.401128387239694,1.0699735765021479,0.09724839704171306,-0.001842237739875538,0.0008498375028940494,-0.000444050023634755,0.0009308698695033242,0.0004967169053673782,-0.00030914100269359456,5.5369243414891424e-05,-0.2547723948955536,-51.49563980102539,5.132246971130371,17.08167266845703,-1.1335347890853882,-1.3611557483673096,-0.027418512850999832,,,,,,,,,
1739355178.561877,0.327234445697722,1.1545212840101582,0.3066101975134965,-1.2223332085370981,-1.4011294891126862,1.0699752000594585,0.09725143334530052,-0.0007701480194940654,-0.0007389508154161753,-0.0008744273285616044,0.00010983773021182308,0.00031762996234408343,0.0004285580842020466,0.001422742466123263,-0.2825433909893036,-51.47183609008789,5.132246971130371,17.10944366455078,-1.1271260976791382,-1.3748886585235596,-0.020094294100999832,,,,,,,,,
1739355178.572857,0.32723348492567833,1.1545238265919333,0.30661269303267075,-1.2223350561995805,-1.4011295069919347,1.0699743342698964,0.09724407533791889,-0.0006800351517213379,-0.0005990206897382252,0.0005061956166667234,6.570778519692031e-06,0.00044602768556775566,0.000948971558578596,-0.0018166140240332975,-0.2547723948955536,-51.49563980102539,5.108443260192871,17.13324737548828,-1.1271260976791382,-1.3675644397735596,0.0064559997990727425,,,,,,,,,
1739355178.5828803,0.3272382862945864,1.154526661979421,0.30660817863710543,-1.222331190018485,-1.4011287493319573,1.0699713035219145,0.09724971386124126,-0.00019078684900760405,-0.0007804495590331324,-0.0012264922164395692,0.0005054924273638583,0.00010478439081753867,-0.00044076079601607164,0.0005862930461666585,-0.3063471019268036,-51.51944351196289,5.156050682067871,17.08167266845703,-1.1335347890853882,-1.3419296741485596,-0.04023589566349983,770,764,757,40.848,0,0
1739355178.593887,0.32723899565759407,1.15452117308879,0.30661560644194585,-1.2223315080148407,-1.401131022146649,1.0699731055518682,0.09724451358616179,0.0002832142947049777,-0.0009522609363061337,0.0005245572813432485,0.00044858154752147887,-0.002260760017154139,-0.000655470124318209,-0.0014769709605715062,-0.3063471019268036,-51.47183609008789,5.056868553161621,17.08167266845703,-1.1143087148666382,-1.3611557483673096,0.0064559997990727425,772,763,759,40.848,0,0
1739355178.6058288,0.32723452863488756,1.154525638767392,0.30661198018607083,-1.2223343553240187,-1.4011298981394185,1.0699735764994893,0.09724404967907853,0.0004588392225512828,-0.00031734843586921524,0.00041285070036842464,0.000522456623281085,0.00010719319113815099,0.0002791755388645687,-0.0007375438053372383,-0.2825433909893036,-51.49563980102539,5.108443260192871,17.13324737548828,-1.1207174062728882,-1.3611557483673096,0.0064559997990727425,771,765,758,40.848,0,0
1739355178.6168098,0.32723831374929,1.1545231505794717,0.3066117804107182,-1.2223332695943863,-1.4011295069899667,1.0699720611819912,0.09725007132392434,0.0014704025970870439,-0.00027225209481098844,0.0005291318885871126,-0.0001838123456133739,-6.242630979876905e-05,-0.0003501089217228101,-0.0003068490469025736,-0.3063471019268036,-51.49563980102539,5.108443260192871,17.10944366455078,-1.1271260976791382,-1.3483383655548096,-0.04756011441349983,770,764,757,40.957,0,0
1739355178.6268923,0.32723902054979703,1.154522004801731,0.30661394041253964,-1.2223311898084648,-1.4011295056636521,1.0699735765021479,0.09725143318038841,0.0003837216073244716,-0.000883627329325965,0.0006446874769532164,0.001622185051709353,-0.00037381425780892176,0.0008245702216297284,0.00028916440676751606,-0.3063471019268036,-51.44406509399414,5.080672264099121,17.08167266845703,-1.1271260976791382,-1.3611557483673096,-0.020094294100999832,773,765,757,40.848,0,0
1739355178.6378486,0.32724251238558427,1.1545233219706532,0.306612724137971,-1.2223332610950517,-1.4011301621827887,1.0699720611819912,0.09725054018976015,0.00326513060004373,0.000294263298147434,-5.305676321023468e-05,-0.00012208000696152115,-0.00045450246939153526,0.00043404250958052035,0.001429233462845606,-0.3817255198955536,-51.47183609008789,5.108443260192871,17.10944366455078,-1.1335347890853882,-1.3483383655548096,-0.04756011441349983,772,765,757,40.848,0,0
1739355178.6478603,0.3272365649417426,1.154524621110353,0.3066126930479364,-1.2223329862957755,-1.4011272950586746,1.0699720219361344,0.09725687334708906,0.00010681059023973262,0.0006637897192503931,0.001252246446826806,0.00015385023114677785,0.0001690531136080232,-0.0008487453412641838,0.004072133467552381,-0.2825433909893036,-51.51944351196289,5.108443260192871,17.13324737548828,-1.1335347890853882,-1.3483383655548096,-0.07411040365695953,773,766,756,40.957,0,0
1739355178.657905,0.3272383309550734,1.1545229086585982,0.30661689463200187,-1.2223350525552843,-1.4011295710689733,1.0699728188414046,0.09724490767884397,0.0006777964941342833,-0.0005581545969583256,0.0014370519147309936,-0.0006275422323105411,-0.0010815958966362588,-0.00021249818473653053,-0.0019449428192121541,-0.3063471019268036,-51.49563980102539,5.080672264099121,17.13324737548828,-1.1271260976791382,-1.3547470569610596,-0.0008682189509272575,774,764,757,40.740,1,0
1739355178.667907,0.3272378795582898,1.1545229593632769,0.3066099613500575,-1.2223331932788586,-1.4011295069931209,1.069972163489803,0.09725118537788974,-6.735440819124485e-05,-0.00021299164040672238,-0.0002902148301222856,0.000540956517702776,-2.6428031448503305e-05,-0.0014639880722034572,0.0002656842233559943,-0.3301508128643036,-51.49563980102539,5.132246971130371,17.10944366455078,-1.1271260976791382,-1.3611557483673096,-0.05396880581974983,772,764,753,40.631,0,0
1739355178.6789472,0.3272324477086113,1.1545256673919808,0.3066117468912566,-1.2223332444030188,-1.401129520018807,1.0699743341542496,0.09725124761772345,-0.0007939482765215269,0.0005704447786027844,-0.0001224506627801081,0.00040804062284087244,-0.0006733189325287665,0.0003790597583191386,0.0003765456769669474,-0.2547723948955536,-51.49563980102539,5.108443260192871,17.10944366455078,-1.1271260976791382,-1.3675644397735596,-0.027418512850999832,772,765,758,40.848,1,0
1739355178.689833,0.3272378452174086,1.1545219638618613,0.3066139748567511,-1.2223332689683066,-1.4011302646521875,1.0699735895840998,0.09724955599712745,-0.0002724868612590302,-0.00047543093008852247,0.0011357449757300603,0.0007660862004416368,-0.0017386170396218744,0.00049260699784935,-0.00029441373580598644,-0.3301508128643036,-51.47183609008789,5.108443260192871,17.10944366455078,-1.1207174062728882,-1.3611557483673096,-0.04023589566349983,775,770,757,40.848,0,0
1739355178.6998584,0.327234528501646,1.1545235799005953,0.3066117537334686,-1.222331286639123,-1.4011295069920358,1.0699743341624477,0.09724884074225387,-0.0001968569176703989,0.0007098528300602566,-0.00034336776205763544,0.0005013025531107598,-0.0006001462412886126,0.0006442689395757691,0.0002557792398805843,-0.2825433909893036,-51.47183609008789,5.108443260192871,17.08167266845703,-1.1271260976791382,-1.3675644397735596,-0.0072769103571772575,774,769,757,40.848,0,0
1739355178.709877,0.32723900589481214,1.1545191765068081,0.30660997047880034,-1.2223350525919117,-1.4011295069920358,1.0699728188420694,0.09724332519451036,0.00019933277051870562,-0.002262886994011462,-0.00020796212513385078,-0.0006519664989886696,-0.0005679583242784829,-1.4051606599685982e-05,-0.0024822080338697304,-0.3063471019268036,-51.44406509399414,5.132246971130371,17.13324737548828,-1.1271260976791382,-1.3547470569610596,0.0064559997990727425,772,766,757,40.740,0,0
1739355178.7209032,0.3272386316563359,1.154523959734851,0.3066156064419976,-1.2223311551655192,-1.4011297594740089,1.0699720611819912,0.09724753476250113,-0.00013311535937495644,0.0005810282626705395,0.00036533787725720555,0.0003339195910529319,-0.0005011699419804361,0.0001463988997300305,0.0013969224886788915,-0.3063471019268036,-51.47183609008789,5.056868553161621,17.08167266845703,-1.1335347890853882,-1.3483383655548096,-0.013685601763427258,773,768,758,40.848,0,0
1739355178.7309136,0.3272344196123723,1.1545202190411488,0.30661065737843696,-1.2223310880823992,-1.401125738787021,1.0699735765021479,0.09724642153932089,-0.00017837033105125405,-0.0009025816060069915,-0.0004394975658500789,0.0003100234620929857,0.0013944655002997072,-9.2291143819047e-05,-0.001236573573095191,-0.2825433909893036,-51.42026138305664,5.156050682067871,17.08167266845703,-1.1271260976791382,-1.3611557483673096,-0.013685601763427258,776,768,756,40.957,0,0
1739355178.741858,0.3272391104880144,1.154525740823459,0.3066138237695909,-1.2223348225819093,-1.4011295462308018,1.0699728188420694,0.09724916068881843,0.0020590108348863966,0.0016865270112048547,-0.0003181516671910264,-0.0009239917990049406,-0.0007773223174028764,0.00013848477528356757,0.002150558155465894,-0.3063471019268036,-51.49563980102539,5.080672264099121,17.13324737548828,-1.1271260976791382,-1.3547470569610596,-0.0008682189509272575,775,768,757,40.848,0,0
1739355178.7518852,0.32723623802035084,1.1545214121268705,0.3066119921748322,-1.2223350524814034,-1.4011287314539538,1.0699720592439241,0.09724955605114906,0.0012197454685843323,0.00023710234748151185,-0.00026667093110955615,-0.001095793553348568,0.00019147491739537962,0.0008211549247620453,0.0006296274508492549,-0.3063471019268036,-51.47183609008789,5.108443260192871,17.13324737548828,-1.1335347890853882,-1.3483383655548096,-0.04023589566349983,774,768,758,40.848,1,0
1739355178.762909,0.3272344280982458,1.1545192488326335,0.3066103045214311,-1.2223332614099887,-1.4011295069919347,1.0699726880225362,0.09724565949545615,-0.0007777356684253072,-0.00219498090424455,-0.0005153054847657773,0.0009278600619282076,0.0005459632371896667,-0.0001183256572571218,-0.0016633394231484312,-0.2825433909893036,-51.44406509399414,5.156050682067871,17.10944366455078,-1.1271260976791382,-1.3547470569610596,-0.0072769103571772575,772,768,757,40.957,1,0
1739355178.7738116,0.32723444597646495,1.1545212590209242,0.30661386991007045,-1.2223311267744057,-1.4011309820851894,1.0699735764999323,0.09725109422885514,-0.0008591665168345399,-0.00048168549207879734,-0.0006883685740442449,0.0012177449922300678,-0.000929724630245388,0.0001796880701961179,0.0006444341556109702,-0.2825433909893036,-51.47183609008789,5.108443260192871,17.10944366455078,-1.1143087148666382,-1.3611557483673096,-0.04023589566349983,773,766,756,40.848,0,0
1739355178.7838805,0.3272344485928554,1.154521204361256,0.30660997301079607,-1.2223347209506903,-1.4011271257192386,1.0699728188420694,0.09724910721988561,-0.0003770588570520609,-0.0004890492714233836,-0.0013539673043265095,-0.000812297238442842,-0.00020697540658647345,-0.0004985053819925676,0.000894025132160646,-0.2825433909893036,-51.47183609008789,5.132246971130371,17.13324737548828,-1.1472676992416382,-1.3547470569610596,-0.027418512850999832,774,767,757,40.957,0,0
1739355178.7940066,0.32723444564976323,1.1545231901064426,0.3066141849302729,-1.2223332601446293,-1.4011262833809768,1.0699720611819912,0.09724165468484079,-0.000364984403879732,0.0012390522066703822,0.00020629455721091932,-0.00029231723773366267,2.656185942840809e-05,-6.462186367107108e-05,-0.00337347321523768,-0.2825433909893036,-51.49563980102539,5.108443260192871,17.10944366455078,-1.1271260976791382,-1.3483383655548096,0.026597600430250168,772,766,756,40.848,1,0
1739355178.8049097,0.32723242267115826,1.1545258613816767,0.30661175273740593,-1.222333167873976,-1.4011287493137599,1.0699735758561255,0.09724902476852833,-0.0009680472876064118,0.0010090601839400685,0.00028669704871024475,0.0012169965737072038,-0.000814095605057272,0.0005275272306562264,0.0007619564840232975,-0.2547723948955536,-51.49563980102539,5.108443260192871,17.10944366455078,-1.1335347890853882,-1.3611557483673096,-0.0072769103571772575,773,766,758,40.740,1,0
1739355178.8158207,0.3272345261032955,1.1545220918655341,0.3066139791771574,-1.222334363823765,-1.4011287493319569,1.0699735765021368,0.09725199219148707,-0.0005298853905412698,-0.0011009554478231798,9.9941503756e-05,-4.833068987644798e-05,0.00013282668151220315,0.00037081510631478275,-0.0006768365103714014,-0.2825433909893036,-51.47183609008789,5.108443260192871,17.13324737548828,-1.1335347890853882,-1.3611557483673096,-0.03382720425724983,773,767,757,40.848,0,0
1739355178.8258824,0.3272399929110288,1.1545235794724429,0.30660999922107723,-1.2223343269741063,-1.4011287493319573,1.069974334162226,0.09724490764077441,0.0001602779128692896,8.220398885128193e-05,-0.0008502406521955547,-0.00040195372356801353,0.0005202303089422674,0.0005461219551678532,-0.0002033776569262142,-0.3301508128643036,-51.47183609008789,5.132246971130371,17.13324737548828,-1.1335347890853882,-1.3675644397735596,-0.0008682189509272575,774,767,757,40.848,1,0
1739355178.8368478,0.3272345380345124,1.1545212080486071,0.3066081799173294,-1.222335041248489,-1.401130382389684,1.069968580289552,0.09724951507044959,-0.0005518449775390052,-0.00014311501816130338,-0.0013406205069641484,0.00017319939081112843,-0.0004332518415179373,-0.0014091067341443838,3.333758612752242e-05,-0.2825433909893036,-51.47183609008789,5.156050682067871,17.13324737548828,-1.1207174062728882,-1.3547470569610596,-0.0008682189509272575,777,765,756,40.848,1,0
1739355178.8478103,0.32723464689426623,1.1545211998118945,0.30661268896308624,-1.2223311816200695,-1.401132551651535,1.069973576478221,0.0972464171274887,-0.0005481130373265646,-0.0009960596964050297,0.00040900007919786324,0.00045043479821597627,0.0005344879030599958,0.00010987896185613542,-0.0010720165979506188,-0.2547723948955536,-51.47183609008789,5.108443260192871,17.08167266845703,-1.1271260976791382,-1.3611557483673096,-0.013685601763427258,777,766,758,40.848,0,0
1739355178.857857,0.32723441927138763,1.154524709572401,0.30661279587805845,-1.2223305148536898,-1.4011295071467205,1.069972818842068,0.09724879831894706,-0.0013517671802854318,0.0014820087962039263,-0.0008232668050538938,0.0002668943832262802,0.00031714348149966857,-0.0005094432311314277,-0.0005230867365507267,-0.2825433909893036,-51.51944351196289,5.132246971130371,17.10944366455078,-1.1271260976791382,-1.3547470569610596,-0.03382720425724983,778,769,755,40.848,0,0
1739355178.8679037,0.32723459394802806,1.1545228916872605,0.3066138964597567,-1.2223350270299251,-1.4011262485496079,1.069974334162226,0.09725581181019038,-0.0008809302515413141,-0.000835456922091284,0.0005334713975304681,-0.0008553449475273594,-0.0002406428168690021,-2.1245122409573286e-06,0.0008472717919896311,-0.2547723948955536,-51.49563980102539,5.108443260192871,17.13324737548828,-1.1271260976791382,-1.3675644397735596,-0.05396880581974983,778,768,757,40.848,1,0
1739355178.8779159,0.32723441963117195,1.1545212084200802,0.3066148414322134,-1.2223386179438824,-1.4011287492767752,1.0699720611819912,0.09724965042526533,-8.785599514863599e-05,-0.0010639843213354535,0.0013858112681615483,-0.0011154245175292229,0.0001931602813885495,-0.0004330240722651136,0.0008851460736172217,-0.2825433909893036,-51.47183609008789,5.108443260192871,17.18085479736328,-1.1335347890853882,-1.3483383655548096,-0.013685601763427258,772,769,756,40.848,1,0
1739355178.8888614,0.327237173692878,1.1545252921281586,0.3066162950873426,-1.2223332698082796,-1.4011295069920353,1.0699752000594585,0.09724672406480349,0.0011567369605356244,0.0012733331688282174,0.002186962338568377,0.0012407956532986253,0.000235524047085655,0.0005466419718962874,-0.0006336260183997141,-0.3063471019268036,-51.49563980102539,5.080672264099121,17.10944366455078,-1.1271260976791382,-1.3748886585235596,-0.0072769103571772575,776,769,756,40.848,0,0
1739355178.8989213,0.3272347724976842,1.1545256378283784,0.3066156064837978,-1.222331161779171,-1.4011295069920358,1.0699728188420694,0.09724722556484268,0.00026214474894018403,-0.00027824606435463664,0.00022478840167601717,0.0005485476864057139,-0.0005789965084501378,0.00010074809955309608,-0.0008169677892096641,-0.2825433909893036,-51.49563980102539,5.056868553161621,17.08167266845703,-1.1271260976791382,-1.3547470569610596,-0.020094294100999832,773,769,757,40.848,0,0
1739355178.9098628,0.3272403813215543,1.1545214115691278,0.3066099734308228,-1.222331200784323,-1.4011296639754622,1.069974334162226,0.09725361569209248,0.0013342388143053714,-0.0008814420568807293,-0.000899862655028188,1.8106902953683604e-05,-0.0002155386817277699,0.00011441338498949412,8.015735655404413e-05,-0.3539545238018036,-51.47183609008789,5.132246971130371,17.10944366455078,-1.1271260976791382,-1.3675644397735596,-0.04756011441349983,775,767,756,40.848,0,0
1739355178.9208252,0.32723517301046273,1.1545257157180728,0.30661177943739154,-1.2223329989651956,-1.4011287493328433,1.0699724656293597,0.09724475174904497,0.0007481019442133971,0.0004148049154760119,-6.501649804924056e-05,0.00030516022325626646,-0.0006891590052976985,-0.0005028048680266722,-0.00017846763649595216,-0.2825433909893036,-51.49563980102539,5.108443260192871,17.10944366455078,-1.1335347890853882,-1.3547470569610596,0.012864691205322742,772,769,756,40.848,1,0
1739355178.9308763,0.32723528522214657,1.154524936783602,0.3066157114264139,-1.2223343609773045,-1.4011313755249022,1.069974334144281,0.09724845200046003,-0.0001814017603411572,0.0007400642191533451,0.0017636787256408554,-0.0012611694613664974,-0.002026288605721311,0.0006910664940363477,-0.0002969707281357404,-0.2547723948955536,-51.51944351196289,5.056868553161621,17.13324737548828,-1.1143087148666382,-1.3675644397735596,-0.0008682189509272575,774,770,755,40.957,1,0
1739355178.9408875,0.32723656508704585,1.1545218933024313,0.3066120904378475,-1.2223329513341374,-1.4011335613060658,1.0699742818344171,0.09725437337192513,-5.966428173564194e-06,-0.0014384671393888305,-8.08153590597982e-05,0.0007015081628489618,-0.0022860049411885285,-2.6150612858412794e-05,0.0015880434687919821,-0.2825433909893036,-51.47183609008789,5.132246971130371,17.13324737548828,-1.1207174062728882,-1.3675644397735596,-0.05396880581974983,774,768,755,40.848,1,0
1739355178.9509244,0.32723477251637906,1.1545251824025287,0.30661030466409406,-1.2223359139392642,-1.40113192846368,1.06997433416134,0.09725275001092383,0.0005448248803385107,0.0009324606079790471,-0.00149961520322116,-0.0016949030439237973,-0.0013319587695386139,0.0004666376341902184,-6.87966335334452e-05,-0.2825433909893036,-51.49563980102539,5.156050682067871,17.15705108642578,-1.1335347890853882,-1.3675644397735596,-0.04023589566349983,776,767,757,40.740,0,0
1739355178.961842,0.32723250069231286,1.1545245952971446,0.30661407168867094,-1.2223322975259399,-1.4011287498882554,1.069974334162226,0.09725067559429679,-0.0007248563841096344,0.0003078392537329891,-0.00011286475265651319,0.00016309130729733921,-0.0005810569806048022,5.323757164438903e-05,-0.00044623663499394385,-0.2547723948955536,-51.51944351196289,5.080672264099121,17.13324737548828,-1.1335347890853882,-1.3675644397735596,-0.013685601763427258,774,768,758,40.957,1,0
1739355178.9718828,0.32723899303038667,1.1545194273649235,0.3066117557520173,-1.2223331922873943,-1.401129507476562,1.0699728188420694,0.09724717532054086,0.00040785055014214047,-0.001607784012268329,-0.0008286583833068177,-0.0005182992987869317,-0.0011628072500722525,-0.00027565339843836417,-0.0004291016511510466,-0.3063471019268036,-51.44406509399414,5.108443260192871,17.10944366455078,-1.1271260976791382,-1.3547470569610596,-0.020094294100999832,775,770,757,40.848,0,0
1739355178.9828193,0.3272344192834802,1.154519197918073,0.30661479917493284,-1.2223311863087407,-1.401133220416178,1.0699735765021479,0.09724864015554278,-0.0012091552255569602,-0.001959420278337629,0.002383187934215641,-9.121332652038574e-05,-0.0017230451860337443,0.00013856908271908506,0.001580859726544319,-0.2825433909893036,-51.44406509399414,5.080672264099121,17.08167266845703,-1.1335347890853882,-1.3611557483673096,-0.020094294100999832,776,766,757,40.957,0,0
1739355178.993811,0.3272376335393262,1.1545228827285836,0.30661175402521523,-1.2223332444397688,-1.4011283806611894,1.0699728188420694,0.09725512907005465,-0.00020219165767697088,-0.0013747370188357554,-6.428101021626128e-05,0.0007700915049334356,0.00020810983814131698,-0.0003422012463479184,0.0014764996546519033,-0.2825433909893036,-51.49563980102539,5.108443260192871,17.10944366455078,-1.1271260976791382,-1.3547470569610596,-0.06037749722599983,773,766,757,40.957,1,0
1739355179.0038548,0.3272361671637658,1.154522267561727,0.3066138266812821,-1.2223329540321326,-1.4011270062457917,1.0699751608136017,0.09724880275409169,0.0005680347633837658,-0.0013834967233162393,0.0007901086515248688,0.0011641378329417733,0.00046500112017822527,-4.472066696453367e-05,-0.0006526502664466503,-0.3063471019268036,-51.44406509399414,5.080672264099121,17.10944366455078,-1.1207174062728882,-1.3748886585235596,-0.03382720425724983,773,769,757,40.740,1,0
1739355179.0138698,0.3272368857610024,1.1545252853261168,0.30660999629232366,-1.2223291139557098,-1.4011295088749212,1.0699743341615613,0.09725274751615794,0.0010398790723708464,0.00037766497265357237,0.0007466308597189805,0.0014239626169966267,-9.386866688234691e-05,0.00038461314121943015,-4.3419446173604626e-05,-0.2825433909893036,-51.51944351196289,5.132246971130371,17.08167266845703,-1.1271260976791382,-1.3675644397735596,-0.04023589566349983,776,770,757,40.848,1,0
1739355179.0239022,0.32723514339515497,1.1545218590891568,0.3066099962928669,-1.2223329552571474,-1.401128749331989,1.069974334162226,0.09724165472082745,0.0007387087098109,-0.0008221103270661622,0.00021885421050246202,0.00013096877242152808,-0.0010939027273249278,0.0006752527041407473,-0.002722328217998804,-0.2825433909893036,-51.47183609008789,5.132246971130371,17.10944366455078,-1.1335347890853882,-1.3675644397735596,0.026597600430250168,775,769,757,40.848,1,0
1739355179.0349433,0.32723931485733027,1.1545252806619457,0.3066145336946007,-1.2223325783087224,-1.4011287468003573,1.0699735808627986,0.09724910526405138,0.001656310979392775,0.0009426042712567765,0.00039859026252091374,5.4911149176233625e-05,0.0001851244930817717,9.943326793444021e-05,0.00041548280884130194,-0.3063471019268036,-51.49563980102539,5.080672264099121,17.10944366455078,-1.1335347890853882,-1.3611557483673096,-0.027418512850999832,776,769,757,40.848,2,0
1739355179.0458517,0.32723381123303963,1.1545249042057868,0.3066120623206222,-1.2223311901221012,-1.401130264652109,1.0699735765021559,0.09725036857918747,-0.0005816391561332103,9.142917470953717e-05,0.0006339524785978979,-5.925352931446964e-05,-0.0003630400022081669,0.00012772823786162853,0.00025812029713411926,-0.2309686839580536,-51.51944351196289,5.108443260192871,17.08167266845703,-1.1207174062728882,-1.3611557483673096,-0.020094294100999832,772,768,757,40.848,1,0
1739355179.057833,0.3272362112057551,1.1545229205224892,0.3066117450569368,-1.2223332444034514,-1.4011287885778139,1.0699735765021479,0.09724502160323514,0.000474621373779672,-3.142656685445635e-05,-0.0008032949743770345,-0.0005180364981849455,-0.0001782004564034922,0.00026895815552465606,-4.325955162435061e-05,-0.3063471019268036,-51.49563980102539,5.108443260192871,17.10944366455078,-1.1335347890853882,-1.3611557483673096,-0.0008682189509272575,771,769,758,40.848,0,0
1739355179.0678914,0.32723657386530636,1.1545221181649397,0.30661561562253487,-1.22233226239822,-1.4011302586927794,1.0699751998979528,0.09725032924898001,0.0005419896166418736,-0.0005421160191320191,0.0015411609573005307,0.0005852853174702005,-0.0002791868044333047,0.0003635504588310604,0.0007666729826543128,-0.2825433909893036,-51.47183609008789,5.056868553161621,17.10944366455078,-1.1207174062728882,-1.3748886585235596,-0.020094294100999832,776,769,758,40.740,1,0
1739355179.077904,0.32723442813413567,1.154524953133011,0.3066127189531388,-1.2223311185691543,-1.4011287493318563,1.0699728188420667,0.09724085029814993,-0.0008609057176814631,-0.00020514679043348705,0.0004507064528166131,0.00033734326711604395,-4.566842698970054e-05,-0.0004767125442733637,-0.0017004979665365535,-0.2825433909893036,-51.49563980102539,5.108443260192871,17.10944366455078,-1.1335347890853882,-1.3547470569610596,0.0064559997990727425,775,771,756,40.957,1,0
1739355179.0879366,0.3272366486501696,1.1545212045707818,0.30661007936605983,-1.222332274994359,-1.4011302302107351,1.0699720742639434,0.09724717519447473,0.00015909269495185428,-0.0006994597274007773,-0.0003164900207746704,0.0011057645813480391,0.0008535506532132183,-0.0005415297772286871,-0.0017275124047133443,-0.2825433909893036,-51.47183609008789,5.132246971130371,17.10944366455078,-1.1472676992416382,-1.3483383655548096,-0.020094294100999832,777,767,757,40.848,0,0
1739355179.098884,0.327236564938109,1.1545219370891973,0.30661388006338164,-1.2223329369154312,-1.4011254909622342,1.0699746361403508,0.09724879831894818,-0.0008263943016927796,-0.0005320525983173389,0.00046795932753175226,-0.0008071884183485302,0.0009071963523691975,0.000602242727735071,-0.0008330622126324452,-0.2825433909893036,-51.44406509399414,5.108443260192871,17.10944366455078,-1.1335347890853882,-1.3611557483673096,-0.03382720425724983,776,769,758,40.740,1,0
1739355179.10987,0.3272344196064896,1.1545222684171634,0.30660633894248235,-1.2223332585736866,-1.401129506918461,1.0699710015498434,0.0972475844525535,-0.0013123667548399056,0.00010619649642252963,-0.001518988702136615,0.0003791430742701412,0.00011726919617246956,-0.0009136125398692707,7.479109483978993e-05,-0.2825433909893036,-51.44406509399414,5.183821678161621,17.10944366455078,-1.1271260976791382,-1.3483383655548096,-0.04756011441349983,774,767,756,40.848,1,0
1739355179.1208792,0.32723934983928993,1.1545212837420762,0.3066109353894463,-1.2223305004137468,-1.4011263681145678,1.0699735764961662,0.0972473456081779,0.0012764137151314665,-0.000325688069391192,-0.0011020219916998107,0.00162109214500054,0.00041899622046587856,0.00053346272414004,2.5517945133168146e-05,-0.3063471019268036,-51.47183609008789,5.156050682067871,17.08167266845703,-1.1536763906478882,-1.3611557483673096,-0.020094294100999832,776,766,756,40.848,1,0
1739355179.1309085,0.3272373637422222,1.1545234692416027,0.30661277095096845,-1.2223325046073734,-1.4011276632028746,1.0699743341622259,0.0972524652952474,0.0006162507292762397,0.0008069051939854639,-0.00011533158794684809,-6.999111910561465e-05,0.0012598311824268576,0.0004661547681521049,0.0019447722576979103,-0.2825433909893036,-51.47183609008789,5.108443260192871,17.10944366455078,-1.1335347890853882,-1.3675644397735596,-0.03382720425724983,775,766,757,40.848,0,0
1739355179.1418579,0.32723899275495294,1.1545258790764352,0.30661393004947285,-1.2223332694890234,-1.4011303825450583,1.0699728755305289,0.09724879985409723,0.0008879759991260841,0.0007200942643168332,-4.7473198022953095e-05,-0.0005250563672625126,-0.0015918983571073084,0.0004209367676918643,0.00015257469187475158,-0.3063471019268036,-51.49563980102539,5.080672264099121,17.10944366455078,-1.1207174062728882,-1.3547470569610596,-0.03382720425724983,771,766,757,40.848,1,0
