IITGN-Robotics/Franka_IITGN_ROBOTICS/franka_ros/franka_iitgn/data02/s_b_010.csv
time,fr3_joint1_pos,fr3_joint2_pos,fr3_joint3_pos,fr3_joint4_pos,fr3_joint5_pos,fr3_joint6_pos,fr3_joint7_pos,fr3_joint1_vel,fr3_joint2_vel,fr3_joint3_vel,fr3_joint4_vel,fr3_joint5_vel,fr3_joint6_vel,fr3_joint7_vel,fr3_joint1_eff,fr3_joint2_eff,fr3_joint3_eff,fr3_joint4_eff,fr3_joint5_eff,fr3_joint6_eff,fr3_joint7_eff,flexpin1,flexpin2,flexpin3,Force,ContactMic,ContactMic_gt
1739355517.952137,0.3288860571215968,1.1767442905305103,0.3122957395557279,-1.2009688060654007,-1.4270824872935863,1.0419110511477108,0.08050941103168929,-0.0001331326194894774,-0.0008371523808250402,-0.0004482885180904668,0.0015344557115359318,0.0011330444512799103,0.00043544957779611843,-0.0015350521409936862,-1.429088830947876,-50.93228530883789,4.318953514099121,17.05786895751953,-1.4484761953353882,-1.1972763538360596,0.04673920199275017,,,,,,,,,
1739355517.9631636,0.3288868576835426,1.1767442110580328,0.31230035704485026,-1.2009716340202756,-1.4270847451725994,1.041909388346611,0.08051831359828894,-0.00025707761270677765,-5.787658451763007e-05,-0.00011906930589898631,-0.0004843688223228397,9.019326132108772e-05,-0.00042878600170948895,0.0008739789674163823,-1.476696252822876,-50.93228530883789,4.295149803161621,17.05786895751953,-1.4283345937728882,-1.1835434436798096,0.0064559997990727425,,,,,,,,,
1739355517.9731557,0.32888776993031144,1.176751101414703,0.3123002245322123,-1.20096901015599,-1.427084420502959,1.041909427591803,0.08050889148301736,0.0002577315799002644,0.0018195274339294304,9.753010252920748e-05,0.000821184630314993,-0.0008399019049503515,-0.00044365672027277877,-0.00013800270012570863,-1.452892541885376,-50.98386001586914,4.295149803161621,17.05786895751953,-1.4347432851791382,-1.1835434436798096,0.05314789339900017,,,,,,,,,
1739355517.9851725,0.32888302396644337,1.1767432142958665,0.3123463501043569,-1.2009588564471922,-1.4270915466307477,1.0419004912358187,0.08051657712729891,-0.00027319925515208957,-0.0015004520078159842,0.005146476739390282,0.001987134160206206,-0.00225497175669008,-0.0019983748606926498,0.000574486879342847,-0.8062250018119812,-51.00766372680664,4.802962303161621,17.03406524658203,-1.3303731679916382,-1.1441757678985596,-0.0008682189509272575,,,,,,,,,
1739355517.9971063,0.32889256450069965,1.1767379160629308,0.31239330494165735,-1.2009427066219094,-1.4270863868211325,1.0418864145449949,0.08051632742596324,0.0014377765321916187,-0.0004915823774845909,0.0027077097959482127,0.0032127714872501392,0.0007344009696817606,-2.6949968749500936e-05,0.00214862421202601,-0.4293329417705536,-51.00766372680664,4.953719139099121,17.03406524658203,-1.3367818593978882,-1.1048080921173096,-0.04023589566349983,,,,,,,,,
1739355518.0071108,0.32890002796361123,1.1767304768237978,0.3124088938938128,-1.2009315847343438,-1.4270887266546233,1.0418809853825743,0.08051486828376063,0.0005731702474909455,-0.0017831364970664152,0.0007581170148831793,0.0010171239172461883,-0.00013545916686839943,-0.0008064280813557096,0.00016792122011722135,-0.3539545238018036,-50.96005630493164,5.005293846130371,17.05786895751953,-1.3175557851791382,-1.1048080921173096,-0.0008682189509272575,,,,,,,,,
1739355518.0171814,0.3288911474080261,1.1767342448526166,0.31241388860688524,-1.2009227643660394,-1.4270856736579822,1.0418816274032894,0.08050589859579654,-0.001085369685084095,-3.150259329843841e-05,-0.000834138089135921,0.0006324857671922693,0.0021310779954184134,-0.0012595000050036346,-0.0005978105022529885,-0.2547723948955536,-51.05923843383789,5.080672264099121,17.08167266845703,-1.3038228750228882,-1.1505844593048096,0.03941498324275017,,,,,,,,,
1739355518.028205,0.3288942024983458,1.1767361628291966,0.31241197208793425,-1.200915285298923,-1.4270863408814276,1.0418846458035584,0.0805115364991055,-0.0009434916796647233,-0.0008283938502749786,7.290122576491056e-05,0.0022274118246223616,0.0009387672578246441,0.0019530992723559286,-0.0004236816602630057,-0.2547723948955536,-51.08700942993164,5.080672264099121,17.08167266845703,-1.3102315664291382,-1.1643173694610596,0.026597600430250168,,,,,,,,,
1739355518.0391805,0.32889622645653116,1.176739860208525,0.3124180909555051,-1.2009155265427285,-1.427086476144507,1.0418839917511427,0.08051400007432667,0.0005418904137508556,0.00011899937188781037,0.0013093944254347256,-0.0014509906093952008,0.000645007896737686,-0.00012046559339523463,0.002747643322208132,-0.2825433909893036,-51.13858413696289,5.029097557067871,17.15705108642578,-1.3239644765853882,-1.1441757678985596,-0.020094294100999832,,,,,,,,,
1739355518.0501766,0.3288962264569718,1.1767357662641462,0.31242270204321715,-1.200903040112541,-1.4270926302378588,1.0418753721376848,0.0805109077077565,-0.0003112041052097393,0.000847735027538561,0.0006305716242085863,0.0015055128154466298,-0.0007629561321813688,-0.0005079620383929013,-0.001274399973210592,-0.2825433909893036,-51.11081314086914,5.005293846130371,17.05786895751953,-1.2845968008041382,-1.1112167835235596,-0.0072769103571772575,,,,,,,,,
1739355518.0611506,0.32889793897770303,1.1767375639951456,0.31241737789695956,-1.2009049179770934,-1.4270891661790281,1.0418689641674903,0.08051187657389185,0.0001670927810511546,-0.0007472233483658968,-0.001132983801054412,3.4222963503492037e-06,-0.0002973024620655941,-0.00029864400374778456,-0.0002864006296240619,-0.3063471019268036,-51.13858413696289,5.080672264099121,17.13324737548828,-1.3102315664291382,-1.1112167835235596,0.012864691205322742,,,,,,,,,
1739355518.0711687,0.3288962264569718,1.1767412378355275,0.3124152992251822,-1.2009031337106875,-1.427087672017378,1.0418666214673882,0.08051666825132044,-0.0005168192377500865,-0.0002398244436676105,-0.000166530147536624,0.0011081330104447252,-0.0012850920654741672,-0.001115580624549915,0.0019026534115820523,-0.2825433909893036,-51.16238784790039,5.108443260192871,17.10944366455078,-1.2910054922103882,-1.1048080921173096,-0.020094294100999832,,,,,,,,,
1739355518.082102,0.3288983732053301,1.1767412662945265,0.31241888981159655,-1.2009043219206323,-1.4270878080756473,1.0418658593661272,0.08051555995497875,0.00027809877640049983,0.0007238357498212881,-0.0005891540260457248,-0.0006304428584561002,-0.0007852724432020499,-0.0005300295620852936,8.811551368275729e-05,-0.2825433909893036,-51.16238784790039,5.056868553161621,17.13324737548828,-1.2974141836166382,-1.0983994007110596,-0.0072769103571772575,,,,,,,,,
1739355518.0921392,0.3288984080178751,1.1767387370411218,0.31241916168750933,-1.2008977494473583,-1.427085935203181,1.0418663194087308,0.08050759981141475,-0.0007847750104539065,0.00046771739182105166,-0.0009342412238457405,0.0015446858200778308,0.0007649821294451729,-0.0004440089365719247,-0.0002850363224996893,-0.2825433909893036,-51.16238784790039,5.056868553161621,17.05786895751953,-1.3102315664291382,-1.1112167835235596,0.03300629183650017,,,,,,,,,
1739355518.1032176,0.32889796660747267,1.1767422605949358,0.31241918818306685,-1.2009040833481077,-1.4270860049929575,1.0418692718654587,0.08051253964008256,-0.0005078405163353897,-0.0005158696239775391,0.00024945439125337066,2.3688977068665844e-05,-0.00015957128885347896,5.9174140291877615e-05,-0.001369472786477509,-0.3063471019268036,-51.21396255493164,5.056868553161621,17.13324737548828,-1.3038228750228882,-1.1313583850860596,-0.020094294100999832,,,,,,,,,
1739355518.1151605,0.32889625440152725,1.1767428725256834,0.3124191881831167,-1.200903085460072,-1.4270863923333954,1.0418705114632594,0.08051648921418735,0.0008801157904675591,0.00168784578699385,0.00013018779315121013,0.0005703496706950048,0.00033101635917289103,0.0008080941051051221,0.001004748813025423,-0.2825433909893036,-51.21396255493164,5.056868553161621,17.15705108642578,-1.2974141836166382,-1.1377670764923096,0.012864691205322742,,,,,,,,,
1739355518.1252148,0.3289000877248507,1.1767330592322625,0.3124213074958138,-1.200899533282652,-1.4270857883003267,1.0418679284305767,0.08051486545102873,0.0006495936561950492,-0.0019441394627237856,-0.00047922441198213915,-0.0001471303745294698,0.0013335120134263419,7.947086356207213e-05,0.0010998833645049634,-0.3063471019268036,-51.08700942993164,5.056868553161621,17.10944366455078,-1.3038228750228882,-1.1249496936798096,-0.027418512850999832,,,,,,,,,
1739355518.1361701,0.3288987690639602,1.1767331527644838,0.3124243439032761,-1.2008953397170048,-1.4270858042381682,1.0418670770506917,0.08051089661165295,-6.466530047739101e-06,-0.0007583339576584438,2.4017223397261936e-06,0.0007089697887102251,-0.0009067545279429961,0.00030608377126919143,1.4251119794645621e-05,-0.3063471019268036,-51.08700942993164,5.029097557067871,17.05786895751953,-1.3038228750228882,-1.1176254749298096,0.03300629183650017,,,,,,,,,
1739355518.1471803,0.32889801958175,1.1767391648872918,0.31242166494118306,-1.2008987233491304,-1.4270844801105416,1.0418685305548332,0.08051166814077232,-0.0009279752102014912,0.00017888034865153448,-0.0007826463819409863,-0.00021076057523800138,0.0005513627204016045,0.000869105475802195,-0.000505614739679636,-0.3063471019268036,-51.16238784790039,5.056868553161621,17.13324737548828,-1.3175557851791382,-1.1313583850860596,-0.0008682189509272575,,,,,,,,,
1739355518.1571887,0.32889820421473914,1.1767439217835325,0.3124223793577466,-1.2009007454427887,-1.4270863903793412,1.0418646463072159,0.08051165490243056,-0.00019106892766527188,0.0013099647878160696,0.0013302078920536177,0.00014460394731332613,0.001346143735314437,-0.0012066890425198235,-0.0012822225193681062,-0.3063471019268036,-51.23776626586914,5.056868553161621,17.13324737548828,-1.2974141836166382,-1.1249496936798096,0.026597600430250168,,,,,,,,,
1739355518.1681108,0.32889538211463454,1.1767404712287917,0.3124205858921388,-1.2009016495367428,-1.4270857678967772,1.0418605137431807,0.08051313979720144,-0.0014862451136313033,-0.0004294778166916792,-0.0013326144663642068,0.0005920352811144398,-0.00022097858048639646,0.0004965710304740753,-0.0006318683057260943,-0.3063471019268036,-51.19015884399414,5.080672264099121,17.18085479736328,-1.3038228750228882,-1.0919907093048096,0.012864691205322742,,,,,,,,,
1739355518.1791444,0.32889944503884794,1.1767388270611272,0.3124254049767193,-1.2009009838940985,-1.4270871669336773,1.0418626106763458,0.08051641686778326,-1.27322327208375e-05,-0.001011186797269277,0.0012415719257914785,-0.0006757771227915443,-0.0008127838671908351,-0.0002931147500510183,-7.215660252724558e-05,-0.2825433909893036,-51.13858413696289,5.029097557067871,17.13324737548828,-1.2910054922103882,-1.1112167835235596,-0.013685601763427258,,,,,,,,,
1739355518.1892102,0.3289001910902836,1.1767347629658935,0.31241851821607847,-1.2008981592559547,-1.427087045729269,1.0418626106753521,0.08051625732505578,-0.0005430125405945388,0.0003365652141385563,-0.0008872654677152184,-0.0001121624162432705,-0.000669913525087668,-0.0002316771634375877,0.003078500522581633,-0.3063471019268036,-51.11081314086914,5.108443260192871,17.10944366455078,-1.3038228750228882,-1.1112167835235596,-0.04023589566349983,,,,,,,,,
1739355518.200111,0.3288984119551574,1.1767404459971507,0.31242445882459374,-1.2008977947426684,-1.427087474000393,1.0418642473146151,0.0805106582535678,0.0001473090260669858,0.00015161049726993307,0.0011756533261456494,-0.0003972167446509611,0.00039859309562586826,3.496021109275247e-05,0.0018012315528666066,-0.2825433909893036,-51.19015884399414,5.029097557067871,17.13324737548828,-1.2845968008041382,-1.1249496936798096,-0.0008682189509272575,,,,,,,,,
1739355518.2111719,0.3289004418945476,1.176734992414041,0.3124283687087957,-1.2008970500040788,-1.4270864084628712,1.0418642342327367,0.08051754084944873,0.0005772474444736656,-0.0007816713813147774,0.0022772500953167863,0.001501184977658978,7.7060134509983e-05,-0.00024501808059337177,0.0015840495570216267,-0.3063471019268036,-51.11081314086914,5.005293846130371,17.13324737548828,-1.2974141836166382,-1.1249496936798096,-0.027418512850999832,,,,,,,,,
1739355518.2221684,0.32889718454240674,1.1767367604410224,0.31242238035493225,-1.200897765255612,-1.4270856327167065,1.041867566851027,0.08051106544214263,-0.0003517206406288049,0.0001035730182964347,4.637896302423422e-05,2.3386531690496785e-05,0.0004133703132843033,0.0003448859684322512,0.000953963839742318,-0.2825433909893036,-51.13858413696289,5.056868553161621,17.13324737548828,-1.3038228750228882,-1.1441757678985596,-0.0072769103571772575,,,,,,,,,
1739355518.2331038,0.32890019474413257,1.1767367519364567,0.3124185178760569,-1.2008995214457154,-1.427087148036761,1.041864234234657,0.08051180944837964,0.00031848023732744155,-0.0011696995821441711,-0.00304366473752239,-0.0010227025023386313,0.0012599470749978304,-0.0017412035165216293,-9.747042962897985e-05,-0.3063471019268036,-51.13858413696289,5.108443260192871,17.15705108642578,-1.2910054922103882,-1.1249496936798096,-0.013685601763427258,,,,,,,,,
1739355518.2431974,0.32889649347631367,1.1767384641299903,0.3124206103027149,-1.2008978447320606,-1.4270863961908837,1.0418640687477545,0.08051155510499948,-0.00117734972235378,-0.0005861207196969827,4.5052643468938846e-05,-0.0006660267552381228,-2.27597102899342e-05,-7.389196394894354e-05,6.590524098197662e-05,-0.2547723948955536,-51.16238784790039,5.080672264099121,17.13324737548828,-1.2974141836166382,-1.1112167835235596,0.026597600430250168,,,,,,,,,
1739355518.25413,0.32889729922617783,1.1767384732874546,0.3124251716820426,-1.2008984708630437,-1.4270874543754957,1.0418610955249317,0.08050886633816987,0.00013189209953797792,-0.0005812901656403968,0.0009654662927565551,-0.0004926241216185756,-0.0010535777784348747,-0.00028361969199081186,-0.0009118556809139301,-0.2825433909893036,-51.16238784790039,5.029097557067871,17.18085479736328,-1.2974141836166382,-1.0983994007110596,0.019273381680250168,,,,,,,,,
1739355518.265208,0.32889943626535834,1.1767347598824829,0.3124206447511323,-1.2008957411681302,-1.4270853365587606,1.0418610953551963,0.08051532384506815,0.0001467131531162216,-0.0018261609586509987,-0.0013964653095932462,0.0011963450540376903,0.0002445900708426894,-0.00015686720495592586,0.002639518445498737,-0.2825433909893036,-51.11081314086914,5.108443260192871,17.10944366455078,-1.2974141836166382,-1.0983994007110596,-0.0072769103571772575,,,,,,,,,
1739355518.2761843,0.3288974471668867,1.1767405078887643,0.3124244602888025,-1.2008977623148476,-1.4270848750505771,1.0418601894210422,0.08050532191266752,-0.00038131301751792015,0.0007816633966804193,0.0004905155637701727,4.9621175348581485e-05,0.0004157416179809737,-0.0008062199349394339,-0.003050731248109172,-0.2547723948955536,-51.19015884399414,5.029097557067871,17.13324737548828,-1.3102315664291382,-1.1176254749298096,0.03941498324275017,,,,,,,,,
1739355518.2872112,0.32889936530788116,1.1767367861677724,0.3124223803429324,-1.2009013306136713,-1.427087148036761,1.0418626106035718,0.08051703625378903,0.0009627583069948115,-0.00045011909097655443,-0.0003312670662789987,-0.0013973952535217017,-0.000668895063940024,2.9753750295439884e-05,0.000954609671632141,-0.2825433909893036,-51.13858413696289,5.056868553161621,17.18085479736328,-1.2910054922103882,-1.1112167835235596,-0.020094294100999832,,,,,,,,,
1739355518.2981281,0.32889744716648617,1.1767338088247001,0.3124275571214493,-1.2009012242864874,-1.4270871940493883,1.0418642153365094,0.08050866470118874,-0.00016451548314721978,-0.002054342369513695,0.0012884475268930176,-0.0009654891431566943,-0.0013487009664112253,-0.0006739638991799635,0.00015619152855187563,-0.2547723948955536,-51.11081314086914,5.029097557067871,17.18085479736328,-1.3175557851791382,-1.1249496936798096,0.012864691205322742,,,,,,,,,
1739355518.3081448,0.3288957346462055,1.176742187512165,0.31242248959031327,-1.2008995386684853,-1.427086502353988,1.0418657495524994,0.08051501083852572,-0.0005718643664383968,0.0014347060320533981,0.00019126162948969027,-0.00042184126890327297,-0.0005581511358838057,-0.00010290748625789476,-0.00023107064971190222,-0.2309686839580536,-51.21396255493164,5.056868553161621,17.15705108642578,-1.2974141836166382,-1.1377670764923096,-0.013685601763427258,,,,,,,,,
1739355518.3191879,0.32889744716693664,1.1767347628259435,0.31242270407610556,-1.2008949463829468,-1.4270888116316245,1.0418657495528196,0.08051490332535864,3.574412818828452e-05,-0.001269716718278783,-0.001239790415793049,0.0006763280211568298,-0.0006051652942546605,0.00048626570459470603,0.0013693153534991521,-0.2547723948955536,-51.11081314086914,5.056868553161621,17.10944366455078,-1.3038228750228882,-1.1377670764923096,-0.0008682189509272575,,,,,,,,,
1739355518.3301768,0.3288994451077897,1.1767360455110378,0.3124227258947018,-1.2008931205726858,-1.4270853852706074,1.041864234232663,0.08051591001417262,0.0005148305928560178,-0.00048146831789903726,-0.0005945869901701087,0.0005428472824010049,-0.0013984538544709068,0.00027447823851892313,0.00026343418518265426,-0.2825433909893036,-51.13858413696289,5.056868553161621,17.10944366455078,-1.3102315664291382,-1.1249496936798096,-0.013685601763427258,,,,,,,,,
1739355518.3411841,0.32889924807230864,1.1767367607627375,0.31242308912189026,-1.200894865955834,-1.427087148254982,1.0418618530152737,0.08050759786330317,0.0010393614860871407,-0.0002516640989042075,-0.001424386183541604,0.0008817072968759818,-0.0014042187691563036,-2.345683755758446e-05,-0.00040331232752310365,-0.3063471019268036,-51.13858413696289,5.056868553161621,17.13324737548828,-1.2910054922103882,-1.1048080921173096,0.03300629183650017,,,,,,,,,
1739355518.35218,0.32889744711981833,1.1767402328097805,0.31242246016400105,-1.2008964473522725,-1.4270860371639742,1.0418633683354304,0.08051612409872225,-0.00027144597358108564,2.427153611814597e-05,-9.412005632173662e-05,-0.00012538920266281082,-8.178329833898665e-05,0.0007822723028185661,0.001940874969578,-0.2547723948955536,-51.19015884399414,5.056868553161621,17.15705108642578,-1.2974141836166382,-1.1176254749298096,-0.04756011441349983,,,,,,,,,
1739355518.3631766,0.32889955916303204,1.176738393776962,0.3124265861762438,-1.2008972868854195,-1.4270862602011891,1.041864234232663,0.08051486847665584,3.12598399750922e-05,-0.0005314029004943255,0.0012276619373501154,0.00016898078298993382,-0.0009842535196159154,0.0006437158607999528,0.0009620047027397676,-0.2825433909893036,-51.16238784790039,5.029097557067871,17.15705108642578,-1.2974141836166382,-1.1249496936798096,-0.0008682189509272575,,,,,,,,,
1739355518.374101,0.3288994451084335,1.1767411599926947,0.3124247851734283,-1.2008927639372187,-1.4270863903759479,1.0418626106753521,0.08051332873644747,-0.0002903740529010941,0.0010848075314271303,-0.00023300740756927935,0.0023837872433509124,-0.0012832722660082148,-0.0007011036292169105,-0.0004685085495282799,-0.2825433909893036,-51.19015884399414,5.029097557067871,17.10944366455078,-1.2974141836166382,-1.1112167835235596,-0.0008682189509272575,,,,,,,,,
1739355518.3841414,0.3288957608918721,1.1767384703557313,0.31242764018422814,-1.2008981384538233,-1.4270879253257425,1.0418633683354304,0.08051012984135836,-0.0006457464624181702,-0.00040562739131426445,0.0011205051687766016,-0.0006748711991375811,-0.0008316467869520681,-0.00011064410275348505,-0.0009279415834974726,-0.2309686839580536,-51.16238784790039,5.029097557067871,17.18085479736328,-1.2974141836166382,-1.1176254749298096,0.026597600430250168,,,,,,,,,
1739355518.3941605,0.3288974484634634,1.176737756723524,0.31242454129000513,-1.2008963292862995,-1.4270855030162268,1.041864234232663,0.0805113612237165,-0.0009874526389064343,6.83366627255003e-05,-0.0005113116767162886,9.746847167740045e-05,0.0009436472056245673,0.0002550947729189341,0.0010017298051050142,-0.2547723948955536,-51.16238784790039,5.056868553161621,17.15705108642578,-1.3102315664291382,-1.1249496936798096,-0.0072769103571772575,,,,,,,,,
1739355518.4041796,0.3288974559155141,1.1767346120439888,0.31242306771135664,-1.2008963381161688,-1.4270861012549347,1.0418613420280733,0.08050899326489629,-0.0010916873500161099,-4.6815101036296915e-05,9.686408814450699e-05,-0.001216074376862163,5.492238988284942e-05,-0.0016999289865055243,0.0006315659754880087,-0.2547723948955536,-51.13858413696289,5.080672264099121,17.15705108642578,-1.3038228750228882,-1.1313583850860596,0.012864691205322742,,,,,,,,,
1739355518.4141943,0.3288974222841215,1.1767381146034241,0.3124237748374942,-1.2008945466089813,-1.4270845730864097,1.0418621396632615,0.08050618464804726,-0.0013714939475682592,-0.0003682845579873682,-0.00153939336745501,0.00015653053428991103,0.0020153134285693726,-0.0009897637414738912,-0.0023258461214123866,-0.2547723948955536,-51.13858413696289,5.080672264099121,17.13324737548828,-1.3038228750228882,-1.1112167835235596,0.03300629183650017,,,,,,,,,
1739355518.4251761,0.3289011590324696,1.17674033485665,0.3124218939101595,-1.200897873980356,-1.4270856501532256,1.041861695975353,0.08051277199219485,0.0006241268335311607,0.0012859273106064707,-0.0013185683878140055,-0.0007136990158129016,-0.0008688605631521863,-0.00015866548135397664,0.0016430402476079282,-0.3063471019268036,-51.19015884399414,5.080672264099121,17.18085479736328,-1.3038228750228882,-1.1048080921173096,-0.020094294100999832,,,,,,,,,
1739355518.435191,0.32889573464622923,1.1767404767858798,0.31242741273823144,-1.2008963292818207,-1.4270863903769782,1.0418633683327707,0.08050572279076708,-0.001791426406312554,0.0013552301025242216,0.0008923154474286365,-0.0003934836683462315,-0.00011027385347959763,0.0004951259729769023,-0.001995822312073784,-0.2309686839580536,-51.19015884399414,5.029097557067871,17.15705108642578,-1.2974141836166382,-1.1176254749298096,0.03941498324275017,,,,,,,,,
1739355518.4461827,0.32890156806334736,1.1767404702472444,0.3124248605570944,-1.2008963646071218,-1.4270872003645698,1.0418626106753521,0.08051013130364801,0.0002900899638043572,-9.841958498134102e-05,-0.0003344799796841343,-0.0007649432813810721,-0.0007272478933990732,0.0004075905481136737,-0.0007692447481511533,-0.2825433909893036,-51.19015884399414,5.056868553161621,17.15705108642578,-1.2910054922103882,-1.1112167835235596,0.026597600430250168,,,,,,,,,
1739355518.4582098,0.32890287019723846,1.1767367596766067,0.31242556918742675,-1.2008963289590016,-1.4270871480370564,1.0418633508928274,0.08051520508084424,0.001251045538653821,6.14579755157629e-05,-0.0005038570667336079,0.00018952423591567393,-0.0004667903327039548,0.00027894177183297584,0.0021869834900546453,-0.3301508128643036,-51.13858413696289,5.056868553161621,17.15705108642578,-1.2910054922103882,-1.1176254749298096,-0.0072769103571772575,,,,,,,,,
1739355518.4692152,0.328898157096018,1.1767384732875041,0.31242552308228555,-1.2008963292858503,-1.4270856328781099,1.0418621397250396,0.08050692517684097,-0.0002889799965395118,0.0009641707184070598,-0.00016734921442763625,-0.00036829712075230124,0.000680084031525752,-0.00013193175313944605,0.00047054629760147934,-0.2547723948955536,-51.16238784790039,5.029097557067871,17.15705108642578,-1.3038228750228882,-1.1112167835235596,0.03941498324275017,,,,,,,,,
1739355518.4801688,0.3288974471709442,1.1767382348689273,0.31242942246571787,-1.200894546572493,-1.4270863897306614,1.0418642342300044,0.08051790069970816,-0.0002996350623278549,7.804016726048333e-05,0.0011761423719377235,-0.00018034451914816774,0.0007983286646772226,4.5194541619942175e-05,0.001707637090471913,-0.2547723948955536,-51.16238784790039,5.005293846130371,17.13324737548828,-1.2974141836166382,-1.1249496936798096,-0.027418512850999832,,,,,,,,,
1739355518.4911501,0.32889873082411414,1.1767383923597505,0.3124277627124527,-1.2008963263424115,-1.4270879100574865,1.0418643519702329,0.08050847554572024,-7.940833525515198e-05,-0.0002196311563570404,0.000532531973394621,-0.0011792246184554283,-0.0016683391318356342,-0.0002210675235602529,0.0010761926981547893,-0.2825433909893036,-51.16238784790039,5.029097557067871,17.15705108642578,-1.2845968008041382,-1.1249496936798096,0.026597600430250168,,,,,,,,,
1739355518.5011504,0.3289002324656921,1.1767360455096674,0.312425569193353,-1.2008920486760257,-1.4270863424095985,1.041862610677346,0.08051344735065658,0.00026097479095046026,-0.0008225967581455577,0.00010522322779895417,0.0005076205829041126,-6.476347326573285e-05,-0.0014526057033550908,0.00048382030124152813,-0.2825433909893036,-51.13858413696289,5.056868553161621,17.10944366455078,-1.2974141836166382,-1.1112167835235596,-0.0008682189509272575,,,,,,,,,
1739355518.512123,0.32890115763296557,1.1767373717827936,0.31242379817914867,-1.2008963289547645,-1.4270856327163335,1.0418642327791128,0.08051100702220328,0.0010131986555716442,0.00014162465313395767,-0.0005597861963783155,0.0004010337719780176,0.0005309533221340963,-0.00030662017979762033,0.0007934473867962896,-0.3063471019268036,-51.19015884399414,5.080672264099121,17.15705108642578,-1.3038228750228882,-1.1249496936798096,-0.0072769103571772575,,,,,,,,,
1739355518.5221777,0.3288974588316774,1.1767384467440638,0.3124235503036058,-1.2008914468402492,-1.427087148036761,1.0418633683354057,0.080510290019251,1.5106725775008859e-05,-0.00039736136730193316,-0.00029245175724056344,0.0005362405875057035,-0.0006103425841410638,-0.0010447675756573892,-0.000344475310340512,-0.2547723948955536,-51.16238784790039,5.080672264099121,17.13324737548828,-1.2910054922103882,-1.1176254749298096,-0.0008682189509272575,,,,,,,,,
1739355518.53315,0.3288974471670025,1.17674175050246,0.3124276227342825,-1.2008963331929383,-1.4270863903766828,1.0418626106753521,0.08051702992670709,-0.0007211535785111506,0.00038611264643101254,-9.752853364389399e-05,-0.0004536366465699011,-9.782019965790662e-05,-0.001101652393524003,0.003417229816123019,-0.2547723948955536,-51.23776626586914,5.029097557067871,17.15705108642578,-1.2974141836166382,-1.1112167835235596,-0.020094294100999832,,,,,,,,,
1739355518.5441747,0.3288994451077897,1.1767404416728378,0.31242556497901136,-1.2008963263424337,-1.4270848881384783,1.0418618530152737,0.08050930834468277,-0.0004487658941774741,-8.178088752545713e-05,-0.00012586176740293466,-0.00024378229377972158,0.00011896063636886877,0.00010644407695079013,-0.00022583732485475535,-0.2825433909893036,-51.19015884399414,5.056868553161621,17.15705108642578,-1.3102315664291382,-1.1048080921173096,0.0064559997990727425,,,,,,,,,
1739355518.5542011,0.3288974500831218,1.1767377550878293,0.3124273252846561,-1.2008906841419074,-1.427085632716826,1.0418583590408823,0.0805100862587708,-5.5385983247340724e-05,-0.0015908393513858702,-0.00027086665958907995,0.0012391792490542136,8.390461011520032e-05,-0.0006241742629622894,0.000534618081196382,-0.2547723948955536,-51.16238784790039,5.029097557067871,17.08167266845703,-1.3038228750228882,-1.1112167835235596,0.012864691205322742,,,,,,,,,
1739355518.5651867,0.32890044139165364,1.1767419413655327,0.312425569225602,-1.20089811196287,-1.4270871494903112,1.0418610552942742,0.08050846114120414,-0.0001223579624180434,0.0013718592611888332,-0.0005631074736401802,-0.0019016233442679942,-0.0006197765615425016,-0.00042485003437513886,0.0005562890689533924,-0.3063471019268036,-51.21396255493164,5.056868553161621,17.18085479736328,-1.2910054922103882,-1.1249496936798096,0.026597600430250168,,,,,,,,,
1739355518.576166,0.32889944509566016,1.1767402323696106,0.3124276489812831,-1.2008945466088319,-1.4270871480367855,1.0418642341788273,0.08051332419306864,-0.0004028143698518873,0.0001035544553604415,0.00045106226035236815,0.001183328484275754,-0.00035303694422490154,-0.00030399842135017446,0.0006509981948718683,-0.2825433909893036,-51.19015884399414,5.029097557067871,17.13324737548828,-1.2910054922103882,-1.1249496936798096,-0.0008682189509272575,,,,,,,,,
1739355518.5871148,0.3289028445213443,1.1767384615132999,0.31242764898128256,-1.200896090540223,-1.4270855154635511,1.0418633683354301,0.08051240340926911,0.0006348577535020047,0.0008276300547668939,0.00014928218889874608,-0.000700784120920454,-0.0004935600556082433,0.00018588735419532867,-0.0005677689914984664,-0.3301508128643036,-51.16238784790039,5.029097557067871,17.15705108642578,-1.3038228750228882,-1.1176254749298096,-0.020094294100999832,,,,,,,,,
1739355518.5972145,0.3288994451064876,1.1767367565145423,0.31242764995334427,-1.2008942287052635,-1.4270856850384561,1.0418626106753521,0.08050735688093713,-0.0008437131588975416,-0.0009296571577957785,1.2895601668563663e-05,0.000831932005523656,-0.0006085803039673357,-0.0005404273367392187,-0.002172547618393342,-0.2825433909893036,-51.13858413696289,5.029097557067871,17.13324737548828,-1.3038228750228882,-1.1112167835235596,0.026597600430250168,,,,,,,,,
1739355518.6081538,0.3289015445158334,1.1767373717868232,0.31242764898128433,-1.2008963292852528,-1.4270903008411782,1.0418618472010726,0.08051312372223599,-9.21707198402858e-05,-0.00013473224116480342,-0.00020705416465503632,-0.00016476067491923618,-0.0013000453295968749,-0.00030444421455210705,-0.0002180549360457854,-0.2825433909893036,-51.19015884399414,5.029097557067871,17.15705108642578,-1.2910054922103882,-1.1048080921173096,-0.013685601763427258,,,,,,,,,
1739355518.6191785,0.3289019121759653,1.1767367037337702,0.31242588410342426,-1.20089240084162,-1.4270863903944804,1.0418633682815623,0.08051561029830932,0.0006327121243279655,-0.0005114779990973053,0.00023418781489963615,0.0011532432464530927,0.0003907691914917409,0.0006762908109633036,0.0011857660110163428,-0.2825433909893036,-51.13858413696289,5.056868553161621,17.13324737548828,-1.2974141836166382,-1.1176254749298096,-0.020094294100999832,,,,,,,,,
1739355518.6292026,0.32889576101721213,1.1767399496758035,0.31242764899728176,-1.2008953755025182,-1.4270863845624826,1.0418617352777009,0.08050832185752325,-0.0017936829316891564,0.0005178980443987843,1.5240168747111333e-05,0.0008372248268844929,0.00073029020696723,-0.0019459008919047208,-0.0007903469541345355,-0.2309686839580536,-51.21396255493164,5.029097557067871,17.15705108642578,-1.2974141836166382,-1.1048080921173096,0.026597600430250168,,,,,,,,,
1739355518.6401343,0.32889976297212326,1.1767367635885866,0.3124276489812826,-1.2008963027895134,-1.4270856327165715,1.0418626106746873,0.08051346994568596,0.00022587644267215635,-0.0003259272896406911,5.515388518941434e-05,-0.0010664528249562277,0.00011168237412528868,0.001149886600130263,0.0001373735107136215,-0.2825433909893036,-51.13858413696289,5.029097557067871,17.15705108642578,-1.3038228750228882,-1.1112167835235596,-0.020094294100999832,,,,,,,,,
1739355518.6501615,0.3289011619505896,1.176737652067972,0.3124276490172848,-1.2008965676679417,-1.4270871611187133,1.0418631745945335,0.08051129943641339,1.6223792562184824e-05,1.1229594804688546e-05,0.00024037570264252386,-0.0017210931366869054,-0.0004759556192776746,-0.00025984480168269626,0.000309914966725508,-0.3063471019268036,-51.16238784790039,5.029097557067871,17.15705108642578,-1.2910054922103882,-1.1249496936798096,0.026597600430250168,,,,,,,,,
1739355518.6611192,0.32890399262857095,1.1767393227215055,0.312429431802311,-1.2008916954647115,-1.4270871475523181,1.0418632491383284,0.0805096244311184,0.0015761774058406898,0.00021074635526472925,0.0010358351941813489,0.0017665832193979455,9.941801121127625e-07,-0.001180243574772076,0.0007868252466209928,-0.3063471019268036,-51.21396255493164,5.005293846130371,17.10944366455078,-1.2910054922103882,-1.1176254749298096,0.0064559997990727425,,,,,,,,,
1739355518.6712244,0.32890158313958084,1.1767377536347792,0.31242567417410083,-1.2008962222866078,-1.427087305020163,1.041864221144655,0.08050573594608638,-0.00028395097126294013,-0.00036131253633294233,0.0005988322445172644,0.0004383602347389539,-0.0005062156874705894,0.0005196038599541281,-0.0012186947174497097,-0.2825433909893036,-51.16238784790039,5.056868553161621,17.15705108642578,-1.2910054922103882,-1.1249496936798096,0.03941498324275017,,,,,,,,,
1739355518.6821628,0.3288974471709597,1.1767406905360775,0.3124294326305609,-1.2008963017650982,-1.427086076410125,1.0418641145570013,0.08051793947238091,-0.000762613365269512,0.00010682608885913204,0.001318434018746336,-1.9972214675887416e-05,-0.00015676100604850428,0.0003091010745991106,0.0017005474477614258,-0.2547723948955536,-51.23776626586914,5.005293846130371,17.15705108642578,-1.2974141836166382,-1.1249496936798096,-0.027418512850999832,,,,,,,,,
1739355518.6922038,0.328899707564456,1.1767403652102573,0.3124255682193817,-1.2008963162034327,-1.427084892493812,1.0418642342306361,0.08051104726961696,0.0001738486217040376,0.0007433970589839328,-0.0006785552858010766,-0.00046451642894746446,0.0007801049976272176,0.0016694428052271074,-0.000616595024564262,-0.2825433909893036,-51.19015884399414,5.056868553161621,17.15705108642578,-1.3102315664291382,-1.1249496936798096,-0.0072769103571772575,,,,,,,,,
1739355518.7031245,0.3289011576329656,1.1767365105726435,0.31242840404742706,-1.2008959835950421,-1.4270906289294956,1.0418633683354304,0.08051427922076963,-0.0004279225642826851,-0.000679200571770182,0.0008928746390425538,-0.00019490611035173362,0.000682555093210743,0.0003408018130842342,0.0013603852667645666,-0.3063471019268036,-51.13858413696289,5.056868553161621,17.15705108642578,-1.2974141836166382,-1.1176254749298096,0.03941498324275017,,,,,,,,,
1739355518.713201,0.3289011576645232,1.176736327518882,0.3124255916728564,-1.2008958471479416,-1.4270885536437756,1.0418625975933997,0.08051002717588784,0.0005575474839500455,-0.00044560859809468137,0.0004076392044010263,-0.0006133878159490367,-0.00187763090276444,0.00012774412858595634,0.00039904084700146574,-0.3063471019268036,-51.16238784790039,5.056868553161621,17.18085479736328,-1.2910054922103882,-1.1112167835235596,0.03941498324275017,,,,,,,,,
1739355518.7232647,0.3289012363655226,1.176738461077684,0.31242549077958987,-1.2008942806030887,-1.4270848751279384,1.0418589941175587,0.08051124506313677,0.001380185894868886,-0.0011145263012068438,0.0003292622428008423,0.0013089651020797674,0.00043896849291717374,-0.0016535731885521092,-3.199280087893858e-05,-0.3063471019268036,-51.16238784790039,5.056868553161621,17.13324737548828,-1.3102315664291382,-1.1176254749298096,-0.0072769103571772575,,,,,,,,,
1739355518.7341177,0.3289011606888634,1.1767421837369545,0.312427648981135,-1.2008980825158642,-1.4270863903766828,1.0418586590726355,0.08051060480273019,1.600766722674945e-05,0.0010499952663964051,0.0010162811858952696,-0.0014474730081544306,-2.6203892302233593e-05,-0.001249047073537638,-0.0009357911691417336,-0.3063471019268036,-51.21396255493164,5.029097557067871,17.18085479736328,-1.2974141836166382,-1.1048080921173096,0.026597600430250168,,,,,,,,,
1739355518.744167,0.32889976005584104,1.176736324576855,0.312425569191427,-1.200893822522278,-1.427090026911165,1.0418626106212623,0.08051004478181666,0.0008269739314896911,0.0006228545673179016,-0.0005167128061804931,-0.0015350425147513064,-0.0010936487381233,-0.00011907597414108386,0.0003343530351986675,-0.2825433909893036,-51.16238784790039,5.056868553161621,17.13324737548828,-1.2845968008041382,-1.1112167835235596,0.012864691205322742,,,,,,,,,
1739355518.7551806,0.32889944510956753,1.1767367603185803,0.31242860257383676,-1.200896214451294,-1.4270895605817435,1.0418642335866402,0.08051114236883848,-0.0005678272227393295,-0.0007901049461162028,0.001427273337993649,-0.00044418748439977964,-0.0007470470727047431,0.0005144238102410266,-0.0009948714120669353,-0.2825433909893036,-51.13858413696289,5.029097557067871,17.15705108642578,-1.2974141836166382,-1.1249496936798096,0.026597600430250168,,,,,,,,,
1739355518.7651968,0.32890180721778633,1.1767414651138413,0.3124276994268475,-1.2008905117627782,-1.427086547413797,1.041863367689397,0.08050973065044874,0.0005602724722125617,0.00028032988745468695,-0.0004595926264049754,0.0010724943556440466,4.639005184300059e-06,0.0005818093707091686,0.00010136271064241917,-0.2825433909893036,-51.21396255493164,5.056868553161621,17.10944366455078,-1.2974141836166382,-1.1176254749298096,0.012864691205322742,,,,,,,,,
1739355518.7762105,0.32889944544514443,1.1767375709554968,0.3124277741634697,-1.2008958512434589,-1.427086442705378,1.0418617591969903,0.08050903657316043,-3.8029655156370423e-05,-4.597945426995252e-05,5.3175963273782386e-05,-6.641035226477576e-05,-0.0011238840870187391,-0.0003735836751243046,-0.0015668538729023637,-0.2825433909893036,-51.19015884399414,5.056868553161621,17.18085479736328,-1.2974141836166382,-1.1313583850860596,0.03941498324275017,,,,,,,,,
1739355518.787173,0.3289003083766286,1.1767401264662078,0.3124307986177343,-1.2008942803420037,-1.4270848358109647,1.0418633681018408,0.08051406704212273,0.00042976680119485936,0.0008204890297947525,0.001117549196136892,0.0007370453690552486,0.0001748000475590799,-0.0009453826795530309,0.0006193424932414846,-0.2547723948955536,-51.19015884399414,5.029097557067871,17.13324737548828,-1.3102315664291382,-1.1176254749298096,-0.03382720425724983,,,,,,,,,
1739355518.7972755,0.3289018664068844,1.1767384693454048,0.3124276962225038,-1.2008935916127923,-1.427087148034767,1.0418623086972891,0.08050605027524013,0.0014340231952256416,0.0001852814300414658,0.0006552114896887272,-0.0002525208227703384,-0.00010652873980531566,0.00010181699280660898,-0.0019505708070018126,-0.3063471019268036,-51.16238784790039,5.056868553161621,17.13324737548828,-1.2910054922103882,-1.1176254749298096,0.05314789339900017,,,,,,,,,
1739355518.809099,0.3288995588403454,1.1767384731784825,0.3124307498741949,-1.200897939692855,-1.4270864039431517,1.041862597591406,0.08051642984500922,0.00045551220152053543,-0.000454358653492701,0.001752573535922064,-0.0019136458729685786,0.0004946960549288216,0.0006517544836037138,0.0031505740204084923,-0.2825433909893036,-51.16238784790039,5.029097557067871,17.20862579345703,-1.2974141836166382,-1.1112167835235596,-0.013685601763427258,,,,,,,,,
1739355518.8191526,0.32889745602414105,1.1767404593455857,0.3124241291656702,-1.2008981119138182,-1.4270876059051651,1.0418575970200794,0.0805140420058857,-0.0010816231740475755,3.810005997345156e-05,-0.0011532245670423426,-0.0020718538934460266,0.0003641012913016014,-0.0009727793882152375,0.0014546017809143204,-0.2547723948955536,-51.19015884399414,5.080672264099121,17.18085479736328,-1.2910054922103882,-1.1048080921173096,-0.03382720425724983,,,,,,,,,
1739355518.829169,0.3288957347543623,1.1767384425447174,0.31242630407589544,-1.2008917189018629,-1.4270848750642802,1.0418637569115898,0.08050584107424458,-0.001736171704074513,-0.0008637187085288533,-0.0002258207640232874,0.0010737650635140503,0.00010623544046882178,0.0010249848796091206,-0.0010971748809694658,-0.2309686839580536,-51.16238784790039,5.056868553161621,17.10944366455078,-1.3102315664291382,-1.1249496936798096,0.03941498324275017,,,,,,,,,
1739355518.839201,0.3289001799864571,1.176740037981358,0.3124300898407244,-1.2008916753206558,-1.4270840091592938,1.0418601894129589,0.08051246460537025,0.00014307022871540653,0.0007778625795851987,0.0019100754526408402,0.0010721327513204305,0.0003903512494401999,-7.130616207593706e-05,-6.620808459918765e-05,-0.2825433909893036,-51.21396255493164,5.029097557067871,17.13324737548828,-1.3175557851791382,-1.1176254749298096,0.0064559997990727425,,,,,,,,,
1739355518.8501987,0.3289001537449371,1.176736510126261,0.3124262788462687,-1.2008950085442087,-1.427087147982926,1.041864991874796,0.08050857559615555,0.0006900146238998069,-0.00033482891654696377,-0.0005125957503736397,-0.0008917494692863697,-0.001016048036115079,0.0002023828596130391,-0.0017811637981711619,-0.2825433909893036,-51.13858413696289,5.056868553161621,17.18085479736328,-1.2910054922103882,-1.1313583850860596,0.03941498324275017,,,,,,,,,
1739355518.8610966,0.32890139817179576,1.176740365260302,0.3124278856363277,-1.2008922826154282,-1.4270863772947295,1.0418610495040737,0.08050831655651029,0.0010027611464049702,0.0002839465387514679,0.0006275104757457414,0.0002821029958668922,0.0005845242692721489,-0.0016698702782263022,0.0011185095679367937,-0.3063471019268036,-51.19015884399414,5.029097557067871,17.13324737548828,-1.2974141836166382,-1.1249496936798096,0.026597600430250168,,,,,,,,,
1739355518.872162,0.32889984427251334,1.1767367244637594,0.3124227306309074,-1.2008941889863523,-1.4270879100574163,1.0418633681021117,0.08050723811277159,0.0003497424192936461,-0.0009399982258791793,-0.0011288354974341272,-0.00025644765640820896,-0.0009052914346395896,7.600307857914425e-05,-0.0027008554499180545,-0.2547723948955536,-51.13858413696289,5.108443260192871,17.13324737548828,-1.2845968008041382,-1.1176254749298096,0.026597600430250168,,,,,,,,,
1739355518.8831084,0.32890140684987756,1.1767404444101526,0.3124241281458815,-1.2008895453334842,-1.4270860371639975,1.0418622569781242,0.08050576367671242,0.0018500513544316816,0.0011966309488844894,-0.0011938659029520151,0.0009124299973464712,-0.00015817624178835992,0.000889391006037088,-0.0007997182251429245,-0.3063471019268036,-51.19015884399414,5.080672264099121,17.10944366455078,-1.2974141836166382,-1.1112167835235596,0.03941498324275017,,,,,,,,,
1739355518.8931656,0.3289011577379346,1.1767421837126002,0.3124287317781832,-1.2008934737252261,-1.427087148519284,1.0418617352757071,0.08051072341328573,0.00048259724562520754,0.0014138242956809118,0.0006362014308938692,-0.0006711370896436565,-0.0006822599103109465,-6.325919050483741e-05,0.000797441447366605,-0.3063471019268036,-51.21396255493164,5.056868553161621,17.13324737548828,-1.2910054922103882,-1.1048080921173096,0.0064559997990727425,,,,,,,,,
1739355518.904176,0.328898183449692,1.1767417474138153,0.3124255734575497,-1.200893110647146,-1.4270883785313537,1.0418641904639854,0.08051018298621634,0.00040110557264072067,0.00047799711801588295,-0.00045626627578886525,-0.0003035937196750291,-0.0026475322694394627,0.0013043176671280717,0.0011963075028934777,-0.2547723948955536,-51.23776626586914,5.056868553161621,17.15705108642578,-1.2845968008041382,-1.1249496936798096,-0.0008682189509272575,,,,,,,,,
1739355518.91516,0.3289003908916676,1.1767384634639118,0.31242662290636314,-1.2008909658489675,-1.4270856327192734,1.0418620946109325,0.08051164783475316,0.0003312573683165676,-0.0006590744901665631,0.0007547705066579627,-0.00014099407673878836,0.0005418215698172328,-0.0007669042617298701,-0.0009035984557895585,-0.2825433909893036,-51.16238784790039,5.056868553161621,17.15705108642578,-1.3038228750228882,-1.1112167835235596,-0.013685601763427258,,,,,,,,,
1739355518.926096,0.3289016760054701,1.1767400375456472,0.3124258151408887,-1.2008931198650938,-1.4270879071503897,1.041860032428876,0.08051009603660086,0.00031001442291933904,0.00027711828760535904,-0.0020070839012780325,-0.0010169699626537648,-0.0006118759037568977,-0.0007399377373939448,-0.0009253368073370745,-0.2825433909893036,-51.21396255493164,5.056868553161621,17.15705108642578,-1.2845968008041382,-1.1176254749298096,0.026597600430250168,,,,,,,,,
1739355518.9361434,0.3288977624515502,1.1767345345334417,0.3124280492463016,-1.200893110635085,-1.4270856327166124,1.0418598735630935,0.08051631739276767,-0.0003237465895488008,-0.0011122314003483508,0.00047296222216287295,8.004021535989569e-05,0.0005874617028077642,-0.0011303651194963932,0.001718889946463495,-0.2547723948955536,-51.13858413696289,5.056868553161621,17.15705108642578,-1.3038228750228882,-1.1249496936798096,-0.013685601763427258,,,,,,,,,
1739355518.9481645,0.32890118430799475,1.1767404594056967,0.3124287579279144,-1.2008931107440493,-1.4270821518241654,1.0418621004007644,0.08051590482119655,0.0011060740188279796,0.001762533853714997,0.0004132465660748498,0.00021544592403739286,0.0008811036586824556,-0.003208458541345872,0.0021233092288536065,-0.3063471019268036,-51.19015884399414,5.056868553161621,17.15705108642578,-1.2974141836166382,-1.1112167835235596,-0.013685601763427258,,,,,,,,,
1739355518.9591467,0.32889744860707826,1.176742183603713,0.31242486920737333,-1.200891353140772,-1.4270853307305778,1.0418628406418957,0.08051484582276068,-0.0009592458262525283,0.0008590940857545958,-0.002081339337074363,0.0002568807886011749,0.00036996313523532485,-0.0011693813956601658,0.000921812308111389,-0.2547723948955536,-51.21396255493164,5.108443260192871,17.13324737548828,-1.2974141836166382,-1.1176254749298096,-0.013685601763427258,,,,,,,,,
1739355518.9691844,0.3288994538563696,1.1767417461419567,0.31243083772132463,-1.2008938258911968,-1.42708516610903,1.0418633269810647,0.08051325156954688,-0.001273803198615984,0.0018288976554579662,0.001129624764833828,6.975167183729263e-05,0.00039601719467207975,0.0013088054346291737,0.0003679148600382559,-0.2825433909893036,-51.23776626586914,5.029097557067871,17.15705108642578,-1.3038228750228882,-1.1176254749298096,0.012864691205322742,,,,,,,,,
1739355518.9792237,0.3289015723030171,1.1767411491482904,0.3124280392542769,-1.2008948946323603,-1.4270848881305762,1.0418586741001852,0.08050928908632823,5.801773719138752e-05,0.0008430199062597772,-0.0010220736277906678,-0.00016047233031961958,0.0009056378519541931,-0.0004456278056506959,0.00027254918816509795,-0.2825433909893036,-51.21396255493164,5.056868553161621,17.18085479736328,-1.3102315664291382,-1.1048080921173096,0.019273381680250168,,,,,,,,,
1739355518.9911642,0.32889955057049397,1.176739799121394,0.31242871095466174,-1.2008931106350405,-1.4270841692772027,1.0418618529434933,0.08051014420590252,0.00039618161033785676,0.00010069311927054093,0.0003469451660404284,-0.00011504307946014506,0.001170391980630338,-0.0006995177592902289,-0.001586062834605917,-0.2825433909893036,-51.21396255493164,5.029097557067871,17.15705108642578,-1.3102315664291382,-1.1048080921173096,-0.0008682189509272575,,,,,,,,,
1739355519.001243,0.32889809719001556,1.1767382348285433,0.31242629091124047,-1.200893111071098,-1.4270863903647304,1.0418633668818789,0.08051212785994506,-0.00022122540460566402,0.00032034907910725167,-0.0008153233710279739,-0.00033529889464474407,-0.00017823249987309773,0.0018302640034471027,0.0009102925086267296,-0.2309686839580536,-51.16238784790039,5.056868553161621,17.15705108642578,-1.2974141836166382,-1.1176254749298096,-0.0072769103571772575,,,,,,,,,
1739355519.012167,0.328900544532068,1.1767375826844102,0.31243250288268576,-1.2008948932030368,-1.4270855164325846,1.0418622175707606,0.08051054370819206,-0.00034633332791359286,-0.0006994690928296083,0.00013478452385246368,-0.00014977418772808815,0.0008711769765445168,0.00046061423988785766,-0.0003519191980970653,-0.2547723948955536,-51.19015884399414,5.005293846130371,17.18085479736328,-1.3038228750228882,-1.1112167835235596,-0.0008682189509272575,,,,,,,,,
1739355519.0231285,0.32890115797002617,1.1767404446120842,0.3124266318162409,-1.2008948933120516,-1.4270871350079875,1.041863355251259,0.08051252030652757,0.00034946058074506207,0.0009594654121483051,-4.636773520875617e-05,0.000491122549412511,-0.0007227933993522322,-0.0018068050671552495,0.00022800596535065283,-0.3063471019268036,-51.19015884399414,5.056868553161621,17.18085479736328,-1.2910054922103882,-1.1176254749298096,0.019273381680250168,,,,,,,,,
1739355519.0342293,0.32889402212547614,1.1767397530290327,0.31242700159656744,-1.2008931106350331,-1.4270863903766091,1.0418610402443464,0.08050962641788266,-0.0028544119652616547,0.00038884813339315797,-0.000793315866171568,-3.8473824729044256e-05,-5.969610537425587e-05,0.00029421294895413697,6.761851121659464e-05,-0.2071649730205536,-51.19015884399414,5.080672264099121,17.15705108642578,-1.2974141836166382,-1.1249496936798096,0.03941498324275017,,,,,,,,,
1739355519.0461926,0.3289003987003439,1.176740691982249,0.31242875804007053,-1.200891691484272,-1.42708881098497,1.0418619547667034,0.0805105042279601,0.0008427227057333461,0.0011523716259150241,-3.528597222143365e-05,0.0006355253871085571,0.00020768232974901552,-0.0010527939539775604,-0.0006766069614081308,-0.2825433909893036,-51.19015884399414,5.056868553161621,17.10944366455078,-1.3038228750228882,-1.1176254749298096,-0.0008682189509272575,,,,,,,,,
1739355519.057143,0.32889945677432475,1.1767384718222584,0.31243060161877834,-1.2008930723743612,-1.427085632794365,1.041862475420739,0.08051213635388196,-0.0009094994740335835,0.0004622673250921027,0.0003274294370462261,0.0003058777326898336,-0.0007938752640945499,-0.0005640017383744169,-0.0011084354584396895,-0.2825433909893036,-51.16238784790039,5.029097557067871,17.15705108642578,-1.3038228750228882,-1.1112167835235596,-0.013685601763427258,,,,,,,,,
1739355519.0681252,0.3289005296828774,1.176738234759886,0.3124287580359222,-1.2008895452803472,-1.4270872657743323,1.0418617347908963,0.0805085068017965,0.00035563938751508083,-0.00021707246680604245,-0.0006120891482678445,0.0007183209324282381,-0.0006175640744302171,0.0003586923396212214,-0.0015605332318206159,-0.2547723948955536,-51.16238784790039,5.056868553161621,17.10944366455078,-1.2910054922103882,-1.1048080921173096,0.012864691205322742,,,,,,,,,
1739355519.078168,0.32889847987391446,1.1767395047977933,0.3124287317942558,-1.2008931106350331,-1.4270863903773474,1.0418610670043233,0.08050912915443569,-0.000220971179944332,0.00019628331698173898,3.960076130017556e-06,-0.000525228315174591,-0.00012739179779024394,-0.0008378148518569239,0.0004264835039234792,-0.2547723948955536,-51.19015884399414,5.056868553161621,17.15705108642578,-1.2974141836166382,-1.1112167835235596,0.04673920199275017,,,,,,,,,
1739355519.0891895,0.3289001551507075,1.1767397456832986,0.3124308378296298,-1.200891327958014,-1.427087148036761,1.0418593774325389,0.08051244927759013,-3.9287345435992736e-05,0.0007218836418837885,0.0007370389753909131,0.000148618006055352,-0.0004284196401088273,-0.00026853270770790317,0.002345755770505762,-0.2825433909893036,-51.19015884399414,5.029097557067871,17.13324737548828,-1.2910054922103882,-1.1112167835235596,-0.020094294100999832,,,,,,,,,
1739355519.1001697,0.32890399263255476,1.1767377598809499,0.3124287570678607,-1.2008931106350331,-1.427085790793181,1.0418616945062098,0.08050689643390688,0.0014531652614820654,-0.0001308254640335143,-0.000463206794876714,-0.00011795727536626413,0.0005516132460004718,-0.0011700656438300532,-0.0015139897937551155,-0.3063471019268036,-51.16238784790039,5.056868553161621,17.15705108642578,-1.3102315664291382,-1.1048080921173096,0.026597600430250168,,,,,,,,,
1739355519.110177,0.32889644332721546,1.1767410313102051,0.31242484654770475,-1.2008938258907704,-1.4270856327321124,1.041863193260694,0.08051626480175936,-0.0003396567990057973,0.0019132339096079244,-0.0013965995701476033,-0.0009403052128341667,0.0002065669566708917,-9.521397224978137e-05,0.0034656059373875028,-0.2309686839580536,-51.23776626586914,5.080672264099121,17.15705108642578,-1.3038228750228882,-1.1176254749298096,-0.013685601763427258,,,,,,,,,
1739355519.1211588,0.32889745635952117,1.1767376520194377,0.31242875800387077,-1.2008896777478741,-1.4270874630967645,1.0418583656596465,0.08051456182172971,-0.0018535993352158176,-0.000826794287745811,0.00012116577399599608,0.0012010459622155763,-0.001633098203642758,0.000198875280091468,0.0017134723832291571,-0.2547723948955536,-51.16238784790039,5.056868553161621,17.10944366455078,-1.2974141836166382,-1.1112167835235596,-0.0008682189509272575,,,,,,,,,
1739355519.13119,0.3288981559439967,1.1767336258539847,0.31242876095610744,-1.200893110635781,-1.4270879086099955,1.04186114111209,0.08050962594393274,-0.00019315399012881514,-0.0016481032231698376,-0.0008240090393781722,0.000576740983618809,-0.0006656700966786318,-0.0006021918773117592,-0.0010437635761004933,-0.2547723948955536,-51.13858413696289,5.056868553161621,17.15705108642578,-1.2845968008041382,-1.1112167835235596,0.012864691205322742,,,,,,,,,
1739355519.142088,0.3288957346502065,1.176738195569035,0.3124267401239819,-1.2008895717719483,-1.427085615274018,1.0418599782292468,0.0805065390277329,-0.0012201071631316378,-0.000564829138445384,-0.0018833730159764246,0.00046786198803719543,0.000652211916534866,-7.725624224917547e-05,-0.0008000741254435616,-0.2309686839580536,-51.16238784790039,5.080672264099121,17.10944366455078,-1.3038228750228882,-1.1249496936798096,0.03300629183650017,,,,,,,,,
1739355519.1520965,0.3288994452157966,1.1767401533322175,0.31242875803593867,-1.2008902496125324,-1.4270848750562308,1.041862591707123,0.0805073585105614,0.0005207615655640449,0.0006327235922784515,0.000400081383334484,4.023006073558305e-05,0.0009975581823055755,-0.0017835406292864106,-0.0029491001726866897,-0.2825433909893036,-51.19015884399414,5.056868553161621,17.15705108642578,-1.3102315664291382,-1.1112167835235596,0.026597600430250168,,,,,,,,,
1739355519.1621096,0.32890051823395466,1.1767407173500501,0.31243083782977793,-1.2008913279095623,-1.427087148036761,1.0418633290892525,0.0805160315823598,0.0009323054333585306,0.00039451964646725394,0.0002858056961184097,0.00030478988844646177,0.00044096054122881297,0.0016649017417526483,0.0024190879958935992,-0.2547723948955536,-51.23776626586914,5.029097557067871,17.13324737548828,-1.2910054922103882,-1.1176254749298096,-0.0072769103571772575,,,,,,,,,
1739355519.172165,0.32889768375396566,1.1767419187857229,0.3124287580399224,-1.200890249612083,-1.427087265774331,1.0418628579771236,0.080511284018825,-0.0005079925719466033,0.00096867701140861,0.0006823018271192991,0.000474043179204693,-0.0010665744296784346,-8.763492527522442e-05,9.182264754983686e-05,-0.2547723948955536,-51.21396255493164,5.056868553161621,17.15705108642578,-1.2910054922103882,-1.1176254749298096,-0.0072769103571772575,,,,,,,,,
1739355519.1841636,0.3288974559168277,1.1767363271554112,0.312430837829778,-1.2008930841279293,-1.4270856332017856,1.041860188772139,0.08050850679572222,-0.0006520565498048015,-0.0011420352868082239,0.0012079429112449914,-0.0004965229185521381,0.0003497319662891229,0.0013655914645407782,-0.0039415390701030015,-0.2547723948955536,-51.16238784790039,5.029097557067871,17.15705108642578,-1.3038228750228882,-1.1176254749298096,0.012864691205322742,,,,,,,,,
1739355519.1961672,0.32889856921422017,1.1767359306644172,0.3124298098948994,-1.2008975588462683,-1.4270877487134137,1.0418580043686394,0.08051074326445487,3.4702080954821034e-05,-0.0008949368732664724,0.0001079001249137114,-0.0020106693007486244,-0.0007686559519991208,-0.00021923597441451104,0.00023010114570752528,-0.2309686839580536,-51.13858413696289,5.080672264099121,17.20862579345703,-1.2845968008041382,-1.1112167835235596,0.03300629183650017,,,,,,,,,
1739355519.2071376,0.3288974472802772,1.1767403521325805,0.31242513178938114,-1.2008913278500999,-1.4270878664506874,1.0418595225498453,0.08050776861372433,-0.0007707292533361454,-0.0007947866119551647,-0.0012942199059738956,0.00038001741050293315,0.0004474492635581607,0.0005017512722721567,-0.000915856728427113,-0.2547723948955536,-51.19015884399414,5.108443260192871,17.13324737548828,-1.2845968008041382,-1.1249496936798096,0.019273381680250168,,,,,,,,,
1739355519.2171857,0.32889606125894766,1.176738127594902,0.31242875815192966,-1.2008913276309632,-1.4270848924984643,1.0418587569482347,0.08050980352799482,-0.0010699694647852075,1.0699927312916837e-05,-0.0009955998256122335,4.2603821116513215e-05,-0.0020989870276660614,-0.00042287024893833397,0.0003399794974699704,-0.2309686839580536,-51.16238784790039,5.056868553161621,17.13324737548828,-1.3102315664291382,-1.1176254749298096,0.03941498324275017,,,,,,,,,
1739355519.2271864,0.32889944511332087,1.1767353738401236,0.31242899435893084,-1.200894813839187,-1.4270879056971348,1.0418637218588596,0.08050652892979714,-0.001013119710254693,-0.0015095497456643514,0.00013644766898161608,-0.0005574989680563823,0.0011831204597605866,-0.0007174138704704212,-0.0018256011910209044,-0.2825433909893036,-51.16238784790039,5.056868553161621,17.18085479736328,-1.2845968008041382,-1.1249496936798096,0.026597600430250168,,,,,,,,,
1739355519.2381165,0.3289015711147935,1.1767346148367117,0.3124326205081311,-1.2008948933116035,-1.4270925105440189,1.0418640712168021,0.080511664653683,0.0012688062577487,-0.001553702368452721,0.0006336676923345523,-0.0012251128226163886,-0.0022278097113496995,0.0006467819382690229,-0.0012450621807733315,-0.2825433909893036,-51.13858413696289,5.005293846130371,17.18085479736328,-1.2845968008041382,-1.1249496936798096,-0.013685601763427258,,,,,,,,,
1739355519.2481346,0.32889948312620937,1.176737265386945,0.3124308388018398,-1.200890249612084,-1.4270864080532362,1.041862840688409,0.08051246223344546,-0.0002135845191659658,-0.0007813180755969935,0.0007726850593692981,0.0006378012753153,-0.00023036388024274418,-0.0003174404717400837,-0.000563914223745486,-0.2825433909893036,-51.19015884399414,5.029097557067871,17.15705108642578,-1.2974141836166382,-1.1176254749298096,-0.020094294100999832,,,,,,,,,
1739355519.2581556,0.32890157100700124,1.1767372615532867,0.3124327254894691,-1.2008931021156135,-1.4270824931020079,1.0418601500107014,0.08051088849799624,0.000632935553614392,-0.0008257007007101626,0.0007452142762746069,0.00022143287877846908,-0.00012177289405483193,0.00010035399178979988,-0.0016656593936814753,-0.2825433909893036,-51.19015884399414,5.005293846130371,17.15705108642578,-1.3038228750228882,-1.1176254749298096,-0.0072769103571772575,,,,,,,,,
1739355519.268174,0.3288975561818592,1.176741199604879,0.3124269753646813,-1.2008913152029663,-1.4270863898389965,1.0418611585241537,0.08050684044959847,-0.00010350976544105765,0.0007419916333099923,-0.00040568145930133147,0.0005978220434301824,-0.0004073477193251923,0.0004515134979036103,-0.0016529732922375452,-0.2547723948955536,-51.21396255493164,5.080672264099121,17.13324737548828,-1.2974141836166382,-1.1112167835235596,0.03941498324275017,,,,,,,,,
1739355519.2782016,0.328901606002855,1.1767373628308306,0.31242883677692235,-1.2008913240332122,-1.4270856385307962,1.0418649519762697,0.08050705996523888,0.0007429326052057393,0.00022129625226499826,-0.0010787657705012333,0.00021935000462418406,-4.721090239583811e-05,0.000556869565610919,0.0001387780726245123,-0.2825433909893036,-51.19015884399414,5.056868553161621,17.13324737548828,-1.3038228750228882,-1.1313583850860596,0.026597600430250168,,,,,,,,,
1739355519.2901947,0.3288967886973364,1.1767359829750004,0.31242875933644926,-1.200890964867799,-1.4270856327166372,1.0418601500134548,0.08050659889732717,-0.00024968287043398497,-0.0011114874144077184,-1.3877968715769225e-06,-0.000616455104963057,0.00026377924152046054,0.0007150842045777863,-7.140811911099322e-05,-0.2309686839580536,-51.16238784790039,5.056868553161621,17.15705108642578,-1.3038228750228882,-1.1176254749298096,0.03300629183650017,,,,,,,,,
1739355519.3011591,0.3288984720580016,1.176735335419114,0.3124308388138429,-1.2008931103039466,-1.427087450014812,1.0418618113034062,0.08050957307627439,-0.00019458339459927886,-0.0004185806633694262,9.097388461560635e-05,-0.00015304124414122633,-0.0012347964002998382,0.0016086433490299847,-0.00020438415866452515,-0.2547723948955536,-51.16238784790039,5.029097557067871,17.15705108642578,-1.2974141836166382,-1.1313583850860596,0.012864691205322742,,,,,,,,,
1739355519.3111935,0.3289026208855217,1.1767376476569014,0.3124273175286813,-1.2008913191276793,-1.4270847181269346,1.04186024249798,0.08050724253994453,0.001450744118038212,-0.00023484376815920951,0.00020005025028525217,0.0008131723126541162,0.0009778319521811744,0.0002005885064709739,-0.0024954178699900017,-0.2825433909893036,-51.16238784790039,5.080672264099121,17.13324737548828,-1.3102315664291382,-1.1313583850860596,0.026597600430250168,,,,,,,,,
1739355519.3220842,0.3289006238706363,1.1767409554454105,0.31242896816190924,-1.200891289693287,-1.4270825562712386,1.041862974181091,0.08050774913419459,0.0007150562013464559,0.0006907589979525009,-0.0002441443686540101,0.0004999659308163377,0.0020157090474024054,0.002086178968037318,-0.0023726657352764946,-0.2547723948955536,-51.23776626586914,5.056868553161621,17.13324737548828,-1.2910054922103882,-1.1176254749298096,0.019273381680250168,,,,,,,,,
1739355519.3321736,0.32890289774479875,1.176737344919026,0.312433672689353,-1.200893031052509,-1.427086372856318,1.041862256002417,0.08051200053934852,0.00025287351935013996,-0.0009947887442546643,0.0013037288539184716,-0.00024866411923879376,0.00010174200376723551,-0.0002849526290787649,0.0007365578640331438,-0.3301508128643036,-51.19015884399414,5.029097557067871,17.15705108642578,-1.2974141836166382,-1.1112167835235596,-0.013685601763427258,,,,,,,,,
1739355519.3431506,0.32889599721134594,1.176738433879689,0.3124308378777866,-1.200893084142732,-1.4270848358103727,1.0418620810925394,0.08051202001687507,-0.0002008155910197079,0.0003122196665519124,4.097320536374519e-05,-0.0005376507960497878,-0.0002821397503662823,0.000651984437396782,0.00037713480145148905,-0.2309686839580536,-51.16238784790039,5.029097557067871,17.15705108642578,-1.3102315664291382,-1.1112167835235596,-0.013685601763427258,,,,,,,,,
1739355519.3531833,0.3288994452172787,1.1767417500299835,0.31243086421945404,-1.200889181827265,-1.4270863898919444,1.0418625655584697,0.08050558789574169,0.0006533887097780788,0.0006699433922284481,0.0008915962804676514,0.0004876271188200327,-0.00025077978590904815,0.0017818513857424992,-0.003239634912506088,-0.2825433909893036,-51.23776626586914,5.029097557067871,17.13324737548828,-1.2974141836166382,-1.1112167835235596,0.026597600430250168,,,,,,,,,
1739355519.3641121,0.32889573756239127,1.1767352912722084,0.31242878439374494,-1.2008941780442,-1.4270863903766802,1.0418593731341828,0.08050688761006515,-0.001090584018991771,-0.0009638961775993431,-0.00047058947944047754,-0.0003556505681097592,0.0010118640842075753,0.00010198539243262434,-0.0002440243746616599,-0.2309686839580536,-51.16238784790039,5.056868553161621,17.18085479736328,-1.2974141836166382,-1.1112167835235596,0.026597600430250168,,,,,,,,,
1739355519.3741336,0.3289021812096676,1.1767421796628417,0.31242875804126136,-1.2008903742473582,-1.427083462205687,1.0418632111875197,0.08051310457457539,0.001558216362465324,0.0017674292706520629,-0.0009837634387001007,0.0013907292762267115,0.0021714277309511395,0.0006503597410541253,0.0007489452560687775,-0.3063471019268036,-51.21396255493164,5.056868553161621,17.13324737548828,-1.3102315664291382,-1.1176254749298096,-0.013685601763427258,,,,,,,,,
1739355519.3841748,0.32890160604278923,1.1767431766534107,0.31242949281058124,-1.2008927927382105,-1.427085597877258,1.0418605407067654,0.08051433389588118,0.0011704585815978526,0.001440106433355819,0.00016175772861841528,-0.00041145052552540195,9.258303543721277e-05,0.0015756704520290003,-0.0006027858580555537,-0.2825433909893036,-51.23776626586914,5.056868553161621,17.15705108642578,-1.3038228750228882,-1.1249496936798096,-0.027418512850999832,,,,,,,,,
1739355519.3950922,0.32889809676840065,1.1767404623939794,0.31242722075863383,-1.2008930134634046,-1.4270879056428076,1.0418598317729963,0.08050792589763142,-0.0007361222640261203,-0.0006522208263712714,-0.0007732573944461609,-8.338969641713719e-05,-0.00021073555583716192,-4.188962417223384e-06,-0.0009923607366061678,-0.2309686839580536,-51.19015884399414,5.080672264099121,17.15705108642578,-1.2845968008041382,-1.1176254749298096,0.019273381680250168,,,,,,,,,
1739355519.4051278,0.3289002817389353,1.1767372540491117,0.31243154938311796,-1.200892993876964,-1.4270871465832098,1.04186178390577,0.08050794995387701,-9.885149163551361e-06,-0.0009704471203742036,0.0008598051715574903,0.0009297860778649007,-0.0001641756686258507,-0.0003380397208870241,-0.002393300297650984,-0.2547723948955536,-51.19015884399414,5.029097557067871,17.15705108642578,-1.2910054922103882,-1.1176254749298096,0.026597600430250168,,,,,,,,,
1739355519.4161575,0.3289011605927098,1.1767421822773958,0.3124289946949998,-1.200890623426891,-1.4270879050507925,1.04185912830253,0.08051590849084268,0.00036291760987153016,0.002852822921634196,-0.0008436738136706821,0.00011441198411294134,4.161740520426324e-05,-0.0002853981461912223,0.001082113901558308,-0.3063471019268036,-51.21396255493164,5.056868553161621,17.15705108642578,-1.2845968008041382,-1.1176254749298096,-0.013685601763427258,,,,,,,,,
1739355519.4262712,0.32889748216117554,1.1767401934185604,0.3124308407472991,-1.2008925058417328,-1.42708639059202,1.0418579646203139,0.08051018294795667,-0.001290173256964039,0.0006337722250929624,0.0004641066459962118,-0.0004554097735506643,0.0003224609678497945,-0.0012479613356946092,-0.0004942719844592881,-0.2547723948955536,-51.19015884399414,5.029097557067871,17.18085479736328,-1.2974141836166382,-1.1112167835235596,-0.0008682189509272575,,,,,,,,,
1739355519.4371574,0.32890206843913244,1.176739084305994,0.3124287577159183,-1.200892792693778,-1.4270875203071307,1.0418638410480119,0.0805175670792258,-0.0007833770368917606,0.0006679694046343031,-0.0004422093188054565,0.0011517773483488284,-0.000429563430847165,0.00016691104496730657,0.0029609969479026392,-0.2825433909893036,-51.21396255493164,5.056868553161621,17.15705108642578,-1.2910054922103882,-1.1249496936798096,-0.027418512850999832,,,,,,,,,
1739355519.4481483,0.3289004949492636,1.1767372833208023,0.3124298929857775,-1.2008931016939042,-1.4270872526944802,1.0418578430283256,0.08051013042914651,0.00020827227054134103,-0.0012746685948650462,-0.00028247982534637477,-0.00037821377454872775,-0.0013129324442132985,-0.001688970285227112,-0.0009064521981403353,-0.2825433909893036,-51.19015884399414,5.029097557067871,17.15705108642578,-1.2910054922103882,-1.1112167835235596,-0.0008682189509272575,,,,,,,,,
1739355519.4591074,0.3288961567789531,1.1767397456707585,0.31242702146671114,-1.2008920774878065,-1.4270871086299894,1.0418625712410763,0.08051220478545501,-0.0008633977508282636,0.0008134620240161696,-0.002435257686079515,0.0005751344456567509,-0.0004240456927816533,0.0012718065225293892,-0.0014870789344701575,-0.2071649730205536,-51.19015884399414,5.108443260192871,17.15705108642578,-1.2910054922103882,-1.1112167835235596,-0.027418512850999832,,,,,,,,,
1739355519.469164,0.3288960596749934,1.1767404669644377,0.31243186144677876,-1.2008931017872189,-1.4270856283552862,1.0418595097091787,0.08051845361332793,-0.001730018019403852,0.000681619592232767,0.0006330956078354707,-0.00039469330618886636,0.0006030199651412094,-0.0005292551926223276,0.0038883727224010016,-0.2309686839580536,-51.19015884399414,5.029097557067871,17.15705108642578,-1.3038228750228882,-1.1249496936798096,-0.04023589566349983,,,,,,,,,
1739355519.4802082,0.3289019722180829,1.176740355961801,0.31242875808170306,-1.2008907225246064,-1.427087147390714,1.0418613918737183,0.08050792585824577,0.0014075294100715154,0.0008027415478005962,-0.0006266271926633857,9.39572597702578e-05,-0.00029852239541783277,0.0004288960087314,-0.00029655770741475766,-0.3063471019268036,-51.19015884399414,5.056868553161621,17.15705108642578,-1.2910054922103882,-1.1112167835235596,0.019273381680250168,,,,,,,,,
1739355519.4902315,0.3288996901591634,1.1767380831160308,0.3124289942509228,-1.2008884659134753,-1.42708714803675,1.0418608925000068,0.08051013100284088,-0.00015257601271133028,0.00022033492112348427,-0.0006140633969969499,0.0004799076798367123,-0.0009225116051891982,0.0004903564896588648,0.0003253526732244269,-0.2547723948955536,-51.19015884399414,5.056868553161621,17.13324737548828,-1.2910054922103882,-1.1249496936798096,-0.0008682189509272575,,,,,,,,,
1739355519.5010858,0.32889826125261484,1.1767380826414748,0.3124308378337783,-1.200890961875913,-1.4270869910533344,1.0418581573879333,0.08050770003679268,-0.0007736751332512602,-0.0005170571774985833,0.000987833734620813,-0.00016787158339592824,0.0007667157363868124,-0.0010208895555643563,-0.0011172434788566266,-0.2547723948955536,-51.19015884399414,5.029097557067871,17.15705108642578,-1.2910054922103882,-1.1048080921173096,-0.0072769103571772575,,,,,,,,,
1739355519.511145,0.32889600924023776,1.176738289653989,0.31243115310179814,-1.200890373944519,-1.4270863898912798,1.041859522555596,0.0805119530848506,-0.0008341167825812453,-0.00036991373027688923,0.00018084999404686014,0.0013205595702548505,-0.000397902374174231,-0.0005193387895044269,0.0006153146228517118,-0.2309686839580536,-51.19015884399414,5.029097557067871,17.13324737548828,-1.2974141836166382,-1.1249496936798096,-0.0072769103571772575,,,,,,,,,
1739355519.5212572,0.3289005066131464,1.1767402313907498,0.3124329637447925,-1.2008931076431248,-1.4270867305074157,1.0418634082526284,0.08051592167016296,0.0001661554162271579,0.0008586646900162771,0.001836617005822787,-0.000602818342270615,-0.0010456462160310068,-0.0011206857321720883,0.0020606877185241684,-0.2825433909893036,-51.19015884399414,5.029097557067871,17.15705108642578,-1.2974141836166382,-1.1313583850860596,-0.013685601763427258,,,,,,,,,
1739355519.5321925,0.3288976838119611,1.176739243143814,0.31242899522698414,-1.200891326819394,-1.427087030784348,1.0418620815800825,0.08050692290853312,-0.0011048461405048365,0.0013447615172498268,-0.0012209361467747301,0.0004134145850671106,0.0005773605536897523,0.001105961650203516,-0.002017625684592498,-0.2547723948955536,-51.21396255493164,5.056868553161621,17.13324737548828,-1.2910054922103882,-1.1112167835235596,0.026597600430250168,,,,,,,,,
1739355519.5431252,0.3288958439504822,1.1767394115372916,0.31243088394025836,-1.2008921301427082,-1.4270879056961776,1.0418586530154454,0.08051104627126161,-0.0007372031097134407,0.00013326181297449976,0.0009995984856661579,6.858762294362827e-05,-0.0005742435282466904,-0.000849951175239028,0.0002148786890958179,-0.2309686839580536,-51.19015884399414,5.056868553161621,17.15705108642578,-1.2845968008041382,-1.1176254749298096,-0.0072769103571772575,,,,,,,,,
1739355519.55318,0.32890050757310835,1.1767374841649567,0.3124288721311674,-1.2008931106184282,-1.4270863714805295,1.0418609964503882,0.08050612622793847,0.0006105309604401187,-0.0012856736998906057,0.0005060472585034679,0.0003619217271583383,-0.0003519567851708823,-0.0006483458618789592,-0.002735273333843757,-0.2825433909893036,-51.16238784790039,5.056868553161621,17.15705108642578,-1.2974141836166382,-1.1249496936798096,0.03300629183650017,,,,,,,,,
1739355519.5651016,0.32889816757868084,1.176737972133838,0.31242878860650747,-1.2008913001225268,-1.427084009159187,1.0418615314767699,0.08050735639414892,-0.0016607734981686705,7.877124098543204e-05,9.824637227276819e-05,0.00030008703885286417,0.0008781224915753274,-0.0008517971957376072,-0.0008287299121651315,-0.2547723948955536,-51.19015884399414,5.056868553161621,17.13324737548828,-1.3175557851791382,-1.1112167835235596,0.026597600430250168,,,,,,,,,
1739355519.5751848,0.32889944608391813,1.1767338894458503,0.31242865305742845,-1.2008885798327644,-1.4270856327166044,1.041862145247559,0.08051332562938143,-0.00021112043632442518,-0.0005204141103587659,-0.0013181575128743054,0.0019445751449151604,-0.00020884737700618556,-0.0002327402918912222,0.0004687400102631725,-0.2825433909893036,-51.13858413696289,5.056868553161621,17.10944366455078,-1.3038228750228882,-1.1176254749298096,-0.0008682189509272575,,,,,,,,,
1739355519.587118,0.32889944802398036,1.1767414724949166,0.31243297336461134,-1.2008931103025342,-1.4270882081594072,1.0418619489636283,0.08051119935510927,-0.0003421309465155109,0.0010608103242933469,0.0005156190277891965,-0.0014815973505304574,-0.0008904312679368857,3.72444726635539e-05,-0.001109798011674602,-0.2825433909893036,-51.23776626586914,5.005293846130371,17.15705108642578,-1.2910054922103882,-1.1176254749298096,-0.0008682189509272575,,,,,,,,,
1739355519.5980828,0.328900416521481,1.1767403608508835,0.3124335741360175,-1.2008908765283042,-1.4270856332031159,1.0418587571868623,0.08050787537586418,-0.00043354309147129635,0.0007588917059728202,0.0013089159442315496,-0.0008366865317412709,-0.0001763837401642868,-0.0008831790963610531,-0.0006525544281268504,-0.2825433909893036,-51.19015884399414,5.005293846130371,17.15705108642578,-1.3038228750228882,-1.1176254749298096,0.019273381680250168,,,,,,,,,
1739355519.6081152,0.32889849188195164,1.1767335552505482,0.3124308505907371,-1.2008913279201792,-1.4270856327166126,1.041858599481994,0.08051395660447284,-0.0006123160329499494,-0.0014073674893289676,0.00011795518959700128,0.0008153533799850945,0.00020785375799342785,-0.0019035099568912228,0.0021698885383658103,-0.2825433909893036,-51.13858413696289,5.029097557067871,17.13324737548828,-1.3038228750228882,-1.1176254749298096,0.0064559997990727425,,,,,,,,,
1739355519.6181507,0.328899536465449,1.176740355943878,0.31243297280156723,-1.2008930180802204,-1.4270871481982665,1.0418609242564862,0.08051101952307645,-0.00031029589245701653,0.0002755079721368735,0.0008342852198284431,-0.0008684020694903387,-0.0003881367376925771,0.0004349120222733384,0.0012131644866414356,-0.2825433909893036,-51.19015884399414,5.029097557067871,17.15705108642578,-1.2910054922103882,-1.1249496936798096,-0.0072769103571772575,,,,,,,,,
1739355519.6291351,0.3288978868273871,1.1767390005460785,0.3124311527898295,-1.2008924283446838,-1.427082740512016,1.0418591251882363,0.08051514648643804,-0.0015668657777432784,0.001058190032985842,0.00026286230000137963,-0.0003704724393696826,0.0004534027541812666,-0.00046272448411998365,0.0005851811979025508,-0.2309686839580536,-51.21396255493164,5.029097557067871,17.18085479736328,-1.2974141836166382,-1.1176254749298096,-0.0072769103571772575,,,,,,,,,
1739355519.6391594,0.3288981769337385,1.1767409955110428,0.312435070107683,-1.2008909647170605,-1.4270863946755228,1.0418617941553834,0.0805116501241631,-0.0002567770513423787,-0.000867891164384349,0.0020443657386118603,-0.0007289034933202659,-0.0006576814797286978,0.0003160351953703991,0.000989747550864171,-0.2309686839580536,-51.23776626586914,5.005293846130371,17.15705108642578,-1.2974141836166382,-1.1048080921173096,-0.013685601763427258,,,,,,,,,
1739355519.649181,0.3288950837662473,1.1767397169888596,0.31243365287783537,-1.2008902453241082,-1.4270851617663973,1.0418617810575648,0.08051525770646625,0.00013041069288933864,0.0013021851799326508,0.0017450346696889468,0.0013490481796397276,-0.0005658521149850302,0.0009036488357459744,0.0010195703898285852,-0.2071649730205536,-51.21396255493164,5.005293846130371,17.15705108642578,-1.3038228750228882,-1.1176254749298096,-0.04023589566349983,,,,,,,,,
1739355519.6600883,0.3288994551704065,1.1767390033757161,0.3124336723792573,-1.2008906116065872,-1.4270863511228506,1.0418596728993075,0.08050861431278705,0.0004574978846562138,0.0006408700586337124,0.00017188536902579184,0.0005429655198624716,4.2293776027363866e-05,0.0001568077018622945,-0.0015092739035705766,-0.2825433909893036,-51.21396255493164,5.029097557067871,17.15705108642578,-1.2974141836166382,-1.1176254749298096,0.03941498324275017,,,,,,,,,
1739355519.6700935,0.3289002947678193,1.1767373683530349,0.3124270219200734,-1.2008913249641289,-1.4270843604875678,1.0418602242270731,0.08050811055513586,0.0004841468063368711,-0.0005050469986230377,-0.002185536724023239,-0.0009149661149650446,-0.000259144590243764,0.0004064395985957874,0.00033726758094992395,-0.2547723948955536,-51.19015884399414,5.108443260192871,17.13324737548828,-1.2845968008041382,-1.1313583850860596,0.026597600430250168,,,,,,,,,
1739355519.6801622,0.32889944558804146,1.1767373687908445,0.31243391152496874,-1.2008968657208325,-1.4270874968287817,1.0418607467992596,0.08050663964503701,0.00025674685164603177,0.001976328652294068,0.0019178542265245824,-0.0015020464879129346,-0.0006995393306185071,0.0010156767319817578,0.0009932388260587752,-0.2825433909893036,-51.19015884399414,5.029097557067871,17.20862579345703,-1.2910054922103882,-1.1313583850860596,0.03300629183650017,,,,,,,,,
1739355519.691121,0.32889880862940957,1.1767393983454095,0.31243262052414816,-1.2008850018318824,-1.4270868613289314,1.0418592556420798,0.08050812357481056,-0.000316627065176287,-0.00026311780225630674,0.0006882201433940177,0.0029629141026123623,-0.0004931571093393266,0.0008112018801226552,-0.00042233309443659873,-0.2309686839580536,-51.19015884399414,5.005293846130371,17.08167266845703,-1.2974141836166382,-1.1112167835235596,0.026597600430250168,,,,,,,,,
1739355519.701215,0.3288968581136176,1.1767386950081282,0.3124340737390793,-1.2008912473532694,-1.4270848227366928,1.0418600142921726,0.08050856321304764,-0.0013877531526572727,0.0011806134659516612,0.0007054423543111805,0.0007466869671386143,0.00037668358908551393,0.0005980297927108298,-0.0024842220577410384,-0.2071649730205536,-51.19015884399414,5.005293846130371,17.13324737548828,-1.3102315664291382,-1.1176254749298096,0.03941498324275017,,,,,,,,,
1739355519.7121818,0.3288997717725415,1.176739203561333,0.31243086411965043,-1.2008882163062085,-1.427086036679161,1.0418609586487033,0.08050536944861827,0.0004026890592025949,0.00011033695501858038,-0.00046926457452550535,0.0005542582140000482,-0.0007929950311116564,0.0027093664767894416,-0.0018954392413044392,-0.2825433909893036,-51.21396255493164,5.029097557067871,17.13324737548828,-1.2974141836166382,-1.0983994007110596,0.03941498324275017,,,,,,,,,
1739355519.7231057,0.3288984187264757,1.1767372525788877,0.3124288408093268,-1.2008890987394525,-1.427087134952812,1.0418594791306846,0.08051326976925913,-0.0002942124631295175,-0.00020289309420473624,-0.0006575258847866253,0.0002581784182341455,-0.0006255620210666992,0.0008617212083518301,0.0005747094558950206,-0.2547723948955536,-51.19015884399414,5.056868553161621,17.13324737548828,-1.2910054922103882,-1.1249496936798096,-0.027418512850999832,,,,,,,,,
1739355519.7331464,0.32889748638987976,1.1767373408807191,0.3124287620375779,-1.2008890938498726,-1.4270870302989695,1.0418584976562608,0.08051025448172647,-0.0007291351177761911,-0.0010683427743247037,-0.001510883030499035,0.0003079799368031026,-0.0006806499074262595,-6.554308819643778e-05,-0.0009830602445345805,-0.2547723948955536,-51.19015884399414,5.056868553161621,17.13324737548828,-1.2910054922103882,-1.1048080921173096,-0.0008682189509272575,727,791,781,41.174,0,0
1739355519.743158,0.3289004775460148,1.176740360850883,0.31243265938933384,-1.2008913189808452,-1.4270879056948456,1.0418578429737217,0.08050617880045595,-0.0007000121925591436,0.0014440760561257836,0.0003584937364369357,-0.0006068437572831878,0.00014282854432901733,-0.0019235358723735762,-0.0012195477796655913,-0.2825433909893036,-51.19015884399414,5.005293846130371,17.13324737548828,-1.2845968008041382,-1.1112167835235596,0.03300629183650017,724,791,779,41.174,0,0
1739355519.7541745,0.3288998997205043,1.1767374269123998,0.3124287593362242,-1.20088881825145,-1.4270848750565261,1.0418637456513609,0.08051064488593034,1.921189769420688e-06,-0.0004139911570250892,-7.074098556324606e-05,0.0009260362064844232,-0.0003302986123251272,0.002327117072239896,0.0016504258882581876,-0.2547723948955536,-51.16238784790039,5.056868553161621,17.10944366455078,-1.3102315664291382,-1.1249496936798096,-0.0008682189509272575,724,790,780,41.174,0,0
1739355519.7651708,0.32889434132727546,1.176737261444647,0.3124311804275553,-1.2008906126899643,-1.4270848664967302,1.0418612984132918,0.08050584108270226,-0.0015959192176332993,-0.0001660786019172011,5.582597288618764e-05,0.0007670900376683199,0.00021181587471514105,0.0007031501633372389,-0.00201669437294182,-0.2071649730205536,-51.19015884399414,5.029097557067871,17.13324737548828,-1.3102315664291382,-1.1313583850860596,0.03941498324275017,725,790,781,41.391,1,0
1739355519.7760842,0.3288974504197438,1.1767413928747579,0.31242921824597364,-1.2008881889422343,-1.427083969122357,1.0418613744328904,0.08050700152664123,-0.00196573068874447,0.001261843247915886,-0.000566328704079481,0.0008589100880214691,0.0012793346475039043,-0.00011133829071063294,-0.0010328154830429215,-0.2547723948955536,-51.23776626586914,5.080672264099121,17.13324737548828,-1.2910054922103882,-1.1112167835235596,0.026597600430250168,725,790,779,41.283,0,0
1739355519.7861655,0.32889752720007387,1.1767392067994527,0.3124309190791319,-1.2008903358568115,-1.4270845216284755,1.0418586006696875,0.08050830271186679,-0.0006834505743368181,2.2831863258949742e-05,-0.0004979272156332353,0.0011359391700864006,0.0004765805915020367,0.001264480508973438,-0.0003476681276266266,-0.2547723948955536,-51.21396255493164,5.056868553161621,17.13324737548828,-1.3102315664291382,-1.1176254749298096,0.026597600430250168,724,789,780,41.283,0,0
1739355519.7970874,0.3288941018358912,1.176733816841047,0.31242697647956935,-1.200888828634242,-1.4270878523940118,1.0418596639626403,0.08050293762615253,-0.0014369287585483392,-0.0010407397353131317,-0.0009323594993096728,0.0002983345051608562,-0.0007702069700289084,0.00035625004090743696,-0.0023506643431634956,-0.2071649730205536,-51.13858413696289,5.080672264099121,17.13324737548828,-1.2845968008041382,-1.1176254749298096,0.03300629183650017,726,791,780,41.283,0,0
1739355519.8071806,0.3288943763884203,1.176743538643504,0.31242697568693023,-1.200891288334661,-1.4270872672275803,1.0418578989982359,0.08051240325905899,-0.0009291266982010231,0.001584802269571029,-0.0022229026964225604,0.0002486664816785134,0.00019902221977759877,-0.0009859058686558508,0.0005694633156780234,-0.2071649730205536,-51.23776626586914,5.080672264099121,17.13324737548828,-1.2910054922103882,-1.1112167835235596,-0.020094294100999832,724,793,780,41.174,0,0
1739355519.8181558,0.3288984751062116,1.176736318215554,0.3124347464417982,-1.200887289298112,-1.4270856327172772,1.0418587365978913,0.08050862508295112,0.000561858494311397,-0.00036599228746803504,8.929525275587209e-05,0.0006150180544026978,3.370235835329879e-05,-1.3729228375228156e-05,-0.00018417609696199072,-0.2547723948955536,-51.16238784790039,5.005293846130371,17.10944366455078,-1.3038228750228882,-1.1176254749298096,0.012864691205322742,725,790,780,41.283,2,0
1739355519.8281753,0.32889953271876016,1.1767372529226021,0.312430868323715,-1.2008895324878863,-1.4270824538022162,1.0418624791313686,0.08051468870395567,0.0006115417056574749,-0.000404083622573558,-7.659523265359837e-05,0.00040946778249688505,0.000765786335307719,0.0021063303324342347,0.002241739144901871,-0.2825433909893036,-51.19015884399414,5.029097557067871,17.10944366455078,-1.3038228750228882,-1.1112167835235596,-0.027418512850999832,726,791,782,41.174,1,0
1739355519.8391466,0.3288997218268871,1.1767392829520287,0.3124319088521747,-1.2008945724771019,-1.4270863903587376,1.0418586064502464,0.08050692283638332,0.0011332063420382294,-0.0001175784231851822,0.0010982509185546122,-0.0018893143960974827,-0.0006333041435223073,-0.0007392436240623052,-0.0017553152365420409,-0.3063471019268036,-51.21396255493164,5.056868553161621,17.18085479736328,-1.2974141836166382,-1.1176254749298096,0.026597600430250168,724,791,779,41.174,0,0
1739355519.8491595,0.3288981599878877,1.1767404344407517,0.31242769420190636,-1.2008930988558426,-1.427085915065752,1.0418614697357356,0.08051088817380908,0.00012124256533258801,0.0010823023365152135,-0.000632578852017044,-0.0013639204339349251,0.0010232469039486499,0.0007571983850194119,-0.002281806951195158,-0.2547723948955536,-51.19015884399414,5.080672264099121,17.15705108642578,-1.2974141836166382,-1.1377670764923096,-0.0072769103571772575,725,791,779,41.174,0,0
1739355519.8611479,0.32890368668512665,1.1767373678256992,0.3124309976741994,-1.2008902565097224,-1.4270836559439009,1.0418622934377813,0.0805109560923425,0.0021204414362179205,0.0010917119875141087,-0.0005626893753447862,0.000737774068588512,0.0019373832950794593,-5.6545739255256736e-05,-0.001021306175224126,-0.3301508128643036,-51.19015884399414,5.056868553161621,17.13324737548828,-1.3175557851791382,-1.1176254749298096,0.019273381680250168,725,792,778,41.174,1,0
1739355519.8721335,0.32890039834787627,1.1767372644605318,0.31243159257613273,-1.2008882156020981,-1.4270879056961747,1.0418621202705995,0.08051279828444358,0.0015168530074442961,0.0006005184356285245,0.0014443662389020655,0.0010467221131261358,0.00034610657864948363,-0.001018661151464124,0.0004377284377142402,-0.2547723948955536,-51.19015884399414,5.056868553161621,17.13324737548828,-1.2845968008041382,-1.1112167835235596,-0.020094294100999832,725,790,779,41.174,1,0
1739355519.8821526,0.32890060933371307,1.1767335563972896,0.3124310740887808,-1.200888109308996,-1.4270898712691218,1.041859819630755,0.08051342695434996,0.00045990382637734254,-0.0002614889371514628,-0.00041609047435632054,4.729273951764926e-05,-0.0006767417495582288,-0.0002166088864427862,0.0010628149872578207,-0.2547723948955536,-51.13858413696289,5.029097557067871,17.13324737548828,-1.3038228750228882,-1.1249496936798096,-0.027418512850999832,724,792,779,41.174,0,0
1739355519.892161,0.3288997602173476,1.176737280049883,0.3124336989354623,-1.2008892949251346,-1.4270829095560238,1.0418595850581922,0.08050538739031735,-0.0004082263847287539,0.00024757233347201513,0.0002586245309623346,0.00045399748739246253,0.00037468335750500184,0.0007710120534590968,0.00036216443786187046,-0.2825433909893036,-51.19015884399414,5.029097557067871,17.10944366455078,-1.2910054922103882,-1.1249496936798096,0.03941498324275017,725,791,779,41.174,0,0
1739355519.903178,0.3289011580658847,1.1767419059215956,0.31243375255131617,-1.200890168826789,-1.4270848748232414,1.0418621202656682,0.08050862508328131,-0.0002802775768841716,0.0013887394017062789,0.00019104006882138057,-1.0750937863357793e-06,0.0015617472096167303,-6.177157297753094e-05,-0.001364681580592413,-0.3063471019268036,-51.21396255493164,5.029097557067871,17.15705108642578,-1.3102315664291382,-1.1112167835235596,0.012864691205322742,725,792,779,41.174,2,0
1739355519.9141128,0.32890332285401597,1.1767355755861164,0.3124319206422355,-1.2008881094288462,-1.4270898710537805,1.0418595095294731,0.0805145132438965,0.00040444888812880223,-0.0003262756396471242,0.000507902975938592,0.000916976044762819,-0.0012122469390803722,-0.0006918570429930294,0.002139197818443173,-0.3063471019268036,-51.16238784790039,5.056868553161621,17.13324737548828,-1.3038228750228882,-1.1249496936798096,-0.03382720425724983,726,791,779,41.283,2,0
1739355519.9251878,0.3288995735101838,1.176741393312618,0.31243169804046766,-1.20088990179568,-1.4270856312869795,1.0418596243521394,0.08051438246273131,1.6052671027303074e-05,0.0012926633889604594,0.0004034738489893606,0.00020268178558852627,-5.185455863984125e-05,-0.0007675023232874942,0.0024409337235336377,-0.2547723948955536,-51.23776626586914,5.056868553161621,17.15705108642578,-1.3038228750228882,-1.1249496936798096,-0.03382720425724983,725,790,779,41.174,0,0
1739355519.9360938,0.3288994810860768,1.1767394375946503,0.3124312001995977,-1.2008923938416127,-1.4270871480367529,1.0418602635589742,0.08051240333314984,0.00048415350996683447,0.0006419588028464965,0.0004524713464419097,-0.0006292934599594327,-0.0006567882886472816,-0.000845167278708962,0.0009195380208345452,-0.2825433909893036,-51.19015884399414,5.056868553161621,17.18085479736328,-1.2910054922103882,-1.1048080921173096,-0.020094294100999832,730,791,780,41.391,1,0
1739355519.9471865,0.32889957630674865,1.1767392049710668,0.31243402245336077,-1.2008920407070456,-1.4270845725939583,1.0418600668113873,0.08050850728027469,-0.00035651230878340864,0.0008803460111631196,0.0017447541626872433,-0.00024318414643709815,0.0007491433975691894,0.001214590540723781,-0.0014801435541774485,-0.2547723948955536,-51.21396255493164,5.029097557067871,17.15705108642578,-1.3038228750228882,-1.1176254749298096,0.012864691205322742,725,790,778,41.391,2,0
1739355519.9581926,0.3289025278875679,1.1767352549650913,0.3124339873637531,-1.2008929915832283,-1.42708527949791,1.041857842473556,0.0805072381046832,0.001313062113510926,0.00013067217971264735,0.0008518354539422198,-0.001480045268380642,-0.0007116449383851547,-0.0005730860334158111,-0.0010731109402945089,-0.2825433909893036,-51.16238784790039,5.029097557067871,17.15705108642578,-1.3038228750228882,-1.1112167835235596,0.026597600430250168,725,790,780,41.065,0,0
1739355519.9690893,0.32890060102061114,1.1767372790684967,0.31242912799337597,-1.2008947780448456,-1.4270856327146104,1.0418595182427257,0.08051726062261533,0.0009180787824618501,0.000573499991132331,0.0002588222609090742,-0.0013046918863477064,0.001238332022537542,-0.00030683608274642663,0.0019712742559302643,-0.2547723948955536,-51.19015884399414,5.080672264099121,17.18085479736328,-1.3038228750228882,-1.1249496936798096,-0.03382720425724983,726,791,779,41.174,0,0
1739355519.9792354,0.3289015739767777,1.1767372525776911,0.312433307850778,-1.2008891777931618,-1.4270832095242276,1.041857855439853,0.08051240318713448,0.00040333892046669293,-0.0004325270724265751,0.0009902612360134263,-1.2604069033974978e-05,0.0010937935870625427,-0.002256424755348585,0.00011133350226141705,-0.2825433909893036,-51.19015884399414,5.029097557067871,17.13324737548828,-1.2974141836166382,-1.1112167835235596,-0.020094294100999832,726,790,779,41.174,1,0
1739355519.990152,0.32890026795205796,1.176737253558688,0.31243166063996985,-1.2008920377574588,-1.4270862333753003,1.0418586000177577,0.08051089663870752,0.000516838494518416,-0.0008824144451723252,-0.00017249375771478948,4.046993994481082e-05,0.0005700099052468006,-0.0004661784606582744,0.001375365305720026,-0.2825433909893036,-51.19015884399414,5.029097557067871,17.15705108642578,-1.2974141836166382,-1.1176254749298096,0.03300629183650017,726,791,778,41.174,1,0
1739355520.0011215,0.32890063567805533,1.1767373349938461,0.31243553716465267,-1.2008904935051001,-1.4270862726382265,1.0418574378564016,0.08051495543802473,0.0011036276732675331,-0.00046155960781919835,0.0005462383261164111,0.0010701650708306774,0.0008726703760968764,-0.0001189646861599818,0.0019481436580935311,-0.2547723948955536,-51.19015884399414,5.005293846130371,17.13324737548828,-1.2974141836166382,-1.1048080921173096,-0.04023589566349983,725,791,777,41.174,0,0
1739355520.0111876,0.32889944948206173,1.1767359702208702,0.3124315196878171,-1.200891754283487,-1.4270852799864173,1.0418572561686024,0.08051245827200833,-0.00032981530665295055,-0.0010998863347001194,-0.00037184860883623786,0.00038734589105176675,-0.00014134395721134103,-0.00046076120687322565,7.330755857084491e-05,-0.2825433909893036,-51.16238784790039,5.080672264099121,17.18085479736328,-1.3038228750228882,-1.1048080921173096,0.0064559997990727425,725,790,777,41.174,0,0
1739355520.0221193,0.32889755322969644,1.1767372536717438,0.3124337894311957,-1.20089192485402,-1.4270879056948482,1.041862081503278,0.08051168468610458,-0.0011865250040430562,0.0007640679490629674,1.943007125721212e-05,-0.0006901746870909814,-0.0004940610487403168,0.0018889149867980894,-0.0002221485864359169,-0.2547723948955536,-51.19015884399414,5.029097557067871,17.18085479736328,-1.2845968008041382,-1.1112167835235596,-0.013685601763427258,724,790,778,41.174,1,0
1739355520.0331342,0.3289033626251393,1.1767380555755511,0.31243091941783324,-1.200890263906138,-1.4270871160586556,1.0418611390334935,0.08051164583343703,0.0014255292903968592,0.0007334727972393897,0.00045763054588352783,-1.1709892694465325e-05,-0.0015827727451060017,-0.00010236944702607468,0.001241065432508568,-0.3063471019268036,-51.21396255493164,5.056868553161621,17.13324737548828,-1.2910054922103882,-1.1112167835235596,-0.013685601763427258,725,789,778,41.174,2,0
1739355520.0441418,0.32889992597279005,1.1767396529857923,0.31242945427651747,-1.2008920377635899,-1.4270855934705673,1.0418596988664444,0.08050926899691993,0.001154675417244057,0.001517014824074718,-0.000517804127480957,0.0009400537519247802,-0.000782500112163187,-0.00022214626787075877,-0.0017107674042252594,-0.2547723948955536,-51.21396255493164,5.080672264099121,17.15705108642578,-1.3038228750228882,-1.1176254749298096,0.0064559997990727425,724,790,778,41.174,1,0
1739355520.0551589,0.3288997896636614,1.176737255524864,0.31242807469691847,-1.200892046593858,-1.4270879050505956,1.0418585999700516,0.08050851117460367,0.0010907460910454779,-6.967278897787538e-05,-0.00119638342384174,-0.0007283856797603606,-0.0007586481898236479,-0.001220384133270805,-0.00011593138241587392,-0.2825433909893036,-51.19015884399414,5.108443260192871,17.15705108642578,-1.2845968008041382,-1.1176254749298096,0.012864691205322742,724,791,777,41.283,1,0
1739355520.0660992,0.32890015698293945,1.1767372537040597,0.31243307877402565,-1.2008881096464077,-1.4270871436761066,1.0418563315596048,0.08051347280422962,0.00042671660445226065,-0.00021747691360506798,-0.0004193729578954446,0.0009426797151794723,4.8330458458094154e-05,-0.0010054637836521608,0.002154051413255296,-0.2825433909893036,-51.19015884399414,5.029097557067871,17.13324737548828,-1.2910054922103882,-1.0983994007110596,-0.020094294100999832,724,790,777,41.174,0,0
1739355520.0762393,0.32890363350590657,1.176737252577599,0.31243401788155944,-1.2008916834915693,-1.4270856327163828,1.0418628399701484,0.08050998564068221,0.0010338294116919702,-0.0002695675318649999,0.00035109896878502317,-0.0012591425212693567,0.0014814831046736634,0.0009916119697012816,0.0013113323065854195,-0.3063471019268036,-51.19015884399414,5.029097557067871,17.18085479736328,-1.3038228750228882,-1.1176254749298096,0.03941498324275017,723,790,778,41.283,0,0
1739355520.0871701,0.3289005180225979,1.1767392152906087,0.31243580935527604,-1.2008909821039189,-1.4270852620612917,1.0418629955077705,0.08051252211608438,0.0004195298530667911,0.00022989240066818053,0.000992251583931826,-0.0007003212144613065,0.0005722698292658467,5.025400765617992e-05,0.0015249730201753787,-0.2547723948955536,-51.21396255493164,5.005293846130371,17.13324737548828,-1.3038228750228882,-1.1176254749298096,-0.020094294100999832,729,791,778,41.174,0,0
1739355520.097176,0.32890252853959295,1.1767401253784848,0.31243193511567036,-1.2008920200734239,-1.4270855149727573,1.0418578423782088,0.08051013229996079,0.0016986814417003597,0.001221231314059646,0.00021913396166748291,-0.0005888896570522201,-0.00019969100433543413,-0.001492422075790055,0.0006766752999936298,-0.2825433909893036,-51.19015884399414,5.056868553161621,17.18085479736328,-1.3038228750228882,-1.1112167835235596,-0.0008682189509272575,726,790,780,41.174,1,0
1739355520.1082127,0.3289006355468073,1.1767314053042963,0.31243182204221015,-1.200891683602518,-1.4270840159956988,1.0418570977794792,0.08050851268904034,0.0007998441593590287,-0.001891337311191784,0.0006162813433144156,-6.88823899592044e-05,0.0005243218330150021,-0.00038641100680255957,-0.000678979491910177,-0.2547723948955536,-51.13858413696289,5.029097557067871,17.18085479736328,-1.3175557851791382,-1.1048080921173096,0.012864691205322742,726,790,776,41.065,3,0
1739355520.1191084,0.32889786941976334,1.176738963765902,0.31243016419895364,-1.2008898962359,-1.4270853460068444,1.041858144281895,0.08050774913355178,-0.0017753270555514065,0.00011077637130718285,-0.0005010035119586729,-4.4408191089805775e-05,0.0004643314061653818,6.337485286997185e-05,-0.0014540584358781836,-0.2309686839580536,-51.21396255493164,5.080672264099121,17.15705108642578,-1.3102315664291382,-1.1048080921173096,0.019273381680250168,724,790,778,41.174,0,0
1739355520.1292236,0.3289026310222491,1.176733542224951,0.3124340266782733,-1.2008916746613063,-1.4270915423260249,1.0418585999817933,0.080510947330159,0.0010207521291665357,-0.0016720609117567542,0.0008791022623443579,-0.00022795287902715533,-0.0022467266807532286,-0.000580219029895006,-0.001291873898166644,-0.2825433909893036,-51.13858413696289,5.029097557067871,17.18085479736328,-1.2845968008041382,-1.1176254749298096,0.019273381680250168,725,789,779,41.174,1,0
1739355520.1401126,0.3288964980206798,1.176737252613881,0.3124319376718327,-1.200888109743261,-1.42708714805729,1.0418605254992102,0.08051367970184552,-0.0008922189984838778,0.0005138121367423175,-0.00047250811196286255,0.0007220528523956657,-0.001033278229606819,0.0008243138782419135,0.0009955534486011863,-0.2071649730205536,-51.19015884399414,5.056868553161621,17.13324737548828,-1.2910054922103882,-1.1249496936798096,-0.0008682189509272575,725,791,778,41.283,1,0
1739355520.1510909,0.3288985071962253,1.1767411108654846,0.31242947090313805,-1.2008902103480603,-1.4270856327166044,1.0418610212241397,0.08050931704669674,0.0011384226882007686,0.0004461144152582556,-0.0011297663516889327,0.00019410802111608823,-9.380552302316192e-05,0.0011497088994630261,-0.0005329565109041918,-0.2547723948955536,-51.21396255493164,5.056868553161621,17.15705108642578,-1.3038228750228882,-1.1112167835235596,0.0064559997990727425,725,792,778,41.283,1,0
1739355520.1611323,0.3288978003673158,1.1767362908726589,0.3124319006293386,-1.2008898919896067,-1.4270847573189562,1.0418589533918987,0.08050643252220316,-0.0004443686391274112,0.0004477715294819604,0.0010109803437599115,0.0002975938649272961,0.0018857843178743741,-0.0007366212566188797,-0.00035357209600167614,-0.2547723948955536,-51.16238784790039,5.029097557067871,17.15705108642578,-1.3102315664291382,-1.1176254749298096,0.03941498324275017,725,792,778,41.174,1,0
1739355520.171146,0.3288995267669562,1.1767374910136694,0.31243190031124424,-1.2008898919842153,-1.427085627869443,1.0418586522976425,0.08050856376570269,0.0007577653662264645,-0.000255749137390317,-0.0002995565784203759,2.6045053507203807e-06,0.0007065798569713588,-9.092128402172521e-06,0.00020528110845324354,-0.2825433909893036,-51.19015884399414,5.029097557067871,17.15705108642578,-1.3038228750228882,-1.1176254749298096,0.012864691205322742,724,791,779,41.283,0,0
1739355520.1811986,0.32890399345798205,1.1767413938599256,0.31243378999923616,-1.2008899714570749,-1.4270856327165222,1.041857846665307,0.08051164713228275,0.00018030813005227365,0.0013653289075190827,0.0009290642901708835,0.0005197931798243792,-0.0001099881914992642,0.00013293415162881654,0.0017040350616272881,-0.3063471019268036,-51.23776626586914,5.029097557067871,17.15705108642578,-1.3038228750228882,-1.1112167835235596,-0.013685601763427258,726,791,779,41.174,2,0
1739355520.192189,0.32890255392121015,1.1767372525815847,0.31243376422027114,-1.2008881102887912,-1.4270864296225394,1.0418596010412782,0.08051280464404888,0.0014541168607669504,-0.0003785172551018299,0.0005750493424239274,0.0008235716978094571,-0.00037148234404638596,-6.638932181119881e-05,0.0015260170026976288,-0.2825433909893036,-51.19015884399414,5.029097557067871,17.13324737548828,-1.2974141836166382,-1.1249496936798096,0.012864691205322742,725,792,779,41.283,1,0
1739355520.203179,0.3288978648830261,1.1767389650982727,0.3124319426746689,-1.2008881181375193,-1.4270856325553203,1.041861636857278,0.08051014357242038,-0.0013759293523208762,-7.5753749764881275e-06,-2.131691762731613e-05,0.0017104807595319303,0.0005443792221999192,0.0014625294902963777,-0.00028123752019167033,-0.2309686839580536,-51.21396255493164,5.056868553161621,17.13324737548828,-1.3038228750228882,-1.1313583850860596,-0.0008682189509272575,723,792,778,41.283,0,0
1739355520.2141442,0.3289053227810214,1.1767389650982727,0.3124340004325831,-1.200891674697623,-1.4270882076748894,1.0418586411557502,0.08050926450772726,0.0026508807427625108,-0.0004509889152599507,0.000839935097571967,-0.0006137979744418011,-0.0006801560777358961,-4.5663673103039424e-05,0.00033592031612399197,-0.3301508128643036,-51.21396255493164,5.029097557067871,17.18085479736328,-1.2910054922103882,-1.1176254749298096,0.0064559997990727425,723,791,779,41.283,1,0
1739355520.225089,0.32889797569435886,1.17673536063684,0.3124375920321635,-1.200890255074408,-1.427085632722586,1.041859412138268,0.08051014560348596,-0.001149796580436271,-4.017678174097518e-05,0.001479679381262431,4.19600915845991e-05,0.00021330518194227364,0.000721322463207049,0.00104072307097542,-0.2309686839580536,-51.16238784790039,4.981490135192871,17.13324737548828,-1.3038228750228882,-1.1112167835235596,-0.0008682189509272575,724,791,781,41.283,1,0
1739355520.2361128,0.3289036335076919,1.176741120226528,0.3124301525466582,-1.200889892020554,-1.4270824538022162,1.041858365608444,0.08050931939201528,0.000489856981979218,0.0005672573797194636,-0.0012035376010339092,-0.00011293485555545293,0.0008526097784140235,0.0009162054888014065,-0.0008455704209351878,-0.3063471019268036,-51.21396255493164,5.080672264099121,17.15705108642578,-1.3038228750228882,-1.1112167835235596,0.03300629183650017,723,792,779,41.174,2,0
1739355520.246137,0.3288996908433881,1.1767390455644446,0.3124340257061459,-1.2008906077123565,-1.4270856326986592,1.0418587177043723,0.08051327070676795,-0.0008358889894333245,0.00044903694263025693,7.240800538238214e-05,-0.00043482178418186696,0.00031549704672725995,-0.0006422101764344075,0.0024215098375505147,-0.2547723948955536,-51.21396255493164,5.029097557067871,17.15705108642578,-1.3038228750228882,-1.1176254749298096,-0.027418512850999832,724,791,780,41.174,1,0
