IITGN-Robotics/Franka_IITGN_ROBOTICS/franka_ros/franka_iitgn/data02/s_b_004.csv
time,fr3_joint1_pos,fr3_joint2_pos,fr3_joint3_pos,fr3_joint4_pos,fr3_joint5_pos,fr3_joint6_pos,fr3_joint7_pos,fr3_joint1_vel,fr3_joint2_vel,fr3_joint3_vel,fr3_joint4_vel,fr3_joint5_vel,fr3_joint6_vel,fr3_joint7_vel,fr3_joint1_eff,fr3_joint2_eff,fr3_joint3_eff,fr3_joint4_eff,fr3_joint5_eff,fr3_joint6_eff,fr3_joint7_eff,flexpin1,flexpin2,flexpin3,Force,ContactMic,ContactMic_gt
1739354259.5845468,0.3454947649050513,1.1640714201172078,0.2840816609365329,-1.1957295948164195,-1.3790223927035148,1.0685499108386192,0.1099591574292806,0.0001400604554027873,8.485766797038723e-05,-0.0006420875420744927,0.00010949887252840464,-0.0013245163493558673,0.0005560612666610476,0.0009700604062199858,1.189319372177124,-53.31265640258789,5.663863182067871,18.31946563720703,-1.0749410390853882,-1.4865829944610596,-0.013685601763427258,,,,,,,,,
1739354259.596547,0.34548996374846563,1.1640694902020794,0.2840862294222591,-1.1957341406372328,-1.379024025601952,1.0685470847222127,0.10996071056295584,-0.0006456611297533324,0.0008860566025877463,-0.0003026971251927125,4.863874859511086e-06,-0.00044701424234715653,0.00038900689566577143,0.0013733853875463925,1.213123083114624,-53.28488540649414,5.640059471130371,18.36707305908203,-1.0621236562728882,-1.4865829944610596,-0.013685601763427258,,,,,,,,,
1739354259.606599,0.3454982007347521,1.1640724949290646,0.2840841822399857,-1.1957337839576876,-1.3790223532990324,1.068547882887775,0.10995776040669536,0.0004341807006963925,-3.82125034150394e-05,0.0014897491408663844,-0.0007835618941658263,0.0004985175153313927,-0.0002826286054502897,-0.00043476225870535217,1.141711950302124,-53.33646011352539,5.640059471130371,18.36707305908203,-1.0749410390853882,-1.4664413928985596,-0.0008682189509272575,,,,,,,,,
1739354259.6175654,0.3454939739254007,1.164074086315896,0.2840732914908623,-1.1957361431309677,-1.3790196646728048,1.068553232331028,0.1099585779098321,0.0006029219996677598,0.00039490226072616845,-0.0020116040334709926,0.0007384219042230042,0.0018430273446512488,0.0022800761660172427,-0.00048426342659685427,1.014758825302124,-53.10635757446289,5.409956932067871,18.22028350830078,-1.1335347890853882,-1.4728500843048096,0.019273381680250168,,,,,,,,,
1739354259.6275866,0.345503415894017,1.1640836274647384,0.28402300568363364,-1.195755038845203,-1.37902081010777,1.0685683850884176,0.10996004670516742,0.002279540227084754,0.00019047664808182494,-0.004988134862834113,-0.0005345630072658455,0.0001475470882639582,0.002226454863952231,0.0005547579544294724,0.5664556622505188,-52.80087661743164,5.207625389099121,18.02191925048828,-1.1600850820541382,-1.5323593616485596,-0.020094294100999832,,,,,,,,,
1739354259.638631,0.3454905219004665,1.1641213649833433,0.28398646338239164,-1.1957905253773604,-1.3790207298467716,1.0685795527488455,0.10995137440669206,-0.0005675079985114184,0.004207663933890274,-0.004010580015063226,-0.003203412640057964,0.0007062952652038079,0.00015111899711433294,-0.0018866311371042487,0.5426519513130188,-52.54300308227539,5.156050682067871,18.04572296142578,-1.1793111562728882,-1.4929916858673096,0.05314789339900017,,,,,,,,,
1739354259.6495264,0.34546914215440744,1.1641863150768605,0.2839280721171609,-1.19582845006314,-1.3790302542386905,1.0685991121534728,0.1099531164373573,-0.0018001036232914405,0.005968865178414762,-0.0046900832230262444,-0.0032937367295557242,-0.0021722493036921355,0.003974176235311093,-0.0013266479970606205,0.6180303692817688,-52.87625503540039,5.334578514099121,18.19647979736328,-1.1271260976791382,-1.4994003772735596,0.03941498324275017,,,,,,,,,
1739354259.659585,0.3454426588892621,1.1642076386380387,0.2838613624251516,-1.1958698959136562,-1.3790263071134943,1.0685877772460102,0.10995379511715551,-0.0034293145965184763,0.0024867710924189896,-0.005598307845966657,-0.00390790800593448,0.0008556441943694035,-0.0017938218897131444,0.00047685577632338284,0.7648199200630188,-52.90402603149414,5.461531639099121,18.24408721923828,-1.1664937734603882,-1.3941147327423096,0.03300629183650017,,,,,,,,,
1739354259.6705294,0.3453946034309348,1.16422742395554,0.28379083218711865,-1.195896743273892,-1.3790267791110753,1.0685871877116684,0.10995541867268284,-0.004388346428687586,0.004545127321256566,-0.004772256272742168,-0.0018092816473540066,0.0009380313026836214,-0.00020304807572319258,0.0014517482668549575,1.014758825302124,-52.90402603149414,5.564681053161621,18.22028350830078,-1.1729024648666382,-1.3812973499298096,0.019273381680250168,,,,,,,,,
1739354259.6806738,0.3453493967759562,1.1642380672714743,0.2837276937821512,-1.1958981909783104,-1.3790345997042994,1.0685764306140815,0.10995463224572775,-0.003810949997958906,0.0033727564861460316,-0.005717462554704717,-0.001117767594609183,-0.0017838252903469459,0.0001711713820686209,-0.0004360606510361955,1.066333532333374,-52.87625503540039,5.640059471130371,18.09729766845703,-1.1335347890853882,-1.3025619983673096,0.026597600430250168,,,,,,,,,
1739354259.691564,0.34528965924926686,1.1642426371178731,0.2836805892857335,-1.1958833488130818,-1.3790346580616537,1.0685663497385536,0.10996034198029149,-0.006977013617398999,0.0003001280667466837,-0.004033885930562001,0.0018142182022172642,0.000942886134101688,-0.0006696372801430902,0.0009894588044281783,1.189319372177124,-52.74930191040039,5.616255760192871,17.89893341064453,-1.1335347890853882,-1.2888290882110596,-0.013685601763427258,,,,,,,,,
1739354259.7016072,0.34524268555728843,1.1642551926872013,0.28365599195013963,-1.1958851049992236,-1.3790386294473205,1.0685574783792646,0.10995613685934212,-0.005277964992548668,0.0014425779525651507,-0.0032457404219814697,-7.141854090397576e-05,-0.0014742157300318979,-0.0012900546354843332,0.00014404479273552682,1.264697790145874,-52.80087661743164,5.616255760192871,17.92273712158203,-1.1399434804916382,-1.2494614124298096,0.012864691205322742,,,,,,,,,
1739354259.7116265,0.34521845964098913,1.1642669749842016,0.2836347394782577,-1.1958833276405316,-1.3790375306434215,1.0685558498470542,0.10996241459633016,-0.002280609739942325,0.00298433560352168,-0.002272667534169835,0.0001317606667077448,0.0008525968589089819,-0.0001412429006274316,0.0008690601603621335,1.141711950302124,-52.80087661743164,5.616255760192871,17.94654083251953,-1.1399434804916382,-1.2494614124298096,-0.04023589566349983,,,,,,,,,
1739354259.7225492,0.34519942790386016,1.1642705734034011,0.2836255068845777,-1.1958935061562832,-1.3790370059638946,1.0685578959985964,0.1099564454421843,8.626538827471498e-05,0.0004895391073756225,-0.0003493949224729916,-0.0003460753102824106,-8.851235115142782e-06,-0.0001105934193935345,-0.0011621979464403838,1.038562536239624,-52.74930191040039,5.564681053161621,18.04572296142578,-1.1536763906478882,-1.2760117053985596,0.019273381680250168,,,,,,,,,
1739354259.7326176,0.34519779351822627,1.1642610715593502,0.28363240781632104,-1.1958920898068641,-1.3790362483100196,1.0685625195834938,0.10995873594654981,0.0009558613171484726,-0.0022983442738197524,0.0002565480230552401,0.00043626681356634107,-0.0006942201607274658,0.001384497986820245,-0.0008428884104834554,0.8917730450630188,-52.57077407836914,5.437727928161621,18.04572296142578,-1.1600850820541382,-1.3089706897735596,0.019273381680250168,,,,,,,,,
1739354259.7435632,0.34520885207252405,1.1642445622362607,0.2836535748134953,-1.1958821906546055,-1.3790370059700978,1.0685627038495176,0.10995701146832036,0.002128084743687414,-0.002257190340047757,0.0017232004604641484,0.000666206155680553,-0.0009790153912017396,0.00017115663621376808,0.0008012048896110951,0.7648199200630188,-52.34067153930664,5.259200096130371,17.92273712158203,-1.1536763906478882,-1.3089706897735596,0.03300629183650017,,,,,,,,,
1739354259.7545261,0.34521605663882293,1.1642314349250718,0.2836750384837182,-1.1958801302729245,-1.3790362483100196,1.06856829499157,0.10995213213924618,0.0005285931790088485,-0.0021708434999358865,0.0007977362968557865,0.0003979479903787453,0.0002742165159630717,0.0003882280892773079,-0.0016038164803153644,0.6656377911567688,-52.16214370727539,5.156050682067871,17.89893341064453,-1.1600850820541382,-1.3547470569610596,0.04673920199275017,,,,,,,,,
1739354259.7646055,0.3452194947493575,1.1642304188733283,0.2837003384017784,-1.1958773637655136,-1.3790320097575024,1.0685690526526606,0.10995787887202658,-0.000427803415058074,0.0004122145967696665,0.00308538036097542,0.00021943324643799707,0.0011642573266583576,-0.0005576941311606771,-0.0005178613236219532,0.6180303692817688,-52.18594741821289,5.108443260192871,17.89893341064453,-1.1600850820541382,-1.3611557483673096,-0.0008682189509272575,,,,,,,,,
1739354259.774635,0.3452178084745143,1.1642319267398462,0.28370994008982225,-1.1958732706137405,-1.37903549206805,1.0685667796724254,0.10996401482046321,-0.0014067748352211758,0.0016224099117905088,0.0009896803758844424,-0.00015541295858958787,0.0003297491627426506,-0.0014278072384823165,0.0004680835350612452,0.6418340802192688,-52.21371841430664,5.156050682067871,17.84735870361328,-1.1664937734603882,-1.3419296741485596,-0.013685601763427258,,,,,,,,,
1739354259.7856033,0.34522170845829997,1.1642429227779323,0.2836987219788154,-1.1958815402882086,-1.3790377578159834,1.068564516407947,0.10995927628722131,0.0011613743760534568,0.0015832331807872305,-0.0011565553995618884,-0.0010838238154656935,-0.00044963134091141827,-0.0011819194469664153,5.193245472540927e-05,0.6180303692817688,-52.36447525024414,5.310774803161621,17.94654083251953,-1.1472676992416382,-1.3217880725860596,-0.013685601763427258,,,,,,,,,
1739354259.7965837,0.34521893935483794,1.164249686043139,0.2836980132388848,-1.1958833637367519,-1.3790383275493248,1.068564398455702,0.10996003343311563,-0.00145938681536739,0.001082559952117879,-0.00013780258034715596,-0.0003693495236314812,-0.0005860581232436815,-0.00016364705377119377,0.00045323369596342756,0.6656377911567688,-52.46762466430664,5.310774803161621,17.94654083251953,-1.1335347890853882,-1.3217880725860596,-0.020094294100999832,,,,,,,,,
1739354259.8065941,0.3452167885423579,1.164254608208711,0.28369769698280156,-1.195882978296767,-1.3790386339791305,1.0685628831348797,0.1099521320666961,-0.0006683092560338314,0.0002974632894097073,-0.0001341294687829519,-0.00028012949047398597,0.0003581560172752819,-0.0002150180465931224,-0.0007892443261190224,0.6656377911567688,-52.49142837524414,5.310774803161621,17.94654083251953,-1.1399434804916382,-1.3089706897735596,0.04673920199275017,,,,,,,,,
1739354259.8166173,0.3452185398371452,1.1642581988064569,0.2836944678725769,-1.19588092784766,-1.3790394005965634,1.0685621254748012,0.10995861745506284,0.0003579160475920254,0.0007458708050417049,0.0009446577538260452,-0.0007738379491303184,0.00015867900730297382,-0.0001872442715494083,1.801759270065109e-05,0.6656377911567688,-52.57077407836914,5.334578514099121,17.94654083251953,-1.1335347890853882,-1.3025619983673096,0.019273381680250168,,,,,,,,,
1739354259.8275502,0.3452137276353853,1.164265461523379,0.2836937503504191,-1.19588277832572,-1.3790428064828226,1.0685628831348797,0.10996010792859569,-0.001491415271062782,0.0010114555524144,0.0013017743045810278,0.0001502169602820195,0.0015298305521737135,0.00035450290499992193,-0.0006412839551601944,0.7410162091255188,-52.62234878540039,5.334578514099121,17.97431182861328,-1.1335347890853882,-1.3089706897735596,0.0064559997990727425,,,,,,,,,
1739354259.8376145,0.3452113090040444,1.1642610711913908,0.2836867854945265,-1.19588722630501,-1.3790434167017203,1.068563640794958,0.10995964427920692,-0.001995793608888768,-0.0007452568015740148,0.001383073524372412,-0.0011179309165959498,0.0014826812946698053,-0.00021912789728251265,-0.0005991126006081992,0.7648199200630188,-52.57077407836914,5.386153221130371,17.99811553955078,-1.1271260976791382,-1.3153793811798096,0.019273381680250168,,,,,,,,,
1739354259.8486297,0.3452151051842889,1.164259842118657,0.28368815571086203,-1.1958829695872872,-1.3790433422855166,1.0685618932581997,0.10995724994572904,0.0009686300306241786,0.00016849005613064634,0.0007031280620569176,0.0005694609818408344,4.07759639013318e-05,-0.0007513369143725343,0.0005492662599301979,0.6894415020942688,-52.54300308227539,5.334578514099121,17.94654083251953,-1.1399434804916382,-1.3281967639923096,0.0064559997990727425,,,,,,,,,
1739354259.8595765,0.3452106477020852,1.1642501707686033,0.2836876340485652,-1.1958856871200876,-1.3790383050382986,1.0685651560415146,0.10995625531672112,-0.0015351281956593123,-0.0012175977604415456,3.84475042402722e-05,-0.0011047025316137423,0.001027882804390381,4.516757727875626e-05,0.0005323996329925734,0.7410162091255188,-52.41604995727539,5.334578514099121,17.97431182861328,-1.1472676992416382,-1.3281967639923096,0.012864691205322742,,,,,,,,,
1739354259.8695982,0.3452089343130932,1.1642479892957902,0.2836883474271134,-1.195880710552551,-1.3790418934773667,1.068565913278562,0.10995925819639354,-0.0006351756779847118,-0.0008567709516017755,-0.0006643851728633503,-0.0007874900216482455,-0.000408266254007401,-2.7598317202470686e-05,-0.0013838199050261052,0.7648199200630188,-52.39224624633789,5.362349510192871,17.94654083251953,-1.1536763906478882,-1.3346054553985596,-0.013685601763427258,,,,,,,,,
1739354259.8806188,0.3452026451157562,1.1642462258073418,0.28368845190510544,-1.1958789155426828,-1.3790418930543393,1.0685659008507058,0.10995614269172571,-0.000804334010846109,0.00046800842729970057,-0.00015631175541250492,0.0004062527589576716,-0.0014857403228606947,0.0003837221214692832,0.00013211792147035565,0.8401983380317688,-52.36447525024414,5.362349510192871,17.92273712158203,-1.1536763906478882,-1.3346054553985596,0.012864691205322742,,,,,,,,,
1739354259.8915136,0.3452017723434605,1.1642396569405224,0.28368456323423286,-1.19587703925965,-1.3790415606122957,1.0685651561150415,0.10996003343314545,0.0012581098954533411,-0.001547194884396942,-0.00031982792265793244,0.0006160400369334067,-0.00026236051931426575,-0.00016432863879233575,-1.1195619547492929e-05,0.8640020489692688,-52.31290054321289,5.386153221130371,17.89893341064453,-1.1472676992416382,-1.3281967639923096,-0.020094294100999832,,,,,,,,,
1739354259.9015722,0.3452024483268129,1.164243766514382,0.2836830983766486,-1.1958773651828678,-1.3790426377835776,1.068563640794958,0.10995589695408457,0.0004172990404425342,0.00032108967364044533,-0.0015415760804988994,4.29497414222608e-05,-0.0010494908483016543,-0.00016227862108250495,-0.0004196210556788265,0.8401983380317688,-52.34067153930664,5.409956932067871,17.89893341064453,-1.1472676992416382,-1.3153793811798096,0.019273381680250168,,,,,,,,,
1739354259.9116044,0.3452044574888126,1.1642471549776698,0.28368593829882144,-1.1958770393347233,-1.379043517108053,1.0685621254748012,0.1099559057386618,0.0019087944917203351,-0.0008231798596101371,-0.0007064742424706142,-0.0005880024221546786,-0.0008859770933652354,0.0001531104600565807,0.00035219728228131817,0.7925909161567688,-52.39224624633789,5.386153221130371,17.89893341064453,-1.1399434804916382,-1.3025619983673096,0.019273381680250168,,,,,,,,,
1739354259.9225826,0.34520958518440004,1.1642526940326305,0.283687633335421,-1.195877030755853,-1.379042650548875,1.0685628831348797,0.1099585180616464,0.0023947886952246783,0.0003638623104841611,0.0010667864797241937,0.0007724335926163142,-0.0008097220681954681,-0.00019832836457663397,-0.00014447437444444213,0.7410162091255188,-52.46762466430664,5.362349510192871,17.89893341064453,-1.1472676992416382,-1.3089706897735596,-0.0072769103571772575,,,,,,,,,
1739354259.9336064,0.3452101531644514,1.1642610712835,0.28368747690465634,-1.1958854109078458,-1.3790442745476306,1.0685636405742336,0.10996003337894077,7.922636963245225e-05,0.001392848341203096,-0.0006075337060592321,-0.0011912057810587694,-6.440451397080629e-05,0.0007610974373640563,0.0011302835252805401,0.7172124981880188,-52.57077407836914,5.362349510192871,17.99811553955078,-1.1335347890853882,-1.3153793811798096,-0.020094294100999832,,,,,,,,,
1739354259.9445407,0.34521322335491716,1.1642610717209259,0.28369049381295003,-1.1958890738624628,-1.3790426510455036,1.0685600539387048,0.10995881830624307,0.0004206067222751076,-0.0006643081772325003,0.000973060195607932,-0.00020038431232863245,-0.0006229090605514533,-0.00035278699788465734,-0.0005844000867213043,0.6656377911567688,-52.57077407836914,5.334578514099121,18.02191925048828,-1.1472676992416382,-1.3217880725860596,0.026597600430250168,,,,,,,,,
1739354259.9546633,0.3452178609176443,1.1642628212991166,0.2836884254766838,-1.1958855342707835,-1.3790414088404113,1.0685628428343017,0.10995851829409488,0.0006711865170003054,0.0006962814018501702,-0.00014298740681575195,-0.0015315494211246745,0.0006716682410857896,0.00020362829286675317,0.0009418041608994605,0.6418340802192688,-52.59457778930664,5.362349510192871,17.97431182861328,-1.1536763906478882,-1.3089706897735596,-0.0072769103571772575,,,,,,,,,
1739354259.965604,0.345208934205514,1.1642519381722591,0.28368834405211774,-1.1958836828825892,-1.3790435171055442,1.0685644656028555,0.10995311643735864,-0.0007452195265649305,-0.0016892999877459983,-0.0003871315659255081,-0.00015479128084855528,0.0005716694221051478,-0.0006584303903303407,-0.00010278817215025578,0.7648199200630188,-52.44382095336914,5.362349510192871,17.94654083251953,-1.1399434804916382,-1.3346054553985596,0.03941498324275017,,,,,,,,,
1739354259.9765158,0.3452089342050698,1.1642501026166858,0.2836874028755481,-1.195878850402726,-1.3790418935509696,1.0685651561069396,0.10996115943741164,0.00021361705653649888,0.00030989096861134516,0.0006350514237043676,0.0003891811026411157,-0.0002722511284033948,0.0003968587339998576,-0.000337493968625032,0.7648199200630188,-52.44382095336914,5.334578514099121,17.92273712158203,-1.1536763906478882,-1.3281967639923096,0.0064559997990727425,,,,,,,,,
1739354259.9865994,0.34520649335807324,1.164247793124704,0.28368385974367977,-1.1958811942047443,-1.3790443148052793,1.0685651561151144,0.10995618956836962,0.0005035794713953335,-0.0003507478035377136,-0.0010646960955524322,-0.0015597475595251536,-0.0008133681382413992,0.0004906663388837845,0.0004132876192374103,0.7648199200630188,-52.41604995727539,5.386153221130371,17.92273712158203,-1.1600850820541382,-1.3281967639923096,0.012864691205322742,,,,,,,,,
1739354259.996614,0.34520106018177715,1.1642438019567822,0.28368314171141673,-1.1958791480050401,-1.3790402544667064,1.0685651561151146,0.10996196748811365,0.00041159794316557167,-0.0010777252299208325,-0.0018492305389979573,-0.00024085569376088793,-0.0010153141638638134,0.00022338895819108953,0.0018651795914429263,0.8401983380317688,-52.34067153930664,5.386153221130371,17.92273712158203,-1.1399434804916382,-1.3281967639923096,-0.027418512850999832,,,,,,,,,
1739354260.006636,0.34520203911975245,1.1642474993606622,0.28368600363733354,-1.1958770574960285,-1.3790385948814656,1.0685643984550364,0.10995852246466903,-0.00012011946153367645,-0.0005006178616727773,0.0009020381442026984,0.0008729359305973432,0.0002175188163328417,-0.00011370373246533696,-0.0007725818617381735,0.8163946270942688,-52.39224624633789,5.362349510192871,17.89893341064453,-1.1536763906478882,-1.3217880725860596,-0.0072769103571772575,,,,,,,,,
1739354260.017617,0.34519871818443065,1.1642483390846412,0.2836853997539857,-1.1958806046132628,-1.379042637783426,1.0685651560599334,0.1099617212292066,-0.0016471699976438915,-0.0006686348181208419,-0.0006139649384797983,-0.000547860328851419,-0.0003787105191489763,-0.0001250531511253494,0.0010574649689525709,0.8640020489692688,-52.39224624633789,5.362349510192871,17.94654083251953,-1.1472676992416382,-1.3281967639923096,-0.0072769103571772575,,,,,,,,,
1739354260.0285437,0.34520477114134046,1.1642491455032282,0.28368529574905665,-1.1958827392136067,-1.3790437631769104,1.0685628831348792,0.10995264479293679,0.0007485060015505598,0.0005739885705640464,2.19911523488266e-05,-0.00040880913430427906,-0.0009664988713223271,-0.0001952668851159119,-0.002048351467389621,0.7925909161567688,-52.41604995727539,5.362349510192871,17.94654083251953,-1.1472676992416382,-1.3089706897735596,0.03941498324275017,,,,,,,,,
1739354260.039516,0.34520374752950705,1.1642489962545426,0.28368530708616146,-1.1958790440829694,-1.3790442747746356,1.0685628831348797,0.10995739903045346,-5.269086701875679e-05,-0.0001556499089427737,-0.00033242807324304055,0.00015045572347546172,-0.0017433947951046656,0.0003683404408845784,4.6036794286893586e-05,0.7925909161567688,-52.44382095336914,5.362349510192871,17.92273712158203,-1.1335347890853882,-1.3089706897735596,0.03941498324275017,,,,,,,,,
1739354260.0496144,0.3452059943123852,1.1642570163951023,0.28368529285976307,-1.195885508506955,-1.379041292874318,1.0685621254748012,0.10995653231479478,0.0006604381458471921,-0.00015924467273850635,0.0007838517305801007,-0.001689835568242712,-0.0008192101971125027,0.0001818751640647181,-0.0005797218437841583,0.7648199200630188,-52.51919937133789,5.362349510192871,17.97431182861328,-1.1600850820541382,-1.3025619983673096,0.012864691205322742,,,,,,,,,
1739354260.0605955,0.34520920539366423,1.1642536418605167,0.28368350135218534,-1.1958788134138212,-1.3790426583343305,1.0685628697258787,0.10996021761016812,0.0012486731075886848,-0.0009443482120414068,-0.001073898257615113,0.001012519179967537,0.0006126440544091509,-0.0007480493204862822,0.0012242904557528127,0.7172124981880188,-52.46762466430664,5.386153221130371,17.92273712158203,-1.1472676992416382,-1.3089706897735596,0.0064559997990727425,,,,,,,,,
1739354260.070606,0.34521062010270304,1.164255363104346,0.28368351018235355,-1.1958836966768926,-1.3790418940356068,1.0685628831346525,0.10995831623879725,0.0002682278330760041,0.0003092308242708191,-0.00035059657846054867,-0.00113803401422226,0.0005575909695912673,0.00029494956590642857,-0.001181182838324244,0.7410162091255188,-52.49142837524414,5.386153221130371,17.97431182861328,-1.1536763906478882,-1.3089706897735596,0.0064559997990727425,,,,,,,,,
1739354260.0825887,0.34520991839938536,1.164255363213511,0.28368319357503363,-1.1958791536743223,-1.3790426512110507,1.0685651561151146,0.10995927572677806,0.0015360323999500567,2.0049375468566602e-05,-0.0008106256357817577,0.00013854910865716233,0.0015631114775417222,3.6476357256796e-05,-0.0010839447687439278,0.7172124981880188,-52.49142837524414,5.386153221130371,17.92273712158203,-1.1472676992416382,-1.3281967639923096,-0.013685601763427258,,,,,,,,,
1739354260.0935714,0.3452085808648545,1.1642515058703764,0.2836835101807158,-1.1958816178687586,-1.3790442747683587,1.0685643984550364,0.10995316974227498,-0.0001469692882594983,-0.00020998341159529475,0.000754065235198508,-5.362531138592872e-06,0.0003948018372638288,0.0005466590286594197,-0.002061320211690857,0.7648199200630188,-52.46762466430664,5.386153221130371,17.94654083251953,-1.1335347890853882,-1.3217880725860596,0.03941498324275017,,,,,,,,,
1739354260.1045203,0.34520693615554504,1.164255363256133,0.2836873723223289,-1.1958833625785794,-1.3790435176645772,1.0685643984550364,0.10995451384418134,0.0015518861483122314,7.014411672590331e-05,-0.0002263953238898662,-0.0011762607066595535,-0.00047703553691191527,-0.000300364581142466,-0.000405810380929289,0.7925909161567688,-52.49142837524414,5.334578514099121,17.94654083251953,-1.1399434804916382,-1.3217880725860596,0.026597600430250168,,,,,,,,,
1739354260.1146455,0.34519884741461127,1.1642499392500507,0.2836851324420776,-1.1958806074593926,-1.3790426518570797,1.0685656270653943,0.10995549765475587,-0.001422012579957659,0.00011955789425414077,-0.0006477869950638102,0.0006760372095084942,0.0002875371805672,0.00021162777880407758,-0.0005207227065955884,0.8640020489692688,-52.41604995727539,5.362349510192871,17.94654083251953,-1.1472676992416382,-1.3281967639923096,0.019273381680250168,,,,,,,,,
1739354260.125539,0.3452020391085986,1.1642498565066968,0.28368433918430014,-1.195875252243002,-1.3790452033387184,1.0685643984576947,0.10995690766574644,-0.00031938943019039785,-0.0003577544283363003,0.00020401374679405058,0.0010239900521903118,-0.0009563934747749849,-0.0004172951517271683,-0.0008298006244874008,0.8163946270942688,-52.41604995727539,5.362349510192871,17.87512969970703,-1.1536763906478882,-1.3217880725860596,0.0064559997990727425,,,,,,,,,
1739354260.135556,0.345202043643617,1.1642450928372317,0.2836817495651278,-1.1958770348150491,-1.3790418936070212,1.0685651561151146,0.10995551081868375,0.0005766859292753722,-0.0008723689945100378,-0.0015845394113376291,-0.0004214679505099886,0.0010009620100203253,0.0003765698441224305,-0.0023707910058139545,0.8163946270942688,-52.39224624633789,5.409956932067871,17.89893341064453,-1.1536763906478882,-1.3281967639923096,0.019273381680250168,,,,,,,,,
1739354260.1456337,0.34520203489513823,1.1642476796167645,0.28368172750585763,-1.195881590957385,-1.3790442747683596,1.0685643984550364,0.1099600728723133,0.0001647361495338892,-0.0009049503235840598,-0.0007028262685402482,-0.0013582520753501223,-0.00032641304276123206,3.3123985295050465e-05,0.0014479819175659413,0.8163946270942688,-52.41604995727539,5.409956932067871,17.94654083251953,-1.1335347890853882,-1.3217880725860596,-0.020094294100999832,,,,,,,,,
1739354260.1556895,0.3452037474157213,1.1642515009626992,0.2836852925324733,-1.1958769512648002,-1.3790449299591194,1.068563640794958,0.10995315592916938,-0.00044737694075012443,-0.00044084771960248,0.0007600559265020215,0.0009525432751611825,-0.0014164363592640767,-0.0005094334255090808,-0.0034797067149561524,0.7925909161567688,-52.46762466430664,5.362349510192871,17.89893341064453,-1.1399434804916382,-1.3153793811798096,0.03941498324275017,,,,,,,,,
1739354260.166585,0.3452057466886589,1.1642553367104234,0.2836842566235499,-1.195880624418631,-1.379041893558945,1.0685628831348797,0.10995776039948733,-5.7461556933489856e-05,0.0012625420116915368,-0.0009197077039727554,6.369536946104065e-05,0.0008690583833780355,-0.00021930446361981412,0.0001410291794262192,0.7648199200630188,-52.49142837524414,5.362349510192871,17.94654083251953,-1.1536763906478882,-1.3089706897735596,-0.0008682189509272575,,,,,,,,,
1739354260.1775277,0.34521200536206764,1.1642520402111272,0.2836824220192592,-1.1958827807385155,-1.3790435164461075,1.0685621254748012,0.10996019719405349,0.0020026833494308774,-0.0008709440323373148,-0.0003117580695632044,-0.0004309828740537385,0.0007710339342426446,-0.0005216755828607145,0.00027615473568527965,0.7172124981880188,-52.44382095336914,5.362349510192871,17.97431182861328,-1.1399434804916382,-1.3025619983673096,-0.020094294100999832,,,,,,,,,
1739354260.187529,0.3452040741724926,1.1642546479629585,0.28368171852931245,-1.1958826787044565,-1.3790435214688974,1.0685643582280333,0.10995502862744903,0.0010953885931727942,-0.0009746980306118698,-0.0004040172301256104,0.000656793214995795,0.0010082504103946953,0.0006165750793715772,-0.0016267731134362075,0.7925909161567688,-52.49142837524414,5.409956932067871,17.97431182861328,-1.1399434804916382,-1.3217880725860596,0.026597600430250168,,,,,,,,,
1739354260.197585,0.34520450245752754,1.164251929337694,0.28367892948006246,-1.1958795021976236,-1.3790426512110725,1.0685636407947308,0.10996034263258905,-0.00024677287059981384,-0.0009978168960840007,-0.0006648063622209194,0.0005286391035088144,0.0002195155892034268,0.00042593102595010567,0.0010563080309497982,0.8163946270942688,-52.44382095336914,5.437727928161621,17.92273712158203,-1.1472676992416382,-1.3153793811798096,-0.013685601763427258,,,,,,,,,
1739354260.2075925,0.3452027552345182,1.1642519283604356,0.2836829052820634,-1.1958789248967996,-1.379042651211048,1.0685639805986666,0.1099589334022771,0.00027243659121233113,6.781485158223523e-05,0.0013423079109565754,-0.0007221756082547736,0.0018088747767297916,0.0004382666660715704,-0.0006558830625031019,0.8163946270942688,-52.44382095336914,5.362349510192871,17.92273712158203,-1.1472676992416382,-1.3153793811798096,0.019273381680250168,,,,,,,,,
1739354260.2176003,0.3452020465719298,1.1642519381718832,0.28368303127659933,-1.195880596076738,-1.3790426518570704,1.0685644028214416,0.10995689456155427,-0.0004381850876432329,-0.00033820211155267184,0.00013348657501175565,-0.0005468305106105097,0.0010714686095748443,0.00020623905295112974,-0.0018189205649240937,0.8163946270942688,-52.44382095336914,5.362349510192871,17.94654083251953,-1.1472676992416382,-1.3217880725860596,0.0064559997990727425,,,,,,,,,
1739354260.2285564,0.34520206988927815,1.1642518987808377,0.28368347143262235,-1.1958777538136074,-1.3790427689486215,1.068564398455061,0.10995771255423252,-0.0005189161929229825,0.0004762547864599895,0.0001641386282074273,0.0003498560201372656,0.0005549365943159455,-0.0004871760920246638,4.626699504852393e-05,0.8163946270942688,-52.44382095336914,5.386153221130371,17.89893341064453,-1.1472676992416382,-1.3217880725860596,0.026597600430250168,,,,,,,,,
1739354260.2386105,0.34520390415445384,1.1642512189910592,0.2836827596048386,-1.195880600181262,-1.3790436348478443,1.0685643979584065,0.10995793613148273,0.000723431168910768,0.0005545112795495365,0.0004938919673739033,-3.7489231660257525e-05,0.0006606260001866383,-0.0008944093922047154,0.0005479663909333293,0.7925909161567688,-52.44382095336914,5.386153221130371,17.94654083251953,-1.1399434804916382,-1.3217880725860596,-0.0008682189509272575,,,,,,,,,
1739354260.249522,0.34520374643545965,1.1642498607542768,0.28368039754576924,-1.1958753255180439,-1.3790446294352834,1.0685651561151117,0.10995549781825341,0.00036730168972261073,-0.0012349781014422965,0.0007556650149160159,7.845013625268024e-05,-0.0001311076352230815,-0.0006987388244950471,-0.001371323810335114,0.7925909161567688,-52.41604995727539,5.386153221130371,17.87512969970703,-1.1335347890853882,-1.3281967639923096,0.019273381680250168,,,,,,,,,
1739354260.2595408,0.3452037736613713,1.16425191167975,0.28368148903419216,-1.1958752483600408,-1.3790427689546243,1.0685655093278243,0.1099605218228293,0.0007788277356665364,0.000481784330857518,0.0013590492482553557,0.002188863102595002,0.0007857411575364941,0.00027978845854441083,0.0008105792067847174,0.7925909161567688,-52.44382095336914,5.409956932067871,17.87512969970703,-1.1472676992416382,-1.3281967639923096,0.012864691205322742,,,,,,,,,
1739354260.2695913,0.34520377366183236,1.1642519380625844,0.2836806107817888,-1.1958752473775875,-1.3790430218683547,1.0685628831408613,0.10995855762407726,0.0008563657362889587,0.0007319494632281901,0.00011063842206253413,0.001776576511128571,0.001008173960437088,-0.0008953249221515186,-0.0004175645953263151,0.7925909161567688,-52.44382095336914,5.386153221130371,17.87512969970703,-1.1472676992416382,-1.3089706897735596,-0.0072769103571772575,,,,,,,,,
1739354260.2806246,0.3452022712144411,1.1642516997534684,0.2836821540140193,-1.1958827013745008,-1.3790435177605798,1.0685636406294148,0.10995539673360592,-0.00013359053309359027,-2.017077559612559e-06,0.0005015829248982509,-0.0010918458605027538,4.314527115060023e-05,0.0005575320819076697,8.228280885788587e-05,0.8163946270942688,-52.44382095336914,5.362349510192871,17.97431182861328,-1.1399434804916382,-1.3153793811798096,0.019273381680250168,,,,,,,,,
1739354260.2915907,0.3452058775274304,1.1642536507973105,0.28368029451161336,-1.1958776302655445,-1.3790426512828295,1.0685612595775684,0.10996003343314545,0.0006240113181837205,0.0002457041873635222,-0.0006612358885180636,0.0005573490615771879,0.0013669012564488548,-0.00015679617866842723,-0.00017920379240987335,0.7925909161567688,-52.46762466430664,5.386153221130371,17.87512969970703,-1.1472676992416382,-1.2952377796173096,-0.020094294100999832,,,,,,,,,
1739354260.3026433,0.34520416375819907,1.1642536477130032,0.2836832624430498,-1.1958788219495402,-1.3790472479829485,1.0685611400677886,0.10995689450136355,3.7075286736140494e-05,-0.0004183636010458608,0.0002588861294344145,0.0005653950671975881,-0.001278931685438886,-0.0003021908961386863,-0.0011994570446051502,0.8163946270942688,-52.46762466430664,5.386153221130371,17.92273712158203,-1.1472676992416382,-1.3217880725860596,0.0064559997990727425,,,,,,,,,
1739354260.3135853,0.3452037516400062,1.1642553972265708,0.28368029187550486,-1.1958795023026345,-1.3790493282711036,1.0685625210734584,0.10996293433591182,0.000797939192766483,0.0012260623686207084,-0.001311145057620817,0.000226872098776502,-0.0013969925507296,-0.0011999678396449095,0.002591024582088579,0.7925909161567688,-52.49142837524414,5.386153221130371,17.92273712158203,-1.1207174062728882,-1.3089706897735596,-0.020094294100999832,,,,,,,,,
1739354260.323608,0.3452037474157928,1.1642526239939701,0.2836803278341084,-1.1958772609384984,-1.3790442812885013,1.068565156108983,0.10995958453118457,-7.472203302007237e-05,0.00029037864357268797,-0.0008279535483259498,0.001545437020366928,0.0006167353287805112,0.00014733066798630997,0.00021651829233123383,0.7925909161567688,-52.44382095336914,5.386153221130371,17.89893341064453,-1.1335347890853882,-1.3281967639923096,-0.0072769103571772575,,,,,,,,,
1739354260.3345385,0.34520203489499013,1.1642499402428108,0.28368029153229996,-1.1958795050009365,-1.3790436392066114,1.0685651561151144,0.10995375759224663,-0.0005173589551599487,-7.611471726749384e-05,-0.0010351294801325686,-0.000489266290870554,0.00014174419954754555,0.00020838117761173703,-0.00178066167660356,0.8163946270942688,-52.41604995727539,5.386153221130371,17.92273712158203,-1.1399434804916382,-1.3281967639923096,0.03300629183650017,,,,,,,,,
1739354260.3445559,0.3452022712139966,1.1642516997534704,0.28368207529886696,-1.1958770423773435,-1.3790430050704694,1.06856515627662,0.10995629480586898,-0.000133643638040422,-0.00031015898641088477,-0.0003448625613139052,0.0003216068520907996,0.0016277486149887529,-0.00012013922285845967,-0.0018615868810219348,0.8163946270942688,-52.44382095336914,5.362349510192871,17.89893341064453,-1.1472676992416382,-1.3281967639923096,0.012864691205322742,,,,,,,,,
1739354260.3545763,0.34519988913978444,1.1642497018005045,0.28368282478576795,-1.1958770316662115,-1.3790446305457467,1.068565913775201,0.10996121812126358,-8.025163824368386e-05,-0.0006120879544747971,0.00037191532077945113,0.00046170966023496146,0.0017231909334437954,0.00019869860024035346,0.0013644108383629929,0.8163946270942688,-52.41604995727539,5.362349510192871,17.89893341064453,-1.1399434804916382,-1.3346054553985596,-0.020094294100999832,,,,,,,,,
1739354260.3645945,0.34520211358353836,1.1642518469240868,0.28368053093564777,-1.1958798736470657,-1.3790440463683609,1.068569394667632,0.10996015332169333,0.0005718382602719849,-0.00026893199939565177,-0.0006130097067353233,-0.0005992808651605938,-0.000134368886760934,0.001038515570391779,4.478547175120872e-05,0.8163946270942688,-52.44382095336914,5.386153221130371,17.89893341064453,-1.1399434804916382,-1.3281967639923096,-0.020094294100999832,,,,,,,,,
1739354260.3746247,0.34520032237559145,1.164245377042516,0.28368496205370985,-1.1958771074033558,-1.3790496815371092,1.0685643985268165,0.1099565317547486,-0.00026456789782371143,2.2027356982970946e-05,0.0010644482630548656,0.0015859737332217442,-0.001977270011852078,-0.00014802024774676736,-0.0006160468802085229,0.8401983380317688,-52.39224624633789,5.362349510192871,17.89893341064453,-1.1271260976791382,-1.3217880725860596,0.012864691205322742,,,,,,,,,
1739354260.3846433,0.34520203489499013,1.1642516732142407,0.2836802912565705,-1.1958770678845447,-1.3790481108903074,1.0685659139366999,0.10996355848304501,0.0003786848937315852,-0.0006368539839188051,-0.0004132958224365698,0.00042921780858521546,-0.0011366469932060342,8.566849686680189e-05,0.0003840590977023181,0.8163946270942688,-52.44382095336914,5.386153221130371,17.89893341064453,-1.1399434804916382,-1.3346054553985596,-0.013685601763427258,,,,,,,,,
1739354260.3955064,0.34520200346196606,1.1642536505822687,0.28368207420870273,-1.1958805961100525,-1.3790443276604514,1.0685643984550373,0.10995217158201476,-0.0007266860319136818,-0.00018864031587354993,-0.00037094967170570454,0.00010536209860138968,-0.0007694826068692416,8.538915313369265e-05,-0.002962068429344652,0.8163946270942688,-52.46762466430664,5.362349510192871,17.94654083251953,-1.1335347890853882,-1.3217880725860596,0.04673920199275017,,,,,,,,,
1739354260.4065514,0.3452057454640488,1.164251469277247,0.28368215368156396,-1.1958797318558554,-1.3790435623307393,1.0685643986165418,0.10995613732949906,0.0009249799388853586,-0.0016350515324977657,-0.0005986064572159994,0.0004652683484143176,0.00109698167791106,0.0002444984470486569,-0.0018248696462162858,0.7648199200630188,-52.46762466430664,5.362349510192871,17.92273712158203,-1.1399434804916382,-1.3217880725860596,0.012864691205322742,,,,,,,,,
1739354260.4166007,0.34520573656225945,1.1642553644609412,0.28368207551734814,-1.1958791463952263,-1.3790450497965172,1.0685636407949588,0.10995482188487632,-0.00034583535938279063,0.0014762093904032477,0.0007908803346318456,5.859004921602315e-05,0.002074177910701976,0.000385597506854132,-0.0004394057754615228,0.7648199200630188,-52.49142837524414,5.362349510192871,17.92273712158203,-1.1399434804916382,-1.3153793811798096,0.03300629183650017,,,,,,,,,
1739354260.4266064,0.3451986140656463,1.1642546479577955,0.283684153998582,-1.195881185815504,-1.379044800171976,1.0685654580931656,0.10996196555509803,-0.0021830206623405075,0.00044679775178459305,0.0018600988865231606,-0.00044172356800302676,-0.00037080958578674647,0.0008736233742138546,0.0015896772995411211,0.8640020489692688,-52.49142837524414,5.334578514099121,17.92273712158203,-1.1335347890853882,-1.3217880725860596,-0.027418512850999832,,,,,,,,,
1739354260.4385827,0.3452048694270099,1.164253412270164,0.2836802915316852,-1.1958793275616253,-1.379047981378287,1.0685636422544897,0.10996389624270296,0.0012230941576723666,0.0013585990364090336,-0.0003570797450551272,-1.6520514473978946e-05,-0.0007498017103038865,-0.00026116260432321956,0.001013801725562397,0.8163946270942688,-52.46762466430664,5.386153221130371,17.89893341064453,-1.1335347890853882,-1.3153793811798096,-0.013685601763427258,,,,,,,,,
1739354260.448858,0.3452024486132775,1.1642536506914347,0.28368203007094034,-1.1958805959424605,-1.379048925396377,1.0685659137752013,0.10996252913247583,-0.00030666198139791433,0.0011438635963210626,0.0014774155372463942,-0.0006594475508019464,-0.0015902590222017228,9.215894154209563e-05,0.0010010933424965049,0.8401983380317688,-52.46762466430664,5.334578514099121,17.94654083251953,-1.1335347890853882,-1.3346054553985596,-0.013685601763427258,,,,,,,,,
1739354260.4605103,0.34520031064850687,1.1642536607222773,0.2836841539505679,-1.1958788248405006,-1.3790485721889962,1.068565913775193,0.1099581568452003,-0.0010830900036468772,0.001641889958394124,0.0007386405227954483,0.0005833304734944256,0.0004230736730617902,-0.00037467707141886406,9.543199775848753e-05,0.8401983380317688,-52.46762466430664,5.334578514099121,17.92273712158203,-1.1335347890853882,-1.3346054553985596,-0.0008682189509272575,,,,,,,,,
1739354260.4715092,0.34520471882934095,1.1642499399042043,0.2836811929599547,-1.1958797610399783,-1.3790459674832756,1.0685645161926063,0.10996395524069938,0.0024458876886067587,-0.00033632606179067915,-0.00011969896491988234,-0.00023096786658974842,0.0007278477148241455,-0.000376641123539589,0.003389465146892995,0.7925909161567688,-52.41604995727539,5.386153221130371,17.92273712158203,-1.1472676992416382,-1.3217880725860596,-0.04023589566349983,,,,,,,,,
1739354260.4816039,0.3452040623692045,1.1642519381720475,0.2836820742501316,-1.1958788134031801,-1.3790482810571794,1.0685651561157792,0.1099609590276329,0.0011279189873855163,0.0007481371218609255,0.00039747518296232855,0.0011313995613375233,-0.0006360258730656127,-0.0004967641708288736,0.00042662512967477854,0.7925909161567688,-52.44382095336914,5.362349510192871,17.92273712158203,-1.1399434804916382,-1.3281967639923096,-0.0008682189509272575,,,,,,,,,
1739354260.4926023,0.3452020368318068,1.1642477944639844,0.28368344580162613,-1.1958789154370582,-1.3790486884736555,1.0685643984550364,0.10995777423042637,0.00042051967959623655,-0.0006092173458701485,0.000621795170224614,-8.348346473153174e-05,-0.0013430777674117193,-0.0005961764950170349,-0.0022991861125429545,0.8163946270942688,-52.41604995727539,5.334578514099121,17.92273712158203,-1.1335347890853882,-1.3217880725860596,-0.0008682189509272575,,,,,,,,,
1739354260.5035923,0.3452041616207047,1.1642536506806678,0.28368025653346524,-1.1958808825271818,-1.3790441185680191,1.0685643984550364,0.10995806943723441,0.0006230320051825685,-0.0001549679261896978,-0.0003010943834943918,-0.00017701952107465572,0.0014837822165740637,-0.00010389064823866341,-0.00025757441630582857,0.8163946270942688,-52.46762466430664,5.386153221130371,17.92273712158203,-1.1472676992416382,-1.3217880725860596,0.026597600430250168,,,,,,,,,
1739354260.5136554,0.3452020340578668,1.164247793482838,0.28368207420811153,-1.1958811443783472,-1.379049042922532,1.068564451267362,0.10995991677484966,-5.763756282652348e-05,-0.0021701217775486636,0.00012175099078550649,0.00022459764684951776,-0.000765092952359407,0.0007067776095852258,0.0008365241561543537,0.8163946270942688,-52.41604995727539,5.362349510192871,17.92273712158203,-1.1335347890853882,-1.3217880725860596,-0.020094294100999832,,,,,,,,,
1739354260.524585,0.34520375908045725,1.1642536388705664,0.2836785089636824,-1.1958788147057255,-1.3790490431399394,1.0685643984553344,0.1099600743320607,-0.00018314730420444884,-0.0010754840348724914,4.0405811078418976e-05,-0.00019933579384204725,2.1738013826869866e-05,0.00013139319431497895,7.918840699647461e-05,0.7925909161567688,-52.46762466430664,5.409956932067871,17.92273712158203,-1.1335347890853882,-1.3217880725860596,-0.020094294100999832,,,,,,,,,
1739354260.53553,0.3452036679429274,1.1642526970183975,0.2836820740646957,-1.1958779490738645,-1.379046621885631,1.068563640794958,0.10995927626070014,2.701051340715235e-05,-0.0010032836517283753,0.0008430968013988377,0.00032076306475158653,-0.0002995142414553573,-0.0004578295040692616,0.001018934338970272,0.7925909161567688,-52.46762466430664,5.362349510192871,17.89893341064453,-1.1271260976791382,-1.3153793811798096,-0.013685601763427258,,,,,,,,,
1739354260.5455406,0.3452037513026223,1.1642489562301692,0.28367849621786123,-1.1958797317664285,-1.3790504501227434,1.0685643984550364,0.10996071072614776,0.0003720939256728154,-0.0014267499430055375,-0.0001859755067101979,0.00016430770855712282,-0.0015285502552973044,-0.00024077357567732003,0.0006687960452486786,0.7925909161567688,-52.41604995727539,5.409956932067871,17.92273712158203,-1.1335347890853882,-1.3217880725860596,-0.013685601763427258,,,,,,,,,
1739354260.5556304,0.3452020348950559,1.1642519381553853,0.28368199547149037,-1.1958783095510994,-1.3790482457733164,1.068565913775193,0.10995934149872956,0.0004394167058567922,1.5612765978153517e-06,9.611673802068605e-05,-6.348578093811198e-05,-0.00011900795597042288,-5.446435607503946e-05,0.00013234032969714515,0.8163946270942688,-52.44382095336914,5.362349510192871,17.87512969970703,-1.1399434804916382,-1.3346054553985596,0.012864691205322742,,,,,,,,,
1739354260.5665932,0.3452003223742589,1.164249940231196,0.28367850852931215,-1.1958788138695922,-1.3790504559901073,1.0685651561151146,0.10995219062636373,-0.0009987769947626779,0.00037486588612085307,-0.0009963615765887631,0.0005135061091818586,-0.002006571837424493,-1.760303660347252e-05,-0.0016720752144901586,0.8401983380317688,-52.41604995727539,5.409956932067871,17.92273712158203,-1.1335347890853882,-1.3281967639923096,0.04673920199275017,,,,,,,,,
1739354260.5775514,0.34519860985352774,1.1642440840024002,0.28367784636441246,-1.1958770307208142,-1.3790495140981958,1.0685651561151146,0.10995613879179537,6.2947080396408e-05,-8.609709596289078e-05,-0.0008827322908225068,0.0011421132894866763,-0.0010672527610217837,-8.548290701143321e-05,-0.0011583660052445666,0.8640020489692688,-52.36447525024414,5.386153221130371,17.89893341064453,-1.1335347890853882,-1.3281967639923096,0.012864691205322742,,,,,,,,,
1739354260.5876095,0.34520039137013264,1.164248217450823,0.2836779294078855,-1.1958805970196575,-1.3790481284990943,1.0685651561151146,0.10995796227904849,0.00013774454199792883,-0.001455838908576822,0.00016573190511461443,-0.0006738302138132307,0.0007140618834133072,-0.0005022388410386212,-7.656152609032055e-05,0.8640020489692688,-52.39224624633789,5.386153221130371,17.94654083251953,-1.1399434804916382,-1.3281967639923096,0.0064559997990727425,,,,,,,,,
1739354260.5985122,0.34520104590945944,1.1642486760579807,0.28368199545837014,-1.1958834422436944,-1.379048285478976,1.0685651561151146,0.10995938828477314,2.7329731685287508e-05,-0.0008267044994228081,0.00035963283377116195,-0.0015398798813244271,0.0010364896127043797,0.00012121857585509534,0.00040838655341643367,0.8163946270942688,-52.39224624633789,5.362349510192871,17.97431182861328,-1.1399434804916382,-1.3281967639923096,0.012864691205322742,,,,,,,,,
1739354260.6085224,0.3452035982644186,1.1642477562068672,0.28367994798435303,-1.1958805989222514,-1.3790492775219303,1.0685654580931656,0.10996125930194565,0.0010481328294251178,-0.0016687527291546936,0.0006427652410054184,0.00027112935637617607,0.0002960228940626381,7.311470541613777e-05,0.0006998121041624274,0.7648199200630188,-52.41604995727539,5.362349510192871,17.94654083251953,-1.1271260976791382,-1.3217880725860596,-0.027418512850999832,,,,,,,,,
1739354260.618594,0.3452020344225638,1.1642519027047755,0.2836833655124845,-1.1958780259182615,-1.3790497964305064,1.0685643984729813,0.10995932984234197,0.0007369768571453967,-0.0008094224090498927,0.0005627430816893702,0.0008768577514599271,-0.001040696544540544,-7.55163176375146e-05,0.00014811325525822798,0.8163946270942688,-52.44382095336914,5.334578514099121,17.89893341064453,-1.1271260976791382,-1.3217880725860596,-0.013685601763427258,,,,,,,,,
1739354260.628628,0.34520375322081354,1.1642500451030446,0.28367826968742205,-1.1958806036475336,-1.3790486343316994,1.068565913775194,0.10995776625188512,0.0002549252234821675,-0.0008094884031190396,-0.001139115953980287,-2.6850935372261988e-05,0.0002513805838561154,0.0001010767501946897,0.0014467830504671922,0.7925909161567688,-52.41604995727539,5.409956932067871,17.94654083251953,-1.1399434804916382,-1.3346054553985596,-0.0008682189509272575,,,,,,,,,
1739354260.6396282,0.34520650214781967,1.1642564060670502,0.2836802536208278,-1.1958800153682236,-1.3790490433021025,1.068563640794958,0.10996206493322049,0.0008597881070730748,0.0011340876485320475,-0.0005716363111706441,-0.0005068221101625526,-0.000215711766051084,3.118798841904229e-05,0.0012155729261420643,0.7925909161567688,-52.46762466430664,5.386153221130371,17.89893341064453,-1.1335347890853882,-1.3153793811798096,-0.0008682189509272575,,,,,,,,,
1739354260.6506183,0.3451986098327395,1.1642509805887014,0.2836774852734536,-1.1958788937233302,-1.37904980080002,1.068565913775193,0.10995301169365784,-0.0011822564820117214,-0.0008811949762791032,-0.0007098362697676368,0.0008697239629395156,-0.0004242688313623341,0.0005833894846949406,-0.0016755921709874792,0.8640020489692688,-52.44382095336914,5.409956932067871,17.92273712158203,-1.1271260976791382,-1.3346054553985596,0.03941498324275017,,,,,,,,,
1739354260.661556,0.34520374737938236,1.1642499358651401,0.2836781655189032,-1.1958787954455927,-1.3790516561970805,1.0685651561151146,0.10995447390851182,0.0010811720682089765,-0.0003867329664721357,0.0002802248499899719,0.0008167043085948693,-0.0006402283020399424,0.0005033772265239868,-0.0008036625448838811,0.7925909161567688,-52.41604995727539,5.386153221130371,17.92273712158203,-1.1472676992416382,-1.3281967639923096,0.026597600430250168,,,,,,,,,
1739354260.6725109,0.3452037474157211,1.164251823377894,0.2836793466756851,-1.1958805961097414,-1.3790525226565804,1.068565913775193,0.10996247601793958,0.002022628231821885,0.00024952816369312915,0.0005087523944056385,-0.0003455763555244764,-0.0014389425259241611,-0.000501294265703114,-0.00014750965928515272,0.7925909161567688,-52.44382095336914,5.386153221130371,17.94654083251953,-1.1399434804916382,-1.3346054553985596,-0.013685601763427258,,,,,,,,,
1739354260.6826108,0.34519850290856835,1.1642519381701053,0.283681365559704,-1.1958846909644092,-1.3790490432116975,1.068565313098541,0.1099561375455422,-0.0004131032965178796,0.00046865091367537666,0.0016958286855689305,-0.001635800351051315,0.0008913545270057409,0.0009601695520087168,-0.0018079580845849468,0.8640020489692688,-52.44382095336914,5.362349510192871,17.99811553955078,-1.1335347890853882,-1.3281967639923096,0.012864691205322742,,,,,,,,,
1739354260.6935318,0.345198609852924,1.1642497016672622,0.28368029023160257,-1.1958815685982507,-1.37904980516067,1.0685643989404392,0.10995375562400989,-0.00020483195800867558,-0.0005849381032970593,0.0008185150185925121,-0.0009646768372095186,-0.00023714998702511624,-0.0010463554998146295,-0.0005548471583304785,0.8640020489692688,-52.41604995727539,5.386153221130371,17.92273712158203,-1.1271260976791382,-1.3217880725860596,0.03300629183650017,,,,,,,,,
1739354260.7036586,0.34520374708867246,1.16424907714506,0.2836790034656866,-1.1958777227865929,-1.3790498008000929,1.0685659137752013,0.10995442549562418,0.001494229295225209,-0.00012580673882114734,0.00021002780495740298,0.00021368858251546768,-0.0001093599294156707,-0.0006942091515634886,0.0001592640524127587,0.7925909161567688,-52.44382095336914,5.362349510192871,17.89893341064453,-1.1271260976791382,-1.3346054553985596,0.03941498324275017,,,,,,,,,
1739354260.714522,0.34519893436329724,1.1642507631263888,0.2836773518556791,-1.1958788899311579,-1.379050154012729,1.068565156761137,0.10995689597205663,-2.2704821973289853e-06,-0.0006220638908191068,-0.001017693229036265,-0.0001872545589410724,-0.0017933662147687772,-4.031272005730733e-05,-0.0016629207710802145,0.8163946270942688,-52.46762466430664,5.386153221130371,17.92273712158203,-1.1271260976791382,-1.3281967639923096,0.0064559997990727425,,,,,,,,,
1739354260.724612,0.3451989225370343,1.1642496222908563,0.2836773782129057,-1.1958816704974904,-1.3790488076707823,1.0685644377009038,0.10995929473303137,-0.0005459254722118234,-0.0007063639630502773,-0.0002175566590640625,-0.0003785228761143571,0.0009994038533226294,0.00015194651681877983,-0.00032794504604044045,0.8163946270942688,-52.41604995727539,5.386153221130371,17.92273712158203,-1.1335347890853882,-1.3217880725860596,-0.013685601763427258,,,,,,,,,
1739354260.7355437,0.34520149137915385,1.1642499313990837,0.2836762911333936,-1.1958835811582904,-1.379052209455564,1.068563680041036,0.10995777404996235,-0.00024292518475663247,-0.0023684751135429815,6.368990258994996e-05,-0.0013666111781491478,-0.0005848018354662474,0.00046462792958488136,-0.00030701954526569177,0.7925909161567688,-52.41604995727539,5.409956932067871,17.94654083251953,-1.1335347890853882,-1.3153793811798096,-0.0008682189509272575,,,,,,,,,
1739354260.746499,0.3452057439993049,1.1642506289959307,0.2836781526593461,-1.1958819556335847,-1.3790522351541548,1.068564398455258,0.10995927571882937,0.0009592168147881598,-0.00043374133333892815,-4.430406056189762e-05,-0.00015187047983820413,-0.0013996481737503098,-0.000533108753059668,-0.00012949832321041484,0.7648199200630188,-52.41604995727539,5.386153221130371,17.94654083251953,-1.1335347890853882,-1.3217880725860596,-0.013685601763427258,,,,,,,,,
1739354260.7565815,0.34520443814243035,1.164255283775645,0.2836772206800236,-1.195881514496968,-1.3790482856420334,1.0685643984550364,0.10995387458498063,0.002176361874636238,0.0009517616822705473,-0.0003921136153185272,-0.0005712280228115589,-1.2222729612870953e-05,-0.00024567226585128885,-0.001714386243805207,0.7648199200630188,-52.49142837524414,5.386153221130371,17.94654083251953,-1.1399434804916382,-1.3217880725860596,0.03300629183650017,,,,,,,,,
1739354260.7666605,0.34520031811524515,1.164251938171601,0.2836789129026238,-1.1958811972927128,-1.3790490431399416,1.068565913775193,0.10995303745574235,-0.0005077906011089078,0.0008780931444347286,0.0007419957294259374,-0.0005281991912576992,0.00014050544309403214,-7.66910100459886e-05,-0.001871036453658123,0.8401983380317688,-52.44382095336914,5.362349510192871,17.92273712158203,-1.1335347890853882,-1.3346054553985596,0.03941498324275017,,,,,,,,,
1739354260.7776027,0.34520021204977114,1.1642497894613983,0.2836772168465947,-1.1958770335686917,-1.37904828617972,1.0685662157532438,0.10995851805889689,-0.0006208862894405817,0.00035145789530208443,-0.0005728883461207472,0.0012322354075762628,0.0006013246831816374,0.00016568743242926175,0.0003440592722033549,0.8401983380317688,-52.44382095336914,5.386153221130371,17.89893341064453,-1.1399434804916382,-1.3281967639923096,-0.0072769103571772575,,,,,,,,,
1739354260.7886133,0.3452010812200509,1.1642543355208494,0.28367630016905654,-1.1958771073902197,-1.379049683062453,1.0685659139965156,0.10995882860964319,-0.00012376532842695405,0.0012667330103152573,-0.0006590504410034069,-0.0001762275233279809,-0.0007839761481326099,0.00036747834195313185,-0.0014174073842736152,0.8163946270942688,-52.46762466430664,5.409956932067871,17.89893341064453,-1.1271260976791382,-1.3346054553985596,-0.0008682189509272575,,,,,,,,,
1739354260.7995384,0.3451974613459261,1.1642536508016252,0.2836784027434607,-1.195875349207285,-1.3790482869327478,1.0685651561151157,0.10996328196222725,-0.0004328604846406561,0.001581083321008892,-0.0008176551415485506,0.001085964198504009,0.0005400088733535748,-0.00042297484163461666,-0.0008062339930335752,0.8401983380317688,-52.46762466430664,5.409956932067871,17.87512969970703,-1.1399434804916382,-1.3281967639923096,-0.04756011441349983,,,,,,,,,
1739354260.8095725,0.3451974613028579,1.1642546932311877,0.28367912173142174,-1.1958788247372358,-1.3790483029224898,1.068566897894512,0.10996040651338905,-0.0007576993365355733,0.0016616931666520078,0.0004374711308975966,-0.00012562205431824455,0.0002839052025454051,0.00037389288259893867,0.0006331175853920405,0.8401983380317688,-52.44382095336914,5.362349510192871,17.92273712158203,-1.1399434804916382,-1.3419296741485596,-0.020094294100999832,,,,,,,,,
1739354260.8195882,0.34519711648440005,1.1642470665000009,0.28367744420487945,-1.195879042986284,-1.3790498008003145,1.0685667803204497,0.1099620430000045,-0.001020552021473207,-0.0022855860236088285,0.0002656124154192351,-0.00023658767184307427,0.0006904247068677049,0.00016506962685897426,0.0007072937065266661,0.8401983380317688,-52.41604995727539,5.386153221130371,17.92273712158203,-1.1271260976791382,-1.3419296741485596,-0.0008682189509272575,,,,,,,,,
1739354260.8305771,0.34519860056904755,1.1642519380468108,0.2836789680953903,-1.1958788477271383,-1.3790474197441356,1.0685651561151182,0.10995931390358704,-0.0007274320645132214,0.0004986659615966523,0.000743133385301394,-0.00043104125030200846,7.223717896059608e-05,-0.00011891685003719344,0.0006089146426049674,0.8640020489692688,-52.44382095336914,5.362349510192871,17.92273712158203,-1.1472676992416382,-1.3281967639923096,-0.0008682189509272575,,,,,,,,,
1739354260.8415651,0.34520032237420645,1.1642499402311957,0.28367745262587846,-1.1958858095805331,-1.3790482854798634,1.068563640794958,0.10995452661908324,-0.0006422329560226013,-0.0002915994972881082,0.0006357246044063015,-0.0013330515014617003,0.000274063648945567,-0.0009207403164404255,-0.0014031207634809173,0.8401983380317688,-52.41604995727539,5.386153221130371,17.99811553955078,-1.1399434804916382,-1.3153793811798096,0.026597600430250168,,,,,,,,,
1739354260.8516188,0.3452020348949901,1.1642519381720493,0.2836788941146906,-1.1958777224478772,-1.379048324725719,1.0685651580531816,0.10995823429254041,0.0001811634395805779,-0.0002650523840931568,-0.0006262646765976354,0.0009754315911504237,-0.0006079637917972387,0.00017864654196787094,0.0014025899320958563,0.8163946270942688,-52.44382095336914,5.362349510192871,17.89893341064453,-1.1399434804916382,-1.3281967639923096,-0.0008682189509272575,,,,,,,,,
1739354260.8625228,0.3452016006310242,1.1642532174462998,0.2836788863323199,-1.1958809850246455,-1.3790490475008128,1.068565913775204,0.10996410250352773,0.0003971219061271827,0.0002129147553230056,0.00037383626512164957,-0.0011941249395906958,-0.00012891871852047072,0.0004834771832685798,0.0032379574820081518,0.7925909161567688,-52.49142837524414,5.362349510192871,17.92273712158203,-1.1335347890853882,-1.3346054553985596,-0.027418512850999832,,,,,,,,,
1739354260.872585,0.3451991650053671,1.1642526269004947,0.28368017342620183,-1.1958788134346074,-1.3790498008000929,1.0685643984550364,0.10995777361655697,0.0004123151162126328,-0.0006500390387691652,0.0008551100562845808,0.0002884242199152352,0.0007932477539550069,-0.00014705097715779635,-5.80628767026043e-05,0.8163946270942688,-52.44382095336914,5.386153221130371,17.92273712158203,-1.1271260976791382,-1.3217880725860596,-0.0008682189509272575,,,,,,,,,
1739354260.8835096,0.3452003220310095,1.1642499402350843,0.2836755564145162,-1.195880596389786,-1.3790483901025876,1.0685643984550364,0.10996406349015629,-9.304884894564651e-06,-0.0013736418736583907,3.851958816590349e-05,-0.0007470130979715416,0.00040041500333749575,-0.000592648895671156,8.208677535617443e-05,0.8401983380317688,-52.41604995727539,5.409956932067871,17.94654083251953,-1.1271260976791382,-1.3217880725860596,-0.020094294100999832,,,,,,,,,
1739354260.8935614,0.34520203195154503,1.1642499019664863,0.28367532292635944,-1.1958827127122094,-1.3790474718865486,1.068565913775193,0.10995959040084664,7.266786473371308e-05,-0.0010541296401984934,-0.0007835300712133873,-0.0019049211872184668,0.0017490469188442587,-0.0002539518018270855,0.0022347918535732063,0.8163946270942688,-52.41604995727539,5.409956932067871,17.97431182861328,-1.1472676992416382,-1.3346054553985596,-0.0072769103571772575,,,,,,,,,
1739354260.9045348,0.3452019541139185,1.1642469997351714,0.2836732665700051,-1.1958772603092809,-1.3790499577837407,1.0685643805763683,0.10995931586600892,-0.0002110575098531604,-0.0011876846907512553,-0.0012350651499814617,0.0003822254819690477,-7.109930341550499e-05,-0.0006848278706055032,-0.0005481788704788265,0.8163946270942688,-52.41604995727539,5.437727928161621,17.89893341064453,-1.1271260976791382,-1.3217880725860596,-0.013685601763427258,,,,,,,,,
1739354260.91457,0.3452017954938965,1.1642482276606676,0.28367532000661694,-1.195877260312961,-1.3790499359828503,1.0685701915732642,0.10995964422546715,0.00019710973778443028,7.080717883654463e-05,-0.0004190758045409549,0.00021702715996395176,0.00025334009802778344,0.0015346695108103812,0.00211133263781749,0.8163946270942688,-52.39224624633789,5.409956932067871,17.89893341064453,-1.1271260976791382,-1.3346054553985596,0.019273381680250168,,,,,,,,,
1739354260.9255676,0.3452010507674446,1.1642564758335474,0.2836788857922362,-1.1958788133991267,-1.3790491669078153,1.0685690927137292,0.10996331016234245,-0.0004659570689538298,0.0028216863339904992,0.0011838663983561291,0.00015410338745271834,-0.0008949827987502308,0.0006647613697518685,0.001783968847604603,0.8163946270942688,-52.49142837524414,5.362349510192871,17.92273712158203,-1.1335347890853882,-1.3346054553985596,-0.0072769103571772575,,,,,,,,,
1739354260.9355776,0.34519893532777923,1.1642553364143522,0.28367711143175256,-1.1958806982190557,-1.3790490562239888,1.068566779726261,0.1099545528563822,-0.0003750772826426922,0.001704702944019755,0.0010714108168596596,-0.00031533180453568316,-5.579566991655091e-05,-0.0003093456824813394,-0.001189502752927082,0.8163946270942688,-52.49142837524414,5.386153221130371,17.94654083251953,-1.1335347890853882,-1.3419296741485596,0.026597600430250168,,,,,,,,,
1739354260.9465218,0.34520098853934833,1.164253624201676,0.28367888536025815,-1.1958791196210679,-1.3790522613002592,1.0685651561151148,0.10996007725821219,0.00011315165854346382,0.00083552628738577,0.0011137391246909662,-0.0005341718581288216,0.0003144475962465089,-0.0006150391173307444,0.001473146618743385,0.8163946270942688,-52.46762466430664,5.362349510192871,17.92273712158203,-1.1335347890853882,-1.3281967639923096,-0.020094294100999832,,,,,,,,,
1739354260.957575,0.34519806769388806,1.16425192894051,0.2836786491492091,-1.1958807009852215,-1.3790498415549637,1.0685651561151146,0.10996040131414153,0.00010591117334910252,0.0005493590232655189,0.0008690696868718725,-0.0007948238102369273,0.001279900844670048,0.0002773054630429119,0.0009009917366063328,0.8401983380317688,-52.44382095336914,5.362349510192871,17.94654083251953,-1.1536763906478882,-1.3281967639923096,-0.020094294100999832,,,,,,,,,
1739354260.967585,0.34520108020134405,1.1642536418623066,0.28367958524065195,-1.1958828952135776,-1.3790538944117592,1.0685636414409803,0.10995482254116454,-0.0011410104457358875,0.0002237460317643328,0.0008347020833936741,-0.0008560120361475068,-0.0004020383568190524,-0.00039464013433975826,-0.0015225146213460054,0.8163946270942688,-52.46762466430664,5.362349510192871,17.94654083251953,-1.1207174062728882,-1.3153793811798096,0.03300629183650017,,,,,,,,,
1739354260.9775927,0.3451975570514255,1.1642529354368938,0.28367497679604525,-1.1958770307597477,-1.3790492008258841,1.0685653145521024,0.10995853124045672,-0.0007645869249710591,0.0008940307053170293,-0.00038745088253262707,0.0011645379803120605,3.9317848908965275e-05,0.001021940603904683,0.0005271598659326935,0.8401983380317688,-52.46762466430664,5.386153221130371,17.89893341064453,-1.1335347890853882,-1.3281967639923096,-0.0072769103571772575,,,,,,,,,
1739354260.9875956,0.3452015898279214,1.164255257237586,0.2836753199701686,-1.1958806981140777,-1.3790501714580021,1.0685669373045574,0.10995563945031067,0.0014904448301795508,0.00030494530927508296,-0.0010316378221661591,-0.0010879391266131718,0.0004658444134393519,0.0010665355072492482,-0.0017686631226109732,0.7925909161567688,-52.49142837524414,5.409956932067871,17.94654083251953,-1.1271260976791382,-1.3419296741485596,0.05314789339900017,,,,,,,,,
1739354260.9976263,0.3452000750888231,1.1642519381702547,0.2836778113161881,-1.1958797862015904,-1.3790540524407657,1.068565156117784,0.1099577604708245,-0.00019867261724466686,0.00021197783647433939,0.000532014653579465,-0.00018515097137381605,-0.0003800024690498833,-0.0007427812925978317,-0.0004788388750670112,0.8401983380317688,-52.44382095336914,5.386153221130371,17.89893341064453,-1.1271260976791382,-1.3281967639923096,-0.0008682189509272575,,,,,,,,,
1739354261.0085893,0.34519790286580093,1.1642532145028608,0.28367253158731637,-1.1958777205859297,-1.3790498010393604,1.0685676550700738,0.10995451815953444,-0.0005612384401356063,0.0008597484044760469,-0.0024013133631350407,0.0008770069341491739,-0.00019353194442927837,0.0009297700986875193,-0.001126262630477705,0.8401983380317688,-52.49142837524414,5.437727928161621,17.89893341064453,-1.1271260976791382,-1.3483383655548096,0.026597600430250168,,,,,,,,,
1739354261.0195668,0.34519743470134323,1.1642519368153859,0.2836797010001858,-1.1958806726081646,-1.3790490450780089,1.06856603215945,0.10995787952211285,-0.00010210472661810693,0.0002959588187280939,0.0005307644512587287,-0.0005506672788930932,0.00025133870212441453,6.416710177372211e-05,0.0009876949822229613,0.8401983380317688,-52.44382095336914,5.386153221130371,17.94654083251953,-1.1335347890853882,-1.3346054553985596,-0.0008682189509272575,,,,,,,,,
1739354261.0305467,0.3451980667023474,1.1642526880427837,0.2836753239090851,-1.1958788940218497,-1.3790545161708632,1.0685667796730938,0.10996074274226462,-0.00025465946923600597,0.00017909469093448538,-0.00031848443806349906,3.443995555145541e-05,-0.0008828628160895183,-0.000409673229101262,0.0008967106175026781,0.8401983380317688,-52.46762466430664,5.409956932067871,17.92273712158203,-1.1271260976791382,-1.3419296741485596,-0.013685601763427258,,,,,,,,,
1739354261.0405643,0.3451954707244939,1.1642516879308056,0.28368169461879816,-1.1958785759281554,-1.3790534171121966,1.0685702700652804,0.10996116010691133,-0.0009311998897736566,-0.0002466862925915358,0.0011816015534927141,0.0008623775020303333,-0.0011313292555578446,0.0018084880467472912,2.0317566746348774e-05,0.8640020489692688,-52.44382095336914,5.362349510192871,17.92273712158203,-1.1335347890853882,-1.3346054553985596,0.0064559997990727425,,,,,,,,,
1739354261.0505874,0.34520020752606895,1.1642553632120993,0.283679202676399,-1.1958788133964902,-1.3790504560154708,1.0685667798585223,0.10995858438025545,0.00012023202809409032,0.001315817264720583,0.0005373112946645375,-0.0008904433304357279,-1.494707672664437e-05,0.0006005511192796935,0.0008452206482407489,0.8401983380317688,-52.49142837524414,5.386153221130371,17.92273712158203,-1.1335347890853882,-1.3419296741485596,0.019273381680250168,,,,,,,,,
1739354261.0615473,0.34520159870442174,1.1642519294467102,0.2836732415242519,-1.1958806216196496,-1.3790527062560418,1.068565913775194,0.10996324539752322,0.00094556770747698,0.00014574052263500653,-0.0007382183051551182,-0.0005622510707949307,0.00029140680432505434,-4.3188204117875374e-05,0.0010006585020730348,0.7925909161567688,-52.44382095336914,5.437727928161621,17.94654083251953,-1.1335347890853882,-1.3346054553985596,-0.020094294100999832,,,,,,,,,
1739354261.0716612,0.34519956881742275,1.1642536506926329,0.28367710268321183,-1.1958805960752825,-1.3790515232443177,1.0685651561151146,0.10996200508257988,0.000339570031389787,0.0010024775632887948,0.0006258976456992739,0.0005792482289761862,-8.859952132469676e-05,-0.00047206071518437245,0.0001259912995341903,0.8401983380317688,-52.46762466430664,5.386153221130371,17.94654083251953,-1.1399434804916382,-1.3281967639923096,-0.027418512850999832,,,,,,,,,
1739354261.0825746,0.34520168164168774,1.1642499397587927,0.2836753200061707,-1.1958815694017746,-1.379051635559107,1.068565913775193,0.10996086122126421,0.0007881515790123092,-0.0007791623937123062,-0.0008703204476706894,-0.001623618424694051,0.00027390843710069375,-0.0005784770202288769,0.002313745522540285,0.8163946270942688,-52.41604995727539,5.409956932067871,17.92273712158203,-1.1207174062728882,-1.3346054553985596,-0.013685601763427258,,,,,,,,,
1739354261.0944982,0.3451995359130743,1.1642518575726855,0.2836753550003928,-1.1958770316811769,-1.3790516181043069,1.0685651565996312,0.10995446267011891,-0.00038508444594016885,-0.0005653354614805648,-7.295697854043108e-05,0.0010175860148374767,0.001676611182158897,8.318242566613957e-05,0.00044708192980074204,0.8163946270942688,-52.44382095336914,5.409956932067871,17.89893341064453,-1.1207174062728882,-1.3281967639923096,0.026597600430250168,,,,,,,,,
1739354261.104562,0.3451991607396431,1.164249701917141,0.28367710268338725,-1.1958815797946645,-1.379054797180102,1.0685651561151173,0.10996127273534086,0.0002558987766805221,-0.00030169127782681275,-0.0001463234911996392,-0.0014266451293150424,-0.0021823808809778985,0.00018987390046970213,0.0001688463546473558,0.8163946270942688,-52.41604995727539,5.386153221130371,17.92273712158203,-1.1207174062728882,-1.3281967639923096,-0.027418512850999832,,,,,,,,,
1739354261.114657,0.34519713120137474,1.1642496743364819,0.28367710268318974,-1.1958788134446798,-1.3790506764309558,1.0685659530210496,0.10995538065027614,-0.0005836455224011919,-0.00019881554902346688,-0.0001813531833197914,-0.00016777258423232125,0.0010963604251424052,0.00013516267092362485,-0.00012224112137702202,0.8401983380317688,-52.41604995727539,5.386153221130371,17.92273712158203,-1.1207174062728882,-1.3346054553985596,0.019273381680250168,,,,,,,,,
1739354261.1265688,0.34519881624432736,1.1642519378434995,0.2836810701327308,-1.1958780256382706,-1.3790531368600052,1.068566779672647,0.10996395475092474,-9.979214879934857e-05,8.54194169680677e-05,0.002158073815235459,-0.00017798490036255752,0.0002557487289116803,-0.0007859703476486077,0.003985271665241263,0.8163946270942688,-52.44382095336914,5.334578514099121,17.89893341064453,-1.1271260976791382,-1.3419296741485596,-0.04023589566349983,,,,,,,,,
1739354261.1375556,0.34519884571490345,1.1642536506927788,0.28367532000676327,-1.1958805960804662,-1.379051046871812,1.068566779833931,0.1099588266681575,0.00016649723042137985,0.0012377006744144165,-0.00035111402219236223,-0.0008703157354970706,1.818590011776379e-05,0.0003819382821150728,-0.0015725943330252843,0.8163946270942688,-52.46762466430664,5.409956932067871,17.94654083251953,-1.1207174062728882,-1.3419296741485596,-0.0008682189509272575,,,,,,,,,
1739354261.1485887,0.3451988489643615,1.1642534122620887,0.2836786488251885,-1.1958788899272512,-1.3790532877408639,1.0685659661030023,0.10995380828086995,0.0007460926637388982,0.0005305402103523994,0.0005633710752980486,-0.0005507265533386285,8.128390986883915e-06,-0.00042980989181462515,-0.001230132329082532,0.8163946270942688,-52.46762466430664,5.362349510192871,17.92273712158203,-1.1335347890853882,-1.3346054553985596,0.03300629183650017,,,,,,,,,
1739354261.16053,0.3451999540629806,1.164253727111839,0.2836771026818545,-1.1958755030332766,-1.3790527001512611,1.0685671328854305,0.10996015201518274,0.0012972607515198036,0.00046743565363436656,0.00013302952954457136,0.0007359849931684396,-0.00016583338350389037,0.0007798369956068535,1.8543876568271299e-06,0.8401983380317688,-52.46762466430664,5.386153221130371,17.87512969970703,-1.1399434804916382,-1.3419296741485596,-0.020094294100999832,,,,,,,,,
1739354261.1705813,0.3451971302304845,1.1642519290151143,0.28367711143174523,-1.195877030722251,-1.3790560314620948,1.0685667796744194,0.1099561765497845,-0.0011590060121672119,-0.00023890436923641853,0.0005772370489845536,0.00042430950672039285,-0.0015230055832724534,0.00042446598883674063,-0.001322295818998649,0.8401983380317688,-52.44382095336914,5.386153221130371,17.89893341064453,-1.1143087148666382,-1.3419296741485596,0.012864691205322742,,,,,,,,,
1739354261.181534,0.3452008466928306,1.1642499299836155,0.2836753375033311,-1.1958794031328457,-1.3790534569900228,1.0685643984550364,0.10995776234899969,0.0014112056067686514,-0.0013864067945342793,-0.0002516314240357309,-2.8234728629326092e-05,-8.428315304966712e-05,-0.00018735819854201648,-0.000467060806767772,0.7925909161567688,-52.41604995727539,5.409956932067871,17.89893341064453,-1.1271260976791382,-1.3217880725860596,-0.0008682189509272575,,,,,,,,,
1739354261.191558,0.34520127990820704,1.1642519116809225,0.2836789116061717,-1.1958790999947426,-1.3790522789662116,1.0685675373325039,0.10996051166059755,0.0016459977237813352,-0.00010227767320844301,0.0010955911672965273,-0.00019469917308323373,-0.0008782779603482027,0.0006729911216939748,0.0008158555216093405,0.8163946270942688,-52.44382095336914,5.362349510192871,17.89893341064453,-1.1335347890853882,-1.3483383655548096,-0.020094294100999832,,,,,,,,,
1739354261.2015994,0.3451988470284823,1.1642536505833156,0.2836753200066151,-1.1958809050619978,-1.3790540830138427,1.0685651561151146,0.1099574254459444,0.0010902389721278772,0.0007783327729587216,-0.0003125166148636679,-0.000697568074272253,-0.0005199902206990551,-1.1116256382882542e-05,0.0005097107026299447,0.8163946270942688,-52.46762466430664,5.409956932067871,17.94654083251953,-1.1271260976791382,-1.3281967639923096,0.0064559997990727425,,,,,,,,,
1739354261.212546,0.3451971008074296,1.1642492249754584,0.2836788853602088,-1.1958774163791166,-1.3790533021201699,1.0685673146705812,0.10995812020978683,-0.00044676688986205126,-0.0011183315336547898,0.0007538464602933981,-0.00015251103498718527,0.00034107320038166195,0.001334217346890141,-0.0007414326004331187,0.8401983380317688,-52.41604995727539,5.362349510192871,17.87512969970703,-1.1335347890853882,-1.3346054553985596,-0.0008682189509272575,,,,,,,,,
1739354261.222591,0.34519711255370933,1.16425364185035,0.2836772076658562,-1.1958788129984865,-1.3790518226857595,1.0685655093515485,0.10995213207278862,-0.00038290935729208764,0.0011444728407178273,8.120054856255169e-05,-0.0003184811550771907,0.0012214478930040293,2.005488463527414e-05,-0.0026057235939139635,0.8401983380317688,-52.46762466430664,5.386153221130371,17.92273712158203,-1.1399434804916382,-1.3281967639923096,0.04673920199275017,,,,,,,,,
1739354261.2336092,0.34519539120275966,1.1642475560453553,0.28367896409780125,-1.1958770305754542,-1.3790546864177042,1.0685651561171086,0.10996485718148942,-0.0001893451554228308,-0.0016614564979394262,0.0012495570057088731,0.0011992194595693089,-0.0005711400546220764,-0.00013714152229484875,0.001625484509981579,0.8640020489692688,-52.41604995727539,5.362349510192871,17.89893341064453,-1.1271260976791382,-1.3281967639923096,-0.03382720425724983,,,,,,,,,
1739354261.2445202,0.34519884273512547,1.1642499019166885,0.2836771143483749,-1.1958788137127658,-1.3790499599644328,1.068565913775193,0.10995348948150288,0.0008334323412419448,7.790884595341204e-05,0.0001536844308612066,-0.00019908070912150557,0.0009791450129751301,0.00023273844504097713,-0.0016397251774459168,0.8163946270942688,-52.41604995727539,5.386153221130371,17.92273712158203,-1.1271260976791382,-1.3346054553985596,0.03941498324275017,,,,,,,,,
1739354261.25458,0.3451953912040557,1.1642477941349891,0.28367324021690776,-1.1958748849536158,-1.3790488136112047,1.0685652084429234,0.10995550255516785,-0.0003956147055250468,-0.0006264944586981434,-0.000396591779002436,0.0008667793806984277,0.0020139194975405195,0.0004359027794394266,-0.001658168018416937,0.8640020489692688,-52.41604995727539,5.437727928161621,17.89893341064453,-1.1399434804916382,-1.3281967639923096,0.019273381680250168,,,,,,,,,
1739354261.265616,0.34519710372344103,1.1642535795980224,0.2836788889244351,-1.1958805960936922,-1.3790513839325715,1.068565914259808,0.1099617175457407,-1.567328793585746e-05,-0.0003904960943140167,0.0016955827279353322,-0.0014616158538465133,-0.00012086264055716694,0.0007351229568295756,0.001092612603564414,0.8401983380317688,-52.46762466430664,5.362349510192871,17.94654083251953,-1.1271260976791382,-1.3346054553985596,-0.0072769103571772575,,,,,,,,,
1739354261.2756317,0.34519881624417226,1.1642519381708454,0.2836771026832501,-1.1958797318558552,-1.379052379710588,1.068565913775201,0.10995853127657197,-0.000212772082784721,-5.754035220507134e-06,-0.00020632253409033055,-0.0005483763076365248,0.0003527638516728146,-0.000413406742384283,-0.0013320101194944651,0.8163946270942688,-52.44382095336914,5.386153221130371,17.92273712158203,-1.1335347890853882,-1.3346054553985596,-0.0072769103571772575,,,,,,,,,
1739354261.2865467,0.34519371115329556,1.164255354237839,0.2836792285821867,-1.195877030830975,-1.3790538071427894,1.0685667796724254,0.10995586623882464,-0.0013595747897991908,0.0010847132480221616,0.0007739365115544025,0.0013970187127374432,-0.0005705164954224673,0.0006112745208810106,-0.00035040110352322436,0.8917730450630188,-52.49142837524414,5.386153221130371,17.89893341064453,-1.1335347890853882,-1.3419296741485596,0.019273381680250168,,,,,,,,,
1739354261.2975466,0.34520124405877395,1.164253059061441,0.28367948761845285,-1.1958788134328242,-1.3790553268316545,1.068565913775193,0.10995867608016807,0.0015505758289097206,-0.0007586494448253365,0.0013628779117656259,0.0009441754323347497,-0.0019983419306375807,0.00038117031021442447,0.001581599346661119,0.7925909161567688,-52.46762466430664,5.362349510192871,17.92273712158203,-1.1207174062728882,-1.3346054553985596,-0.0072769103571772575,,,,,,,,,
1739354261.3075867,0.3451988246545761,1.1642553632034924,0.2836769802136114,-1.195880888615367,-1.3790545691716012,1.0685659181358438,0.10995689515409932,-8.139269988717286e-05,0.0011516849487678699,0.0010152143959130313,0.0003056257261131979,-0.0011809924175958373,-0.00014317321608027004,-0.00010994721172623279,0.8163946270942688,-52.49142837524414,5.386153221130371,17.92273712158203,-1.1271260976791382,-1.3346054553985596,0.0064559997990727425,,,,,,,,,
1739354261.3185132,0.34520052876495083,1.1642482247670258,0.28367347351043826,-1.1958806000057667,-1.3790537591837138,1.068565156115139,0.10996533593547983,0.0014823291837104127,-0.0012895034584021834,-0.0002844101687870545,-9.709041195151075e-06,0.00033818947238340846,-0.0003383992264697981,0.0015875898897000995,0.7925909161567688,-52.39224624633789,5.437727928161621,17.94654083251953,-1.1335347890853882,-1.3281967639923096,-0.027418512850999832,,,,,,,,,
1739354261.3286147,0.3451974216148798,1.1642499402311466,0.28367718142414045,-1.195878813712833,-1.3790530538505583,1.0685678393105547,0.10995933634908302,0.0005253079388032934,-0.000710030996103039,0.0008406756258082762,-0.0004602923954632937,0.00045024641016830585,0.0006723086586439158,-0.0016287608148457889,0.8401983380317688,-52.41604995727539,5.386153221130371,17.92273712158203,-1.1399434804916382,-1.3419296741485596,0.012864691205322742,724,754,752,41.717,0,0
1739354261.3395956,0.34519881657301554,1.1642524568717536,0.28367733889463387,-1.1958752480437946,-1.3790495729590053,1.0685651561210963,0.10995730322083436,0.0009026204833463526,0.0009509350974945669,0.00034765995670355356,0.0007576196778303906,0.0014981251262206467,-0.0006164334664169144,-0.00023265114177352148,0.8163946270942688,-52.41604995727539,5.386153221130371,17.87512969970703,-1.1335347890853882,-1.3281967639923096,0.03941498324275017,725,755,752,41.826,0,0
1739354261.3505757,0.34519710375978163,1.1642509845119395,0.2836788944341183,-1.1958770392240805,-1.3790545691476743,1.0685644173511895,0.109962321035805,-0.0005697000814455844,-0.0006624621744760286,0.0009687691249437668,0.0007765812176784844,-0.00027599305039136733,-0.0006595164313106994,0.0011158019095261617,0.8401983380317688,-52.44382095336914,5.362349510192871,17.89893341064453,-1.1271260976791382,-1.3217880725860596,-0.027418512850999832,723,754,752,41.717,0,0
1739354261.3615727,0.34519881463618246,1.164249471564576,0.2836771025752341,-1.1958788220061263,-1.379054569171601,1.0685651561152212,0.1099540775590505,0.00029803757499539675,-0.0006132862360713265,0.0004503575257094074,0.00016428323792339863,0.000226452378148236,-0.0005793879801189887,-0.0004686746040038507,0.8163946270942688,-52.44382095336914,5.386153221130371,17.92273712158203,-1.1271260976791382,-1.3281967639923096,0.03941498324275017,724,754,749,41.608,0,0
1739354261.3725772,0.345197104159497,1.164255254255997,0.28367497775625383,-1.1958826758647538,-1.3790569904259107,1.0685651561151146,0.10996172128944773,0.00015057582902433758,0.0007348052305404358,-0.0002213904734263505,-0.0007186186172438524,-0.0006457169522772767,-0.0008270027113172213,0.0018497479526902603,0.8401983380317688,-52.49142837524414,5.386153221130371,17.97431182861328,-1.1335347890853882,-1.3281967639923096,-0.0072769103571772575,723,754,753,41.826,0,0
1739354261.3825858,0.34519734214202746,1.164249553984413,0.28367461133718586,-1.195877830028092,-1.37905270069257,1.0685667796724254,0.10995851811292096,-0.0004198464494681157,-0.00020349137460747122,-0.0005600568320985125,0.0003057385145848571,0.0003761250834599579,-0.0007562251827726539,0.0006021369760067319,0.8401983380317688,-52.44382095336914,5.409956932067871,17.89893341064453,-1.1399434804916382,-1.3419296741485596,-0.0072769103571772575,723,753,758,41.717,0,0
1739354261.3935122,0.3451954265253267,1.1642519028373197,0.28367718141618914,-1.1958788134023428,-1.379053811509529,1.0685651575686648,0.10995932740079149,-0.0006004055488700353,-0.00029985610852613587,0.000313036252727742,-0.00017893128686218286,0.0003301459881779368,-0.0003538169287747747,0.00014886917724411298,0.8640020489692688,-52.44382095336914,5.386153221130371,17.92273712158203,-1.1335347890853882,-1.3281967639923096,-0.013685601763427258,723,758,755,41.717,0,0
1739354261.403648,0.3451971008090504,1.1642545115766274,0.2836746113771717,-1.1958805931314107,-1.379054922384311,1.06856439845511,0.10996033906378933,-0.0009243975202538784,0.0009553833100643988,-0.0005191736915632283,0.00017034827112398878,-0.00012859103526880646,-0.000674664025319761,0.0013704535193074714,0.8401983380317688,-52.49142837524414,5.409956932067871,17.94654083251953,-1.1271260976791382,-1.3217880725860596,-0.013685601763427258,723,754,752,41.717,0,0
1739354261.4146085,0.3451988162441667,1.1642520138236996,0.2836750839018444,-1.1958770565455488,-1.3790595653848614,1.068565913775193,0.10996091690202214,-0.00028560548222068686,-0.0004246814812555432,-0.00048505652482887094,0.0002036664622893604,-0.0016913525362936156,-0.00032857437280138036,-0.00028667775179779345,0.8163946270942688,-52.44382095336914,5.409956932067871,17.89893341064453,-1.1207174062728882,-1.3346054553985596,-0.027418512850999832,725,754,751,41.826,0,0
1739354261.42557,0.34520052880124213,1.1642499402316233,0.28367533267764256,-1.1958752480789314,-1.379053811696955,1.0685651561151146,0.10995535035119676,0.0013606046798396165,-0.0003690826554915767,0.001258353390650482,0.0006233954691198702,0.0001412412129919255,-0.0005236208272419845,-0.0028089905534268273,0.7925909161567688,-52.41604995727539,5.409956932067871,17.87512969970703,-1.1335347890853882,-1.3281967639923096,0.04673920199275017,722,755,751,41.717,1,0
1739354261.4355826,0.34519710764802725,1.1642519293417317,0.28367743704881987,-1.1958770307208122,-1.3790553268316825,1.0685660373269639,0.10996077117332102,-0.00027294733667589284,5.1192799333682774e-05,-0.0006474346862319709,0.0012535196426896283,-0.0005200782291325716,-0.00045800030057809276,0.0010339696014252692,0.8401983380317688,-52.44382095336914,5.409956932067871,17.89893341064453,-1.1207174062728882,-1.3346054553985596,0.012864691205322742,723,755,751,41.717,0,0
1739354261.4465244,0.34519710372346313,1.1642519293416818,0.28367639406214146,-1.1958788389076376,-1.3790530669333967,1.0685675373332013,0.10996147275473671,-0.0007911105702751845,0.0002389634985426983,-0.0006442449557269216,-0.001300521967835863,-0.00020451729077679076,0.00032408495707451234,0.0009677021932339894,0.8401983380317688,-52.44382095336914,5.386153221130371,17.92273712158203,-1.1399434804916382,-1.3483383655548096,-0.0008682189509272575,722,754,752,41.717,0,0
1739354261.4574924,0.34519508127213455,1.1642515049255189,0.28367709393063395,-1.1958752489887443,-1.3790563864698826,1.0685643999085865,0.10996339160970799,1.6661659950440388e-05,0.0008347821594175212,0.00087723227425515,0.0007504779419419383,-0.0006674592372286828,-0.0009304524552064458,0.0026459243170984417,0.8401983380317688,-52.46762466430664,5.386153221130371,17.87512969970703,-1.1207174062728882,-1.3217880725860596,-0.020094294100999832,720,754,751,41.717,1,0
1739354261.4676437,0.34519468253546043,1.1642518292284585,0.2836732460485372,-1.1958788162322698,-1.3790545691895462,1.0685672898685863,0.10995538362609339,-0.0009652249809173705,-0.00014426161583230694,-0.0004992161911104114,-0.0005002043403227414,-0.0010425774804474082,0.001960930871505865,-0.0005870708086532786,0.8640020489692688,-52.44382095336914,5.437727928161621,17.92273712158203,-1.1271260976791382,-1.3419296741485596,0.019273381680250168,722,754,751,41.717,0,0
1739354261.4785385,0.34520060823376264,1.1642516997528554,0.2836788852162325,-1.1958770335552507,-1.379054517059133,1.068565157571545,0.1099582349965713,0.0007701537068571919,0.0007030929682068244,0.0004086746784482224,0.0008898782756988414,-0.00017513554676537837,-0.0006826336528906981,0.0007045820093849446,0.7925909161567688,-52.44382095336914,5.362349510192871,17.89893341064453,-1.1271260976791382,-1.3281967639923096,-0.0008682189509272575,721,754,753,41.826,0,0
1739354261.4895027,0.3451988162446208,1.1642496095835082,0.28367347642731394,-1.1958788133978469,-1.379054569171307,1.0685667796724336,0.10995776186390967,-0.0002597164781310672,-0.00032271297744326045,-0.0005198464914466064,0.000181604645232484,-0.0005869963098944799,-8.810413851900685e-05,-0.0003426149346127895,0.8163946270942688,-52.41604995727539,5.437727928161621,17.92273712158203,-1.1271260976791382,-1.3419296741485596,-0.0008682189509272575,721,753,754,41.826,1,0
1739354261.4995763,0.34519539120270987,1.1642536232150815,0.28367324022031537,-1.1958835816670552,-1.3790545691716012,1.0685660712431362,0.10995463224508378,-0.0014341875289808517,-0.00029627654286088216,-0.00031830441358661937,-0.0010152733772814796,0.0008392143038895583,-8.666287608040542e-05,-4.154675994989858e-06,0.8640020489692688,-52.46762466430664,5.437727928161621,17.94654083251953,-1.1271260976791382,-1.3346054553985596,0.026597600430250168,721,753,754,41.717,1,0
1739354261.5105555,0.3451953649570432,1.16424814823714,0.2836788853602088,-1.1958759637631347,-1.3790545691716012,1.068565156602298,0.1099646557948951,-0.0007735709980816048,-0.0009858292748472332,0.0006310597076661693,1.1952205832158118e-05,-0.00030171794490206595,-0.00014954905145598253,0.0015124471687967386,0.8640020489692688,-52.39224624633789,5.362349510192871,17.92273712158203,-1.1271260976791382,-1.3281967639923096,-0.020094294100999832,722,755,753,41.717,1,0
1739354261.521504,0.34520096201133477,1.164249931388616,0.28367711143174523,-1.1958770392537115,-1.3790553268316794,1.068565913775194,0.10996013278380733,0.0014509156744774944,-0.0004025071031024968,0.0004756406976369231,0.0005079778391662733,-5.7758766829220875e-05,2.875014001641656e-05,0.0003303392982045727,0.8163946270942688,-52.41604995727539,5.386153221130371,17.89893341064453,-1.1207174062728882,-1.3346054553985596,0.0064559997990727425,722,756,754,41.826,0,0
1739354261.5315654,0.34519810753950514,1.1642529354368936,0.2836753200063188,-1.1958826771245934,-1.3790553268316794,1.0685662176913109,0.10996148578461579,-0.0005539253656320588,8.653722357188955e-05,0.0005721956066141428,-0.002021664945145988,0.00022641935669609576,-0.0002782002822464489,0.00254405810656102,0.8163946270942688,-52.46762466430664,5.409956932067871,17.97431182861328,-1.1207174062728882,-1.3281967639923096,-0.0008682189509272575,722,755,754,41.826,1,0
1739354261.5425744,0.3451953911987092,1.164253650688743,0.28367308912450717,-1.1958770396440022,-1.3790547261550277,1.0685651561211071,0.10995537985240654,-0.0003216688920339346,0.0002675833939384362,-0.0003614507816474291,0.0005912493949980038,-0.0014822384556260988,-0.0005153735744460284,-0.0009389241390095541,0.8640020489692688,-52.46762466430664,5.409956932067871,17.89893341064453,-1.1271260976791382,-1.3281967639923096,0.019273381680250168,722,753,753,41.826,1,0
1739354261.553566,0.34519881624417215,1.164251119786922,0.28367686643440987,-1.1958731682540882,-1.3790569983303933,1.068565913775193,0.10996196764974708,0.0006760309921963054,-0.00039727900437674094,0.00010734005938485512,0.0023191692497625755,-0.0015225396508381276,6.249619222691596e-07,0.0016647219961336253,0.8163946270942688,-52.44382095336914,5.386153221130371,17.84735870361328,-1.1079000234603882,-1.3346054553985596,-0.027418512850999832,721,754,754,41.717,1,0
1739354261.5635917,0.3451953912027098,1.1642497914190713,0.28367504894362433,-1.1958770307208118,-1.3790556302641623,1.0685678397950715,0.10995655656075554,-0.0012022580641888304,-0.0007794570474388496,-0.0003273509975493111,0.0002966492163562756,0.00035448448424776934,0.0001774730792272457,-0.0012221350188311925,0.8640020489692688,-52.44382095336914,5.409956932067871,17.89893341064453,-1.1271260976791382,-1.3419296741485596,0.03941498324275017,723,753,755,41.826,0,0
1739354261.5744896,0.3452025267057564,1.1642546137098688,0.28367532000464046,-1.1958770310357474,-1.3790560844977477,1.068565931385286,0.10996401619283684,0.0007319216205302443,0.0020318106044915183,0.00011715691729296414,0.00017234172953862402,-0.0004047288085557942,0.0004980778139035733,0.0025906144298960213,0.7648199200630188,-52.44382095336914,5.409956932067871,17.89893341064453,-1.1143087148666382,-1.3346054553985596,-0.013685601763427258,723,756,757,41.826,1,0
1739354261.5845065,0.3451988163531885,1.1642490771944107,0.2836789116058754,-1.1958788133978362,-1.3790553268316794,1.0685659137754913,0.10995980689802907,1.134892250928706e-06,-0.0005817205498518256,0.0011927384417820732,0.0004404400170301568,0.0004893406157932519,0.00016951065984721793,0.00031197627021387964,0.8163946270942688,-52.44382095336914,5.362349510192871,17.92273712158203,-1.1207174062728882,-1.3346054553985596,-0.013685601763427258,725,755,758,41.717,0,0
1739354261.5946078,0.34519707736976935,1.1642519381235985,0.28367500505861554,-1.1958806727092488,-1.3790545691716012,1.0685659139366985,0.10995851953030447,0.0003693614699669953,-0.0004668651694434025,-0.0007468038053425274,-1.8292454021100386e-05,0.0003423257528583247,-0.00016384890612934695,-0.0008319324554358537,0.8401983380317688,-52.44382095336914,5.409956932067871,17.94654083251953,-1.1271260976791382,-1.3346054553985596,-0.0072769103571772575,723,754,754,41.717,0,0
1739354261.6055152,0.3451988162440235,1.1642499657410028,0.28367531608014357,-1.1958760771519064,-1.3790576155646836,1.068565913775194,0.10996009328397449,0.0004903480311598942,-0.001134035389306068,0.00036651558854493586,0.0010521281003171106,-0.0016616891241451924,-0.0003612951108651824,7.045718793326878e-05,0.8163946270942688,-52.41604995727539,5.409956932067871,17.89893341064453,-1.1143087148666382,-1.3346054553985596,0.0064559997990727425,723,756,756,41.826,0,0
1739354261.6166008,0.3451987463374901,1.1642515049260007,0.28367323989222804,-1.195878830061171,-1.3790577487579403,1.06856515627662,0.1099593157516122,0.00011473875543226733,0.00045055937339078114,-0.0009659462713143292,-0.0007246484715864982,-0.00033849035238533347,-0.0005136398704739083,0.0002915060418812165,0.8163946270942688,-52.46762466430664,5.437727928161621,17.92273712158203,-1.1271260976791382,-1.3281967639923096,-0.013685601763427258,724,756,754,41.717,1,0
1739354261.6275826,0.3451953912025783,1.1642557169467564,0.28367521498750126,-1.195879094106749,-1.3790544667082665,1.0685651561151148,0.10995867667338226,-0.0003091045730474796,0.0009801261376069241,-0.0007635839651403503,-0.00022928318896928406,7.918555679935788e-05,-0.000553972980061703,0.0011791814906512968,0.8640020489692688,-52.46762466430664,5.409956932067871,17.89893341064453,-1.1399434804916382,-1.3281967639923096,-0.0072769103571772575,724,754,754,41.826,1,0
1739354261.6395628,0.34520056408617433,1.1642519381837135,0.28367311245339577,-1.1958788137244145,-1.3790546215073856,1.0685643984550364,0.10995650443602208,0.001342071854374408,0.00017699604570146527,-0.0010660569592183023,0.0003494226297808885,0.0004365948818081686,-0.0004381446015134149,-0.0005908364733392454,0.7925909161567688,-52.44382095336914,5.409956932067871,17.92273712158203,-1.1271260976791382,-1.3217880725860596,0.019273381680250168,725,755,753,41.608,0,0
1739354261.6495655,0.3451988162443716,1.1642490653753432,0.28367529371204003,-1.1958770307208135,-1.3790589429045867,1.0685683342384387,0.10995946879291583,0.0005970405026194808,-0.0009565622076628508,-0.0005311597570448553,0.0009778573092969972,-0.0008383265962020252,0.0008057942817055877,0.0006596396074555096,0.8163946270942688,-52.44382095336914,5.409956932067871,17.89893341064453,-1.1271260976791382,-1.3547470569610596,-0.013685601763427258,725,755,754,41.717,1,0
1739354261.660504,0.3451966116081754,1.1642519116285404,0.283677102647039,-1.1958770256697244,-1.3790538508359043,1.0685651561153362,0.10996259882641464,0.00023523222286425026,-6.996542030250711e-05,0.0007151300032341493,0.0004421898545153216,-0.00010979271646963074,-0.0010606517078922003,0.001910912480513332,0.8163946270942688,-52.44382095336914,5.386153221130371,17.89893341064453,-1.1335347890853882,-1.3281967639923096,-0.013685601763427258,723,756,756,41.826,1,0
1739354261.6705556,0.34519338415194495,1.1642519342470141,0.28367144879073986,-1.1958752735535139,-1.3790546873943537,1.068566050408916,0.10995299753341677,-0.0012919410728231108,0.0012862813917263352,-0.0011501726820371827,0.0007001459159475794,0.0005907223569562444,0.0010904151181431521,-0.002515580421756539,0.8917730450630188,-52.44382095336914,5.461531639099121,17.87512969970703,-1.1271260976791382,-1.3346054553985596,0.03941498324275017,725,752,754,41.826,1,0
1739354261.680648,0.34519537378720666,1.1642507104307676,0.28367882164580127,-1.195878889927683,-1.3790553660795382,1.068566780159256,0.10996171684126962,-0.0001189509805584562,0.001317997473819566,0.0009322201320389692,-0.0010152153375064836,-0.00014308536503146314,-6.972468549439016e-05,0.0009579912339514393,0.8640020489692688,-52.44382095336914,5.334578514099121,17.92273712158203,-1.1207174062728882,-1.3419296741485596,-0.0072769103571772575,725,755,754,41.608,0,0
1739354261.6915772,0.34519707747767603,1.1642536731432014,0.2836732402042149,-1.1958770391881737,-1.3790553311925515,1.0685683350295054,0.10995377319368235,0.0005315598234886907,0.0004908788825303574,-0.0003967458360538878,0.0007023509000556484,-0.00033695646590981617,-0.0002033683503645373,-0.002194404237289869,0.8401983380317688,-52.46762466430664,5.437727928161621,17.89893341064453,-1.1207174062728882,-1.3281967639923096,0.03300629183650017,724,755,753,41.826,1,0
1739354261.7035427,0.34519634040280534,1.1642519371910298,0.28367639405019063,-1.1958805960748975,-1.379057749539564,1.0685659152466884,0.10995538568201554,-0.00020284527640147994,-0.0006950102141139506,-0.0008397500823174773,-0.00044877508188817116,0.0009905749310033611,-0.001180177097310712,-0.0023011848708220702,0.8163946270942688,-52.44382095336914,5.386153221130371,17.94654083251953,-1.1271260976791382,-1.3346054553985596,0.019273381680250168,724,754,757,41.717,1,0
1739354261.7135909,0.34519669033119904,1.164253650692775,0.2836774459011674,-1.195884742613965,-1.379054975305814,1.0685667796724336,0.1099616569362882,0.0015851951509417179,0.0012608682540419399,-0.00020596964890683464,-0.0017311842822761024,0.001306033765226871,-0.0006677387746195417,0.001067499985877893,0.8163946270942688,-52.46762466430664,5.409956932067871,17.97431182861328,-1.1207174062728882,-1.3419296741485596,-0.03382720425724983,723,755,757,41.717,1,0
1739354261.7244997,0.3451971027033761,1.164251699644454,0.2836753187580914,-1.1958788134444904,-1.3790589647055607,1.0685651735577175,0.10995335403427675,0.0002852316173013461,-0.0009628331593577039,0.0004108012565878221,-0.00012981770438546156,-0.00011484768918267087,-0.00029207281959506986,-0.0017579828878941002,0.8401983380317688,-52.44382095336914,5.409956932067871,17.92273712158203,-1.1271260976791382,-1.3281967639923096,0.03941498324275017,724,753,757,41.717,1,0
1739354261.735543,0.34519702498643534,1.1642499402298498,0.2836722166353095,-1.1958808837863497,-1.3790561186809762,1.0685659137752914,0.10995705311800621,0.0008675371554455868,-0.0006140456743635397,-0.00033041026642362736,-0.000592607224062347,-0.00037529522930051444,-0.0003281601713329222,-0.0004111246930238887,0.8401983380317688,-52.41604995727539,5.437727928161621,17.92273712158203,-1.1271260976791382,-1.3346054553985596,0.0064559997990727425,723,755,756,41.717,0,0
1739354261.7456286,0.345198737397832,1.1642536506927805,0.2836753199888362,-1.1958805961099122,-1.3790547261812687,1.0685651561151146,0.10995539234771726,-7.128676800266843e-05,-0.0009441514083602492,-0.00031291353578322064,0.00013361766347513897,5.512564503457672e-05,-0.0011576494575192648,-0.0006746027617777783,0.8163946270942688,-52.46762466430664,5.409956932067871,17.94654083251953,-1.1271260976791382,-1.3281967639923096,0.019273381680250168,723,755,758,41.717,1,0
1739354261.7565985,0.34519639379391465,1.1642519381720493,0.28367286911453615,-1.195881284839634,-1.3790568707182678,1.0685667796724254,0.10995693404675247,-0.0008847349686217009,0.0002840435621601241,-0.0011148873510189545,-0.0011867170130865155,-0.00015721689392874928,-0.00033118874284848,-0.0017821578070759659,0.8401983380317688,-52.44382095336914,5.409956932067871,17.94654083251953,-1.1207174062728882,-1.3419296741485596,0.0064559997990727425,724,755,758,41.717,1,0
1739354261.767609,0.3452005200123403,1.1642512228799733,0.28367710266935436,-1.1958836373260622,-1.37905624293745,1.0685659144212154,0.10996323221593861,0.0017760455552968272,-0.0004951967625554523,0.0006281008857412744,-0.0008741616377053905,-0.0013152536045508442,-0.0009738895782837894,0.0011710194484766288,0.7925909161567688,-52.44382095336914,5.386153221130371,17.99811553955078,-1.1143087148666382,-1.3346054553985596,-0.020094294100999832,725,754,756,41.608,1,0
1739354261.7795475,0.34519881512805195,1.1642519391128192,0.28367531889009967,-1.195879097010528,-1.3790553328621156,1.0685645164079507,0.10995857219422409,0.0016134205212589587,0.0006820804351263541,-0.0009698485480666054,-0.0011323563475801328,-0.00046782350511991115,-1.3625825591199537e-05,0.0022175431241505074,0.8163946270942688,-52.44382095336914,5.409956932067871,17.89893341064453,-1.1207174062728882,-1.3217880725860596,-0.0072769103571772575,724,754,758,41.717,1,0
1739354261.7896378,0.3451971036154278,1.1642519371909081,0.2836704056843128,-1.1958854319153065,-1.3790564378660073,1.0685636407956236,0.1099530374553764,0.00014438517374929348,0.00046483799968676404,-0.0011763566984571833,-0.0013063098864962083,-0.0019117772323823414,-0.0011406239278776724,-0.001927039205719234,0.8401983380317688,-52.44382095336914,5.437727928161621,17.97431182861328,-1.1143087148666382,-1.3153793811798096,0.03941498324275017,723,755,758,41.717,1,0
1739354261.8005733,0.34519839408134795,1.1642508585842364,0.28367524125316973,-1.1958752481643293,-1.3790553404539783,1.068565913775193,0.10995927593566189,0.0010846252075238255,0.00020805609213773502,5.2389300896221164e-05,0.0012766868731330194,-0.0003382528193157557,-0.001067596628567122,0.0008497500800391943,0.7925909161567688,-52.41604995727539,5.409956932067871,17.87512969970703,-1.1207174062728882,-1.3346054553985596,-0.013685601763427258,724,754,759,41.826,1,0
1739354261.8115437,0.3451967887273888,1.164245357753366,0.2836711142088667,-1.1958788219011003,-1.3790563865237206,1.0685651561151146,0.10995695879451489,-0.0008708330639899981,-0.002287064840352763,-0.0013095896440438665,-0.0009651257351637257,-0.0014383173975372528,-0.000989490600436966,-5.375559496965845e-05,0.8401983380317688,-52.39224624633789,5.437727928161621,17.92273712158203,-1.1207174062728882,-1.3281967639923096,0.03300629183650017,724,756,758,41.717,1,0
1739354261.822558,0.34519598170684174,1.164251222758693,0.283678859078538,-1.1958780964585416,-1.3790546236169285,1.068569092689581,0.10995976721833646,1.4041764006393587e-05,0.00010676115451570414,0.001189843962546973,-0.00020403722215663083,0.0012504090027954686,0.00063310594046718,0.0007500900749911267,0.8163946270942688,-52.44382095336914,5.362349510192871,17.92273712158203,-1.1271260976791382,-1.3346054553985596,-0.013685601763427258,727,753,760,41.717,0,0
1739354261.8325846,0.34519699872477344,1.1642520402072383,0.28367300108898186,-1.1958788162282066,-1.379057158665697,1.0685667796903704,0.10995488625876722,-0.0002678922582614258,0.0008193316180452012,-0.0010721741531985697,-3.849057942132451e-05,0.0007556683535230777,0.00040559895746351674,-0.0009136584172777647,0.8401983380317688,-52.44382095336914,5.437727928161621,17.92273712158203,-1.1143087148666382,-1.3419296741485596,0.026597600430250168,726,754,759,41.717,1,0
1739354261.8425949,0.34519881623883775,1.16424822477221,0.2836771026710408,-1.1958788133979745,-1.3790588470245488,1.0685675373325048,0.10995695442555793,0.0009177166195645098,-0.0009852404462902004,-0.00018885519512328475,2.2381688700484392e-05,0.0010821709673456694,-2.102272936295934e-05,-0.0005246588130585728,0.8163946270942688,-52.39224624633789,5.386153221130371,17.92273712158203,-1.1271260976791382,-1.3483383655548096,0.03300629183650017,725,751,758,41.826,1,0
1739354261.8536124,0.3451981037229263,1.1642512229041937,0.2836771023591691,-1.195878923940327,-1.3790565609038878,1.0685679585016747,0.10995818596642526,0.0013252204535256933,-0.00017457187581536432,0.0015901092564252557,-0.00014681924800593043,-0.0005652666650803973,-7.266374086056638e-05,-0.000672063609746946,0.8163946270942688,-52.44382095336914,5.386153221130371,17.92273712158203,-1.1207174062728882,-1.3419296741485596,0.026597600430250168,726,752,761,41.717,1,0
1739354261.8645177,0.3451925565586848,1.1642499284534018,0.2836732139706466,-1.1958806215852806,-1.3790531717574863,1.0685659137818475,0.10996007343253304,-0.0012731115847468037,-0.0005897762445553255,-0.0009120873443124237,-0.00024778291157971264,0.0010763854541125926,-0.000537125256808555,0.0010060215235860532,0.8640020489692688,-52.41604995727539,5.437727928161621,17.94654083251953,-1.1399434804916382,-1.3346054553985596,-0.020094294100999832,727,752,759,41.826,0,0
