IITGN-Robotics/Franka_IITGN_ROBOTICS/franka_ros/franka_iitgn/data02/s_b_007.csv
time,fr3_joint1_pos,fr3_joint2_pos,fr3_joint3_pos,fr3_joint4_pos,fr3_joint5_pos,fr3_joint6_pos,fr3_joint7_pos,fr3_joint1_vel,fr3_joint2_vel,fr3_joint3_vel,fr3_joint4_vel,fr3_joint5_vel,fr3_joint6_vel,fr3_joint7_vel,fr3_joint1_eff,fr3_joint2_eff,fr3_joint3_eff,fr3_joint4_eff,fr3_joint5_eff,fr3_joint6_eff,fr3_joint7_eff,flexpin1,flexpin2,flexpin3,Force,ContactMic,ContactMic_gt
1739355061.9345152,0.3295613879692122,1.1641613090654586,0.3083080463014884,-1.2018314758934021,-1.396634156191724,1.0626566079727298,0.10101094048584011,-2.9907484355055816e-05,0.0015532101758933753,-0.0018978726778648301,-0.0005642659136919274,-0.0004118239077556794,-0.0005936641308257769,0.0009240931007461066,0.4672735035419464,-52.16214370727539,5.715437889099121,17.65296173095703,-1.1994527578353882,-1.1441757678985596,0.026597600430250168,,,,,,,,,
1739355061.9445817,0.3295461403750617,1.1641594184506079,0.3082878972862198,-1.2018314719686671,-1.3966354506603078,1.0626496902372944,0.1010111188127056,-0.001265523731444622,0.00023128757465346766,-0.001534253732340611,0.000226201005897083,0.00026517515750203765,-0.00031246297572548186,-0.0016124743309572345,0.5902593731880188,-52.13437271118164,5.743208885192871,17.65296173095703,-1.1994527578353882,-1.1249496936798096,0.012864691205322742,,,,,,,,,
1739355061.9555213,0.32952531134754814,1.1641681497144813,0.30825190029340954,-1.2018372625627103,-1.3966318825887254,1.0626449117632175,0.10100798007313581,-0.00250428566307958,-0.00018892781161983268,-0.003410456285923422,-0.0007085349607637696,0.00031889920635179913,0.0009349736727387704,-0.0028342157099881266,0.7172124981880188,-52.21371841430664,5.842391014099121,17.70056915283203,-1.2186788320541382,-1.0855820178985596,0.03941498324275017,,,,,,,,,
1739355061.9674957,0.3294944673976,1.1641739143784846,0.3082173435661383,-1.201839797286588,-1.396637114270701,1.0626345272990672,0.10101187206040392,-0.0033921849035571565,0.00034697098069012464,-0.0031542142887856462,-0.00018316103474901632,-0.0016864088746937436,-0.0006761242652324013,0.00031378916193214757,0.8163946270942688,-52.23752212524414,5.870162010192871,17.72437286376953,-1.2122701406478882,-1.0782577991485596,0.0064559997990727425,,,,,,,,,
1739355061.9784334,0.3294600942734366,1.1641764186351509,0.3081995824522379,-1.2018364732959832,-1.3966329154390305,1.0626239873699839,0.10100871855668869,-0.003165263220497677,-0.0003024629220183794,-0.0015530269776104168,0.0005765413432131134,-0.0010080551028022902,-0.0011560564532695527,-0.0014518296647054178,0.8163946270942688,-52.23752212524414,5.842391014099121,17.67676544189453,-1.2122701406478882,-1.0654404163360596,0.03300629183650017,,,,,,,,,
1739355061.988503,0.3294235586281484,1.1641673775811918,0.30819582946834084,-1.2018346896382721,-1.396636004032423,1.0626172322434229,0.10100711401331836,-0.003682945000231106,4.072720450858249e-05,-0.000825238960518648,0.0011087063724329609,-0.000452440421641225,-0.00048360112065595995,-0.0004660807987231366,0.7925909161567688,-52.11056900024414,5.767012596130371,17.65296173095703,-1.2186788320541382,-1.0526230335235596,0.04673920199275017,,,,,,,,,
1739355061.9994996,0.3293872846132693,1.1641720647563871,0.3081905857283193,-1.2018363938235723,-1.3966317649049942,1.062613162896744,0.10101270285439758,-0.0033909030977817226,-0.00026278991890932855,-0.0011415749899065524,0.0010994423985670424,-0.00032157087215705396,-2.6317692714389904e-05,0.0008103805021296526,0.8163946270942688,-52.16214370727539,5.818587303161621,17.67676544189453,-1.2186788320541382,-1.0590317249298096,-0.0008682189509272575,,,,,,,,,
1739355062.0105116,0.32936838927305034,1.1641813486485497,0.3081884491964765,-1.201840038650027,-1.396635427773849,1.0626082817777835,0.10101111862549216,-0.0010060254072057613,0.0015764846352780105,-9.648751220844458e-05,-0.0004612287816983964,-0.0008530077510157068,-0.0017932894209047924,0.0009954002880790732,0.8401983380317688,-52.26132583618164,5.818587303161621,17.72437286376953,-1.2186788320541382,-1.0590317249298096,0.012864691205322742,,,,,,,,,
1739355062.0215416,0.3293572873689026,1.164176612387652,0.30818664406372187,-1.2018403565419145,-1.3966325244874065,1.0626105482191737,0.10101427080896862,-0.0018214537856620988,0.00012386676566393832,-0.00034264773867628346,-8.446142251990332e-05,-0.0008628958273874625,8.34556844571613e-05,0.0010253309599142872,0.8163946270942688,-52.16214370727539,5.767012596130371,17.72437286376953,-1.2122701406478882,-1.0782577991485596,-0.013685601763427258,,,,,,,,,
1739355062.0334682,0.3293534226509077,1.164172838150253,0.3081928379795425,-1.2018339400430085,-1.3966318830672642,1.0626075174132037,0.10101344735078623,-0.0003718042743725666,-0.001604722333467526,-0.0005551814081234498,0.0016166887428004616,-6.529510343441262e-05,0.00021664398021289038,0.0009891892709922813,0.7410162091255188,-52.11056900024414,5.715437889099121,17.65296173095703,-1.2186788320541382,-1.0526230335235596,-0.0072769103571772575,,,,,,,,,
1739355062.0435047,0.3293539372252166,1.1641790264237728,0.3081929557469632,-1.2018400386462387,-1.3966315293527563,1.0626039171681385,0.10101349984280693,-0.000640740323681747,0.0002871289596149072,0.00010817504874120367,-0.0009343510330780598,0.0012758569345437747,-0.0009757358636569609,0.0009767860548303851,0.6894415020942688,-52.18594741821289,5.715437889099121,17.72437286376953,-1.2186788320541382,-1.0590317249298096,-0.0072769103571772575,,,,,,,,,
1739355062.0554469,0.3293517100367383,1.1641841238104744,0.30818723219075506,-1.2018410717976518,-1.3966317648258995,1.0626050220241734,0.10101501527171337,-0.0007864574594559177,0.001610544206622751,-0.0009051091039868394,-0.0007993808167761126,0.0012036753426640406,-0.0008178280699560483,0.0003923267761873179,0.7172124981880188,-52.21371841430664,5.790816307067871,17.72437286376953,-1.2186788320541382,-1.0718491077423096,-0.020094294100999832,,,,,,,,,
1739355062.0674465,0.3293536115510798,1.1641841272079239,0.3081886449679558,-1.201840041595859,-1.3966336333600953,1.0626041073783514,0.10101409970112442,-0.0007444215906506492,-0.00021548681815761924,-0.0002803694458578842,-0.00024247798117139687,-8.285388371660003e-05,-0.0010520784853000305,0.0017861668313407927,0.6894415020942688,-52.21371841430664,5.743208885192871,17.72437286376953,-1.2058614492416382,-1.0654404163360596,-0.013685601763427258,,,,,,,,,
1739355062.0774744,0.3293531875707656,1.1641802588176757,0.3081887163480416,-1.2018384978078953,-1.3966317648292226,1.0626018836280196,0.1010127379567443,0.00039861534492704066,-0.0015060655357076501,-0.0002501098739251366,0.0002575125420257495,0.0005559012211272263,-3.95453676351926e-05,0.0003240240734620336,0.6656377911567688,-52.16214370727539,5.743208885192871,17.70056915283203,-1.2186788320541382,-1.0452988147735596,-0.0008682189509272575,,,,,,,,,
1739355062.088543,0.32935530636255983,1.1641785346157814,0.30819295602345526,-1.2018364732978026,-1.3966326229437798,1.062601826455932,0.10101499777424196,-0.0001759199747339053,-0.0014000503300872268,-0.00012567565023146048,0.0007638887016361948,-0.00024082475122756935,-0.0004704462626185958,0.0012252388714473169,0.6656377911567688,-52.13437271118164,5.715437889099121,17.67676544189453,-1.2122701406478882,-1.0452988147735596,-0.020094294100999832,,,,,,,,,
1739355062.0995545,0.3293526542425715,1.1641843352475272,0.30819095512680134,-1.2018382648037744,-1.3966310130357538,1.0626035060553571,0.1010119593633885,0.00034209296699211594,0.0007151704225541325,-0.0002773960160295917,-0.0007713811000158021,0.0005411653600658408,0.00017880255777056299,0.00044724163304701804,0.6894415020942688,-52.21371841430664,5.743208885192871,17.70056915283203,-1.2250875234603882,-1.0590317249298096,-0.0072769103571772575,,,,,,,,,
1739355062.1114633,0.3293504021791938,1.1641788538174813,0.30819087628223996,-1.2018389830030007,-1.3966310071671835,1.0626010285974212,0.10100872439853972,0.0008391312862941934,0.00032948476578051637,4.949877775282474e-05,-0.000423059579811567,-0.00035239775452956877,-0.00102966404560823,-0.0003260812112994781,0.6894415020942688,-52.13437271118164,5.743208885192871,17.70056915283203,-1.2250875234603882,-1.0654404163360596,0.03300629183650017,,,,,,,,,
1739355062.1215324,0.32935118654087175,1.1641789796393662,0.30819692352119155,-1.2018364733005416,-1.3966320689048524,1.0626054249435735,0.10100445936369173,0.0009219347766788766,-0.0008951440923416049,0.0011614300184173104,0.0009753014046880909,0.0005709513553998226,2.593719107102635e-05,-0.0015451819604985388,0.6656377911567688,-52.11056900024414,5.663863182067871,17.67676544189453,-1.2250875234603882,-1.0782577991485596,0.03300629183650017,,,,,,,,,
1739355062.1324463,0.32935187957291195,1.164185038087589,0.3081898811193765,-1.201838970902145,-1.3966333324811877,1.062606645092648,0.10101202564545403,0.001440513331991234,0.000846911177561555,-0.0008253766010194467,4.1512052913844806e-05,0.0001292455349916699,0.0010951862527186346,-0.0003509870901635078,0.6656377911567688,-52.21371841430664,5.767012596130371,17.70056915283203,-1.2058614492416382,-1.0855820178985596,-0.0072769103571772575,,,,,,,,,
1739355062.1425154,0.3293503238403666,1.164182796076426,0.30818734593531555,-1.201840277081162,-1.396631764828115,1.0626041466241998,0.10101105837058115,0.0004711862079130716,-1.8008135739157186e-05,-0.0010953247829688763,-0.0012984751591291646,0.0007847491765888778,-9.839696668494266e-05,0.0008881579351042994,0.6894415020942688,-52.16214370727539,5.790816307067871,17.72437286376953,-1.2186788320541382,-1.0654404163360596,-0.013685601763427258,,,,,,,,,
1739355062.1535099,0.32935013017852405,1.164185371496574,0.3081890940370009,-1.2018384943933815,-1.3966332799858798,1.062602377901127,0.10101111855348331,0.0019021689648443178,-0.00026571351891410824,-0.0009363344266776084,0.0008352562590598882,0.0008611020282336694,-0.00027983003044178864,8.125818455994465e-05,0.6894415020942688,-52.18594741821289,5.767012596130371,17.70056915283203,-1.2058614492416382,-1.0526230335235596,0.012864691205322742,,,,,,,,,
1739355062.1635225,0.3293489556899314,1.1641785622513887,0.30819295607165775,-1.201838494287057,-1.3966336512872122,1.0626017255086548,0.10100949474348049,-0.0006870518136276973,-0.0010083069393814475,0.00010449497329473896,0.0009547593076824207,-0.0004894850416725736,-8.988872558871853e-05,-0.0013629627102773817,0.6656377911567688,-52.13437271118164,5.715437889099121,17.70056915283203,-1.2058614492416382,-1.0452988147735596,0.026597600430250168,,,,,,,,,
1739355062.1744354,0.3293543786233545,1.1641814905933028,0.30818909360477587,-1.201840996250723,-1.3966325356251896,1.0625979944240416,0.10101349935555644,0.0006729465850447108,-0.0005019633517501272,-0.0009892262714988167,-0.0012142566891949883,-0.0010206499511554463,-0.0015859085974678628,0.0018446287305424263,0.5902593731880188,-52.16214370727539,5.767012596130371,17.72437286376953,-1.2122701406478882,-1.0526230335235596,-0.0072769103571772575,,,,,,,,,
1739355062.1845028,0.3293510616718209,1.1641874524749316,0.30819087595777434,-1.2018392930614352,-1.396628580583379,1.0625995352362856,0.10101094024713882,-0.0005290803705193587,0.0017619161738819298,-5.8000888298244844e-05,0.000530544986694013,0.0009208497869031298,-0.00010449682002224779,0.0015521688636082533,0.6656377911567688,-52.21371841430664,5.743208885192871,17.70056915283203,-1.2186788320541382,-1.0654404163360596,-0.013685601763427258,,,,,,,,,
1739355062.1954286,0.32934724313219627,1.1641817431295796,0.3081908761737862,-1.201840048794843,-1.396631007310681,1.062601024554032,0.10101033605830824,-0.0010225447385886401,0.00020578847472063383,2.117734377365778e-05,-0.00024654884805183326,0.00043268996983581505,-0.0015919935713481245,-0.0003146260827195537,0.6894415020942688,-52.13437271118164,5.743208885192871,17.72437286376953,-1.2250875234603882,-1.0782577991485596,0.0064559997990727425,,,,,,,,,
1739355062.2054935,0.3293489585299701,1.1641851427856627,0.30819292982598195,-1.2018407210494906,-1.3966325224873095,1.0626061220590444,0.10101238983961681,2.447740367363265e-05,8.870650907597379e-05,0.00024401511681880993,-0.0008957952644782259,0.0003406965707090223,0.0009563015793730358,6.481526390190992e-05,0.6656377911567688,-52.18594741821289,5.715437889099121,17.70056915283203,-1.2122701406478882,-1.0855820178985596,-0.0072769103571772575,,,,,,,,,
1739355062.2164845,0.32934995290604896,1.1641829295152317,0.30819295607150227,-1.2018372945299032,-1.3966328894279914,1.062601181453529,0.10101095642948538,-0.00018881251157556339,-0.0008445514838166038,-0.0005105247786148341,9.981478781671517e-05,-0.0013498973276190327,0.00044844353399279896,-2.9084711313522428e-05,0.6418340802192688,-52.16214370727539,5.715437889099121,17.67676544189453,-1.2122701406478882,-1.0782577991485596,0.012864691205322742,,,,,,,,,
1739355062.2264962,0.3293450953605206,1.1641852164669164,0.30819158491479387,-1.2018384944059433,-1.396631764833443,1.062603500809627,0.10100691299719558,9.577069783297696e-05,0.00024843369367951205,-0.0008103377401609767,0.0007631662158808202,0.0003504458968059419,0.0016034253966102762,-0.002212467361722486,0.6894415020942688,-52.18594741821289,5.743208885192871,17.70056915283203,-1.2186788320541382,-1.0590317249298096,0.03941498324275017,,,,,,,,,
1739355062.2365458,0.32934895266122705,1.1641865079920781,0.30819692353319234,-1.2018364737365403,-1.3966336464420475,1.0625987390567928,0.10100746650794229,-3.141441345614176e-05,0.001229682842814774,0.0015791787675093105,-0.0006715206406649058,4.2216304653018625e-06,-0.00046050028738509584,-0.00267602039210961,0.6656377911567688,-52.21371841430664,5.663863182067871,17.67676544189453,-1.2058614492416382,-1.0590317249298096,0.03941498324275017,,,,,,,,,
1739355062.2474988,0.32935066783470435,1.1641851458329064,0.3081929560722431,-1.2018404019223647,-1.3966317648292965,1.06260203643563,0.10100881902059715,0.001205935790735598,0.0007099665724723408,-0.00011841419766766702,-0.0003736099579188711,-0.00018388463653890648,0.001138546143614433,-0.0008300076423758354,0.6418340802192688,-52.18594741821289,5.715437889099121,17.70056915283203,-1.2186788320541382,-1.0590317249298096,0.019273381680250168,,,,,,,,,
1739355062.2575033,0.3293488732247343,1.1641854627431987,0.3081908762817949,-1.2018382561188146,-1.3966341860815386,1.0626026809361444,0.10100931968872151,-0.00011023304372117067,0.00028074281458759286,-0.0004762444974627069,-7.968425131400862e-05,-0.00024624050198334026,0.00012178523806894516,-0.0011508216221853716,0.6656377911567688,-52.18594741821289,5.743208885192871,17.70056915283203,-1.2250875234603882,-1.0654404163360596,0.026597600430250168,,,,,,,,,
1739355062.268454,0.3293460681266711,1.1641837512089919,0.3081912038665969,-1.2018400507512823,-1.3966375013290802,1.0625979807418535,0.1010080014571804,-0.00039051151857200496,0.00041604725279227,1.9703404443118303e-06,0.000122610692182811,-2.5854793520817536e-05,-0.0008555484685797764,-0.002483646285857643,0.6656377911567688,-52.16214370727539,5.743208885192871,17.72437286376953,-1.2058614492416382,-1.0526230335235596,-0.0008682189509272575,,,,,,,,,
1739355062.2784934,0.3293499164569143,1.1641854637297286,0.3081929570603552,-1.2018392891212475,-1.3966313620478688,1.0625997994218006,0.10101413895140568,0.0008032925466967672,-0.0002517998645040172,0.0008970306491846165,-0.000730929382812764,-0.00020668350721001632,-0.0003640834521418056,0.0015276181936799914,0.6418340802192688,-52.18594741821289,5.715437889099121,17.70056915283203,-1.2250875234603882,-1.0590317249298096,-0.013685601763427258,,,,,,,,,
1739355062.2884989,0.32935064155755706,1.1641854637297286,0.3081947387486751,-1.201836486057173,-1.3966332801493888,1.0625996137337559,0.10101390175719316,0.0005839236092729393,0.0007794694901220773,0.0008854774932745362,0.0005260686446031461,-0.0015262236135652036,0.0007024785607570424,-0.0002608226788564489,0.6418340802192688,-52.18594741821289,5.691634178161621,17.67676544189453,-1.2058614492416382,-1.0654404163360596,-0.013685601763427258,,,,,,,,,
1739355062.2985363,0.32934058027969065,1.1641865062681338,0.3081968185385251,-1.2018411169966219,-1.396633633844612,1.062601012765897,0.1010131445793026,-0.001588215829536894,0.0012566728832635696,-0.000370148303351262,-0.0008590825418812432,-8.80792947761375e-05,-0.00020028575743569652,0.0004454918674412122,0.7410162091255188,-52.16214370727539,5.663863182067871,17.70056915283203,-1.2058614492416382,-1.0782577991485596,-0.0072769103571772575,,,,,,,,,
1739355062.3094633,0.3293496747525268,1.1641790874035851,0.3081947653183567,-1.2018364736396367,-1.396631764990731,1.0626033300953528,0.10101500947333981,0.0010974803141219447,-0.0006164807617399182,0.0011850718802355895,0.0011567081217564346,0.00014828409973155298,-0.00011212679765246832,0.002384663882272194,0.6418340802192688,-52.11056900024414,5.691634178161621,17.67676544189453,-1.2186788320541382,-1.0590317249298096,-0.020094294100999832,,,,,,,,,
1739355062.319494,0.32934745837895446,1.1641780427904154,0.3081908850308004,-1.2018356442937408,-1.39663252248731,1.062604190948525,0.10101270269178346,0.0007832551845265075,-0.001819110531546428,-1.1205274050720077e-05,0.0008892948380074723,0.0008531972442908192,0.0020153073124377597,0.0012301188950170037,0.6418340802192688,-52.08279800415039,5.743208885192871,17.65296173095703,-1.2122701406478882,-1.0782577991485596,-0.0008682189509272575,,,,,,,,,
1739355062.3294983,0.3293420356861534,1.1641838696009637,0.308190876281943,-1.201834690635569,-1.3966317648272288,1.0626024242150394,0.10101588122244681,-0.001294105834342445,0.00045916665542072155,3.3411657991751426e-05,0.00047198026523847115,-0.0013026819998997023,0.0011874103967278097,0.002408915491944835,0.7172124981880188,-52.13437271118164,5.743208885192871,17.65296173095703,-1.2186788320541382,-1.0782577991485596,-0.027418512850999832,,,,,,,,,
1739355062.34044,0.3293460680000024,1.1641837525493277,0.3081922474386514,-1.2018371973824926,-1.3966317667652957,1.0626005968202248,0.10101034601436752,0.0007850550945414294,0.0012747994921116991,-0.0003605938342357643,-0.00023244218911851156,0.000837522134965233,-0.000632625950378705,-0.0012207922051937845,0.6656377911567688,-52.16214370727539,5.715437889099121,17.67676544189453,-1.2186788320541382,-1.0654404163360596,0.019273381680250168,,,,,,,,,
1739355062.3524556,0.3293420387403273,1.1641816044606468,0.30818909360077557,-1.2018346940030102,-1.3966317648272395,1.0626002537103236,0.10100284750744952,-0.0017297452363243373,-0.0014375126233370943,-0.0013808442572567296,0.0012614791390487684,-0.00019952672277272616,-0.00031465539948706794,-0.0018405446213495295,0.7172124981880188,-52.16214370727539,5.767012596130371,17.65296173095703,-1.2186788320541382,-1.0718491077423096,0.04673920199275017,,,,,,,,,
1739355062.3624678,0.32934577263860965,1.164181753256026,0.308194897194731,-1.2018365086177274,-1.3966310115278011,1.0625987383301179,0.10100923472137735,-0.0006997912508547433,-0.00091793390719149,0.000941098248860801,0.0009499944933151959,0.001201524525717007,-0.001071916449195999,0.0004273122970733427,0.6656377911567688,-52.13437271118164,5.691634178161621,17.67676544189453,-1.2250875234603882,-1.0590317249298096,-0.0072769103571772575,,,,,,,,,
1739355062.3725061,0.3293474498386046,1.1641824420329285,0.3081890936074591,-1.2018364732970357,-1.3966317691879533,1.0625987388146343,0.10101383035684061,0.00021301996725855467,-0.000324980654739774,-0.0011432845246836022,5.389998502221594e-05,-0.0001539835574830189,-0.0007222820698631888,0.0008275148313941828,0.6418340802192688,-52.13437271118164,5.767012596130371,17.67676544189453,-1.2186788320541382,-1.0590317249298096,-0.020094294100999832,,,,,,,,,
1739355062.3834577,0.3293448875515877,1.1641836726848336,0.30819473874866954,-1.2018364851792107,-1.3966332803089156,1.062600371387847,0.10100946167905629,-0.0010690291980678607,-0.0006320882627415169,0.00011398863891335688,-5.498254122913808e-05,0.0007124612272517822,0.0014719031600848704,-0.00041259828571785,0.7172124981880188,-52.16214370727539,5.691634178161621,17.67676544189453,-1.2058614492416382,-1.0718491077423096,-0.013685601763427258,,,,,,,,,
1739355062.3935082,0.32934576352962586,1.164181994192768,0.30819193980151255,-1.2018346906196198,-1.3966318045576047,1.0626019164554354,0.10100861901630091,-0.0005398728492711819,-5.200820606720381e-05,0.0005546507217825601,0.0008541909153805302,0.0006614014868221494,3.931628946101718e-05,0.0008019301467244724,0.6656377911567688,-52.13437271118164,5.767012596130371,17.65296173095703,-1.2186788320541382,-1.0855820178985596,0.03300629183650017,,,,,,,,,
1739355062.404437,0.3293420267478284,1.164185894069123,0.30819509105929044,-1.2018364732964375,-1.396631764827453,1.0626032902201512,0.10100937068970406,-0.0013692287761659634,0.0005139195670469226,0.0009202952642171347,0.000703060690689861,0.0005642859996400203,0.0007195890080535155,-0.0004927726230063159,0.7172124981880188,-52.16214370727539,5.715437889099121,17.67676544189453,-1.2186788320541382,-1.0855820178985596,0.026597600430250168,,,,,,,,,
1739355062.4144442,0.3293474495109558,1.164181753304434,0.3081950820068036,-1.2018400387594919,-1.396635583825631,1.0626017842626128,0.10101036112615273,0.0007844413896247926,-4.337954675372356e-05,0.000420083707950616,-0.001040165601288797,-0.0005521865022729472,0.0006626730078570698,0.001310911025484049,0.6418340802192688,-52.13437271118164,5.715437889099121,17.72437286376953,-1.2122701406478882,-1.0718491077423096,0.019273381680250168,,,,,,,,,
1739355062.4244814,0.32934464434741634,1.164185489239536,0.30819508200665036,-1.2018378784731423,-1.3966325225391512,1.062599509098069,0.10100486842918488,7.834107194906593e-05,0.0007525598437206414,0.0010883309978227025,-0.0010804374605903875,-0.0016113183413850665,0.0007058890383818586,-0.001487473170486885,0.6656377911567688,-52.18594741821289,5.715437889099121,17.65296173095703,-1.2122701406478882,-1.0654404163360596,0.026597600430250168,,,,,,,,,
1739355062.4345417,0.3293403139894015,1.1641863906914538,0.3081908763177978,-1.2018382564635082,-1.3966332801473862,1.0625987383303395,0.10100803414263668,-0.002210795262371461,0.0011136994487069753,0.00013435562968618303,-0.0002861110636109864,-0.0003966707566913241,-0.001440690927395802,-0.0012938023225530408,0.7410162091255188,-52.18594741821289,5.743208885192871,17.70056915283203,-1.2058614492416382,-1.0590317249298096,0.026597600430250168,,,,,,,,,
1739355062.4455278,0.32934573695421854,1.1641875287211185,0.30819121747546124,-1.2018425023091293,-1.3966325226488128,1.0625995091259832,0.10101586350073626,-0.0003133614228157842,0.00016440174991134786,0.00027626027623513,-0.0013816005231069477,-0.0004093144418700352,0.0003342104794471025,0.0007554107201586096,0.6656377911567688,-52.18594741821289,5.743208885192871,17.72437286376953,-1.2122701406478882,-1.0654404163360596,-0.027418512850999832,,,,,,,,,
1739355062.4564908,0.3293484622290019,1.1641844484887074,0.30819087628372094,-1.2018349378822228,-1.3966317822698326,1.0626010113104267,0.10101070281264532,0.0004365278438511008,-9.945566118697738e-06,-0.0006080490387627932,0.0007809298939106179,0.0001630509918333859,0.0011796759570788956,0.000381311714775706,0.6180303692817688,-52.16214370727539,5.743208885192871,17.65296173095703,-1.2186788320541382,-1.0782577991485596,-0.013685601763427258,,,,,,,,,
1739355062.4674783,0.3293478827534824,1.1641838618954012,0.3081898032098366,-1.2018327256250894,-1.396631007167249,1.0626010115256934,0.10101029681504416,0.0004950991384030705,-0.0007049504648242384,-0.0010173058437860808,0.002061871036802529,0.001498469185658081,0.0008200006573688093,-0.0009076680788389516,0.6656377911567688,-52.16214370727539,5.767012596130371,17.62519073486328,-1.2250875234603882,-1.0782577991485596,-0.0072769103571772575,,,,,,,,,
1739355062.4784565,0.3293457114501318,1.1641803723755269,0.30818917234578147,-1.2018346906200665,-1.3966326415169217,1.0626010117948705,0.10101187621353967,6.0816876091391336e-05,-0.0010817362511589253,-0.00019864488787206,0.00024465257170778147,-0.0005670595698240974,-0.0007026095907002864,-0.00017451513467939164,0.6656377911567688,-52.11056900024414,5.767012596130371,17.65296173095703,-1.2122701406478882,-1.0782577991485596,0.0064559997990727425,,,,,,,,,
1739355062.488525,0.3293440362428142,1.164180053035529,0.3081929560729839,-1.201836235204907,-1.396631460676843,1.062600606862992,0.10100747342960498,0.00030429950169315496,-0.0016248777600916683,0.0005989912242171697,0.00022033222673625553,-0.0009332396831254929,-0.000538770193359496,-0.0021359263047850173,0.6894415020942688,-52.11056900024414,5.715437889099121,17.67676544189453,-1.2250875234603882,-1.0718491077423096,0.0064559997990727425,,,,,,,,,
1739355062.498557,0.3293437892398359,1.1641780555091825,0.3081931932547119,-1.2018364850661623,-1.3966357166776278,1.0626052498688516,0.10101274064582538,0.0005336722924822822,-0.0012803729542493248,0.0005797319057332547,0.00018946950679601075,-0.0004973358256759326,0.0005954699390617662,0.0003464023091863758,0.6894415020942688,-52.08279800415039,5.715437889099121,17.67676544189453,-1.2250875234603882,-1.0782577991485596,-0.0008682189509272575,,,,,,,,,
1739355062.5094912,0.3293474495096242,1.1641818422201078,0.3081948174870083,-1.2018386191000545,-1.3966332801739707,1.0625994960141227,0.10100866385192149,0.0014941051521306327,-0.0002197464915685826,0.0008073660445254092,-0.0005577356799426522,-0.0003360352913828518,-0.00022300917332075687,0.00011962838939319438,0.6418340802192688,-52.13437271118164,5.691634178161621,17.67676544189453,-1.2058614492416382,-1.0654404163360596,0.0064559997990727425,,,,,,,,,
1739355062.5204964,0.3293457340740357,1.1641807648205118,0.30819087628223935,-1.2018357580528132,-1.3966325486512117,1.0626002972567816,0.1010102878786516,-5.005036077466437e-06,-0.0015570507884580202,-0.0009128946973356602,-0.00033902649645670786,-0.00022251167976574366,-0.00032530360965531894,0.00093397705489178,0.6656377911567688,-52.11056900024414,5.743208885192871,17.67676544189453,-1.2122701406478882,-1.0718491077423096,-0.0072769103571772575,,,,,,,,,
1739355062.5314152,0.32934478296562286,1.1641809604692683,0.30819295610765274,-1.201838255969419,-1.3966349437955996,1.0625987397839138,0.1010142869329066,-0.0006141944464454063,-0.002205922059750245,0.000254539203591569,-0.0005069771471047886,-0.001132521657934308,-0.0003454412336973094,0.0010294179591523768,0.6656377911567688,-52.11056900024414,5.715437889099121,17.70056915283203,-1.2186788320541382,-1.0590317249298096,-0.027418512850999832,,,,,,,,,
1739355062.5414875,0.329345499791003,1.1641861495663286,0.30819295607165104,-1.2018367117150166,-1.3966332802012216,1.0626002536502988,0.10101035525072266,-0.000205443376986723,0.0009433791589194396,0.0007066781505306306,9.345895315424183e-05,0.0003569803154625202,-0.0002843444407546608,0.000606711987857481,0.6656377911567688,-52.16214370727539,5.715437889099121,17.67676544189453,-1.2058614492416382,-1.0718491077423096,0.019273381680250168,,,,,,,,,
1739355062.5515049,0.32934361108720694,1.1641905497625455,0.3081929944042981,-1.201836579264288,-1.3966332801473864,1.0625987383301176,0.10100538082367563,-0.0002831512182401181,0.00019022703354189133,0.0001430662412575797,8.959475863442435e-05,-0.00013493946261334581,-0.00023300065262957473,-0.001085266778500526,0.6656377911567688,-52.21371841430664,5.743208885192871,17.67676544189453,-1.2058614492416382,-1.0590317249298096,0.03300629183650017,,,,,,,,,
1739355062.5615103,0.3293437794739322,1.1641831373543265,0.308189093208619,-1.2018367146602504,-1.396635705762346,1.0626002536502743,0.10101167391513145,-0.0010413225424520116,-0.0009696377289207384,-0.0006793229539576509,0.00028679498079189767,-0.00032567758579987873,0.00019479728481907948,-9.764071442258199e-05,0.6894415020942688,-52.11056900024414,5.767012596130371,17.67676544189453,-1.2122701406478882,-1.0718491077423096,-0.0008682189509272575,,,,,,,,,
1739355062.5725138,0.32934181950808933,1.1641847761802364,0.30819087628179265,-1.201834690620781,-1.3966332801653552,1.0626020711638227,0.10101238108386253,-0.0012476764149813187,-0.0004309024524386309,-0.00029834020518058576,0.00016367716380336853,0.000278495667555426,-5.5496122317223555e-05,0.0010621295103522086,0.6894415020942688,-52.13437271118164,5.743208885192871,17.65296173095703,-1.2058614492416382,-1.0782577991485596,-0.0072769103571772575,,,,,,,,,
1739355062.5835044,0.32934597536035065,1.1641847758648847,0.30818917234177573,-1.2018364850701944,-1.3966321692745975,1.062600253656257,0.10101372672289974,0.00013369458868213544,-6.017798271752501e-05,-0.0004916117054797311,0.0005410196662477368,0.0010382476747482045,-0.000522631787842878,0.0005310779313558586,0.6656377911567688,-52.13437271118164,5.767012596130371,17.67676544189453,-1.2122701406478882,-1.0718491077423096,-0.013685601763427258,,,,,,,,,
1739355062.594475,0.32934361109256954,1.1641867618031791,0.3081890936052203,-1.201829049400177,-1.3966348049195996,1.0626018772075851,0.10100718625419335,0.0010116063908117202,-0.0009507158367643663,-0.0006236158691083709,0.0034420623994512074,-0.0005991846653603027,-0.00012752193582546266,-0.0017328706902587753,0.6656377911567688,-52.16214370727539,5.767012596130371,17.57758331298828,-1.2058614492416382,-1.0855820178985596,0.04673920199275017,,,,,,,,,
1739355062.6054828,0.3293457368702133,1.1641845181422812,0.30819087498571257,-1.201837188552197,-1.396634077115763,1.062603432726168,0.10100998818055823,-0.0001295021121861463,-0.000271967838281674,-0.001370681645348166,-0.00048286159871214725,-0.0018042828812899142,0.0014168258794597173,0.000963591021995496,0.6656377911567688,-52.13437271118164,5.743208885192871,17.67676544189453,-1.1994527578353882,-1.0718491077423096,-0.013685601763427258,,,,,,,,,
1739355062.616481,0.329345736954218,1.164182777910163,0.3081908762817876,-1.201838361941307,-1.3966335821256584,1.0626002536682202,0.10101105815476155,0.001210779196693302,-0.00010997058073426036,-0.0008324234790772023,-0.00031073885903748754,6.199080280572875e-05,8.235630825635e-05,0.0025816127670606984,0.6656377911567688,-52.13437271118164,5.743208885192871,17.70056915283203,-1.2122701406478882,-1.0718491077423096,-0.013685601763427258,,,,,,,,,
1739355062.6274917,0.3293457355861311,1.1641860598113776,0.30819168989746043,-1.2018346910572781,-1.396632526865903,1.0625995105256987,0.10100946455683135,0.0001462627368786059,-0.0010094329078707636,-0.0002088182937543398,0.001197352413028444,0.0002546831566159085,-0.00030230553842363554,6.80229883878845e-05,0.6656377911567688,-52.16214370727539,5.743208885192871,17.65296173095703,-1.2122701406478882,-1.0654404163360596,-0.013685601763427258,,,,,,,,,
1739355062.6375399,0.3293455007792133,1.1641868859673326,0.3081893298203684,-1.2018386547119715,-1.396626962355555,1.062599495990278,0.10100511259926502,0.0007851301713724424,0.0008695244973565437,-0.0004310125611407784,-0.0007242481961909944,0.002045320574370083,-0.0001528320088990277,-0.0026498931787353455,0.6656377911567688,-52.16214370727539,5.767012596130371,17.67676544189453,-1.2324117422103882,-1.0654404163360596,0.05314789339900017,,,,,,,,,
1739355062.6484268,0.3293456582518876,1.1641820973358,0.3081908762831283,-1.2018367382546227,-1.396631763786415,1.062599495990196,0.10100875911122865,-0.0007527482697580798,-0.0010338710782212706,-0.0010187077989489124,0.00017212128112286692,0.0015111423678645828,-0.00024097021773623737,-0.0005493716488882555,0.6656377911567688,-52.13437271118164,5.743208885192871,17.67676544189453,-1.2186788320541382,-1.0654404163360596,-0.0072769103571772575,,,,,,,,,
1739355062.659543,0.32934118896409864,1.164183140142279,0.30819473874866954,-1.201838520887476,-1.396631764827211,1.0625994964747127,0.10100987260587477,-0.00029369411963213194,1.3526121506511049e-05,-0.00027409003870854104,-0.0005763800575669373,0.0009454541177710332,-0.00028751391339660497,-0.000340836159536177,0.6894415020942688,-52.11056900024414,5.691634178161621,17.70056915283203,-1.2186788320541382,-1.0654404163360596,-0.013685601763427258,,,,,,,,,
1739355062.6704216,0.32934370649196265,1.1641831401889415,0.30819689092933544,-1.2018382559739549,-1.3966317648272286,1.062601877207586,0.10100424801667054,-0.00015691087136723844,-0.0002087858543262536,0.0014106024353468258,0.0005593092748032471,0.0004461827561450971,0.0003786180461696648,-0.0006546857584270168,0.6894415020942688,-52.11056900024414,5.691634178161621,17.70056915283203,-1.2186788320541382,-1.0855820178985596,0.03941498324275017,,,,,,,,,
1739355062.6814175,0.32934131688577867,1.1641841639448889,0.3081911134770054,-1.2018364732964375,-1.396628586558863,1.0626010113103528,0.10101029903508299,-0.0013154950735430814,0.000891098120847358,-8.150562019485473e-05,0.0005016632565636208,0.001485433812691775,-0.0001978787374782325,0.0016180204302444227,0.7172124981880188,-52.13437271118164,5.743208885192871,17.67676544189453,-1.2186788320541382,-1.0782577991485596,-0.0072769103571772575,,,,,,,,,
1739355062.6914566,0.32934573600614137,1.1641808405154332,0.3081930021848088,-1.2018382657849207,-1.3966325311547843,1.0626010113103528,0.10100502469921727,7.807988663978845e-05,-0.0012564336391649629,0.0008854674124121342,-0.0007888188688768491,-0.00034162814897785194,-0.000262744733627128,-0.0029361757251402474,0.6656377911567688,-52.11056900024414,5.743208885192871,17.70056915283203,-1.2122701406478882,-1.0782577991485596,0.03300629183650017,,,,,,,,,
1739355062.701486,0.3293398879928206,1.164179081910686,0.3081890936407782,-1.2018382559736227,-1.3966334371309588,1.0626010113103528,0.10101027772544661,-0.0011460038225327021,-0.0024442800887086746,-0.0007276278897737681,3.7707567777084242e-06,-0.00013550196772238985,0.0001339229586585856,-0.00026478683301426784,0.7172124981880188,-52.08279800415039,5.767012596130371,17.70056915283203,-1.2058614492416382,-1.0782577991485596,0.0064559997990727425,,,,,,,,,
1739355062.7114995,0.32933979463869517,1.1641825539577442,0.30819508197064804,-1.2018354718525122,-1.3966328757026754,1.062600606862984,0.10101282133111678,-0.0028848018481256983,-0.0001859906955473718,0.0010146960717255006,0.0008125595920026429,-0.0004666500667994115,0.00017375447311999932,0.0021459771510423924,0.7172124981880188,-52.13437271118164,5.715437889099121,17.62519073486328,-1.2122701406478882,-1.0718491077423096,-0.013685601763427258,,,,,,,,,
1739355062.7215164,0.3293435060707602,1.1641883335440661,0.3081908763177972,-1.2018346920850818,-1.3966320635318112,1.0625994959961775,0.10101059075269407,3.6500068730327764e-05,0.0004133876779782558,0.00017619879708239062,0.0004858317511543843,0.0010643402786107135,-0.0003835804951796339,0.0005054013933246111,0.6656377911567688,-52.18594741821289,5.743208885192871,17.65296173095703,-1.2058614492416382,-1.0654404163360596,0.012864691205322742,,,,,,,,,
1739355062.7324948,0.32934327985761325,1.1641864968756086,0.30819095501879495,-1.2018404018860318,-1.3966332801405177,1.0625998492029058,0.10100855723911505,-0.0003272761347410633,0.0009123982627875435,-0.0003562220347265064,0.0002638613539930136,-8.002194093570243e-05,-0.0007835706968029941,0.0003631284190223005,0.6894415020942688,-52.18594741821289,5.743208885192871,17.70056915283203,-1.2058614492416382,-1.0654404163360596,0.0064559997990727425,,,,,,,,,
1739355062.7434657,0.32934266494693964,1.1641848523480798,0.30819371113825594,-1.201834690667871,-1.396631748838176,1.0625994959921898,0.10101034139103902,0.0002731521063876637,0.0001565270869115429,0.0004487907031566244,0.0008592585925679954,0.000971124716089782,-0.00027374842731789584,0.0020205565080917156,0.6656377911567688,-52.13437271118164,5.743208885192871,17.65296173095703,-1.2186788320541382,-1.0654404163360596,0.019273381680250168,,,,,,,,,
1739355062.755427,0.32934083994192803,1.1641868502306094,0.30819087629779773,-1.2018400389775248,-1.3966332733640605,1.0626016606869124,0.10101256520408726,-0.0018326330076783876,0.0006979468255990806,-0.0005886751658085829,-0.0018145165571039714,-2.8752046578918672e-05,0.0009529760804955385,0.0009986994162691045,0.6894415020942688,-52.16214370727539,5.743208885192871,17.72437286376953,-1.2058614492416382,-1.0718491077423096,-0.0008682189509272575,,,,,,,,,
1739355062.7654905,0.32934186924665504,1.1641811336048458,0.3081947387486696,-1.2018386455546044,-1.3966325617869606,1.0626002536582169,0.10101031662840773,-0.0009805212296272478,-0.0015054236381602444,0.00020514684407510795,-0.0008859902794249808,0.00044196745064241155,-0.00085964180586797,0.0002740435641543044,0.6894415020942688,-52.08279800415039,5.691634178161621,17.67676544189453,-1.2122701406478882,-1.0718491077423096,0.0064559997990727425,,,,,,,,,
1739355062.7755442,0.3293425570157924,1.1641847475085285,0.30819087638980175,-1.2018382560102439,-1.396632535569925,1.0626002536502743,0.10101058766281798,-0.0006145267537958367,-9.356716712882371e-06,-0.0010445029196808142,-0.0007548471130547643,0.000187023595666382,-0.0005258160180787317,0.0009387043393631472,0.6656377911567688,-52.16214370727539,5.743208885192871,17.70056915283203,-1.2122701406478882,-1.0718491077423096,0.012864691205322742,,,,,,,,,
1739355062.7864668,0.3293456222329838,1.1641820948042414,0.308190885030351,-1.2018386003558488,-1.396627879487495,1.0626011682937793,0.10100593452453935,0.0009892141770906407,-0.0005336834552239042,-0.000515996339379329,-0.0003222118266653806,0.0017224689877788928,0.000408591471019854,-0.0011377427232199433,0.6656377911567688,-52.13437271118164,5.743208885192871,17.70056915283203,-1.2186788320541382,-1.0782577991485596,0.026597600430250168,,,,,,,,,
1739355062.7965233,0.3293453948225496,1.164184852243053,0.3081947300002621,-1.2018346906252506,-1.3966332938095614,1.062601011313011,0.10101114297519596,0.0008694034170494292,0.0007127380435536397,0.0007115773978502054,0.000890570095663596,-0.0005949170224521159,-0.00022806464392380676,-0.0003569301565651853,0.6656377911567688,-52.13437271118164,5.691634178161621,17.65296173095703,-1.2058614492416382,-1.0782577991485596,-0.0008682189509272575,,,,,,,,,
1739355062.8074808,0.3293442648907937,1.1641848527096703,0.30819084128752333,-1.2018346906194186,-1.3966325224873841,1.0626018772075851,0.10100481576529877,0.0008843215119473894,-1.4655876042533696e-05,-0.0006796315259931162,0.0014112551415893836,-0.0006401847353408503,0.00019366458012325647,-0.0016495505406758449,0.6418340802192688,-52.13437271118164,5.743208885192871,17.65296173095703,-1.2122701406478882,-1.0855820178985596,0.026597600430250168,,,,,,,,,
1739355062.8184288,0.32934561996481354,1.1641868383680263,0.3081909024192571,-1.2018336123825044,-1.3966332801473855,1.062601894650188,0.10100668329557617,0.0008918337292666035,0.0007019383845964984,-1.966716903232515e-05,0.001545132168251951,-0.0002018042432071818,0.0005303753320007494,0.0006949527378871364,0.6656377911567688,-52.16214370727539,5.743208885192871,17.67676544189453,-1.2058614492416382,-1.0855820178985596,0.04673920199275017,,,,,,,,,
1739355062.82843,0.32934548814043696,1.1641905601670948,0.3081907976532445,-1.2018382559250067,-1.3966317648272288,1.0626018772078805,0.10101448275696036,0.00021143335894383976,0.00021536981649277864,-0.0006303237956324767,-5.026858655900624e-05,0.0008541343035269134,0.0005037490559055993,0.002770721065115859,0.6656377911567688,-52.21371841430664,5.743208885192871,17.70056915283203,-1.2186788320541382,-1.0855820178985596,-0.020094294100999832,,,,,,,,,
1739355062.8385394,0.3293397829975278,1.164184852709625,0.30819095501480004,-1.201836508617706,-1.3966328763086502,1.0626018815682357,0.10101341615129966,-0.0011156386444394128,-0.00022863411119638459,0.0006683064338957169,0.00012571316469203917,-0.0003085516765056772,-0.00013189039907275267,0.002108754171217276,0.7172124981880188,-52.13437271118164,5.743208885192871,17.67676544189453,-1.2186788320541382,-1.0855820178985596,-0.020094294100999832,,,,,,,,,
1739355062.8494883,0.32934573697399855,1.1641860801238393,0.30818730736367855,-1.201836836386697,-1.3966325224355634,1.0626010113103608,0.10101265851515939,0.001161069327734871,-0.00022107596258098903,-0.0016815818317016333,0.0005417442355343359,-0.00025713027382537004,0.00023433432097403755,0.001536734964583838,0.6656377911567688,-52.13437271118164,5.790816307067871,17.65296173095703,-1.2122701406478882,-1.0782577991485596,-0.013685601763427258,,,,,,,,,
1739355062.8594975,0.3293429707545774,1.1641864710729484,0.30819300574495784,-1.2018364733327762,-1.3966340437831695,1.0626002536502743,0.10100485507587376,-0.0005746945920783992,0.0014952303328917287,0.000693589683393241,0.0010972414067545776,-0.0003359429710734045,-0.0009643126809823243,0.0006350361341558427,0.6894415020942688,-52.18594741821289,5.743208885192871,17.67676544189453,-1.1994527578353882,-1.0718491077423096,0.026597600430250168,,,,,,,,,
1739355062.8695273,0.3293409145021597,1.164184852674243,0.30818909364083846,-1.2018346910554842,-1.3966333978850565,1.0626010171245537,0.10100612459149769,-0.00047741969871201525,0.00010358511646720923,-0.0015301532968319152,0.0005200611921472208,0.0005097777726272736,0.0004997543054793502,-0.0002026522379737193,0.6894415020942688,-52.13437271118164,5.767012596130371,17.65296173095703,-1.2058614492416382,-1.0782577991485596,0.026597600430250168,,,,,,,,,
1739355062.8805356,0.3293466831127144,1.1641868506505257,0.3081950907192032,-1.2018346994497386,-1.3966333193400715,1.0626018641256656,0.10101582199446196,0.0007598463420981801,5.1748146050324564e-05,0.0014076110124271767,0.000543049045088239,0.0002606794598506817,0.0009043506341490063,0.0023243539531596163,0.6180303692817688,-52.16214370727539,5.715437889099121,17.65296173095703,-1.2058614492416382,-1.0855820178985596,-0.027418512850999832,,,,,,,,,
1739355062.8914835,0.32934497221564835,1.1641848556531122,0.3081930017608146,-1.2018368373678268,-1.39663176482745,1.0626006068629101,0.10101159792346255,0.0010549338733732215,0.0008749401490772842,0.0005754407765752818,0.0006942547982238105,0.00025659991500058456,-4.004173006366555e-06,0.0009973490849045671,0.6418340802192688,-52.13437271118164,5.743208885192871,17.65296173095703,-1.2186788320541382,-1.0718491077423096,-0.027418512850999832,,,,,,,,,
1739355062.902414,0.3293418778911803,1.16418528595617,0.3081893298277739,-1.2018326141121694,-1.396632522971824,1.0625994959921898,0.1010091099097681,-0.000698389915450952,2.737704891298757e-05,-0.0011606381841214439,0.0015280507067178917,0.00023694577042770437,5.5570438271827424e-06,0.0006390281426050732,0.6656377911567688,-52.11056900024414,5.767012596130371,17.62519073486328,-1.2122701406478882,-1.0654404163360596,-0.0072769103571772575,,,,,,,,,
1739355062.9134457,0.3293425481303747,1.1641867733216529,0.30818917266979673,-1.2018367921690782,-1.3966332796628769,1.0625987383301176,0.1010048155374656,-0.0007832342100929495,-0.0004159998766275772,-0.0008183132207085481,-0.0003415691918247446,0.0010057280902762307,-0.0005423702345168347,-0.0019838343773807446,0.6656377911567688,-52.16214370727539,5.767012596130371,17.67676544189453,-1.2058614492416382,-1.0590317249298096,0.026597600430250168,,,,,,,,,
1739355062.9245286,0.32934540902739484,1.1641840952760172,0.30819371081423724,-1.2018328757408954,-1.3966310073286534,1.0626002551038245,0.10100647857956747,-0.000234090026850019,-0.0007924130182931364,0.0003141554143038266,0.0008335472289343429,0.00032570112714603504,-0.0001237276701520732,-0.0013985757456902435,0.6656377911567688,-52.16214370727539,5.743208885192871,17.62519073486328,-1.2250875234603882,-1.0718491077423096,0.012864691205322742,,,,,,,,,
1739355062.935486,0.32934256083068,1.1641868506349717,0.30818909362077684,-1.2018382560112908,-1.3966332954156386,1.0626010113103608,0.10101271098431706,0.0005294907142253673,0.0001453247974351309,-0.001319312053060373,-0.0001701721542416075,-0.0013857868063259736,8.584183320562179e-05,-0.00010472057188162364,0.6656377911567688,-52.16214370727539,5.767012596130371,17.70056915283203,-1.2186788320541382,-1.0782577991485596,-0.013685601763427258,,,,,,,,,
1739355062.9455655,0.3293429877657295,1.1641838469414099,0.3081965409511115,-1.201838573973912,-1.3966325636798709,1.0626026348676634,0.10101025671565121,-0.0010060288600961596,-0.0007241982318023665,0.0008934021335348592,-0.0009937299343322425,-0.0011380611146474561,-0.00025652924945602216,0.0007118156362076773,0.6894415020942688,-52.11056900024414,5.691634178161621,17.70056915283203,-1.2122701406478882,-1.0919907093048096,-0.020094294100999832,,,,,,,,,
1739355062.9565265,0.32934108350888364,1.1641831406289964,0.30819015891041385,-1.2018347995284657,-1.3966328245194257,1.0626002667322263,0.10101109626732335,-0.0004466239752715922,-0.0003158608974525648,-0.0009535427153107831,-1.2954044940437519e-05,-5.1368102711667175e-06,9.680624023945833e-05,-0.00035289933132674344,0.6894415020942688,-52.11056900024414,5.743208885192871,17.65296173095703,-1.2186788320541382,-1.0718491077423096,-0.027418512850999832,,,,,,,,,
1739355062.9674442,0.32934096358333614,1.1641830381497218,0.3081909900008682,-1.2018364737343468,-1.39663402538948,1.0626013132886252,0.10100961891922484,-0.001317277453140733,-0.001143369997995238,0.0008230878540546663,1.8545444138345804e-05,-0.00048331644203308675,-0.00018844098241310568,-0.0009825439373721372,0.7172124981880188,-52.11056900024414,5.743208885192871,17.67676544189453,-1.1994527578353882,-1.0718491077423096,-0.013685601763427258,,,,,,,,,
1739355062.978425,0.3293388493488822,1.1641885632195168,0.30819087660602945,-1.201834690946468,-1.3966317648272053,1.0626010114738522,0.10100957950038662,-0.0005760240801519291,0.001231691068997669,-0.00022781587826134145,0.0001033940652070602,2.5642405011276425e-05,-0.00034517392137090324,0.0008285875229501529,0.7172124981880188,-52.18594741821289,5.743208885192871,17.65296173095703,-1.2186788320541382,-1.0782577991485596,-0.013685601763427258,,,,,,,,,
1739355062.9885266,0.3293428630899226,1.1641848527096739,0.3081891989114684,-1.2018364732964428,-1.3966317473846257,1.062601011794872,0.10100393956159404,-1.522811607824299e-06,6.914756038490144e-05,-0.0005355936432880124,0.00036702202687363005,0.002324273483359664,-0.0002895335426520763,-0.0028687240278096374,0.6656377911567688,-52.13437271118164,5.767012596130371,17.67676544189453,-1.2186788320541382,-1.0782577991485596,0.03300629183650017,,,,,,,,,
1739355062.999513,0.32934083562277217,1.1641867741211054,0.30819306105491145,-1.2018382559734566,-1.396632535569161,1.0625994959901988,0.10100469754467092,-0.0005939216798588176,0.0004624959614691343,6.702440277145058e-05,-8.460623591043337e-05,-0.00012247373219574452,-0.0004201720059382372,-0.00033851692314592203,0.6894415020942688,-52.16214370727539,5.715437889099121,17.70056915283203,-1.2122701406478882,-1.0654404163360596,0.026597600430250168,,,,,,,,,
1739355063.0095549,0.3293426268787254,1.1641868006107625,0.3081908720713053,-1.2018347700922782,-1.3966325617333852,1.062601011148847,0.10101250521792403,-0.0010037161174833017,0.0007540796197949361,0.00021297363496591333,0.00016828050296428972,5.955607732230448e-05,0.0003782713489705107,0.0023612631469157627,0.6656377911567688,-52.16214370727539,5.743208885192871,17.65296173095703,-1.2122701406478882,-1.0782577991485596,-0.027418512850999832,,,,,,,,,
1739355063.0204515,0.32934167523677366,1.1641858822950695,0.308187310927733,-1.2018361102066932,-1.3966357033399837,1.062601877207584,0.10100946583790597,-0.0013691918364049681,1.9898100937691004e-05,-0.0008673003110322721,3.38685677276295e-05,-0.0008869286157237157,0.0003899019249136133,0.00036883618101563303,0.7172124981880188,-52.16214370727539,5.790816307067871,17.70056915283203,-1.2122701406478882,-1.0855820178985596,-0.013685601763427258,,,,,,,,,
1739355063.0304935,0.32934083566904854,1.1641863096957017,0.3081890936047758,-1.201835417612574,-1.3966345089731171,1.0626010113103526,0.10100870183182221,-0.001238376835994638,0.0007160882976450637,-0.00031136435949933455,0.0005500771006529116,-0.0005668736887584317,-0.00013034262774624198,-0.0003190766994006302,0.6894415020942688,-52.13437271118164,5.767012596130371,17.65296173095703,-1.1994527578353882,-1.0782577991485596,-0.0072769103571772575,,,,,,,,,
1739355063.041445,0.32934426066245687,1.1641811422563133,0.3081915936633494,-1.2018384943961395,-1.396631921813315,1.062601313934426,0.10100318179114,-0.0006870252510136103,-0.0006393008211590079,-0.0004148493924988102,-0.0009518371279392663,0.0004175552209132269,0.00034638009807329685,-0.002062771511078026,0.6418340802192688,-52.08279800415039,5.743208885192871,17.70056915283203,-1.2186788320541382,-1.0718491077423096,0.03941498324275017,,,,,,,,,
1739355063.0524447,0.3293408356209943,1.164183143132381,0.3081908795260503,-1.2018349291846986,-1.3966318176404404,1.062601011316338,0.10100632083101262,-0.0013679101125669744,-0.000692875489035325,-0.0007358766005499885,0.0008212066220985783,-3.5467313594638665e-05,-0.00010838320594634683,-0.0007903029054946953,0.6894415020942688,-52.11056900024414,5.743208885192871,17.65296173095703,-1.2186788320541382,-1.0782577991485596,0.012864691205322742,,,,,,,,,
1739355063.062478,0.32934429565667883,1.1641868506505757,0.3081911154090347,-1.2018364733004776,-1.3966332806327966,1.0626018772075851,0.10100632061432933,-0.00023952528264781746,0.0010461688760612627,0.00017475565907090686,-0.0009788058060627236,-0.0003111949652399981,0.0003562670069199701,0.0008670613199948298,0.6418340802192688,-52.16214370727539,5.743208885192871,17.67676544189453,-1.2058614492416382,-1.0855820178985596,0.012864691205322742,,,,,,,,,
1739355063.0734906,0.32934426066265415,1.1641831401889418,0.3081929560730003,-1.2018365527692971,-1.396636003379749,1.0626002536502743,0.10100707827440401,0.0004336556227633528,-0.0007106905841533361,0.0005275416486857277,0.000405367644050348,-0.0011655689314547034,-0.000622154049793835,0.0012653808997467905,0.6418340802192688,-52.11056900024414,5.715437889099121,17.67676544189453,-1.2186788320541382,-1.0718491077423096,0.0064559997990727425,,,,,,,,,
1739355063.0835316,0.3293442869081233,1.1641848792006262,0.3081890945768376,-1.2018411169977516,-1.3966340385252665,1.0626018772075851,0.10100796172325562,0.0001287062642410692,0.0007609141379449482,-0.00017825728721069693,-0.0013437759643407955,-0.0015727492294554503,-0.0001854264711227365,0.0001783932966576714,0.6418340802192688,-52.13437271118164,5.767012596130371,17.70056915283203,-1.1994527578353882,-1.0855820178985596,-0.0008682189509272575,,,,,,,,,
1739355063.0944219,0.3293425607786761,1.1641831401890912,0.3081903533967796,-1.2018364736396367,-1.3966316475741796,1.0626002593029695,0.10101108304931301,-0.0003475968355207696,0.00023768675737181335,-0.0013464734421187467,4.707095681342815e-05,0.0012757708984318782,-5.027367736735398e-05,0.000451733870238738,0.6656377911567688,-52.11056900024414,5.767012596130371,17.67676544189453,-1.2186788320541382,-1.0718491077423096,-0.027418512850999832,,,,,,,,,
1739355063.1044981,0.3293456577674042,1.164187024967838,0.30819083019398813,-1.2018364732964433,-1.3966316165511685,1.0626018772076806,0.10100470242087684,0.0025059727511463964,0.0006913388459186555,-0.0005893629111431201,-7.137937903391059e-05,0.0009154837864616993,0.0006371670804797526,-0.0008988583442687485,0.6656377911567688,-52.13437271118164,5.715437889099121,17.67676544189453,-1.1930440664291382,-1.0855820178985596,0.026597600430250168,,,,,,,,,
1739355063.1154451,0.3293446782705438,1.1641868479373816,0.3081873122118384,-1.201833604490336,-1.3966332802909458,1.0626002536502743,0.10100794417166667,8.886969985279068e-05,-0.000535039429133098,-0.00166734484325501,-0.0009705873843103337,0.00047976665480895024,-0.00022934107609212808,-5.704322998810322e-05,0.6656377911567688,-52.16214370727539,5.790816307067871,17.65296173095703,-1.2058614492416382,-1.0718491077423096,-0.0008682189509272575,,,,,,,,,
1739355063.1254594,0.3293418482933559,1.1641848285080154,0.30819087628181663,-1.201834726031312,-1.396636761039827,1.0626010113103528,0.10100946387969788,-0.0006721445457537937,-0.00010081419324921752,-0.00030452062839611175,0.0005419643815479176,0.00013821340370817994,-0.00022405498749331567,9.211830023939587e-05,0.6656377911567688,-52.13437271118164,5.743208885192871,17.65296173095703,-1.2122701406478882,-1.0782577991485596,-0.013685601763427258,,,,,,,,,
1739355063.135482,0.3293449802283145,1.164184852709263,0.3081929560716505,-1.2018364834355502,-1.3966364610716206,1.0626010243923047,0.1010025565217589,8.304581788014646e-05,0.0006401410129849741,0.0008098621635477081,-0.0007278900826985149,-0.0007699654127656292,-0.0005770369025421499,-0.0014502838781140543,0.6656377911567688,-52.13437271118164,5.715437889099121,17.67676544189453,-1.2058614492416382,-1.0782577991485596,0.026597600430250168,,,,,,,,,
1739355063.145551,0.32934255109909827,1.164184852709673,0.3081894590157969,-1.2018350173413468,-1.3966312053225673,1.0626002425066106,0.10101031651190005,-0.00028459513414786947,-0.000836708247728307,-0.0011146074896529494,0.00015936420716439092,-0.0007916334814082497,-0.0007204548640771706,0.000928720946168993,0.6656377911567688,-52.13437271118164,5.743208885192871,17.65296173095703,-1.2324117422103882,-1.0718491077423096,0.0064559997990727425,,,,,,,,,
1739355063.1564584,0.32934254814174213,1.1641885631712572,0.3081950848788321,-1.2018347003963883,-1.3966285859188474,1.0626018786610723,0.10100401400098316,-0.00016843951992502704,0.0002823563345552408,0.0012659545997455097,-5.500896059597207e-06,-0.0006992364882380231,-0.0001500044931304356,-0.0017904386351073587,0.6656377911567688,-52.18594741821289,5.715437889099121,17.65296173095703,-1.2186788320541382,-1.0855820178985596,0.05955658480525017,,,,,,,,,
1739355063.1665194,0.32934467447274984,1.1641867486112987,0.30819086756929087,-1.2018364762400422,-1.3966338822237523,1.0626002536502988,0.10100830110898114,0.00017229589355387964,0.0004273425232219425,-9.14304660272418e-05,6.267896286212026e-05,0.00032297272929421555,-0.00031991956935311283,-0.0001746533437286753,0.6656377911567688,-52.16214370727539,5.743208885192871,17.67676544189453,-1.1994527578353882,-1.0718491077423096,-0.0008682189509272575,,,,,,,,,
1739355063.177599,0.3293426268907286,1.164184852709097,0.30819087628174574,-1.201836836386647,-1.396632404748859,1.0626010636381615,0.10100482013716114,0.0005883144933473715,0.00018880433594268073,-0.00039259414703857626,0.0006299206860025018,0.0006300095396222091,0.0006775822545562801,-0.0020605404966024875,0.6656377911567688,-52.13437271118164,5.743208885192871,17.65296173095703,-1.2122701406478882,-1.0782577991485596,0.026597600430250168,,,,,,,,,
1739355063.188436,0.32934278435316966,1.1641914246302714,0.3081890936047758,-1.2018367120905171,-1.3966317827536838,1.0625994959904914,0.10101536580751352,0.0002995651711029323,0.001323145976544212,-0.0013014317221021437,0.00018207750873599409,0.00038913958501591477,0.0008979320808459967,0.0023957377065207414,0.6656377911567688,-52.18594741821289,5.767012596130371,17.67676544189453,-1.2186788320541382,-1.0654404163360596,-0.027418512850999832,,,,,,,,,
1739355063.19849,0.3293459731951886,1.164188333728373,0.3081890936047758,-1.2018349950274858,-1.3966310071680612,1.0626002536502743,0.1010102173695682,0.000724099149938132,0.0005468848656887198,-0.000280327249684805,0.0011801474675622822,0.0005958665514675244,0.00041962868208130026,0.00041377165393071996,0.6180303692817688,-52.18594741821289,5.767012596130371,17.62519073486328,-1.2250875234603882,-1.0718491077423096,-0.020094294100999832,,,,,,,,,
1739355063.2085147,0.32934254814172553,1.164184852393442,0.30819087628179487,-1.2018365807272595,-1.3966325224873073,1.062599495990196,0.10100632061432689,-0.000105032030876082,-0.0005275545461795672,-5.039971754894274e-05,0.00022008361551699218,0.0001684672249975944,-0.0001455782109884485,-0.0005290658952382849,0.6656377911567688,-52.13437271118164,5.743208885192871,17.67676544189453,-1.2122701406478882,-1.0654404163360596,0.012864691205322742,,,,,,,,,
1739355063.2185447,0.32934426077046347,1.1641877137326169,0.30819087628179487,-1.2018365910358269,-1.3966340785068707,1.0626018773690906,0.10100832307646201,6.844526198193044e-05,0.001529480823138724,-0.00015144547422411687,-0.00024080863206036077,-0.0008790910227402607,0.00047205615234827136,0.0007917159842478807,0.6418340802192688,-52.13437271118164,5.743208885192871,17.67676544189453,-1.1994527578353882,-1.0855820178985596,0.03300629183650017,,,,,,,,,
1739355063.2295132,0.32934520554245816,1.1641868506666764,0.3081939009516514,-1.2018335684291297,-1.3966332801476151,1.0626010113103537,0.10100874199766395,8.986336357475296e-05,0.00045623623071268507,0.0006969803727043388,0.0013581460733934321,-0.00023085754298292368,-0.00011738463896096025,0.0009008693949337696,0.6418340802192688,-52.16214370727539,5.715437889099121,17.62519073486328,-1.2058614492416382,-1.0782577991485596,-0.0072769103571772575,,,,,,,,,
1739355063.2404432,0.32934427071242833,1.1641801449830949,0.30818841122277735,-1.201834690661163,-1.3966314628491778,1.0626018772075851,0.10101021736889493,0.000967148261428654,-0.001978878834451439,-0.0015752550135663432,0.0006109581864628337,0.0007689796896472853,0.0001346808459818391,0.0008611216716793041,0.6418340802192688,-52.05899429321289,5.767012596130371,17.65296173095703,-1.2122701406478882,-1.0855820178985596,-0.020094294100999832,,,,,,,,,
1739355063.250445,0.32934597318335807,1.164184852721786,0.30818697061040784,-1.2018371885521755,-1.396634024869072,1.0626010243923047,0.10101128341285286,0.0002997135959957485,0.0002079944517543636,-0.0014289717583426326,-0.0005424075990520696,-0.0004536627655892546,-0.0002479881443104754,0.001485955410328944,0.6180303692817688,-52.13437271118164,5.767012596130371,17.67676544189453,-1.1994527578353882,-1.0782577991485596,-0.020094294100999832,,,,,,,,,
1739355063.2605085,0.3293408455576253,1.1641831666798952,0.30819295603569735,-1.2018382824765226,-1.396631188972879,1.0626018772078065,0.1010094726735647,-0.0008268152229335146,-0.00039094430270136685,0.0005879515445599137,-0.0011514971524487277,-0.0004475103210676708,0.0006604829422708851,0.0025012467692369696,0.6894415020942688,-52.11056900024414,5.715437889099121,17.70056915283203,-1.2058614492416382,-1.0855820178985596,-0.013685601763427258,,,,,,,,,
1739355063.2705293,0.32933715140524494,1.1641869983723547,0.30819087628179426,-1.2018375064440623,-1.3966293478981557,1.0626010113103528,0.1010063206145489,-0.001194255028451568,0.00029379461963959197,-0.0006721233092098573,-0.0003089989290439321,0.0009630576266145141,0.000346635312282377,-0.0007137600049753216,0.7410162091255188,-52.13437271118164,5.743208885192871,17.67676544189453,-1.2122701406478882,-1.0782577991485596,0.012864691205322742,,,,,,,,,
1739355063.2814682,0.3293442606266025,1.164183140201054,0.3081908767498246,-1.2018386220129207,-1.3966325349053164,1.0626010113103528,0.10100976744353182,0.0006709664585610527,-0.0006724029216725705,-0.0001252122041614138,-1.663385109767796e-05,0.00019622669858235082,-0.00026000870742312544,0.0015041363981690985,0.6418340802192688,-52.11056900024414,5.743208885192871,17.67676544189453,-1.2122701406478882,-1.0782577991485596,-0.0072769103571772575,,,,,,,,,
1739355063.292497,0.32934112990366554,1.164186850650526,0.3081930357807147,-1.2018326111687412,-1.396634339785585,1.062601011095012,0.10100469755068542,3.5523420704250224e-05,-0.0004892621011303032,0.001359193111095036,0.0016749135323960932,-0.0007926720225761819,-0.0002143390003457596,-0.0007869837432533588,0.6656377911567688,-52.16214370727539,5.715437889099121,17.62519073486328,-1.2058614492416382,-1.0782577991485596,0.026597600430250168,,,,,,,,,
1739355063.3034823,0.3293425490697789,1.1641897117824913,0.3081890148682259,-1.2018382559734584,-1.3966332816069174,1.0626010113103515,0.10100633816594766,0.001750645921939675,0.0014319884755876785,-0.0012732807902240144,0.00045879704632744236,-0.000512406934004448,0.0001308835985496938,-0.0005219392550988902,0.6656377911567688,-52.16214370727539,5.767012596130371,17.70056915283203,-1.2058614492416382,-1.0782577991485596,0.012864691205322742,,,,,,,,,
1739355063.3144794,0.32934254842974897,1.1641868634215804,0.30818875041835575,-1.2018346906557573,-1.3966325224873153,1.0626026348676632,0.10100794417173548,3.252162237904287e-05,0.0010664539016483853,0.0005732409535019945,0.0002792766357245912,-7.149335640231039e-05,0.00038359484548334833,-0.00014564106695254405,0.6656377911567688,-52.16214370727539,5.743208885192871,17.65296173095703,-1.2122701406478882,-1.0919907093048096,-0.0008682189509272575,,,,,,,,,
1739355063.3245018,0.32934428690812817,1.1641802238952594,0.30818917230577403,-1.201842184417688,-1.3966364590617735,1.062600253650274,0.10101021715198154,0.0009486277337103879,-0.0019124676934196999,-0.0012994193764706017,-0.0025274157014053824,-0.0018972914473324998,8.942358211333432e-05,0.0006565948172088821,0.6418340802192688,-52.08279800415039,5.767012596130371,17.72437286376953,-1.2058614492416382,-1.0718491077423096,-0.020094294100999832,,,,,,,,,
1739355063.3356092,0.3293397136098776,1.164184852813505,0.3081911912302387,-1.201836473344889,-1.3966332932472827,1.062601877207585,0.10100318173696834,0.00035171268967129345,0.0006839476358938776,0.000911951073079011,0.00023142926022827365,-0.0002922051833410828,7.348281299051203e-05,-0.001283806892845513,0.6656377911567688,-52.13437271118164,5.743208885192871,17.67676544189453,-1.2058614492416382,-1.0855820178985596,0.03941498324275017,,,,,,,,,
1739355063.3464773,0.3293425481617267,1.1641885632075966,0.30819508197242534,-1.2018364732964377,-1.3966299842865655,1.0626010113103526,0.10100469851975996,-0.00015373469822354787,0.001846379464994665,0.0009086240290578424,0.0006570268452037974,0.00202179251271375,-0.0004247993577480074,-0.0015133886268683346,0.6656377911567688,-52.18594741821289,5.715437889099121,17.67676544189453,-1.2324117422103882,-1.0782577991485596,0.026597600430250168,,,,,,,,,
1739355063.3564856,0.3293459731831882,1.1641832471339018,0.30818730804757394,-1.2018383707675873,-1.3966334371281535,1.0626010113103526,0.10100930177253147,0.0009803584831785395,-0.0002224020583042886,-0.0018658244552238322,-0.0010147163174020625,-0.00018999345438579186,-0.00011210169236404034,-0.001087927098852525,0.6180303692817688,-52.11056900024414,5.790816307067871,17.70056915283203,-1.2058614492416382,-1.0782577991485596,-0.013685601763427258,,,,,,,,,
1739355063.36751,0.32934426098647723,1.1641866210628682,0.30818909360475955,-1.2018364732970854,-1.3966325224881933,1.0625970747358862,0.10100556295346709,0.0006550749241434784,0.0002223963790165147,-0.0006699832838201307,0.0011416620241257488,-0.0004592457335159105,-0.0008698127677568241,-0.0013891083782384696,0.6418340802192688,-52.16214370727539,5.767012596130371,17.67676544189453,-1.2122701406478882,-1.0718491077423096,0.019273381680250168,,,,,,,,,
1739355063.3785062,0.32934254814172725,1.164183140082667,0.308193710705784,-1.2018347171103718,-1.3966333993385056,1.0625994964029324,0.10100517111335897,-0.0004636500232929173,0.0002886522148222816,0.00024619645168707285,0.0006420105026636323,-0.0007307544201786148,-0.0003852714609402319,0.00025957884678512466,0.6656377911567688,-52.11056900024414,5.743208885192871,17.65296173095703,-1.2058614492416382,-1.0654404163360596,0.026597600430250168,,,,,,,,,
1739355063.3894083,0.32934254846574607,1.164183144078534,0.3081890939447968,-1.2018365566940323,-1.3966326249572976,1.0626002667322287,0.1010071967505098,-0.0004698916930881129,-0.001479256303970256,-0.0014163994849295577,0.0005015541645291122,0.001021517617480205,0.00020184464821071353,0.0008812184478284345,0.6656377911567688,-52.11056900024414,5.767012596130371,17.67676544189453,-1.1994527578353882,-1.0718491077423096,0.0064559997990727425,,,,,,,,,
1739355063.3994153,0.32934426077046897,1.1641848566343245,0.3081890936047816,-1.2018346906208308,-1.396631764803302,1.0626010636383831,0.10100318173897474,-4.1879082056128585e-05,-0.0004481784408369577,-0.00011222375432465864,0.0013093454267590465,0.001591594580990246,0.00016185673534498745,-0.002867489647098701,0.6418340802192688,-52.13437271118164,5.767012596130371,17.65296173095703,-1.2186788320541382,-1.0782577991485596,0.03941498324275017,,,,,,,,,
1739355063.4095035,0.3293442606624584,1.16418478435624,0.3081890897165289,-1.2018364732964375,-1.3966316470896585,1.062601877208471,0.1010061192258269,0.0007545504259152287,0.0011511196162937584,-0.0015502131081071866,0.00036255520780841086,0.0005870564418133588,0.00023304111750505746,-0.0018659074973031218,0.6418340802192688,-52.16214370727539,5.767012596130371,17.67676544189453,-1.2186788320541382,-1.0855820178985596,0.026597600430250168,,,,,,,,,
1739355063.4204805,0.3293425773035773,1.1641838300322243,0.30819087628177294,-1.2018346906194186,-1.3966332801467207,1.0626018772075851,0.1010079310363907,-0.00010732665001868258,-0.00033115557815127194,-0.000411668464207926,-0.0006708733679196613,-5.399326507163132e-05,-6.113410713132648e-05,0.0002772167886332432,0.6656377911567688,-52.11056900024414,5.743208885192871,17.65296173095703,-1.2058614492416382,-1.0855820178985596,-0.0008682189509272575,,,,,,,,,
1739355063.4314675,0.329343255479136,1.1641841639565713,0.3081929560716504,-1.2018346907284347,-1.3966357014016952,1.0626018772075851,0.10100560244527822,-9.510624800770193e-05,-0.001062850467975681,0.0009147482013793007,5.261370501121029e-05,-0.0013527691962779958,0.00032860476867051626,-0.0008601793332534955,0.6656377911567688,-52.13437271118164,5.715437889099121,17.65296173095703,-1.2122701406478882,-1.0855820178985596,0.019273381680250168,,,,,,,,,
1739355063.4414685,0.3293425481457184,1.1641885631673692,0.3081912195037728,-1.201834765427093,-1.3966317648451738,1.0626002551038245,0.10100468456413406,0.000519945958280172,0.0016315877785645686,-0.0007421132632796925,0.0009577509403804812,0.00024902504189590205,-0.00039700745831961203,-0.0006912386397977472,0.6656377911567688,-52.18594741821289,5.767012596130371,17.62519073486328,-1.2186788320541382,-1.0718491077423096,0.026597600430250168,,,,,,,,,
1739355063.4515011,0.32933883768014127,1.1641868594808435,0.3081936676568369,-1.2018364733329256,-1.3966343924737241,1.0625994959902205,0.10100318173675676,-0.0013219995998216875,0.0002054912970732304,0.00038256621541911433,0.00015864507767244965,-0.0006484499897446723,-0.00034027154500076805,-0.0017233707877822458,0.7172124981880188,-52.16214370727539,5.715437889099121,17.67676544189453,-1.1994527578353882,-1.0654404163360596,0.03941498324275017,,,,,,,,,
1739355063.4624753,0.32934601141761577,1.1641868861172018,0.30818909393281335,-1.2018372680250347,-1.396632890092462,1.0625997456404381,0.10100945949179307,0.0006863334792615368,0.0006788634825004435,-0.0009761112870277577,-0.00013502454575108812,-0.00010805498918393231,-0.0005460457763993259,0.00045987071480082565,0.6180303692817688,-52.16214370727539,5.767012596130371,17.67676544189453,-1.2186788320541382,-1.0590317249298096,-0.013685601763427258,,,,,,,,,
1739355063.4724817,0.32934426033908354,1.1641868506511266,0.3081891373475591,-1.2018367120555242,-1.3966332801664418,1.0626002536673331,0.10100668042251969,0.0007897824769981146,0.0011983129027978026,-0.0009361670758612548,-0.0004997275935426515,-1.2520107668541856e-05,0.00015908437318418878,-0.00027818025725555816,0.6418340802192688,-52.16214370727539,5.767012596130371,17.67676544189453,-1.2058614492416382,-1.0718491077423096,0.012864691205322742,,,,,,,,,
1739355063.4834385,0.3293388376801394,1.1641806344863501,0.3081908646173011,-1.2018364732977853,-1.3966378723971296,1.0626017594700152,0.10101037658122057,-0.0009976242477700047,-0.0006325861300926724,-5.4553637531825947e-05,0.00013290316512440032,-0.0012918593489814202,-3.72230193573143e-05,0.0008762550197372727,0.7172124981880188,-52.11056900024414,5.743208885192871,17.67676544189453,-1.2058614492416382,-1.0855820178985596,-0.020094294100999832,,,,,,,,,
1739355063.493444,0.3293425481417255,1.1641868506080915,0.3081929560714529,-1.2018382559734566,-1.3966371143303045,1.0625994959882021,0.10100900159443882,-0.00028452418885016,0.0008985039718032331,0.0006617825313295967,0.00035702783617525924,-0.0011071147026190423,-8.891578816050394e-05,4.057176618409131e-05,0.6656377911567688,-52.16214370727539,5.715437889099121,17.70056915283203,-1.2122701406478882,-1.0654404163360596,0.026597600430250168,,,,,,,,,
1739355063.5035577,0.3293425481417255,1.164185567965408,0.3081890586105537,-1.201838971229194,-1.3966343400188046,1.0625978323959646,0.10100365584938044,0.00015225215443152575,0.00040925959918442276,-0.00121963661218455,-0.0009228364790848509,-0.0009798281762728133,-0.0008474227995496546,-0.0009212747511336511,0.6656377911567688,-52.13437271118164,5.767012596130371,17.70056915283203,-1.2058614492416382,-1.0782577991485596,0.03941498324275017,,,,,,,,,
1739355063.5144765,0.32934426066245664,1.1641831405173364,0.30819083017258764,-1.201835710272437,-1.3966310130910162,1.0626018771836583,0.10100945949268521,0.0016513359815060612,-0.0007995136498980287,-0.000566591481177359,0.00038144787959885234,-3.4410698697585375e-05,0.0003111651598385688,0.00027477120898054504,0.6418340802192688,-52.11056900024414,5.715437889099121,17.62519073486328,-1.2250875234603882,-1.0855820178985596,-0.013685601763427258,,,,,,,,,
1739355063.5255282,0.32934255102190835,1.1641831401889435,0.3081908763057964,-1.2018382824819063,-1.3966341729996197,1.062600253650274,0.10100946127971036,0.0009273616274995983,-0.0011139597568111377,-0.00016459726397469366,-0.001124963241284761,0.0003442739764452516,-0.00020580645594492055,0.0006797895929784999,0.6656377911567688,-52.11056900024414,5.743208885192871,17.70056915283203,-1.2250875234603882,-1.0718491077423096,-0.013685601763427258,,,,,,,,,
1739355063.5364342,0.3293410718320102,1.1641869659170605,0.30819087336560985,-1.2018354058753056,-1.396634392491595,1.0626026348676632,0.10100318325378503,-0.0013420619435692228,0.00027254700811438226,-0.00015460436259481222,0.00014786891044515384,-0.0006816036325635096,0.0005763445833383094,-0.0010263083945072566,0.6894415020942688,-52.16214370727539,5.743208885192871,17.65296173095703,-1.1994527578353882,-1.0919907093048096,0.03941498324275017,,,,,,,,,
1739355063.5464349,0.3293442573182443,1.164184852711625,0.30819300218074247,-1.2018346916126779,-1.3966317648332354,1.0626010113103526,0.1010094609544537,0.0003098534213207175,-0.000174550343413793,-8.766439073660528e-05,0.0005574566990313359,0.0002914109844734516,-0.00017398710454474757,2.51695441952655e-05,0.6418340802192688,-52.13437271118164,5.743208885192871,17.65296173095703,-1.2186788320541382,-1.0782577991485596,-0.013685601763427258,,,,,,,,,
1739355063.5564833,0.32934296151993464,1.1641848615399908,0.30819295610765274,-1.2018389712292108,-1.3966346929982245,1.0626010113103526,0.10101052721532043,-0.0003736729617306476,-0.0006427483166061962,0.0019147728756046239,-0.0005591542646948223,-0.0011920301489486305,-0.0003367020847115577,0.0010712041916539473,0.6894415020942688,-52.13437271118164,5.715437889099121,17.70056915283203,-1.2058614492416382,-1.0782577991485596,-0.013685601763427258,,,,,,,,,
1739355063.567527,0.3293425484777468,1.1641907996760943,0.30818909360477603,-1.2018386543889579,-1.396631769195855,1.062600253650274,0.10100080052560659,-0.0008434822832775141,0.0016122427166439725,-0.0006712140163656539,-0.0012154722680496049,0.00021452500421554433,4.4152699261727616e-05,-0.002543901280927554,0.6656377911567688,-52.21371841430664,5.767012596130371,17.67676544189453,-1.2186788320541382,-1.0718491077423096,0.05955658480525017,,,,,,,,,
1739355063.578456,0.3293407568839963,1.1641848802921355,0.3081909550187948,-1.2018375520180677,-1.3966325442905856,1.062600253650274,0.10100794563427136,-0.0008104249295645769,-0.00013950053982534442,0.00029459601172203854,-0.0004958315396007014,0.0009132819067546963,-7.600251113895008e-05,-0.0007953271208241894,0.6894415020942688,-52.13437271118164,5.743208885192871,17.65296173095703,-1.2122701406478882,-1.0718491077423096,-0.0008682189509272575,,,,,,,,,
1739355063.5894902,0.32934083464759917,1.1641868506509931,0.3081888719760355,-1.2018364733448954,-1.3966325229721932,1.062600253650274,0.10101112270289694,-0.0011758257936164284,-8.64966463937922e-05,-0.0003133220626584574,0.00041088115576048886,0.00010278087171399774,-8.815066795231783e-05,0.0017794270343197349,0.6894415020942688,-52.16214370727539,5.767012596130371,17.67676544189453,-1.2122701406478882,-1.0718491077423096,-0.027418512850999832,,,,,,,,,
1739355063.6005235,0.32934426066245115,1.1641815794931785,0.3081907975435439,-1.2018365086177087,-1.396636459007941,1.062601877207585,0.10101088117317379,0.000466857143859429,-0.0014272723405424658,-0.0007870919645568735,-0.0009271648038120275,-0.00018218243081784675,0.0004729260995247359,0.000302930375756531,0.6418340802192688,-52.05899429321289,5.743208885192871,17.67676544189453,-1.2058614492416382,-1.0855820178985596,-0.013685601763427258,,,,,,,,,
1739355063.6114488,0.32934436856130833,1.16418699848093,0.30819295607150227,-1.2018404007595884,-1.396634207878824,1.0626026348676632,0.10100829959460075,0.0007853184660791163,-0.0004283886027024012,0.0007441973280679291,-0.0004034952844577233,-0.0009305350433531498,-0.0002482348344200275,0.0008340355663721008,0.6418340802192688,-52.13437271118164,5.715437889099121,17.70056915283203,-1.1994527578353882,-1.0919907093048096,-0.0008682189509272575,,,,,,,,,
1739355063.621449,0.3293408327066364,1.1641849587098247,0.3081929560716504,-1.2018371915319361,-1.396635111176448,1.062601877207585,0.10100469706314413,0.00027404205417949016,-9.356508261349058e-05,0.0002575793661592249,-0.0002648105363318203,-0.0012791619354409643,-0.000229270784595976,-0.0010480553662943698,0.6894415020942688,-52.13437271118164,5.715437889099121,17.67676544189453,-1.1994527578353882,-1.0855820178985596,0.026597600430250168,,,,,,,,,
1739355063.6315567,0.32934083508091067,1.1641849577304733,0.3081929560716504,-1.2018346906315818,-1.396631007185328,1.062600253650274,0.10101052575266083,0.00015826285858084422,0.0005118857257541258,0.0015091646945237182,0.0008300102563676597,0.001387285950361795,-0.0002902337906039022,-0.00010674505276270311,0.6894415020942688,-52.13437271118164,5.715437889099121,17.65296173095703,-1.2250875234603882,-1.0718491077423096,-0.013685601763427258,,,,,,,,,
1739355063.6424441,0.32934281934694426,1.1641869330674177,0.30819516070764735,-1.2018346906194186,-1.3966333976696146,1.0626010113103526,0.1010089621066147,0.0010363148841168633,0.00047289649003045756,0.0016687157057909184,0.0006471661599079493,-0.00013881069729117153,0.0010408829732490897,-0.0006665745665858645,0.6656377911567688,-52.16214370727539,5.715437889099121,17.65296173095703,-1.2058614492416382,-1.0782577991485596,0.026597600430250168,769,796,718,41.065,0,0
1739355063.6525073,0.32934254782229777,1.1641847843575692,0.30819084143291525,-1.201832610829563,-1.3966325181286467,1.0625999527653733,0.10100330532059185,-0.0004886142580620059,-0.0002929284119146902,-0.00019887566660880716,0.0013264459370130994,0.0013145345319226863,-0.0002686256701979381,-0.001295688609451162,0.6656377911567688,-52.16214370727539,5.743208885192871,17.62519073486328,-1.2122701406478882,-1.0718491077423096,0.03941498324275017,767,797,719,41.174,0,0
1739355063.6634102,0.3293408355129856,1.1641851028553518,0.3081908753095364,-1.201838335773365,-1.3966325055291964,1.0626018772058865,0.10100393939774431,-0.0006219301289649651,0.00031133104500752253,-0.0005635570795790211,0.00013436655428559466,0.0008976353399430473,0.0003450521644596659,-0.0011212278072059904,0.6894415020942688,-52.13437271118164,5.743208885192871,17.70056915283203,-1.2122701406478882,-1.0855820178985596,0.03300629183650017,768,798,718,41.174,0,0
1739355063.6734178,0.32934597318318604,1.1641868771457153,0.3081909550187783,-1.201836711716368,-1.3966333025963742,1.0626010113103526,0.10101177946258996,0.0006591283916819587,0.0001668733370581215,-0.00030384543318222334,3.038907221714452e-05,-0.0004610855575435193,-0.000346189847520862,0.0013612431243326258,0.6180303692817688,-52.16214370727539,5.743208885192871,17.67676544189453,-1.2058614492416382,-1.0782577991485596,-0.03382720425724983,767,796,718,41.065,0,0
1739355063.6834824,0.3293424431590589,1.1641794298368224,0.3081908762831283,-1.2018346909505049,-1.3966347330355255,1.062601877207585,0.101007095824986,-9.794029202609204e-05,-0.0017882015487657129,4.1512906438953524e-05,0.0006573839488648037,-0.000920875866652228,0.0005548835498561708,-0.00042374589193411733,0.6656377911567688,-52.05899429321289,5.743208885192871,17.65296173095703,-1.2324117422103882,-1.0855820178985596,0.0064559997990727425,769,796,718,41.065,0,0
1739355063.6935182,0.3293397123118693,1.1641877402235772,0.3081874946474232,-1.2018326109385846,-1.3966340378852258,1.0626010113103526,0.10100750382349863,-0.0006710367774292192,0.0004940490146505671,0.00031777484233006946,0.0006232201385109968,-4.8463172904824464e-05,0.00020654787107395717,0.0018275671156019284,0.6656377911567688,-52.13437271118164,5.790816307067871,17.62519073486328,-1.1994527578353882,-1.0782577991485596,0.03941498324275017,768,796,718,41.065,0,0
1739355063.7035232,0.3293442606144316,1.1641897117223754,0.3081910078372599,-1.2018382559734584,-1.39663176482723,1.0626010113103526,0.101009459564988,0.0009908023915260755,0.0005299044285840728,0.0003773668025469461,-0.0006919283184019436,0.0006436684881986754,-0.0003371806466556928,0.0005417567437368878,0.6418340802192688,-52.16214370727539,5.743208885192871,17.70056915283203,-1.2186788320541382,-1.0782577991485596,-0.013685601763427258,768,798,719,41.174,0,0
1739355063.7144816,0.3293415942251504,1.1641878095010965,0.3081873193530344,-1.201836477221023,-1.3966332801473855,1.0626010113103526,0.10100643324630076,-0.0003766160713337995,6.022125782856842e-05,-0.0015746250003933647,-0.0003209506795367975,0.0006441413691919806,0.0004323245378167666,0.000580308730542461,0.6656377911567688,-52.16214370727539,5.790816307067871,17.67676544189453,-1.2058614492416382,-1.0782577991485596,0.012864691205322742,769,797,721,41.065,1,0
1739355063.7254546,0.3293408356156094,1.1641863204169376,0.30819119133784884,-1.2018364732964597,-1.3966325289475303,1.062601877207585,0.10100632066913313,-0.0005726384842324119,0.0002750522889719832,0.00024685347051688696,0.00021192820906404167,-0.0008665268219801277,3.026896844890522e-05,0.0008314209302581485,0.6894415020942688,-52.11056900024414,5.743208885192871,17.67676544189453,-1.2122701406478882,-1.0855820178985596,0.012864691205322742,767,797,719,41.065,0,0
1739355063.7364223,0.32934425191390104,1.1641868506684783,0.30819295607342895,-1.2018354147054737,-1.3966343398393863,1.062600253650274,0.10101012205250814,0.0004881367616523144,0.0003665132098028813,0.001146716481911158,-0.0003447352644992012,-0.0011576332671856605,-0.0003727807772930376,-6.0605833525482556e-05,0.6418340802192688,-52.16214370727539,5.715437889099121,17.65296173095703,-1.2058614492416382,-1.0718491077423096,-0.0072769103571772575,769,796,721,41.174,0,0
1739355063.7464337,0.3293480903334811,1.1641838554446793,0.3081848350865381,-1.2018368368349581,-1.3966346988303715,1.0625994959901959,0.1010111429782909,0.002110718048174232,-0.0012553931158676558,-0.0021568079050985705,0.0006278782558524785,-0.0009191920173751525,-0.0004366923337878836,0.00012403440324850016,0.6180303692817688,-52.11056900024414,5.790816307067871,17.65296173095703,-1.2058614492416382,-1.0654404163360596,-0.0008682189509272575,767,797,722,41.174,0,0
1739355063.7564666,0.32934244513903654,1.164188343406573,0.3081890964790324,-1.201837188588521,-1.396631764851254,1.062600253650274,0.10101057262644282,0.00012034137775890569,0.0006848575236264104,-0.0006327121008066084,-0.00013566133876681693,-7.337035913719761e-05,0.00016588523464001472,-0.00021803945080087043,0.6656377911567688,-52.18594741821289,5.767012596130371,17.67676544189453,-1.2186788320541382,-1.0718491077423096,-0.020094294100999832,767,798,724,41.174,1,0
1739355063.7674696,0.32934075688341297,1.1641856036124894,0.3081929531554815,-1.2018365096028927,-1.396628585912841,1.062600253650274,0.10100231605842927,-0.00043582417311867247,0.00044505294709836337,0.00014578121393907456,-0.0003058526848018274,0.0008276980832284907,0.00036882576853895126,-0.0007948833864502892,0.6894415020942688,-52.13437271118164,5.715437889099121,17.67676544189453,-1.2186788320541382,-1.0718491077423096,0.04673920199275017,766,797,724,41.174,0,0
1739355063.7775216,0.3293426278494537,1.1641831402016583,0.30819158783092965,-1.2018364772216379,-1.3966363258406105,1.0626026348676632,0.10101108353676261,0.0010189166443438926,-0.0009715421310837276,0.0006129378704376479,0.00032843097169338114,-0.00175773935159742,0.000464358609481493,0.0017370540936963786,0.6656377911567688,-52.11056900024414,5.743208885192871,17.67676544189453,-1.1930440664291382,-1.0919907093048096,-0.027418512850999832,768,795,724,41.174,0,0
1739355063.787522,0.329338837681491,1.1641848556531122,0.30819064008284536,-1.2018354058752223,-1.3966328244912751,1.0626018728469342,0.10100667603462314,-0.0004560850978542968,-0.00041692494840974353,-9.992532457468744e-05,-0.00014909311549765982,-0.0008110883891815001,0.00022708611960650088,0.0002340564562089633,0.7172124981880188,-52.13437271118164,5.743208885192871,17.65296173095703,-1.2186788320541382,-1.0855820178985596,0.012864691205322742,769,796,727,41.065,0,0
1739355063.7984455,0.32934425936637435,1.1641870890691215,0.3081929560703171,-1.2018394520609943,-1.3966336338505938,1.062601011310328,0.10100643908976176,0.00027341546832195104,0.0011147356734111905,0.00026578560372236587,-0.0012684080615881208,-0.0018501066626311802,-0.00044527502156630107,-8.593567200914157e-05,0.6418340802192688,-52.16214370727539,5.715437889099121,17.67676544189453,-1.2058614492416382,-1.0782577991485596,0.012864691205322742,769,793,724,40.957,1,0
1739355063.8084798,0.3293441819254348,1.1641848528227268,0.3081929560716504,-1.201836473346883,-1.3966310087881963,1.0625994959901959,0.10101372453727007,8.855401659033985e-05,-0.00030200474638918904,0.00018392698322315095,0.00030950735648219683,0.0012804202495236327,0.00026651272551743356,0.0012394231599155265,0.6418340802192688,-52.13437271118164,5.715437889099121,17.67676544189453,-1.2250875234603882,-1.0654404163360596,-0.013685601763427258,766,795,724,41.065,0,0
1739355063.8193972,0.32934254436104093,1.164182760800536,0.30819510810830725,-1.2018364772210235,-1.3966325675473739,1.0626018767230683,0.10100632063840197,0.00011542056653640013,-0.0011496279390479066,0.0010763310750442272,-7.675483475153003e-05,0.0006194701554598193,-0.0005999893653570045,-0.0009184922646413604,0.6656377911567688,-52.13437271118164,5.715437889099121,17.67676544189453,-1.2122701406478882,-1.0855820178985596,0.012864691205322742,767,794,722,40.957,0,0
1739355063.829443,0.3293425480336546,1.164184958965108,0.3081908764262467,-1.201836473296504,-1.3966325224880702,1.0626010113103443,0.101012598856916,0.00039105474311571615,0.0001776861745876463,-0.0002851931300354407,0.00015122866393916184,0.0005461664344324497,-0.00014733387610708752,0.0024963361741951315,0.6656377911567688,-52.13437271118164,5.743208885192871,17.67676544189453,-1.2122701406478882,-1.0782577991485596,-0.04023589566349983,767,796,724,41.065,0,0
1739355063.839455,0.3293408317327456,1.1641868774703275,0.30818908971653136,-1.2018368452169483,-1.3966339329903406,1.0626010113103526,0.10100556295436568,-0.0002496824584186843,0.0015932542177930916,-0.0012476456805131195,-0.0007386835860183939,-0.000534892653443567,0.0001186579164697582,-0.0018206125431646009,0.6894415020942688,-52.16214370727539,5.767012596130371,17.65296173095703,-1.1994527578353882,-1.0782577991485596,0.019273381680250168,768,795,725,41.174,1,0
1739355063.8504484,0.3293425452255183,1.164184861540142,0.3081908500721086,-1.2018346907405977,-1.3966325224867153,1.062600540360073,0.10100556734226222,0.0006771299437300364,-0.0008467079926411442,0.0004893973653573857,0.0006421274814417526,0.00035085451725557436,-0.0011343119396461751,-0.0007812757485515568,0.6656377911567688,-52.13437271118164,5.743208885192871,17.65296173095703,-1.2122701406478882,-1.0782577991485596,0.019273381680250168,768,794,724,41.065,1,0
1739355063.860491,0.3293408343248626,1.1641890006695217,0.308189093604332,-1.2018326150811993,-1.3966343809694384,1.0626018771996093,0.10100231583981026,0.00023390639588802696,0.0007775928158729862,-0.0006516453100246582,0.0006366099070109687,-0.0009438660951335233,0.0004125880215881058,-0.0016249339025144547,0.6894415020942688,-52.16214370727539,5.767012596130371,17.62519073486328,-1.2058614492416382,-1.0855820178985596,0.04673920199275017,764,796,722,41.065,0,0
1739355063.871457,0.3293421314152397,1.1641871044528347,0.30819087628179487,-1.2018364732964615,-1.3966332808534572,1.0626010112565174,0.10100230269646208,0.00042282660663857814,0.00026991904285812246,-3.743182868489242e-05,0.00043308895093359476,-0.000427322048198591,-0.0003990299450597689,-0.002120171009235481,0.6418340802192688,-52.13437271118164,5.743208885192871,17.67676544189453,-1.2058614492416382,-1.0782577991485596,0.04673920199275017,768,797,725,41.174,0,0
1739355063.8815,0.32934229925786435,1.1641854012244828,0.30819111249279457,-1.2018371885521748,-1.3966340378074757,1.0626009982283995,0.10100870621939696,-0.0005086773808783563,-8.95082966259228e-05,0.00043685032279855126,-0.0006960245129395731,-0.0014459528508568575,-0.0003142584541468687,0.00018100469791004095,0.6656377911567688,-52.11056900024414,5.743208885192871,17.67676544189453,-1.1994527578353882,-1.0782577991485596,-0.0072769103571772575,767,797,727,41.065,1,0
1739355063.8924592,0.32934197404784915,1.1641848528677916,0.30819295607298386,-1.2018326108336006,-1.3966329269346756,1.0626002536502004,0.10100551038128673,-0.0003240907322653001,0.0006006689319194472,0.0005760145825856957,0.001850611616943993,0.000284583930193553,0.0001006283616203929,-0.0017457780047896256,0.6418340802192688,-52.13437271118164,5.715437889099121,17.62519073486328,-1.2058614492416382,-1.0718491077423096,0.019273381680250168,769,798,722,41.065,1,0
1739355063.902489,0.3293408004800413,1.1641912773489966,0.30819098232071146,-1.2018364742775838,-1.3966343354188824,1.0626010113103526,0.10100875497322705,-0.0007964457773545551,0.001776103573122658,-0.00014012228283258798,-0.00022699607793752078,0.000517970368034923,-0.0006063397265541747,0.0009891145181995852,0.6894415020942688,-52.21371841430664,5.767012596130371,17.67676544189453,-1.2058614492416382,-1.0782577991485596,-0.0072769103571772575,770,797,723,41.174,0,0
1739355063.9134276,0.3293408239560552,1.1641850797946034,0.3081929561183146,-1.201840038650481,-1.3966347954734992,1.062601011148847,0.10100882030544446,3.9637919949120605e-05,-0.0004221352738151793,0.0017071668884436585,-0.0003162673313390639,-0.0011827361071551543,-0.0005195032946131979,6.24694140580409e-05,0.6894415020942688,-52.13437271118164,5.715437889099121,17.72437286376953,-1.1930440664291382,-1.0782577991485596,-0.0072769103571772575,769,798,723,41.065,1,0
1739355063.9234746,0.3293459735070109,1.16418687845352,0.3081910862471287,-1.2018380175548775,-1.3966340770533205,1.06260101131035,0.1010079456362777,0.0007705223861620166,-0.0001167748448476887,0.0005225709869365448,0.0010168734364452692,-0.0005013034371489867,-0.00040876841972213075,-0.0011198564843415172,0.6180303692817688,-52.16214370727539,5.743208885192871,17.70056915283203,-1.1994527578353882,-1.0782577991485596,-0.0008682189509272575,767,796,725,41.174,1,0
1739355063.9344368,0.32934254414547354,1.1641870250770112,0.30819003844995974,-1.2018382559721106,-1.3966340378076854,1.062601877207585,0.10100632083102058,-0.0010146066445193098,0.001328887928052607,0.0006107226968561962,-0.000813713896003524,0.0002840289668804125,-4.0108198700667156e-05,0.0005010096389450738,0.6656377911567688,-52.13437271118164,5.767012596130371,17.70056915283203,-1.1994527578353882,-1.0855820178985596,0.012864691205322742,767,797,724,41.065,0,0
1739355063.9454315,0.3293425481417029,1.164184852867291,0.30819016769013186,-1.2018329375513195,-1.3966332801473855,1.062601877207585,0.10100795733535203,0.0011084743449152003,-0.00019711504874248578,-0.0009013037320117042,0.0005459059764192952,-0.0002829325848055105,0.0007128354258656251,0.0008769238295065375,0.6656377911567688,-52.13437271118164,5.743208885192871,17.62519073486328,-1.2058614492416382,-1.0855820178985596,-0.0008682189509272575,768,798,723,41.065,0,0
1739355063.9554565,0.32934426033843606,1.1641853654290213,0.3081891023173312,-1.2018364998039899,-1.396634037807464,1.0626010113103526,0.10100698512372806,0.001424390883369802,0.0004785913132534048,-0.0002800744415634612,0.00017429769166186983,0.00014286980012572813,0.00022453469891499373,-0.00044881430700763174,0.6418340802192688,-52.11056900024414,5.767012596130371,17.67676544189453,-1.1994527578353882,-1.0782577991485596,0.019273381680250168,768,799,723,41.065,1,0
1739355063.9663973,0.32934597317118647,1.164183143148681,0.3081929556396394,-1.2018326108417257,-1.396633437130812,1.062601877207585,0.10101184073002556,0.0015142220492790136,-2.6709008578236772e-05,4.859350969305164e-05,0.0015414423921696623,-0.0009895784654503721,0.00019831167322474728,0.0018551167838536428,0.6180303692817688,-52.11056900024414,5.715437889099121,17.62519073486328,-1.2058614492416382,-1.0855820178985596,-0.03382720425724983,767,798,722,41.174,1,0
1739355063.9764018,0.3293408356209941,1.1641868594808937,0.3081908762817876,-1.2018364762398768,-1.3966351018089025,1.0625994959901959,0.10101235555678977,-0.00023548175647482804,0.00033079526146048525,0.00016872036169967376,0.0007094924672442713,-0.0006848310938268914,-0.00023005106310093273,0.002162997890033498,0.6894415020942688,-52.16214370727539,5.743208885192871,17.67676544189453,-1.1994527578353882,-1.0654404163360596,-0.03382720425724983,768,797,723,41.065,1,0
1739355063.9864373,0.32934042224272847,1.1641909483383441,0.3081890926327141,-1.2018354068563522,-1.3966329313133452,1.062600253650274,0.10100647858761763,-0.0006224528250970195,0.002184219321571622,-0.001007039032527417,-2.2755357632599053e-05,-0.0007303149432924021,-0.0003499224379352914,9.368955919210849e-05,0.6656377911567688,-52.18594741821289,5.767012596130371,17.65296173095703,-1.2058614492416382,-1.0718491077423096,0.012864691205322742,768,797,722,41.174,0,0
1739355063.9964566,0.3293381319273251,1.164183961448885,0.3081890936047594,-1.2018349950274834,-1.3966328771476597,1.0626010113103526,0.10100424800051128,-0.001529809343736304,-0.0008786126478174844,-0.0007437726389799115,0.0011003784059568174,-0.0012161784567673165,-0.0006161938918668299,-0.0005057047881332041,0.7172124981880188,-52.11056900024414,5.767012596130371,17.62519073486328,-1.2122701406478882,-1.0782577991485596,0.03941498324275017,768,798,722,41.065,1,0
1739355064.0065818,0.3293439456786011,1.1641838908076743,0.3081869414601122,-1.2018400476019233,-1.3966317759891325,1.0625978323959646,0.101010686718781,0.000614770932735958,-6.725600123510327e-05,-0.0019651026793121905,-0.0012616913102424996,0.0007331872152136558,-0.0007657771554976417,0.0014024132394153017,0.6418340802192688,-52.11056900024414,5.767012596130371,17.72437286376953,-1.2186788320541382,-1.0782577991485596,-0.020094294100999832,769,797,722,40.957,0,0
1739355064.0174682,0.3293418395081338,1.164184856647784,0.30819295509553907,-1.2018368717079182,-1.3966316470896798,1.0626018772016033,0.10100525601002616,-0.00016107572220865467,-0.0008650782026574703,0.0013840566966818967,0.0003274228061614363,0.0009948749653079009,0.000502269019262237,-0.0013229495173592222,0.6656377911567688,-52.13437271118164,5.715437889099121,17.65296173095703,-1.2186788320541382,-1.0855820178985596,0.012864691205322742,768,796,719,40.957,0,0
1739355064.0293922,0.32934254770569776,1.1641888928364752,0.3081890934967635,-1.2018365645917053,-1.3966383940968865,1.0626010113103526,0.1010094991394416,0.0003911413362143978,0.0013894324131627936,-0.0004484948693885848,8.114158938682864e-05,-0.0007759218014916785,-1.5565101861017225e-06,0.000797951979189572,0.6656377911567688,-52.18594741821289,5.767012596130371,17.67676544189453,-1.1994527578353882,-1.0782577991485596,-0.013685601763427258,769,797,723,41.065,0,0
1739355064.0395072,0.3293403959970594,1.1641848567451358,0.3081929649642145,-1.201832610830078,-1.396634693022816,1.0626011290479227,0.10100632061454948,-0.00026774983894666237,0.0005066833462047734,0.001264408339726933,0.0005611719600705352,-0.0011369173813354687,0.0004245725884635359,7.602380788286156e-05,0.6656377911567688,-52.13437271118164,5.715437889099121,17.62519073486328,-1.2058614492416382,-1.0782577991485596,0.012864691205322742,768,797,722,40.957,1,0
1739355064.0504782,0.3293432370693092,1.1641838819356551,0.3081930034769244,-1.201832610829563,-1.3966332802091963,1.0625990250405808,0.10100944634851922,4.0952166417774225e-05,-0.00015826903410603248,0.0007467537024418806,0.0019723662978656095,-0.0012305521593269368,-0.0014536340939333182,-2.9734568844350323e-05,0.6418340802192688,-52.11056900024414,5.743208885192871,17.62519073486328,-1.2058614492416382,-1.0654404163360596,-0.013685601763427258,768,795,724,41.174,1,0
1739355064.0614238,0.3293437882346791,1.1641818668107347,0.3081908758617755,-1.2018346910554836,-1.396631782269832,1.062601011307694,0.1010042479977618,0.000990280019200295,-0.0011378360311509032,0.0005508887227538321,0.00086319209950535,-0.0002394091462879889,1.0750304705712946e-05,-0.0012540611825351785,0.6418340802192688,-52.08279800415039,5.743208885192871,17.65296173095703,-1.2186788320541382,-1.0782577991485596,0.03941498324275017,767,796,722,41.065,1,0
1739355064.0714502,0.32934183852866417,1.1641849689332855,0.30819083017264637,-1.201834796583239,-1.3966332670657284,1.062601877207585,0.10100870184977195,0.00020490557160229747,9.362976177447573e-05,0.0005555119530744911,0.0006343275461002647,-0.00019760001661094567,0.0002830819701487847,0.00010873564504531045,0.6656377911567688,-52.13437271118164,5.715437889099121,17.65296173095703,-1.2058614492416382,-1.0855820178985596,-0.0072769103571772575,767,797,721,40.957,0,0
1739355064.0814877,0.32934018213146454,1.1641833007721722,0.3081908762457926,-1.201840166267323,-1.3966326794705122,1.0626026348676632,0.10100794417163671,0.0005478178534200416,-0.00010309553392464548,0.00011595153126417007,-0.0003056472922696199,-3.2742966410825476e-05,0.00023985772923394607,0.0001396635586313887,0.6656377911567688,-52.08279800415039,5.743208885192871,17.70056915283203,-1.2122701406478882,-1.0919907093048096,-0.0008682189509272575,767,795,721,40.957,1,0
1739355064.0924664,0.32934254712959515,1.1641840948809592,0.3081890936047752,-1.2018348083893395,-1.3966297098702396,1.0626010113103526,0.10100794482169637,0.0014234455788035972,-0.0003333665056466931,-0.00015173024078525207,-0.00012471226754760643,-0.00021489822219532842,-0.00032817102898959435,0.0002564673968483092,0.6656377911567688,-52.11056900024414,5.767012596130371,17.65296173095703,-1.2122701406478882,-1.0782577991485596,-0.0008682189509272575,767,796,720,41.065,1,0
1739355064.103436,0.32933704534233965,1.164183458082177,0.3081880407777372,-1.2018319100506971,-1.396636004828004,1.062600253650274,0.1010098153996285,-0.0006588378196305034,0.0002500431139113625,-0.0009908361097433216,0.0004580819361570771,0.00025544036100376443,-0.0005056789265546244,0.0006889167129180778,0.7410162091255188,-52.11056900024414,5.743208885192871,17.65296173095703,-1.2186788320541382,-1.0718491077423096,-0.013685601763427258,767,796,720,41.065,0,0
1739355064.114443,0.32933883767969063,1.1641917686147316,0.30818731123577087,-1.201836477314343,-1.3966317648511637,1.0626010243923047,0.10100556295636653,-0.0010566704128348143,0.002008553927689677,-0.0007571974795931689,-0.0007503643412859662,-0.00015122486620676104,-0.0003004970417970099,-0.00044709602478562724,0.7172124981880188,-52.18594741821289,5.790816307067871,17.67676544189453,-1.2186788320541382,-1.0782577991485596,0.019273381680250168,767,794,720,40.957,1,0
1739355064.124451,0.3293425478177049,1.1641878047061756,0.3081908762818001,-1.2018404373890563,-1.396634937927416,1.0626026348678848,0.10101021715198157,-0.00028517432599074516,0.0005932501482149104,-7.854831402558294e-05,-0.0005447753014208141,0.0001913357787623537,0.00042369785699228926,0.0015976279437317632,0.6656377911567688,-52.16214370727539,5.743208885192871,17.70056915283203,-1.2186788320541382,-1.0919907093048096,-0.020094294100999832,768,795,719,41.065,1,0
1739355064.1345065,0.32934033475716756,1.1641891027247566,0.3081929560716505,-1.2018326108665054,-1.3966325227025493,1.0626010113103528,0.10100393939704669,-0.0002261769059782366,0.0006574331005770482,0.00022181402370524304,0.0013678830278135404,0.00029187803167383464,-0.00014762607811475982,-0.0021011099841119815,0.6656377911567688,-52.16214370727539,5.715437889099121,17.62519073486328,-1.2122701406478882,-1.0782577991485596,0.03300629183650017,769,796,719,41.065,0,0
1739355064.1454585,0.32934043969134263,1.1641821855464907,0.308191219395766,-1.20183262260332,-1.396632561733165,1.062601011364188,0.1010079441716364,-0.00017910933975464352,-3.3335794920349385e-05,-0.0004238143132276063,0.001049037263020988,0.00034430809736025005,-0.00037932131043054386,-0.00019022867160736027,0.6656377911567688,-52.08279800415039,5.767012596130371,17.62519073486328,-1.2122701406478882,-1.0782577991485596,-0.0008682189509272575,765,795,720,41.065,0,0
1739355064.1554682,0.3293401269522885,1.1641814985309222,0.30818906739510965,-1.201834690619618,-1.396636459062438,1.0626002536502752,0.10100556295435743,-0.0005804724237722171,-0.0004199558826239857,-0.0005617610378368748,0.0016031393257033176,-0.000435974062631848,0.0003097231105655071,-0.001345797547140285,0.6894415020942688,-52.08279800415039,5.767012596130371,17.65296173095703,-1.2058614492416382,-1.0718491077423096,0.019273381680250168,768,796,721,41.065,1,0
1739355064.1654854,0.3293452579857872,1.1641814866365146,0.3081894086603384,-1.2018365010955858,-1.3966340378612991,1.0626026348676634,0.10100475696226055,0.0012114230609213406,-5.2344030041586405e-05,0.0009595456373537607,0.00023327126157125192,0.00019972515389934595,0.0004353598266230017,-0.002942569368519798,0.6418340802192688,-52.08279800415039,5.767012596130371,17.67676544189453,-1.1994527578353882,-1.0919907093048096,0.05314789339900017,767,795,720,41.065,1,0
1739355064.1764824,0.3293388367137094,1.1641852898826834,0.3081929551013672,-1.2018346910556406,-1.3966326801167563,1.0626018778536073,0.1010094595098503,-0.0012576584766461952,-0.00028328698005343847,-0.000587694996087802,0.001512895971111785,-0.0011984774563394236,0.00029766987042580606,0.000592669083305503,0.7172124981880188,-52.11056900024414,5.715437889099121,17.65296173095703,-1.2122701406478882,-1.0855820178985596,-0.013685601763427258,767,797,719,41.174,1,0
1739355064.1874254,0.3293442601944215,1.1641811095550443,0.3081890936047703,-1.20183647329644,-1.396632522488197,1.0626010113103563,0.10100232071518583,0.0010702810588441105,-0.001374390614960589,-0.0002965190897855698,-0.0005497859251986277,7.624375689334837e-05,0.0005215117901156914,-0.0031948911536861047,0.6418340802192688,-52.11056900024414,5.767012596130371,17.67676544189453,-1.2122701406478882,-1.0782577991485596,0.04673920199275017,767,795,720,41.065,0,0
1739355064.197512,0.3293407568839865,1.1641819401078062,0.30818878537702005,-1.2018368363866305,-1.396632692552686,1.0626010113103528,0.1010087018317973,6.696565563141043e-06,-0.0004221239580982824,0.00017476993763859575,0.000403874410078525,9.82500089947428e-05,3.6820881253921795e-05,-0.0009434809886129742,0.6894415020942688,-52.08279800415039,5.743208885192871,17.65296173095703,-1.2122701406478882,-1.0782577991485596,-0.0072769103571772575,768,795,719,40.957,1,0
1739355064.2085462,0.32934247005232226,1.1641851828154377,0.3081908762339894,-1.201836473671938,-1.396633319394202,1.0626018772075851,0.10101017772215994,0.0002659440901472546,-0.00019331981193462897,0.00012993131461711802,2.7818241274571757e-05,0.0004035372447720303,0.0006429073428611687,0.0002884498009536612,0.6656377911567688,-52.13437271118164,5.743208885192871,17.67676544189453,-1.2058614492416382,-1.0855820178985596,-0.020094294100999832,767,798,719,41.174,1,0
