IITGN-Robotics/Franka_IITGN_ROBOTICS/franka_ros/franka_iitgn/data02/s_b_012.csv
time,fr3_joint1_pos,fr3_joint2_pos,fr3_joint3_pos,fr3_joint4_pos,fr3_joint5_pos,fr3_joint6_pos,fr3_joint7_pos,fr3_joint1_vel,fr3_joint2_vel,fr3_joint3_vel,fr3_joint4_vel,fr3_joint5_vel,fr3_joint6_vel,fr3_joint7_vel,fr3_joint1_eff,fr3_joint2_eff,fr3_joint3_eff,fr3_joint4_eff,fr3_joint5_eff,fr3_joint6_eff,fr3_joint7_eff,flexpin1,flexpin2,flexpin3,Force,ContactMic,ContactMic_gt
1739355733.8751001,0.32343716156972746,1.1760965065549671,0.3210990189825743,-1.1995918211737133,-1.4259139851421856,1.0418984425203683,0.09467858600494436,-0.0004055403750627271,-0.0008741180566016681,0.00032962033956857647,-0.0012349810546609555,5.439056530484043e-05,-1.3836743000677349e-05,0.0012435938292284692,-0.8062250018119812,-51.21396255493164,5.183821678161621,17.03406524658203,-1.1994527578353882,-1.1176254749298096,-0.027418512850999832,,,,,,,,,
1739355733.886177,0.32343887409045863,1.1760981791750666,0.3210990147308567,-1.1995942829914237,-1.4259156181460753,1.041900079106242,0.09468181979850383,-0.0007350860795181497,0.0001487904007154176,0.0006908528455064794,-0.0023419105144449953,-0.0016141767651232748,0.0005961944073947242,0.002047759717663792,-0.8300287127494812,-51.23776626586914,5.183821678161621,17.08167266845703,-1.1866353750228882,-1.1313583850860596,-0.027418512850999832,,,,,,,,,
1739355733.898173,0.32343716156972746,1.176096006590375,0.3210950875949459,-1.199594642824743,-1.4259124697863577,1.0419008724906653,0.09467700237804887,-0.0010512989900478829,-0.0008989688400665536,-0.00019222322153274602,0.0001316549551417891,0.0017727758050084309,0.0008871558413154931,1.600594116017511e-05,-0.8062250018119812,-51.23776626586914,5.207625389099121,17.05786895751953,-1.2122701406478882,-1.1112167835235596,-0.013685601763427258,,,,,,,,,
1739355733.9111142,0.3234367481914616,1.1761002300809353,0.3210972451142484,-1.1995936086843058,-1.4259154946343806,1.0418983378654154,0.0946730459594532,0.0007098202061849875,0.0016240429455430193,0.0009146777821527172,0.00081593279182273,-0.00038699344241010803,-0.002076367822936321,0.001386666985598306,-0.8300287127494812,-51.26553726196289,5.207625389099121,17.05786895751953,-1.1866353750228882,-1.1176254749298096,-0.0072769103571772575,,,,,,,,,
1739355733.921186,0.32344013636301355,1.1760973854278391,0.3211058042703738,-1.1995878502439281,-1.4259135313443547,1.0418987764750467,0.09467705734623524,-0.0007840236534258785,-0.0006526295046544846,0.0005063294840607815,0.0005821834263454303,-0.00015824237749674153,-0.0002683279667457049,-9.13508894304169e-05,-0.6792718768119812,-51.26553726196289,5.259200096130371,17.08167266845703,-1.2122701406478882,-1.1377670764923096,0.012864691205322742,,,,,,,,,
1739355733.9321768,0.32344993125259347,1.176097038049611,0.32110705003212814,-1.1995775600401044,-1.425913268978568,1.0418892159852748,0.09467273593813436,0.0008926183148589984,-0.000672651008959001,-2.2958599075875068e-05,0.000663332710269502,0.0003937453252815978,-0.002207247574829929,-0.0006887678398621647,-0.6038934588432312,-51.26553726196289,5.362349510192871,17.05786895751953,-1.2324117422103882,-1.1313583850860596,-0.013685601763427258,,,,,,,,,
1739355733.9421957,0.32345732220656537,1.1761007480893197,0.32110469233686323,-1.199573241176523,-1.4259135869397046,1.041890349739454,0.09467461967393345,0.00048066290342457167,-0.0001417111722578351,-0.002056469986305512,0.0006338118032144895,0.0003610351652370581,0.0005706660297934842,-0.00047507437390858695,-0.4809076488018036,-51.31711196899414,5.409956932067871,17.10944366455078,-1.2388204336166382,-1.1441757678985596,0.0064559997990727425,,,,,,,,,
1739355733.953157,0.3234655721528251,1.1761003947356108,0.3211076627571179,-1.199565202933024,-1.4259131823712943,1.0418808864916027,0.09467851196099486,0.0002950699624907964,0.0003223769090342376,0.0007687397532467185,0.0006052620640840541,-0.0006950139746080323,-0.0006154793551027403,0.001129713179085607,-0.4055292308330536,-51.34091567993164,5.409956932067871,17.05786895751953,-1.2186788320541382,-1.1313583850860596,-0.05396880581974983,,,,,,,,,
1739355733.9642324,0.3234733540060831,1.1761024609833082,0.32110534456545137,-1.1995644818273297,-1.4259100900126518,1.0418789439652558,0.09467620308975994,0.001583493591602841,0.0003454180289320887,0.0011211494228983059,7.749422106168372e-05,0.0021232721494963865,-0.00039932655257403945,0.0006620751140109222,-0.3817255198955536,-51.34091567993164,5.437727928161621,17.08167266845703,-1.2324117422103882,-1.1313583850860596,-0.0072769103571772575,,,,,,,,,
1739355733.9751434,0.3234768943892417,1.1761044588658396,0.32109946867576894,-1.1995632231965168,-1.4259125242823083,1.0418743244684165,0.09466986739810704,0.0015390265647604242,0.0016300655081418344,-0.00039242377463629644,0.0009663006111114375,0.0006270121020026458,7.639688604459312e-05,-0.001449019685094212,-0.3817255198955536,-51.36868667602539,5.489302635192871,17.10944366455078,-1.2250875234603882,-1.1176254749298096,0.019273381680250168,,,,,,,,,
1739355733.9851494,0.3234790513038249,1.1761003947356115,0.32110058167256667,-1.1995641439559266,-1.4259094938764418,1.0418727873650617,0.09467223496368941,0.00016964011818407197,-0.0005914677130121181,0.0011664533460613098,-0.001016984532041677,0.0021709910792150353,0.0003447993592508097,-0.0010826024704888148,-0.3817255198955536,-51.34091567993164,5.461531639099121,17.13324737548828,-1.2388204336166382,-1.1176254749298096,-0.0008682189509272575,,,,,,,,,
1739355733.9951928,0.3234779184311778,1.17610354058278,0.3210984795452574,-1.1995639846806747,-1.4259132734436568,1.0418681503522405,0.09467396532359332,0.0008154804044892351,0.0002513347804625279,-0.0017884004637325425,-0.0016467156527950522,0.0015237438663159469,0.00012243150573120856,-0.0011506206120914229,-0.3817255198955536,-51.36868667602539,5.489302635192871,17.13324737548828,-1.2324117422103882,-1.1176254749298096,-0.027418512850999832,,,,,,,,,
1739355734.0061798,0.3234778965564709,1.1761061588889299,0.3210999654913782,-1.1995619061126495,-1.425916126164896,1.0418670639870078,0.09466938031459937,-0.0003816490118005917,0.0008416163981295996,0.00013020467560158496,-0.00043850984607321264,-0.0005650857069834,-0.0012694186524137986,-0.0024614588410236146,-0.3063471019268036,-51.39249038696289,5.489302635192871,17.13324737548828,-1.2122701406478882,-1.1176254749298096,0.019273381680250168,,,,,,,,,
1739355734.0162356,0.3234820390619962,1.1761028701678076,0.3210963746960454,-1.1995601232839272,-1.4259127868281825,1.0418697602461564,0.0946777975968025,0.0015212839006835924,-0.0007594412532588315,0.00018106144609869956,0.0007236716693461389,0.0003381186814795823,0.0006858786817504767,0.0008268444206998063,-0.3301508128643036,-51.34091567993164,5.489302635192871,17.10944366455078,-1.2186788320541382,-1.1313583850860596,-0.03382720425724983,,,,,,,,,
1739355734.0271652,0.3234815693008573,1.1761038756112456,0.32110034543318605,-1.1995607094050398,-1.42590984755315,1.0418671813267293,0.09467460368961732,0.001173643308846152,0.0002338707973983411,0.00042567318052839464,-0.00011658733615806669,0.0013705436978898632,-0.0007086597782100877,0.0007692120927474096,-0.3539545238018036,-51.39249038696289,5.461531639099121,17.15705108642578,-1.2388204336166382,-1.1377670764923096,-0.03382720425724983,,,,,,,,,
1739355734.0372448,0.3234834418535342,1.1761061714526688,0.32109637455925144,-1.1995570765783306,-1.4259132863700927,1.0418668662640558,0.09467861208890833,0.0011752979768513804,0.001139409837812003,-0.0010921548203867368,0.0004277892121740878,-0.0006216819783400789,-0.0005626436911778433,0.002466870641033956,-0.3539545238018036,-51.39249038696289,5.489302635192871,17.08167266845703,-1.2324117422103882,-1.1441757678985596,-0.027418512850999832,,,,,,,,,
1739355734.0481472,0.3234817288414053,1.1761051742265556,0.3210964011691164,-1.1995548277994015,-1.4259139800623195,1.0418657495548465,0.0946730818755669,-0.00056625152535018,0.00040303368160074743,-0.0011311049801790208,0.001439568350528593,3.3441793490666315e-05,-0.0010361596974247233,0.00011808065698794572,-0.3301508128643036,-51.36868667602539,5.513106346130371,17.08167266845703,-1.2388204336166382,-1.1377670764923096,-0.020094294100999832,,,,,,,,,
1739355734.0581896,0.32348168195555244,1.176099953962331,0.3211005699752958,-1.199558687310276,-1.4259139379121721,1.041866513027099,0.09467019747555544,-0.0006084927031803732,-0.0019941090126373868,0.0016687792606762803,0.000543599609145384,-0.0011654197508564699,1.3601803100025522e-06,-0.0010423892253928525,-0.3539545238018036,-51.31711196899414,5.461531639099121,17.13324737548828,-1.2388204336166382,-1.1441757678985596,0.0064559997990727425,,,,,,,,,
1739355734.0691345,0.3234844937896893,1.1761060685060196,0.32110031952655416,-1.1995568781421535,-1.4259156050817428,1.0418645874453836,0.09467424092354347,0.0007568865961763446,0.0003240396713551658,0.00030924527414498475,-0.0011237037077958733,-0.000906604202126038,-0.001170466754107199,0.00044522873224258545,-0.3539545238018036,-51.39249038696289,5.461531639099121,17.10944366455078,-1.2250875234603882,-1.1249496936798096,-0.027418512850999832,,,,,,,,,
1739355734.079169,0.32348099085937354,1.176102384498801,0.3210974321717589,-1.1995536992273168,-1.4259114837805884,1.0418626108428393,0.09467218238697393,-0.00033367142970957826,-0.0009698317151260311,-0.0011563602287618388,0.0014310265656031639,-0.0009132180351060182,-0.0006362924580181601,0.0004450230732164918,-0.3063471019268036,-51.34091567993164,5.461531639099121,17.10944366455078,-1.2250875234603882,-1.1112167835235596,0.026597600430250168,,,,,,,,,
1739355734.0891814,0.32348649184151,1.176104229381261,0.32109771952911187,-1.1995567982879614,-1.4259145016998187,1.0418642342326656,0.09467067146081244,0.00014996160132372323,-0.0005425109202587708,0.0008077886903559853,-0.00030756592333506307,0.0014963947363934244,-3.882499799468588e-05,-0.0016047735668830115,-0.3817255198955536,-51.36868667602539,5.461531639099121,17.10944366455078,-1.2324117422103882,-1.1249496936798096,-0.0008682189509272575,,,,,,,,,
1739355734.0992227,0.32348084663085225,1.1761098816343099,0.321094608555007,-1.199551725072873,-1.4259105600603355,1.0418649917312355,0.09467296239974393,-0.00172100532981763,-0.0007189382276889741,-0.0015102061209956033,0.001357253520829837,-0.0003255519091606162,4.535516444394567e-05,-0.0007414285322415236,-0.3063471019268036,-51.44406509399414,5.536910057067871,17.08167266845703,-1.2324117422103882,-1.1313583850860596,-0.020094294100999832,,,,,,,,,
1739355734.1101534,0.3234854828963108,1.1761044586558806,0.32109669250977363,-1.1995554992208728,-1.4259125039890934,1.041864234232662,0.09467458563232332,0.001277405273055625,-0.0005183960805514776,-0.0012658636099988376,-4.935988079224937e-05,-0.0014953437907154496,-0.00047362458500786964,0.0003790547967431855,-0.3539545238018036,-51.36868667602539,5.513106346130371,17.13324737548828,-1.2250875234603882,-1.1249496936798096,-0.03382720425724983,,,,,,,,,
1739355734.121181,0.32348349958600614,1.1761024355201568,0.3210984931176319,-1.1995554687684966,-1.4259125684403853,1.0418642340711572,0.09467068893215062,-0.0003873977723850298,-0.002260392906831022,-4.302032562792789e-05,-0.00021984986854662133,0.0021210248628610907,8.297664531048331e-05,-0.0015733255530789333,-0.3301508128643036,-51.34091567993164,5.489302635192871,17.13324737548828,-1.2388204336166382,-1.1249496936798096,-0.0008682189509272575,,,,,,,,,
1739355734.1321316,0.32348417717275463,1.176104356931447,0.3210938846572736,-1.1995576144265203,-1.425914695569665,1.041866507212897,0.09467419639373087,-0.0005988126887284068,-0.00023260669500249474,-0.0007013796307740027,-0.0013756903107859848,-0.00043572431740155823,0.000419499950296874,0.001829773188488765,-0.3063471019268036,-51.36868667602539,5.513106346130371,17.13324737548828,-1.2324117422103882,-1.1441757678985596,-0.027418512850999832,,,,,,,,,
1739355734.1422043,0.32348356887422314,1.1761081694306745,0.3210983968356685,-1.199555574239545,-1.4259159702808257,1.041864234232663,0.09467534459876087,-0.0001621627893762899,0.0011309705584275792,-0.0005431411039480026,-0.0006430039887125715,-0.0009301893403203589,-0.0003884440488050062,0.001483752099989361,-0.3063471019268036,-51.42026138305664,5.489302635192871,17.13324737548828,-1.2186788320541382,-1.1249496936798096,-0.04023589566349983,,,,,,,,,
1739355734.153496,0.3234803906275745,1.1761061716369046,0.32109842574816394,-1.1995545166208315,-1.4259143845156739,1.0418657495528196,0.09467144659223634,-0.0015618559582831273,0.0005790989502444315,9.412928823441377e-05,-0.0002765927489111245,0.00032579912464479865,-0.00023955921062589008,2.7001960276803137e-05,-0.2825433909893036,-51.39249038696289,5.489302635192871,17.13324737548828,-1.2324117422103882,-1.1377670764923096,-0.0072769103571772575,,,,,,,,,
1739355734.164189,0.3234813338849027,1.1761061718185992,0.3210946993288089,-1.199552712545011,-1.4259148375390474,1.041864234232663,0.09466994150834705,-0.0009026608124906676,0.0002232544091935208,-0.0008465474087230678,-0.00034266602009734245,0.00045667691771894184,5.5803438247793315e-05,-0.0006558326535658258,-0.3063471019268036,-51.39249038696289,5.536910057067871,17.13324737548828,-1.2324117422103882,-1.1249496936798096,0.0064559997990727425,,,,,,,,,
1739355734.1751144,0.32348568209060585,1.1761044853567986,0.32109493521220095,-1.19955070023843,-1.4259146808809702,1.0418642327791126,0.09466906537684532,5.460735475627248e-05,0.0006155549858420371,-0.0007271881218378553,0.0008949795132771946,0.00020791660128943984,-0.0002643869369745579,-0.0016049107364658258,-0.3301508128643036,-51.36868667602539,5.536910057067871,17.10944366455078,-1.2324117422103882,-1.1249496936798096,0.012864691205322742,,,,,,,,,
1739355734.1851776,0.3234875558943244,1.1761099611112067,0.3210949274037142,-1.199548541184537,-1.4259132884285255,1.041864991892733,0.09467297507620927,0.0008703154742780415,0.000571382346547643,-0.00029403929385869926,0.0005669877244762255,-0.0005777004166939262,0.00046577872446457717,0.0015266676764598246,-0.3817255198955536,-51.44406509399414,5.536910057067871,17.08167266845703,-1.2186788320541382,-1.1313583850860596,-0.020094294100999832,,,,,,,,,
1739355734.1951818,0.3234914229778917,1.176108067394516,0.3210996329237938,-1.1995533678800592,-1.4259143099147196,1.0418633683354304,0.09467068893237263,0.0021037758750243668,0.00011935849343965635,0.0005441313898595914,-0.001949894964091666,-4.44244395569295e-06,0.0003478020640377687,-0.0006416620049377596,-0.4055292308330536,-51.42026138305664,5.461531639099121,17.13324737548828,-1.2250875234603882,-1.1176254749298096,-0.0008682189509272575,,,,,,,,,
1739355734.2061102,0.32348393289283567,1.176104462893676,0.32110236431714584,-1.1995523692346919,-1.42591263405973,1.0418664941309455,0.09467600666341747,0.0002067427117704804,-0.0001288221822531709,0.0017018406233185734,-3.0203946626048336e-05,0.000521148189473092,0.0012373999881100444,0.0014848136237288836,-0.3301508128643036,-51.36868667602539,5.437727928161621,17.13324737548828,-1.2388204336166382,-1.1441757678985596,-0.03382720425724983,,,,,,,,,
1739355734.2161264,0.32348057703808003,1.1761118797890304,0.32109455700001743,-1.1995505866457394,-1.4259112068879396,1.0418638928471757,0.09467145098815553,-0.0013479133118267119,0.002001388444371233,-0.0015080420885674544,0.00047878839786117593,0.0009377899642225221,-0.0004969869415782578,0.0004439547483682826,-0.2547723948955536,-51.47183609008789,5.513106346130371,17.10944366455078,-1.2324117422103882,-1.1313583850860596,-0.0072769103571772575,,,,,,,,,
1739355734.2261593,0.3234835722555959,1.1761098848965714,0.3210938555678706,-1.1995541505866052,-1.4259125686120828,1.0418637501818186,0.09467140710115925,-0.001418519388961995,0.0010027698583454808,-0.0001778134445624279,-0.0013931084046922668,0.0015505362610375975,-0.0004975629774906913,0.0006135411398710795,-0.3063471019268036,-51.44406509399414,5.513106346130371,17.15705108642578,-1.2388204336166382,-1.1249496936798096,-0.0072769103571772575,,,,,,,,,
1739355734.237142,0.3234859970765124,1.1761047768623072,0.32110057869151276,-1.1995506032202274,-1.4259125667099077,1.0418633289198707,0.09466744620487436,-0.0006114796469963698,-0.0002513568442892673,-4.267837866021848e-06,0.0009564500556888131,-0.0009873032841919151,0.00035122130975659535,-0.00200135161070906,-0.3301508128643036,-51.36868667602539,5.461531639099121,17.10944366455078,-1.2388204336166382,-1.1176254749298096,0.026597600430250168,,,,,,,,,
1739355734.2472596,0.32348600003204786,1.1761023926782608,0.3211002404625107,-1.1995503481222758,-1.425910600218755,1.0418631745404758,0.09467220425233115,-0.0005502565277298477,-0.000523519126935262,4.623881233167964e-05,-0.0002276660242491916,-0.0006001874156146266,0.00012078541125892117,7.716428428351644e-05,-0.3301508128643036,-51.36868667602539,5.461531639099121,17.10944366455078,-1.2324117422103882,-1.1249496936798096,-0.013685601763427258,,,,,,,,,
1739355734.2581403,0.32348600003206457,1.1761062071282051,0.3210959314933735,-1.1995552193147345,-1.4259115602463968,1.041863932033289,0.09466668415756,-0.00041060864075062836,0.0007050045844995004,-0.0007520633219018642,-0.001010936754143865,0.0006510293551694752,0.00028694929969949026,-0.0022454886567687257,-0.3301508128643036,-51.39249038696289,5.513106346130371,17.18085479736328,-1.2324117422103882,-1.1313583850860596,0.03300629183650017,,,,,,,,,
1739355734.269141,0.32348607844201566,1.1761081693276252,0.32109850186189154,-1.1995505070638632,-1.4259157036895125,1.0418656914048268,0.0946690668374739,3.12357346634241e-05,0.00013280168631777113,0.0010788204183168689,-0.00074322329090558,-0.0009195747636169401,0.002164160098157902,-4.9072151567701715e-05,-0.3301508128643036,-51.42026138305664,5.489302635192871,17.10944366455078,-1.2250875234603882,-1.1377670764923096,0.012864691205322742,,,,,,,,,
1739355734.2791996,0.32348428751266123,1.1761084069061722,0.3210964450679119,-1.199552357115628,-1.4259164610987005,1.041863879565418,0.09467220425233115,-0.0007175783736958733,0.0005308345674629699,1.6801756223445833e-05,-0.0013762583052931026,-0.0005807267656739888,-0.0010409196296010236,0.0003908874468237373,-0.3063471019268036,-51.42026138305664,5.513106346130371,17.13324737548828,-1.2186788320541382,-1.1249496936798096,-0.013685601763427258,,,,,,,,,
1739355734.2901273,0.32348866128504133,1.176102461031306,0.3210963458318801,-1.1995523692177112,-1.4259139290353118,1.041864194930969,0.09467476384826072,0.0005294471674502709,-0.0015075654921425665,-0.00033299247051984954,-0.0007527064197358833,0.0002681176687626007,0.002774604197186207,0.00017879712175703297,-0.3539545238018036,-51.34091567993164,5.489302635192871,17.13324737548828,-1.2388204336166382,-1.1249496936798096,-0.0072769103571772575,,,,,,,,,
1739355734.3021634,0.3234842875526913,1.1761047767572785,0.32109986879875624,-1.1995485024992705,-1.4259135847045574,1.0418595051336332,0.09467265775086918,-0.000894101487877967,0.0001212724433044504,0.0009436696684447105,0.0003040244178489813,5.0747212585247386e-05,-0.002382438704910787,0.002359136966910346,-0.3063471019268036,-51.36868667602539,5.461531639099121,17.08167266845703,-1.2388204336166382,-1.1249496936798096,-0.04023589566349983,,,,,,,,,
1739355734.3132389,0.3234845590405759,1.1761061715042604,0.3210963759539989,-1.1995515391557907,-1.4259142574246593,1.0418653963312112,0.09466870994949673,0.00022183208554307494,0.0003633586446910043,-8.196349043585875e-05,-0.0003709012724405096,-0.00027248182599396445,0.001953534188982641,-0.0021096470636520637,-0.3063471019268036,-51.39249038696289,5.489302635192871,17.13324737548828,-1.2250875234603882,-1.1377670764923096,0.012864691205322742,,,,,,,,,
1739355734.3242157,0.3234877387999952,1.176109881953134,0.32109644491190203,-1.1995522501673288,-1.425914699930685,1.0418645030133478,0.09466982303291092,0.0007188584725521337,0.000584405854314051,-7.899564231169688e-05,0.00011009871374423592,-0.002290861107228332,0.0008874809626008417,-0.001067505381408328,-0.3539545238018036,-51.44406509399414,5.513106346130371,17.13324737548828,-1.2324117422103882,-1.1313583850860596,0.0064559997990727425,,,,,,,,,
1739355734.3342345,0.32349082228671183,1.1761061714915497,0.3210984226926658,-1.1995494813748122,-1.425910618367208,1.0418649507005382,0.09466982303491728,0.0012318567035072658,-0.0004252424730104217,0.0006484398190471847,0.0006902532858731339,-0.00022215290722051904,0.0001474428434284536,-0.0008148970448468893,-0.3539545238018036,-51.39249038696289,5.489302635192871,17.13324737548828,-1.2324117422103882,-1.1313583850860596,0.0064559997990727425,,,,,,,,,
1739355734.3452244,0.3234843754824731,1.1761108356274503,0.3210984191326375,-1.199547407283022,-1.4259110724039359,1.0418618376929536,0.09467296207500983,-0.0008934199469999423,0.001825599505219738,0.0007908352169425482,0.0010026712881565918,0.0001383059383012747,-0.00047975490811035405,0.001463993958595069,-0.3063471019268036,-51.44406509399414,5.489302635192871,17.10944366455078,-1.2250875234603882,-1.1176254749298096,-0.020094294100999832,,,,,,,,,
1739355734.3571336,0.3234870629640585,1.1761034137123902,0.3210960521623121,-1.1995452894085048,-1.4259108634178654,1.0418622935071356,0.09467068893215062,0.0005456408599729748,-0.001646207540881284,-0.0005374012200982316,0.0008926222795764545,0.0008520131192417963,0.0004586712327903618,0.00032853517414302706,-0.3301508128643036,-51.39249038696289,5.489302635192871,17.08167266845703,-1.2388204336166382,-1.1176254749298096,-0.0008682189509272575,,,,,,,,,
1739355734.3671749,0.32349045845914515,1.1761081693856994,0.32109776683817964,-1.1995438528579379,-1.425911673592546,1.0418594659236313,0.09466906537483898,0.0002344541568334653,0.000182785466816495,6.835364085309574e-05,0.001462672638812662,0.0004379797099246996,-0.001664447269616489,0.00042263647594007706,-0.3817255198955536,-51.42026138305664,5.489302635192871,17.05786895751953,-1.2324117422103882,-1.1249496936798096,0.012864691205322742,,,,,,,,,
1739355734.3791316,0.3234870597247636,1.17610618261091,0.3210982166286287,-1.1995445728450036,-1.4259100391121333,1.041859941656528,0.09467600715096244,-0.0008770145652560988,0.0006076604766340095,0.000967773861209035,0.0009000154438158451,0.0013171257807783378,0.00030204387311136445,0.0023827047533327285,-0.3301508128643036,-51.42026138305664,5.461531639099121,17.08167266845703,-1.2452291250228882,-1.1249496936798096,-0.03382720425724983,,,,,,,,,
1739355734.3891664,0.32349091172192823,1.1761081692812154,0.321100332435018,-1.1995490828638213,-1.4259136267859978,1.0418620808589734,0.09467382879284263,0.000324207775223472,-6.191756587672065e-05,0.0004135047433578812,-0.0007510323661887836,-0.0012884215040767288,-0.0009142339545577684,9.371814589386037e-05,-0.3539545238018036,-51.42026138305664,5.461531639099121,17.13324737548828,-1.2388204336166382,-1.1112167835235596,-0.027418512850999832,,,,,,,,,
1739355734.3991966,0.32348747636000363,1.1761088941728517,0.32109380580809566,-1.1995491505658151,-1.4259131826727323,1.0418628385881459,0.09467284343908174,-0.00030543846443091283,0.0005028384913389661,-0.000970417628390633,-5.551462562551157e-06,-0.000919891759921904,0.00043302278256828776,0.0003514336038939538,-0.3063471019268036,-51.39249038696289,5.513106346130371,17.13324737548828,-1.2452291250228882,-1.1176254749298096,-0.020094294100999832,,,,,,,,,
1739355734.41014,0.32348911014356013,1.176104458986188,0.3210963497052283,-1.1995473683260078,-1.4259126801118516,1.0418594789669602,0.09467370348508897,0.0007262322516158362,-0.0007700571410930483,0.00044574357431968086,0.0005621916038771936,0.0019397110687910198,-0.000824999811164088,0.0010678916250661263,-0.3301508128643036,-51.36868667602539,5.489302635192871,17.10944366455078,-1.2388204336166382,-1.1249496936798096,-0.027418512850999832,,,,,,,,,
1739355734.420148,0.3234903371334912,1.1761061705467428,0.32109774701485655,-1.1995473413990116,-1.425909742900118,1.041858599964514,0.09467068892583334,0.001494643541999921,0.0001677330443127568,-0.0007912778177348711,-0.00024329761286150927,0.0005417467179691022,0.0008354667781742697,-0.0003694606139849259,-0.3063471019268036,-51.39249038696289,5.461531639099121,17.10944366455078,-1.2388204336166382,-1.1176254749298096,-0.0008682189509272575,,,,,,,,,
1739355734.430174,0.3234884174757389,1.1761081691174613,0.3211005462139424,-1.1995453763667763,-1.425912529403448,1.0418602235211591,0.09466992551490247,0.00012472039344901622,0.0009012162900071375,0.001368466027777921,2.641355818439723e-05,0.0014078642560590724,-0.00038899905484327755,-0.0006161012799963434,-0.3063471019268036,-51.42026138305664,5.461531639099121,17.08167266845703,-1.2388204336166382,-1.1313583850860596,-0.03382720425724983,,,,,,,,,
1739355734.4401743,0.32348705424894536,1.1761082404143999,0.3211004985983192,-1.1995473589521035,-1.4259146939366651,1.0418602235211591,0.09467458539088883,-0.0005023626490221427,0.00020441177223955653,0.0025244855255195306,0.00029786046634335244,-0.001087420204449634,-0.0004943021199228042,-0.00038633365828010804,-0.3301508128643036,-51.39249038696289,5.461531639099121,17.10944366455078,-1.2324117422103882,-1.1313583850860596,-0.03382720425724983,,,,,,,,,
1739355734.4511008,0.3234899214070428,1.1761078633264,0.3210984756202026,-1.1995476503510438,-1.4259111545674819,1.0418602235211591,0.09466783382115133,0.0007665943202220526,-0.0006362273609985114,0.0004954906742223116,9.568746472077305e-05,-6.126164391562902e-05,0.0006491682892297806,-0.0026203034438973876,-0.3063471019268036,-51.42026138305664,5.489302635192871,17.10944366455078,-1.2324117422103882,-1.1313583850860596,0.019273381680250168,,,,,,,,,
1739355734.461137,0.3234871644774284,1.1761081681674752,0.3210981781693385,-1.199550903814372,-1.4259116779452963,1.041859465861081,0.09467386534266514,-0.001131211998644827,0.0008623971215369248,0.001317961121873555,7.637878700530575e-05,-0.0007924503303250888,4.088942038969019e-05,0.0006421185042389559,-0.3063471019268036,-51.42026138305664,5.489302635192871,17.15705108642578,-1.2324117422103882,-1.1249496936798096,-0.027418512850999832,,,,,,,,,
1739355734.4721758,0.3234892180371301,1.1761061713865497,0.3211002566580744,-1.1995488326750245,-1.4259133262801387,1.0418606944714388,0.09466982303555294,0.0003677276695664246,-0.00017661393554623515,0.0005270862120399995,-0.0004332539688680351,0.0006027520389269745,0.000871433752218691,-0.000662883774757872,-0.3301508128643036,-51.39249038696289,5.461531639099121,17.13324737548828,-1.2324117422103882,-1.1313583850860596,0.0064559997990727425,,,,,,,,,
1739355734.4822237,0.3234913157517833,1.1761064099101282,0.32109637164523214,-1.199548786493828,-1.4259140840183049,1.0418602235238175,0.09466637555677068,0.001040542961228938,-0.00026261532225501445,0.00037010722440694246,3.356520453360069e-05,-0.00016898556764015647,0.0004070584496882496,-0.0013374570422039316,-0.3301508128643036,-51.39249038696289,5.489302635192871,17.15705108642578,-1.2388204336166382,-1.1313583850860596,0.026597600430250168,,,,,,,,,
1739355734.4942067,0.3234908665630845,1.176104538445024,0.32109625833584693,-1.199546288223699,-1.4259122289363455,1.0418602235211591,0.09467458378446492,0.0005139792293591154,0.00031921968836780187,-0.0008808124976794825,0.00029873204158968917,0.0011176892935025027,-9.26436800186957e-06,0.0009584763946781106,-0.3539545238018036,-51.36868667602539,5.489302635192871,17.13324737548828,-1.2452291250228882,-1.1313583850860596,-0.03382720425724983,,,,,,,,,
1739355734.5042357,0.3234892675093564,1.176106121453531,0.32109841098390296,-1.1995480721685348,-1.4259139815184545,1.0418585999638483,0.09467144659221853,0.0005646422742839551,0.0006290354114608961,4.299276542489878e-05,-0.000737861318900659,-0.0002593227908457381,-0.00023750121134246337,0.00024507113547148903,-0.3301508128643036,-51.39249038696289,5.489302635192871,17.15705108642578,-1.2388204336166382,-1.1176254749298096,-0.0072769103571772575,,,,,,,,,
1739355734.5142772,0.3234874764691673,1.1761098819522864,0.32110058057458596,-1.1995460242589788,-1.4259101081717362,1.0418594833036838,0.09466830771487073,-0.0002635080772582206,0.0011985060819847454,0.0012243014847044256,0.00017803928407173568,0.0007566251337925854,9.133910949089802e-05,-0.0011844584514553989,-0.3063471019268036,-51.44406509399414,5.461531639099121,17.13324737548828,-1.2324117422103882,-1.1249496936798096,0.019273381680250168,,,,,,,,,
1739355734.5250955,0.32349055588738296,1.1761081606141979,0.3210974520396668,-1.1995469779640997,-1.4259134309627857,1.0418594658611793,0.0946737093362975,0.00023964969722172836,0.00015149001929214655,-0.0006405989633668631,9.472090685982656e-05,0.0008897865388942485,-0.00038165640385706093,0.002186855971467141,-0.3063471019268036,-51.42026138305664,5.489302635192871,17.13324737548828,-1.2324117422103882,-1.1249496936798096,-0.027418512850999832,,,,,,,,,
1739355734.5351357,0.32348750686991506,1.1761081959232065,0.32109757474695816,-1.19954735498923,-1.4259095016587287,1.0418594660225864,0.09467068893014334,-0.0007684026363789468,-0.0005883491253252735,-0.0007913842967172146,0.00039714401979086534,0.00038034614886191633,-0.001229797476236834,8.318890071125839e-05,-0.3063471019268036,-51.42026138305664,5.489302635192871,17.10944366455078,-1.2388204336166382,-1.1249496936798096,-0.0008682189509272575,,,,,,,,,
1739355734.5451381,0.32348918888107675,1.1761040965893985,0.3210975527943711,-1.1995473638561225,-1.4259142903487407,1.0418578481179737,0.0946738278097272,0.0004323109524452806,-0.0009770628825390996,6.464224501252617e-05,0.00015493584830311995,0.0015115830064961094,-0.0005474425451810607,-5.50424991625823e-05,-0.3301508128643036,-51.39249038696289,5.489302635192871,17.10944366455078,-1.2250875234603882,-1.1112167835235596,-0.027418512850999832,,,,,,,,,
1739355734.5551705,0.32348918888056005,1.1761044589356797,0.3210995313814284,-1.1995421048249801,-1.4259146994301817,1.0418585999639467,0.0946722037647614,-0.0007081218869823139,-0.00018133515284131656,0.000736714749390253,0.0008672920514835016,0.0010633156734976626,-0.0006024283434110872,-0.0002535659684905986,-0.3301508128643036,-51.36868667602539,5.461531639099121,17.08167266845703,-1.2324117422103882,-1.1176254749298096,-0.013685601763427258,,,,,,,,,
1739355734.5661654,0.323492023412556,1.1761037731494735,0.32109599888565044,-1.199546976946293,-1.4259137515234503,1.041859465861081,0.09466962267127929,0.0010089700639132572,-0.0010573618741299238,-0.0008467269613411965,-0.00015978103233472708,-5.9439805367878484e-05,8.20401812078707e-05,-0.0006987506016437738,-0.3301508128643036,-51.36868667602539,5.513106346130371,17.13324737548828,-1.2324117422103882,-1.1249496936798096,-0.0008682189509272575,,,,,,,,,
1739355734.5762038,0.32348748525239357,1.1761081693975592,0.32109364452148126,-1.1995460153666822,-1.4259125380348672,1.0418602235211591,0.09467534307571226,-0.0007554803624558762,0.00034886524073863976,-0.0009654166081031975,0.000786911277828164,-0.0008300491852202128,0.0003637561703587483,0.001151095219262782,-0.3063471019268036,-51.42026138305664,5.513106346130371,17.13324737548828,-1.2250875234603882,-1.1313583850860596,-0.04023589566349983,,,,,,,,,
1739355734.587128,0.3234881821126617,1.1761054794724282,0.32109838520114453,-1.1995509327535647,-1.4259125113334217,1.041859465861081,0.09467347238943792,2.7044310824142595e-05,-0.0005976842163811929,0.0002742423646288096,-0.0011510055734649661,0.0007374449039069418,0.000141948291991589,0.0008018640736042255,-0.3063471019268036,-51.39249038696289,5.489302635192871,17.15705108642578,-1.2388204336166382,-1.1249496936798096,-0.027418512850999832,,,,,,,,,
1739355734.5991673,0.3234909022333278,1.1761078623660068,0.3210945132565812,-1.1995463198935297,-1.4259144931071441,1.0418609768205866,0.09467308763408598,0.0003272932038124928,-0.00031107252571405087,-0.0006004150635372139,-0.000277988398823077,0.0008782613551146998,0.00046434352685174375,-0.0012692584768932986,-0.3539545238018036,-51.42026138305664,5.513106346130371,17.15705108642578,-1.2250875234603882,-1.1377670764923096,0.0064559997990727425,,,,,,,,,
1739355734.6111104,0.3234918724909581,1.1761041051616268,0.32109671902915826,-1.1995455691382626,-1.4259148175127077,1.0418602235211507,0.09467144667059985,0.002215994112701914,-0.0005026859446309351,0.00018055824120846047,0.00023884683151569595,-0.002318985400916689,-8.998447319626494e-06,0.0007620768888646688,-0.3539545238018036,-51.39249038696289,5.513106346130371,17.15705108642578,-1.2324117422103882,-1.1313583850860596,-0.0072769103571772575,,,,,,,,,
1739355734.6211307,0.32348747647331755,1.1761081707289334,0.32109634972167356,-1.1995488194179351,-1.425909102887982,1.0418594658610807,0.09466830771487117,-0.000822615370498306,7.080962980923267e-05,-4.2697310654487555e-05,-0.0013209767123927017,0.0005749640905917633,-0.00030716075616130545,-0.0007545516804194912,-0.3063471019268036,-51.42026138305664,5.489302635192871,17.13324737548828,-1.2452291250228882,-1.1249496936798096,0.019273381680250168,,,,,,,,,
1739355734.6321702,0.3234892164223109,1.176107864622938,0.3210977551784781,-1.199549815210521,-1.4259129959458858,1.0418594656995752,0.09467382780972725,0.0003196799408598415,0.00035934991428013805,0.0001876564875862921,-0.0006095526811884378,0.00034065679841930615,4.609234149930184e-05,0.0003921651574634004,-0.3301508128643036,-51.42026138305664,5.489302635192871,17.18085479736328,-1.2388204336166382,-1.1249496936798096,-0.027418512850999832,,,,,,,,,
1739355734.644139,0.32349139398463844,1.1761098821396376,0.3211002302724754,-1.199545931916742,-1.4259111486982896,1.0418585999638479,0.09467290925763718,0.0009621580865234473,0.0015749776215389093,0.0005592340557832593,4.601093932618159e-05,0.0007113880525124086,-0.00042960300984458866,0.0006372687265137224,-0.3301508128643036,-51.44406509399414,5.461531639099121,17.13324737548828,-1.2324117422103882,-1.1176254749298096,-0.020094294100999832,,,,,,,,,
1739355734.6541815,0.3234939981143831,1.176108093230032,0.32109557682261103,-1.1995412893063384,-1.4259147370104732,1.041858599963848,0.09466642388838185,0.0013042290659096732,0.0008235037248055214,-0.0009610428012216288,0.0008797375746158438,0.0009389803817095586,8.826403958811548e-05,-0.00033197306293272137,-0.3539545238018036,-51.42026138305664,5.489302635192871,17.10944366455078,-1.2324117422103882,-1.1176254749298096,-0.0008682189509272575,,,,,,,,,
1739355734.6661189,0.3234858776958076,1.1761060694518921,0.32109533962502124,-1.1995459318636605,-1.4259148373795314,1.041860223521159,0.09466668413348368,0.0005794122986999626,-0.0011660000577200266,-0.0012526664298474622,0.0002523827047331829,-0.0018048684149506592,-3.750496772967955e-05,-0.0014851700031332476,-0.2825433909893036,-51.39249038696289,5.489302635192871,17.13324737548828,-1.2324117422103882,-1.1313583850860596,0.03300629183650017,,,,,,,,,
1739355734.6761625,0.3234903384702188,1.1761044854611955,0.3210967162552829,-1.1995441492754635,-1.4259164741808665,1.0418594639230139,0.09467220230212633,-0.00012987434412689504,-0.0007180280000274641,-0.0009694384221089287,0.00036902347702576053,-0.00039934458773323116,-5.474401296782881e-05,0.000905505982468099,-0.3063471019268036,-51.36868667602539,5.513106346130371,17.10944366455078,-1.2186788320541382,-1.1249496936798096,-0.013685601763427258,,,,,,,,,
1739355734.6862018,0.32348842167325836,1.1761061751025452,0.3210945019163706,-1.1995441492391268,-1.4259093892746717,1.0418587714243648,0.09467216476106406,0.00026694987253379407,0.0005446704473461419,-0.0012783215313406362,0.0015426499218632475,0.0008269868905745307,-0.0006967004438288389,0.0010946055502124917,-0.3063471019268036,-51.39249038696289,5.513106346130371,17.10944366455078,-1.2388204336166382,-1.1313583850860596,-0.013685601763427258,,,,,,,,,
1739355734.697166,0.32349542839650497,1.1761062774553694,0.32109816066849967,-1.1995448644827493,-1.4259116779991332,1.0418602235184267,0.09466793920876147,0.002220069281212699,0.0005610733984299494,-0.0005573786477939141,-0.0002732625867624505,-0.00031082000463490857,9.602935754754487e-05,-0.0006403336743965128,-0.4055292308330536,-51.39249038696289,5.489302635192871,17.10944366455078,-1.2324117422103882,-1.1313583850860596,-0.013685601763427258,,,,,,,,,
1739355734.7082133,0.3234899008755997,1.1761081698702622,0.3210938846515448,-1.1995398177303571,-1.425910761211083,1.0418602220676088,0.09467295972757105,0.0010495452397780052,0.0011925570735539792,-0.0008559533588042271,0.0018859521300855046,0.0013292106662060857,0.0005429440412651949,0.0003733761058473965,-0.3301508128643036,-51.42026138305664,5.513106346130371,17.08167266845703,-1.2388204336166382,-1.1313583850860596,-0.020094294100999832,,,,,,,,,
1739355734.7191541,0.32348379214525097,1.1761118809235858,0.3210955885920085,-1.199547714588926,-1.4259147987023126,1.0418589949107984,0.09466842553823639,-0.0013926228233134496,0.0016017266964654102,-0.00033983445669405493,-0.00010819733368114032,8.483513884049808e-05,-0.0005144843051643998,-0.00013907260338580038,-0.2547723948955536,-51.47183609008789,5.489302635192871,17.15705108642578,-1.2324117422103882,-1.1249496936798096,0.019273381680250168,,,,,,,,,
1739355734.7291663,0.32348773881693965,1.1761081693274413,0.3210964440465137,-1.1995430710022108,-1.4259157228186303,1.0418598703004736,0.09466859148311536,0.00015801217838049247,-0.0001704549982241122,-0.0009250262436648277,0.0009731998421695736,-0.0020346211215473585,9.742153670875344e-05,-0.0006763631119045042,-0.3063471019268036,-51.42026138305664,5.513106346130371,17.13324737548828,-1.2250875234603882,-1.1313583850860596,0.012864691205322742,,,,,,,,,
1739355734.7401667,0.3234891892420645,1.1761044588658391,0.32109671493949604,-1.1995420034557631,-1.425909376623721,1.041859465859087,0.09466732350404845,0.0008195213016893579,-0.0006376728946800352,-0.0002745753012259787,0.0012048822108390812,0.001840299148504829,8.140657544209634e-05,-0.0015591413869855332,-0.3301508128643036,-51.36868667602539,5.513106346130371,17.10944366455078,-1.2388204336166382,-1.1249496936798096,0.026597600430250168,,,,,,,,,
1739355734.7511628,0.3234909026973756,1.1761081580947101,0.32109810577894865,-1.199544152061435,-1.4259093765970616,1.0418578423037699,0.09467486918132542,-0.0004729238724175231,0.0012228379046644372,0.0006462294483835165,0.00044766563061608103,0.0022322202484318407,-0.0005399536595215562,0.0004547580571062105,-0.3539545238018036,-51.42026138305664,5.461531639099121,17.10944366455078,-1.2388204336166382,-1.1112167835235596,-0.04023589566349983,,,,,,,,,
1739355734.7621076,0.32349066418226646,1.1761121336840947,0.32109566339611645,-1.1995474761746,-1.4259148510815234,1.0418594658072455,0.09466840577152262,0.002138703274161586,0.002394733378561172,-0.0004958577515313846,-0.0006129291066848919,-0.00039779804862857544,0.00036626036409243695,-0.00017043967312994023,-0.3063471019268036,-51.44406509399414,5.489302635192871,17.15705108642578,-1.2324117422103882,-1.1249496936798096,-0.0072769103571772575,,,,,,,,,
1739355734.7731245,0.3234881850468139,1.176103771225314,0.32109953134943126,-1.1995420694452317,-1.42591358761252,1.0418594658610798,0.09466667971815862,-0.00044962222750364505,-0.0010640676511671008,9.279059566440174e-05,0.0009562984814838591,-0.00011718086368794005,-8.010057453066001e-05,-0.0020678697762579173,-0.3063471019268036,-51.36868667602539,5.461531639099121,17.08167266845703,-1.2388204336166382,-1.1249496936798096,0.03300629183650017,,,,,,,,,
1739355734.784206,0.3234874773358911,1.1761083738340237,0.3210977921113392,-1.1995431955648086,-1.4259156685508523,1.0418584062229514,0.0946729614249248,-0.001315301306088532,0.0007580236413669559,7.923545302448553e-05,-0.00023924704389239563,-0.0016920938416265779,-0.001437337779246576,0.0006646226822658727,-0.3063471019268036,-51.42026138305664,5.489302635192871,17.10944366455078,-1.2250875234603882,-1.1249496936798096,-0.020094294100999832,,,,,,,,,
1739355734.795131,0.32349091450612527,1.1761098135650263,0.32109573934976265,-1.1995455384086176,-1.4259086314533058,1.0418578030559194,0.09466824780962417,0.0011326719025578592,0.0002898610059896482,-0.0004749170307734724,-0.0007474447330779242,0.00043911716103128384,-0.00016458996538102846,-0.0007847957198097592,-0.3539545238018036,-51.47183609008789,5.513106346130371,17.15705108642578,-1.2452291250228882,-1.1112167835235596,-0.0072769103571772575,,,,,,,,,
1739355734.8052158,0.3234894250922255,1.1761061710716334,0.3210967065027356,-1.1995448524785057,-1.425915705137713,1.0418585999618541,0.0946674401924884,-0.00023645595190030836,9.18163595943545e-05,0.0002266467728182907,0.0005780801710633914,-0.0006394648082445175,0.0006959262087400945,-5.752013783580064e-05,-0.3301508128643036,-51.39249038696289,5.513106346130371,17.15705108642578,-1.2250875234603882,-1.1176254749298096,0.026597600430250168,,,,,,,,,
1739355734.816102,0.32348748818102396,1.1761081694324018,0.3210974320681674,-1.1995477132432433,-1.4259148417408258,1.0418585847823234,0.09466900546970038,-0.0009881416681911757,0.0011815918261165008,-0.0005822072893200076,-0.0006935896067861674,-0.00269086171210628,-0.0010323386562745744,6.278301121508058e-05,-0.3063471019268036,-51.42026138305664,5.461531639099121,17.15705108642578,-1.2324117422103882,-1.1176254749298096,-0.013685601763427258,,,,,,,,,
1739355734.8271253,0.3234921371438448,1.1761079402802064,0.3210977926795629,-1.1995416581083669,-1.425914662535379,1.0418594658609952,0.09467278930351528,0.0013204006082791703,0.0009083065129065181,-0.00031065239073082,0.0010454389561196681,-0.002128154898045754,0.0002742461468037234,-3.283242341631106e-05,-0.3301508128643036,-51.42026138305664,5.489302635192871,17.10944366455078,-1.2250875234603882,-1.1249496936798096,-0.020094294100999832,,,,,,,,,
1739355734.837157,0.3234882243491048,1.1761054131018807,0.32109458158955084,-1.199543749392903,-1.4259137928697359,1.0418594658610807,0.09467534312111447,-0.0013271549755503097,-0.00046673690585919607,-0.00015839419890340846,0.001089112789935749,-0.00061722608188776,-0.00032053328089831715,0.0014817467531197664,-0.3063471019268036,-51.42026138305664,5.513106346130371,17.13324737548828,-1.2324117422103882,-1.1249496936798096,-0.04023589566349983,,,,,,,,,
1739355734.8471954,0.3234878175661623,1.1761098819064553,0.321098475584471,-1.1995444989033313,-1.4259108617033711,1.0418597525708793,0.09467220425230623,-0.0007937769769699783,0.0008162710035579362,0.000497340291513099,0.0004876571370246801,0.0013708266720330372,-0.000127373188630104,1.1129022538601053e-05,-0.3063471019268036,-51.44406509399414,5.489302635192871,17.15705108642578,-1.2388204336166382,-1.1313583850860596,-0.013685601763427258,,,,,,,,,
1739355734.858124,0.32348830293695946,1.1761061686571266,0.32109959890173817,-1.1995448974426086,-1.4259139815186435,1.041859347638108,0.09467458402522787,-0.0004453368791764794,-0.0008583568443064388,0.0013154481532899668,5.781751096693157e-05,-0.0007869700980968806,1.8676060244860718e-05,0.0019315389011309893,-0.3063471019268036,-51.39249038696289,5.461531639099121,17.13324737548828,-1.2388204336166382,-1.1249496936798096,-0.03382720425724983,,,,,,,,,
1739355734.8691273,0.3234878293309087,1.1761061714915337,0.3210985018607904,-1.1995440311686667,-1.4259085737952502,1.0418585999631809,0.09467104418991577,-0.0005770071313726887,-0.0005001572557747388,0.000359113382990385,0.0006648973070873061,-0.00027477795920657634,6.666119330859762e-05,0.0007996749210154974,-0.3063471019268036,-51.39249038696289,5.489302635192871,17.10944366455078,-1.2452291250228882,-1.1176254749298096,-0.0008682189509272575,,,,,,,,,
1739355734.8791635,0.32349226288169425,1.1761060949621291,0.3210925355198339,-1.1995408512729733,-1.4259086958134115,1.0418578423037699,0.09466830773291969,0.000902092154326961,-0.0007846391848436416,-0.0010398521024050766,0.001627039033588447,0.0022045392163233465,-3.502261067137263e-05,-0.0011595274772162754,-0.3301508128643036,-51.39249038696289,5.536910057067871,17.10944366455078,-1.2452291250228882,-1.1112167835235596,0.019273381680250168,,,,,,,,,
1739355734.8900907,0.32349058247485457,1.1761081694322586,0.3210939562975376,-1.1995454497255285,-1.4259108025836607,1.0418594658610807,0.09467284343906514,0.000694459924433868,0.00044250722020901186,-0.0016887065556789537,-0.001144465790265359,0.0014460078466224104,0.00015247485097257424,0.0008867210924518977,-0.3063471019268036,-51.42026138305664,5.536910057067871,17.15705108642578,-1.2388204336166382,-1.1249496936798096,-0.020094294100999832,,,,,,,,,
1739355734.9001868,0.32348972025491773,1.1761061714915497,0.3210949195386231,-1.199541014001905,-1.425910874586008,1.0418616989494367,0.09467062853757295,0.00016389869192080743,-0.0006368814067992962,0.00040110986832165435,0.0003216686684612157,0.0002919460755405522,0.0006825380092948415,0.0005147014495827637,-0.3063471019268036,-51.39249038696289,5.536910057067871,17.10944366455078,-1.2388204336166382,-1.1441757678985596,-0.027418512850999832,,,,,,,,,
1739355734.9111936,0.3234886014079525,1.1761061714565568,0.3210942695936711,-1.1995434373518519,-1.425913582749248,1.0418570315245936,0.09466991524956272,-0.0008887011600653693,-0.00026952080917786846,0.0007565909093026624,0.0003423765868474295,-4.334674053827685e-05,-3.238456165973304e-05,-0.0007392455282724177,-0.2825433909893036,-51.39249038696289,5.513106346130371,17.13324737548828,-1.2388204336166382,-1.1313583850860596,-0.0072769103571772575,,,,,,,,,
1739355734.9221246,0.32348894252899946,1.176110199844572,0.32109566308059045,-1.1995395660664512,-1.4259091030409627,1.041856776312866,0.09467590040039359,-0.0005551884511217514,0.0018018377075846152,-4.427602364443097e-05,0.001353862750615398,-0.00083855831539219,-0.0010701174814348722,0.0016530138713369514,-0.2825433909893036,-51.44406509399414,5.489302635192871,17.08167266845703,-1.2452291250228882,-1.1112167835235596,-0.05396880581974983,,,,,,,,,
1739355734.9331982,0.3234895340164192,1.1761098848983675,0.32109845574117163,-1.1995409305923448,-1.4259146998611953,1.041855618614127,0.09467068822189885,-0.00018829132565662985,0.0008983684815479416,0.0014723113128801192,0.0013131311016518015,-0.002206298632087405,-0.0008726573480738291,0.0001615543773739261,-0.3301508128643036,-51.44406509399414,5.461531639099121,17.10944366455078,-1.2324117422103882,-1.1313583850860596,-0.0008682189509272575,,,,,,,,,
1739355734.9441411,0.3234924039693712,1.176111959366852,0.32109541940659836,-1.1995427397562792,-1.42591398152444,1.0418590951971032,0.09467296135271963,0.001323470381912835,0.0010503843515938885,-0.0008587800026075172,-0.00012690335993058256,-0.0015284992132957296,-0.00033586890914132707,3.6272595455915445e-05,-0.3301508128643036,-51.47183609008789,5.489302635192871,17.13324737548828,-1.2388204336166382,-1.1249496936798096,-0.020094294100999832,,,,,,,,,
1739355734.9550924,0.3234906524639594,1.1761081688159896,0.32109557688039975,-1.1995409315699022,-1.4259104817341497,1.041860223030365,0.09466944266766748,0.000937699630486191,0.0002230467780314384,-0.0017898830050536254,0.0002464546399041363,-0.00027800200998870383,-0.00028063526501855105,-0.0004348060057626113,-0.3063471019268036,-51.42026138305664,5.489302635192871,17.10944366455078,-1.2324117422103882,-1.1313583850860596,-0.027418512850999832,,,,,,,,,
1739355734.9661565,0.3234906386385652,1.1761098565523398,0.3210967149245376,-1.1995462786193696,-1.4259133278495546,1.0418594600468771,0.09466972345147938,0.0005588139382016998,-0.0007962305104962702,0.00016907844039263406,-0.00023226268613447346,-0.0014419620222324982,0.0005091541757325785,0.0006460264835232742,-0.3063471019268036,-51.44406509399414,5.513106346130371,17.18085479736328,-1.2452291250228882,-1.1249496936798096,-0.020094294100999832,,,,,,,,,
1739355734.9771385,0.32349035029617706,1.1761068183936443,0.3210956309360067,-1.199544484168588,-1.4259136132919288,1.0418554210494273,0.09466424301675416,0.0004563872805435862,-0.0004964216239419143,-0.0008523526058702685,0.00025534293902297123,-5.2297165078146307e-05,0.00035578805961030845,-0.0022911541214348467,-0.3063471019268036,-51.42026138305664,5.489302635192871,17.15705108642578,-1.2388204336166382,-1.1176254749298096,0.026597600430250168,,,,,,,,,
1739355734.988218,0.32349166905827653,1.176111769343864,0.32109602503685114,-1.1995387774442612,-1.425912869502219,1.0418594658431357,0.09467535632971268,0.0006471217576537095,0.0008381152863755783,0.00017939033092785034,0.0005439339997566405,0.0009608404464665838,0.0003989636528378944,0.0019557677936676543,-0.3301508128643036,-51.47183609008789,5.489302635192871,17.10944366455078,-1.2388204336166382,-1.1249496936798096,-0.04023589566349983,,,,,,,,,
1739355734.9991734,0.32349381889655526,1.1761118798933627,0.3210955521490468,-1.1995387673888513,-1.4259139289746439,1.041860223521159,0.09466637116894039,0.000284480650073451,0.0009922058460817883,-7.659534251658232e-05,0.0014682040902243808,0.0006443151842578248,0.001304850742694791,-0.0020384404408999267,-0.3539545238018036,-51.47183609008789,5.489302635192871,17.08167266845703,-1.2388204336166382,-1.1313583850860596,0.026597600430250168,,,,,,,,,
1739355735.0101628,0.32349066509878566,1.1761099615350097,0.32109556121895344,-1.1995444959418742,-1.4259095060425668,1.041860981019732,0.09467234621739098,-2.1253167987479275e-05,-5.25339850784124e-06,-7.023176073807838e-05,-0.0007963887136622632,0.0012918211644463344,0.0022435372074079947,0.001239159265358004,-0.3063471019268036,-51.44406509399414,5.489302635192871,17.15705108642578,-1.2388204336166382,-1.1377670764923096,-0.05396880581974983,,,,,,,,,
1739355735.0210981,0.3234903501523177,1.1761081694325524,0.3210974665790632,-1.1995452023677646,-1.4259102937469514,1.0418562867313517,0.09466975190766315,-9.9303509409194e-05,-0.0003267528266587569,5.546188232638919e-05,-0.0006709750649548686,0.0016472028016415634,1.921912094434527e-05,-0.002039535056037651,-0.3063471019268036,-51.42026138305664,5.489302635192871,17.15705108642578,-1.2580465078353882,-1.1249496936798096,-0.020094294100999832,,,,,,,,,
1739355735.0321789,0.323492377727277,1.1761081782627205,0.3210983935296147,-1.1995409305922948,-1.4259148510456965,1.0418593074061577,0.09467422499343102,0.001167223127975639,0.0012020893360931463,0.0006071572708871368,0.00028897271964486065,-0.0015048377891650822,-0.0011862732671692312,0.0010436649333457756,-0.3301508128643036,-51.42026138305664,5.489302635192871,17.10944366455078,-1.2324117422103882,-1.1249496936798096,-0.03382720425724983,,,,,,,,,
1739355735.0432403,0.32348850139892,1.1761061370236163,0.3210975526654512,-1.199542713265326,-1.4259148511081496,1.041859816310855,0.09466825484129152,-0.0012593545061100908,-0.0009601906349411261,0.0005475666113420917,-0.00041640501622970856,-0.001083837053604627,-0.00013360773534543715,-0.001961642998891681,-0.3063471019268036,-51.39249038696289,5.489302635192871,17.13324737548828,-1.2324117422103882,-1.1313583850860596,0.019273381680250168,,,,,,,,,
1739355735.054197,0.3234904172843669,1.1761099084438924,0.32109565523221567,-1.1995427129382772,-1.425914502256091,1.0418593479597065,0.09467382780942876,-0.0007651019189465024,0.0006509716198259871,-0.001274040318084723,0.0011191394662819656,-0.0016660111513067371,0.00014592534179368532,0.000666108462229941,-0.3063471019268036,-51.44406509399414,5.489302635192871,17.13324737548828,-1.2324117422103882,-1.1249496936798096,-0.027418512850999832,,,,,,,,,
1739355735.0651283,0.3234923773676331,1.1761108101541318,0.3210984891054594,-1.1995445223969576,-1.4259079863607187,1.0418593480690101,0.09466506043773426,-6.0126378696291854e-05,0.002145939348176213,0.0019495344753682274,-0.0006393427785650424,0.00020210648881655523,0.0009245250560649416,-0.0018329919389450033,-0.3301508128643036,-51.44406509399414,5.489302635192871,17.15705108642578,-1.2516378164291382,-1.1249496936798096,0.04673920199275017,,,,,,,,,
1739355735.0751998,0.32349025183005237,1.1761061718343178,0.3210954220505502,-1.1995388507988993,-1.4259118881520902,1.0418580341120935,0.09466906488729124,4.17258252378551e-05,-9.01353072790597e-05,-0.00014255661933350338,0.001978394152556313,-0.0003963914835899597,0.0007979195570860687,-0.0003919957888168427,-0.3301508128643036,-51.39249038696289,5.489302635192871,17.08167266845703,-1.2186788320541382,-1.1249496936798096,0.012864691205322742,,,,,,,,,
1739355735.0861542,0.32348853938133193,1.1761081694324085,0.32109363543334335,-1.1995408422851295,-1.4259119286736166,1.0418556312471683,0.09467060419268611,-0.0005552290151630884,-0.00023198304721362993,-0.0012970102980675823,0.0003815105636939845,0.0011184764996035293,-0.0012855356837638357,0.0005239344107904958,-0.3063471019268036,-51.42026138305664,5.513106346130371,17.10944366455078,-1.2452291250228882,-1.1313583850860596,-0.04023589566349983,,,,,,,,,
1739355735.0971646,0.32349066519632397,1.1761081665979798,0.32109813776759716,-1.199540584788205,-1.4259125001292392,1.0418583669511712,0.09466777388915469,-0.000481894306703608,-0.00010164808979338743,0.0004340121022040228,0.0009557760629813501,-0.00031093926575650576,0.000701266454823076,-0.0010388920117669254,-0.3063471019268036,-51.42026138305664,5.461531639099121,17.10944366455078,-1.2250875234603882,-1.1249496936798096,-0.0072769103571772575,,,,,,,,,
1739355735.1071687,0.32349237632496625,1.1761068183937717,0.32109576263078154,-1.1995408206979565,-1.4259137328956162,1.0418526832873434,0.0946726064714731,0.00021808411781262452,-0.00043310566236967325,-0.00016211987527824223,0.00137903353906778,-0.0010334104780339577,-0.0023026575536941535,0.0006071594387605316,-0.3301508128643036,-51.42026138305664,5.513106346130371,17.10944366455078,-1.2388204336166382,-1.1048080921173096,-0.020094294100999832,,,,,,,,,
1739355735.118197,0.3234882353060148,1.176109881930254,0.3210946988810117,-1.199540930150381,-1.4259155521020106,1.0418548740213163,0.09467366983913483,-0.000615564209110059,0.0005965784909744646,0.00021560938218549643,0.0007732986574091661,-0.0004398631724673809,0.0005927586557283506,0.00018056704313858902,-0.2825433909893036,-51.44406509399414,5.536910057067871,17.10944366455078,-1.2250875234603882,-1.1249496936798096,-0.027418512850999832,,,,,,,,,
1739355735.1282437,0.32349245548994404,1.1761099176014536,0.32109600958291684,-1.199542314526811,-1.4259135060523862,1.041853547036872,0.09466637555587892,0.0007672431607065539,0.0015417230026893848,-1.4040694677781222e-05,0.0007707542054905376,0.0009531986602613014,-0.0018513060353848344,-0.0010385702067837606,-0.3301508128643036,-51.44406509399414,5.513106346130371,17.15705108642578,-1.2324117422103882,-1.1112167835235596,0.026597600430250168,,,,,,,,,
1739355735.1392078,0.3234906652087633,1.1761098706156432,0.32109198435682923,-1.199544256602983,-1.4259094487014206,1.0418524748732627,0.0946722042462873,8.167964536033188e-05,-6.175730088614766e-05,-0.0005972830698902757,-0.0003206001639422275,0.0026995509131931693,-0.0012846211268322538,0.0003421786398991808,-0.3063471019268036,-51.44406509399414,5.536910057067871,17.15705108642578,-1.2388204336166382,-1.1048080921173096,-0.013685601763427258,,,,,,,,,
1739355735.1502073,0.3234897112917495,1.17610988195307,0.32109364839365606,-1.1995444919437308,-1.4259094619262513,1.0418600665117101,0.09466732334420855,-0.0015918543738221358,0.0010142812894842976,0.00028933187185124006,-0.0017876493275564907,0.002126899811963498,-0.00045121197897477475,-0.0020659119868159568,-0.3063471019268036,-51.44406509399414,5.513106346130371,17.15705108642578,-1.2388204336166382,-1.1313583850860596,0.026597600430250168,,,,,,,,,
1739355735.1611269,0.3234889264365416,1.1761081439225958,0.32109746822336693,-1.1995426779440324,-1.4259130243626381,1.0418562476999498,0.09466782060259692,-0.0009259389513398735,-0.000987985191146638,-0.0005944225760705919,-0.0008254161177085521,-0.00037306906994347686,0.00030555462664687717,-0.0026203976533061063,-0.2825433909893036,-51.42026138305664,5.489302635192871,17.13324737548828,-1.2388204336166382,-1.1249496936798096,0.019273381680250168,,,,,,,,,
1739355735.171151,0.32349063896221314,1.1761061714911176,0.32109604922908913,-1.199543453964253,-1.42591361521187,1.0418554190568934,0.0946682478013758,-9.897484853238335e-05,0.00021156514019235364,0.0011617134645570267,-0.0005278666354574615,-0.0007715716946540089,-0.0009115224033596414,6.35720089055115e-05,-0.3063471019268036,-51.39249038696289,5.489302635192871,17.15705108642578,-1.2388204336166382,-1.1176254749298096,-0.0072769103571772575,,,,,,,,,
1739355735.1820936,0.32349066812436134,1.1761088818187242,0.32109821078379625,-1.199542713259444,-1.4259115189222642,1.0418571733132431,0.09467402750524524,3.380523517089516e-05,0.0007970517143354876,0.0015741659409434453,0.001123329226585563,-0.00039269365157909515,-0.0009918134452167947,0.001174135569792263,-0.3063471019268036,-51.42026138305664,5.461531639099121,17.13324737548828,-1.2324117422103882,-1.1176254749298096,-0.020094294100999832,,,,,,,,,
1739355735.1921816,0.3234940902498361,1.1761098815452837,0.32109986866276935,-1.1995401093687568,-1.4259090855505776,1.0418571820821756,0.09467062758253525,0.0009371549006724568,-1.651580501733235e-05,0.001031574333160608,0.0002564511523780245,0.0011670615596065966,0.0003694481719262605,0.0013363353335000489,-0.3539545238018036,-51.44406509399414,5.461531639099121,17.10944366455078,-1.2452291250228882,-1.1176254749298096,-0.027418512850999832,,,,,,,,,
1739355735.2021909,0.3234939852671202,1.1761061754161284,0.3210998613463793,-1.1995441515460457,-1.4259140991902288,1.0418582442088398,0.0946753430756878,0.0007873290627465727,-0.000503418615726755,0.0005700781433838429,-0.001204431661653124,-0.0009658610736447931,8.237774975966114e-06,0.002355144525426924,-0.3539545238018036,-51.39249038696289,5.461531639099121,17.15705108642578,-1.2388204336166382,-1.1249496936798096,-0.04023589566349983,,,,,,,,,
1739355735.2131028,0.3234916690942786,1.1761061714916161,0.32109821035341546,-1.1995377911544896,-1.4259157053770122,1.0418548726216148,0.09467189565162627,0.00010182983579577894,-0.000431378843159486,0.0007123663155268903,0.000851476155906821,-0.0008864296041634076,0.00032309945534789435,0.00041003118108625395,-0.3301508128643036,-51.39249038696289,5.461531639099121,17.08167266845703,-1.2250875234603882,-1.1249496936798096,-0.020094294100999832,,,,,,,,,
1739355735.2241952,0.32348995657132507,1.1761096523648726,0.32109427721286554,-1.1995382150095921,-1.4259108673201526,1.0418589406189962,0.09467126820775382,-0.000998265583356384,-6.347837342209539e-05,-0.001179390484192077,0.0010949292970274017,-1.7724291453812834e-05,-0.0008541617590374117,0.0010364146200981233,-0.3063471019268036,-51.44406509399414,5.513106346130371,17.08167266845703,-1.2388204336166382,-1.1249496936798096,-0.03382720425724983,,,,,,,,,
1739355735.2351766,0.3234905863259819,1.1761108355220395,0.3210975108605999,-1.1995444867837821,-1.4259149498134238,1.0418547040294865,0.09467458528299136,-0.000391539043042478,0.0016800446762943923,0.0006103722745862272,-0.0011240959454530493,-0.0022464944465644624,-0.0020134368668135185,0.0014662852466119963,-0.3063471019268036,-51.44406509399414,5.461531639099121,17.15705108642578,-1.2186788320541382,-1.1249496936798096,-0.03382720425724983,,,,,,,,,
1739355735.2470973,0.3234923777286102,1.1761061714969325,0.3210998717097776,-1.199542368773866,-1.42591524744621,1.0418562476739555,0.09467881496330927,-2.6202445152288082e-05,-0.000706452730301103,0.0002529649077267118,-0.0003639327108327314,-0.00026845252555803326,0.0006862559852359013,0.002044172232394461,-0.3301508128643036,-51.39249038696289,5.461531639099121,17.13324737548828,-1.2250875234603882,-1.1249496936798096,-0.07411040365695953,,,,,,,,,
1739355735.257179,0.3234923777290555,1.1761062774553626,0.3210960220968625,-1.199541653625252,-1.4259146948757657,1.0418563829376202,0.09466799911096285,3.0030902056233104e-05,-0.0004131704863288608,-0.0005674199741466327,0.0007277788512066152,0.0003064162423177392,-0.00015598081940895346,-0.0014046055668361414,-0.3301508128643036,-51.39249038696289,5.489302635192871,17.13324737548828,-1.2324117422103882,-1.1377670764923096,0.012864691205322742,,,,,,,,,
1739355735.26719,0.323492272746389,1.176110961978801,0.32109755363213166,-1.199540461516356,-1.4259132740034217,1.041855759230082,0.09467220049640428,0.00023000890955195415,0.0005853409017389645,0.00046674048757012175,0.00024325928670795724,0.0013911897852128697,-0.0002437119601382955,0.0015230056309051719,-0.3301508128643036,-51.47183609008789,5.489302635192871,17.13324737548828,-1.2324117422103882,-1.1249496936798096,-0.013685601763427258,,,,,,,,,
1739355735.2781472,0.32349409024800885,1.1761098819375888,0.3210961383361938,-1.1995425974519152,-1.425914485594242,1.0418550702623648,0.09467382780966363,0.0008494373345557136,0.00027673911149552746,-2.207798326511079e-05,0.0005364237178750357,-3.2306850794036336e-05,-0.00041076442193215283,0.0014277336490649516,-0.3539545238018036,-51.44406509399414,5.489302635192871,17.13324737548828,-1.2324117422103882,-1.1249496936798096,-0.027418512850999832,,,,,,,,,
1739355735.2882268,0.32349025183005853,1.1761081694324025,0.32109744036159,-1.1995420721829948,-1.4259116765523496,1.0418571340605294,0.09466964465646215,0.0005339517753929741,0.00023283833938808867,3.3784684370569926e-05,-0.0003178272469229532,0.0005061370877193363,0.00026212775950458603,0.000555373248701487,-0.3301508128643036,-51.42026138305664,5.489302635192871,17.15705108642578,-1.2324117422103882,-1.1176254749298096,-0.020094294100999832,,,,,,,,,
1739355735.299166,0.32348903137658996,1.1761081691174666,0.32109847529065866,-1.1995396123565651,-1.4259113470770706,1.041859828954745,0.09467296037696223,-0.00012420044081680882,4.0411536325562666e-05,0.0007584209314632896,0.00039313207003974443,0.0004832180145713632,-0.00019109209458360656,0.0002759744528460161,-0.2825433909893036,-51.42026138305664,5.489302635192871,17.13324737548828,-1.2250875234603882,-1.1313583850860596,-0.020094294100999832,,,,,,,,,
1739355735.309171,0.32349237773038814,1.1761098819531286,0.3210967309626259,-1.1995413961212538,-1.4259140796460263,1.0418581110797667,0.09466830755232973,0.0014080654446223064,0.0008057150108601122,0.0008496775155295935,-0.00017980473908923612,0.0006515648603298073,0.001414419554392296,0.00041608415722919315,-0.3301508128643036,-51.44406509399414,5.513106346130371,17.15705108642578,-1.2388204336166382,-1.1176254749298096,0.019273381680250168,,,,,,,,,
1739355735.320084,0.3234923776930532,1.1761081693974098,0.32109458050957684,-1.199542239796832,-1.4259101468811244,1.0418547503798175,0.09467154023133705,-0.00015484550569824695,8.457373172868602e-05,-0.001217483303996831,-0.0008201219102458369,0.0027099071471729176,-0.0008801942822606203,0.0005333436425072877,-0.3301508128643036,-51.42026138305664,5.513106346130371,17.15705108642578,-1.2324117422103882,-1.1249496936798096,-0.020094294100999832,,,,,,,,,
1739355735.3301668,0.32349237772905487,1.176108169432402,0.32109839652343225,-1.1995404790477124,-1.4259147384590267,1.0418584815003988,0.09466906535076268,-1.756001718556634e-05,0.000331844618781654,0.00015374155211487296,-0.00031544945940313845,-0.001205976111871062,0.00047136995925417313,0.00036659494498413525,-0.3301508128643036,-51.42026138305664,5.489302635192871,17.13324737548828,-1.2324117422103882,-1.1176254749298096,0.012864691205322742,,,,,,,,,
1739355735.3411644,0.32349067266079756,1.1761081694324027,0.3210938845487215,-1.1995444959297328,-1.4259136151755696,1.0418578291673137,0.09467142898643702,-0.00029403301171450694,0.0002724859105229162,0.0014572626166705193,-0.0004769437045856873,-0.0005578959375941198,0.0004867254179774462,0.0012069395969811184,-0.3063471019268036,-51.42026138305664,5.513106346130371,17.15705108642578,-1.2388204336166382,-1.1112167835235596,-0.0072769103571772575,,,,,,,,,
1739355735.3511944,0.3234889526877193,1.1761083172587616,0.321096031701478,-1.1995419701014236,-1.4259122817943943,1.041854716950699,0.0946690522108264,-0.00022142213687615555,-0.00023937078720689421,-5.048271002277817e-05,-0.00034469434251215047,-0.0008787226188849957,-0.001322881699631398,-0.0005180513249072904,-0.2825433909893036,-51.39249038696289,5.489302635192871,17.13324737548828,-1.2452291250228882,-1.1249496936798096,0.012864691205322742,,,,,,,,,
1739355735.3612278,0.32349606194497316,1.1761081694687414,0.3210956576560806,-1.1995423147322604,-1.4259098587537733,1.0418570106684895,0.09467534312966099,0.0014133318238166656,0.0003365553085995168,0.0003227957797958227,-0.00014632403393659532,8.099700494235953e-05,-0.0014519067355913164,0.002570761556254985,-0.3817255198955536,-51.42026138305664,5.513106346130371,17.15705108642578,-1.2388204336166382,-1.1176254749298096,-0.04023589566349983,,,,,,,,,
1739355735.3721356,0.3234905601895074,1.1761061714915497,0.32109599791352517,-1.199537951343071,-1.4259113095359883,1.0418554740636763,0.0946651082822078,-0.0007552903221059719,4.250429693212674e-07,-0.0002527191307131792,0.002100778349764774,0.0011464485872248204,-0.0001872759678670872,-0.001276782922758016,-0.3063471019268036,-51.39249038696289,5.513106346130371,17.10944366455078,-1.2324117422103882,-1.1313583850860596,0.019273381680250168,,,,,,,,,
1739355735.3830905,0.3234940902491939,1.1761061714915497,0.3210945578239985,-1.1995430957635724,-1.4259091025451682,1.0418538855890729,0.09467382827921132,0.0006402482192750392,-0.00041994405718214574,-0.0002533423682246012,-0.00021903757552090616,0.0005495490001588021,-0.00026587476613144153,0.0020967767605471633,-0.3539545238018036,-51.39249038696289,5.513106346130371,17.18085479736328,-1.2452291250228882,-1.1176254749298096,-0.027418512850999832,,,,,,,,,
1739355735.393198,0.3234923777290555,1.176106172472696,0.3210983879905062,-1.1995412772921334,-1.4259108004389862,1.0418596980636594,0.0946697030988606,-2.4554355839282908e-06,-0.0010822574028680934,-0.00016492714044359657,5.581804151260684e-05,0.00032892411395481897,0.0025428440006073313,-0.0004778090243119748,-0.3301508128643036,-51.39249038696289,5.489302635192871,17.15705108642578,-1.2388204336166382,-1.1313583850860596,0.0064559997990727425,,,,,,,,,
1739355735.4032054,0.3234945036280525,1.1761098083671693,0.32109838489298176,-1.1995395328792182,-1.4259130394068047,1.0418563751781562,0.09466982303288618,0.001051529018747081,0.001399967563086643,0.00036125248311838596,0.0007729302247816601,-1.8449248283179835e-05,-0.0005453779095733537,-0.0010412213324843518,-0.3301508128643036,-51.44406509399414,5.489302635192871,17.13324737548828,-1.2388204336166382,-1.1112167835235596,0.0064559997990727425,,,,,,,,,
1739355735.414163,0.3234906652563274,1.1761081694319873,0.32109208999088235,-1.1995412776187921,-1.4259148389892813,1.041854184877447,0.09466956276625663,-1.4661896791183632e-05,0.0011980242606887616,-0.0009341391675378577,0.0008074861380845033,-0.002097962316761832,-0.0019411692455269004,0.0005739226129615066,-0.3063471019268036,-51.42026138305664,5.536910057067871,17.15705108642578,-1.2324117422103882,-1.1176254749298096,-0.027418512850999832,,,,,,,,,
1739355735.425171,0.3234889565758403,1.1761081694324027,0.32109565634975984,-1.1995417198545815,-1.4259101415514495,1.0418570105086484,0.09467144667649507,-0.0002029613716021342,0.0009900620859262716,-0.0008475190689509761,-7.959864564741912e-05,0.0018082172961507079,-0.0007748272296641831,0.0008598669052908251,-0.2825433909893036,-51.42026138305664,5.513106346130371,17.13324737548828,-1.2324117422103882,-1.1176254749298096,-0.0072769103571772575,,,,,,,,,
1739355735.4360883,0.3234920585688104,1.1761082047536735,0.32109671903931014,-1.1995394946270697,-1.4259116367436186,1.0418589491419135,0.09466722829028913,-0.0010311504038598457,0.0003388338856769313,0.00019654527300377102,0.0011531691502834015,0.000612807004124663,0.0002123885897054121,-0.0010292522773308712,-0.3301508128643036,-51.42026138305664,5.513106346130371,17.13324737548828,-1.2324117422103882,-1.1249496936798096,0.019273381680250168,,,,,,,,,
1739355735.446092,0.32348895268218814,1.1761081782633185,0.32109388247336473,-1.19954164038172,-1.4259143421495573,1.0418547020836573,0.09467068891386955,-0.0008219607750581057,-0.00047226132821035524,-0.0005491748219147091,2.882295528943335e-05,7.771947133040569e-05,-0.0024559123744839623,1.5646992717840188e-05,-0.2825433909893036,-51.42026138305664,5.536910057067871,17.13324737548828,-1.2324117422103882,-1.1249496936798096,-0.0008682189509272575,,,,,,,,,
1739355735.4561973,0.3234889293581116,1.1761081694325521,0.32109605225293575,-1.199537711973828,-1.4259116758997057,1.0418551729620127,0.09467486923616467,-0.0006170033175059309,-0.00015897207293928608,-0.0006434505491880356,0.0007752870915946667,-0.001330845149291037,0.0005585620687780458,0.0022232894536276335,-0.2825433909893036,-51.42026138305664,5.489302635192871,17.10944366455078,-1.2324117422103882,-1.1249496936798096,-0.04023589566349983,,,,,,,,,
1739355735.4672403,0.32349521182889235,1.1761080664483676,0.32109435566140504,-1.199543289556808,-1.4259136388293208,1.0418539929928627,0.0946738278070521,0.0007699957109254587,-0.00048503637022241565,-0.0005171895996498936,-0.000477586088967984,0.00021089643883251058,0.0008548061388834659,0.0007328093208057289,-0.3301508128643036,-51.42026138305664,5.513106346130371,17.18085479736328,-1.2324117422103882,-1.1176254749298096,-0.027418512850999832,,,,,,,,,
1739355735.4781096,0.32349066540433435,1.1761118839633462,0.3210966402949678,-1.1995412776198722,-1.4259109145268403,1.0418582301020245,0.09466732166488698,-0.0007919193259900504,0.001503752718157397,0.0008577125407241283,-5.9908942379580305e-06,-0.0006053495986651788,0.0013822832752853884,-0.0004010212482739794,-0.3063471019268036,-51.47183609008789,5.513106346130371,17.15705108642578,-1.2388204336166382,-1.1249496936798096,0.026597600430250168,,,,,,,,,
1739355735.4881747,0.3234937359513233,1.1761074806676874,0.3210956670089854,-1.1995412782726793,-1.4259124254677022,1.0418546996488964,0.09467458546777079,0.00016611322825733915,0.0008277043952134083,0.00019308828674548766,-0.0005228871861219073,-0.0012829991998490938,-0.0010229381496316204,0.0017321982558266215,-0.3063471019268036,-51.42026138305664,5.489302635192871,17.15705108642578,-1.2250875234603882,-1.1249496936798096,-0.03382720425724983,,,,,,,,,
1739355735.4991622,0.3234906655856816,1.1761080928990941,0.32109563995660173,-1.1995394947235298,-1.4259106181359122,1.0418554727536977,0.09467458546980556,-2.91733796053305e-05,-0.0008592771605113398,0.00025855618073309446,-0.0010163913857858726,-0.001150645960535835,0.00158341982783987,0.0013780645805470714,-0.3063471019268036,-51.42026138305664,5.489302635192871,17.13324737548828,-1.2324117422103882,-1.1313583850860596,-0.03382720425724983,,,,,,,,,
1739355735.5101104,0.32349340131005616,1.1761098819527018,0.32109961011834537,-1.1995412772915277,-1.4259134434015943,1.0418538320768822,0.09466830755235574,0.0010484657564423952,0.0016726592228903955,0.001097532283936363,-0.0009756554029222903,-0.0005762981670630572,-0.0013932564663709328,-0.0005822746667316348,-0.3301508128643036,-51.44406509399414,5.461531639099121,17.15705108642578,-1.2324117422103882,-1.1176254749298096,0.019273381680250168,,,,,,,,,
1739355735.520138,0.32349107892794515,1.1761061714915497,0.3210939785830183,-1.1995385408311754,-1.4259140856718984,1.0418548346077467,0.0946698223848546,-0.00043081965881607844,-0.0010931059794345548,-0.000992257305824938,0.0004782487848593623,-0.0010298481738356693,-0.00016734857174035376,-0.0005470414282372467,-0.2825433909893036,-51.39249038696289,5.536910057067871,17.13324737548828,-1.2388204336166382,-1.1249496936798096,0.0064559997990727425,743,771,763,40.522,0,0
1739355735.53021,0.32349237776506357,1.1761082233954554,0.32109625789962204,-1.1995377118123205,-1.425912529266304,1.041854815229391,0.09467219108858096,0.0007051487369405436,-0.0013579919543687336,0.00026427967088985677,0.0012785993624287771,-0.0015610467148506851,1.3130214219081389e-05,0.0015715758966555746,-0.3301508128643036,-51.42026138305664,5.489302635192871,17.10944366455078,-1.2388204336166382,-1.1249496936798096,-0.013685601763427258,740,771,763,40.631,0,0
1739355735.54116,0.3234902519380656,1.1761014902562295,0.32109841931021577,-1.1995409580918925,-1.4259156835110618,1.0418538447287182,0.09466424287244607,-0.00024789153153459637,-0.0019159974693603306,0.000831255496979304,-0.000982056161017346,-0.0011350344686580157,-0.00020707367099995902,0.00029564041162021904,-0.3301508128643036,-51.31711196899414,5.461531639099121,17.15705108642578,-1.2250875234603882,-1.1176254749298096,0.026597600430250168,741,771,763,40.522,0,0
1739355735.5521567,0.32349248269972186,1.1761120277608716,0.32109767905788306,-1.1995430599667445,-1.425913273952109,1.0418547018502238,0.0946671815306993,0.00042612111883255307,0.001205396648141821,-0.0015802064954095244,-0.0015918230974220349,0.0008684983792853437,-5.298121866917493e-05,0.0008507039193957647,-0.3301508128643036,-51.44406509399414,5.489302635192871,17.18085479736328,-1.2324117422103882,-1.1249496936798096,-0.0072769103571772575,741,772,762,40.631,1,0
1739355735.5621965,0.32349308636383217,1.1761044590071579,0.32109458063958524,-1.1995412684612095,-1.4259136352673472,1.041853836599013,0.09467275708872559,0.0001752828582612497,-0.0019426193275936168,-0.0012746608713205686,-0.00029001159531305543,0.0004764048010971481,-0.0011081873218825625,0.0007979631299739552,-0.3301508128643036,-51.36868667602539,5.513106346130371,17.15705108642578,-1.2324117422103882,-1.1176254749298096,-0.027418512850999832,738,774,762,40.631,1,0
1739355735.5731192,0.3234923777330558,1.1761101212596732,0.3210935693732307,-1.1995376762891197,-1.4259105004100596,1.0418558094554653,0.09466795180099229,0.00017023916786892317,1.287396986679191e-05,-0.001330191835328749,0.0012324164677749642,0.0015354982669911884,0.0010223263084276953,-0.0017654993970358083,-0.3301508128643036,-51.42026138305664,5.513106346130371,17.10944366455078,-1.2324117422103882,-1.1249496936798096,0.019273381680250168,739,772,763,40.631,0,0
1739355735.584094,0.3234932900990079,1.1761059537244023,0.32109557687881835,-1.199539482513501,-1.4259157222566716,1.041853073938465,0.0946659263329575,0.0004200891778057636,-0.0005105511788486451,-0.0009285891126433999,-5.188919518648688e-05,0.00017982677479049075,-0.00019998387396727131,-0.0011319194155413198,-0.3063471019268036,-51.39249038696289,5.489302635192871,17.13324737548828,-1.2250875234603882,-1.1112167835235596,0.03941498324275017,739,772,763,40.522,3,0
1739355735.5941627,0.32349237777350826,1.176109007001004,0.3210936474247267,-1.1995428215497623,-1.4259129704623883,1.0418539493298362,0.09466982303491452,-0.0002035330204155269,-0.0002654925250650218,-0.0004368965494648698,-0.00014157840604960356,0.0006150925789883404,0.0010473806536064215,-0.000503834980261792,-0.3301508128643036,-51.39249038696289,5.513106346130371,17.18085479736328,-1.2452291250228882,-1.1176254749298096,0.0064559997990727425,741,772,763,40.522,0,0
1739355735.6051025,0.3234916362979899,1.1761081694484092,0.321097510427828,-1.1995377119361432,-1.4259111245920708,1.0418554552040769,0.09466668464510497,0.0011340315680639023,-0.00017589711645207162,0.0007711459650480197,0.0017035164904584215,-8.921954682828555e-05,-0.0005159039109644163,-0.0014114597442812507,-0.3063471019268036,-51.42026138305664,5.461531639099121,17.10944366455078,-1.2250875234603882,-1.1313583850860596,0.03300629183650017,740,772,763,40.522,0,0
1739355735.6152046,0.32349332258949964,1.1761081697594518,0.32109626186008694,-1.199539960527018,-1.4259093499512638,1.0418538315922672,0.09466830706481902,0.0011819993103488156,0.0005380666248216736,0.00034157089136955377,-0.00071362098218694,0.002384388010321994,3.779343190058273e-06,-0.0009939297260772588,-0.3301508128643036,-51.42026138305664,5.489302635192871,17.18085479736328,-1.2388204336166382,-1.1176254749298096,0.019273381680250168,741,771,763,40.522,2,0
1739355735.6261506,0.32348926893700874,1.1761068826181293,0.32109849296112847,-1.199538779232258,-1.4259111895883032,1.0418538315922663,0.09466981864700884,0.0007087863069261612,-0.0006048217193534608,0.0003345434040749972,0.00024755449690373917,0.000999481226408875,-0.0010191939510228387,0.00016895448612039223,-0.2825433909893036,-51.39249038696289,5.489302635192871,17.13324737548828,-1.2324117422103882,-1.1176254749298096,0.0064559997990727425,741,772,762,40.522,1,0
1739355735.638155,0.3234896612863751,1.176109881957148,0.3210963809030395,-1.1995374646482153,-1.4259102469939942,1.0418546974894989,0.09466890302233641,-0.0006566832042923608,0.0007901425280159007,-0.000569573437692277,0.00128371726389846,0.0013382893481317815,-4.256816816147212e-05,0.0001342149001713227,-0.2825433909893036,-51.44406509399414,5.513106346130371,17.10944366455078,-1.2324117422103882,-1.1249496936798096,0.012864691205322742,741,772,761,40.522,1,0
1739355735.6500888,0.32349066525766074,1.1761061714915497,0.32109669186294726,-1.199537711609975,-1.4259147216617565,1.0418546974894989,0.09467296191218934,-0.00035435971712618217,-0.0014842070136810589,-0.0011820626889704527,-0.0002551838623796206,0.0013639754169949196,-0.000269567165429971,0.0011599614849294414,-0.3063471019268036,-51.39249038696289,5.513106346130371,17.10944366455078,-1.2324117422103882,-1.1249496936798096,-0.020094294100999832,743,771,764,40.740,1,0
1739355735.6601224,0.32349450362805277,1.1761081691174666,0.3210984717322703,-1.1995395122751418,-1.425911717253089,1.0418554943954337,0.09466830132261435,0.00043859049002547743,-0.0005906948734872887,0.0012216048951531387,-1.8511746769737437e-05,-0.0001926427873877858,0.0008748613528792666,-0.0012538450830984762,-0.3301508128643036,-51.42026138305664,5.489302635192871,17.13324737548828,-1.2324117422103882,-1.1313583850860596,0.019273381680250168,739,772,763,40.740,1,0
1739355735.6710973,0.32349067399288217,1.1761061716005605,0.3210926908570051,-1.1995394818599037,-1.4259156777063882,1.0418555787020125,0.09467139377474713,0.00012587856724486642,-0.0006443624326732718,-0.0012375040414014486,0.00014316029541047308,-0.0005086886678678899,0.00034096286823662175,-4.4534537677506784e-05,-0.3063471019268036,-51.39249038696289,5.513106346130371,17.13324737548828,-1.2250875234603882,-1.1313583850860596,-0.0072769103571772575,740,771,758,40.414,1,0
1739355735.6821654,0.3234923767570103,1.1761080678292406,0.32109566634269954,-1.1995390255604783,-1.4259125307693559,1.0418530782930713,0.0946721998643022,-5.601323931135377e-05,-2.3492574188289862e-05,0.0004950511969703232,0.0009427238852511928,-0.0003621856768696936,-5.74317168920398e-07,0.0014722732484226306,-0.3301508128643036,-51.42026138305664,5.489302635192871,17.15705108642578,-1.2250875234603882,-1.1112167835235596,-0.013685601763427258,743,771,763,40.522,1,0
1739355735.692188,0.32349067536095255,1.1761061714898289,0.3210981402113558,-1.199537711899356,-1.4259148431403517,1.0418546974895726,0.09466906537476465,-0.00032622483096483103,-0.0006861342212031646,-0.00021002629140720982,0.0011239157937620518,-0.001003395963181608,0.0003374408245187106,-0.0004766498172468303,-0.3063471019268036,-51.39249038696289,5.489302635192871,17.10944366455078,-1.2324117422103882,-1.1249496936798096,0.012864691205322742,743,771,763,40.631,1,0
1739355735.7022164,0.3234943352095139,1.1761081694324027,0.3210959016792819,-1.1995429535686677,-1.425912119973765,1.0418546974894989,0.09466929648634069,0.0011856384882988932,-0.0004650591780148214,-0.0013647571652804116,-1.4347447543773203e-05,0.00031202208854760384,-9.384857489842907e-05,-0.0017737918052177263,-0.3539545238018036,-51.42026138305664,5.513106346130371,17.18085479736328,-1.2452291250228882,-1.1249496936798096,0.0064559997990727425,743,771,763,40.522,1,0
1739355735.7131848,0.32349066520970715,1.1761125961308705,0.3210956926875204,-1.1995394579844412,-1.42591056109877,1.0418538315922663,0.0946697631269195,-0.0008386064295318559,0.0008859398191223054,0.0002507748432555815,0.0004326725447625552,0.0006386928660770738,-0.000624648171841624,0.0008367373018690976,-0.3063471019268036,-51.47183609008789,5.513106346130371,17.13324737548828,-1.2388204336166382,-1.1176254749298096,-0.020094294100999832,737,771,763,40.631,1,0
1739355735.7241592,0.3234926139400552,1.1761164802597124,0.32109663947446276,-1.1995394946143012,-1.4259109958004081,1.0418539493298362,0.09467384528911756,-0.0009150980288933264,0.0016022211805814788,0.0008137912540297739,-0.0008318309233775622,0.0007389304281354819,-0.00019431031713343033,0.0014504816087528118,-0.3301508128643036,-51.49563980102539,5.513106346130371,17.13324737548828,-1.2250875234603882,-1.1176254749298096,-0.027418512850999832,741,772,763,40.522,0,0
1739355735.7351158,0.3234923861909262,1.176111906401242,0.32109671000828605,-1.1995373223563428,-1.4259125307427567,1.0418546975439986,0.094668276325658,0.000769177053385392,0.001731898083034791,0.00015882637795381022,-0.00020457098337519204,-0.001010036375922787,0.00017889543170221964,-0.0022244951750353564,-0.3301508128643036,-51.47183609008789,5.513106346130371,17.13324737548828,-1.2250875234603882,-1.1249496936798096,0.0064559997990727425,741,771,764,40.522,1,0
1739355735.7461193,0.3234945123766558,1.1761081693275737,0.32109602591706066,-1.199538089534559,-1.4259104318831803,1.0418535428959492,0.09467134279942335,0.001303815486026957,0.0010609425174302391,0.00015064971416246667,0.0018363951725163766,0.0013843835183172182,6.534803890154812e-05,-0.0004649638746429206,-0.3301508128643036,-51.42026138305664,5.489302635192871,17.15705108642578,-1.2388204336166382,-1.1112167835235596,-0.03382720425724983,741,772,762,40.740,1,0
1739355735.7561607,0.32348895272374356,1.1761088805939717,0.321098472554549,-1.1995387527048162,-1.4259133370179635,1.0418557300935607,0.09467144442461824,-0.0010173018044704516,0.00030861742179847133,0.0007749401291263194,0.0010256165402496367,-0.000504068248990539,-0.0006219537111076343,-6.271908550765541e-06,-0.2825433909893036,-51.42026138305664,5.489302635192871,17.13324737548828,-1.2452291250228882,-1.1377670764923096,-0.0072769103571772575,740,772,762,40.522,2,0
1739355735.7671533,0.32349279445553414,1.1761081704175635,0.32109825550252824,-1.199540553201284,-1.4259148380262048,1.0418549086702735,0.09467062837705208,-5.102611377413532e-05,-0.00012154181310663337,0.0011023905938724837,7.236567497414392e-05,-0.0007138223100131298,0.0003127842149528916,0.0007870151102162543,-0.3063471019268036,-51.42026138305664,5.489302635192871,17.15705108642578,-1.2324117422103882,-1.1176254749298096,-0.027418512850999832,738,771,763,40.631,1,0
1739355735.7771652,0.3234923894298552,1.1761118798940036,0.3211002282773988,-1.1995394946022455,-1.4259109029049946,1.041853076050001,0.09467144653804536,0.0005264317712519715,0.0010791928025620618,0.0025243937111004856,0.0004160350574711389,-0.0003219114067496486,-0.00012729384862494744,0.0012768231972159557,-0.3301508128643036,-51.47183609008789,5.437727928161621,17.13324737548828,-1.2388204336166382,-1.1112167835235596,-0.0072769103571772575,739,771,765,40.631,1,0
1739355735.7871673,0.3234906661805842,1.1761061817390788,0.32109743990673045,-1.1995385379967523,-1.4259125438510978,1.0418546974895346,0.09467071827821838,-0.000616075663792667,-0.0013987210440437046,-3.9625280925586966e-05,0.00034476568625598365,-0.000798179135197558,-0.00018664223942053705,0.0006702092582989058,-0.3063471019268036,-51.39249038696289,5.489302635192871,17.13324737548828,-1.2250875234603882,-1.1249496936798096,-0.04023589566349983,739,772,763,40.631,1,0
1739355735.7981615,0.3234927911073268,1.176108170098671,0.32109565639583604,-1.199539096379338,-1.4259133873651397,1.041853073932188,0.09466875626039727,0.00014900144534214804,-0.00019815834484975214,-0.0012439143142918157,0.0001233124463753122,0.00013125825042649945,-0.0008792662544930263,0.0002447187190187278,-0.3063471019268036,-51.42026138305664,5.513106346130371,17.15705108642578,-1.2324117422103882,-1.1112167835235596,0.0064559997990727425,739,771,763,40.631,1,0
1739355735.8100874,0.3234906662283891,1.1761118798939905,0.3210984225833044,-1.1995394141118518,-1.425915232480371,1.0418554551495771,0.09466317465545085,-0.0006830968711733999,0.0003019889532520521,0.0013817646278812092,-7.973991175499608e-05,0.00035980225199995416,-0.00018571510098429147,-0.0009109229088925009,-0.3063471019268036,-51.47183609008789,5.489302635192871,17.13324737548828,-1.2250875234603882,-1.1313583850860596,0.026597600430250168,739,770,764,40.740,0,0
1739355735.8201559,0.3234906655323507,1.1761044590798346,0.32109458940162755,-1.19954091420088,-1.4259107893641219,1.0418538315922663,0.09467066967712064,-0.0012829388634192835,-0.0002773434454271234,0.0002053407431849939,-0.0012150535030322487,0.0008156867463273418,-0.0005186734520169426,-0.00036427559470397785,-0.3063471019268036,-51.36868667602539,5.513106346130371,17.18085479736328,-1.2388204336166382,-1.1176254749298096,-0.0008682189509272575,741,767,764,40.522,1,0
1739355735.8311515,0.3234909801563257,1.1761081695414195,0.321096034617643,-1.1995412772794143,-1.4259161782676184,1.0418538315922663,0.09467214434717228,-2.1276768909291466e-05,0.00026831788286380394,0.0007705585098175382,-0.0007008943347555939,-0.0021437621392093632,8.381713189497831e-05,0.0009314241100679888,-0.3063471019268036,-51.42026138305664,5.489302635192871,17.15705108642578,-1.2122701406478882,-1.1176254749298096,-0.04023589566349983,741,771,764,40.522,1,0
1739355735.841268,0.323492387779027,1.17611187978901,0.3210967190395291,-1.1995394916710687,-1.4259137822462864,1.0418554551495771,0.09467458541563392,0.0010086566453009964,0.0014680601626731425,-8.222123917374705e-05,-6.006466997782597e-05,0.000783025541620346,0.00018745623775004555,0.002085344416965471,-0.3301508128643036,-51.47183609008789,5.513106346130371,17.13324737548828,-1.2324117422103882,-1.1313583850860596,-0.03382720425724983,741,771,764,40.631,1,0
1739355735.8521035,0.32349237819714194,1.1761084078159882,0.32109661129046646,-1.1995376049925133,-1.425912268876079,1.0418554551495771,0.09466976312989157,-0.00011489364588286718,-0.00028172458144844756,-0.0001652641237355615,0.001188682976712331,0.0001451014255257266,0.0007774642145997513,0.0004902566142501181,-0.3301508128643036,-51.42026138305664,5.513106346130371,17.10944366455078,-1.2452291250228882,-1.1313583850860596,-0.020094294100999832,740,771,764,40.631,1,0
1739355735.8621855,0.32349066812451743,1.1761081782667573,0.3210956585839592,-1.1995451397565906,-1.4259128680870803,1.0418546974894989,0.09466982298074565,-0.001526013618933604,0.0005573660586787101,-0.0002209623945869728,-0.0020440005339939817,1.786003899161744e-05,-0.0001731948380046609,-0.001691325230297924,-0.3063471019268036,-51.42026138305664,5.489302635192871,17.20862579345703,-1.2388204336166382,-1.1249496936798096,0.0064559997990727425,739,771,764,40.522,0,0
1739355735.8731172,0.32349269267707154,1.176113519015864,0.32110050207643664,-1.199537110283362,-1.425912542444728,1.0418546974894989,0.09467422441566298,0.00022196285422434973,0.0009734880987299847,0.001529241477161839,0.001379934546986327,-0.001001790459197486,0.00021956320978976633,0.0009276901439188248,-0.3301508128643036,-51.49563980102539,5.461531639099121,17.13324737548828,-1.2250875234603882,-1.1249496936798096,-0.03382720425724983,738,772,763,40.740,1,0
1739355735.8841074,0.32349357945115986,1.1761098937264765,0.3211005436373302,-1.1995363940330188,-1.4259144861952826,1.0418538315922663,0.09467407062027028,0.0009606951038104113,0.0004560520683782282,0.00019497462602014105,0.0008595441118367264,-0.00047108582498076187,8.398776187043083e-05,0.0011589520570790845,-0.3063471019268036,-51.44406509399414,5.461531639099121,17.13324737548828,-1.2324117422103882,-1.1176254749298096,-0.03382720425724983,740,771,765,40.522,1,0
1739355735.8941891,0.32348906656687404,1.1761080900691574,0.3211004650068548,-1.199537072006481,-1.425914856903549,1.0418554546529473,0.09466950569733709,-0.0006199636867713449,-0.0008878120114854382,0.0008522533411954703,0.0005013480255830691,-0.0008869340227719132,0.0006961836565337729,-0.00048491612947949674,-0.2825433909893036,-51.42026138305664,5.461531639099121,17.13324737548828,-1.2324117422103882,-1.1313583850860596,-0.027418512850999832,740,772,764,40.522,2,0
1739355735.9051285,0.32348989753180607,1.176108913561472,0.32109356960109714,-1.199537707669183,-1.4259116720322893,1.041854697489498,0.09466588798560228,-0.0002275574614137593,-0.0009647447824830066,-0.0013521289142456876,0.00042758224429584747,0.00041177705513389707,2.634923114427698e-05,-0.0025444946365734225,-0.2825433909893036,-51.44406509399414,5.513106346130371,17.10944366455078,-1.2324117422103882,-1.1249496936798096,0.026597600430250168,739,772,764,40.522,1,0
1739355735.9151523,0.32349245691408385,1.176107120570783,0.3210957704037349,-1.1995355396792517,-1.425911909155276,1.041854696827326,0.09467061824217753,0.0005664719565444802,0.00012073478096338608,-0.0013797254115254863,0.0006227252576837902,0.00021239648773657628,2.615216943685298e-05,-0.0013673265347158368,-0.3301508128643036,-51.39249038696289,5.513106346130371,17.10944366455078,-1.2452291250228882,-1.1249496936798096,-0.013685601763427258,739,771,764,40.631,2,0
1739355735.9251916,0.3234899276668463,1.176105253154577,0.32109396108629257,-1.1995411889515624,-1.4259164802939304,1.0418532493173775,0.09466925406041919,0.0003226229051375546,-0.0006079640433370428,-0.0007577098394160519,-0.0003689492721032678,-0.0033049098498855326,-0.0006009776946131265,-0.0006196197808860508,-0.2825433909893036,-51.39249038696289,5.536910057067871,17.15705108642578,-1.2186788320541382,-1.1249496936798096,-0.0008682189509272575,741,770,764,40.522,1,0
1739355735.9352,0.3234928698608326,1.1761108537085987,0.32109577033254766,-1.1995412506900618,-1.4259162691271976,1.0418538315677413,0.09466742862962424,-0.00050414273258396,0.0006170945376450317,-0.0013923490204194402,-0.00016354249363919812,-0.003061400924541799,-0.00020762575793264174,-3.501021782516115e-05,-0.3063471019268036,-51.44406509399414,5.513106346130371,17.15705108642578,-1.2324117422103882,-1.1176254749298096,0.026597600430250168,741,771,764,40.522,1,0
1739355735.9471118,0.3234931089839514,1.1761068867527724,0.3210960104429568,-1.1995405342364913,-1.425912829260655,1.041853831592266,0.09467385413708163,0.0008215306516427131,-0.00023449060760037665,-0.0008936176724271722,-0.0002805298568589206,0.0016901105206540998,-0.00032948844005161143,0.002310834575056983,-0.3063471019268036,-51.39249038696289,5.513106346130371,17.15705108642578,-1.2452291250228882,-1.1176254749298096,-0.027418512850999832,738,779,763,40.631,1,0
1739355735.9571915,0.3234909115857639,1.1761059448507651,0.32110047666952624,-1.199535631671035,-1.4259113058424056,1.0418570105066542,0.09466830121441965,0.00027718086840616737,-0.0009379872913655285,0.001622996536982476,0.0021340202479654983,-8.176825120647921e-05,0.000104840687090683,0.00034947004468948123,-0.3063471019268036,-51.39249038696289,5.461531639099121,17.08167266845703,-1.2324117422103882,-1.1176254749298096,0.019273381680250168,742,771,764,40.522,1,0
1739355735.9681952,0.32349137449075527,1.1761061073884054,0.3210967162725412,-1.1995406484426907,-1.425913922878163,1.041855455167522,0.09467063578971037,-0.0004485745174119065,-0.0007623806901982572,0.0006816112026653936,0.00029359070497591026,-0.0008679936660988791,0.0002676360900711267,-0.0003922913309714495,-0.3063471019268036,-51.42026138305664,5.513106346130371,17.13324737548828,-1.2388204336166382,-1.1313583850860596,-0.0008682189509272575,738,772,763,40.631,1,0
1739355735.978206,0.32349241305931004,1.1761098789788114,0.32109597426596614,-1.199541197620175,-1.4259144508943615,1.0418562128096558,0.09467446699547587,0.0011742326745564301,4.313995210516661e-05,6.22480025886714e-05,-0.00034618225530869633,-0.0004993520156790449,0.0004351872378675159,0.0003312990145771708,-0.3301508128643036,-51.44406509399414,5.513106346130371,17.15705108642578,-1.2324117422103882,-1.1377670764923096,-0.03382720425724983,739,772,765,40.631,0,0
1739355735.989107,0.32349409057440565,1.176109881008276,0.3210964790774571,-1.19953771193614,-1.4259136917768438,1.0418538315922663,0.09467296044785352,0.0006782935443324606,1.4138754787011158e-05,7.673458251702255e-05,0.000264177297251417,0.0002995964803362746,-0.0005238544794269716,0.0016750648194329408,-0.3539545238018036,-51.44406509399414,5.513106346130371,17.10944366455078,-1.2388204336166382,-1.1176254749298096,-0.020094294100999832,740,771,764,40.522,1,0
1739355735.999141,0.32349349974032215,1.1761110568413211,0.3210955619182927,-1.199538335487523,-1.4259102477122536,1.0418538315922663,0.0946721867006789,0.0006506505798643598,0.000732292256400569,-0.001088150925227686,0.0011002116418145473,0.001619641368364004,-0.00017271343511919129,0.0010707622984717949,-0.3063471019268036,-51.42026138305664,5.489302635192871,17.15705108642578,-1.2324117422103882,-1.1176254749298096,-0.013685601763427258,740,772,764,40.414,2,0
1739355736.0101051,0.3234906742969015,1.1761128424149205,0.321099636435576,-1.199539415088703,-1.4259111250526635,1.0418530740936935,0.09466818918717025,-0.00032243187094333674,0.002732741808181077,0.0011275762699048608,0.0004090523774015681,-0.0005279670621739156,-0.0010244337609798737,-0.0015734542621553714,-0.3063471019268036,-51.47183609008789,5.461531639099121,17.13324737548828,-1.2250875234603882,-1.1112167835235596,0.019273381680250168,740,770,762,40.631,0,0
1739355736.0201583,0.3234916926777237,1.176108169448703,0.32109636331453123,-1.1995385409388448,-1.4259126863336027,1.0418554551495798,0.0946698170198553,7.890638975700589e-05,-0.0007268179652340182,-0.00011685506858911366,0.0007019219712377687,-0.0007363450949194052,0.000322490136905557,0.0013582151291499226,-0.3063471019268036,-51.42026138305664,5.489302635192871,17.13324737548828,-1.2388204336166382,-1.1313583850860596,0.0064559997990727425,742,770,764,40.631,2,0
1739355736.031077,0.32348895670124717,1.1761103151996148,0.32109629719412464,-1.1995377119213386,-1.425914309944849,1.041853073932188,0.09467153438069636,-0.0011785493927478216,0.0022230950542978995,4.172323708448089e-05,0.0014558479062067773,0.0005801987420095638,-0.000606076860908972,0.0008848841039219382,-0.2825433909893036,-51.42026138305664,5.489302635192871,17.10944366455078,-1.2250875234603882,-1.1112167835235596,-0.020094294100999832,739,771,763,40.740,2,0
1739355736.0410802,0.32349067395690256,1.1761061703529352,0.32110056997900743,-1.1995370043558877,-1.4259156814662113,1.0418546974894989,0.09467292241329313,0.0008738309436943421,-0.0012100838852396767,0.001561081622560481,0.00146351820578417,-0.001027871334263796,0.0001873635451046499,0.0022092251401739224,-0.3063471019268036,-51.39249038696289,5.461531639099121,17.13324737548828,-1.2250875234603882,-1.1249496936798096,-0.020094294100999832,738,772,763,40.522,1,0
1739355736.0511436,0.323491365092916,1.1761081694323834,0.3210949321918279,-1.1995394844338223,-1.4259140469337963,1.0418546974894989,0.09467335391533936,-0.0005913738429193076,-0.0003559036336732174,-0.0012775564666224358,0.001194584706214927,-0.0010519466057112797,-9.053472363767189e-05,0.0006752544965604488,-0.3063471019268036,-51.42026138305664,5.536910057067871,17.13324737548828,-1.2388204336166382,-1.1249496936798096,-0.027418512850999832,738,770,762,40.631,0,0
1739355736.0612319,0.3234889527231509,1.176109887004221,0.32109849797787166,-1.199536678462747,-1.4259102259086416,1.0418538315922663,0.09467239294077961,-0.0011308508617647783,-0.00015596041322820373,0.00043256905086182446,-9.769510345511125e-06,0.0012824687714685008,-0.0004922298429539735,0.0006202368128222206,-0.2825433909893036,-51.44406509399414,5.489302635192871,17.10944366455078,-1.2324117422103882,-1.1176254749298096,-0.027418512850999832,738,770,763,40.740,1,0
1739355736.0721865,0.3234940902857892,1.1761065949400535,0.32109637301513166,-1.199537321005975,-1.425913571597424,1.0418554551495771,0.0946738275849407,-0.000554908972809193,-0.0009918404177187894,-0.00016254461419027083,-0.0008864339581359951,0.0010375881057502056,0.0005052567455870713,-0.0007426703800333745,-0.3539545238018036,-51.36868667602539,5.489302635192871,17.13324737548828,-1.2388204336166382,-1.1313583850860596,-0.027418512850999832,739,771,763,40.631,1,0
1739355736.0831375,0.32348930264181563,1.1761062509684286,0.3211003094629035,-1.1995412741865301,-1.425913974991739,1.0418562128096556,0.0946670863973487,8.402190101686668e-05,-0.00036607482050754654,0.0013909116514364739,-0.00033195979033382844,0.00013904567457552976,0.00010510358072310757,-0.0016614025075821115,-0.2825433909893036,-51.39249038696289,5.461531639099121,17.15705108642578,-1.2388204336166382,-1.1377670764923096,0.026597600430250168,739,771,762,40.631,1,0
1739355736.0941293,0.3234907439512507,1.1761081694337485,0.32109963680758535,-1.199539415141596,-1.4259116780058914,1.0418547498173076,0.09467270888798285,-0.00013641479375798627,0.00025819753759807765,0.0007137122920006958,-0.0005731012687984227,9.96888102096435e-05,0.00015329701505052663,0.0016208994814363433,-0.3063471019268036,-51.42026138305664,5.461531639099121,17.13324737548828,-1.2324117422103882,-1.1249496936798096,-0.027418512850999832,738,772,761,40.631,1,0
1739355736.1050868,0.32348790002291433,1.1761128332533672,0.32109634971989653,-1.199540808237372,-1.4259133415783005,1.0418536706843524,0.09466727047055883,-0.0016141055221240148,0.0009413961517404857,0.0014252593693298513,-0.0025898902092278313,-0.0019482320519137683,-0.0006000664165608144,-0.0021478566266598326,-0.2547723948955536,-51.47183609008789,5.489302635192871,17.18085479736328,-1.2452291250228882,-1.1176254749298096,0.026597600430250168,739,770,763,40.522,1,0
1739355736.1151793,0.32349239048987316,1.1761082404181387,0.32109542233834004,-1.199534572775906,-1.4259148569223836,1.0418530739294631,0.0946668723795527,-0.00036837987161069226,7.630733212356011e-05,-0.00011833670715361832,0.0023211361311820705,-0.0017806114146322303,-0.0007621451775196768,-0.0026389504458020096,-0.3301508128643036,-51.42026138305664,5.489302635192871,17.10944366455078,-1.2324117422103882,-1.1112167835235596,0.019273381680250168,739,771,762,40.522,2,0
1739355736.126159,0.3234927912154002,1.17610642102989,0.32109847139101994,-1.1995363038723037,-1.4259086146029922,1.0418538315922663,0.09467038032325788,9.539377573720178e-05,0.000411003292859535,0.0013212559192824049,0.0011265921017355757,0.0013512444693334932,-3.426142801880012e-05,3.246083924237031e-05,-0.3063471019268036,-51.42026138305664,5.489302635192871,17.13324737548828,-1.2452291250228882,-1.1176254749298096,-0.0072769103571772575,738,771,763,40.522,2,0
1739355736.1361785,0.3234906653163367,1.1761118798051589,0.3211013145049992,-1.1995412768023719,-1.4259157220949432,1.0418546974894989,0.0946744479279496,-0.001231500245939707,0.0011989583457152641,0.000267515854929321,-0.0005149355977825234,-0.0009822971770200172,0.0002729071076443748,0.0018233072820283708,-0.3063471019268036,-51.47183609008789,5.437727928161621,17.15705108642578,-1.2250875234603882,-1.1249496936798096,-0.03382720425724983,739,772,763,40.631,1,0
1739355736.1471415,0.3234879025069241,1.1761121183125658,0.32109363579554473,-1.1995370005282047,-1.4259107458680513,1.0418538315922663,0.09467564140526537,-0.0007507982876814765,0.0014118182178873085,-0.0010077330815022397,0.0012537135705294358,0.0005205957062799273,-0.00013261113501150055,0.0009750422844394109,-0.2547723948955536,-51.47183609008789,5.513106346130371,17.13324737548828,-1.2388204336166382,-1.1176254749298096,-0.020094294100999832,740,772,762,40.522,1,0
1739355736.1581142,0.32349302732367113,1.176102392677812,0.3210941112144879,-1.1995390154079102,-1.4259117526375376,1.0418546974894989,0.09467382782485305,0.0007118695930832497,-0.0016610005300432443,-0.0014771926384843598,-0.00024055214434404783,0.0015339241480327361,8.697293555552512e-05,0.0022712914615699692,-0.3063471019268036,-51.36868667602539,5.536910057067871,17.15705108642578,-1.2452291250228882,-1.1249496936798096,-0.027418512850999832,737,772,761,40.522,2,0
