IITGN-Robotics/Franka_IITGN_ROBOTICS/franka_ros/franka_iitgn/data02/s_b_011.csv
time,fr3_joint1_pos,fr3_joint2_pos,fr3_joint3_pos,fr3_joint4_pos,fr3_joint5_pos,fr3_joint6_pos,fr3_joint7_pos,fr3_joint1_vel,fr3_joint2_vel,fr3_joint3_vel,fr3_joint4_vel,fr3_joint5_vel,fr3_joint6_vel,fr3_joint7_vel,fr3_joint1_eff,fr3_joint2_eff,fr3_joint3_eff,fr3_joint4_eff,fr3_joint5_eff,fr3_joint6_eff,fr3_joint7_eff,flexpin1,flexpin2,flexpin3,Force,ContactMic,ContactMic_gt
1739355633.965555,0.32914542351870746,1.1887518916361053,0.3162955800395307,-1.1796097702668438,-1.426617276645634,1.0309338873151077,0.0929488521956428,2.7776723861726012e-05,-0.00033832264242582044,0.0004911878939020857,0.000249352399268873,-0.0003423878543554859,5.061560633384284e-05,-0.0004742446503581357,-1.079967737197876,-50.85690689086914,4.549056053161621,17.20862579345703,-1.4942525625228882,-0.9601547718048096,-0.03382720425724983,,,,,,,,,
1739355633.976531,0.32914629768495246,1.1887520233266633,0.316296288673863,-1.1796134151300612,-1.4266187301375741,1.030935755846251,0.09294713499320305,0.0006696112499960915,0.00022315894567722077,0.0014105697930858394,-0.001148083722452439,-0.00046970801935882476,0.000714618519623475,0.0004996788587226955,-1.079967737197876,-50.82913589477539,4.549056053161621,17.25623321533203,-1.4805196523666382,-0.9729721546173096,-0.0072769103571772575,,,,,,,,,
1739355633.9875479,0.32914537055295645,1.1887528784839383,0.3162957133121765,-1.1796077699511753,-1.426616512683966,1.030934227446136,0.0929449556760441,0.0008219524887004934,0.0010268630479878368,0.0002490138939026841,0.001154168452258221,-0.0012312962678886477,0.0005704559559069574,0.00015598157280776663,-1.079967737197876,-50.82913589477539,4.572859764099121,17.18085479736328,-1.5006612539291382,-0.9601547718048096,-0.0008682189509272575,,,,,,,,,
1739355633.9984665,0.3291412400386022,1.1887490779424337,0.3162935640717467,-1.179609770703039,-1.4266161526370549,1.0309357363060447,0.09294409040479544,-0.000732638535766587,5.7054931899138436e-05,-0.00038217494077694706,0.0002560232944078754,0.0008252309495095483,0.00020455575081033863,-0.0012339545453205936,-1.052196741104126,-50.80533218383789,4.572859764099121,17.20862579345703,-1.5006612539291382,-0.9729721546173096,0.0064559997990727425,,,,,,,,,
1739355634.0085628,0.32914163354860254,1.188748947533943,0.3162942697845603,-1.179612031809321,-1.4266176810868065,1.0309316655694714,0.09294292920593851,-0.0003366263531044656,-0.0004076309817553286,4.2589471610978834e-05,-0.0007629940409228855,0.00015685163928606013,-0.0004474329622346765,-0.0015549279402724482,-1.028393030166626,-50.80533218383789,4.572859764099121,17.20862579345703,-1.4878438711166382,-0.9473373889923096,0.019273381680250168,,,,,,,,,
1739355634.0195587,0.3291416334416055,1.1887519427999693,0.31629379736651175,-1.1796098497524508,-1.4266172182862977,1.030933482862028,0.09294507412740025,-0.0010402509702882184,0.00010367119006153807,0.00034385250565054776,0.0004987125888287126,0.0008425272334148272,-0.00018485150746974774,0.0007809531666020297,-1.028393030166626,-50.85690689086914,4.572859764099121,17.20862579345703,-1.4942525625228882,-0.9537460803985596,-0.0008682189509272575,,,,,,,,,
1739355634.0314877,0.32913711302249427,1.1887498678707509,0.31629537007553093,-1.1796115529442923,-1.426618545697869,1.030929242861942,0.09294635268332851,-0.002678223511081582,-0.0003924690808551506,0.0010161195650302734,-0.00016320598125519012,-0.0019451093720491994,-0.0013691860738042456,-0.0017432956057299989,-1.004589319229126,-50.82913589477539,4.549056053161621,17.23242950439453,-1.4805196523666382,-0.9537460803985596,-0.013685601763427258,,,,,,,,,
1739355634.041515,0.3291425911673196,1.1887536888743968,0.31629149021836683,-1.1796136988564105,-1.4266204097069075,1.0309303044142035,0.09295123340634502,0.0002619485001504179,0.0016005333197011754,-0.0009082885474446553,-0.0017951805785933828,-0.0018017556661511847,-0.0012308357899688351,0.0021949883451927972,-1.028393030166626,-50.88071060180664,4.600630760192871,17.23242950439453,-1.4677022695541382,-0.9537460803985596,-0.05396880581974983,,,,,,,,,
1739355634.0535686,0.3291375698317209,1.1887461679029263,0.3163195775697348,-1.1796083387202982,-1.426622462416474,1.030915485285409,0.09294333209465708,-0.00158664143418722,-0.0014886716247055126,0.0024409727741867035,-0.0002734520726615489,-0.0012106568673579603,-0.0015041285163208868,-0.0011774163222893286,-0.7546502947807312,-50.90848159790039,4.826766014099121,17.23242950439453,-1.3697408437728882,-1.0260727405548096,0.012864691205322742,,,,,,,,,
1739355634.064553,0.32913751775434374,1.188738067638956,0.3163600393797219,-1.1795996279723224,-1.426623257003054,1.0308668140609205,0.09294456364845438,-0.0007976712434491389,-0.0005559664388831765,0.003040193077111061,0.0003393023152460671,0.0006834324734796845,-0.0030238823295544092,-0.0002592919292141111,-0.5285150408744812,-50.96005630493164,4.981490135192871,17.15705108642578,-1.3495992422103882,-1.0855820178985596,0.0064559997990727425,,,,,,,,,
1739355634.0765707,0.32913890506893234,1.1887275129200303,0.31637752544259223,-1.1795947075892723,-1.4266263565225252,1.0308275177056851,0.09295033524111605,0.0004870353900356865,0.0002990449997315463,0.0008843288546742572,-0.00011203199277263982,-0.0016777693870410316,-0.0019966054839178223,0.00014549875527718268,-0.4571039378643036,-50.96005630493164,5.029097557067871,17.13324737548828,-1.3367818593978882,-1.1048080921173096,-0.0072769103571772575,,,,,,,,,
1739355634.086598,0.3291401841061234,1.188713565004426,0.3163872720061032,-1.1795910645815757,-1.4266216281325177,1.030809963709773,0.09295279314366109,0.00072396106876635,-0.0023224630975574073,0.00047250640941258763,-0.0002678553237326415,-0.0014380256328140489,-9.026206103566586e-05,0.0028476516002374948,-0.4293329417705536,-50.93228530883789,5.056868553161621,17.15705108642578,-1.3367818593978882,-1.1249496936798096,-0.05396880581974983,,,,,,,,,
1739355634.097568,0.32914123139514073,1.1887138117713776,0.3163865626472119,-1.1795867177829604,-1.426622692357318,1.0307992204481875,0.09294809898042658,0.0009228118586054618,0.0003915453225063548,-0.0005349974423581004,-0.0003032880960679163,-0.0014032067652006096,0.0008084244286666585,-0.0009177591377028942,-0.4055292308330536,-51.03543472290039,5.080672264099121,17.15705108642578,-1.3633321523666382,-1.1112167835235596,-0.027418512850999832,,,,,,,,,
1739355634.1085536,0.3291395494879317,1.1887146936967885,0.316390425156384,-1.1795859860465718,-1.4266242025973894,1.0307994371241929,0.09295434878696697,-0.0005866441375294864,-0.0007543575441006445,0.0009719554235440317,0.0007791804041205098,-0.00018660673842419372,1.5063074249612617e-05,0.0015071838396449526,-0.3817255198955536,-51.08700942993164,5.029097557067871,17.18085479736328,-1.3239644765853882,-1.1176254749298096,-0.04023589566349983,,,,,,,,,
1739355634.11949,0.32914329779809487,1.1887200797752118,0.3163915425594112,-1.1795890395621715,-1.4266223518018757,1.0308003008601774,0.09295306239267498,0.0003603698309273944,0.000690447923920754,0.00025056413731465606,-0.0006512390723090626,-0.0015242609105757558,0.00039040238775572107,-0.0005006511513187023,-0.4293329417705536,-51.16238784790039,5.056868553161621,17.23242950439453,-1.3303731679916382,-1.1249496936798096,-0.06037749722599983,,,,,,,,,
1739355634.129526,0.3291423030927656,1.188715495991869,0.31638768057860905,-1.179588558794709,-1.4266208219401115,1.030801816180322,0.09295078431598304,0.00020968633929200606,0.0007771253604632213,-0.0019466999617585921,-0.0010017478819813784,0.000733999294448796,-9.222536912887821e-06,0.0004129809300874687,-0.4055292308330536,-51.13858413696289,5.108443260192871,17.23242950439453,-1.3431905508041382,-1.1377670764923096,-0.020094294100999832,,,,,,,,,
1739355634.1395946,0.3291415889554738,1.1887115216866315,0.31639007858696044,-1.1795846698353194,-1.4266212362017836,1.030800301356795,0.09294607897566987,-4.896099786916893e-05,-0.000427414782891525,-0.0010914187772684,0.0008830451394342524,-0.00036202327346841116,-0.0003406830151817809,0.00023454008632709325,-0.4055292308330536,-51.08700942993164,5.080672264099121,17.18085479736328,-1.3431905508041382,-1.1249496936798096,-0.0008682189509272575,,,,,,,,,
1739355634.15056,0.3291447355152528,1.188707012752069,0.316392886411767,-1.1795832668618136,-1.4266219589789946,1.0307994349629355,0.09294938508262623,0.0021562616490179436,-0.001776227658403027,0.0007565826731207331,0.0011696487550807353,-0.000331500117845467,0.00023667436559299956,0.002092676491586036,-0.4055292308330536,-51.03543472290039,5.080672264099121,17.15705108642578,-1.3367818593978882,-1.1176254749298096,-0.03382720425724983,,,,,,,,,
1739355634.1615903,0.3291402008286314,1.1887107219372932,0.31639476169474146,-1.1795852677889536,-1.42662158978122,1.0307994751899359,0.09295399500077689,0.0012168868657959622,0.00010667195463593414,0.0009606519243955458,0.000455062504512279,0.0007970859450804017,0.00014035862214072103,0.0009725532960731033,-0.3817255198955536,-51.08700942993164,5.056868553161621,17.18085479736328,-1.3367818593978882,-1.1176254749298096,-0.04023589566349983,,,,,,,,,
1739355634.1725886,0.32914200783988923,1.18871149119004,0.31639591394375916,-1.1795869987735714,-1.4266215752394487,1.0307994349631597,0.09294475401725491,0.0005721678396630644,0.00039936986301369995,-0.0011211171058394386,-0.00084315352501703,7.24199699315363e-05,0.0005369252284513251,0.0011813332832483103,-0.3817255198955536,-51.11081314086914,5.056868553161621,17.23242950439453,-1.3367818593978882,-1.1176254749298096,0.012864691205322742,,,,,,,,,
1739355634.1845548,0.3291421069923526,1.1887153436859377,0.31639089923160335,-1.179583266826228,-1.4266223460352816,1.0308003008601654,0.09294922281080892,0.0004587878389117568,0.0017049409196154912,-0.0004843624761640228,0.0011919777859287946,0.0003158584356808705,0.0009777188845604386,0.00030241544406633074,-0.3817255198955536,-51.16238784790039,5.108443260192871,17.15705108642578,-1.3303731679916382,-1.1249496936798096,-0.0008682189509272575,,,,,,,,,
1739355634.1945593,0.32914089483997216,1.1887113679281949,0.3163947616963098,-1.1795898568518492,-1.4266215888059095,1.0308003008601654,0.09295032654972646,0.0007034908613688259,0.0003309488480271244,0.00042398894548405924,-0.0010524899241914501,0.0003438175007884453,0.0006252567959629693,0.001732228433425628,-0.3817255198955536,-51.13858413696289,5.056868553161621,17.23242950439453,-1.3367818593978882,-1.1249496936798096,-0.03382720425724983,,,,,,,,,
1739355634.2054908,0.32914624974114065,1.1887112544294833,0.31639398046321615,-1.179589925441733,-1.4266223464659906,1.0307986756877987,0.09295440583797687,0.0014340352608670514,-0.0007120278808382065,-0.0006181711862987323,-0.0009184314783168402,-0.0006277229861027303,-1.475584678689099e-06,0.0028767386998452666,-0.4293329417705536,-51.13858413696289,5.029097557067871,17.28003692626953,-1.3303731679916382,-1.1112167835235596,-0.04023589566349983,,,,,,,,,
1739355634.2155669,0.3291430357892967,1.1887138163873117,0.31639862411473274,-1.1795880544265445,-1.4266215883214006,1.030798677302827,0.09294965137224567,0.0008392004279911314,-9.607197285716775e-05,0.00047149286028215086,0.0010312783207400758,-0.0001793972432719793,0.00037893539578784505,0.0008511913382927152,-0.3817255198955536,-51.21396255493164,5.005293846130371,17.25623321533203,-1.3367818593978882,-1.1112167835235596,-0.04023589566349983,,,,,,,,,
1739355634.2265244,0.3291361978849872,1.1887108878841677,0.3163929790192904,-1.1795873333943818,-1.4266255250573645,1.030797161498181,0.09294664956761083,-0.0016816131545809208,0.000585909237739779,3.6801022781101674e-05,-0.0011109209672682647,-0.0007531621964094146,-0.00034172594503367504,-0.0011282071552221338,-0.3301508128643036,-51.16238784790039,5.080672264099121,17.20862579345703,-1.3303731679916382,-1.0983994007110596,0.012864691205322742,,,,,,,,,
1739355634.236592,0.32914306155354717,1.1887129628798654,0.31639476212429957,-1.1795852799231905,-1.4266217193562583,1.030797919642768,0.09294495619569448,0.0006359730221386929,0.0012811240120519114,-0.0004693065448563335,0.0005748490381693852,0.00012664878944947182,0.00015723694902051804,-0.0019342198118762694,-0.3817255198955536,-51.16238784790039,5.056868553161621,17.20862579345703,-1.3367818593978882,-1.1048080921173096,-0.0008682189509272575,,,,,,,,,
1739355634.2476137,0.32914082208473483,1.1887044175977455,0.31639781240757336,-1.1795890391030583,-1.4266214705860418,1.0307988880093262,0.0929503271757074,-2.092148364560837e-06,-0.0012120363442818948,0.000991970497427243,-0.0013667173270610264,0.0007274581674869543,0.0010417388149243543,0.0011394080849228263,-0.3817255198955536,-51.08700942993164,5.056868553161621,17.23242950439453,-1.3367818593978882,-1.1249496936798096,-0.03382720425724983,,,,,,,,,
1739355634.2585332,0.32913883323658927,1.188706126140822,0.3163968681727107,-1.1795883422432778,-1.4266208393823943,1.0308007009442246,0.09294952271407737,-0.000572256918355373,-0.0007607928819585537,0.0003278372747758461,0.0004858330384598253,0.00030488813313535605,-0.0004888172576266843,-0.00025079041697380767,-0.3539545238018036,-51.11081314086914,5.056868553161621,17.23242950439453,-1.3431905508041382,-1.1313583850860596,-0.027418512850999832,,,,,,,,,
1739355634.268545,0.329144774521934,1.1887081152514827,0.3163956991366309,-1.1795866697221533,-1.4266197710233326,1.0307975657779884,0.09294923599603416,0.0013474357279436204,0.0002798696071293921,0.0002929028099796281,0.0007637095513319645,0.0015131043675592946,-0.00072701514457655,-0.0009084441254589973,-0.4055292308330536,-51.13858413696289,5.056868553161621,17.20862579345703,-1.3431905508041382,-1.1048080921173096,-0.0008682189509272575,,,,,,,,,
1739355634.2795227,0.32914306203898247,1.188708432997417,0.3163939163222329,-1.1795870412860896,-1.426624767229799,1.030798677300857,0.092945364455509,0.001425748660629252,-0.0002867618260870785,-0.0006726472817348115,2.7445974016670696e-05,-0.0009938483984958562,8.177948817554749e-05,-0.0006938045348220013,-0.3817255198955536,-51.13858413696289,5.080672264099121,17.23242950439453,-1.3367818593978882,-1.1112167835235596,-0.0008682189509272575,,,,,,,,,
1739355634.2895386,0.329142117194984,1.188707399673928,0.31640166654451307,-1.1795869948538573,-1.4266191672824236,1.0307968600046467,0.09294278065578696,-7.769966491918067e-05,-0.0012096854749883586,0.001715375345578335,-0.0005184278128285134,0.0016417667699252562,9.795918779549387e-05,-0.0026736372883760556,-0.3817255198955536,-51.13858413696289,5.005293846130371,17.23242950439453,-1.3303731679916382,-1.1048080921173096,0.026597600430250168,,,,,,,,,
1739355634.300573,0.32913935060000304,1.1887081149202448,0.31639405816795224,-1.1795852677457304,-1.426620072929457,1.030794437290805,0.09294771626766953,-0.0001408495189785475,0.0001313418926293007,-5.823278733939753e-06,-0.00027713971681453745,-0.00046378264168784147,-0.0006834059336886512,0.00024829138385178693,-0.3301508128643036,-51.13858413696289,5.108443260192871,17.18085479736328,-1.3495992422103882,-1.1112167835235596,0.012864691205322742,,,,,,,,,
1739355634.3105748,0.3291410640981131,1.1887118139391548,0.3163947734125286,-1.1795891411773007,-1.426621941534101,1.0307986772310496,0.09295167072885704,-0.0003172763207096909,0.0007274715589700085,-0.0007481810854059068,-0.0005056028711774689,0.0001116280072472273,0.002420320737201621,0.0005739804300688446,-0.3539545238018036,-51.19015884399414,5.056868553161621,17.23242950439453,-1.3367818593978882,-1.1112167835235596,-0.020094294100999832,,,,,,,,,
1739355634.320575,0.32914082691506824,1.1887069667489158,0.31639759573793097,-1.179588132367785,-1.426621605931483,1.030794421307733,0.09295311795838156,-0.0005775289544599487,-5.971098422241823e-05,0.0005665601275797712,7.338460928002114e-05,0.00014302890553473288,0.00024252126560086144,0.002484414789021928,-0.3539545238018036,-51.16238784790039,5.056868553161621,17.25623321533203,-1.3367818593978882,-1.1112167835235596,-0.03382720425724983,,,,,,,,,
1739355634.3305826,0.3291409849250856,1.1887057979533782,0.31639511141196675,-1.1795889119618657,-1.4266223472738138,1.030799376102825,0.09295061233176953,-0.000473347366754507,0.00046811845949440754,-0.0009703235786789763,-0.00021812460077309212,8.189099868942822e-05,0.0015068366978545022,0.0006256959415605784,-0.3539545238018036,-51.11081314086914,5.056868553161621,17.23242950439453,-1.3303731679916382,-1.1176254749298096,-0.04756011441349983,,,,,,,,,
1739355634.3415394,0.3291392727319447,1.188707131450385,0.3163958408301371,-1.1795891378168812,-1.4266223401672773,1.0307955462969782,0.09295133930466229,-0.0005292305252723794,0.00019268048247969547,0.00018287730107178,-0.00039334009760680274,0.0005670413373631399,-0.0011960279155111236,0.00020944461320440661,-0.3301508128643036,-51.13858413696289,5.056868553161621,17.23242950439453,-1.3303731679916382,-1.1249496936798096,-0.027418512850999832,,,,,,,,,
1739355634.3525085,0.32914106409768457,1.1887052542228302,0.3163961380537227,-1.1795849596338046,-1.426619469045101,1.0307944385619918,0.09294885432063546,-0.00020594687637043757,0.0004951494091287144,-0.000500245732347886,0.0011373980185904152,0.000472466122589495,-0.0005972924354447243,-0.0010881075230727236,-0.3539545238018036,-51.13858413696289,5.080672264099121,17.20862579345703,-1.3367818593978882,-1.1112167835235596,-0.03382720425724983,,,,,,,,,
1739355634.362541,0.32914377729472,1.188704906854101,0.31639613806546363,-1.1795888061191722,-1.4266223415849302,1.0307975720483673,0.09294810769329585,0.0008224725644897696,-0.0014357364370012286,-3.358238127859625e-07,-0.00025770843645266995,-2.0894511476661406e-05,0.001715016194785421,-0.0015333489050394127,-0.3817255198955536,-51.13858413696289,5.080672264099121,17.20862579345703,-1.3303731679916382,-1.1112167835235596,-0.027418512850999832,,,,,,,,,
1739355634.3735542,0.32914106704560653,1.1887058502748895,0.3164000005686772,-1.1795882114949257,-1.426621286343317,1.0307942109300017,0.0929509546136268,-0.0005847428422241508,-0.00022418592499613243,0.0007564034825276063,6.527331187132089e-05,0.0007569493675156454,0.0004525046378371414,0.0008250697079359389,-0.3539545238018036,-51.13858413696289,5.029097557067871,17.23242950439453,-1.3303731679916382,-1.1048080921173096,-0.020094294100999832,,,,,,,,,
1739355634.3836052,0.3291386337638664,1.188708764716073,0.3163959007451233,-1.179587071508074,-1.4266221765441696,1.030798712066939,0.09295460338100295,-0.0014240217306125806,0.0005736962067612087,-0.0005933909790116468,0.00010236780341984234,0.0005806424607358826,0.0008752449615096239,0.0012218879330467237,-0.3301508128643036,-51.16238784790039,5.080672264099121,17.23242950439453,-1.3303731679916382,-1.1249496936798096,-0.05396880581974983,,,,,,,,,
1739355634.3946085,0.32914306171091,1.188706930113648,0.31639792059847993,-1.1795873589087034,-1.4266205286823068,1.0307947189371083,0.09294426675258617,0.0005623966519357736,0.0007197852317785124,2.8853501466656668e-05,0.0008082059205510717,-0.00012859065012663312,0.0006762665566911107,-0.002151513098844712,-0.3817255198955536,-51.16238784790039,5.056868553161621,17.20862579345703,-1.3367818593978882,-1.1176254749298096,0.0064559997990727425,,,,,,,,,
1739355634.4054947,0.3291413142904639,1.1887046791148717,0.3163979207424821,-1.1795873588154104,-1.4266216435503203,1.0307955324888787,0.09295083263085774,-1.2957265681474777e-06,4.346383027096732e-05,-0.0005482800919449275,-0.0001514138909304494,-0.00017475434777648697,-0.00027767138122199435,0.0008035103206786617,-0.3539545238018036,-51.13858413696289,5.056868553161621,17.20862579345703,-1.3367818593978882,-1.1249496936798096,-0.04756011441349983,,,,,,,,,
1739355634.415497,0.32914106410236665,1.188704896596832,0.31640000053233847,-1.1795889120091452,-1.4266231036424846,1.0307989051438682,0.09295100815209464,-0.00042711784958467434,0.0008617784510038181,0.00013361439148559397,0.00024715409328501337,-0.0006896021485979105,0.00033139013705913296,0.00024065002127250385,-0.3539545238018036,-51.13858413696289,5.029097557067871,17.23242950439453,-1.3239644765853882,-1.1176254749298096,-0.04756011441349983,,,,,,,,,
1739355634.425572,0.329145934835689,1.1887048956557076,0.31639792042149056,-1.1795906936324916,-1.4266215883213926,1.0307973898954916,0.09294813419221992,0.0007504225882206507,-0.0014507839210053468,-0.0008683353253990428,0.00013394703619345718,0.0003147131628633206,0.0008826162282658434,-0.0008108466748050892,-0.3817255198955536,-51.13858413696289,5.056868553161621,17.25623321533203,-1.3367818593978882,-1.1048080921173096,-0.027418512850999832,,,,,,,,,
1739355634.4365082,0.32913843324057,1.1887048966005098,0.316396138065462,-1.1795891412461774,-1.4266208301767975,1.0307931514566266,0.0929495752038685,-0.0008672768177043066,0.00013790936991729593,-0.0006985837042193269,-0.0004203040824990336,0.0005090769739308696,-0.0003093689263065603,-3.999434729294669e-05,-0.3301508128643036,-51.13858413696289,5.080672264099121,17.23242950439453,-1.3431905508041382,-1.1048080921173096,-0.027418512850999832,,,,,,,,,
1739355634.4465208,0.3291410641915938,1.1887039782474698,0.31640095420665487,-1.1795891414924236,-1.4266209332921291,1.0307946665913539,0.09294974044346067,-0.000201979077469977,-0.0005124794509620756,0.0012749896761190737,-0.00020605448428200838,0.0009799391439430417,0.00048553761403836055,9.378027909731006e-05,-0.3539545238018036,-51.13858413696289,5.029097557067871,17.23242950439453,-1.3303731679916382,-1.1176254749298096,-0.0008682189509272575,,,,,,,,,
1739355634.4565804,0.32914306203898425,1.1887028302906106,0.31639614200620003,-1.1795882231393824,-1.426622222405776,1.0307955324885834,0.09295039284977921,0.0009974417051553343,-0.0003987524981206713,-0.0009782587258343692,0.0004668478375311323,0.00015111947163265406,0.00016738162352429353,-0.0009213456762908728,-0.3817255198955536,-51.13858413696289,5.080672264099121,17.23242950439453,-1.3303731679916382,-1.1249496936798096,-0.0072769103571772575,,,,,,,,,
1739355634.4675498,0.3291393605530712,1.1887090627387362,0.3163979207788439,-1.1795902099596587,-1.4266208306606167,1.0307931556318446,0.09294932632644544,-0.0005945822949763198,0.0013336372188272891,-0.00012149050568921261,0.0008457122699999566,0.0007867477611426274,-0.0008438899029094262,0.0005753505688879952,-0.3301508128643036,-51.16238784790039,5.056868553161621,17.25623321533203,-1.3431905508041382,-1.1048080921173096,-0.03382720425724983,,,,,,,,,
1739355634.478578,0.3291410728924958,1.1887008295447379,0.3163940582756085,-1.1795915365420973,-1.4266223328995187,1.0307963301856067,0.09294441590982047,-0.0005903356415525152,-0.0006457381091192942,-0.001627926426503455,-0.0015294922223994308,0.0007276116387501585,0.0001276326550463604,-0.000860619808665554,-0.3539545238018036,-51.11081314086914,5.108443260192871,17.25623321533203,-1.3303731679916382,-1.1048080921173096,0.012864691205322742,,,,,,,,,
1739355634.4895751,0.32914185882677627,1.188702895813559,0.3164002739511962,-1.1795869987770917,-1.4266214710682654,1.0307950198220055,0.09295474079652319,-0.0005340641519240845,-0.0010680139656200015,0.0015403332709383692,2.247584279117476e-05,0.00021530426404392663,0.0011356278923247884,0.0034507039133718277,-0.3539545238018036,-51.11081314086914,5.029097557067871,17.23242950439453,-1.3367818593978882,-1.1176254749298096,-0.04756011441349983,,,,,,,,,
1739355634.5005677,0.3291459240475646,1.1887028722050317,0.3163961380670073,-1.1795873321037496,-1.4266223459808092,1.0307939089332665,0.09294542978644975,0.0022455364421432025,-0.0007900033948830621,-0.0005850423869676522,0.00035251734119556117,-0.0003181176367291697,-1.4580922017575644e-05,8.015562429791539e-06,-0.3817255198955536,-51.11081314086914,5.080672264099121,17.20862579345703,-1.3303731679916382,-1.1112167835235596,-0.0008682189509272575,,,,,,,,,
1739355634.5114975,0.32914478340618775,1.1887048929301516,0.3164010340065634,-1.1795908949852385,-1.4266223461429766,1.030794666106834,0.09294333231402024,0.0013776076748362794,0.000984199385789484,0.00164183214291035,-0.0011726919156369055,-0.0002427714753367546,0.00032065147914094706,-0.003277317615664546,-0.4055292308330536,-51.13858413696289,5.029097557067871,17.25623321533203,-1.3303731679916382,-1.1176254749298096,0.012864691205322742,,,,,,,,,
1739355634.5224931,0.32914109353257204,1.1886988023891845,0.31640034492056446,-1.1795903304450803,-1.4266215863833265,1.0307946665913479,0.09294679929140083,-0.000638948692159317,-0.0018291965641785471,0.0007775041420477568,-7.905639223818733e-06,0.0009192466104935446,0.00018392381352375404,-0.00013444926670964344,-0.3539545238018036,-51.08700942993164,5.029097557067871,17.28003692626953,-1.3367818593978882,-1.1176254749298096,-0.0072769103571772575,,,,,,,,,
1739355634.5325208,0.329140394863586,1.1887042037011957,0.3163986449433865,-1.1795909242341809,-1.4266215926820105,1.0307955324885831,0.09294684388445541,0.00037796844983436747,-0.00020827443775468959,-5.4346129835880245e-05,-0.0012870815992541776,0.0002756041852162819,0.00027683670415563476,-0.00180602776219031,-0.3301508128643036,-51.13858413696289,5.056868553161621,17.25623321533203,-1.3367818593978882,-1.1249496936798096,0.019273381680250168,,,,,,,,,
1739355634.54359,0.32914117006783195,1.1887065042436848,0.3163980296538232,-1.1795865643371468,-1.4266216014033695,1.0307939089312723,0.09295329342344763,0.0003518498067579097,0.0008734055011820382,-0.0001540925292285577,0.0009177090437659845,-0.0005156425361292366,7.721976276322466e-05,0.0019300697160204898,-0.3539545238018036,-51.16238784790039,5.056868553161621,17.20862579345703,-1.3367818593978882,-1.1112167835235596,-0.03382720425724983,,,,,,,,,
1739355634.554553,0.32914392512167706,1.1887028608667638,0.3163979570455151,-1.1795827736711693,-1.4266231031571064,1.0307939084467557,0.09294821198994911,0.0009945917661065152,-0.0008103798808166139,8.454189926211824e-05,0.0024531547306879467,-0.0008236345498929267,0.0002624782366120608,-0.00033615555993883877,-0.3539545238018036,-51.11081314086914,5.056868553161621,17.15705108642578,-1.3239644765853882,-1.1112167835235596,-0.0008682189509272575,,,,,,,,,
1739355634.565616,0.3291447746122032,1.1887100890495483,0.3163990788885265,-1.1795891293108285,-1.4266265845339856,1.0307931512711912,0.09294922669672086,0.0013854553345634649,0.0021935432375203017,0.000761029592003648,-0.0008551308096466378,-0.0012415136378293942,-0.000996803388005631,-0.0014076998309486834,-0.4055292308330536,-51.21396255493164,5.080672264099121,17.23242950439453,-1.3303731679916382,-1.1048080921173096,-0.03382720425724983,,,,,,,,,
1739355634.5765681,0.32914307090563943,1.188703944093121,0.31639616860662,-1.1795881211000874,-1.4266202147403368,1.0307931512711939,0.09295271499541927,0.0006015835729485306,0.0004307186910522939,-0.0009772923860474278,0.00029117092496232645,0.0003668108369486656,-0.00021048114791653977,0.00045448801363885764,-0.3817255198955536,-51.13858413696289,5.080672264099121,17.23242950439453,-1.3367818593978882,-1.1048080921173096,-0.027418512850999832,,,,,,,,,
1739355634.587514,0.3291376658748194,1.188702800686059,0.31640111273934035,-1.1795944045784936,-1.4266237588090485,1.0307939089312723,0.09294580923698352,-0.0008680207147366283,-0.00025363394558789083,0.0003635515634767279,-0.0018944901824632892,-0.0006991754716077708,-2.9993589297711983e-05,-0.0028533821228852166,-0.3063471019268036,-51.13858413696289,5.056868553161621,17.30384063720703,-1.3303731679916382,-1.1112167835235596,-0.020094294100999832,,,,,,,,,
1739355634.5984879,0.3291430620753719,1.188709396980039,0.31640286497713704,-1.1795891292797556,-1.4266208306639727,1.0307939089312723,0.09294923977925061,0.0008690243652786844,0.0012234174866569182,0.0005832243591292106,-0.0004094026414108721,-0.0001920866434264877,-0.00016335509538469194,-0.00031456721569877386,-0.3817255198955536,-51.21396255493164,5.029097557067871,17.23242950439453,-1.3431905508041382,-1.1112167835235596,-0.0008682189509272575,,,,,,,,,
1739355634.6085653,0.3291410670415695,1.1887028189528468,0.3163964947061876,-1.1795887474373703,-1.4266216014033448,1.0307955324885831,0.09295166261876397,-0.0002849803762535411,-0.0002592247509662804,-0.0005539471992175424,-0.0008348955802362478,-8.318297906788284e-05,0.0003231545775321265,0.0009262006314364138,-0.3539545238018036,-51.13858413696289,5.080672264099121,17.25623321533203,-1.3367818593978882,-1.1249496936798096,-0.027418512850999832,,,,,,,,,
1739355634.6195662,0.3291448108621479,1.1886998030031326,0.31639935637307676,-1.179590923947203,-1.4266204769641615,1.0307939089312723,0.09295045086974968,0.000988751891333456,-0.0024210620800554066,0.0005861071060912679,-0.0008605140722874524,0.0008790161468584883,3.989337039784325e-05,0.0013913241049446198,-0.4055292308330536,-51.11081314086914,5.080672264099121,17.25623321533203,-1.3431905508041382,-1.1112167835235596,-0.03382720425724983,,,,,,,,,
1739355634.6295683,0.3291393525603892,1.1887015700782921,0.31639900252240805,-1.1795889025610535,-1.4266184093890348,1.0307907256562336,0.09295085026269917,-0.0012364200056991664,-0.001985350766778098,-0.0007510635403985,0.0011895729313050165,0.0011061613211177884,-0.001008381533128126,0.0014970285107152896,-0.3301508128643036,-51.13858413696289,5.080672264099121,17.23242950439453,-1.3367818593978882,-1.1112167835235596,-0.04756011441349983,,,,,,,,,
1739355634.6414883,0.32914255709175777,1.1887064955864322,0.3163980270871863,-1.17959246566345,-1.4266208306553325,1.0307946098969012,0.09294973415323422,0.0013942054824552018,0.0016172082523596273,-1.6562042572212704e-06,-6.588262719064129e-05,-0.0003365457845113025,-0.0006580517301461352,0.0013426170144643077,-0.3301508128643036,-51.16238784790039,5.056868553161621,17.28003692626953,-1.3431905508041382,-1.1176254749298096,-0.0008682189509272575,,,,,,,,,
1739355634.6515372,0.3291452078242898,1.1887035101164882,0.31639891017473565,-1.1795860803142493,-1.426621588159887,1.0307939089309524,0.09295104488406308,0.0017078652492227091,-0.00031128731409338204,0.0006075433694694957,0.0012228317362280767,0.0009360111111281408,9.786860222518009e-05,0.001845668362339093,-0.3817255198955536,-51.16238784790039,5.056868553161621,17.23242950439453,-1.3367818593978882,-1.1112167835235596,-0.04023589566349983,,,,,,,,,
1739355634.6634984,0.3291441040285895,1.1887055760090657,0.3163989876993723,-1.1795870752857749,-1.4266230643956916,1.0307939089312723,0.0929433716480728,0.0013935122805701326,0.0010693905938996672,0.0004892459892413753,-5.8796562506255724e-05,8.8399766916522e-05,-0.0006237668457175624,-0.0025327071121995478,-0.3817255198955536,-51.16238784790039,5.056868553161621,17.23242950439453,-1.3239644765853882,-1.1112167835235596,0.012864691205322742,,,,,,,,,
1739355634.673541,0.32914320699137717,1.1887004880295753,0.3163992507403224,-1.179590921393347,-1.4266208306610928,1.0307931512711939,0.09294885657775179,-0.00042043830441608644,-0.001329570783103636,-0.0013700291009790552,-0.000885312424566543,-0.00043003287986350514,-0.00028128343226231596,0.0007555497280814686,-0.3539545238018036,-51.11081314086914,5.080672264099121,17.25623321533203,-1.3431905508041382,-1.1048080921173096,-0.03382720425724983,,,,,,,,,
1739355634.683576,0.3291393516862687,1.1887035097147134,0.31639440706777505,-1.1795870639652177,-1.4266246473119104,1.0307946665913506,0.09295278672553672,-0.0012469238946186596,-0.0011845291145767638,-0.0011349874272289647,-0.00016264288990614108,-0.00191493658670136,0.0004122656752491933,0.0024954528237728173,-0.3301508128643036,-51.16238784790039,5.108443260192871,17.23242950439453,-1.3239644765853882,-1.1176254749298096,-0.05396880581974983,,,,,,,,,
1739355634.6945176,0.32914141731084,1.188703510624526,0.31639925073626834,-1.1795886241809401,-1.4266215868227212,1.030792784976532,0.09294730382251622,-0.0001306516552492266,0.00013700789823709045,-0.0009537529075917414,0.00011401148818907227,-0.00035576198962931855,-0.0007358246048965892,-0.000719927446568353,-0.3539545238018036,-51.16238784790039,5.080672264099121,17.25623321533203,-1.3367818593978882,-1.1048080921173096,0.0064559997990727425,,,,,,,,,
1739355634.7045555,0.3291410641001235,1.1887018774676434,0.3164029794557837,-1.1795902350417518,-1.4266215883213842,1.0307914862213448,0.09295159906870805,-0.0006640695957318464,0.00014734745526642312,0.0006677227286322406,-0.0007797336264685116,-0.0006678090764309582,-0.0005407324232406452,0.0014146775224849798,-0.3539545238018036,-51.13858413696289,5.029097557067871,17.25623321533203,-1.3367818593978882,-1.1176254749298096,-0.04756011441349983,,,,,,,,,
1739355634.7145572,0.3291410670415689,1.1887035862104987,0.3163995919420751,-1.1795891387513129,-1.4266201253290447,1.030793908715907,0.09295039382586878,-0.0005866242068629102,0.0006564198336395379,0.00022543864088754259,-0.00041879539903051443,0.0007830691924144886,0.00048017663157550405,0.0013827911706089254,-0.3539545238018036,-51.16238784790039,5.080672264099121,17.23242950439453,-1.3495992422103882,-1.1112167835235596,-0.03382720425724983,,,,,,,,,
1739355634.7255528,0.32914592404309495,1.1887017981042267,0.316397276927754,-1.1795863750955853,-1.4266223474353166,1.0307939089312712,0.09295235958171853,0.0006224310830209275,-0.0009309053778836351,-0.0009324757888462792,0.001104750818409444,0.0007494939322178111,0.0002503708991891655,0.0014503396786004863,-0.3817255198955536,-51.13858413696289,5.108443260192871,17.23242950439453,-1.3303731679916382,-1.1112167835235596,-0.027418512850999832,,,,,,,,,
1739355634.7364845,0.3291432364087896,1.18869980299737,0.31640113942930304,-1.1795909201296508,-1.426622306574117,1.0307954932427266,0.09294582595039746,-0.0005215548145765181,-0.0014332779889105912,5.501623601465266e-06,-0.000845839045634936,0.001072101970599167,0.000973398528706247,-0.0014069028528510502,-0.3539545238018036,-51.11081314086914,5.056868553161621,17.25623321533203,-1.3303731679916382,-1.1249496936798096,0.019273381680250168,,,,,,,,,
1739355634.7465572,0.3291432099021298,1.1887035682215183,0.31639721094907036,-1.1795843352676112,-1.426620170140202,1.030794666590686,0.09294577236005323,0.0004547690294386888,-0.00046153048528708974,0.0001596994357901894,0.001859980291228858,0.0008919803482404395,0.0005373754384331824,-0.000686184603301795,-0.3539545238018036,-51.16238784790039,5.080672264099121,17.18085479736328,-1.3367818593978882,-1.1176254749298096,-0.0072769103571772575,,,,,,,,,
1739355634.7565973,0.3291452344425035,1.1887017971599783,0.31639935667994296,-1.1795872444776991,-1.4266231225136854,1.0307946659453284,0.0929497814665344,0.0010082636925671795,-0.0012987991659213658,-0.0007161526111024225,0.0005414341339257211,-0.00015826971916646146,0.0011303335543444697,0.001697691928325868,-0.3817255198955536,-51.13858413696289,5.080672264099121,17.20862579345703,-1.3239644765853882,-1.1176254749298096,-0.04023589566349983,,,,,,,,,
1739355634.7685943,0.32914306205124594,1.188703871956608,0.3163993302253283,-1.1795828698353619,-1.4266223459815777,1.030793908769763,0.09295090331395521,-3.8386914476457186e-05,0.000612037806754526,-0.00029995926376499106,0.0037400277445666244,0.0006668882570025107,-0.0005752896033284471,-0.00037746383148427317,-0.3817255198955536,-51.13858413696289,5.080672264099121,17.18085479736328,-1.3303731679916382,-1.1112167835235596,-0.020094294100999832,,,,,,,,,
1739355634.7795491,0.32914114389803817,1.1887015927573878,0.31640114036531264,-1.1795861536561467,-1.4266215881060518,1.0307920914177235,0.09294922657094994,-0.0006418661838150081,3.227522955456596e-05,0.0005811767755420634,0.001076849376152845,0.00020232207764145528,-0.0005994762865897472,-0.0014607363172114197,-0.3539545238018036,-51.13858413696289,5.056868553161621,17.23242950439453,-1.3367818593978882,-1.1048080921173096,-0.0008682189509272575,,,,,,,,,
1739355634.7896073,0.3291418176199286,1.1887031574443947,0.31639935963248333,-1.1795867680849867,-1.4266231559693545,1.0307956084739613,0.0929470113288352,0.0007678222088234939,0.0003598129736027808,-0.00071633179951316,0.0006782818346287563,0.000315711900362761,0.00027328918165897434,-0.0012103946115913124,-0.3539545238018036,-51.19015884399414,5.080672264099121,17.23242950439453,-1.3239644765853882,-1.1176254749298096,0.019273381680250168,,,,,,,,,
1739355634.8004954,0.32913935190870086,1.1887017980541892,0.316401140365379,-1.1795872822375986,-1.4266181468366113,1.0307939089365894,0.09294647121385756,-0.0013319177692653666,5.063513527776243e-05,-0.0003116535864608008,-0.0004226204667484543,0.0005946132042758669,0.0004858284483600143,-0.00022853124935183882,-0.3301508128643036,-51.13858413696289,5.056868553161621,17.20862579345703,-1.3303731679916382,-1.1112167835235596,-0.013685601763427258,,,,,,,,,
1739355634.810591,0.329142292509278,1.1887035099946692,0.3164032074094158,-1.1795891292086313,-1.4266215882502797,1.030793151271194,0.09294827215843655,0.00013398703372718984,0.0002919962599347264,0.0005721622546576204,-0.00043679026780089187,0.0001346460381148936,0.0002608144925534986,-0.00032044852716593523,-0.3301508128643036,-51.16238784790039,5.029097557067871,17.23242950439453,-1.3367818593978882,-1.1048080921173096,-0.027418512850999832,,,,,,,,,
1739355634.8206837,0.3291452079556094,1.18870354369281,0.31640321950657874,-1.179588821131947,-1.4266231036415458,1.0307903768041746,0.09295027534243998,0.0010633734452348393,0.00023713333828780488,0.0007943302305479189,5.4976044094415385e-05,-0.00028941706086118906,-0.0006375701021960238,0.0008012685924597581,-0.3817255198955536,-51.16238784790039,5.029097557067871,17.25623321533203,-1.3239644765853882,-1.1112167835235596,-0.03382720425724983,,,,,,,,,
1739355634.8325298,0.32913935202961436,1.1887064259736808,0.3163993478859646,-1.1795900058007815,-1.42662375883231,1.0307938958247287,0.09295206413861898,-0.00033844283606616606,0.001784946453020972,-0.0007608718889449551,0.0009872150044684543,-0.0018380553373581329,-1.5248563697212836e-05,-0.00036039263711879236,-0.3301508128643036,-51.19015884399414,5.080672264099121,17.25623321533203,-1.3303731679916382,-1.1112167835235596,-0.03382720425724983,,,,,,,,,
1739355634.842532,0.3291376785215684,1.1886997991869794,0.3163972769263763,-1.17958883533457,-1.4266235615178524,1.0307941544570733,0.09295231306641304,-0.0016510921117592618,-0.0015410123143441735,-0.0018509267886170305,0.0002922856934562679,1.9236577633039386e-05,-0.0006208357497975735,0.0008455712066578664,-0.3063471019268036,-51.11081314086914,5.108443260192871,17.23242950439453,-1.3239644765853882,-1.1176254749298096,-0.05396880581974983,,,,,,,,,
1739355634.8525739,0.32913835736552843,1.1887035096797176,0.31640321918315634,-1.1795881467097558,-1.4266223374294293,1.0307934379723196,0.09294918031049626,-0.0013965764804131564,0.0005373654534421437,0.00029867989794709173,0.0013812356534619937,-0.0015005610215760709,-0.0006493144222432943,0.0007536153548264059,-0.3063471019268036,-51.16238784790039,5.029097557067871,17.23242950439453,-1.3303731679916382,-1.1112167835235596,-0.027418512850999832,,,,,,,,,
1739355634.8634834,0.3291410650833309,1.18870179999341,0.3164021912482777,-1.1795884410344086,-1.4266211293598667,1.030794666588692,0.09294891860137808,-2.851007933184186e-05,-0.0010450067876634542,1.3461659681447908e-05,0.0010690274068682,0.0009282844542915607,0.0007660557937034739,0.00042134539277708744,-0.3539545238018036,-51.13858413696289,5.080672264099121,17.23242950439453,-1.3303731679916382,-1.1176254749298096,-0.0072769103571772575,,,,,,,,,
1739355634.874553,0.32914106507929275,1.1887007175712274,0.3163989936740919,-1.1795902350778646,-1.426620832094261,1.030790729370862,0.09294684099507623,-0.0004339207142765878,0.00044099171864060845,-0.0004178832833999883,0.00038454312903770353,0.00038798577206694323,-0.0003990638817935032,-0.0019477713024828366,-0.3539545238018036,-51.11081314086914,5.056868553161621,17.25623321533203,-1.3431905508041382,-1.1112167835235596,0.019273381680250168,,,,,,,,,
1739355634.886621,0.32914393689483773,1.1887055076222994,0.31640113938926323,-1.1795888748454153,-1.426623121084155,1.030793889957356,0.09295236169373915,0.0003479230416674998,-0.0005483064873864172,0.000449556979686137,0.0009013920531144089,-0.0004298522479321965,-4.3531277288231236e-05,-0.0017766552288421078,-0.3539545238018036,-51.19015884399414,5.056868553161621,17.23242950439453,-1.3239644765853882,-1.1112167835235596,-0.027418512850999832,,,,,,,,,
1739355634.8975148,0.32913938690407507,1.1887089685442158,0.3164004241375635,-1.1795870667642923,-1.4266231017035151,1.0307939089312366,0.09295133304606484,-0.0005504744274505978,0.0010328788393506785,-0.000746786706252036,0.0002717720552019539,0.00036751771727416214,0.0011943204708888175,0.00017221641982281182,-0.3301508128643036,-51.21396255493164,5.056868553161621,17.23242950439453,-1.3239644765853882,-1.1112167835235596,-0.027418512850999832,,,,,,,,,
1739355634.907553,0.32914038472517276,1.1887034832183743,0.3164032191710434,-1.1795867605419892,-1.4266211217317308,1.0307931100872703,0.0929456343520714,0.0002709546391578433,0.0006607980769795127,0.0004117647998977221,0.0007572476666774363,0.0014443423391928263,-0.0008785891072180954,0.0005629068733942805,-0.3301508128643036,-51.16238784790039,5.029097557067871,17.23242950439453,-1.3367818593978882,-1.1048080921173096,0.0064559997990727425,,,,,,,,,
1739355634.918594,0.3291377538566301,1.188703839889846,0.3164032191831562,-1.1795926006996327,-1.426622345925002,1.0307938958490876,0.09294426235437706,-0.0013714155524115945,0.0009068488807549815,0.0001587671435425612,-0.0017214765403297545,-0.0003492906998000106,0.001472565437589435,-0.0024785142811813367,-0.3063471019268036,-51.16238784790039,5.029097557067871,17.28003692626953,-1.3303731679916382,-1.1112167835235596,0.0064559997990727425,,,,,,,,,
1739355634.9296322,0.3291410998924525,1.1887035096815821,0.3163972739829869,-1.1795896881504015,-1.4266223459814706,1.0307939074776482,0.09295033140206234,6.697773850556564e-05,-0.00012667550121103863,-0.0011786344595858692,-0.0002115866064653912,0.0015095309187858185,0.0012836318195471506,0.0014978055663968787,-0.3539545238018036,-51.16238784790039,5.108443260192871,17.28003692626953,-1.3303731679916382,-1.1112167835235596,-0.03382720425724983,,,,,,,,,
1739355634.9405284,0.32913935168661673,1.188698986174505,0.31640397489734184,-1.179588157510629,-1.4266231036415493,1.0307939082852418,0.09294611018200873,-0.0015765416587466728,-0.0011936212176574547,0.0007704297482303414,0.0002741937658956896,-0.00022835605328611877,-7.888660118866877e-05,-0.00020160832677314244,-0.3301508128643036,-51.13858413696289,5.056868553161621,17.25623321533203,-1.3239644765853882,-1.1112167835235596,-0.0072769103571772575,,,,,,,,,
1739355634.9505494,0.3291439262112434,1.1887015586928036,0.31639934499054423,-1.1795821914522455,-1.4266223454969542,1.0307937737510886,0.09295349216190367,0.0009481908092371618,-0.0010788954752163342,-0.0009686228699122127,0.00236640703249962,0.0004761257660316677,0.0010884967520619886,-0.0007731017204528675,-0.3539545238018036,-51.13858413696289,5.080672264099121,17.18085479736328,-1.3303731679916382,-1.1112167835235596,-0.03382720425724983,,,,,,,,,
1739355634.9615588,0.32914402884774674,1.1887075739135775,0.31640113939323455,-1.1795896333347269,-1.4266223401672673,1.0307899140525274,0.0929511565852528,0.0004340302941888698,0.0016740340625820045,-0.00048184374139778326,-0.0005205734965186913,0.000778583240603689,-0.0025543754999364683,0.0007506497729646586,-0.3817255198955536,-51.19015884399414,5.056868553161621,17.28003692626953,-1.3303731679916382,-1.1048080921173096,-0.04023589566349983,,,,,,,,,
1739355634.9726117,0.3291430928233668,1.188701784088699,0.3164035341311559,-1.1795899293746106,-1.426621284405242,1.0307931468922689,0.09295075379263235,0.00023559775980320756,0.0006379052626506593,0.0014220293953614127,-0.0018560515059263267,0.0002519262843165741,0.0005304964215145344,0.000660730260805441,-0.3817255198955536,-51.13858413696289,5.029097557067871,17.25623321533203,-1.3303731679916382,-1.1048080921173096,-0.013685601763427258,,,,,,,,,
1739355634.9826288,0.3291430752304725,1.1886997625884463,0.3164021892252996,-1.1795884402183399,-1.4266212863253638,1.030794191280346,0.09295095621378303,0.00011141602206952332,-0.000794974521589,0.0016334448100478007,4.5115444348865893e-05,0.0009254474944537863,0.0002541719928589732,0.00039806743272049604,-0.3817255198955536,-51.11081314086914,5.056868553161621,17.23242950439453,-1.3303731679916382,-1.1176254749298096,-0.04756011441349983,,,,,,,,,
1739355634.993482,0.3291414987620452,1.1887034979053408,0.3164022000146122,-1.1795885405128235,-1.4266208175614168,1.0307938958412708,0.0929496230215532,-0.00038592449924542967,0.0006660420738070281,-0.00022207605858152676,-0.0001486117381846929,0.0014332578286653918,0.0005878282929360585,0.0006362545809760105,-0.3301508128643036,-51.16238784790039,5.080672264099121,17.25623321533203,-1.3431905508041382,-1.1112167835235596,-0.04023589566349983,,,,,,,,,
1739355635.004564,0.3291431772812994,1.1886997889341995,0.31640321919920683,-1.179589038564924,-1.426622345981397,1.0307955324885092,0.09294695075544722,0.0011298529780758128,0.0005149521489215597,0.000248025854600834,0.0006187805344389619,-0.00011919094799937755,4.6283994649037223e-05,-0.0007474874386491942,-0.3817255198955536,-51.11081314086914,5.029097557067871,17.23242950439453,-1.3303731679916382,-1.1249496936798096,-0.0072769103571772575,,,,,,,,,
1739355635.015478,0.32913936433251867,1.1887035086985525,0.3164011393448491,-1.1795878374359727,-1.426620477287099,1.0307884412838801,0.0929501366474482,-0.0019838914609543895,-0.00014474381392050117,-0.0002805811919310305,0.00014604653643494116,0.0008192529614696333,-0.0014623126682644018,-0.00149516167185325,-0.3301508128643036,-51.16238784790039,5.056868553161621,17.25623321533203,-1.3431905508041382,-1.1048080921173096,-0.0072769103571772575,,,,,,,,,
1739355635.025608,0.32913969628705525,1.1887034828616996,0.3164011656389666,-1.1795889006191789,-1.4266231036355648,1.0307929766038948,0.09294897122550799,5.20360639734931e-05,0.0006422693993086475,0.0008008177896824701,-0.00020614204861959498,-0.0006337073374768144,5.21871311946957e-05,0.0004531109774996901,-0.3301508128643036,-51.16238784790039,5.056868553161621,17.23242950439453,-1.3239644765853882,-1.1048080921173096,-0.03382720425724983,,,,,,,,,
1739355635.036527,0.32913862852660436,1.188701363912355,0.3164011393934489,-1.179587862781313,-1.4266216912752268,1.0307937853785156,0.09295146444110766,-0.001299728523116227,-0.0010082719072181372,0.00024920369069297637,-0.0008872683031223849,0.0013087400522885366,0.0005931676654728767,0.0002777844645127617,-0.3063471019268036,-51.16238784790039,5.056868553161621,17.25623321533203,-1.3239644765853882,-1.1112167835235596,-0.027418512850999832,,,,,,,,,
1739355635.046583,0.3291410680394721,1.188701708819471,0.3164012223425681,-1.1795891329373138,-1.4266194047046044,1.0307946140999438,0.09295222280764376,-5.111815510815913e-07,-0.00036553856472810336,0.0005710911912781719,3.2391420357017636e-05,0.0009420640000657235,0.0011430180398208757,0.0012591714656334503,-0.3539545238018036,-51.13858413696289,5.056868553161621,17.23242950439453,-1.3431905508041382,-1.1176254749298096,-0.03382720425724983,,,,,,,,,
1739355635.0565975,0.3291411566530083,1.1887023727472599,0.31639727703583775,-1.179588223244216,-1.4266254071341402,1.0307937848940958,0.09295351805214822,-0.00018912323189781532,-0.0006840952362440283,-0.0015673826341815378,0.0009128563818506666,-4.3346372835567515e-05,-0.0002617311238376334,0.0009630694822559051,-0.3539545238018036,-51.19015884399414,5.108443260192871,17.23242950439453,-1.3303731679916382,-1.1112167835235596,-0.03382720425724983,,,,,,,,,
1739355635.0675318,0.32914106540684734,1.1887013639634496,0.3163979868555081,-1.179587063925187,-1.426621599482558,1.030792334520315,0.09294411477812937,-0.00044309037747760824,-0.0001556546029332008,-0.0006536226410766157,-0.0006836066590875964,-0.00028978238999824283,-0.0024533542652143536,-0.002699778759942737,-0.3539545238018036,-51.16238784790039,5.108443260192871,17.23242950439453,-1.3367818593978882,-1.1112167835235596,0.019273381680250168,,,,,,,,,
1739355635.077546,0.32914477466875236,1.1887013879845936,0.31639935802438673,-1.1795902002016383,-1.42662234598166,1.0307899439799386,0.09295332838133775,0.001240079620337371,-0.00019792136556934882,-0.0011931396981196335,-0.001292215713751701,-0.0003476978585901173,-0.0020156153267333254,0.0007838200336616032,-0.4055292308330536,-51.13858413696289,5.080672264099121,17.25623321533203,-1.3303731679916382,-1.1176254749298096,-0.04023589566349983,,,,,,,,,
1739355635.0885534,0.3291454462247743,1.1887055042387573,0.31639959292728875,-1.179594146239283,-1.4266223445279207,1.0307888996100651,0.09295084500198925,0.0006458571672449241,0.00034396852895271013,-0.0007136730867418619,-0.0012770400057398388,-0.00032806524719068524,-0.0019931149599539903,0.00012224372172482526,-0.3817255198955536,-51.19015884399414,5.080672264099121,17.30384063720703,-1.3303731679916382,-1.1048080921173096,-0.04756011441349983,,,,,,,,,
1739355635.0995476,0.3291442027989734,1.1887071377249843,0.31640114342689024,-1.179584566871844,-1.426621230748024,1.0307895665769458,0.09294963462320949,0.0008511448651446021,0.0015423745788656846,8.283692168738736e-05,0.002048986617866138,0.000948062755118247,-0.0010990361848696854,0.0005712168508989838,-0.3539545238018036,-51.21396255493164,5.056868553161621,17.20862579345703,-1.3367818593978882,-1.1048080921173096,-0.0008682189509272575,,,,,,,,,
1739355635.1106029,0.3291435279189508,1.1887043587899087,0.3163993926826339,-1.1795902350424452,-1.4266223459754155,1.0307898020692146,0.0929474657579193,0.000560334750669822,0.0009195240392616303,-0.0008230875413051965,-0.0010279674744373616,-0.0007418460074309163,0.00019968469183512895,-0.0006410510695407148,-0.3539545238018036,-51.21396255493164,5.080672264099121,17.25623321533203,-1.3303731679916382,-1.1048080921173096,0.0064559997990727425,,,,,,,,,
1739355635.1215894,0.32914393836229444,1.1887035093001783,0.31639943642554635,-1.1795890395542903,-1.4266222280823955,1.0307903081289493,0.09294777419018412,0.0010455571021912428,0.0006291756149873431,0.00011318283081064449,0.0012171470129880293,-0.000719167296988395,0.00020708809066925056,-0.0006032948144663135,-0.3539545238018036,-51.16238784790039,5.080672264099121,17.23242950439453,-1.3303731679916382,-1.1176254749298096,0.012864691205322742,,,,,,,,,
1739355635.1324859,0.32914392643468254,1.188703185780271,0.3164053450459645,-1.1795903060900117,-1.4266184092452772,1.0307930922267274,0.09295053285222715,-0.00024280432596320836,0.0012349127271880198,0.0003409762591515748,0.0002844704879222239,0.0001440580364453138,-0.00018256962443811937,0.0007495748627589199,-0.3539545238018036,-51.16238784790039,5.029097557067871,17.28003692626953,-1.3367818593978882,-1.1176254749298096,-0.04756011441349983,,,,,,,,,
1739355635.143534,0.3291400946807581,1.1886997726126793,0.316403219219158,-1.1795908958895387,-1.426620830768982,1.0307894970192135,0.09295182002420699,-0.0009447534480890836,-0.0014964721106298143,-0.0005422112418504977,-0.0009160975487812566,-0.0002617720854635678,-0.0010659451632748123,-0.00014373898721027379,-0.3301508128643036,-51.11081314086914,5.029097557067871,17.25623321533203,-1.3431905508041382,-1.1048080921173096,-0.027418512850999832,,,,,,,,,
1739355635.1545184,0.32913962629979315,1.188699048156559,0.3164019617695227,-1.179590231730359,-1.4266223457661305,1.030793487252763,0.09295323788040077,0.0001105541185596473,-0.0007682983860526434,0.000943534151433052,-9.202089960704516e-05,-0.00010749855317003974,0.001455279302442415,0.0004937726613899092,-0.3301508128643036,-51.11081314086914,5.056868553161621,17.25623321533203,-1.3303731679916382,-1.1176254749298096,-0.03382720425724983,,,,,,,,,
1739355635.1664984,0.32914109069965,1.1887072313657383,0.3164013877057109,-1.1795881432816602,-1.4266215883213913,1.030794609734728,0.09294448637024684,-0.0005999707008572026,0.0018840229685748943,-0.0006502165078835058,7.824954188982287e-05,5.4844030793845086e-05,-0.00044628786591067494,-0.000815914412687714,-0.3539545238018036,-51.21396255493164,5.056868553161621,17.25623321533203,-1.3367818593978882,-1.1176254749298096,0.0064559997990727425,,,,,,,,,
1739355635.1765256,0.3291452471612177,1.1887013284459438,0.31640326565372234,-1.1795873462022761,-1.4266215888059093,1.0307892980542304,0.09295217009795526,0.0013894878229783914,-0.0005994867591264952,7.43255035198634e-05,0.0008471015446035729,0.0003092975984377827,-0.0002491888862770138,0.0011782777844905237,-0.3817255198955536,-51.16238784790039,5.056868553161621,17.20862579345703,-1.3367818593978882,-1.1112167835235596,-0.03382720425724983,,,,,,,,,
1739355635.1865494,0.32914572827103555,1.1887049820003717,0.3164032494610851,-1.1795864150573214,-1.4266238918381406,1.030790671312272,0.09295218315310484,0.0010982120957808315,4.0833835980774724e-05,-0.0005308771247993854,0.000896580253337632,-3.704947020095417e-05,0.0006158997746673273,0.00038675986003171205,-0.4055292308330536,-51.21396255493164,5.029097557067871,17.20862579345703,-1.3431905508041382,-1.1112167835235596,-0.03382720425724983,,,,,,,,,
1739355635.1965544,0.32914522057724915,1.1887053927885376,0.3164042104608297,-1.1795842939483558,-1.426622240893178,1.0307937722427198,0.09294633555822612,0.0011310912523888228,0.0011119920301086417,-6.237825103474223e-05,0.0010587244500402412,-0.0010583387754230446,0.0013586405558036955,-0.002256581331594764,-0.3817255198955536,-51.19015884399414,5.056868553161621,17.20862579345703,-1.3303731679916382,-1.1112167835235596,0.026597600430250168,,,,,,,,,
1739355635.2075434,0.3291410948529024,1.1886993304472326,0.31640151179446674,-1.1795878601059129,-1.4266215900973607,1.0307899394298383,0.09294548433935901,0.0006891159114972124,-0.001332715846032738,-0.0004132856372809698,0.0008493252744710808,-0.00034766035976229885,-0.0011030848767280017,-0.0011051891796887907,-0.3539545238018036,-51.13858413696289,5.080672264099121,17.25623321533203,-1.3367818593978882,-1.1176254749298096,-0.0008682189509272575,,,,,,,,,
1739355635.217552,0.3291393647688877,1.1887031622030966,0.3164040015035421,-1.1795863383712457,-1.4266231055796463,1.0307899027426228,0.09295436634746418,-0.0011978104635531075,0.00021983651079553182,0.0008496989752783156,0.0009441612212584375,-0.0007825081140277834,-0.0007651385660273366,0.0035936122873768575,-0.3301508128643036,-51.16238784790039,5.056868553161621,17.20862579345703,-1.3239644765853882,-1.1176254749298096,-0.04023589566349983,,,,,,,,,
1739355635.228545,0.32914330045763623,1.188703399353293,0.3163995958956255,-1.1795890305942436,-1.4266247686893416,1.030795224669439,0.0929536313490387,-0.00024444760409428616,0.0016938023611198123,-0.0009597017564200959,0.0013400632357662837,-0.0009782560851767917,0.002102958913128476,0.0022514976104878754,-0.3817255198955536,-51.16238784790039,5.080672264099121,17.23242950439453,-1.3367818593978882,-1.1313583850860596,-0.03382720425724983,,,,,,,,,
1739355635.2395205,0.3291442430138635,1.1887017970130092,0.31640038127069214,-1.1795888551450255,-1.4266234579653625,1.0307913110915106,0.09294814742806817,0.000530120027745345,-0.0008264830700862745,0.0005193591053683703,0.00043948888211893067,-0.0008839127642025853,0.0007042686630958957,-0.0002006976837799513,-0.3539545238018036,-51.13858413696289,5.080672264099121,17.25623321533203,-1.3303731679916382,-1.1176254749298096,-0.027418512850999832,,,,,,,,,
1739355635.2495496,0.329141182324254,1.1887024382678244,0.3164000770660742,-1.1795869690645395,-1.426621771525218,1.0307950027413,0.09295147029366296,-0.00045888488041958143,-0.000793437398627042,-7.43244108153571e-05,0.0006689028653941289,-0.00027075455664928277,0.0006476029053165816,-0.0008773768489012141,-0.3539545238018036,-51.16238784790039,5.080672264099121,17.23242950439453,-1.3367818593978882,-1.1249496936798096,-0.027418512850999832,,,,,,,,,
1739355635.2596135,0.3291419773008238,1.1887032683116516,0.3164053841126979,-1.179588820980341,-1.4266220407369534,1.0307891422525086,0.09295182573032094,-0.0002223879929736618,0.00032255818120425367,0.0014796371049900423,0.0001925475370777778,-2.9215649271160325e-05,-0.0008747214448178652,0.0018202101981829835,-0.3539545238018036,-51.16238784790039,5.029097557067871,17.25623321533203,-1.3303731679916382,-1.1112167835235596,-0.027418512850999832,,,,,,,,,
1739355635.2705173,0.32914153268134644,1.1886985799758012,0.3164011745321931,-1.1795880912855288,-1.4266215883162232,1.0307908818545999,0.09294729363849137,0.00017447908511381043,-0.0018143090009236091,-0.0002251939095339954,9.59227957697522e-05,-0.000262481016451769,0.0008767848351360851,-0.0013248300260933648,-0.3301508128643036,-51.13858413696289,5.056868553161621,17.25623321533203,-1.3367818593978882,-1.1249496936798096,0.0064559997990727425,,,,,,,,,
1739355635.2805655,0.32914317993422004,1.1887005412212446,0.31640137560449877,-1.1795879268736305,-1.4266223469505044,1.030791118783926,0.09294853184929085,0.0006871950926792974,-0.0008761833346658465,0.0005118060308616689,-7.0992196064876656e-06,-7.447444571181603e-05,-0.0004953328905138804,-0.0003077040466939456,-0.3817255198955536,-51.16238784790039,5.056868553161621,17.25623321533203,-1.3303731679916382,-1.1249496936798096,0.0064559997990727425,,,,,,,,,
1739355635.2925231,0.3291421330033073,1.1887025290252877,0.3164063686644853,-1.1795879307569115,-1.426621587998387,1.0307915681685549,0.09294257467645126,0.0005331477660451727,-0.0008052476131608242,0.0014349564271922952,2.0079226762452832e-05,0.000997280356304067,-2.195233211808249e-05,-0.0038831837137923383,-0.3539545238018036,-51.16238784790039,5.029097557067871,17.25623321533203,-1.3367818593978882,-1.1048080921173096,0.019273381680250168,,,,,,,,,
1739355635.3034735,0.32913914473453076,1.1886995607977096,0.31640346414863785,-1.1795902270007415,-1.4266238482017297,1.0307926727107268,0.0929454397914051,-0.00032503783699122527,-0.0013454620767808917,0.0010167698906542774,-0.0007392484023902635,-0.0007284303787423115,-0.000573644452700156,-0.001057590208499411,-0.2825433909893036,-51.11081314086914,5.029097557067871,17.25623321533203,-1.3175557851791382,-1.1112167835235596,0.026597600430250168,,,,,,,,,
1739355635.3134804,0.32914502186311123,1.1886988272247478,0.316402439560194,-1.179584500445495,-1.4266208292075422,1.030789898279586,0.09295044649235916,0.0007919229193875663,-0.0010324152526701464,-0.00013511152199142907,0.0002152273331276276,-0.0006135712096290531,-0.00010081831856447929,-0.0008369460499936454,-0.4055292308330536,-51.13858413696289,5.080672264099121,17.20862579345703,-1.3431905508041382,-1.1176254749298096,-0.020094294100999832,,,,,,,,,
1739355635.3235834,0.32914233034210566,1.1887014405164769,0.3164013877532768,-1.179588797219097,-1.4266228016634737,1.03079343244644,0.09294528099652255,-0.0010114809195639887,-0.0005168804627008313,-9.749963282063072e-05,1.233411286582142e-05,-0.0006449484291294598,0.0006821075185982746,-0.0034340019886895017,-0.3301508128643036,-51.13858413696289,5.056868553161621,17.23242950439453,-1.3175557851791382,-1.1176254749298096,0.026597600430250168,,,,,,,,,
1739355635.334533,0.32914213291044075,1.1887010861007021,0.3163980675380328,-1.1795888225653401,-1.4266231021820173,1.0307900159772894,0.09294269877882495,-0.0001723932135707483,-0.001039000339674918,-0.0019689005907251736,1.8245108956416764e-05,-0.00047214261719318875,-6.758990400218894e-05,-0.0031266786431806666,-0.3539545238018036,-51.16238784790039,5.108443260192871,17.25623321533203,-1.3239644765853882,-1.1176254749298096,0.019273381680250168,,,,,,,,,
1739355635.3445337,0.32914130551444926,1.1887003008807584,0.3164013882812701,-1.1795899476913654,-1.4266228016634241,1.0307898982257515,0.09295004419558815,-0.0002555505936559175,-0.0003711206609886066,0.0002094712706079805,-0.0005572372672037874,-0.0005220834280795952,0.0002266647029750133,-0.000757207383977362,-0.3539545238018036,-51.16238784790039,5.056868553161621,17.28003692626953,-1.3175557851791382,-1.1176254749298096,-0.013685601763427258,,,,,,,,,
1739355635.35457,0.32914231998546045,1.1887031559766021,0.31640333335062076,-1.1795916832581077,-1.4266231167055565,1.0307892981891396,0.09294942992792897,-0.00046791762135120756,0.00038005994397136193,0.0006165078755081901,-0.0003043645208514455,-0.00091487259952529,-0.0004055066297469681,7.225775741131267e-05,-0.3301508128643036,-51.16238784790039,5.029097557067871,17.28003692626953,-1.3239644765853882,-1.1112167835235596,-0.0072769103571772575,,,,,,,,,
1739355635.3655055,0.32914329080850824,1.1887010095712984,0.31640338226437004,-1.1795901985163941,-1.4266226991942546,1.0307941891009846,0.0929496348587921,-0.00019629082153200655,-0.001158294663178351,0.000877279382811667,0.00031019081435565947,-0.0006534883654993745,0.002069222323172043,-0.0005472751598804945,-0.3539545238018036,-51.16238784790039,5.056868553161621,17.25623321533203,-1.3303731679916382,-1.1176254749298096,-0.0008682189509272575,,,,,,,,,
1739355635.375506,0.32914396058907563,1.1887008080120438,0.31639967181027134,-1.1795883762909127,-1.4266217060649442,1.030789495944639,0.09294166828261703,-2.2355832386903543e-05,-0.0007282651774108457,-0.0011149559887530887,3.991740861877504e-05,0.00047315741698885456,0.0002450615319384659,-0.0017523181475735592,-0.3539545238018036,-51.13858413696289,5.080672264099121,17.23242950439453,-1.3367818593978882,-1.1112167835235596,0.03941498324275017,,,,,,,,,
1739355635.3855762,0.32914106458688425,1.1887052415022388,0.31640146600781976,-1.1795883197624375,-1.4266212352708532,1.0307891407232022,0.0929457547616961,-0.0011853304700219463,0.0021793968318622784,0.0005187864297047251,0.0002783784641311954,0.00041767286429280443,0.0006248638625338421,-0.0015226205423384902,-0.3539545238018036,-51.19015884399414,5.056868553161621,17.25623321533203,-1.3367818593978882,-1.1112167835235596,-0.0072769103571772575,,,,,,,,,
1739355635.39558,0.32914417673063473,1.1887003180059201,0.31640632913817285,-1.1795906170628516,-1.4266208306553354,1.0307907646015209,0.09294686588425892,-0.0003894786114437264,-0.0012708397201814446,0.0004779335346874765,-0.0009057397757531658,0.0011988976127277546,0.0008191722780552834,-0.0015830275584268918,-0.3539545238018036,-51.16238784790039,5.029097557067871,17.25623321533203,-1.3431905508041382,-1.1249496936798096,-0.013685601763427258,,,,,,,,,
1739355635.4064682,0.3291442029121018,1.1887031956582106,0.3164042140420991,-1.1795908863404152,-1.4266186993424181,1.0307937328632721,0.09294501480965447,0.002041967894592149,-0.0001018273897797576,0.0010395061548772613,-0.0014635704968890394,0.0018694511186107695,0.0020739730679887663,-0.0020177651733598164,-0.3539545238018036,-51.19015884399414,5.056868553161621,17.25623321533203,-1.3495992422103882,-1.1112167835235596,-0.0008682189509272575,,,,,,,,,
1739355635.416535,0.32913943546406493,1.1887025206449775,0.31640818185017444,-1.179586042207727,-1.4266213375547374,1.0307899375433964,0.09295186242330401,-0.0010243732287581952,-7.268022246594534e-05,0.0008564504163829036,0.0012394323013053855,-0.0004750624069399723,5.034274346278015e-06,0.0016757484769226976,-0.3301508128643036,-51.16238784790039,5.005293846130371,17.23242950439453,-1.3239644765853882,-1.1176254749298096,-0.020094294100999832,,,,,,,,,
1739355635.4265797,0.3291415061763487,1.1886985824705134,0.3164015702626944,-1.179587040922556,-1.4266215882914837,1.0307891468590742,0.09294898455530148,-0.0008292989489516939,-0.001678826397334912,-0.0020501180891258778,-0.00040356270842498474,-0.0009137336145174148,-9.592097874274436e-06,-0.0012487954331153349,-0.3301508128643036,-51.13858413696289,5.080672264099121,17.23242950439453,-1.3367818593978882,-1.1112167835235596,-0.03382720425724983,,,,,,,,,
1739355635.4374716,0.32914225958035276,1.1887006059042449,0.31640361819920243,-1.179588138199815,-1.4266241613416115,1.030790369170084,0.09295100868851464,-0.00023182240761515817,-0.000434950151862473,-0.0004969694638432651,-0.0007278678354792135,-0.0007624212083787587,0.0006788642268427852,-0.00014834005692234515,-0.3301508128643036,-51.16238784790039,5.056868553161621,17.23242950439453,-1.3239644765853882,-1.1176254749298096,-0.04756011441349983,,,,,,,,,
1739355635.4475365,0.32913973520038625,1.1887047791246899,0.31640330324468385,-1.1795881606950294,-1.4266227646218541,1.0307930771421323,0.0929521037986247,0.00032281649805681315,0.002314446139775833,0.00019991989577909064,-0.0007575635142778738,-0.0011736177436967293,0.0011942138106425478,-0.0005345541525160172,-0.3301508128643036,-51.19015884399414,5.056868553161621,17.25623321533203,-1.3303731679916382,-1.1176254749298096,-0.03382720425724983,,,,,,,,,
1739355635.4585013,0.3291420290214566,1.1887002944224616,0.3164050047885756,-1.1795881574070912,-1.4266259162636383,1.0307907641349463,0.09295387707839464,-0.00012800097140429253,-0.0004356760406787298,-0.000224326058735949,-0.0005356492914202473,-0.0011198821936909194,-0.0002251716102624089,0.0006417026112670714,-0.3539545238018036,-51.16238784790039,5.005293846130371,17.25623321533203,-1.3239644765853882,-1.1249496936798096,-0.04023589566349983,,,,,,,,,
1739355635.4685545,0.3291404200948687,1.1887030042256632,0.3164042989180829,-1.1795860689423268,-1.426619771166081,1.0307930771341576,0.09295072020641541,-0.00016462499842901572,0.00011070318328582386,9.426547717573377e-05,0.000991732263089114,4.944626542232819e-05,0.0005383165395268739,-0.0002533728806132895,-0.3301508128643036,-51.19015884399414,5.056868553161621,17.23242950439453,-1.3431905508041382,-1.1176254749298096,-0.04023589566349983,,,,,,,,,
1739355635.478573,0.3291418975335338,1.188700294012716,0.31640230503333766,-1.1795850629854374,-1.4266231036355683,1.0307899003372862,0.09294928220172734,0.0006837778005292078,-0.0007504271476416716,-1.9688688033515055e-05,0.0012900551519912727,-0.0011821768758140633,-0.0002442648551587612,-0.0005110933152955715,-0.3539545238018036,-51.16238784790039,5.080672264099121,17.20862579345703,-1.3239644765853882,-1.1176254749298096,-0.0072769103571772575,,,,,,,,,
1739355635.489558,0.32914400572514474,1.1887030395467786,0.31640114265014985,-1.1795896087741973,-1.4266205315903637,1.030790369385401,0.09294688702192737,0.0010272389870640817,0.0008080928182656278,9.602661079130385e-05,-0.00041511193422592873,0.0007611809223337074,0.0012621653721557752,-0.001998194015333123,-0.3539545238018036,-51.19015884399414,5.056868553161621,17.28003692626953,-1.3367818593978882,-1.1176254749298096,0.012864691205322742,,,,,,,,,
1739355635.500543,0.32914173984660805,1.188706464600935,0.3164000685895416,-1.179588778458785,-1.4266200724988232,1.0307884352354002,0.09295252996411338,-0.0003643180348200217,0.0016085798856908871,-0.0012660435095563347,-0.0008710876322084518,-0.00019884985400465976,0.0002620585202611264,0.0019041465269370908,-0.3301508128643036,-51.23776626586914,5.080672264099121,17.25623321533203,-1.3495992422103882,-1.1048080921173096,-0.03382720425724983,,,,,,,,,
1739355635.5115438,0.32913860593855904,1.1887022892982146,0.3163993697864511,-1.1795852922953989,-1.4266223067356134,1.0307859674596018,0.09295522061381299,-0.000853474610569912,0.00022286279646965086,-0.0023730367132368266,8.254964715683258e-05,-0.00047291359048866116,-0.0006099637741021307,0.0012257948494058004,-0.3063471019268036,-51.19015884399414,5.080672264099121,17.20862579345703,-1.3303731679916382,-1.1112167835235596,-0.04756011441349983,,,,,,,,,
1739355635.5224807,0.3291442561362667,1.1887051543533553,0.31640353834349716,-1.1795863767635932,-1.4266223067353927,1.0307899505296652,0.09295046565642169,0.0001554724578847971,0.0016318961431579233,0.000689137982851254,0.0012543104775438567,-0.0006281212647076137,0.0003110193002940323,0.0013577107225818527,-0.3539545238018036,-51.19015884399414,5.029097557067871,17.23242950439453,-1.3303731679916382,-1.1176254749298096,-0.0072769103571772575,,,,,,,,,
1739355635.5325568,0.32914354089279,1.1886970728239947,0.3164053831059725,-1.1795884145735804,-1.426619167227924,1.0307891405605762,0.09295316314280364,0.0006087425581864153,-0.0010558802462112462,0.0013480958931611229,0.0003320039543119303,0.00019773675670434126,-0.0006194235585331746,-0.0004558489928434697,-0.3539545238018036,-51.13858413696289,5.029097557067871,17.23242950439453,-1.3303731679916382,-1.1112167835235596,-0.03382720425724983,,,,,,,,,
1739355635.5435123,0.3291421369775478,1.1887005421938832,0.31640421450478845,-1.1795909119528307,-1.4266231021700548,1.0307891405596905,0.09294597365943416,-3.255290404950077e-05,-0.0009276459380343005,0.0009478490083401131,-0.0003916586797236588,-0.0002277544986136586,0.0006739280607866441,-0.0019300013537091915,-0.3539545238018036,-51.16238784790039,5.056868553161621,17.25623321533203,-1.3239644765853882,-1.1112167835235596,0.026597600430250168,,,,,,,,,
1739355635.5545638,0.32914221358755047,1.1887010868854166,0.31640416404451405,-1.179590198347139,-1.4266215878368675,1.0307891405596905,0.09294882146583396,-0.0009375008011725995,0.0010853991942630086,-0.000188786499531689,-0.00169619289899345,-0.00038363708800593125,0.0001395832049003432,0.0007718435766930599,-0.3301508128643036,-51.16238784790039,5.029097557067871,17.25623321533203,-1.3367818593978882,-1.1112167835235596,-0.020094294100999832,,,,,,,,,
1739355635.566554,0.3291460156692387,1.1887015187783252,0.3164014663353954,-1.1795880658072437,-1.42662158832139,1.0307898982197687,0.0929460306326811,-8.88715688467539e-05,-0.0006175000828525835,0.001417505874187807,-0.0006048186336564532,-0.00030143312756874895,-0.00020772632789922856,-0.0022745530819888705,-0.3817255198955536,-51.13858413696289,5.056868553161621,17.25623321533203,-1.3367818593978882,-1.1176254749298096,0.026597600430250168,,,,,,,,,
1739355635.5775123,0.3291410949664069,1.1887030216688617,0.3164032192210042,-1.1795861224658912,-1.4266208306613144,1.0307883834379639,0.09294745308108109,-0.0013577484092488971,-0.00014084821304713533,-0.0011126748934389796,0.0012743386412104505,0.0011505948564505435,-0.00019607814826581773,-0.001195110073602369,-0.3539545238018036,-51.21396255493164,5.029097557067871,17.23242950439453,-1.3431905508041382,-1.1048080921173096,0.0064559997990727425,,,,,,,,,
1739355635.58763,0.3291403966438608,1.1886985785389768,0.31640431933123064,-1.1795870654180216,-1.426622345981471,1.0307891405596936,0.09294807565542418,-0.0005442372422822754,-0.0014947961500044646,0.001147733040322481,-0.000115530523058951,-6.387381103395658e-05,0.00019318013311377748,-0.00022002307907296635,-0.3301508128643036,-51.13858413696289,5.056868553161621,17.23242950439453,-1.3303731679916382,-1.1112167835235596,0.012864691205322742,,,,,,,,,
1739355635.5984824,0.3291408458969183,1.1887013608055432,0.3164011787616498,-1.179584975030524,-1.4266226479595219,1.0307903735306991,0.09294655049192461,-0.00034424135693484747,0.0008767388718569011,-0.00027399897980046723,0.00019181012113772544,0.0005134436190237145,0.0007811114613615157,0.0007599101478985657,-0.3063471019268036,-51.16238784790039,5.056868553161621,17.20862579345703,-1.3367818593978882,-1.1176254749298096,-0.0008682189509272575,,,,,,,,,
1739355635.609541,0.32914178867469124,1.1886980647773824,0.3164018339618118,-1.179589620251364,-1.4266215883273743,1.030789911304404,0.09295202532549952,0.00040270814076319824,-0.0016102745233630546,-0.000557206855318417,-0.0005953323220898456,-7.454250728598029e-05,0.0005120727526129338,0.000972671831514688,-0.3539545238018036,-51.16238784790039,5.080672264099121,17.28003692626953,-1.3367818593978882,-1.1176254749298096,-0.020094294100999832,,,,,,,,,
1739355635.6196027,0.32914620120286175,1.1887054678715743,0.3164018514244988,-1.1795905828665016,-1.4266197197885262,1.0307876252396075,0.0929519566647978,0.0014036788780611266,0.0023651914167799933,-9.029646113959121e-05,-0.0002539695569794481,0.00029495280631303556,-0.0008285566135804845,0.002206834434528378,-0.3817255198955536,-51.19015884399414,5.056868553161621,17.25623321533203,-1.3495992422103882,-1.0983994007110596,-0.04756011441349983,,,,,,,,,
1739355635.6304772,0.32914619827215547,1.1887037433894156,0.31640353748163963,-1.179586437412203,-1.426621530173401,1.0307923194740785,0.0929418328865054,0.0010556126185603419,0.0006802865238415125,0.0007662514794885289,0.0010226939929457316,0.0001135137233685526,0.00034529923234860545,-0.004273143533802168,-0.3817255198955536,-51.13858413696289,5.056868553161621,17.20862579345703,-1.3367818593978882,-1.1112167835235596,0.026597600430250168,,,,,,,,,
1739355635.6405659,0.3291396961228496,1.1886985786086566,0.3164023083772519,-1.1795881432803677,-1.4266181074286255,1.0307898982915489,0.09294890988314808,-0.0003205597995983721,-0.0007004841308860289,0.00021782555499635762,0.00026450047229819337,0.0013318032514898727,0.0008193061285986828,-4.331090237456804e-05,-0.3301508128643036,-51.13858413696289,5.080672264099121,17.25623321533203,-1.3303731679916382,-1.1176254749298096,-0.03382720425724983,,,,,,,,,
1739355635.6514978,0.3291414208031761,1.1887034287351406,0.31640149370578347,-1.1795878372257702,-1.4266207913436775,1.0307891405596916,0.092943807939533,0.00013809206435989413,0.0002768957205826731,-0.00035865934972548647,0.00014363070767869088,-6.683727760867724e-05,0.00014028103187252667,-0.002594337569167177,-0.3539545238018036,-51.16238784790039,5.056868553161621,17.25623321533203,-1.3431905508041382,-1.1112167835235596,0.012864691205322742,,,,,,,,,
1739355635.6624684,0.3291439340005195,1.1886965835529983,0.3164004196484458,-1.17958880865771,-1.426620830607405,1.0307876252395338,0.09294808636332301,0.0002972319651099967,-0.001989233305277405,-0.0003067894374046671,-1.5988565032949448e-06,-0.00019268359390653194,-0.00034625987477204784,0.001097504889560882,-0.3539545238018036,-51.11081314086914,5.080672264099121,17.23242950439453,-1.3431905508041382,-1.0983994007110596,0.012864691205322742,,,,,,,,,
1739355635.6725206,0.3291403966559498,1.1887030042255415,0.3164003845275486,-1.179590334428795,-1.4266218750311905,1.0307898982197687,0.09295051531859164,-0.0007075860978486535,0.00047414672886895824,-0.0005266324939424479,-0.0006432921762476892,4.624003567137809e-05,0.00022321524814734902,-2.9775111377187318e-05,-0.3301508128643036,-51.19015884399414,5.080672264099121,17.28003692626953,-1.3303731679916382,-1.1176254749298096,-0.04756011441349983,762,793,770,41.174,0,0
1739355635.6825562,0.32914153704423055,1.1887002922361547,0.31640041962918286,-1.1795902227670503,-1.4266200337474038,1.0307891405596905,0.09295202461293513,-0.00047641332553263895,0.000326770042795404,-0.0013423070743810422,0.0006419826187273391,0.0007481158808457107,0.00017248294927612882,0.0006158350734422876,-0.3301508128643036,-51.16238784790039,5.080672264099121,17.25623321533203,-1.3495992422103882,-1.1112167835235596,-0.020094294100999832,760,793,769,41.174,0,0
1739355635.692647,0.32913938704469675,1.1887024367961327,0.31640253386403355,-1.179588855133772,-1.4266215883207278,1.030788382899612,0.0929473125407955,-0.00034706576091223743,0.0005467593921850509,-0.00017745342474821492,-0.0005148333504072101,0.0005068578012577844,-3.216307842378275e-06,1.930399470580549e-05,-0.3301508128643036,-51.16238784790039,5.080672264099121,17.25623321533203,-1.3367818593978882,-1.1048080921173096,-0.0072769103571772575,763,800,768,41.174,0,0
1739355635.7035298,0.32914188677143036,1.1887030046736689,0.3164018359596504,-1.1795891326625443,-1.4266223328995187,1.030788382899612,0.09294542656448902,-0.00021754608327086123,0.0011852472864561287,-0.0004843620242893563,-0.0006483535230682993,0.00019616687335173414,-0.0002609045297256837,-0.00023394660304649725,-0.3539545238018036,-51.19015884399414,5.080672264099121,17.23242950439453,-1.3303731679916382,-1.1048080921173096,0.026597600430250168,761,793,769,41.283,1,0
1739355635.713611,0.3291442827083714,1.1887068625255544,0.3164021902340139,-1.1795927069512948,-1.4266223459812495,1.0307876252395338,0.09295246354595826,0.001156604176529687,0.002214729992304771,-0.0006288543625140252,-0.0022356496242294634,2.1318842411336395e-05,-0.0008799545941424328,0.002665207094228581,-0.3539545238018036,-51.21396255493164,5.056868553161621,17.28003692626953,-1.3303731679916382,-1.0983994007110596,-0.05396880581974983,762,795,767,41.283,1,0
1739355635.724537,0.3291442471006275,1.1887007262174858,0.3164042140304753,-1.1795923654209735,-1.4266204256053123,1.0307907641170013,0.09294618324956276,3.3142533684079665e-05,-0.0006688875104427026,0.00032391291247779535,-0.0005435165413793488,0.000748576411533947,0.00028577693582257135,-0.0014495608644275856,-0.3539545238018036,-51.13858413696289,5.056868553161621,17.28003692626953,-1.3431905508041382,-1.1249496936798096,0.019273381680250168,763,795,772,41.717,0,0
1739355635.7354794,0.3291433401937904,1.1887003175683162,0.31640228278344557,-1.1795881424438126,-1.4266215490732492,1.0307891405596905,0.09294922734877056,0.000618349192905731,-7.81530481942441e-05,-0.0007405381656442073,5.7861911285354754e-05,-0.0002559788872774293,7.446176303753786e-05,-0.0012245625783420145,-0.3817255198955536,-51.16238784790039,5.080672264099121,17.25623321533203,-1.3367818593978882,-1.1112167835235596,-0.03382720425724983,764,793,770,41.391,0,0
1739355635.7454925,0.32914140892129734,1.1887002910293498,0.31640409267438746,-1.1795842853089822,-1.4266229859033146,1.0307933791122077,0.09294685768619199,-0.0008230050868153114,9.439189808354136e-05,0.0004278720814277242,0.0015891736134692846,-0.0004487759401831583,0.0009514865991953037,-0.0021207651092923813,-0.3539545238018036,-51.16238784790039,5.056868553161621,17.20862579345703,-1.3239644765853882,-1.1112167835235596,0.019273381680250168,763,796,769,41.174,0,0
1739355635.7565126,0.32914142135028096,1.1887022886305918,0.3164043156010044,-1.1795845145773662,-1.4266227504268456,1.0307898982915489,0.0929444473602568,-0.0007157589288572365,0.0007897017157331803,0.00012840657596540017,0.0006754546182118008,-0.00010796510189682438,0.00022321010001511996,-0.0035958917780548882,-0.3539545238018036,-51.19015884399414,5.056868553161621,17.20862579345703,-1.3239644765853882,-1.1176254749298096,0.0064559997990727425,763,797,769,41.283,0,0
1739355635.767476,0.3291420309654312,1.1887040014904826,0.31640432820572256,-1.17958989147862,-1.426619404726529,1.0307898982197692,0.0929511109938738,-0.0005610820344269118,5.2612814302646096e-05,0.0008114133556860186,0.000734550186293992,0.0009615435816375265,-0.00010382575711388384,0.0004910819874960073,-0.3539545238018036,-51.21396255493164,5.056868553161621,17.25623321533203,-1.3431905508041382,-1.1176254749298096,-0.013685601763427258,762,796,769,41.174,0,0
1739355635.7775016,0.3291422434937484,1.188696571518966,0.3164039671846551,-1.1795866446049752,-1.4266215490674865,1.030788382899612,0.0929453964080374,-0.00024263582099193868,-0.0007730564449995008,-0.0005889556527916827,0.0016680683438506966,-0.00043029208395733504,-0.0003998036048556324,-0.0006747954742038525,-0.3301508128643036,-51.11081314086914,5.029097557067871,17.20862579345703,-1.3367818593978882,-1.1048080921173096,0.026597600430250168,763,796,769,41.174,0,0
1739355635.7885714,0.3291408563937566,1.1886999613635512,0.3164043194519047,-1.1795878602510892,-1.4266215883207278,1.030788382899612,0.09295201362369987,-0.0009052063981759007,-0.0005987923491210568,-0.0010026050836926322,-0.0009408354918503677,-0.000788620374500102,0.00021941900524185377,0.0005181519163516583,-0.3063471019268036,-51.16238784790039,5.056868553161621,17.25623321533203,-1.3367818593978882,-1.1048080921173096,-0.020094294100999832,762,795,769,41.174,1,0
1739355635.7995176,0.3291416165538974,1.1887003705132526,0.3164043311579649,-1.1795883720516358,-1.426619167049138,1.030788382899612,0.09294927386490208,0.0003227076410017931,0.0010461450570109277,0.0002118862264243214,-0.0003149857162049526,3.2437271125485196e-05,-0.0006574988636286012,0.0013158263033969685,-0.3301508128643036,-51.16238784790039,5.056868553161621,17.23242950439453,-1.3303731679916382,-1.1048080921173096,-0.0008682189509272575,765,795,770,41.174,0,0
1739355635.81047,0.3291452475264739,1.1886965805686622,0.3164033824257852,-1.1795906597152501,-1.4266208304459733,1.0307891405596905,0.0929505330253412,0.0010533849114013239,-0.0017191508587846844,-0.00045929081750969677,-0.0011717691118479949,0.0014517933618013032,0.00034674425405883626,-0.00018201837501024523,-0.3817255198955536,-51.11081314086914,5.056868553161621,17.25623321533203,-1.3431905508041382,-1.1112167835235596,-0.04756011441349983,764,796,770,41.283,0,0
1739355635.8205953,0.3291394439628537,1.1887031785428028,0.31640514388043434,-1.1795845665923461,-1.4266223461429755,1.0307891405596905,0.09295037537996746,-0.000994791477994788,0.0003040295333925095,-0.0007785213946799345,0.0017885461443994516,-0.0007710267227734247,-0.00023582851734722885,0.001694886488387615,-0.3301508128643036,-51.16238784790039,5.080672264099121,17.20862579345703,-1.3303731679916382,-1.1112167835235596,-0.0072769103571772575,762,795,770,41.283,0,0
1739355635.8306198,0.3291425700662564,1.1887031246286501,0.3164044070227988,-1.1795888992594443,-1.4266229857424766,1.0307883654570091,0.09295111117915097,0.00019757159964008732,0.001971835823055379,-0.00023228517872791958,6.926445112773844e-05,0.0004261737576165247,-0.0002589550651393033,0.0030461358957257845,-0.3301508128643036,-51.16238784790039,5.056868553161621,17.23242950439453,-1.3239644765853882,-1.1048080921173096,-0.013685601763427258,764,794,771,41.391,0,0
1739355635.841556,0.32914413481357147,1.1887022615136495,0.3164043369547942,-1.1795870629841956,-1.4266223400050988,1.0307883828995135,0.09294503903756932,0.0014333793492821265,0.0005457610593239495,0.00012254649475062834,0.00022672929226961563,1.5546705817210034e-05,-0.0005554077859491006,-0.0014733575254327936,-0.3817255198955536,-51.19015884399414,5.056868553161621,17.23242950439453,-1.3303731679916382,-1.1048080921173096,0.026597600430250168,764,795,773,41.283,2,0
1739355635.8525414,0.3291435674810967,1.1887002911377615,0.31640257181049297,-1.1795870484167932,-1.426623861301594,1.0307898982197687,0.09294567386134252,-0.00027942634176528344,-0.0008697028774889007,0.00046196528475290306,-0.0001966569649208364,-0.0017404661635164035,0.000648092598171546,-0.0012565638434952064,-0.3539545238018036,-51.16238784790039,5.080672264099121,17.23242950439453,-1.3175557851791382,-1.1176254749298096,0.0064559997990727425,767,795,770,41.174,1,0
1739355635.863546,0.3291483865994532,1.1887002831797309,0.3164064037118219,-1.1795849595983778,-1.4266208243625966,1.0307891405596905,0.09295231935902153,0.0024708291925787844,6.023866979101939e-05,0.0007223978426041736,0.0007409001514759092,-0.0003611687101801143,0.0004156599974242087,0.002470778904366087,-0.3817255198955536,-51.16238784790039,5.029097557067871,17.20862579345703,-1.3431905508041382,-1.1112167835235596,-0.05396880581974983,769,795,768,40.957,1,0
1739355635.874515,0.32914424728628416,1.1887002544115322,0.3164042471384245,-1.1795863099926724,-1.4266224113912203,1.030788330571803,0.09295347411806185,0.0006176397358039835,-0.0002658496481173018,-0.0003037080370650874,0.00027676473730801595,-0.0001764222434596272,8.799717267310913e-05,0.0013784363581711904,-0.3539545238018036,-51.16238784790039,5.029097557067871,17.23242950439453,-1.3303731679916382,-1.1048080921173096,-0.03382720425724983,764,793,770,41.283,1,0
1739355635.8854797,0.32914404433016825,1.1887003017849653,0.3164043281935956,-1.1795896340710228,-1.4266223446897957,1.030789158001998,0.09294719644134618,0.000997791814834669,-0.00010587980287088752,-0.0005033184703278139,-0.0008638452280878782,0.0004573459630136513,8.808573059695124e-05,-0.0005373663232262656,-0.3539545238018036,-51.16238784790039,5.056868553161621,17.28003692626953,-1.3303731679916382,-1.1112167835235596,0.019273381680250168,764,794,770,41.174,1,0
1739355635.895549,0.3291462002317568,1.1887002909160285,0.3164043019961288,-1.1795843369535386,-1.4266231036415273,1.0307891405599858,0.09294186853048343,0.00039040009255957123,-0.00029891117499512604,-0.00027759380367971796,0.0005037701123685919,0.00010000858665234802,0.0003095006709852131,-0.0021815379055372263,-0.3817255198955536,-51.16238784790039,5.056868553161621,17.20862579345703,-1.3239644765853882,-1.1112167835235596,0.026597600430250168,762,791,769,41.283,0,0
1739355635.9065793,0.3291432406619832,1.1887040015268227,0.3164043281336412,-1.1795888537638708,-1.4266199027743516,1.0307891405596905,0.09295205704035621,-0.0003123891024466893,0.002568123819395652,0.00023948335106546736,-0.0012060953221615174,0.0014515663280089543,0.0001330980989664666,-0.0008860702630212251,-0.3539545238018036,-51.21396255493164,5.056868553161621,17.25623321533203,-1.3495992422103882,-1.1112167835235596,-0.03382720425724983,764,795,770,41.391,1,0
1739355635.9165869,0.32914428273129964,1.1887022798123876,0.31640432813378755,-1.1795890608337782,-1.4266231036386663,1.0307891405596905,0.09294739298924508,0.0012611619252438592,0.00032649112871048654,-0.0004346387629066834,-0.0008743937410900567,0.00037571894947267,-0.0006188703495033123,0.0007310558029656413,-0.3539545238018036,-51.19015884399414,5.056868553161621,17.23242950439453,-1.3239644765853882,-1.1112167835235596,-0.020094294100999832,763,794,770,41.391,1,0
1739355635.927648,0.3291421091092366,1.1886995491691041,0.31640223061677697,-1.179590609548042,-1.4266211172096073,1.0307891405596905,0.09294771780336902,0.0002579148012598883,-0.0008231141176822301,-0.0005850001391874912,-0.0008054210639258783,0.0007000483072167857,0.0003035898381357027,-0.0008578498766246615,-0.3539545238018036,-51.16238784790039,5.080672264099121,17.25623321533203,-1.3367818593978882,-1.1112167835235596,-0.020094294100999832,765,792,770,41.283,1,0
1739355635.9386225,0.32914085960299955,1.1887044347327778,0.31640853295680915,-1.179590809915931,-1.4266231036388897,1.0307891405596905,0.09294370512349857,-0.0006720998323327774,0.0006747856244404481,0.0012081743395054496,-0.0006531988487976155,-0.00040872754671556356,-8.601944073752691e-05,-0.001834322831504222,-0.3063471019268036,-51.19015884399414,5.029097557067871,17.25623321533203,-1.3239644765853882,-1.1112167835235596,0.012864691205322742,762,793,771,41.283,1,0
1739355635.9503436,0.32914253163646795,1.188700291368062,0.316401887406795,-1.1795901985215274,-1.426622647744181,1.030788382899612,0.09295048592241906,-0.000647824745503083,0.00015092135982610434,-0.0005267930301637031,3.819152547678223e-06,-0.0007345001543691603,-0.0005557706468558327,-0.00048685431127139895,-0.3301508128643036,-51.16238784790039,5.056868553161621,17.25623321533203,-1.3367818593978882,-1.1048080921173096,-0.020094294100999832,765,791,770,41.283,1,0
1739355635.9605944,0.32914420327586996,1.188698331259274,0.316402546487058,-1.1795896188960022,-1.4266208306672947,1.0307891405596905,0.09294647315737857,0.0007774803864706505,-0.0005710076294194769,-0.0015028060933994715,-0.0006413678371430176,-0.0002705457820952613,0.0002213264217178098,-0.0016992411787831781,-0.3539545238018036,-51.13858413696289,5.080672264099121,17.28003692626953,-1.3431905508041382,-1.1112167835235596,-0.013685601763427258,768,792,770,41.174,1,0
1739355635.9715433,0.32914799328074185,1.1887003613429976,0.3164044069788013,-1.1795891289475475,-1.4266208301767975,1.030788382899612,0.09294719349861276,0.0015120958467528067,0.0009204704244160606,0.0004300563963053855,-1.5437989282318155e-05,0.00029014325889713374,-0.00015762921742747477,-7.872826846122436e-05,-0.4055292308330536,-51.16238784790039,5.056868553161621,17.23242950439453,-1.3431905508041382,-1.1048080921173096,-0.0072769103571772575,766,795,768,41.283,1,0
1739355635.9815664,0.32914427391863094,1.188700291030091,0.31640432824312964,-1.1795870663796582,-1.4266223130343239,1.0307859616453023,0.09295349169270475,0.0023802961490812496,-0.0009222292698789645,-0.0004200686512146106,0.00047706836592594404,-0.00029123430117788365,-0.0004639801190218481,0.0029883060667626167,-0.3539545238018036,-51.16238784790039,5.056868553161621,17.23242950439453,-1.3303731679916382,-1.1112167835235596,-0.03382720425724983,767,795,769,41.174,1,0
1739355635.991568,0.3291442405046949,1.188705149653541,0.31640230935377756,-1.1795849641769216,-1.4266231031553587,1.030789898058263,0.09295161433510438,0.0015715042637462237,0.0019439560192667845,-0.0012366639468747139,0.0009999709187496527,-0.00015312055283437412,0.00032761950377804025,0.0011499624044696123,-0.3539545238018036,-51.19015884399414,5.080672264099121,17.25623321533203,-1.3239644765853882,-1.1176254749298096,-0.020094294100999832,768,796,768,41.283,1,0
1739355636.0025442,0.3291442813922211,1.1886999626772825,0.3164025426481475,-1.1795905799216453,-1.4266228953696278,1.0307891361452042,0.09294491826729634,0.0006933303977398266,0.00020069772355111584,4.1676917906174286e-06,0.0004514815505577567,0.0005397028368129735,-0.00029662999110062634,-0.0002985600916171063,-0.3539545238018036,-51.16238784790039,5.080672264099121,17.25623321533203,-1.3303731679916382,-1.1112167835235596,0.012864691205322742,766,795,769,41.283,1,0
1739355636.0146117,0.3291441767851269,1.1886985785063156,0.3164043282417798,-1.179590639255435,-1.4266215889705163,1.0307891405596656,0.09295085233994752,0.00014275913772278528,-0.00196812185595668,0.0008782923398191554,-0.001023396793202391,-0.00018251412545235924,0.00024109654219903865,0.003025463317880595,-0.3539545238018036,-51.13858413696289,5.056868553161621,17.28003692626953,-1.3367818593978882,-1.1112167835235596,-0.04023589566349983,764,794,769,41.283,0,0
1739355636.025507,0.3291425702280169,1.1886985785081692,0.3164043281337894,-1.1795906167414754,-1.4266223458199667,1.0307883654570091,0.09294338986204637,-0.0009077175670280685,-0.0007293628772429611,0.0008031080070033232,0.0011549344153435448,-0.0003753346233121396,-0.00041674810171734786,-0.0016719513333146472,-0.3301508128643036,-51.13858413696289,5.056868553161621,17.25623321533203,-1.3303731679916382,-1.1048080921173096,0.012864691205322742,764,798,770,41.391,0,0
1739355636.0365431,0.3291431802671258,1.1887033904704287,0.31640997338568805,-1.179587914007036,-1.4266167098463642,1.030786865964104,0.09294533634543664,0.0011306337227455308,0.0009034043510042827,0.0014496768047009114,0.0008773370340891213,0.0010654314953129197,-0.0009392423405215097,-0.0006522819271775239,-0.3817255198955536,-51.16238784790039,4.981490135192871,17.25623321533203,-1.3431905508041382,-1.0919907093048096,0.03300629183650017,764,797,768,41.283,1,0
1739355636.046603,0.3291425962110943,1.1887047250331249,0.31639952096692525,-1.1795870409230584,-1.4266215936278146,1.0307891405596812,0.0929482527355611,0.0007832052849236327,0.0016521714415938455,-0.0010530452265819195,0.0005922908065271078,-0.0006050846512173381,-0.00013501915402674804,-0.0019319305839142543,-0.3301508128643036,-51.23776626586914,5.108443260192871,17.23242950439453,-1.3367818593978882,-1.1112167835235596,-0.027418512850999832,761,796,769,41.391,1,0
1739355636.057584,0.32914257022836296,1.1887003027970744,0.31640819070333737,-1.1795885165427227,-1.4266238481658702,1.0307891405596905,0.09294755251029455,0.0007818566682135204,-0.0010781144400220277,0.0018458743909369189,9.640830944027132e-05,-0.0010062233016630145,1.7493205437920625e-05,-0.00014803225987485653,-0.3301508128643036,-51.16238784790039,5.005293846130371,17.25623321533203,-1.3175557851791382,-1.1112167835235596,-0.013685601763427258,762,795,769,41.283,1,0
1739355636.0685046,0.3291401326039449,1.1886983302418535,0.3164043282417962,-1.1795881592987154,-1.4266215883213185,1.0307852039852239,0.09295642794918607,-0.0007697454345515847,-0.0014689993803674397,5.083466900108289e-05,0.0001609093938588091,0.0002939509843865157,-0.0014378009310381274,0.0018564351584023414,-0.3063471019268036,-51.13858413696289,5.056868553161621,17.25623321533203,-1.3367818593978882,-1.1048080921173096,-0.06037749722599983,761,796,770,41.283,2,0
1739355636.0795107,0.32914213697764233,1.1887041574913633,0.3164043279177757,-1.1795906028491792,-1.4266227002873306,1.0307890882139366,0.09294705793842796,0.00011530869248173314,0.0017168938350959773,0.0004665676545626745,-0.0013044162019435774,-0.0020086546422140327,-0.0004287675154958971,-0.0008165153742818979,-0.3539545238018036,-51.21396255493164,5.056868553161621,17.28003692626953,-1.3367818593978882,-1.1112167835235596,0.012864691205322742,762,796,768,41.283,1,0
1739355636.0895448,0.3291442826035924,1.1887022523429294,0.3164066903517874,-1.1795881347466675,-1.4266173493031897,1.0307876252386472,0.09295515347906919,0.0011750990403015383,0.00019392407585471148,0.0007751714200694158,-6.364149649963123e-05,0.00039170217338060714,-0.0006014748112981893,0.0022363859538979776,-0.3539545238018036,-51.19015884399414,5.056868553161621,17.25623321533203,-1.3367818593978882,-1.0983994007110596,-0.04756011441349983,762,800,770,41.174,1,0
1739355636.0995483,0.3291425702282138,1.1887022899502797,0.3164004688391162,-1.179586362940896,-1.4266208304280206,1.030788329118253,0.09294978316990216,0.0009256726875219411,0.0014496857527843384,-0.0007281454670167146,0.0006445764166085944,-0.00040969432964797135,-0.0005546921946041375,0.0014046253463027261,-0.3301508128643036,-51.19015884399414,5.108443260192871,17.20862579345703,-1.3431905508041382,-1.1048080921173096,-0.04023589566349983,764,797,768,41.283,1,0
1739355636.110488,0.3291463065811643,1.188702289296808,0.31640357349967313,-1.1795909118813268,-1.4266231050950982,1.0307883828993083,0.09294273451293514,0.0017393578420942008,-1.2512631352235145e-05,-0.00012101069939998813,-0.001608559834876321,-0.001284040776768001,9.289715332528337e-05,-0.0012726481927064675,-0.3817255198955536,-51.19015884399414,5.029097557067871,17.25623321533203,-1.3239644765853882,-1.1048080921173096,0.019273381680250168,762,798,769,41.283,1,0
1739355636.1205344,0.3291408564006053,1.1887015441706241,0.3164025444487063,-1.1795880548929345,-1.4266215883214663,1.030788382899612,0.09295246490604608,-0.00019493220789364813,0.0007471877796382979,-0.0008845293355724918,-0.0008015553299893513,-0.00032181701744952,-8.769451205592794e-05,0.0013777598511124152,-0.3063471019268036,-51.19015884399414,5.080672264099121,17.25623321533203,-1.3367818593978882,-1.1048080921173096,-0.03382720425724983,760,797,770,41.174,1,0
1739355636.1305466,0.3291436657485205,1.1886985664031589,0.3164014557993866,-1.1795888750054788,-1.4266184591881133,1.030789858973912,0.09295155079311157,0.0006183551551024965,-0.0011230701780878026,-0.0014550933734524302,-0.0006984696525122518,-0.0005465078799330699,0.0002943092259677002,0.0010306341787918558,-0.3063471019268036,-51.13858413696289,5.056868553161621,17.23242950439453,-1.3303731679916382,-1.1176254749298096,-0.020094294100999832,761,798,769,41.174,1,0
1739355636.1415396,0.3291425659924333,1.188700291028832,0.31640251897887495,-1.1795879269930964,-1.4266206998198512,1.0307883828455553,0.09294556416932034,-0.00046246911123304797,-0.0001798996524895695,-0.0011548647850602122,-0.0009240119427525876,0.00046653770708021355,0.00019688963588023072,-0.0008112104806987886,-0.3301508128643036,-51.16238784790039,5.080672264099121,17.25623321533203,-1.3431905508041382,-1.1048080921173096,0.0064559997990727425,762,797,770,41.174,0,0
1739355636.1525655,0.3291401423427076,1.1887022627681645,0.316406408067504,-1.1795867310612123,-1.4266231017027438,1.0307891403981846,0.09294602392551016,-0.0009437319099478941,0.0010034678881602232,0.0006095655419716288,0.0008535940577437272,-0.00032994072126440245,0.00047754828377614343,0.00025338096346231746,-0.3063471019268036,-51.19015884399414,5.029097557067871,17.23242950439453,-1.3239644765853882,-1.1112167835235596,-0.0008682189509272575,761,797,772,41.283,1,0
1739355636.1635544,0.3291397092012288,1.1887040014903367,0.31640432824179643,-1.1795885168909024,-1.4266220058507026,1.0307891405596896,0.09294924041995464,-0.0006323521921230399,0.0014093613346232011,0.0006029032556315347,-0.00021228609530994617,8.93632355952251e-05,-0.00027931909564692125,0.0009992572504959355,-0.3301508128643036,-51.21396255493164,5.056868553161621,17.25623321533203,-1.3303731679916382,-1.1112167835235596,-0.0008682189509272575,764,797,767,41.174,1,0
1739355636.1745377,0.329144247411526,1.188698061718888,0.31640424950479634,-1.1795897218355513,-1.4266223459795508,1.0307891405596905,0.09295103225927817,2.968344664663894e-05,-0.001365351039058508,0.0005748027122786654,7.88649266395818e-05,0.0011320519082435795,-0.00012512092462681283,0.0009806056256508881,-0.3539545238018036,-51.16238784790039,5.056868553161621,17.28003692626953,-1.3303731679916382,-1.1112167835235596,-0.04023589566349983,763,798,770,41.174,1,0
1739355636.1854959,0.3291469848259779,1.1886993484236754,0.31640431625259047,-1.1795861451405603,-1.4266214718758674,1.0307891399136682,0.09294414729307242,0.0011513008013390338,-0.0007688332508457533,-0.0004931263801879999,0.0009464114729158006,-5.5778146302518854e-05,9.701031355286192e-05,-0.0011613723348042019,-0.3539545238018036,-51.19015884399414,5.056868553161621,17.23242950439453,-1.3367818593978882,-1.1112167835235596,0.0064559997990727425,762,799,766,41.174,1,0
1739355636.1955779,0.3291442827947074,1.1886983310964199,0.31640640770742817,-1.17958785034445,-1.426616592106825,1.0307891405596794,0.09294858613837294,0.000555384425050125,-0.000492770436770482,0.0010828077745353,4.002037060588798e-05,0.001011551242194588,0.00011261001571934509,0.0007575863255796991,-0.3539545238018036,-51.13858413696289,5.029097557067871,17.25623321533203,-1.3431905508041382,-1.1112167835235596,-0.027418512850999832,766,798,770,41.174,2,0
1739355636.2055786,0.3291442827489483,1.1887022876089168,0.3164092422396217,-1.1795863483789724,-1.4266234567824787,1.030788382899612,0.09295428736454976,-0.000236007747108312,0.0008750200281512489,0.0008741114924936443,2.1754294854526885e-05,0.00029274258272499843,-0.00011425688539819733,0.0025864063466700766,-0.3539545238018036,-51.19015884399414,5.029097557067871,17.23242950439453,-1.3239644765853882,-1.1048080921173096,-0.04023589566349983,763,797,770,41.174,1,0
1739355636.216551,0.32914532701548416,1.1886985652808542,0.31640434089459785,-1.1795897137850118,-1.426622345821959,1.030789127477738,0.09294802431683023,0.0009968695909337395,-0.0012195721245497,1.8273107211096998e-05,-0.0006052259266186289,-0.000319517977938128,-9.83395513647186e-05,-0.0007782554996659051,-0.3817255198955536,-51.13858413696289,5.056868553161621,17.28003692626953,-1.3303731679916382,-1.1112167835235596,-0.013685601763427258,764,795,770,41.283,1,0
1739355636.227551,0.32914427391324624,1.188698575455639,0.3164064080317232,-1.1795884146734925,-1.4266215883213917,1.0307891405596166,0.09294309221622453,0.0002786484492669103,-0.00048465225350615283,0.0009071292577729907,-4.260948654672813e-05,-0.00047914168597382157,0.0003677265834786097,0.0001608269949262735,-0.3539545238018036,-51.13858413696289,5.029097557067871,17.23242950439453,-1.3367818593978882,-1.1112167835235596,0.019273381680250168,764,796,771,41.174,0,0
1739355636.2384567,0.3291440443303185,1.1886965805672989,0.3164025455647772,-1.1795920794200214,-1.426619167067083,1.0307891405596905,0.09294901459919605,0.0011876567372276774,-0.0013654191497003134,-0.0008339849610886272,-0.0025254266255890804,-0.0007651789707565016,0.0004111362971535245,-0.0007250294838291395,-0.3539545238018036,-51.11081314086914,5.080672264099121,17.30384063720703,-1.3303731679916382,-1.1112167835235596,-0.03382720425724983,760,798,770,41.283,1,0
1739355636.2494588,0.3291442826022466,1.1887002910289004,0.31640258153106104,-1.1795860791472408,-1.4266233543669964,1.0307898977352519,0.09294652823249043,-0.0006122142901334669,0.0009436227215744536,0.0002505438590314669,0.0012635082031356374,-9.68441927677343e-05,0.0005433393009444207,-0.001691285011364223,-0.3539545238018036,-51.16238784790039,5.080672264099121,17.23242950439453,-1.3367818593978882,-1.1176254749298096,-0.013685601763427258,758,796,770,41.283,1,0
