IITGN-Robotics/Franka_IITGN_ROBOTICS/franka_ros/franka_iitgn/data02/s_f_001.csv
time,fr3_joint1_pos,fr3_joint2_pos,fr3_joint3_pos,fr3_joint4_pos,fr3_joint5_pos,fr3_joint6_pos,fr3_joint7_pos,fr3_joint1_vel,fr3_joint2_vel,fr3_joint3_vel,fr3_joint4_vel,fr3_joint5_vel,fr3_joint6_vel,fr3_joint7_vel,fr3_joint1_eff,fr3_joint2_eff,fr3_joint3_eff,fr3_joint4_eff,fr3_joint5_eff,fr3_joint6_eff,fr3_joint7_eff,flexpin1,flexpin2,flexpin3,Force,ContactMic,ContactMic_gt
1739354849.2134528,0.3692899683659508,1.191652216030875,0.2975130732063629,-1.1499490876545537,-1.393178268202364,1.0478947653070183,0.08829819078406895,-0.0012114246510959749,0.00023109995602708109,-0.001956867861892415,-0.0010609402233754395,-0.0012796797937269294,0.0008921981126352934,-0.0007298574795326728,0.6418340802192688,-52.67392349243164,5.283003807067871,18.14490509033203,-1.1536763906478882,-1.4142563343048096,-0.013685601763427258,,,,,,,,,
1739354849.2234592,0.36927662819940316,1.1916549374231495,0.29751197840324717,-1.1499569145269763,-1.3931895875809357,1.0479017169680316,0.08829824129008818,-0.002086421549442078,8.298828536560738e-05,-9.384096396612175e-05,-0.0009636763927119142,-0.0005352704998734485,0.0007561164789521978,0.0005639110904418062,0.5902593731880188,-52.69772720336914,5.235396385192871,18.16870880126953,-1.1664937734603882,-1.3877060413360596,0.012864691205322742,,,,,,,,,
1739354849.2334592,0.36926897951191057,1.1916571003189633,0.2975034507405275,-1.1499562246453967,-1.393196063368676,1.0479112532522081,0.0883026251017049,-0.00012805574169601035,0.0009867539099263733,-2.6711863364465378e-05,0.0009857798703400446,-0.0012456158867931826,0.000695115830779743,0.0018380986013740068,0.5188482403755188,-52.69772720336914,5.283003807067871,18.09729766845703,-1.1664937734603882,-1.3877060413360596,-0.020094294100999832,,,,,,,,,
1739354849.244463,0.3692542105077791,1.1916552019221636,0.29749599659805226,-1.1499586397014623,-1.3932029891282434,1.0479195322664023,0.0883013916004973,-0.00027240148620813053,5.494179987098236e-06,0.0002640332162602247,0.0007287690440487645,-0.0010487695972723238,0.0006576004169674723,0.0014948085849137934,0.5902593731880188,-52.69772720336914,5.259200096130371,18.09729766845703,-1.1472676992416382,-1.4069321155548096,-0.013685601763427258,,,,,,,,,
1739354849.2554452,0.36923334041566225,1.1916524495006597,0.29748759671733,-1.1499615020812326,-1.3932045947846816,1.047927834979312,0.08830383056230447,-0.0011220372452316121,-0.0005623358704197122,-0.00026368639396043693,5.5289952643509385e-05,-0.001068300625941107,0.0015111680379735959,0.0013728302015333115,0.6894415020942688,-52.62234878540039,5.283003807067871,18.09729766845703,-1.1664937734603882,-1.4069321155548096,-0.03382720425724983,,,,,,,,,
1739354849.2664979,0.36920914967670493,1.1916533340904563,0.29747713108361523,-1.1499632845886931,-1.393209595583132,1.0479290712417535,0.08829983233462879,-0.0022785633988796363,0.0011250917607743827,-0.0008828601914901087,0.0010458860360069145,-0.0012930899244539304,0.0003492748268929586,-0.0008028652088149133,0.7410162091255188,-52.67392349243164,5.334578514099121,18.12110137939453,-1.1600850820541382,-1.4069321155548096,0.026597600430250168,,,,,,,,,
1739354849.2773912,0.36918288532532023,1.1916559210905788,0.297459204424502,-1.1499672064312925,-1.3932119308717157,1.047932766709816,0.08830236736836922,-0.0017341863507184408,0.0002720743378035477,-0.000505722402668137,-0.0007132697320049088,-0.000760406115601471,0.00011779380980038269,3.904449367954268e-05,0.7925909161567688,-52.69772720336914,5.362349510192871,18.16870880126953,-1.1536763906478882,-1.4069321155548096,0.0064559997990727425,,,,,,,,,
1739354849.287415,0.36916035016156046,1.1916619182934771,0.2974429246175023,-1.1499580754068914,-1.3932129295787896,1.0479327799779727,0.0883093284623715,-0.002718848540408816,0.001708460139045145,-0.00042163528009281695,0.0013929487315776658,-0.0010395900706393817,0.0003779365882561846,0.0037829386047747693,0.8401983380317688,-52.74930191040039,5.409956932067871,18.04572296142578,-1.1729024648666382,-1.4069321155548096,-0.04023589566349983,,,,,,,,,
1739354849.2974932,0.3691436147335233,1.1916598814734274,0.29743005750893736,-1.1499656886685143,-1.3932115487204948,1.0479327978568653,0.08830269498640446,-0.001160422207064274,0.0009639793402351042,-0.0009410468620108368,-0.000649784603572912,0.0012702555385705936,0.0004400813230123707,-0.00010491020393428693,0.8401983380317688,-52.72153091430664,5.409956932067871,18.14490509033203,-1.1600850820541382,-1.4069321155548096,0.012864691205322742,,,,,,,,,
1739354849.3084395,0.36912022731472477,1.1916598853966618,0.29740699921093855,-1.1499643871130876,-1.3932153027944765,1.0479360921375593,0.08830928720730025,-0.0015011109748363249,-0.0008804861636354179,-0.002993765530413468,9.789249377048807e-05,-0.0004609293124135617,-0.0013960752679319343,0.0024332336851234735,0.8640020489692688,-52.72153091430664,5.437727928161621,18.12110137939453,-1.1664937734603882,-1.3941147327423096,-0.04023589566349983,,,,,,,,,
1739354849.319402,0.3691022032515565,1.191662607423544,0.29739456528789215,-1.149966621296206,-1.3932115336044637,1.0479310500621641,0.08829991201665688,-0.0017800871292122636,-0.0015793067992369353,-0.0021005623685883264,0.000850406345800141,0.001330037444104181,-0.0014049911225455505,-0.002093456710384168,0.8917730450630188,-52.74930191040039,5.461531639099121,18.12110137939453,-1.1664937734603882,-1.3877060413360596,0.03941498324275017,,,,,,,,,
1739354849.329457,0.3690916678361527,1.191668464100568,0.29739098337241343,-1.1499753648013855,-1.3932149543256271,1.0479361521653374,0.08830846796261345,-0.0006817681054783098,0.0005436775400181673,-0.0004894673811293848,-0.002579719901360188,-0.00039029738651095275,0.00017280806628381317,0.0004332697820480884,0.8917730450630188,-52.80087661743164,5.409956932067871,18.19647979736328,-1.1664937734603882,-1.3941147327423096,-0.0072769103571772575,,,,,,,,,
1739354849.3404102,0.3690767562776016,1.1916667876890696,0.2973877627492148,-1.1499717380667076,-1.3932136091328675,1.0479328933550345,0.08830257680098001,-0.0016753848331485983,0.0010812027690207185,-0.0005835936555404953,-6.282599620661909e-05,-0.00028570664374671917,0.00032155734493036903,-0.002832731617497324,0.8917730450630188,-52.77310562133789,5.409956932067871,18.14490509033203,-1.1793111562728882,-1.3941147327423096,0.012864691205322742,,,,,,,,,
1739354849.3504107,0.3690719953294278,1.1916602165329975,0.29738186183897697,-1.1499743221962817,-1.3932144375917486,1.0479328936309318,0.08830787027529435,-0.00040258857587276305,-0.0007615008004794398,-0.0003741525722072594,-0.00041796327692011855,0.0009653106887201411,-0.0006703947313014552,0.0006042234452900607,0.8640020489692688,-52.72153091430664,5.409956932067871,18.16870880126953,-1.1729024648666382,-1.3941147327423096,-0.027418512850999832,,,,,,,,,
1739354849.3613946,0.36906798854278,1.1916630863341795,0.29737890483789353,-1.1499748423834844,-1.3932171753822171,1.0479361521653363,0.08830793178118532,0.0011364017663143904,-0.0007513940064371345,-0.000597134289013089,0.00034261311870077113,0.0002879392047742602,-0.0003457814414192338,0.0008243275315990724,0.8640020489692688,-52.72153091430664,5.409956932067871,18.14490509033203,-1.1866353750228882,-1.3941147327423096,-0.027418512850999832,,,,,,,,,
1739354849.371453,0.36906479860974806,1.1916665848113608,0.29737748064067643,-1.149973854569062,-1.393210214328116,1.0479385334563,0.08830102616999592,-9.174565475829664e-05,0.0010422043100806572,-0.00010313664852799621,-0.00029843187638873674,0.0014828560909595986,2.1140100413037806e-05,-0.00010747977360715583,0.8640020489692688,-52.77310562133789,5.386153221130371,18.16870880126953,-1.1729024648666382,-1.4142563343048096,0.03300629183650017,,,,,,,,,
1739354849.3814814,0.36906502866185836,1.1916599748324155,0.2973781878843218,-1.149976743028371,-1.3932129349946074,1.0479385334563014,0.0883078659203436,0.0006796192857441678,-0.0018380096634510476,-0.0005177899795705233,2.3650456616752878e-05,-0.00010906595961519534,0.00012368426155168303,0.00028586811322577315,0.8163946270942688,-52.72153091430664,5.386153221130371,18.16870880126953,-1.1866353750228882,-1.4142563343048096,-0.027418512850999832,,,,,,,,,
1739354849.3934844,0.36906667070302207,1.1916657635379035,0.29737851068223947,-1.149974960498108,-1.3932143538803679,1.0479369098989906,0.0883030508943471,0.0005731938156164837,-0.00022193940076699619,-0.0008369950110048423,0.0011997159494585555,-0.0005563072908767275,0.00036556100268521314,-0.002470803728453079,0.7925909161567688,-52.77310562133789,5.386153221130371,18.14490509033203,-1.1866353750228882,-1.4005234241485596,0.012864691205322742,,,,,,,,,
1739354849.404365,0.3690656537991373,1.19166511081668,0.29738020549275357,-1.1499780495830911,-1.3932153164353867,1.0479353945604402,0.08830353308311452,-0.00019373606588349215,-8.537472444403952e-05,0.0010014440478373166,0.00028354058264763276,0.000325696395499313,-0.0013050389947245372,-0.0014977792437920745,0.7925909161567688,-52.74930191040039,5.362349510192871,18.14490509033203,-1.1664937734603882,-1.3877060413360596,0.019273381680250168,,,,,,,,,
1739354849.414382,0.36906355834335947,1.1916631040475036,0.29737747754986804,-1.1499800779785663,-1.3932159730770282,1.0479378245424953,0.08830694810195153,-0.0006947618849870807,-0.00038687532986397973,-0.0005967591965573382,0.0002899685364320849,-0.0009436737155931185,0.0007439820157686193,-0.0006068355462469017,0.7925909161567688,-52.72153091430664,5.386153221130371,18.16870880126953,-1.1729024648666382,-1.4069321155548096,-0.020094294100999832,,,,,,,,,
1739354849.4243963,0.3690635492130896,1.1916667163942967,0.2973799666362985,-1.1499807962909203,-1.393216074116747,1.0479372118797001,0.088304334934343,0.00019215387316169055,-8.359325614589968e-05,-0.0005705569808106409,0.00011859988086016226,0.0006189698424775706,-0.000486624539738542,-0.0011747581763669518,0.7925909161567688,-52.77310562133789,5.362349510192871,18.16870880126953,-1.1600850820541382,-1.3941147327423096,0.0064559997990727425,,,,,,,,,
1739354849.4344602,0.36906012128254145,1.1916665844829502,0.2973816355783153,-1.1499782983703288,-1.3932169939002783,1.0479369273595387,0.08831136640308557,-0.0014192961362258253,0.0003333320731331218,0.0008009411788519826,-0.0006582992892625552,-0.00037682851537485554,-0.0002954622594340268,0.0010458314413915465,0.8401983380317688,-52.77310562133789,5.362349510192871,18.14490509033203,-1.1793111562728882,-1.4005234241485596,-0.027418512850999832,,,,,,,,,
1739354849.4454815,0.36906012128249255,1.1916688212789102,0.29738156960230494,-1.1499783376040724,-1.3932193208366086,1.0479369098990892,0.08831106190134017,-0.0008925305172010985,0.002392908525982503,0.001435903605068567,0.0007394869500589971,-0.0010340123539428567,-0.00017358858483930312,0.0019922491327173334,0.8401983380317688,-52.80087661743164,5.334578514099121,18.14490509033203,-1.1729024648666382,-1.4005234241485596,-0.027418512850999832,,,,,,,,,
1739354849.4564364,0.36906183380322377,1.1916650048548614,0.2973813302086359,-1.1499811712641597,-1.3932146157033212,1.047937667559069,0.08830356355435472,-0.0010664422688588132,-0.0003271859477524013,0.0012581358013598297,4.531994247597827e-06,0.0020575071074078,-0.001033628907885167,0.0007990136864949615,0.8163946270942688,-52.74930191040039,5.334578514099121,18.14490509033203,-1.1729024648666382,-1.4069321155548096,0.012864691205322742,,,,,,,,,
1739354849.4665012,0.3690600418096328,1.1916651108168799,0.29737746968452244,-1.149980319502467,-1.3932193091373124,1.0479416762517526,0.08830469198460598,-0.0005729546092137975,0.0004918343249902758,-0.0007798459807950191,-0.0005927337068541988,-0.000494458648247183,0.0013959287704970486,-0.0006361311522105757,0.8401983380317688,-52.74930191040039,5.386153221130371,18.16870880126953,-1.1729024648666382,-1.4005234241485596,-0.0008682189509272575,,,,,,,,,
1739354849.477467,0.369058881532312,1.1916665845937775,0.2973813577702531,-1.1499803459488056,-1.3932197139871758,1.047935906309239,0.0883063085482652,-0.00043577041013590883,0.00012443928559588283,0.0010975595248640091,-9.535788039544837e-05,-0.0005294596000531735,-0.0005320368608299447,-0.0016962050832400146,0.8163946270942688,-52.77310562133789,5.334578514099121,18.16870880126953,-1.1664937734603882,-1.3877060413360596,-0.013685601763427258,,,,,,,,,
1739354849.488371,0.36906107955884176,1.191662790734299,0.2973781839591797,-1.1499828762387942,-1.3932193206653545,1.0479395994658915,0.0883078328549643,0.0005346150579964513,-0.0009258561803309923,-0.0005315705443396816,-0.0013417306678819997,-0.0006979442623406241,-0.0009366774722484245,-0.0006796955579351718,0.7925909161567688,-52.72153091430664,5.386153221130371,18.19647979736328,-1.1729024648666382,-1.4142563343048096,-0.027418512850999832,,,,,,,,,
1739354849.4984422,0.36905893447378946,1.19166035401349,0.2973800003887967,-1.149979013735085,-1.393218226322058,1.0479405728636635,0.08830363156372531,-0.00028757746802391825,-0.0021225727898184824,0.0001589283621269571,0.00027804983134355687,-0.00013415139115598122,-0.0006033591792018637,-0.0016133249003780967,0.8163946270942688,-52.69772720336914,5.362349510192871,18.14490509033203,-1.1729024648666382,-1.4005234241485596,0.03941498324275017,,,,,,,,,
1739354849.508453,0.36905893435744763,1.1916643242327476,0.2973814001037471,-1.1499821962674928,-1.3932143246142648,1.0479412071400669,0.08830701569573486,0.00018209145757798532,-0.0006709127169807306,0.0004556599526286028,-3.0270688411883698e-05,0.0014735212135553535,-3.6707722909032155e-05,0.00025860092622310987,0.8163946270942688,-52.77310562133789,5.362349510192871,18.19647979736328,-1.1793111562728882,-1.4005234241485596,-0.0072769103571772575,,,,,,,,,
1739354849.5184798,0.3690603276785428,1.1916626382873832,0.29738133545829026,-1.149982262124318,-1.3932169845579703,1.0479416782625939,0.08831045276261992,0.0003997219102129712,-0.0014892641509264108,0.0007563654410905103,-0.0010369318489543322,0.0018909867707632224,-0.00015342606589277728,0.0010695522958560958,0.7925909161567688,-52.74930191040039,5.334578514099121,18.16870880126953,-1.1793111562728882,-1.4005234241485596,-0.013685601763427258,,,,,,,,,
1739354849.5294693,0.36905690463939095,1.1916631118827175,0.29737925138043564,-1.1499844223798918,-1.3932190245112006,1.0479405673977844,0.08830895106977159,-0.0007810216166556344,-0.0004021682299795108,0.0005630662290484792,-0.0005656076903138199,0.0005041818095058271,7.250611774803807e-05,9.283800358307127e-05,0.8401983380317688,-52.72153091430664,5.362349510192871,18.19647979736328,-1.1664937734603882,-1.3941147327423096,-0.0008682189509272575,,,,,,,,,
1739354849.5404077,0.3690602917068645,1.1916681050433693,0.2973820495147985,-1.1499832197353863,-1.3932161482238472,1.0479416739079277,0.08830735684468716,0.0003784625506672485,0.0012599069025732413,0.0008625590402613167,-0.000367107466731052,0.0007124406685645462,0.0003926654199191466,-0.00021303359717960292,0.7925909161567688,-52.80087661743164,5.334578514099121,18.16870880126953,-1.1729024648666382,-1.4005234241485596,-0.020094294100999832,,,,,,,,,
1739354849.5513709,0.369060327672934,1.1916667438625028,0.29737925138446647,-1.1499785379210143,-1.3932185692508565,1.0479415605329778,0.08830782206723496,0.0007918518021949276,0.00012622181010712712,-0.0003251443863472851,0.0007846312540354257,-0.00046571687556968384,0.00033230530355079314,0.0015914440720933582,0.7925909161567688,-52.77310562133789,5.362349510192871,18.14490509033203,-1.1793111562728882,-1.4005234241485596,0.012864691205322742,,,,,,,,,
1739354849.5613713,0.3690623256139901,1.191663112767459,0.2973813312792833,-1.149984165726857,-1.3932150885916994,1.0479416782685786,0.0883045430734455,0.0005907489400586916,-0.0006604037506577717,0.00032935029986275036,-0.000855137932864517,-0.0005357507463392202,0.0002493741041567396,-7.369154683441962e-06,0.7648199200630188,-52.72153091430664,5.334578514099121,18.14490509033203,-1.1729024648666382,-1.4005234241485596,0.03941498324275017,,,,,,,,,
1739354849.5714447,0.369058536415406,1.1916631127688033,0.2973792513804132,-1.1499832984227139,-1.3932185868549651,1.0479424359306508,0.08831156242208442,0.00037601401312822294,-0.0001451133867448395,-0.0003057507154975093,-0.0007233731865189614,-2.557586170139428e-06,-0.00040507620692997964,-0.0003532697005991943,0.8163946270942688,-52.72153091430664,5.362349510192871,18.16870880126953,-1.1793111562728882,-1.4069321155548096,-0.020094294100999832,,,,,,,,,
1739354849.5824704,0.36905595386298234,1.1916667435394965,0.29737783179358523,-1.1499805628623063,-1.393218530238384,1.0479395077596552,0.08830689688254305,-0.0009476944439875518,0.0004133236234231788,-0.0019482042975569817,0.0012471158599356288,0.0009054368086504912,-0.0016001971024472718,0.0008945906941443223,0.8401983380317688,-52.77310562133789,5.409956932067871,18.14490509033203,-1.1793111562728882,-1.3941147327423096,-0.0072769103571772575,,,,,,,,,
1739354849.5934803,0.3690548751215858,1.1916629650146733,0.2973799666482616,-1.14998080174791,-1.3932180985874765,1.0479416782625968,0.08829984375525614,-0.0018937552775690517,-8.551670044486763e-05,-0.0002505006877319135,-0.00017691975554490316,0.0005520462950338752,-3.348056728439147e-05,-0.0013529568382914582,0.8640020489692688,-52.74930191040039,5.362349510192871,18.14490509033203,-1.1793111562728882,-1.4005234241485596,0.05314789339900017,,,,,,,,,
1739354849.6044078,0.36906232557620966,1.1916629532655925,0.29738723544320983,-1.1499832996820152,-1.3932185694814843,1.0479409206104942,0.08830347450193851,0.002069265880219541,-0.001546640704767811,0.0016016481416937078,5.263841101843006e-05,-3.2868452835843636e-05,-0.00017162143583345616,-0.0016775595105645146,0.7648199200630188,-52.74930191040039,5.283003807067871,18.16870880126953,-1.1793111562728882,-1.3941147327423096,0.03941498324275017,,,,,,,,,
1739354849.6144118,0.3690581978858925,1.1916668144725495,0.2973781839937078,-1.1499832987049063,-1.3932211429888781,1.0479433018278832,0.08831065827655625,-0.00024199684615618496,0.000545063970939598,-0.0009345369590483492,-0.0002517221719983689,-8.314212042939291e-05,0.000500039004187435,0.0010150566551323848,0.7925909161567688,-52.77310562133789,5.386153221130371,18.16870880126953,-1.1664937734603882,-1.4142563343048096,-0.020094294100999832,,,,,,,,,
1739354849.626447,0.36906021101370706,1.1916606844350923,0.29737600392184993,-1.1499815963728715,-1.393218150867645,1.0479416782705724,0.0883078150267982,0.0003170926847794731,-0.0008075282183539793,-0.0007552039656249828,0.00042093527024156447,-0.00027013436051258484,-0.00011934579977129694,-0.00034317949653496407,0.7925909161567688,-52.69772720336914,5.409956932067871,18.14490509033203,-1.1793111562728882,-1.4005234241485596,-0.027418512850999832,,,,,,,,,
1739354849.6383758,0.3690580966832472,1.1916592545885312,0.2973803949452081,-1.149981517009183,-1.3932225060578212,1.0479424359306508,0.08830629744515865,0.0006426509951670183,-0.00015165876667384417,-0.0003388013503540415,0.0003171427618156495,-0.0006730939258304276,-0.0001389555848509155,0.0006079315405228895,0.7925909161567688,-52.69772720336914,5.334578514099121,18.14490509033203,-1.1729024648666382,-1.4069321155548096,0.012864691205322742,,,,,,,,,
1739354849.6484845,0.3690574830479069,1.1916630863747553,0.29737924270833305,-1.1499853794759085,-1.3932208817281793,1.0479401631119214,0.08830464319586438,6.2699217112324135e-06,0.000514447985798478,-0.0005985070829532897,-0.0010116472704816797,-0.00033758918984017733,-0.0008275661964090011,0.0010731370849077354,0.7925909161567688,-52.72153091430664,5.362349510192871,18.19647979736328,-1.1600850820541382,-1.3877060413360596,0.012864691205322742,,,,,,,,,
1739354849.6584992,0.36905961596777204,1.1916665053385018,0.29738139714747647,-1.1499779771648024,-1.3932208424650425,1.0479416782705753,0.08830859727633308,0.0008323400412597641,0.000853143790949382,0.0008907891715960286,0.002384847451585612,0.000584741260501989,-0.00030979866121447463,1.6510784080553864e-05,0.7925909161567688,-52.77310562133789,5.362349510192871,18.09729766845703,-1.1600850820541382,-1.4005234241485596,0.0064559997990727425,,,,,,,,,
1739354849.6694462,0.369057897298804,1.1916631040457086,0.297383585856844,-1.1499833025206196,-1.3932221109666145,1.0479433018278834,0.08830753467245595,0.0005363426710976517,-0.0007013124180844127,0.0010611612805073675,0.00033096671494554605,-0.001195881856064461,0.00045632134191159624,0.00018246953942218345,0.8163946270942688,-52.72153091430664,5.334578514099121,18.16870880126953,-1.1536763906478882,-1.4142563343048096,0.0064559997990727425,,,,,,,,,
1739354849.6804,0.36905542969396954,1.191663342465933,0.2973799676554784,-1.149980525136074,-1.3932198438092316,1.0479409206104944,0.08831156727463842,-0.0015513682319339877,-0.0014090268595914439,0.0005664320097802111,0.00019670483673961165,-0.00023158747709403675,-0.001041324879024378,0.002266892824201884,0.8163946270942688,-52.72153091430664,5.362349510192871,18.12110137939453,-1.1729024648666382,-1.3941147327423096,-0.020094294100999832,,,,,,,,,
1739354849.6904535,0.3690555403591722,1.191666905102604,0.2973815350710711,-1.1499892286213245,-1.3932204380199253,1.0479433018278834,0.08830272431354494,-0.0007466406548245466,0.0005277989180134533,4.757172445505329e-05,-0.001601363847195902,0.0011270715196157295,0.0006625876195131972,-0.0012453674581856659,0.8163946270942688,-52.80087661743164,5.334578514099121,18.22028350830078,-1.1664937734603882,-1.4142563343048096,0.05314789339900017,,,,,,,,,
1739354849.7023652,0.36905826116057083,1.1916650989977617,0.2973775481774031,-1.1499817579816451,-1.3932209999343148,1.047942553668221,0.08830780072538337,-0.00035567518946047494,-0.0008865560018305259,0.0003519039259621498,-0.00017271477185797491,-3.781437502614184e-05,4.73148380377547e-05,-0.0002828156970080533,0.8163946270942688,-52.74930191040039,5.386153221130371,18.14490509033203,-1.1600850820541382,-1.4069321155548096,0.012864691205322742,,,,,,,,,
1739354849.712449,0.3690575828208535,1.1916646736475411,0.2973792252489498,-1.1499815169363705,-1.3932208425191017,1.0479409206111587,0.08830858548509506,-0.000728463774519334,0.000137196404718587,0.0006237084577756043,0.00012000542293863942,-0.0001370310929259448,-0.0006338298776164175,-0.0017094449747039066,0.8163946270942688,-52.77310562133789,5.334578514099121,18.14490509033203,-1.1600850820541382,-1.3941147327423096,0.0064559997990727425,,,,,,,,,
1739354849.7224567,0.36905550550945854,1.1916651447953448,0.29737746866772835,-1.1499853952694412,-1.3932216678820235,1.0479416782705726,0.08831161970326683,-9.574490375940402e-05,0.0019524113079337768,-0.0011285081119691669,-0.00023303760159765907,-0.0009726444549483378,-0.0003586257398185148,0.0012860448319490683,0.8163946270942688,-52.74930191040039,5.386153221130371,18.16870880126953,-1.1664937734603882,-1.4005234241485596,-0.020094294100999832,,,,,,,,,
1739354849.7334251,0.3690544312011831,1.1916630863870599,0.2973816755526588,-1.1499815198552863,-1.3932211446128706,1.047940162950416,0.08831022283429238,-0.0016951294080811987,-0.0002996318880364416,0.0009794738951534893,0.0006601695738030872,6.816399894256283e-05,-0.0006629898869543128,0.0010289259877761736,0.8401983380317688,-52.72153091430664,5.334578514099121,18.14490509033203,-1.1664937734603882,-1.3877060413360596,-0.0072769103571772575,,,,,,,,,
1739354849.7454166,0.36905926573575243,1.1916651108185248,0.29738228582767384,-1.1499833110237607,-1.3932250824764278,1.0479416782705726,0.08830423867078654,0.0007330145466780841,-0.00041845258986963505,0.0012385723999057872,-0.0004578846164684027,-0.0011303277518522022,0.0004053703427935395,-0.002486333330106755,0.7925909161567688,-52.74930191040039,5.334578514099121,18.16870880126953,-1.1600850820541382,-1.4005234241485596,0.03300629183650017,,,,,,,,,
1739354849.755437,0.3690592657317197,1.191667857794478,0.2973792543400179,-1.1499799643403827,-1.393223278972017,1.0479409206104944,0.08830880334069352,-6.38385638363066e-05,0.0016645969099263799,-0.00011134958250842616,0.0009513480676842909,0.00038443220309726425,-0.0007721027477597625,9.199897065492588e-05,0.7925909161567688,-52.80087661743164,5.362349510192871,18.12110137939453,-1.1664937734603882,-1.3941147327423096,-0.0072769103571772575,,,,,,,,,
1739354849.7654417,0.3690578973208398,1.1916667173592759,0.2973792513804615,-1.149983299689948,-1.393220099393895,1.047942435930651,0.08831082275171374,0.0009087856180053449,0.0011850143814429767,0.00019596355848065846,0.00028051588104306224,0.0009439010774998394,0.0002309193720853863,0.000739982830661247,0.8163946270942688,-52.77310562133789,5.362349510192871,18.16870880126953,-1.1664937734603882,-1.4069321155548096,-0.013685601763427258,,,,,,,,,
1739354849.7763972,0.3690619713501433,1.1916585393339416,0.29738303584614595,-1.1499830870922163,-1.3932240367188256,1.0479416782705726,0.08830621822233715,0.0010738593853686137,-0.002594784376171956,0.00039765085360628086,-0.0003628392720132388,-0.0014911650055094434,0.0005757885610923862,0.0002536632049125382,0.7648199200630188,-52.69772720336914,5.310774803161621,18.16870880126953,-1.1729024648666382,-1.4005234241485596,0.026597600430250168,,,,,,,,,
1739354849.7864943,0.36905542635191435,1.1916628744107907,0.29737754721195403,-1.149985404982115,-1.3932213541938212,1.0479433018278834,0.08831260259209922,-0.0007835485285778624,-0.0009227711549467947,-0.001128283598812931,0.00040700145489524706,0.000796661522018889,-0.00010234685076797442,0.002233344533016497,0.8163946270942688,-52.72153091430664,5.386153221130371,18.19647979736328,-1.1600850820541382,-1.4142563343048096,-0.027418512850999832,,,,,,,,,
1739354849.7984724,0.3690591455140504,1.191664027304935,0.29738355641078174,-1.1499836088133366,-1.393226205512876,1.0479416782705726,0.08830880336137538,-0.00016654775208767254,-0.00022334126965139177,0.000694285277621811,7.112295210743376e-05,-0.0009969626655615795,0.0008365712817151034,0.0012589463052475342,0.7648199200630188,-52.72153091430664,5.334578514099121,18.14490509033203,-1.1536763906478882,-1.4005234241485596,-0.0072769103571772575,,,,,,,,,
1739354849.8094513,0.3690575522389261,1.1916651098392486,0.2973792513845986,-1.1499845030600824,-1.393223937006739,1.0479427422693526,0.08830708395493274,-0.0004461521960665356,-0.0004473421286843335,-2.8883096852674702e-05,-0.00014514528125355078,-0.0003539520989594429,-0.0006380316124993943,0.0001707459503756723,0.8163946270942688,-52.74930191040039,5.362349510192871,18.14490509033203,-1.1729024648666382,-1.4005234241485596,0.019273381680250168,,,,,,,,,
1739354849.8204205,0.36905737601970395,1.1916592534633712,0.297381331315622,-1.1499836410934103,-1.3932207923488915,1.0479424373902075,0.08830745425398133,0.0004453470432554047,-0.0026135932356014632,0.0008672233562138411,-0.0003687557194143284,0.0005997202066570406,-0.0001848876536570872,0.00014929933237961876,0.7925909161567688,-52.69772720336914,5.334578514099121,18.16870880126953,-1.1729024648666382,-1.4069321155548096,-0.0008682189509272575,,,,,,,,,
1739354849.8313708,0.36905542630524935,1.1916631265654132,0.297381331279284,-1.1499853911304636,-1.3932255928363584,1.0479436724832043,0.0883062192930332,0.00014119154429181386,0.0003582469057451126,-6.618259935409394e-05,0.0003275644635399698,-0.0015737125572419597,-0.00022047244974035025,-0.000598100489373398,0.8163946270942688,-52.72153091430664,5.334578514099121,18.19647979736328,-1.1600850820541382,-1.4142563343048096,0.026597600430250168,,,,,,,,,
1739354849.8413756,0.3690584980189678,1.191661388583565,0.29738144978198766,-1.149984360355394,-1.3932225091044714,1.0479416797303998,0.08830672158754006,0.0005376988820172508,-0.001257602670462223,0.0012080859680446128,-0.0007078958827610933,-0.0005195202274076454,-0.0014961417408175155,-0.0008727844653282539,0.8163946270942688,-52.69772720336914,5.334578514099121,18.14490509033203,-1.1866353750228882,-1.4005234241485596,-0.013685601763427258,,,,,,,,,
1739354849.851452,0.3690571388766613,1.1916627950911618,0.2973792631561771,-1.1499832998391837,-1.393223605185482,1.0479433032814582,0.08830708226285236,-0.0003404443507445123,-0.0014096302015632585,0.0010575397593386388,0.000914203331150605,0.0013978284957888555,-0.00062109012357804,0.00042258119805885545,0.7925909161567688,-52.72153091430664,5.362349510192871,18.16870880126953,-1.1729024648666382,-1.4142563343048096,0.019273381680250168,,,,,,,,,
1739354849.8624368,0.3690554263039107,1.1916650314126607,0.2973812619995111,-1.1499891486069955,-1.3932233315542388,1.0479416784320863,0.08830546040028342,-0.0010434519593755336,-0.0005509644741589143,0.000331085397679418,-0.0020466595538220756,0.001190910490656343,-0.0008333621289218919,-0.0022752454877215467,0.8163946270942688,-52.74930191040039,5.334578514099121,18.22028350830078,-1.1793111562728882,-1.4005234241485596,0.03300629183650017,,,,,,,,,
1739354849.8734522,0.36905786487298947,1.1916654169359078,0.2973792527245549,-1.1499825471755325,-1.3932236226274206,1.0479417194544969,0.08830625821605963,-0.0007298270537345386,0.000504656442164954,-0.00025569901979754204,2.3153331930848462e-05,0.0005789903455466733,0.0001552047010733505,-0.00045429219242389303,0.7925909161567688,-52.74930191040039,5.362349510192871,18.14490509033203,-1.1729024648666382,-1.4005234241485596,-0.0008682189509272575,,,,,,,,,
1739354849.8835244,0.36905714013301955,1.1916651108238585,0.29737954327149296,-1.1499846065475274,-1.3932224719504838,1.0479409206111916,0.08831175124419158,0.0005655492089514994,-6.721591083607411e-05,-0.0009472323652488562,0.00012231164355379424,-0.0007562733757183577,-0.0011540771200652619,0.0013845144817578817,0.7925909161567688,-52.74930191040039,5.362349510192871,18.14490509033203,-1.1866353750228882,-1.3941147327423096,-0.020094294100999832,,,,,,,,,
1739354849.8944466,0.369059264723646,1.1916668223582592,0.29738139714927103,-1.1499846160305915,-1.3932237423030929,1.0479433032814336,0.08830946452590603,0.0005985983800285057,0.0010530038756355784,-9.746621354636724e-05,0.0008484300057065722,-0.0006883746776519256,0.0002988035954504185,0.0008235544073234534,0.7925909161567688,-52.77310562133789,5.362349510192871,18.14490509033203,-1.1729024648666382,-1.4142563343048096,-0.0008682189509272575,,,,,,,,,
1739354849.904466,0.3690591368014969,1.1916671549668776,0.29737770715831024,-1.1499863902043905,-1.3932256108299779,1.0479418396146742,0.08831103981420148,4.996566983492734e-05,0.0008512947142193565,-0.0006398206704886535,-4.329221641947008e-05,-0.0022612383701158868,-0.00019870167963396173,0.00010809387020302452,0.7648199200630188,-52.77310562133789,5.386153221130371,18.16870880126953,-1.1600850820541382,-1.4005234241485596,0.012864691205322742,,,,,,,,,
1739354849.9163895,0.36905713882464175,1.1916648686173532,0.29737539799522733,-1.149984466020174,-1.3932247349537945,1.0479438487824009,0.08830383686103617,0.00011461447417035624,-0.0006015161830424898,-0.0006136164302643525,0.0005044570744544381,-0.0003798495703075832,-0.0005377398257546388,-0.0023076568626665306,0.7925909161567688,-52.74930191040039,5.386153221130371,18.14490509033203,-1.1664937734603882,-1.4069321155548096,0.04673920199275017,,,,,,,,,
1739354849.9273725,0.3690571388246416,1.191663189406786,0.2973842575006782,-1.1499846041677793,-1.3932256103512204,1.047942333463992,0.08830546023803038,0.00035131255811394807,0.00027317134479699445,0.0015610097287960991,0.0006227855304207124,-0.0017869474801385267,-0.0012239657104008103,-0.0027091309724795697,0.7925909161567688,-52.72153091430664,5.283003807067871,18.14490509033203,-1.1600850820541382,-1.3941147327423096,0.03300629183650017,,,,,,,,,
1739354849.9374912,0.3690571388246416,1.1916650310200618,0.2973784223618552,-1.1499863868448734,-1.3932240897015935,1.0479457463345103,0.08831086220557186,0.0008341912110536179,-0.0003423840120166628,-0.000463156004181022,-0.0006035527194963958,0.0005872099106759439,0.0012002536324806758,0.0009664787612228584,0.7925909161567688,-52.74930191040039,5.386153221130371,18.16870880126953,-1.1729024648666382,-1.4069321155548096,-0.013685601763427258,,,,,,,,,
1739354849.9483807,0.36905545254957706,1.191661391526322,0.2973764522840861,-1.1499884760829444,-1.3932245511977976,1.0479435086694198,0.08830546050780033,-0.00023010402217565226,-0.0011815825072982174,-0.00015856666671944697,-0.0012408838270173668,0.0002379420856491348,0.0006053284425120343,-0.002487881718075761,0.8163946270942688,-52.69772720336914,5.362349510192871,18.19647979736328,-1.1600850820541382,-1.4069321155548096,0.03300629183650017,,,,,,,,,
1739354849.9584544,0.36905542630435484,1.1916651078750855,0.29737852332236775,-1.1499863707833031,-1.3932256218003942,1.0479437727963299,0.08830546040029481,-0.0008521369175782676,-0.0002247757120794094,-0.001122368962188274,-0.0008154782905641117,-3.0888302656738775e-05,-0.00020989981557485084,-0.0015605515527271688,0.8163946270942688,-52.74930191040039,5.362349510192871,18.16870880126953,-1.1600850820541382,-1.4142563343048096,0.03300629183650017,,,,,,,,,
1739354849.9694333,0.3690554263039104,1.1916668242841966,0.29738133116615706,-1.1499825497361353,-1.3932252576233117,1.0479447153812387,0.0883072826655544,0.00024430590368339537,-5.1330851459646806e-06,0.0013419310775423748,0.0015077485590805693,0.000174331182274561,0.0006059100071929917,-0.0007743160394222631,0.8163946270942688,-52.77310562133789,5.334578514099121,18.14490509033203,-1.1600850820541382,-1.4142563343048096,0.026597600430250168,,,,,,,,,
1739354849.9794436,0.3690571383885765,1.1916668261738446,0.2973774682754025,-1.1499843327982289,-1.3932259215293303,1.0479401687885554,0.08830708397563292,0.0003163263712277696,0.0020793109641643152,5.0528145774850024e-05,-0.00021930340741454924,0.0005343547605101973,-0.00341780710939027,-0.0012618651661345536,0.7925909161567688,-52.77310562133789,5.386153221130371,18.16870880126953,-1.1664937734603882,-1.3877060413360596,0.019273381680250168,,,,,,,,,
1739354849.9903638,0.3690571388246391,1.1916631128778374,0.2973791733792689,-1.1499871143716538,-1.3932230718501109,1.0479456192057226,0.0883094651748828,0.0003996175568132469,8.334484935834034e-06,-0.00023904413865738958,-0.0008761854076993316,0.0007562998381793738,-0.0005342282233233187,-7.472108728886807e-05,0.7925909161567688,-52.72153091430664,5.362349510192871,18.16870880126953,-1.1536763906478882,-1.4069321155548096,-0.0008682189509272575,,,,,,,,,
1739354850.000439,0.36905713784349514,1.1916667880181346,0.2973834759731809,-1.149990185077148,-1.3932237933204172,1.0479412803373365,0.08830946079379141,-4.7668611549749675e-05,0.0006407569755285398,0.0005432288144569926,-0.0013128180870747921,2.201173637129903e-05,0.00019416297232403715,-0.0012805886936989319,0.7925909161567688,-52.77310562133789,5.334578514099121,18.22028350830078,-1.1664937734603882,-1.3941147327423096,-0.0008682189509272575,,,,,,,,,
1739354850.01053,0.36905713882459174,1.1916664789552192,0.2973814005270786,-1.1499810510926365,-1.3932254537986868,1.0479438633352687,0.08830622244124003,0.0006109971702558124,0.0002181697215472173,0.0009457459584204073,0.001403214385750108,-0.0002615370214427743,-0.0010761198080238338,-0.0008079827984785294,0.7925909161567688,-52.77310562133789,5.362349510192871,18.09729766845703,-1.1600850820541382,-1.4069321155548096,0.026597600430250168,,,,,,,,,
1739354850.0214295,0.36906084928622584,1.1916613198539843,0.29737746774445933,-1.1499882493915345,-1.3932248531755858,1.0479417365767738,0.08831047648111186,0.0006669536790041151,-0.0009666368822706885,-0.0007247399146080263,-0.0005055112504047692,-6.340474234898131e-05,-0.000931202061192545,-0.0001138092231153878,0.7410162091255188,-52.69772720336914,5.386153221130371,18.19647979736328,-1.1664937734603882,-1.4005234241485596,0.026597600430250168,,,,,,,,,
1739354850.031444,0.3690599720484423,1.191663112876458,0.29738133117025073,-1.1499828347508023,-1.3932260152833282,1.0479462705213038,0.08830621959285183,0.0007203377603779853,-0.0006023713115652606,0.0003007948951222894,0.0006900840483092259,-0.0009637590342642851,0.000267940320970952,-0.0014987257366168385,0.7925909161567688,-52.72153091430664,5.334578514099121,18.12110137939453,-1.1536763906478882,-1.4005234241485596,0.026597600430250168,,,,,,,,,
1739354850.0423853,0.3690571347706945,1.1916668233394057,0.2973792513804114,-1.1499846164505674,-1.393225610887801,1.0479456547628414,0.08831265899044057,0.00017750186732468377,0.0010252853176201504,0.0003255985180587673,0.0004372744240416596,-0.0006248095685434094,0.00047899589098958156,0.0018470108518181764,0.7925909161567688,-52.77310562133789,5.362349510192871,18.14490509033203,-1.1600850820541382,-1.4069321155548096,-0.0008682189509272575,,,,,,,,,
1739354850.0523868,0.3690571388245729,1.1916629651564412,0.29737924752850325,-1.1499864125181058,-1.3932240950312869,1.0479431044193805,0.08830642236034474,0.0009505223135749411,-4.538291703312021e-05,1.9961251201503806e-05,5.792464810322408e-05,-0.00041464594994177205,0.0002551392420522281,-0.0011808725418093295,0.7925909161567688,-52.74930191040039,5.362349510192871,18.19647979736328,-1.1729024648666382,-1.4005234241485596,0.012864691205322742,,,,,,,,,
1739354850.0623946,0.36905699974683825,1.1916651107823373,0.297379251707395,-1.149987352766903,-1.393228032574778,1.0479418354396566,0.08830852039397188,0.0010244281989932754,-0.0003156399419895579,4.683723548637358e-05,-0.001384921836736667,-0.0003576582057090274,-0.0002646112515536921,0.0003763785021710164,0.7648199200630188,-52.74930191040039,5.362349510192871,18.16870880126953,-1.1664937734603882,-1.4005234241485596,0.0064559997990727425,,,,,,,,,
1739354850.0725482,0.369059136729304,1.191665101988356,0.2973813273183643,-1.1499828377142787,-1.393224197554447,1.047944276053146,0.08831272234058912,0.0017715534633707015,-0.00031478540693788697,0.00024509761671334185,-0.0009028796986570249,0.001459960841711873,0.0005345300026916659,0.0026705739190941873,0.7648199200630188,-52.74930191040039,5.334578514099121,18.12110137939453,-1.1600850820541382,-1.3941147327423096,-0.027418512850999832,,,,,,,,,
1739354850.0834646,0.3690571299943232,1.1916708081016014,0.2973813576611549,-1.1499863225982272,-1.3932231895577158,1.0479471645479315,0.08830708395960696,0.001181460168347075,0.0016229289712734324,0.00013523736981920566,-0.00020899650883703344,-0.001142350471993661,0.001438991113367271,-0.0003006861315029157,0.7925909161567688,-52.80087661743164,5.334578514099121,18.16870880126953,-1.1536763906478882,-1.4069321155548096,0.019273381680250168,,,,,,,,,
1739354850.0944364,0.3690570328968143,1.1916651098412665,0.29737746585084984,-1.149984616450418,-1.3932240911491702,1.0479459876626573,0.08831411937261693,-0.001098088236937842,1.2240301311275767e-05,-7.748429511847204e-05,-0.00012058273117821297,0.00024208341429962543,0.0013043083525153282,0.0014147354097566861,0.7925909161567688,-52.74930191040039,5.386153221130371,18.14490509033203,-1.1729024648666382,-1.4069321155548096,-0.04023589566349983,,,,,,,,,
1739354850.1044428,0.3690556620770511,1.1916670529276505,0.29738241087399997,-1.1499846164505618,-1.3932274314135435,1.0479420510856066,0.08830946517488271,0.0005774848646819714,0.0008892307097168018,0.0009133339279548942,7.801082149565855e-05,-0.000950904123680053,-0.0013704044069421974,-0.00044742963796698225,0.8163946270942688,-52.77310562133789,5.310774803161621,18.14490509033203,-1.1729024648666382,-1.4005234241485596,-0.0008682189509272575,,,,,,,,,
1739354850.115417,0.36905721838295746,1.191668923323374,0.29738133115836207,-1.1499827317343159,-1.3932224857429605,1.0479461387754636,0.08831092620611827,0.00130815862157396,0.0014368235456202374,0.0004869041148238164,0.001772178768915757,0.0010241661966154953,0.000752814913753119,0.001831640532774615,0.7648199200630188,-52.80087661743164,5.334578514099121,18.12110137939453,-1.1866353750228882,-1.4069321155548096,-0.04023589566349983,,,,,,,,,
1739354850.1254568,0.36905713881381225,1.1916651075487623,0.2973760779283475,-1.1499884789168606,-1.3932239821389614,1.0479479519713637,0.08830789417264191,0.0005154439698417795,-0.0003502042854816535,-0.0009707214012238106,-0.0012236043397228897,0.001104434765795276,0.0011557642427628355,-0.00010102608636114365,0.7925909161567688,-52.74930191040039,5.386153221130371,18.19647979736328,-1.1729024648666382,-1.4142563343048096,0.012864691205322742,,,,,,,,,
1739354850.1354613,0.369055423360471,1.1916687859589323,0.2973792512498611,-1.149982833773543,-1.3932256631618485,1.0479463928587933,0.08831173377502657,0.00047542103441801457,0.0005551202981412514,6.60054421891794e-05,0.001194540426579363,-0.0005143968179324233,0.0006966927414204292,0.0005960403581998391,0.8163946270942688,-52.80087661743164,5.362349510192871,18.12110137939453,-1.1600850820541382,-1.4005234241485596,-0.020094294100999832,,,,,,,,,
1739354850.1454806,0.3690569085819339,1.1916695793427512,0.2973813311702648,-1.1499846164505618,-1.3932241478444978,1.0479471519735133,0.08831260405238606,0.0006836550686388353,0.0015125796661791832,0.0009954012609438877,0.0005926758105387587,-0.00018431600772085774,0.0005959252056950948,0.002463489476191751,0.7648199200630188,-52.77310562133789,5.334578514099121,18.14490509033203,-1.1729024648666382,-1.4069321155548096,-0.027418512850999832,,,,,,,,,
1739354850.156371,0.36905256523204427,1.191664754386027,0.2973820862959832,-1.149982833773543,-1.3932233376945145,1.0479421688434851,0.088305460400293,-0.0020560028403378908,-0.00119796115703772,0.0010940032240342758,0.0007800355877460516,0.0008961006589338493,-0.0010501881722360467,-0.001780764983463176,0.8163946270942688,-52.74930191040039,5.362349510192871,18.12110137939453,-1.1793111562728882,-1.4005234241485596,0.03300629183650017,,,,,,,,,
1739354850.1665142,0.36905370196096965,1.191667865762758,0.2973792516484723,-1.149984854869141,-1.3932248531758786,1.0479429264314142,0.0883105777033554,-0.000291864043962064,-3.813112281520441e-05,0.0011298070673479964,0.0005174719138806249,0.001037296045419049,6.676849697881721e-05,0.0006823039825989669,0.8401983380317688,-52.74930191040039,5.362349510192871,18.14490509033203,-1.1664937734603882,-1.4069321155548096,-0.0072769103571772575,,,,,,,,,
1739354850.177365,0.3690523229013909,1.191665110834226,0.2973804039869053,-1.1499885448961387,-1.3932248531758813,1.0479464329977017,0.08831348005809417,-0.0017277873398621065,0.00019347350134499384,-0.0003762673910269415,-0.00045988924828309997,0.0010275322503330044,-0.00023604256620994132,0.00174933193164783,0.8163946270942688,-52.74930191040039,5.334578514099121,18.16870880126953,-1.1664937734603882,-1.4005234241485596,-0.03382720425724983,,,,,,,,,
1739354850.1874077,0.36905371362551,1.191665868881766,0.29737571345136715,-1.1499863992365973,-1.3932248531758813,1.0479472043015399,0.08831103696845079,-0.0003546297946347715,-0.0002633928186339155,-0.0014990725610472956,-0.0008296120347358464,0.00046258595844076903,0.001505562025003496,0.0010661067513325745,0.8401983380317688,-52.72153091430664,5.409956932067871,18.16870880126953,-1.1664937734603882,-1.4069321155548096,-0.013685601763427258,,,,,,,,,
1739354850.1974497,0.36905546968329966,1.191666899848045,0.29738133117042176,-1.1499846164505625,-1.393223377047746,1.0479471905742583,0.08831335587140232,0.00018654444283935852,0.0007573981255024685,0.001117182239865235,0.0007783984004092905,0.00023610641737015616,0.0010673931371086157,0.0014649069853082707,0.8163946270942688,-52.77310562133789,5.334578514099121,18.14490509033203,-1.1793111562728882,-1.4069321155548096,-0.03382720425724983,,,,,,,,,
1739354850.2085202,0.36905542205301056,1.191663112879117,0.2973793305322788,-1.1499828337735432,-1.3932263684967017,1.04794628949699,0.08830549999227831,-0.0008031589906773652,-0.00039802761712368615,0.00015819431293240222,0.0010114104795887187,-0.0005281352421547304,-0.0006028139004536783,0.00025398891253256874,0.8163946270942688,-52.72153091430664,5.362349510192871,18.12110137939453,-1.1536763906478882,-1.4005234241485596,0.03300629183650017,,,,,,,,,
1739354850.219414,0.3690570299173814,1.1916671757424722,0.29738311384743493,-1.149984616450562,-1.3932268699828223,1.0479470062003895,0.0883109761140226,-0.0003675326909177521,0.001213180311511855,0.0014803885521065118,0.00037288142071854175,0.0002524033498580378,-1.74913432295649e-05,6.760843466736136e-05,0.7925909161567688,-52.74930191040039,5.310774803161621,18.14490509033203,-1.1793111562728882,-1.4142563343048096,-0.013685601763427258,,,,,,,,,
1739354850.230446,0.3690570593511671,1.1916650735104284,0.29737917337927133,-1.1499863579194316,-1.393223695449024,1.0479460903922215,0.08831098049501467,0.0011757935520048941,-0.0008522679887323752,-0.0009801446088760976,-0.0003472698410064216,0.0002824828122999753,-0.0002624852231135532,0.000506129398579838,0.7925909161567688,-52.74930191040039,5.362349510192871,18.16870880126953,-1.1793111562728882,-1.4069321155548096,-0.013685601763427258,,,,,,,,,
1739354850.2414322,0.3690549907576574,1.1916620891212424,0.297381490623408,-1.149986399126883,-1.3932233378617804,1.0479455145371828,0.0883109804950394,-0.00041536421733641,-0.000980315730570686,0.0001847542869926083,0.00047814167980135867,4.3737020700921735e-06,-0.001108359473068398,0.0009367891599247695,0.7925909161567688,-52.69772720336914,5.334578514099121,18.16870880126953,-1.1793111562728882,-1.3941147327423096,-0.013685601763427258,,,,,,,,,
1739354850.2523713,0.3690553114572861,1.1916671774292584,0.2973792513807114,-1.1499828376981287,-1.3932263425474742,1.0479464466418265,0.08831175124441416,0.00036479538365705524,0.0005794661741866929,0.00014703697584263572,0.0009672781237859206,1.0920479534130161e-05,-0.000648668259822765,0.002270710927578486,0.8163946270942688,-52.74930191040039,5.362349510192871,18.12110137939453,-1.1536763906478882,-1.4005234241485596,-0.020094294100999832,,,,,,,,,
1739354850.2624567,0.3690510471501216,1.191666814544086,0.297381331170267,-1.1499846164506282,-1.3932262587585298,1.0479464408279535,0.08830784210458156,-0.001746833175453268,0.0010753198948446068,3.672980916005445e-05,0.000861528481260236,-0.0005666571568830743,5.1336451349874926e-05,-0.0008938511749000203,0.8640020489692688,-52.77310562133789,5.334578514099121,18.14490509033203,-1.1664937734603882,-1.4005234241485596,0.012864691205322742,,,,,,,,,
1739354850.2734268,0.369052931897286,1.1916651876753928,0.297381331170267,-1.1499839365160955,-1.3932220154933352,1.0479429636501103,0.08831049035024692,-0.001641713498952457,0.0007918008785490813,0.0007977245534927131,0.0005293122427870147,0.001117491062107308,-1.5911361863983376e-05,-0.00020896470786833997,0.8163946270942688,-52.72153091430664,5.334578514099121,18.14490509033203,-1.1729024648666382,-1.4069321155548096,-0.0008682189509272575,,,,,,,,,
1739354850.2834296,0.36905296305491164,1.1916631128039419,0.29737925138041144,-1.149986407946384,-1.3932243993966955,1.0479456758283083,0.08830991590721775,-0.000853196674772096,-0.0004877955905971332,0.00028364932947302966,8.617805875272173e-06,0.00025903048380715205,0.0008894740866666297,-0.00018975614870283915,0.8401983380317688,-52.72153091430664,5.362349510192871,18.16870880126953,-1.1793111562728882,-1.3941147327423096,-0.013685601763427258,,,,,,,,,
1739354850.2934377,0.36905299840571193,1.1916609912190335,0.297375694856691,-1.1499846430506808,-1.3932263704520822,1.0479453870038025,0.08831055989224683,-0.0005948283801939621,-0.0005237954560255395,-0.0015399567374404458,0.0003481149553495245,-1.161351244980622e-05,0.0005403855620139293,-0.00019426555001288755,0.8401983380317688,-52.69772720336914,5.409956932067871,18.14490509033203,-1.1536763906478882,-1.4005234241485596,-0.013685601763427258,,,,,,,,,
1739354850.3034852,0.3690571345608921,1.191666505441038,0.2973792513805609,-1.1499849808494007,-1.3932263837643235,1.0479449314655584,0.08830302423769917,0.000665149421315157,-0.0002937400219940893,0.00020916987790846773,0.0009659940201044727,-0.0008907327872210062,0.0003625450312080718,-0.0019360390628365357,0.7925909161567688,-52.77310562133789,5.362349510192871,18.12110137939453,-1.1664937734603882,-1.3877060413360596,0.026597600430250168,,,,,,,,,
1739354850.3153784,0.36905542626754756,1.1916614003552957,0.2973774809132144,-1.1499828338220022,-1.3932272758923814,1.0479480701994661,0.08830623113152843,-0.00023796987318122918,-0.0004851049938486238,-0.0004622265948333108,0.0016350270142350214,-0.0005386960886888711,0.0005441077283676681,-0.0013162189632648254,0.8163946270942688,-52.69772720336914,5.386153221130371,18.12110137939453,-1.1729024648666382,-1.4142563343048096,0.026597600430250168,,,,,,,,,
1739354850.3254023,0.3690530058157018,1.1916639600738999,0.2973797329598462,-1.1499849809943055,-1.3932272790241356,1.0479464466421546,0.0883109809819011,-0.00016021916174014717,0.0016553074186894667,-0.00038385492822167144,-0.0001608236870088626,0.0015626934520116507,0.00046671164664207775,0.0008937260536472249,0.8163946270942688,-52.74930191040039,5.362349510192871,18.12110137939453,-1.1729024648666382,-1.4005234241485596,-0.013685601763427258,,,,,,,,,
1739354850.337411,0.36905616972872995,1.1916651107758396,0.2973815695915646,-1.1499828338220028,-1.3932256110692713,1.0479480697149486,0.08830946517488546,-4.3164376809769255e-05,7.438365243007245e-05,-0.0005145905456810859,0.0010781457832585515,-0.0005001087670516495,-0.00021332292763021884,0.0001660980862393201,0.7648199200630188,-52.74930191040039,5.334578514099121,18.12110137939453,-1.1600850820541382,-1.4142563343048096,-0.0008682189509272575,,,,,,,,,
1739354850.3475373,0.3690560068916784,1.191663112912814,0.29737738236385364,-1.14998639916392,-1.3932272879966612,1.0479480701994628,0.08831098054912694,-0.000512196575525569,-0.0005319433382955275,-0.001461269884038059,-8.145917701100924e-05,-0.0010689090838055877,0.0010311102146025684,-8.26467070050543e-05,0.7648199200630188,-52.72153091430664,5.386153221130371,18.16870880126953,-1.1729024648666382,-1.4142563343048096,-0.013685601763427258,,,,,,,,,
1739354850.3583717,0.3690553163625071,1.1916614258668976,0.2973773820339968,-1.1499906512846187,-1.39322410865182,1.0479464466421546,0.08830871756711602,-0.0006064904854656449,-0.0020026730692119933,-0.0011169155219177297,-0.0007145152679772311,-0.0004042228159433037,0.00037298813797462623,-0.00023818068186934685,0.8163946270942688,-52.69772720336914,5.386153221130371,18.19647979736328,-1.1729024648666382,-1.4005234241485596,0.0064559997990727425,,,,,,,,,
1739354850.369402,0.369052679218171,1.1916631383877723,0.2973824118365361,-1.149982836765584,-1.3932268525821792,1.047944929383931,0.08830907243617721,-0.0011092175143881137,-0.0007266484450433475,0.000619533255875235,0.0014639234951050292,0.00028839686012029943,0.0003511568535700139,0.0006108322802280102,0.8401983380317688,-52.72153091430664,5.310774803161621,18.12110137939453,-1.1536763906478882,-1.3877060413360596,0.0064559997990727425,,,,,,,,,
1739354850.3794572,0.3690542777841719,1.1916651108191063,0.29738133115837834,-1.1499885713857967,-1.3932256282867606,1.047941752407577,0.08831307721833237,0.00013642470100686376,0.00018296627943137115,0.000807606522686287,-0.0012018121126021073,-0.001070694450651875,-0.0015266573509616944,0.001282419223631873,0.7925909161567688,-52.74930191040039,5.334578514099121,18.16870880126953,-1.1600850820541382,-1.3877060413360596,-0.027418512850999832,,,,,,,,,
1739354850.3913574,0.36905713587581873,1.191660967250581,0.297379216713238,-1.1499855701289659,-1.393226383764323,1.0479480701934836,0.08830946566256097,0.0009202499952921689,-0.001127503224900921,-9.764740745840368e-06,0.00015916496387013453,-0.0010052553129295983,0.0005485534690823687,0.0004965003010411479,0.7925909161567688,-52.72153091430664,5.362349510192871,18.14490509033203,-1.1664937734603882,-1.4142563343048096,-0.0008682189509272575,,,,,,,,,
1739354850.4014056,0.369055386621972,1.1916633424176317,0.2973814105359335,-1.1499863994600135,-1.393230607218701,1.0479456889820764,0.08830708541797025,-0.00018546249255367423,-0.0006659534829007192,0.0004008583641521607,0.00011970696437565284,-0.0009330360659774084,-0.00036485089969036724,-0.0008618368323637497,0.8163946270942688,-52.72153091430664,5.334578514099121,18.16870880126953,-1.1536763906478882,-1.3941147327423096,0.019273381680250168,,,,,,,,,
1739354850.4123797,0.36905713878807883,1.19166511081997,0.29738125353296246,-1.1499906246846505,-1.393228051494867,1.0479464466421546,0.08831656153181373,-0.0002356035157605305,0.00031226485108766706,-0.00019861738057004222,-0.00159059806369327,-0.0007233661235538066,0.00028796332116179965,0.003358701900489095,0.7925909161567688,-52.74930191040039,5.334578514099121,18.19647979736328,-1.1664937734603882,-1.4005234241485596,-0.03382720425724983,,,,,,,,,
1739354850.4224448,0.36905229993536315,1.1916668233394057,0.2973792252717191,-1.1499863991639196,-1.393224970967615,1.0479456889820764,0.08830612226798129,-0.001327250936253977,0.0005312441670227051,2.7358610279486632e-05,0.00021114205249066857,-0.00039907795659361575,1.6948385232732027e-05,-0.0012636108243674218,0.8163946270942688,-52.77310562133789,5.362349510192871,18.16870880126953,-1.1664937734603882,-1.3941147327423096,0.03941498324275017,,,,,,,,,
1739354850.4333951,0.3690568209155543,1.1916646775721937,0.297379251380264,-1.1499871274652709,-1.3932245708273983,1.047947204302233,0.08830952219117028,0.0001635324796991619,0.0006036060070646328,-3.933465028662975e-05,-0.00156526204684679,0.000735925741395936,0.00026259375300962556,-0.0003604157432412956,0.7925909161567688,-52.77310562133789,5.362349510192871,18.16870880126953,-1.1729024648666382,-1.4069321155548096,-0.0008682189509272575,,,,,,,,,
1739354850.4434335,0.3690549799700936,1.1916647928908968,0.2973792513804114,-1.1499864286833243,-1.393223979960633,1.047947204302233,0.08830470274118023,0.0005008730859256015,0.0005002633321344424,-6.228217773148706e-05,-0.0003763524608716755,0.0001278314104841963,0.00048591948880047174,-0.002996654971584984,0.7925909161567688,-52.74930191040039,5.362349510192871,18.16870880126953,-1.1600850820541382,-1.4069321155548096,0.03941498324275017,,,,,,,,,
1739354850.4553761,0.3690607389132366,1.1916651108168796,0.297379708316115,-1.1499867435101399,-1.3932259135046616,1.047947204302233,0.08831022283496105,0.0018486252081156712,0.0004191014808522198,0.0004392750689964024,-0.0008793817896707131,0.0003998195717805359,0.0005885435467064314,0.0003508681314483777,0.7410162091255188,-52.74930191040039,5.386153221130371,18.16870880126953,-1.1664937734603882,-1.4069321155548096,-0.0072769103571772575,,,,,,,,,
1739354850.4653935,0.36905400097242497,1.191666823479377,0.2973792513930541,-1.1499868416925776,-1.3932270239081253,1.0479463943143457,0.08831336171253859,-0.0005008149219802092,0.0010933513833248588,-0.00011322058165899423,3.739952406082189e-05,-0.0015358434638000362,0.00021288762381750564,0.0009197185707229851,0.7925909161567688,-52.77310562133789,5.362349510192871,18.14490509033203,-1.1600850820541382,-1.4005234241485596,-0.03382720425724983,,,,,,,,,
1739354850.4763644,0.3690553346761929,1.191665110818675,0.29737653458598545,-1.1499846164994623,-1.3932263689885316,1.0479464466418593,0.08830788056060565,0.00019839403966765258,0.00023851149061342186,-0.0008425913304724716,0.001070571712538042,0.0014230999755857627,0.00038424446717234075,-0.0001704820006204359,0.8163946270942688,-52.74930191040039,5.362349510192871,18.14490509033203,-1.1536763906478882,-1.4005234241485596,0.012864691205322742,,,,,,,,,
1739354850.4864283,0.3690553105239781,1.1916614003570902,0.2973813310322395,-1.1499850590136171,-1.3932272802444168,1.047947204302233,0.0883103936994998,6.300988519233083e-05,-0.0003793814574773415,0.00031805590126373696,0.00015600038180207498,0.0002492804562259776,0.00014645625918199937,0.0007054941769102693,0.8163946270942688,-52.69772720336914,5.334578514099121,18.12110137939453,-1.1729024648666382,-1.4069321155548096,-0.0072769103571772575,,,,,,,,,
1739354850.4973798,0.3690540040616244,1.1916688212802586,0.2973775481762518,-1.149986505107694,-1.3932230935964933,1.0479464466421546,0.08830784161789348,-0.000642020366206418,0.0005836983480781924,-0.001066339197392996,0.000349089383519445,0.001223148281210369,0.0004985619478378827,-0.0006375857881114325,0.7925909161567688,-52.80087661743164,5.386153221130371,18.16870880126953,-1.1664937734603882,-1.4005234241485596,0.012864691205322742,,,,,,,,,
1739354850.5074327,0.36905807304067584,1.1916651108186744,0.29737706734983516,-1.1499828337753377,-1.39322713920827,1.047947204302233,0.08831315762880527,0.0003139704520777149,-0.00040568998802227374,-0.00015206163243444855,0.001821134027033065,-0.00027599174770635387,0.0008114991747581648,0.0016444755129257076,0.7648199200630188,-52.74930191040039,5.362349510192871,18.12110137939453,-1.1472676992416382,-1.4069321155548096,-0.020094294100999832,,,,,,,,,
1739354850.518436,0.36905642352656076,1.1916650855874646,0.2973792778233699,-1.149984642941515,-1.39322671408067,1.047947204302233,0.08831175130651468,0.001054810626113161,-0.00018717303823169462,0.0007012121052768202,-0.0007122059942436931,-0.0008664401755641698,0.0003471984848097085,1.1580425750331116e-05,0.7925909161567688,-52.74930191040039,5.362349510192871,18.14490509033203,-1.1600850820541382,-1.4069321155548096,-0.020094294100999832,,,,,,,,,
1739354850.529405,0.36905689157170685,1.1916612943931348,0.29738134000073396,-1.1499832086376423,-1.3932272803044548,1.0479472049482554,0.0883157429300019,-0.0002375333837660865,-0.000435015175175549,0.0007865069067855803,0.0014086401185619572,-0.00016599200456981643,7.274022193989535e-05,0.0025693126886852744,0.7925909161567688,-52.69772720336914,5.334578514099121,18.09729766845703,-1.1729024648666382,-1.4069321155548096,-0.05396880581974983,,,,,,,,,
1739354850.5403497,0.3690569896886917,1.1916631118960768,0.29737901723437776,-1.1499845825950206,-1.3932271385352464,1.0479472043022366,0.08830622222511243,0.0009910452069311524,-0.0003092810795733532,-0.0006740242890482443,0.0007787013736320497,-0.0014478693764941623,0.0004068761976941823,-0.0009858218447730165,0.7648199200630188,-52.72153091430664,5.362349510192871,18.14490509033203,-1.1600850820541382,-1.4069321155548096,0.026597600430250168,,,,,,,,,
1739354850.5503948,0.3690553427610878,1.191666823339389,0.2973792513764461,-1.1499866385267332,-1.3932250276277824,1.0479471999415821,0.08831098487620122,0.0006086855679360481,0.0002941388440056163,0.00024141010621583832,-0.0012474043567976198,-0.0003698404119481906,0.00023991810979568544,2.9528700852077998e-05,0.8163946270942688,-52.77310562133789,5.362349510192871,18.16870880126953,-1.1664937734603882,-1.4069321155548096,-0.013685601763427258,,,,,,,,,
1739354850.560431,0.3690547513669477,1.1916631125507726,0.2973792090275911,-1.1499828681540607,-1.3932266704770435,1.0479448912850036,0.08830930950130114,-1.3904257737360176e-05,-0.0004645376625682159,-0.0001599132491563188,0.0002219787103614401,0.0010431799092415245,-3.895650057937535e-05,-7.771908376429137e-05,0.7925909161567688,-52.72153091430664,5.362349510192871,18.12110137939453,-1.1600850820541382,-1.4142563343048096,0.0064559997990727425,,,,,,,,,
1739354850.5714297,0.36905363327935703,1.1916687421223329,0.2973831138470469,-1.149988480225826,-1.3932276171136304,1.0479472042304527,0.08831256462664788,0.00020723590068061847,0.0013153955823757587,0.0015291588965982853,-0.0009450813306784483,-0.0001836887404820381,2.5179422308270396e-05,0.0010657201536142232,0.8401983380317688,-52.80087661743164,5.310774803161621,18.19647979736328,-1.1793111562728882,-1.4069321155548096,-0.027418512850999832,,,,,,,,,
1739354850.5824382,0.3690544682684888,1.1916668488487656,0.2973813051698869,-1.1499846473021733,-1.3932248727960486,1.0479464466421542,0.08831173815500527,0.00039983199260231394,0.0006764158241301663,0.000862164152529884,0.00047710971916478445,0.0022135595052905637,0.0004231219236089314,0.000585491510331958,0.8163946270942688,-52.77310562133789,5.334578514099121,18.14490509033203,-1.1664937734603882,-1.4005234241485596,-0.020094294100999832,,,,,,,,,
1739354850.5924766,0.3690548867503435,1.1916726085990428,0.2973792427131777,-1.1499895159897209,-1.393228834649232,1.0479456889820764,0.08830710342912057,0.000788316558876804,0.002657626925836791,0.0006648009791690068,-0.0021207770582185917,-0.00012320841549128578,-0.00028999612400355557,-0.00018405883103824773,0.7925909161567688,-52.82468032836914,5.362349510192871,18.19647979736328,-1.1600850820541382,-1.3941147327423096,0.019273381680250168,,,,,,,,,
1739354850.603388,0.36905798694236835,1.1916668233511178,0.29737716680163023,-1.1499828337793974,-1.3932251988324733,1.0479464466421546,0.08830704452789205,0.0014982826430993282,0.00034084717054665706,-0.0017488385180045947,0.0010985044427785045,0.00045377598206114655,-6.1031332913592275e-05,0.00046852405770740906,0.7410162091255188,-52.77310562133789,5.386153221130371,18.12110137939453,-1.1729024648666382,-1.4005234241485596,0.019273381680250168,,,,,,,,,
1739354850.6143749,0.36905417178538263,1.1916631128778215,0.2973803951548818,-1.1499835524451234,-1.393227798414365,1.047947204302233,0.08830621806014875,-0.000905867855121107,-0.0007131342049381688,0.0006048984513998877,0.0015445075175551423,0.0004350481201729143,-9.88477506286732e-05,-0.0007089658482681859,0.7925909161567688,-52.72153091430664,5.334578514099121,18.12110137939453,-1.1729024648666382,-1.4069321155548096,0.026597600430250168,,,,,,,,,
1739354850.6244202,0.36905435386063057,1.191661397413651,0.2973792513645599,-1.149991340933703,-1.3932255236108757,1.0479464335602022,0.08831098487613068,-0.0010726765746134996,-0.0018503894103030988,0.00031372539402207077,-0.0010266678746948658,-0.0001633836962516071,-3.595356564880548e-05,0.0008969252525817504,0.8163946270942688,-52.69772720336914,5.362349510192871,18.19647979736328,-1.1729024648666382,-1.4005234241485596,-0.013685601763427258,,,,,,,,,
1739354850.6344805,0.3690568840351614,1.1916661080836184,0.2973774696845385,-1.1499848666913666,-1.3932244668413227,1.0479464422812823,0.08830622244153682,0.0016140504016331182,0.0003381040411802121,-0.00031899767468990904,0.00046986248654422096,0.0011970025699316671,0.00011249108911646672,-0.001939595463797985,0.7648199200630188,-52.77310562133789,5.386153221130371,18.14490509033203,-1.1729024648666382,-1.4005234241485596,0.026597600430250168,,,,,,,,,
1739354850.645455,0.36905630534621375,1.1916631128737838,0.29737334567118423,-1.1499864828534878,-1.3932244501841589,1.0479465643797,0.08830982393760516,0.0004661733130905018,-0.00017575462427132552,-0.0017686772650639853,-7.868306549816784e-05,0.0021881439551692562,0.0005477157822102771,-1.2429446467242624e-05,0.7925909161567688,-52.72153091430664,5.409956932067871,18.16870880126953,-1.1729024648666382,-1.4005234241485596,-0.0008682189509272575,,,,,,,,,
1739354850.6564195,0.36905057563617055,1.1916668233394057,0.29738133112138976,-1.1499877956924713,-1.3932250282499352,1.047945688982741,0.08830708444641688,-0.0013741100188465409,0.00012293832642451107,0.0002237524444941834,-0.0003828755109004389,0.00014019731926249478,-0.00024850482956247495,-0.0007242347022843121,0.8401983380317688,-52.77310562133789,5.334578514099121,18.14490509033203,-1.1664937734603882,-1.3941147327423096,0.019273381680250168,,,,,,,,,
1739354850.6674578,0.3690529930999312,1.1916658696650893,0.2973813152945748,-1.1499811310233956,-1.393227943242244,1.0479456889820764,0.08830390328533115,-0.0014131968519997394,0.0003894219587664663,0.000900190530676638,0.0025580208096024856,0.0015911968641411452,-0.00048497560370838326,-0.0022380761824756495,0.7925909161567688,-52.77310562133789,5.362349510192871,18.09729766845703,-1.1793111562728882,-1.3941147327423096,0.019273381680250168,,,,,,,,,
1739354850.6784647,0.3690539215858018,1.1916651095400885,0.2973806946486414,-1.149985336067401,-1.3932277650024787,1.047947204302233,0.08831208451208906,0.0002843525223727542,0.0006637458913481872,-9.34907671203951e-05,0.000439676972757108,-0.001410272190464838,0.00015701266152316282,0.0015192720427317503,0.7925909161567688,-52.74930191040039,5.310774803161621,18.14490509033203,-1.1729024648666382,-1.4069321155548096,-0.013685601763427258,,,,,,,,,
1739354850.6893637,0.3690531613274169,1.1916668233393983,0.2973806379766676,-1.1499856952366194,-1.3932285226239225,1.047947204302233,0.08830987235389019,-0.0005392002366507344,0.0007118124976193657,0.00024542805087845,0.0010122263436721174,0.0002144861347781666,0.000471247058022411,-0.0006503212522004322,0.8163946270942688,-52.77310562133789,5.334578514099121,18.12110137939453,-1.1729024648666382,-1.4069321155548096,-0.0072769103571772575,,,,,,,,,
1739354850.699424,0.3690560747875039,1.191659687836359,0.29737901736525185,-1.1499912167344426,-1.3932281106911941,1.0479480701994655,0.08830891936009348,0.0003385642756366055,-0.0019318436887215244,-0.00015384523607929988,-0.0015377096084510692,0.0002563984792330104,0.00024201170551667545,0.0002858840170067452,0.7925909161567688,-52.67392349243164,5.362349510192871,18.22028350830078,-1.1793111562728882,-1.4142563343048096,0.012864691205322742,,,,,,,,,
1739354850.7094338,0.36905435345679305,1.1916629621080232,0.2973822848406203,-1.1499907399310199,-1.3932280924994076,1.0479467998548644,0.08831494659266635,-0.0014000846790115985,-0.0011797530180898438,0.0016402232503118972,-0.0011808278008696152,0.00036428150027980255,0.00010923141100328795,0.0022855241362929987,0.8163946270942688,-52.74930191040039,5.334578514099121,18.19647979736328,-1.1793111562728882,-1.4005234241485596,-0.020094294100999832,,,,,,,,,
1739354850.7195458,0.36905235191795505,1.191668829747139,0.2973792504335848,-1.1499885971293622,-1.393227798434822,1.0479464466481363,0.08830860079234924,-0.0010980183893277147,0.0009677712739386917,0.0004685816525062718,-0.0011589441948099055,-0.0007125311788403317,-0.0006534123490837436,-0.0005587772296487238,0.8163946270942688,-52.80087661743164,5.362349510192871,18.19647979736328,-1.1729024648666382,-1.4005234241485596,0.0064559997990727425,,,,,,,,,
1739354850.7304316,0.3690564046025167,1.1916615023964607,0.29737925138039534,-1.14998926898285,-1.3932266863804958,1.047947204302233,0.08831173880430405,0.0011237828923279178,-0.0003141130059023389,-0.0001944451895638501,-0.00044596862571922343,0.000625874772158495,0.00011690824234750923,0.0011275591082671476,0.7925909161567688,-52.69772720336914,5.362349510192871,18.16870880126953,-1.1600850820541382,-1.4069321155548096,-0.020094294100999832,,,,,,,,,
1739354850.7404473,0.36905814631221223,1.19166658586621,0.2973783443765687,-1.1499894985853099,-1.393228561403971,1.0479456889820764,0.08831034501873286,0.0005942825138804094,0.0005462590365793293,0.0003165889970772432,-0.0005305909212777948,0.0003080060433356762,-0.0006065961606263888,0.00020588939889173267,0.7648199200630188,-52.77310562133789,5.386153221130371,18.16870880126953,-1.1664937734603882,-1.3941147327423096,-0.0072769103571772575,,,,,,,,,
1739354850.7514448,0.3690567812456899,1.1916715772828619,0.2973791733842145,-1.149986517246035,-1.3932288638814003,1.0479464466421546,0.08830784178052435,0.0002603860524543693,0.0019390166152947015,0.00024063287128455935,0.00021523851472904712,-0.0005449419563313662,-0.00022118004853221516,0.00014096575419892272,0.7925909161567688,-52.80087661743164,5.362349510192871,18.16870880126953,-1.1729024648666382,-1.4005234241485596,0.012864691205322742,,,,,,,,,
1739354850.7624416,0.36905382096670203,1.1916668998843838,0.2973834769370386,-1.1499884793541686,-1.3932272875928957,1.0479488280210492,0.0883141586401768,-0.0005197954938064419,0.0009803476780467705,7.840049231596464e-05,-0.0005339327231332724,0.0013050409317315423,0.000784570987493116,0.0018176978315184045,0.7648199200630188,-52.77310562133789,5.334578514099121,18.19647979736328,-1.1729024648666382,-1.4206650257110596,-0.04023589566349983,732,732,706,40.848,0,0
1739354850.7733495,0.36905592693315603,1.1916668233748307,0.2973792484329345,-1.1499895223121444,-1.3932271983461884,1.0479472086628847,0.08831071298008804,0.0006884769013026225,0.0006582744513137493,-0.0006537843131062052,-0.0012584053810461775,0.0002553705721503989,0.00026904417773658643,9.346153809962766e-05,0.7648199200630188,-52.77310562133789,5.362349510192871,18.19647979736328,-1.1600850820541382,-1.4069321155548096,-0.020094294100999832,732,733,706,40.848,0,0
1739354850.783411,0.36905463542971034,1.1916705338009903,0.29738133117021703,-1.1499895428248705,-1.3932322210047674,1.0479472043023068,0.08830712531721559,0.0003131173037960523,0.0014475399487897701,0.00075698866149491,-0.0007156936025446701,-0.00208829856972436,-6.196737480595289e-06,-0.0006831760168886013,0.7925909161567688,-52.82468032836914,5.334578514099121,18.19647979736328,-1.1536763906478882,-1.4069321155548096,0.019273381680250168,731,733,706,40.740,0,0
1739354850.7934232,0.3690546442719917,1.1916651136530974,0.2973771480320387,-1.1499874630353621,-1.393228822721821,1.0479464466421546,0.08831345608103229,0.0006004103312692595,0.0006891987750041956,-0.000720473305930854,0.0002621571456804079,-7.862268587967769e-05,0.00019275394960765677,-0.00022660185382174559,0.7925909161567688,-52.74930191040039,5.386153221130371,18.16870880126953,-1.1729024648666382,-1.4005234241485596,-0.0072769103571772575,731,733,705,40.848,0,0
1739354850.803439,0.36905606595329826,1.1916627949864305,0.2973799653467487,-1.1499867288107941,-1.3932317634459193,1.0479449311604923,0.08830945136049745,-0.00010886227018135693,-0.00024398598187581547,0.0003442940636106108,-0.0003964340309651777,0.0005486265450353551,-0.0005266212592150666,-0.00062906572052702,0.7925909161567688,-52.72153091430664,5.362349510192871,18.16870880126953,-1.1664937734603882,-1.3877060413360596,0.026597600430250168,734,731,706,40.848,0,0
1739354850.8144705,0.36905463677409517,1.1916631040421202,0.29738132123159533,-1.149988889282768,-1.3932296152850188,1.0479472043022304,0.08830784183459084,0.0005488160914984287,-0.0015438241288562838,0.00032301828969121536,-0.0009779069783314288,5.632296020603782e-05,0.0005944838057798651,-0.0015475123591527653,0.7925909161567688,-52.72153091430664,5.334578514099121,18.16870880126953,-1.1664937734603882,-1.4069321155548096,0.012864691205322742,730,734,705,40.848,0,0
1739354850.8253713,0.36905599758888485,1.1916677785399332,0.2973792513803927,-1.149984652757665,-1.3932277525300683,1.0479464989699634,0.08831173817325742,0.0008347299193856073,0.0011242562274062602,-0.0009711217195913413,0.0006624671444683387,-0.0004635746466460889,0.00021043658431413713,-0.0003761663621455935,0.7648199200630188,-52.77310562133789,5.362349510192871,18.14490509033203,-1.1793111562728882,-1.4005234241485596,-0.020094294100999832,730,732,704,40.848,0,0
1739354850.8354027,0.3690562360074614,1.1916630755740951,0.29737528761490944,-1.1499855730689323,-1.3932280524399576,1.0479480702003514,0.08831272234192533,0.000751583577697181,-0.0014075673048623478,-0.0008847945054381929,0.0007243477314609945,0.0003063476192228146,-0.0001619358660585512,0.0013477641916780653,0.7648199200630188,-52.72153091430664,5.386153221130371,18.14490509033203,-1.1793111562728882,-1.4142563343048096,-0.027418512850999832,729,731,706,40.848,0,0
1739354850.8463454,0.3690561566440666,1.191665042683296,0.2973791614545764,-1.1499893396287901,-1.3932271841379407,1.047947204302233,0.08830785914260487,0.0003933463238555427,0.0004387622698799686,-0.001072447721991455,-0.0010190226141529675,0.0009513302917790669,-0.00036371955809189836,0.0009929908759559575,0.7648199200630188,-52.74930191040039,5.362349510192871,18.16870880126953,-1.1866353750228882,-1.4069321155548096,0.012864691205322742,727,733,706,40.848,1,0
1739354850.8563776,0.3690539201778632,1.1916623263239916,0.2973813308477517,-1.1499867180499639,-1.3932296215465116,1.0479464466421546,0.08830486045979782,-0.000321154097603746,-0.0009450938668414915,0.000727601777796969,0.0011165499547142813,-0.0011298380754214826,-0.0002951884864546362,-0.0014048254835761697,0.7925909161567688,-52.74930191040039,5.334578514099121,18.16870880126953,-1.1664937734603882,-1.4005234241485596,0.03941498324275017,728,732,706,40.848,1,0
1739354850.8664305,0.36905602440553853,1.19166682329225,0.2973813311702615,-1.1499841771434227,-1.3932303777539914,1.0479464466421546,0.08831174010505052,0.00027200844429521446,0.0005659106370435982,0.00010979747165189573,0.0005007228427798475,-0.0004825707272005088,-0.0002211860634310758,-0.0001222058482593715,0.7648199200630188,-52.77310562133789,5.334578514099121,18.09729766845703,-1.1600850820541382,-1.4005234241485596,-0.020094294100999832,728,733,702,40.631,0,0
1739354850.8773477,0.36905400847760117,1.1916631127688049,0.2973792513804114,-1.1499864790904912,-1.3932256786742707,1.047947204302233,0.08831272234193603,6.568127406295156e-05,-0.0009025411762661236,-0.0002862809702087458,2.9838482439722497e-05,0.00020949664640117604,-0.00020133235736718275,0.0019594731410154023,0.7925909161567688,-52.72153091430664,5.362349510192871,18.16870880126953,-1.1729024648666382,-1.4069321155548096,-0.027418512850999832,729,731,706,40.848,0,0
1739354850.8874187,0.3690518141445371,1.1916671856162935,0.29738133149731577,-1.149989511761432,-1.393228863833443,1.0479456889820764,0.08830623120564844,-0.0010927038335183247,0.0004808403018094167,0.0009057581214384146,0.00030835517886294004,0.00029952520582168134,-0.000443217308302479,-0.001873855087252874,0.7925909161567688,-52.74930191040039,5.334578514099121,18.16870880126953,-1.1729024648666382,-1.3941147327423096,0.026597600430250168,729,732,706,40.848,1,0
1739354850.8983557,0.3690539201381579,1.1916630902012357,0.29737925138041693,-1.149988594091329,-1.3932281055812834,1.0479480701994655,0.08830865405380217,-0.00014320393873779125,-0.0010793389977231376,-0.0002453241370511407,-5.483412424968446e-06,-0.00027315838752483494,0.0003269735619216542,-0.001538460406945001,0.7925909161567688,-52.72153091430664,5.362349510192871,18.19647979736328,-1.1793111562728882,-1.4142563343048096,0.03300629183650017,728,727,706,40.957,0,0
1739354850.908375,0.3690559094478832,1.191669510008576,0.29738164039491244,-1.1499856878630985,-1.3932295779409523,1.047947204302233,0.08831264788140139,0.0004944397054307319,0.002952250752157309,0.0018957571067601269,-0.00019332675065480395,-0.00037564138168201056,-0.0004563951431401993,0.00015691331509868592,0.7648199200630188,-52.80087661743164,5.334578514099121,18.14490509033203,-1.1664937734603882,-1.4069321155548096,-0.027418512850999832,728,731,706,40.848,0,0
1739354850.9183893,0.36905424100855494,1.1916651078868987,0.29737925138564814,-1.1499892910202787,-1.393228820280139,1.0479464510028054,0.08831098244293333,0.0006557575321552129,-0.00030966079606089023,3.358029831601504e-05,0.0007559334359942111,0.00018948380028818793,0.000305990675567448,0.0009436784391840654,0.7925909161567688,-52.74930191040039,5.362349510192871,18.16870880126953,-1.1729024648666382,-1.4005234241485596,-0.013685601763427258,729,732,706,40.957,1,0
1739354850.9284008,0.3690560585878709,1.1916651095104294,0.2973827758423458,-1.1499867184852057,-1.3932308348888307,1.0479457020641025,0.08831411937264992,0.0006344681735038259,-0.0003260520580169631,0.0008901849748064849,-0.001300591876767072,-0.0009153126166452808,0.00020831594034391204,0.0009289518552876751,0.7925909161567688,-52.74930191040039,5.310774803161621,18.16870880126953,-1.1472676992416382,-1.3941147327423096,-0.04023589566349983,726,732,704,40.848,0,0
1739354850.9384098,0.36905591815089095,1.1916631040474814,0.29737965462586424,-1.1499867212760626,-1.3932303661076444,1.0479464466423762,0.08831052978006577,0.001795487651346626,-0.0007644997095434859,-4.234715223497493e-06,-0.00023613679268862846,-0.00013476636715923138,0.0005039146475195704,-6.993757259128434e-05,0.7648199200630188,-52.72153091430664,5.362349510192871,18.16870880126953,-1.1600850820541382,-1.4005234241485596,-0.0008682189509272575,729,732,705,40.957,0,0
1739354850.9484553,0.3690539201738243,1.1916631157120947,0.29738100782333293,-1.1499864123240051,-1.393231136867398,1.0479464858880112,0.08831022285299023,-0.0008839659543242018,-0.00012946277716330816,0.0013708435465280585,0.0012817329544799543,-0.0015043425766677135,0.0006703437866495863,-0.0001579436222917689,0.7925909161567688,-52.72153091430664,5.310774803161621,18.16870880126953,-1.1536763906478882,-1.4005234241485596,-0.0072769103571772575,729,732,706,40.848,0,0
1739354850.9593973,0.3690539201738237,1.1916661080836843,0.29738076356517673,-1.1499864025071598,-1.393226429551123,1.0479464466423762,0.08830744028636196,-0.000724300449436316,0.0010458898679087088,0.00011968151470360727,0.0012921050263290195,-0.0002838086962547721,-0.0002654216016355355,-0.0012889410578486194,0.7925909161567688,-52.77310562133789,5.334578514099121,18.16870880126953,-1.1664937734603882,-1.4005234241485596,0.019273381680250168,730,731,707,40.957,0,0
1739354850.9694624,0.3690522115776782,1.1916631099222692,0.2973797175358736,-1.1499849730428333,-1.3932317237622405,1.0479464466421546,0.08831417934676491,-9.08224718560866e-05,-0.0003093610946425441,-0.00036091145104569743,0.0002546141844334047,-0.0013143992496965017,-0.0004561042839997492,0.0007522789222128365,0.8163946270942688,-52.72153091430664,5.386153221130371,18.14490509033203,-1.1472676992416382,-1.4005234241485596,-0.013685601763427258,730,730,705,40.848,0,0
1739354850.9804635,0.36905392017384586,1.191668824114665,0.2973772347126668,-1.1499846560254803,-1.3932270468089376,1.0479464466421546,0.088310980513097,-0.00029468958064726106,0.0016807063346256956,-0.0013075369921308456,0.0019262105401327,0.00025624674483584975,-9.606869798596925e-05,-0.0007902052406986756,0.7925909161567688,-52.80087661743164,5.386153221130371,18.14490509033203,-1.1793111562728882,-1.4005234241485596,-0.013685601763427258,730,733,704,40.848,1,0
1739354850.991375,0.36905594375166917,1.1916631128778374,0.29738130516856603,-1.1499877545930888,-1.3932288812755558,1.0479464466421546,0.0883050970384307,0.0008160475261249057,-0.0012322151269839033,0.0006283962662165042,-0.000294913804997707,-0.0005014148669447301,-0.00019859943343709108,-0.0015681401702481528,0.7648199200630188,-52.72153091430664,5.334578514099121,18.14490509033203,-1.1729024648666382,-1.4005234241485596,0.03941498324275017,729,731,705,40.957,0,0
1739354851.0033526,0.3690539467012604,1.1916596835847244,0.2973822068432965,-1.1499838711900685,-1.393229724016879,1.0479456889820764,0.08831266483411279,-0.0006158338113181599,-0.001744556344347806,0.001599266520787566,0.00041361721252633184,0.0005408404652034284,0.00026730183432773256,0.0003394143151794569,0.7925909161567688,-52.67392349243164,5.334578514099121,18.12110137939453,-1.1536763906478882,-1.3941147327423096,-0.0008682189509272575,731,732,705,40.740,0,0
1739354851.0134568,0.369050393513519,1.1916596789696783,0.2973789393807943,-1.1499906630642314,-1.3932296215394877,1.0479464466421546,0.08830860367680378,-0.0010004722885857715,-0.0023521750405338573,-0.0010972923140491824,-0.0011336851496233822,-0.00046743978595991005,-0.0003751436508373114,-0.000969798239406677,0.8163946270942688,-52.67392349243164,5.362349510192871,18.19647979736328,-1.1664937734603882,-1.4005234241485596,0.0064559997990727425,729,733,706,40.848,1,0
1739354851.0244236,0.3690560240682488,1.1916668265936932,0.29738133116850574,-1.149986042607057,-1.3932325267220012,1.0479464466421546,0.0883047034433776,0.0014588511947701442,0.0001746612607958439,0.0001807131694139277,0.0014489356858838566,-0.0013733167478423584,-7.38746026404073e-05,-0.001555304386707868,0.7648199200630188,-52.77310562133789,5.334578514099121,18.12110137939453,-1.1664937734603882,-1.4005234241485596,0.03941498324275017,731,735,705,40.848,1,0
1739354851.035421,0.3690540349685525,1.1916611619385293,0.29738133117026694,-1.149986881427008,-1.393228439827513,1.0479464466421546,0.08830708761272218,0.0005771203454367449,-0.001991282092319031,0.0008226551468838179,0.0006988111864228155,0.0004296635001299465,-0.00028268440485304703,-0.0005212412896232488,0.7925909161567688,-52.69772720336914,5.334578514099121,18.14490509033203,-1.1664937734603882,-1.4005234241485596,0.04673920199275017,730,731,706,40.740,1,0
1739354851.046406,0.36905506856969233,1.1916687944609106,0.2973813205956889,-1.149984947255045,-1.3932292684936258,1.0479464466421546,0.08831374001919139,3.5141885976497903e-05,0.0004764595533982833,0.0006727446923634555,0.0003030906154246587,-3.500367822464378e-05,-0.00019262452977685391,0.00039753008580850825,0.8163946270942688,-52.80087661743164,5.334578514099121,18.14490509033203,-1.1664937734603882,-1.4005234241485596,-0.03382720425724983,728,733,705,40.848,1,0
1739354851.0574305,0.3690559042635524,1.1916658561627465,0.29737746870321324,-1.1499896177294928,-1.3932303617589596,1.0479464466421546,0.08831413706565139,0.000952411697221056,0.0002540369970267495,-0.0004663936097248245,-0.0015627950109883488,0.00031003967834185764,-0.0003443021050007816,0.0029476570778604765,0.7648199200630188,-52.72153091430664,5.386153221130371,18.16870880126953,-1.1600850820541382,-1.4005234241485596,-0.04023589566349983,728,737,705,40.848,1,0
1739354851.0674572,0.36905220754601686,1.191663138403114,0.29738039515658604,-1.149987467650536,-1.3932289040604542,1.0479456889820764,0.08831022283506092,-0.0015320683727591301,-0.00026123703898334297,0.0008149947865110404,-0.0006583951012979592,-0.00015221493500567352,-0.0005152863444613629,-0.0005413606537146105,0.8163946270942688,-52.72153091430664,5.334578514099121,18.16870880126953,-1.1729024648666382,-1.3941147327423096,-0.0072769103571772575,728,733,706,40.848,0,0
1739354851.0784473,0.36905046624304955,1.191663135444333,0.2973789323632438,-1.14999101642913,-1.393228392937332,1.0479456889820764,0.08831260410654779,-0.001030311718805711,-0.0004944878279532468,-0.0011907319006211783,-0.0002118953034741511,0.0008064688838088908,-0.00044166402004758174,0.0016871751432406502,0.8401983380317688,-52.72153091430664,5.362349510192871,18.22028350830078,-1.1729024648666382,-1.3941147327423096,-0.027418512850999832,728,733,705,40.957,0,0
1739354851.089366,0.3690538161721405,1.191666823339533,0.2973767666913308,-1.1499896055183296,-1.3932288638847263,1.0479507364293308,0.08831671470773825,5.2796541637128636e-05,0.0009010808166102391,-0.0006525905311409164,0.0011578132763566597,0.0005135504268674846,0.0007228199661906994,0.002639720031809102,0.7925909161567688,-52.77310562133789,5.386153221130371,18.16870880126953,-1.1729024648666382,-1.4069321155548096,-0.03382720425724983,729,732,706,40.848,0,0
1739354851.0994072,0.3690541585906415,1.1916628724606106,0.29738133115837834,-1.1499913522045084,-1.3932296349564643,1.0479464467019715,0.08830778738532401,0.00017819433208941964,-0.0008487700208654984,0.00013126148912656133,-0.0012379174585235354,-0.0004328246518389004,2.967718727964338e-05,-6.988864395573546e-05,0.7925909161567688,-52.72153091430664,5.334578514099121,18.19647979736328,-1.1664937734603882,-1.4005234241485596,-0.013685601763427258,728,731,703,40.848,1,0
1739354851.1104167,0.3690560698696589,1.191661285558888,0.29737831440375323,-1.1499858130187866,-1.3932288638876118,1.047947204302234,0.08830860068393849,0.000286087266157805,-0.0005852859171187685,-0.0008753920488376917,0.000574539514433323,-0.0006119293624447329,-0.00030867911690708033,-0.0005514715404856895,0.7925909161567688,-52.69772720336914,5.362349510192871,18.12110137939453,-1.1729024648666382,-1.4069321155548096,0.0064559997990727425,728,733,706,40.848,0,0
1739354851.1214328,0.369052208646374,1.1916646254654861,0.2973774683771107,-1.1499893760879802,-1.393228799785819,1.0479456889820764,0.08831353306189468,-0.0007259408317814033,0.0004838627266445366,-0.00014221259724154405,-0.0007744946938102172,0.00011559728115666311,0.0001329343874197479,0.001038819094304377,0.8163946270942688,-52.74930191040039,5.386153221130371,18.16870880126953,-1.1729024648666382,-1.3941147327423096,-0.03382720425724983,727,733,701,40.631,0,0
1739354851.1314645,0.3690552193749209,1.191667177104807,0.2973789393758456,-1.1499859700039687,-1.393229617185727,1.0479464466421546,0.08830865623473888,0.0002911267520764522,0.0012552316240626233,-0.00012140945503901797,0.0008601742363662467,-0.0005730255965713917,-4.33968968853349e-05,-0.0003669466527828854,0.7648199200630188,-52.74930191040039,5.362349510192871,18.12110137939453,-1.1664937734603882,-1.4005234241485596,0.0064559997990727425,730,732,706,40.848,0,0
1739354851.1423845,0.3690576306704319,1.1916672025293693,0.29737746018136696,-1.1499895118144308,-1.3932288640529198,1.0479480701994655,0.08830713658489392,0.0011620636358072702,0.0012472170747122888,-0.0012853405545499334,-0.000556752643929691,0.0005236146057362993,0.00010493594849732903,-0.0011617279132742318,0.7410162091255188,-52.74930191040039,5.386153221130371,18.16870880126953,-1.1729024648666382,-1.4142563343048096,0.019273381680250168,729,734,706,40.740,1,0
1739354851.1533449,0.3690539201738239,1.1916631128896291,0.29738094701573115,-1.1499878321573425,-1.3932288683570526,1.0479472062403001,0.0883099446612819,-0.0002361694862498663,-0.0007142495652112425,0.00019519564078818613,0.0006546669488716747,0.00029356886616000957,8.849723295570041e-05,-0.00019077451898541346,0.7925909161567688,-52.72153091430664,5.334578514099121,18.14490509033203,-1.1729024648666382,-1.4069321155548096,-0.0008682189509272575,728,734,707,40.740,0,0
1739354851.1634123,0.3690559298884337,1.1916688032925744,0.2973813295830254,-1.1499871198455927,-1.3932296084655869,1.0479475062803167,0.0883078460067834,-6.6537456619994505e-06,0.000753261474834923,0.0006964304185074355,0.0003769417504307733,-0.00034435934985698705,0.0005547683618645995,-0.0017672119420701472,0.7648199200630188,-52.80087661743164,5.334578514099121,18.14490509033203,-1.1664937734603882,-1.4005234241485596,0.012864691205322742,727,732,706,40.740,0,0
1739354851.1734498,0.36905606594163376,1.19166096318511,0.29737925170737955,-1.1499860435577043,-1.3932319004865898,1.0479472043560683,0.08831401038298681,0.00038407556776989647,-0.0010602350661819994,-3.779736609408455e-05,0.0002743825984707891,-0.0013129230848687669,-0.00021092351550063728,0.0017277425812733255,0.7925909161567688,-52.72153091430664,5.362349510192871,18.12110137939453,-1.1472676992416382,-1.4069321155548096,-0.027418512850999832,728,732,707,40.848,0,0
1739354851.1843488,0.36905220349230494,1.191661055962563,0.29737746870339415,-1.1499878086103765,-1.3932294747055707,1.0479449332600652,0.08831180198291531,-0.0005518270920734864,-0.002275903187441572,-0.0011773544972637135,-0.0007939930697286434,0.0009962190329700562,-0.0007227901919280483,0.0017928801766848987,0.8163946270942688,-52.69772720336914,5.386153221130371,18.14490509033203,-1.1729024648666382,-1.3877060413360596,-0.0072769103571772575,728,732,706,40.740,0,0
1739354851.1944442,0.3690539201738002,1.1916629735527873,0.29737925138041144,-1.1499887965586992,-1.393228101870104,1.0479464466421655,0.08831336318181668,-0.00020524235271718937,-0.00017151573404053464,-0.00013271087213961467,-0.0004204384964623429,0.00016943910518803224,-0.0005341265897912686,0.0022300960032253436,0.7925909161567688,-52.74930191040039,5.362349510192871,18.16870880126953,-1.1793111562728882,-1.4005234241485596,-0.03382720425724983,727,733,706,40.740,0,0
1739354851.2053497,0.3690539201738237,1.1916651133139837,0.29737714534962933,-1.1499917418605625,-1.3932292259303878,1.047950383216621,0.08831493391793703,-0.00013839532058972998,0.00032583203935044474,-0.00044813771848091857,-0.00195986760760569,-0.0006303664969756304,0.0006002379623782008,0.001814648359216271,0.7925909161567688,-52.74930191040039,5.362349510192871,18.19647979736328,-1.1729024648666382,-1.4069321155548096,-0.020094294100999832,728,732,707,40.848,0,0
1739354851.2153826,0.3690539996466834,1.1916631128778636,0.2973785489064951,-1.14998783510213,-1.3932296215535944,1.0479482690008706,0.08831611654217184,0.00039962723337173454,-0.0002156576182497213,-0.0006204650512295624,-0.00029125509432037077,0.0002968379723119522,0.0008178311615893813,0.002851322094623912,0.7925909161567688,-52.72153091430664,5.362349510192871,18.14490509033203,-1.1664937734603882,-1.4069321155548096,-0.020094294100999832,726,732,706,40.848,0,0
1739354851.2263536,0.36905415891990023,1.191661400672026,0.29737925137644594,-1.1499934527731739,-1.3932292681732479,1.0479456889880867,0.08831139957358908,0.0003823671147095239,-0.0008024467476409544,-0.0004344410640862507,-0.0012580462789832667,9.526724213207084e-06,-0.0008135387591518416,-0.00016092142338938883,0.7925909161567688,-52.69772720336914,5.362349510192871,18.22028350830078,-1.1664937734603882,-1.3941147327423096,0.019273381680250168,728,733,707,40.957,1,0
1739354851.2364125,0.36905392018595323,1.1916592545898943,0.29737746870339216,-1.1499909469898506,-1.3932287461318615,1.0479467998548646,0.08831209324287821,0.00012628671443461951,-0.0021664834171441576,-5.281876978042077e-05,-2.367668140714689e-05,-0.00024654348079010294,0.00013011224863560862,0.0006509913961717073,0.7925909161567688,-52.69772720336914,5.386153221130371,18.19647979736328,-1.1729024648666382,-1.4005234241485596,-0.020094294100999832,728,733,706,40.740,1,0
1739354851.2464247,0.3690558921142968,1.1916651107702227,0.2973774687033923,-1.1499896294389027,-1.393230379206877,1.0479464466441486,0.08830946517688719,0.0002921854473657599,0.0006295076590313866,0.0006721952090003515,-0.001021713260606072,-0.0011500472362761696,3.198131864801908e-05,-0.0005929382339381188,0.7648199200630188,-52.74930191040039,5.386153221130371,18.16870880126953,-1.1600850820541382,-1.4005234241485596,-0.0008682189509272575,728,732,710,40.848,1,0
1739354851.2573578,0.36905049545926333,1.191665110887314,0.29737652894681954,-1.1499896177784648,-1.3932304328987268,1.0479456889820764,0.08831655552808781,-0.0008002736528110046,-2.0812488123765193e-05,-0.001833882527930523,-0.000657240911183982,-0.001725426722322244,-0.00036174734955004195,0.0005644374768738217,0.8401983380317688,-52.74930191040039,5.386153221130371,18.16870880126953,-1.1600850820541382,-1.3941147327423096,-0.03382720425724983,728,733,706,40.848,1,0
1739354851.2685091,0.3690559181146823,1.1916631125507737,0.2973792252571191,-1.149989617778399,-1.3932303399625943,1.0479464466421546,0.08830471593757605,0.0003252241092858508,0.000476351377477102,4.185467314969671e-06,-8.559286226896001e-05,-0.0010521046781826792,-0.0002679531045014193,-0.0031730458579364994,0.7648199200630188,-52.72153091430664,5.362349510192871,18.16870880126953,-1.1600850820541382,-1.4005234241485596,0.03941498324275017,728,733,706,40.848,1,0
1739354851.2804072,0.36905831113078547,1.1916643955629365,0.2973771337938557,-1.149987349397565,-1.3932292683898606,1.0479464510028054,0.08831508969008826,0.0017752686203521798,-0.0009455575505425166,-0.001328794719852435,0.00044991996186717175,0.0001304999723932172,-0.00019013739764558708,0.001741810447361064,0.7648199200630188,-52.74930191040039,5.362349510192871,18.14490509033203,-1.1664937734603882,-1.4005234241485596,-0.020094294100999832,729,734,707,40.848,1,0
1739354851.291373,0.36905514810584994,1.1916651224699562,0.29737644333538404,-1.1499916975673405,-1.3932296041041958,1.047947204302241,0.08830831478173762,-0.0002439386289916471,0.001117334302606856,-0.000350694696066388,-0.0007385788105941262,0.0004982149047666537,0.000894443138094952,8.434132360764387e-05,0.8163946270942688,-52.74930191040039,5.362349510192871,18.19647979736328,-1.1664937734603882,-1.4069321155548096,0.012864691205322742,728,732,706,40.848,0,0
1739354851.302384,0.3690531613440079,1.191666827153695,0.29738125315327535,-1.1499895912874456,-1.3932296215473647,1.047947204302233,0.0883078810500646,-0.00010899836969059554,0.0014409318595461876,0.00029812090356253265,-0.000852599885223634,-0.00036971294233684496,0.000796454718835991,-0.0008164396623011858,0.8163946270942688,-52.77310562133789,5.334578514099121,18.16870880126953,-1.1664937734603882,-1.4069321155548096,0.012864691205322742,727,732,706,40.848,1,0
1739354851.3124664,0.36905591813082755,1.19166513240396,0.29737922513816367,-1.149987839134533,-1.3932264033872186,1.0479496255565426,0.08830620491776527,0.0007811027250759375,0.00045475948582779244,0.00017779948947536055,0.00020290311786851773,0.001197205222620807,0.0009109698530370183,-0.0022700054046657222,0.7648199200630188,-52.74930191040039,5.334578514099121,18.14490509033203,-1.1664937734603882,-1.4005234241485596,0.026597600430250168,727,732,706,40.848,0,0
1739354851.323406,0.3690504950253639,1.1916643690721056,0.2973767667175818,-1.1499896164702264,-1.3932288819134295,1.047945728245878,0.08831261719565991,-0.000795574827847974,-0.0008748001331337998,-0.0007499852021275397,-0.00042467255541097943,0.00047347561589679017,0.00025185763524687515,0.00028704538974018987,0.8401983380317688,-52.74930191040039,5.386153221130371,18.16870880126953,-1.1729024648666382,-1.3941147327423096,-0.027418512850999832,726,732,706,40.848,1,0
1739354851.333425,0.369055926944989,1.1916631128401367,0.2973791694916986,-1.1499878082833113,-1.3932288638883006,1.0479456889840713,0.08831336755466138,0.0008359094645508951,-0.0007071118512907388,-0.001328198246857116,0.0003414886009767286,2.4776385742911457e-07,-7.854846907401182e-05,0.0017972870669957864,0.7648199200630188,-52.72153091430664,5.362349510192871,18.14490509033203,-1.1729024648666382,-1.3941147327423096,-0.03382720425724983,726,731,705,40.957,0,0
1739354851.3434305,0.369054353456693,1.1916631128778212,0.2973813311698047,-1.149986048172575,-1.393227200458697,1.0479464878260782,0.08831175146079732,0.0006813001478351841,-0.0016904491920846886,0.0008230994713463308,0.0010583786362587419,0.00041105729735488945,0.00014613901988567792,0.000737554256530008,0.8163946270942688,-52.72153091430664,5.334578514099121,18.12110137939453,-1.1600850820541382,-1.4005234241485596,-0.020094294100999832,726,732,706,40.957,0,0
1739354851.3543925,0.3690501016344236,1.1916629650514625,0.29738109620386965,-1.1499896177783748,-1.393229621529519,1.0479472043024656,0.08830815732504449,-0.0007494324109144795,-0.0003292725600198656,0.0004712379789753329,-0.0012350402331650304,-0.0001060127825413751,0.00035054485829416084,-0.00150850667375463,0.8163946270942688,-52.74930191040039,5.334578514099121,18.16870880126953,-1.1664937734603882,-1.4069321155548096,0.019273381680250168,728,731,705,40.740,0,0
1739354851.365355,0.36905150560716626,1.1916670528913282,0.29737925137643223,-1.1499896167972525,-1.3932294292427654,1.0479456889820764,0.08831260471968838,-0.0017872419582762762,0.001272904613757273,-9.280451079329952e-05,-0.00011874171461053045,0.0005199804172340757,-0.000498683302312355,0.0008884299715638493,0.8163946270942688,-52.77310562133789,5.362349510192871,18.16870880126953,-1.1664937734603882,-1.3941147327423096,-0.027418512850999832,728,733,706,40.848,1,0
1739354851.3754191,0.36905010456178666,1.1916670567081935,0.2973774683824,-1.1499878360825206,-1.3932296220430074,1.0479480701994655,0.08830912522495887,-0.0005858294828899159,0.0004886882869523172,-0.0006156362995707233,0.0002700956018679072,6.285078375859853e-05,0.00020345973493784167,0.000319438886258273,0.8163946270942688,-52.77310562133789,5.386153221130371,18.14490509033203,-1.1664937734603882,-1.4142563343048096,0.0064559997990727425,728,733,705,40.848,0,0
1739354851.3854291,0.36905606579842215,1.1916631128817734,0.29737925105941365,-1.1499896177784155,-1.393227200293162,1.0479456933427271,0.08830662551076812,0.0002357782526928525,-0.0001068710818194831,-8.574043531150673e-05,-0.0010552516935835293,0.0003958523756357581,-0.00037387938589767734,-0.0006115408397307526,0.7925909161567688,-52.72153091430664,5.362349510192871,18.16870880126953,-1.1600850820541382,-1.3941147327423096,0.026597600430250168,728,731,706,40.848,0,0
1739354851.3964465,0.3690522072735536,1.191668846895044,0.2973746346619678,-1.1499893783786734,-1.393230742668678,1.0479449313220224,0.08831221686970535,-0.0005330682550348268,0.00013480444060786885,-0.0012408885497101614,0.00017811749383398303,-0.0010928678122281914,-0.0006214703207973184,0.002059823225296621,0.8163946270942688,-52.80087661743164,5.386153221130371,18.16870880126953,-1.1600850820541382,-1.3877060413360596,0.012864691205322742,728,731,706,40.848,2,0
1739354851.4074116,0.3690539198528292,1.1916614003572348,0.2973803651813022,-1.1499896177770474,-1.3932288638894366,1.0479456889820764,0.08831341667520869,0.00023518396215250207,-0.000639632646928718,0.0004265586400925993,-0.0014749018809531245,0.0005777799763003336,-0.0009052661141106204,0.0006081772318078216,0.7925909161567688,-52.69772720336914,5.334578514099121,18.16870880126953,-1.1729024648666382,-1.3941147327423096,-0.0072769103571772575,728,732,706,40.740,0,0
1739354851.4174232,0.3690504952413721,1.1916651108186744,0.2973792513640523,-1.1499821239801298,-1.3932273337956054,1.0479464524563555,0.08831411991349282,-0.0009338788796541962,0.0005765992294349727,0.0004088816531879287,0.0017524459029515298,0.0009275194225970324,-0.00022498584176565656,0.0011035029069911997,0.8401983380317688,-52.74930191040039,5.362349510192871,18.09729766845703,-1.1729024648666382,-1.4005234241485596,-0.04023589566349983,730,730,707,40.848,0,0
1739354851.4293404,0.3690522047284962,1.1916631128778215,0.2973792513804113,-1.1499916609266754,-1.39322995000783,1.047947204302266,0.08831336365969332,-0.0005607698685283695,-0.0005258550583618759,2.298075126806417e-05,-0.0007509717945561668,0.0006061891840559043,-0.00024919097341603456,-0.0004071728334679441,0.8163946270942688,-52.72153091430664,5.362349510192871,18.19647979736328,-1.1729024648666382,-1.4069321155548096,-0.03382720425724983,728,731,709,40.848,1,0
1739354851.4393773,0.3690559181146602,1.191668710685273,0.29738122720508564,-1.1499839066569422,-1.3932311121852268,1.0479467998548644,0.08831204574928402,0.0008980438355005072,0.0012345452572248086,0.0008352318927984163,0.0016279959696998778,0.00023392592879082773,0.0005445222278586827,0.00014756784843616654,0.7648199200630188,-52.80087661743164,5.334578514099121,18.12110137939453,-1.1600850820541382,-1.4005234241485596,-0.013685601763427258,728,734,705,40.848,1,0
1739354851.4494023,0.36905591811467675,1.1916661076457302,0.29738139714586265,-1.1499887960864448,-1.3932296328693048,1.0479472043082148,0.08830976611330452,0.00046883960232141684,9.868252299601477e-05,0.0006807103720564659,0.00017318255278817008,-0.00019588284072660198,-0.0002844046916131203,-0.0019971065064123047,0.7648199200630188,-52.77310562133789,5.362349510192871,18.16870880126953,-1.1664937734603882,-1.4069321155548096,0.026597600430250168,729,733,706,40.740,0,0
1739354851.4604225,0.36905382500262135,1.191666116574817,0.297384856104605,-1.1499896187456298,-1.3932281062274983,1.0479464466421546,0.08831351949191155,-1.5822473300666643e-05,0.0008850376609671155,0.0016534599697110213,-0.0003064799466938416,0.000711763668075934,0.000129079903230812,0.0012105709231336479,0.7925909161567688,-52.77310562133789,5.283003807067871,18.16870880126953,-1.1793111562728882,-1.4005234241485596,-0.03382720425724983,726,726,706,40.848,0,0
1739354851.4704554,0.3690539220110854,1.1916624004525174,0.29737854936824537,-1.1499896177784044,-1.39323070789727,1.0479464466421546,0.08831266385920179,-8.57901260797697e-05,-0.0005075510341528817,-0.0005527871797254258,-0.0002993646053167361,-0.0006121890386975344,-0.0006417368492204993,0.0007145231105078135,0.7925909161567688,-52.72153091430664,5.362349510192871,18.16870880126953,-1.1664937734603882,-1.4005234241485596,-0.0008682189509272575,727,732,706,40.848,1,0
1739354851.4814668,0.3690504575762672,1.191666823335384,0.2973755820208903,-1.1499862908429401,-1.3932285108463507,1.0479456889820764,0.08831525651228105,-0.0012343246852328108,0.001538475079470315,-0.0010395069997297677,0.00011799367328010896,0.0009746030288540952,-0.0003718278727078057,0.002095292252354446,0.8401983380317688,-52.77310562133789,5.409956932067871,18.12110137939453,-1.1729024648666382,-1.3941147327423096,-0.013685601763427258,728,732,706,40.740,0,0
