IITGN-Robotics/Franka_IITGN_ROBOTICS/franka_ros/franka_iitgn/data01/os_002.csv
time,fr3_joint1_pos,fr3_joint2_pos,fr3_joint3_pos,fr3_joint4_pos,fr3_joint5_pos,fr3_joint6_pos,fr3_joint7_pos,fr3_joint1_vel,fr3_joint2_vel,fr3_joint3_vel,fr3_joint4_vel,fr3_joint5_vel,fr3_joint6_vel,fr3_joint7_vel,fr3_joint1_eff,fr3_joint2_eff,fr3_joint3_eff,fr3_joint4_eff,fr3_joint5_eff,fr3_joint6_eff,fr3_joint7_eff,flexpin1,flexpin2,flexpin3,Force,ContactMic,ContactMic_gt
1739302826.7406611,-0.12306074499675329,1.0725855567422926,-0.375373277416472,-1.4179143374150562,1.5297272696776776,1.1448559445364903,1.3569503070269893,-0.0015647788026358928,0.0008531386829545805,0.0002875842354745215,0.000347396830264921,-0.0017751278390995431,0.0006790583729638243,0.0038159382895106434,-0.5285150408744812,-51.49563980102539,-7.102860450744629,18.19647979736328,2.0817971229553223,-0.8356430530548096,0.07328949868679047,,,,,,,,,
1739302826.7506912,-0.1230567185278722,1.0725826169387176,-0.37537482388247473,-1.4179120103763039,1.529726551424953,1.144856702190587,1.3569484124569577,-0.0004924503373134291,-0.0004761281992074687,-5.45086038438504e-05,0.0023151377203408678,0.0015351389250381712,-9.476489683657571e-05,0.002472665271850815,-0.5800897479057312,-51.49563980102539,-7.079056739807129,18.16870880126953,2.0882058143615723,-0.8420517444610596,0.05314789339900017,,,,,,,,,
1739302826.7616248,-0.12305703464298579,1.0725825639443993,-0.3753711976252664,-1.4179143333437199,1.5297297044986704,1.1448550786332763,1.356950034003768,-0.000708394619055248,-0.0004488797236668267,0.002200303217284617,0.00034848876228477544,1.3868951622863894e-05,0.00030047792226286737,0.0012598231794720717,-0.5800897479057312,-51.49563980102539,-7.130631446838379,18.19647979736328,2.0882058143615723,-0.8283188343048096,0.03941498324275017,,,,,,,,,
1739302826.7716897,-0.12305415549105282,1.0725863120864785,-0.3753732774164553,-1.4179161456016751,1.5297287851600208,1.1448574598506653,1.3569439900261993,0.0009043474082868657,-0.00027693950988314653,0.00014399073569532273,-8.716581333711158e-05,5.219835377234686e-05,0.0008810500592476309,0.0006565461748920727,-0.5800897479057312,-51.54721450805664,-7.102860450744629,18.22028350830078,2.0689797401428223,-0.8484604358673096,0.12639008462429047,,,,,,,,,
1739302826.7837098,-0.12305841978422967,1.0725862999156581,-0.3753732787246506,-1.417912257636913,1.529727274199826,1.144853523276199,1.3569452279700063,-0.0002650141979098548,0.001378369562420805,0.00044659828876129264,0.0009579682229817429,6.759408419325541e-05,-0.0006378047950161491,-1.1263021767085818e-05,-0.5562860369682312,-51.54721450805664,-7.102860450744629,18.16870880126953,2.0817971229553223,-0.8420517444610596,0.07969819009304047,,,,,,,,,
1739302826.7956116,-0.12305803283452466,1.0725833343662505,-0.3753733098215436,-1.417910032385129,1.5297288373256435,1.1448550786272944,1.356940467858548,-0.0005937982769703325,-0.000932889513626796,0.0010179107825500748,0.00013213215115580183,0.000541626822232684,-0.00046157788319839394,-0.0010849732911470413,-0.5562860369682312,-51.49563980102539,-7.102860450744629,18.16870880126953,2.0689797401428223,-0.8283188343048096,0.09343110024929047,,,,,,,,,
1739302826.8056836,-0.12305418179400877,1.07258625184232,-0.3753750337399839,-1.4179149851619912,1.5297281838369527,1.144854320973198,1.356943669742694,0.00084240399609734,0.0007076698726304683,0.0007768594910750248,-0.00018878001580619928,-0.001499868245055569,-0.00020050082127748086,0.0008961110971386913,-0.5800897479057312,-51.54721450805664,-7.079056739807129,18.16870880126953,2.0753884315490723,-0.8219101428985596,0.09343110024929047,,,,,,,,,
1739302826.816656,-0.12305482094431869,1.0725853004289416,-0.3753768424463241,-1.4179143374304535,1.5297281646722116,1.1448535633131196,1.3569468893117704,0.000670916668636414,2.2437695898453814e-08,-0.0007194324335573998,0.0010998834553740567,-0.0007109442270812827,-0.0007495052179588651,0.0029929293114932427,-0.5800897479057312,-51.51944351196289,-7.055253028869629,18.19647979736328,2.0753884315490723,-0.8155014514923096,0.06596527993679047,,,,,,,,,
1739302826.8277316,-0.1230543448306519,1.072584814673347,-0.3753789264849292,-1.4179160464939813,1.5297258089203118,1.1448544459785193,1.356940508972156,0.001076340260518591,-0.0006028982884745866,-0.0010949303198011825,0.0002468906694388914,-0.00026569660463041263,1.963190374531577e-06,-0.0013705468014915119,-0.6038934588432312,-51.49563980102539,-7.027482032775879,18.22028350830078,2.0955300331115723,-0.8219101428985596,0.11998139321804047,,,,,,,,,
1739302826.8387382,-0.12305802691661052,1.0725835930688408,-0.37537585181736083,-1.4179190162001791,1.5297331072373548,1.144845776073496,1.3569394494956304,-0.0004480968837828989,-0.0011117592290890352,-0.0005364315349863019,-0.0005557085346763401,0.001988209158919773,-0.002872230193630085,-0.0009028615394727341,-0.4809076488018036,-51.42026138305664,-7.027482032775879,18.06952667236328,1.9179178476333618,-0.9271957874298096,0.11998139321804047,,,,,,,,,
1739302826.8507018,-0.12305624087782734,1.0725772203741197,-0.3753750250795213,-1.4179470362341877,1.5297232422834737,1.144805466496407,1.3569392975794694,-0.000893831571816616,-0.00024413335008531992,-0.0008815128715722815,-0.0021255081010487144,0.00022511236624619892,-0.002713896995229682,0.0009498949392236142,-0.3301508128643036,-51.31711196899414,-7.027482032775879,17.97431182861328,1.8465067148208618,-0.9931137561798096,0.05314789339900017,,,,,,,,,
1739302826.860736,-0.12304799131072953,1.0725813513055547,-0.37537012074111364,-1.4179677143005986,1.5297245911988901,1.1447760748366924,1.3569218658832012,0.0005060717537376492,-0.00050774211693139,0.002312117694217564,-0.0017205311898319166,0.0005179552156709338,-0.0024371945076013188,-0.001898198138789959,-0.3539545238018036,-51.34091567993164,-7.055253028869629,17.97431182861328,1.8199564218521118,-1.0059311389923096,0.11998139321804047,,,,,,,,,
1739302826.8716986,-0.12304212636672014,1.0725900367325192,-0.37537536099014435,-1.4179887428452207,1.5297207228279897,1.1447588255912637,1.356922959756071,0.0010292580325744836,0.0017944165599034939,0.0005649020409149468,-0.001307481027376612,-0.00129560166526244,-0.0011031171401760767,-0.001930159201485132,-0.3301508128643036,-51.42026138305664,-6.975907325744629,17.99811553955078,1.8400980234146118,-1.0132553577423096,0.10624848306179047,,,,,,,,,
1739302826.8836236,-0.12303872698907706,1.0725946499385879,-0.37537216332765383,-1.4180073492353547,1.5297237766912901,1.144748478843775,1.356922881992935,0.00036760352288551726,9.838661371922955e-05,-0.00020229824118657538,-0.0003204669309385843,0.0005901831250808418,-0.001502784093157248,-0.0011422076023096524,-0.3063471019268036,-51.44406509399414,-6.952103614807129,18.04572296142578,1.8135477304458618,-0.9802963733673096,0.09343110024929047,,,,,,,,,
1739302826.8937035,-0.123037257511332,1.0725933250963808,-0.3753728366930299,-1.418014382790289,1.529720597776422,1.1447420825447372,1.3569235770534356,0.001315370432877041,-0.0006304154555667327,-0.0004377855989846582,-0.0001971707275850946,0.00037425940359073174,-0.001529950599197222,0.00036456970005527576,-0.2825433909893036,-51.39249038696289,-6.952103614807129,17.99811553955078,1.8135477304458618,-0.9665634632110596,0.05955658480525017,,,,,,,,,
1739302826.9037194,-0.12303924470953062,1.0725941230797387,-0.3753731769785234,-1.4180146300611434,1.5297190824383207,1.1447424759814628,1.3569240281919828,-0.00012827078273328698,0.0005031117217047549,0.00019129767195019416,-0.001241213469113245,0.00016456225732314368,-6.221578309390348e-05,0.0006932568086393549,-0.2547723948955536,-51.39249038696289,-6.975907325744629,17.99811553955078,1.8263651132583618,-0.9729721546173096,0.04673920199275017,,,,,,,,,
1739302826.9137273,-0.12303903006973727,1.0725927964904107,-0.37537024581634154,-1.418010540844618,1.5297205977584771,1.1447404697882324,1.3569217919507557,0.0007375699454791479,0.00015268705079266688,0.0008118791236183566,0.0012757483558968443,0.0009479303532207051,0.00011729876113780613,0.0009119068447624873,-0.2825433909893036,-51.34091567993164,-6.975907325744629,17.94654083251953,1.8135477304458618,-0.9665634632110596,0.07328949868679047,,,,,,,,,
1739302826.9237332,-0.1230396107747927,1.0725925471012605,-0.3753708173389975,-1.4180149155684392,1.529719985093023,1.1447379504990782,1.356919477495336,-0.0003829263860310189,-0.0008520886476198919,0.00040273230701097664,0.0013186314247949707,0.00032675193153740805,-0.00020122127148514466,-0.0002800587280098484,-0.2547723948955536,-51.36868667602539,-6.975907325744629,17.97431182861328,1.8263651132583618,-0.9729721546173096,0.06596527993679047,,,,,,,,,
1739302826.934694,-0.1230388228640493,1.0725936023418272,-0.3753700795445958,-1.4180195288912818,1.529719082443416,1.1447363950865048,1.3569175757763208,0.0002933597171006914,0.0002088685971335727,-0.0002210262973871617,-0.0005626896402320585,-0.0005349253448664107,-0.0010223901936951647,-0.0011381317763075288,-0.2547723948955536,-51.36868667602539,-6.975907325744629,18.02191925048828,1.8263651132583618,-0.9867050647735596,0.09983979165554047,,,,,,,,,
1739302826.9457169,-0.12303208741914265,1.072589295458195,-0.3753758811862626,-1.4180187110922862,1.5297207153345413,1.1447395739291122,1.3569140999188727,0.0017355652973120787,-0.0014999664309129782,-0.00030361088205061045,0.0005695404753255574,0.0003414045215831711,0.00017631598364215636,-0.0005266009274775258,-0.3063471019268036,-51.31711196899414,-6.900528907775879,17.97431182861328,1.8135477304458618,-0.9867050647735596,0.09983979165554047,,,,,,,,,
1739302826.9566302,-0.12303143884954257,1.0725884463472755,-0.37537486589173674,-1.4180175817760639,1.5297240786529072,1.144738816340813,1.356918843385139,0.0006226897318095048,-0.0007296055256076281,-0.0007150626827782372,-0.0004680126770724107,0.002373368926364065,-0.00044194211721171957,0.0005486895694608344,-0.3539545238018036,-51.26553726196289,-6.952103614807129,17.99811553955078,1.8199564218521118,-0.9802963733673096,0.05955658480525017,,,,,,,,,
1739302826.966668,-0.12303031806092281,1.072589634564043,-0.37537394745081937,-1.4180157478353748,1.5297190688957782,1.1447395741664357,1.3569131256645581,0.000579746000081055,2.2481085426629248e-05,6.470114581138994e-07,-0.00045095374142350086,-0.0001300507018882381,3.8691899173895646e-05,0.00020115588525903834,-0.3301508128643036,-51.26553726196289,-6.952103614807129,17.97431182861328,1.8263651132583618,-0.9867050647735596,0.11998139321804047,,,,,,,,,
1739302826.9767303,-0.12303191674954052,1.0725880128423257,-0.37537883380596854,-1.4180175267816817,1.5297184214331292,1.1447379504435846,1.3569180466640962,0.0002111410145407026,-0.0006881699695095227,-0.001514601986275629,-0.00162226231319466,-0.0002785961883447156,-0.00014523826352604192,0.0009490653532965416,-0.3063471019268036,-51.28934097290039,-6.900528907775879,17.99811553955078,1.8199564218521118,-0.9729721546173096,0.06596527993679047,,,,,,,,,
1739302826.9877264,-0.12303167836171743,1.0725958671614322,-0.3753731798948569,-1.4180193122093019,1.5297183096963793,1.1447410893210492,1.3569187648924408,0.0013363820652152224,0.0001995356594189497,0.00019343532392789638,-0.0008046720454539002,-0.0007086141466587241,0.0005656662218503467,0.0008605168866540312,-0.3063471019268036,-51.36868667602539,-6.975907325744629,18.02191925048828,1.8327738046646118,-0.9995224475860596,0.05955658480525017,,,,,,,,,
1739302826.9977412,-0.1230315740714446,1.072598295204384,-0.37537284545728805,-1.4180200583978273,1.5297201222857857,1.1447387987367057,1.3569175364424821,0.0010807046517771945,0.0013535877621761179,-0.00030204431104062003,-0.0010279164463047135,-0.0007088652738807925,-0.00041776018387271446,-0.0008846659959394147,-0.2825433909893036,-51.39249038696289,-6.952103614807129,17.99811553955078,1.8135477304458618,-0.9802963733673096,0.06596527993679047,,,,,,,,,
1739302827.008698,-0.12303356280358754,1.0725921656916737,-0.3753748663617666,-1.4180182544482323,1.5297198400957148,1.1447375826952702,1.3569180464748984,-0.00037392157476725336,-0.00025395901797630507,-4.295940936831287e-05,0.0006093915637261852,0.0012999443176620795,-0.0004523438017461644,0.0007081093735637868,-0.2547723948955536,-51.31711196899414,-6.952103614807129,17.99811553955078,1.8199564218521118,-0.9729721546173096,0.06596527993679047,,,,,,,,,
1739302827.0197206,-0.12303360119424736,1.0725945885585215,-0.3753767540316748,-1.4180145018304176,1.5297172651401127,1.1447366673996144,1.3569184502795644,0.0013700604561693616,-0.0007420792058102379,-0.0010357757881584242,0.0007425258407186479,-0.0005789979423334173,-0.000829576065665016,0.0004384188733923113,-0.2825433909893036,-51.34091567993164,-6.928299903869629,17.94654083251953,1.8327738046646118,-0.9665634632110596,0.05955658480525017,,,,,,,,,
1739302827.0306442,-0.1230402583993879,1.0726006797185799,-0.3753749713084308,-1.4180208093532414,1.5297190431904697,1.1447337117285703,1.356907420478955,-0.001273010104903299,0.0014796862796349582,-8.824399195788893e-05,-3.890828934053485e-05,-0.0020256097003293985,-0.0021180754137547645,-0.0025661839388438183,-0.2309686839580536,-51.39249038696289,-6.952103614807129,17.99811553955078,1.8263651132583618,-0.9729721546173096,0.11998139321804047,,,,,,,,,
1739302827.0406659,-0.12303278448000243,1.0725950560884576,-0.3753729408036736,-1.4180243899737444,1.529719840097734,1.1447335548358548,1.3569195617265697,0.00018814955536408792,0.0002700136815310583,0.0008748139274275361,-0.0011366140441012823,-4.105205683251011e-05,-0.0011708762984228203,0.0010795880970543826,-0.2547723948955536,-51.31711196899414,-6.975907325744629,18.04572296142578,1.8199564218521118,-0.9729721546173096,0.05314789339900017,,,,,,,,,
1739302827.0517557,-0.1230289086420151,1.0725952956700853,-0.37537497135503456,-1.4180190806438586,1.529717023850772,1.1447355981557563,1.3569108434080193,0.001077901810045284,-8.000888424847523e-05,-0.0003142387018968365,-0.0010146479071466295,0.0013470095447777643,5.234032167482735e-05,-0.0020597848382349565,-0.3063471019268036,-51.31711196899414,-6.952103614807129,17.97431182861328,1.8327738046646118,-0.9802963733673096,0.09983979165554047,,,,,,,,,
1739302827.0626817,-0.12303198525959984,1.072596770027961,-0.3753746281344559,-1.4180186380810247,1.529719027755362,1.1447347584290748,1.3569166945921918,0.0002788131084650827,0.001323177502968624,-0.00042762619103038185,-0.00035616541869716275,-0.00012299846934117308,-1.7103364926598897e-05,0.0013530899010502572,-0.3063471019268036,-51.34091567993164,-6.928299903869629,17.99811553955078,1.8135477304458618,-0.9729721546173096,0.07328949868679047,,,,,,,,,
1739302827.072687,-0.1230315755922709,1.0725928752146332,-0.3753728694831455,-1.4180190541157385,1.5297163047519902,1.144734573373589,1.3569085354476211,-0.0010033969394381995,0.00037024192533633484,0.0014397237292921097,0.00018878800469197728,-0.00029803119210613865,-0.000907389057517739,-0.0008743891745487194,-0.2825433909893036,-51.31711196899414,-6.975907325744629,17.97431182861328,1.8135477304458618,-0.9802963733673096,0.10624848306179047,,,,,,,,,
1739302827.0836926,-0.12303453923682504,1.0725968190713193,-0.37537271846319303,-1.418012966446028,1.5297178232672235,1.1447372450290465,1.3569069073495783,-4.969094960360714e-05,0.0016699427116260632,0.00017117595575569434,0.001854044132067326,0.0006868995974698668,-0.0008779861752572225,-0.0020321575251840565,-0.2547723948955536,-51.36868667602539,-6.975907325744629,17.92273712158203,1.8071390390396118,-0.9802963733673096,0.11998139321804047,,,,,,,,,
1739302827.0936968,-0.12303517929068793,1.072595973734898,-0.37537307494022965,-1.4180186173300995,1.5297180063789713,1.144735779906054,1.3569134415501034,-0.0008025130749615072,0.0007963885527855955,-4.976643059772005e-05,-0.0011653379982317818,-0.00016936788031073633,0.0004018949096736531,0.0009365133673824536,-0.2309686839580536,-51.36868667602539,-6.975907325744629,17.99811553955078,1.8071390390396118,-0.9665634632110596,0.06596527993679047,,,,,,,,,
1739302827.104671,-0.1230335935314959,1.0725943864949794,-0.375368982845911,-1.4180227372320535,1.5297181699712035,1.1447356084057594,1.3569133318884774,-0.0005280133847869004,-0.0007778932143756428,0.0016088722678290674,-0.0013372799794653875,-0.00013038033303672486,-0.0015907856361405213,-9.77777229469206e-05,-0.2825433909893036,-51.31711196899414,-7.003678321838379,18.02191925048828,1.8071390390396118,-0.9665634632110596,0.06596527993679047,,,,,,,,,
1739302827.1147,-0.12303546611888574,1.0725933412481161,-0.3753748924754224,-1.418019134936023,1.5297193284112303,1.144734048184659,1.3569096323593173,-0.0013550389081129453,-0.0010410149212902386,0.00022983185368796375,0.0008831387084096314,0.0012325808139662241,0.00023095921012398807,-0.0002657096415115167,-0.2547723948955536,-51.28934097290039,-6.952103614807129,17.97431182861328,1.7934061288833618,-0.9802963733673096,0.09983979165554047,,,,,,,,,
1739302827.1256194,-0.12303569303077529,1.0725959586198217,-0.37537318900601835,-1.4180193720448693,1.5297169593236521,1.1447340479692334,1.3569103842063106,-0.0006035428507549179,-0.0007569598374428382,-0.0003073558714378634,-0.00022617750001077892,-0.0011742839444899415,0.00046593327435268155,-0.001233496372424834,-0.2547723948955536,-51.36868667602539,-6.975907325744629,17.97431182861328,1.8071390390396118,-0.9802963733673096,0.09343110024929047,,,,,,,,,
1739302827.1357436,-0.12303537832238551,1.072595375128125,-0.37537036494911963,-1.418021086010228,1.529714450706766,1.144733182718022,1.3569068921200882,-0.0016371051803735124,-1.3228528911730903e-05,0.0003534011523971227,-0.00025116700433002484,-0.0004360293877552264,-5.395772552492909e-05,-0.0005969443540394746,-0.2547723948955536,-51.31711196899414,-6.975907325744629,17.99811553955078,1.8263651132583618,-0.9729721546173096,0.11998139321804047,,,,,,,,,
1739302827.1457663,-0.12303258891022448,1.0725942266788624,-0.3753731886315947,-1.4180211550527009,1.5297165876953098,1.144734047969243,1.3569136313189054,0.0015744637605468697,0.00033407840060900785,0.0005386319551549054,0.0002116907690835561,-0.0007627027944621105,4.5173498040696326e-05,0.001072002331288843,-0.2547723948955536,-51.34091567993164,-6.975907325744629,17.99811553955078,1.8071390390396118,-0.9802963733673096,0.06596527993679047,,,,,,,,,
1739302827.1558442,-0.12303370478450873,1.0725926582415881,-0.37537496811622567,-1.4180176929055117,1.5297167629265862,1.1447372268836202,1.3569129249114307,0.00042204620504050555,-0.00022631347320305022,1.5246448075420418e-05,-4.9790635484612926e-05,0.0007411217006897239,0.0009109029873246063,0.0005166314299386075,-0.2825433909893036,-51.28934097290039,-6.952103614807129,17.94654083251953,1.8071390390396118,-0.9802963733673096,0.06596527993679047,,,,,,,,,
1739302827.1666336,-0.12303424846165525,1.0725923047368313,-0.3753728327126214,-1.4180226548296357,1.5297159999371215,1.144737226907547,1.3569134089250532,-0.0025119914588782382,-0.0007633976831686823,0.00043633207907986873,-0.00124452247415198,0.0007603231077301822,0.001160729302251792,0.0023979462439909,-0.2309686839580536,-51.28934097290039,-6.952103614807129,18.02191925048828,1.8135477304458618,-0.9802963733673096,0.06596527993679047,,,,,,,,,
1739302827.1767015,-0.12302921739182208,1.0725912010393146,-0.3753788298988434,-1.418020007827889,1.5297159471273534,1.1447331821258353,1.3569068788728642,0.0017222711119180977,-0.0006645055717172969,-0.00128342095127466,0.00016767467511833128,-0.00034157777054794275,-0.0003069768616963087,-0.0022365652281027245,-0.3301508128643036,-51.28934097290039,-6.900528907775879,17.97431182861328,1.8135477304458618,-0.9729721546173096,0.11998139321804047,,,,,,,,,
1739302827.1876943,-0.12303053823463841,1.072595366640958,-0.3753749674681205,-1.4180170097005405,1.5297197659633555,1.1447340479692332,1.3569092733312715,0.0011856062159846298,-0.0008813774533099616,4.3192930360199283e-05,0.0005416639725787228,0.002041874384227861,3.675530702882273e-05,0.0006603879365215131,-0.2825433909893036,-51.31711196899414,-6.952103614807129,17.94654083251953,1.8071390390396118,-0.9802963733673096,0.09983979165554047,,,,,,,,,
1739302827.1986413,-0.12303393817270089,1.0725992144998837,-0.37537213642874184,-1.418022619519192,1.5297197796953177,1.1447324244119215,1.356910030345552,-0.0002912821268758174,0.0009087919221949837,0.0007191414704845262,0.0003394687979093095,0.0014120770962056653,-0.0007989017171011023,-4.9388436449178856e-05,-0.2547723948955536,-51.36868667602539,-6.952103614807129,18.02191925048828,1.8071390390396118,-0.9665634632110596,0.09343110024929047,,,,,,,,,
1739302827.2087164,-0.12303422248560177,1.072591665048728,-0.3753767539854431,-1.418021184155825,1.5297161841072229,1.1447348056293105,1.3569067351306692,-0.0004595957692610468,-0.0006273083764907214,-0.00024056631095169704,0.00042702684995511947,-0.00018917290378200245,0.0007719702714312318,-0.00276721522471329,-0.2309686839580536,-51.26553726196289,-6.928299903869629,17.99811553955078,1.8135477304458618,-0.9867050647735596,0.11998139321804047,,,,,,,,,
1739302827.2187717,-0.12303274627054142,1.0725970782174028,-0.37537486637376655,-1.4180190663686785,1.5297150760934748,1.144733182072,1.3569124107527544,0.00023221329005405445,0.0008305167228758869,-0.0001597408684371958,0.001045831621193549,-0.0006912871766698224,0.00020009508905905542,0.0013450676433757233,-0.2547723948955536,-51.34091567993164,-6.952103614807129,17.97431182861328,1.8199564218521118,-0.9729721546173096,0.07328949868679047,,,,,,,,,
1739302827.2297604,-0.12303264286988325,1.0725909472832738,-0.3753708173870573,-1.4180212003564583,1.52971582789708,1.144733182072,1.3569068906605317,0.0002562484896991029,-0.0013330777563111602,0.0008008816469576075,0.0003308435358033081,-0.0005244499950931578,0.0003038320122316611,-0.0009086824710799445,-0.2825433909893036,-51.26553726196289,-6.975907325744629,17.97431182861328,1.8135477304458618,-0.9729721546173096,0.11998139321804047,,,,,,,,,
1739302827.2406561,-0.1230288253570536,1.0725925144838357,-0.3753765178179912,-1.418021087026368,1.5297158298714089,1.144733182072,1.3569124123704661,0.00031512244785709373,-0.0012109394780007647,-0.0007557188800408452,7.67865176475699e-05,-0.0009205389228990897,-0.0001525572768409077,0.0014844103557062013,-0.3063471019268036,-51.31711196899414,-6.928299903869629,17.99811553955078,1.8135477304458618,-0.9729721546173096,0.07328949868679047,,,,,,,,,
1739302827.2507017,-0.12303250950808474,1.072597061489462,-0.3753749447827463,-1.41801931917576,1.5297165870469815,1.1447348056293105,1.356907601027915,-0.00035992504438515536,-0.0001828904899162992,0.0008300362278232901,0.0010005857657035017,-0.0010002281322320596,0.0006099206568129917,-0.0007885258607833177,-0.2547723948955536,-51.34091567993164,-6.952103614807129,17.97431182861328,1.8071390390396118,-0.9867050647735596,0.11265717446804047,,,,,,,,,
1739302827.2616835,-0.12302879908214132,1.072597167610593,-0.375374892619284,-1.4180227032330028,1.529715947124465,1.1447348056831457,1.3569141404214458,0.00054401192243223,0.0020177836498600043,-0.0004553431691480158,-0.00055624348182081,0.00016861503211745344,0.0003088967171448581,0.0016174753796572635,-0.3063471019268036,-51.34091567993164,-6.952103614807129,18.02191925048828,1.8135477304458618,-0.9867050647735596,0.05955658480525017,,,,,,,,,
1739302827.2726254,-0.12302835813436841,1.0725934482111723,-0.3753749713551004,-1.4180212264125573,1.529720407745115,1.1447355632893899,1.3569068528700223,0.0006261777383400518,-0.0004888791914503601,-0.00010358103830941946,0.0007580285668782541,-5.3610084647495065e-05,0.0009557269914795498,-0.0007230347335224715,-0.2825433909893036,-51.28934097290039,-6.952103614807129,17.97431182861328,1.8135477304458618,-0.9931137561798096,0.11998139321804047,,,,,,,,,
1739302827.2827122,-0.12302879903389873,1.0725912318004696,-0.37537425386687245,-1.4180229375197302,1.5297177279060923,1.144731364773792,1.3569034620044627,0.0011787636804588492,-0.0006996317185037021,-5.13912481775424e-05,-0.0011574566535185044,0.0015203628806439494,-0.0010090919895524367,-0.001977335886147082,-0.3063471019268036,-51.28934097290039,-6.952103614807129,18.02191925048828,1.7934061288833618,-0.9665634632110596,0.15294037759304047,,,,,,,,,
1739302827.2936544,-0.12303274627053361,1.072601461349419,-0.37537486636971706,-1.4180229830350657,1.5297146817570446,1.144733182066018,1.3569082136959993,-0.0008253858413477218,0.002773009133864925,-2.1250695753297967e-05,-1.5650255049476467e-05,8.121666539617084e-05,-0.00025695730544227004,-0.0003218209575921651,-0.2547723948955536,-51.36868667602539,-6.952103614807129,17.99811553955078,1.8263651132583618,-0.9729721546173096,0.09983979165554047,,,,,,,,,
1739302827.3037302,-0.12303250951164876,1.0725950316020358,-0.3753753424163535,-1.4180229826335515,1.5297199235970373,1.144732411329969,1.3569061344360833,-0.0005541723792906162,-0.0011026758866761097,-0.000388509171617348,-0.0005984778391890075,0.00022369059256220392,-9.500437986487737e-05,-0.00046458697269254284,-0.2547723948955536,-51.31711196899414,-6.928299903869629,17.99811553955078,1.8071390390396118,-0.9665634632110596,0.12639008462429047,,,,,,,,,
1739302827.3147237,-0.12303059048775095,1.0725973295342988,-0.37537315367722407,-1.4180229826093185,1.5297155211440616,1.144730908607174,1.3569116543335438,8.343218269398335e-05,0.0012490474178668768,0.0008631963064837582,-0.0005879733866431553,-0.000689563826870297,-0.00023644364330371805,0.000598861159884592,-0.2825433909893036,-51.34091567993164,-6.975907325744629,17.99811553955078,1.8135477304458618,-0.9537460803985596,0.07969819009304047,,,,,,,,,
1739302827.3257082,-0.1230306573974359,1.0725942268982647,-0.3753778312991169,-1.4180211813698536,1.5297193214753324,1.1447324244119186,1.356908514217866,0.0004568982013624079,-0.0012568869439484225,-0.00095525647055441,0.0008462707522623425,0.0011767481848943616,0.00044294974989643205,-0.0004945540217030152,-0.2825433909893036,-51.34091567993164,-6.952103614807129,17.99811553955078,1.7869974374771118,-0.9665634632110596,0.10624848306179047,,,,,,,,,
1739302827.335725,-0.12303250940159724,1.0725982365916475,-0.3753767268641579,-1.418023937585552,1.5297169969541244,1.1447331428261431,1.3569092340856144,0.0006868301844974482,6.655205408532012e-05,0.0002584232458243032,-7.90829493860138e-05,0.0009410920357270381,0.00027211647024145285,-0.0010239126695368859,-0.2547723948955536,-51.31711196899414,-6.928299903869629,17.99811553955078,1.8071390390396118,-0.9729721546173096,0.09983979165554047,,,,,,,,,
1739302827.346629,-0.12303147727322135,1.0725953755242865,-0.3753749363620583,-1.4180248804492466,1.5297158482301811,1.1447324244116999,1.3569053367029726,-8.8530797729457e-05,0.00010570234912905737,0.00032915557839984487,-0.0011953106294855993,0.0005411280063667789,-0.0008325776130685668,0.00027761445959770026,-0.2547723948955536,-51.31711196899414,-6.952103614807129,18.02191925048828,1.8135477304458618,-0.9665634632110596,0.10624848306179047,,,,,,,,,
1739302827.3567038,-0.12303037755438533,1.0725971194255524,-0.3753728451328236,-1.41802306603294,1.5297151760557048,1.144734047969232,1.3569077574729862,-0.0006695462379959663,0.00040309642003912927,-0.00014976337219865798,-0.00038566349777257767,-0.0006980445156331391,0.00091160697215888,-0.001750369830863276,-0.2547723948955536,-51.34091567993164,-6.952103614807129,17.99811553955078,1.8199564218521118,-0.9802963733673096,0.11265717446804047,,,,,,,,,
1739302827.36772,-0.12303249777635536,1.0725953755446516,-0.37537284544543426,-1.4180237080040397,1.5297163003377636,1.1447340478077266,1.356912205439946,-0.000921089828170883,-2.5767296524363548e-05,-0.00040914152803185887,-0.0001586908270892687,0.0004917872910214819,0.0004844209972888482,-0.00015075431304310068,-0.2547723948955536,-51.31711196899414,-6.952103614807129,17.99811553955078,1.8135477304458618,-0.9802963733673096,0.06596527993679047,,,,,,,,,
1739302827.3786163,-0.1230305086367752,1.072595375508136,-0.3753746251822682,-1.418021201277005,1.5297150717347923,1.1447292454975306,1.3569155510687052,-0.0009733516210094478,-5.118776709088434e-05,-0.00010174090056321603,-0.00024028926577453595,-0.0006350739997494796,-0.0007609673844844148,0.002559993540054711,-0.2825433909893036,-51.31711196899414,-6.928299903869629,17.97431182861328,1.8199564218521118,-0.9665634632110596,0.04673920199275017,,,,,,,,,
1739302827.3897426,-0.12302955308412912,1.0725953755081357,-0.37537670791229405,-1.4180226199551982,1.5297152286550624,1.1447324243939763,1.356910030991574,-8.271030068770129e-05,0.00012775625198686196,-0.0010636942450525713,-0.0004876271886532635,0.0001857755155526636,-0.00012000612441305685,0.0006008813568264007,-0.2825433909893036,-51.31711196899414,-6.900528907775879,18.02191925048828,1.8199564218521118,-0.9665634632110596,0.09343110024929047,,,,,,,,,
1739302827.399799,-0.12303421909314748,1.072595376489282,-0.3753746175139644,-1.418020090570641,1.5297165870478593,1.1447331297441907,1.356907456033288,-0.002301917358032465,0.0010228007353165476,-0.0002792878392763376,0.00034303767598351496,-0.0003885874799261715,7.514795304599773e-05,-0.001120308393841296,-0.2309686839580536,-51.31711196899414,-6.952103614807129,17.97431182861328,1.8071390390396118,-0.9729721546173096,0.10624848306179047,,,,,,,,,
1739302827.4106302,-0.1230286141753923,1.0725999333534788,-0.37537318867741737,-1.4180211934280582,1.529715811508227,1.144732424411626,1.3569120400941186,0.0005572827484277219,0.001040029221881666,0.0007097086095806482,-9.973053120100083e-05,-0.0003216049049059185,0.00015858714279532522,0.0005373509431487786,-0.3063471019268036,-51.34091567993164,-6.975907325744629,17.99811553955078,1.8135477304458618,-0.9665634632110596,0.07328949868679047,,,,,,,,,
1739302827.4216692,-0.1230305115636553,1.0725991125088588,-0.3753731886794148,-1.4180222340545479,1.5297151109723708,1.1447331804569438,1.3569099132477023,0.0003105199152553226,0.0010831058929858825,-5.043729935286646e-05,0.00011601735348868054,0.0003035128335849805,0.0008666796993546438,-0.0013269812030779191,-0.2825433909893036,-51.36868667602539,-6.975907325744629,17.97431182861328,1.8199564218521118,-0.9729721546173096,0.09343110024929047,,,,,,,,,
1739302827.4317613,-0.12302741764891692,1.0726008025242026,-0.37537284513341623,-1.4180218832224276,1.5297181481169277,1.1447324185977112,1.3569094321940105,0.0013494928100348063,0.0018994902113808867,0.0005796207525360497,-0.00014477450852282142,0.001304336281555032,-0.0002728861858164733,-0.00014748077146800514,-0.2825433909893036,-51.39249038696289,-6.952103614807129,17.99811553955078,1.8327738046646118,-0.9665634632110596,0.08610688149929047,,,,,,,,,
1739302827.4427152,-0.12303051151315031,1.0725970880288895,-0.37537318866741226,-1.4180219282637827,1.5297173445674288,1.1447324244118886,1.3569148334550045,0.00016861859175544834,0.0010178267286271314,-0.0008157819576965631,0.0014377357222365925,0.0009546268955275821,0.000602553637188998,0.0009214753134944032,-0.2825433909893036,-51.34091567993164,-6.975907325744629,17.97431182861328,1.8007303476333618,-0.9665634632110596,0.07969819009304047,,,,,,,,,
1739302827.4546578,-0.12303051113273954,1.072593617003347,-0.37537284545743677,-1.4180197792727391,1.5297131809546307,1.1447331689900475,1.356906533912669,-0.0003608287981110033,0.0002724379512560344,0.0003053282520698064,0.001773607358095804,-0.0016197204671695867,0.0006120482914314423,-0.001195974244128355,-0.2825433909893036,-51.28934097290039,-6.952103614807129,17.97431182861328,1.8327738046646118,-0.9729721546173096,0.11998139321804047,,,,,,,,,
1739302827.464687,-0.1230287189645186,1.072598077025806,-0.37537604538845315,-1.4180200912288294,1.5297158293847755,1.144733182071926,1.356909216641014,0.000893930054087699,0.001458755313700665,0.0011545458682000601,0.0005366281033767513,0.00036813668369812885,0.0006357416728063464,-0.0013616807419358737,-0.3063471019268036,-51.34091567993164,-6.928299903869629,17.97431182861328,1.8135477304458618,-0.9729721546173096,0.09983979165554047,,,,,,,,,
1739302827.4757001,-0.123030273166429,1.0725971159426144,-0.3753731886754145,-1.4180193721592838,1.529715829386895,1.1447331644678913,1.356907758011019,0.0005577070281618296,0.0002292636528617743,0.0010270521337158787,0.0018779763885461585,0.00020185495064533015,-0.000378145797044688,-0.0003274578843150423,-0.2825433909893036,-51.34091567993164,-6.975907325744629,17.97431182861328,1.8135477304458618,-0.9729721546173096,0.11265717446804047,,,,,,,,,
1739302827.4866526,-0.12303051156544031,1.072595375835342,-0.3753709839354111,-1.418019142603302,1.5297158298714117,1.1447331428260437,1.356905291750807,-0.0002503057099415532,-0.000619691827980056,0.0006327972588096702,0.0018076474317199242,0.0009287829311418963,0.00013853888693036258,-0.0012120342065271485,-0.2825433909893036,-51.31711196899414,-6.975907325744629,17.97431182861328,1.8135477304458618,-0.9729721546173096,0.10624848306179047,,,,,,,,,
1739302827.497687,-0.12302839032142106,1.0725999666034371,-0.3753749712359811,-1.4180240289358492,1.5297153735393272,1.1447298102075572,1.3569147933547583,0.0006729439699044,0.0014686791471847965,-0.0002506894157805746,-0.00119402066189909,9.556745738557133e-05,-0.0006892408121853221,0.002477124133223523,-0.2825433909893036,-51.34091567993164,-6.952103614807129,17.99811553955078,1.8263651132583618,-0.9537460803985596,0.05314789339900017,,,,,,,,,
1739302827.5086834,-0.1230267699611695,1.0725960908126217,-0.375371818960251,-1.4180272733995525,1.5297125708520463,1.1447316667332335,1.3569095188573694,0.002071426743263681,-0.0008501549125920719,0.00042492882548077795,-0.0011545264354250405,0.0016292683503107554,0.00038031220320290627,-0.001210884540311031,-0.3301508128643036,-51.31711196899414,-6.952103614807129,18.04572296142578,1.8135477304458618,-0.9601547718048096,0.09343110024929047,,,,,,,,,
1739302827.5197477,-0.12302879025483125,1.0725975212793855,-0.37537318866161945,-1.4180252370468236,1.5297190075655345,1.1447319654504438,1.3569066950908686,0.0011993178310817775,-8.51688679685617e-05,0.000252984973623599,-0.000773467421598054,-8.492763184526094e-05,-0.0007862238742848436,-0.00043506565386030596,-0.3063471019268036,-51.31711196899414,-6.975907325744629,18.04572296142578,1.8135477304458618,-0.9729721546173096,0.09343110024929047,,,,,,,,,
1739302827.5306203,-0.12303414324820164,1.0725970880329045,-0.3753729514963534,-1.4180210753591598,1.5297150716592223,1.144733694754233,1.3569132780999185,-0.0005305154020859763,-0.0006760429281064688,0.0007482684257133799,0.0010817480696739298,0.00017197367376319456,0.0008732574328418274,0.0019101866747143884,-0.2309686839580536,-51.34091567993164,-6.975907325744629,17.99811553955078,1.8199564218521118,-0.9802963733673096,0.06596527993679047,,,,,,,,,
1739302827.5406961,-0.12302758468304956,1.0725994156349157,-0.3753730969775752,-1.4180222724262748,1.5297150533515178,1.144727293013171,1.3569060165549527,0.00010128991145120802,0.00033709134520503294,0.00034721135096121527,-0.0006768879738428052,0.00011365306213894852,-0.002630503511416436,-0.00106732971524299,-0.2825433909893036,-51.36868667602539,-6.975907325744629,17.97431182861328,1.8199564218521118,-0.9601547718048096,0.12639008462429047,,,,,,,,,
1739302827.551727,-0.12303419560736756,1.0725975301075261,-0.37537882507423526,-1.418023967141293,1.5297158293867912,1.1447331762331088,1.3569108568516608,-0.0005874262239193699,-0.0007248489808248587,-0.001802043752466568,-0.0012336522649974702,0.0003561744984535898,-0.00039590384848415167,0.0002460532276603285,-0.2309686839580536,-51.31711196899414,-6.900528907775879,17.99811553955078,1.8135477304458618,-0.9729721546173096,0.05955658480525017,,,,,,,,,
1739302827.5626457,-0.12303051156663694,1.072594120634331,-0.3753781237861709,-1.4180198091446428,1.5297153867868198,1.144734034887247,1.3569113525528889,-0.001287164779176455,-0.0011208829973725098,-0.0011373193243224026,0.0007387074090572827,4.280423144596289e-05,0.00047710173012613843,0.000916849066384996,-0.2825433909893036,-51.28934097290039,-6.900528907775879,17.97431182861328,1.8263651132583618,-0.9802963733673096,0.07328949868679047,,,,,,,,,
1739302827.5726628,-0.12302673071590699,1.0725978121275057,-0.37537497123640245,-1.418020118055524,1.5297150717449834,1.144732385165843,1.356910883788909,0.0012843145430962394,0.0006094748213395897,-0.0004475825202998935,0.00011427046399142116,0.0005079849829438324,-0.0001280455474742662,0.0004648072169653254,-0.3301508128643036,-51.34091567993164,-6.952103614807129,17.97431182861328,1.8199564218521118,-0.9665634632110596,0.08610688149929047,,,,,,,,,
1739302827.5827193,-0.12302931014667515,1.0725954020113515,-0.3753742627234328,-1.4180290855839388,1.5297174929811266,1.1447311937013263,1.3569082004496866,9.090983476158887e-05,-0.0006211255187545836,-5.598051955840993e-06,-0.0014401987071246678,0.000488294608300053,-0.0012641495523492263,-0.0005896161782365115,-0.2547723948955536,-51.31711196899414,-6.952103614807129,18.06952667236328,1.8263651132583618,-0.9601547718048096,0.09983979165554047,,,,,,,,,
1739302827.5936947,-0.12303016583088427,1.0725978037208188,-0.3753729432838319,-1.4180251229002985,1.5297150717447618,1.1447340479665618,1.3569128176855518,0.000719748608354848,0.00012362170820079169,0.001707373404300213,-0.0002713570196905773,0.0009629070395078142,0.0010461888175981183,-9.921100779507284e-05,-0.2825433909893036,-51.34091567993164,-6.975907325744629,18.02191925048828,1.8199564218521118,-0.9802963733673096,0.05955658480525017,,,,,,,,,
1739302827.6046603,-0.12303254936248945,1.0725971234995328,-0.37537102982715354,-1.4180225112183338,1.5297161825996048,1.1447313645584511,1.3569124107485369,-0.00030630267657138073,0.00016604338641548896,0.001771181152141058,4.13737619278274e-05,0.0003797092256712982,0.0007775696653534612,0.0003286207559929276,-0.2547723948955536,-51.34091567993164,-7.003678321838379,17.97431182861328,1.8135477304458618,-0.9665634632110596,0.07328949868679047,,,,,,,,,
1739302827.6157198,-0.12303047250329818,1.0725978827580644,-0.37537462521693177,-1.4180222718266833,1.5297158293928768,1.144733873525254,1.3569100987072662,0.00017773333651173917,-0.0002792147909686489,0.0001236075970888259,-0.0001399589246264888,0.00042509315214470675,-4.610380807447618e-05,0.0009384444001684433,-0.2825433909893036,-51.34091567993164,-6.928299903869629,17.97431182861328,1.8135477304458618,-0.9802963733673096,0.06596527993679047,,,,,,,,,
1739302827.626617,-0.12303112510812744,1.0725965036132667,-0.37537189959335693,-1.4180222723677216,1.5297194280169042,1.144731274292292,1.3569115352859815,-0.0007543132697442484,0.00013340450223617306,0.0004338543576067349,-0.000414204058203335,0.002593102186389446,0.0008295896627962497,0.0003238246767502744,-0.2309686839580536,-51.28934097290039,-6.952103614807129,17.97431182861328,1.8199564218521118,-0.9601547718048096,0.07969819009304047,,,,,,,,,
1739302827.6366808,-0.12302948318521656,1.072592698211374,-0.37537318866207464,-1.4180248844835115,1.5297150717514083,1.144730863023087,1.3569092784990011,0.0003893248947668447,-0.00031954386760312827,-0.0010457660079560272,-0.0007424673728618676,4.4270421037897805e-05,0.0011247527028969298,0.00038324839229473607,-0.2825433909893036,-51.26553726196289,-6.975907325744629,18.02191925048828,1.8199564218521118,-0.9802963733673096,0.09983979165554047,,,,,,,,,
1739302827.647651,-0.12302848251201892,1.0725964380955364,-0.3753742264331303,-1.4180240554754278,1.5297150717268169,1.1447335377012815,1.3569095077135147,0.0010344651925828883,0.001054544398330908,0.0006668942744184516,-0.0011717917435588906,-0.0003957557642771169,-0.00018544503166063658,-0.0010951684493211119,-0.3063471019268036,-51.31711196899414,-6.952103614807129,17.99811553955078,1.8199564218521118,-0.9802963733673096,0.09343110024929047,,,,,,,,,
1739302827.6576986,-0.12302834936001118,1.0725933893590347,-0.37537493505351405,-1.4180240554808112,1.5297135564066602,1.1447329839618106,1.3569108418234455,0.00011386294133313107,0.0005152241881324117,2.0384764834395355e-05,-0.0006233937849031374,-0.001350794268743067,0.0010742423572639318,0.0017191667161492643,-0.2825433909893036,-51.28934097290039,-6.952103614807129,17.99811553955078,1.8327738046646118,-0.9802963733673096,0.05955658480525017,,,,,,,,,
1739302827.6686246,-0.12302978785479285,1.0725938196804863,-0.3753767510810605,-1.4180229880231907,1.529716131364946,1.1447296499388957,1.3569050617159168,0.00016063521526997595,-0.000846110004241529,-0.00024088942993790395,-0.00015214544804932064,-8.096066314304171e-05,-0.0008106077276736613,-0.0015321634301474882,-0.2825433909893036,-51.26553726196289,-6.928299903869629,17.97431182861328,1.8199564218521118,-0.9729721546173096,0.12639008462429047,,,,,,,,,
1739302827.678645,-0.1230281369959858,1.0725945261059895,-0.3753766359819065,-1.418020193026049,1.5297141531766711,1.1447266573974781,1.3569072575412238,0.0002543666342540732,-0.000833901027419781,0.0002192032034141306,0.0005147250689180715,-0.000565433903082975,-0.0005549694252729765,-0.001366382076766393,-0.2825433909893036,-51.26553726196289,-6.928299903869629,17.94654083251953,1.8263651132583618,-0.9537460803985596,0.07969819009304047,,,,,,,,,
1739302827.6887665,-0.12303487543602816,1.072599095284555,-0.375376753059392,-1.4180208422923177,1.5297139520209861,1.1447320696736585,1.3569042258097777,-0.0005686204903982853,0.0006108873638741034,-0.0011139434626212226,0.0009641648984868661,-0.0011769506356192807,0.0013871688099817117,-0.0007396445992096869,-0.2071649730205536,-51.36868667602539,-6.928299903869629,17.97431182861328,1.8263651132583618,-0.9665634632110596,0.11265717446804047,,,,,,,,,
1739302827.6996984,-0.12303175849312942,1.0725956139267672,-0.3753760454004484,-1.4180251339640213,1.529716277329711,1.1447307513152718,1.3569136803806574,1.775433758645023e-05,0.00046811926461309757,2.6410482240377662e-05,-0.0008203987055304987,-0.00045345832573269115,0.0008712579522073187,0.003091089454621201,-0.2547723948955536,-51.31711196899414,-6.928299903869629,17.97431182861328,1.8071390390396118,-0.9802963733673096,0.05955658480525017,,,,,,,,,
1739302827.7106912,-0.12302421237530169,1.0725933775686285,-0.3753767537054321,-1.4180240555333015,1.5297150717250685,1.144730538364007,1.3569132587235193,0.0014439611380632027,-0.000800813696890084,-0.0011312316105846405,-3.5385500033864494e-05,-0.0009480107225969487,-0.0007166092173914802,0.0003146018575577811,-0.3301508128643036,-51.28934097290039,-6.928299903869629,17.99811553955078,1.8199564218521118,-0.9537460803985596,0.06596527993679047,,,,,,,,,
1739302827.7216196,-0.123034221686611,1.0725963383398185,-0.3753740002667667,-1.4180222688792068,1.529715689337329,1.1447301361613413,1.3569084619064127,-0.0017731001243689783,-0.00021802746281847902,-9.942080590979688e-05,0.0001912968410025278,0.00048159707536256656,-0.0014335397678364346,0.0011528004958273846,-0.2309686839580536,-51.31711196899414,-6.952103614807129,17.97431182861328,1.8135477304458618,-0.9601547718048096,0.07969819009304047,,,,,,,,,
1739302827.7316628,-0.1230315249822177,1.0725984788905552,-0.3753778889628643,-1.418022193330866,1.5297143198785677,1.1447301361375133,1.3569045106811444,0.00014220730022401724,0.00021493685840736056,-0.0006917376313173129,0.0003465181308453389,-0.0002975068269882962,-0.0004139555084441565,-0.00038209255282614955,-0.2547723948955536,-51.31711196899414,-6.900528907775879,17.97431182861328,1.8263651132583618,-0.9601547718048096,0.14012299478054047,,,,,,,,,
1739302827.7416794,-0.12303047628385493,1.0725944195973325,-0.3753731847751666,-1.4180222728024463,1.529715868467307,1.1447331625039032,1.356912359396634,0.0004298561330122342,-0.0005081399778978415,0.0005237706421709179,-1.194310269691547e-05,0.0017093174702411246,0.0014476870881268793,0.0008075194215429841,-0.2825433909893036,-51.28934097290039,-6.975907325744629,17.97431182861328,1.8135477304458618,-0.9729721546173096,0.07328949868679047,,,,,,,,,
1739302827.7526517,-0.12303144468346731,1.0725995531106114,-0.3753749363621896,-1.4180222757472316,1.5297143004924147,1.1447313105078056,1.3569096107447916,-0.0013783471198051769,0.0011927360139722778,-0.0003096590989602204,-0.00033959055895863385,-0.0004792756786296008,-0.0004214851569287849,-7.236851844431261e-05,-0.2547723948955536,-51.34091567993164,-6.952103614807129,17.97431182861328,1.8263651132583618,-0.9665634632110596,0.06596527993679047,,,,,,,,,
1739302827.7627857,-0.12303101994563825,1.072595731706031,-0.3753724770216312,-1.418022272803842,1.5297177634472712,1.1447319534427776,1.3569100858862426,-0.0007289100422430808,0.0007280499715162404,0.001048057655015169,0.00013148978617981644,0.00038934343046258306,0.0006846077432072406,0.0010177308456335691,-0.2309686839580536,-51.31711196899414,-6.975907325744629,17.97431182861328,1.8199564218521118,-0.9665634632110596,0.06596527993679047,,,,,,,,,
1739302827.7736456,-0.12302930706014947,1.072594120737217,-0.3753767540214009,-1.4180201535275336,1.5297150717724013,1.1447347600767601,1.3569042245755252,-0.0008083404053057978,-0.000832642004849424,-0.0007127514282581587,0.0006982305346525644,-0.00036005544306335117,0.0006339899365088515,-0.0008230537789589239,-0.2547723948955536,-51.28934097290039,-6.928299903869629,17.97431182861328,1.8199564218521118,-0.9867050647735596,0.10624848306179047,,,,,,,,,
1739302827.7836814,-0.12303101827872104,1.0725943322269407,-0.37537318767135075,-1.4180276208228864,1.52971548042582,1.1447321166194124,1.356912800224782,-0.0009829486583585547,5.960341613129712e-05,0.0013543844324527205,-0.0015598938101555083,0.0002114919523072416,-0.0010603265239280827,0.0012052531044361079,-0.2309686839580536,-51.28934097290039,-6.975907325744629,18.04572296142578,1.8135477304458618,-0.9729721546173096,0.05955658480525017,,,,,,,,,
1739302827.7956161,-0.12303144159108693,1.0725940939549106,-0.375374968440243,-1.4180194117808431,1.5297139855957642,1.1447287156993717,1.3569154289816756,9.071656133361202e-05,-0.00048762785180191494,-0.00031216031134446905,0.0015282260610224316,-0.00137242032012439,-0.0017648359994993541,0.00304118645276952,-0.2547723948955536,-51.28934097290039,-6.952103614807129,17.97431182861328,1.8199564218521118,-0.9665634632110596,0.04673920199275017,,,,,,,,,
1739302827.8057225,-0.12302754518014616,1.0725917573873749,-0.3753748660497303,-1.418022272751303,1.5297150717206855,1.1447265120274996,1.3569026128614932,0.0003172701076568869,-0.001570924754039652,0.0006872659341657886,0.0006650401970145438,-0.00015065525245978282,-0.0005754126911276578,-0.0008215811779123918,-0.2825433909893036,-51.26553726196289,-6.952103614807129,17.97431182861328,1.8199564218521118,-0.9537460803985596,0.11998139321804047,,,,,,,,,
1739302827.8167052,-0.12302517695241862,1.0725984877050887,-0.3753767540328584,-1.4180240551537624,1.52971210823455,1.1447331428013217,1.356907696383292,0.0012988508588203614,0.0009165406725329839,-0.00010740341308010235,-0.0005054320852526197,-0.002121110850718106,0.001838715343343488,2.7489670225985707e-05,-0.2825433909893036,-51.31711196899414,-6.928299903869629,17.99811553955078,1.8327738046646118,-0.9729721546173096,0.07328949868679047,,,,,,,,,
1739302827.8276794,-0.12303102705612153,1.07259609081778,-0.3753728454574368,-1.4180201283447738,1.5297132253978807,1.144729957397475,1.356912159868754,-0.0012204260762340995,6.683706676658443e-05,-0.0001469568534028147,0.0006285668892565965,-0.0003332257807154274,0.00105761449487046,0.0020467632034983953,-0.2309686839580536,-51.31711196899414,-6.952103614807129,17.97431182861328,1.8263651132583618,-0.9729721546173096,0.06596527993679047,,,,,,,,,
1739302827.837716,-0.12302390914412561,1.0725975477784144,-0.37537350642684447,-1.4180258381215138,1.5297124702591407,1.1447324091757864,1.3569035131411664,0.001882313945820117,-0.00025850453371633095,-0.0009434673893251511,-0.00041902355849729017,-0.0002907267350523399,0.0007230927180293634,-0.0008232958211549085,-0.3301508128643036,-51.31711196899414,-6.975907325744629,18.02191925048828,1.8327738046646118,-0.9665634632110596,0.11265717446804047,,,,,,,,,
1739302827.8486977,-0.12303100950986644,1.072594640875894,-0.37537473514722786,-1.4180201284537917,1.5297116524254255,1.144734032733786,1.3569072794837236,-0.0010654632001992608,-0.001267754245288392,0.0004976773667048073,0.0005691806085785494,-0.0015261280823287353,0.0013035602816347668,-0.0011773641473325483,-0.2309686839580536,-51.26553726196289,-6.952103614807129,17.97431182861328,1.8199564218521118,-0.9802963733673096,0.10624848306179047,,,,,,,,,
1739302827.8587015,-0.12302730781698092,1.0725940942906274,-0.3753767540294527,-1.418020192977622,1.5297149062912314,1.144729839713704,1.356905280122413,-0.000525908592799277,-0.0013521461998483107,4.409668916776488e-05,0.0010299932508961189,-0.0008060855400340097,-0.0002646958201162441,-0.0007901407619182513,-0.2825433909893036,-51.28934097290039,-6.928299903869629,17.94654083251953,1.8199564218521118,-0.9729721546173096,0.09343110024929047,,,,,,,,,
1739302827.8696196,-0.12302954307277186,1.0725958425381745,-0.37537604525644475,-1.4180222728037921,1.529715071725883,1.1447288848740882,1.356904598993633,-8.729123173648706e-05,-0.001260087354109195,-0.00016450215166965347,0.0011053723181036986,-1.2609474134158896e-05,-0.0007430720043895048,-0.00035889640047746633,-0.2547723948955536,-51.28934097290039,-6.928299903869629,17.97431182861328,1.8199564218521118,-0.9729721546173096,0.12639008462429047,,,,,,,,,
1739302827.8796515,-0.12302559627702125,1.072597840064831,-0.37537675500259615,-1.4180240554808115,1.5297143095970713,1.144730749629445,1.3569119349339624,0.0014720444850851585,0.0013634236887204551,-0.0006297376868251709,-0.0005927347997855039,0.0007532461806938874,0.0007545245296091223,0.0018032984831709113,-0.3063471019268036,-51.34091567993164,-6.928299903869629,17.99811553955078,1.8263651132583618,-0.9802963733673096,0.07328949868679047,,,,,,,,,
1739302827.8897493,-0.12303101925533436,1.072595527271816,-0.37537497135645026,-1.4180262012480234,1.529715070236852,1.1447297910942622,1.3569086132874848,-0.0010183394752336051,-0.00048819610934554004,-0.0003215141583804616,-0.0009395944732447489,0.00014233322250475222,-0.0011170451590430633,-0.00042342134141576285,-0.2309686839580536,-51.28934097290039,-6.952103614807129,17.99811553955078,1.8199564218521118,-0.9537460803985596,0.09343110024929047,,,,,,,,,
1739302827.901683,-0.12302754643406308,1.0725963459107137,-0.37537488095469324,-1.41802406730302,1.5297135564066517,1.1447331247312067,1.3569063798103946,-0.00014640322090196466,0.001429360320977049,-0.0015173344015770895,0.0003493215218980583,-0.0007842274019832063,0.001402766010543664,-0.0018992205507667118,-0.2825433909893036,-51.28934097290039,-6.952103614807129,17.99811553955078,1.8327738046646118,-0.9729721546173096,0.11998139321804047,,,,,,,,,
1739302827.9126692,-0.12302560706432346,1.0725959873335285,-0.37537105982806024,-1.4180258381578528,1.529711813339569,1.144727662419702,1.3569045334796324,0.0009893194443234095,0.0004518383626207021,0.00015201808802290024,-0.000848012663231124,0.0004928159396129278,0.000710708813446463,-0.000471836439389493,-0.3063471019268036,-51.34091567993164,-6.975907325744629,18.02191925048828,1.8199564218521118,-0.9665634632110596,0.11265717446804047,,,,,,,,,
1739302827.923689,-0.12302934091592835,1.072596092162444,-0.37537528921182034,-1.4180240946836706,1.5297143576180645,1.1447287176166436,1.3569092267797442,0.0002427919676127685,-0.000572331533219351,-0.0015355818223294407,6.125820581512315e-05,0.00046737677600043994,-0.0010230553606843387,3.1935593788535565e-05,-0.2547723948955536,-51.31711196899414,-6.952103614807129,17.97431182861328,1.8263651132583618,-0.9665634632110596,0.07328949868679047,,,,,,,,,
1739302827.935683,-0.12303167889391367,1.0725956181796976,-0.37537496797281705,-1.4180240554842396,1.5297165868263312,1.1447269509254083,1.3569095031315002,-0.0002813799217242807,-0.0005037443838154821,0.0002135853818471706,0.0004473958223811705,0.0008053214769137042,-0.0007281752991567258,-5.361774586227168e-06,-0.2547723948955536,-51.31711196899414,-6.952103614807129,17.99811553955078,1.8071390390396118,-0.9601547718048096,0.09343110024929047,,,,,,,,,
1739302827.946656,-0.1230273870470931,1.0725916779472664,-0.37537316243374186,-1.4180248884080997,1.5297150717268164,1.1447278261058171,1.3569059703259916,0.000445633678896589,-0.0025942040466789794,0.00023302371474724968,0.0001471021393510597,0.00012085367377739132,-0.002121053868745451,-0.001539339659171848,-0.2825433909893036,-51.26553726196289,-6.975907325744629,18.02191925048828,1.8199564218521118,-0.9665634632110596,0.09983979165554047,,,,,,,,,
1739302827.957698,-0.12302930543454661,1.072596417921913,-0.3753767492090385,-1.4180202018281705,1.5297149445896219,1.1447323655460164,1.356906728307973,-0.0009403062156667522,0.001038742593914684,0.00027390986257663053,0.00173887664870825,-0.000568200501534949,0.0007593420695061775,0.0006058825251283715,-0.2547723948955536,-51.31711196899414,-6.928299903869629,17.94654083251953,1.8199564218521118,-0.9665634632110596,0.09343110024929047,,,,,,,,,
1739302827.968679,-0.12302931458358904,1.0725900242812938,-0.3753738135107173,-1.418024161444641,1.5297119703227564,1.1447276567490587,1.3569031898974704,0.00044590568984109394,-0.0018864194578399422,0.0008423403273864071,-0.0004398037175271604,-0.0003120931495778146,-0.0019231510762465185,-0.0015330211347843788,-0.2547723948955536,-51.23776626586914,-6.928299903869629,17.99811553955078,1.8199564218521118,-0.9665634632110596,0.11998139321804047,,,,,,,,,
1739302827.9796479,-0.12302950767205968,1.0725995085190916,-0.3753749682796402,-1.4180258383037836,1.5297143140492309,1.1447293377396641,1.356908616181769,0.00043347862111876634,0.0006584572929780139,0.0005502377215307038,-0.0005522860883915783,-0.0003334881687384957,-0.0004511194125031545,0.0013536125582345791,-0.2547723948955536,-51.34091567993164,-6.952103614807129,18.02191925048828,1.8263651132583618,-0.9802963733673096,0.09343110024929047,,,,,,,,,
1739302827.9897237,-0.12303144159450637,1.072595730179048,-0.3753766752964009,-1.4180201930139393,1.5297160062142696,1.144727773778894,1.356907044170092,-0.0002817523547516078,6.69896776596041e-05,-0.0004267747789788829,0.0005195438942515742,0.00035764276422765726,-0.00045450744954695537,-0.0008371270999813962,-0.2547723948955536,-51.31711196899414,-6.928299903869629,17.94654083251953,1.8199564218521118,-0.9665634632110596,0.10624848306179047,,,,,,,,,
1739302828.0007138,-0.12303215358368247,1.0725985810244951,-0.3753749716830382,-1.4180240554808115,1.5297154673491427,1.144728454885006,1.3569132604937804,-0.0007378570015769493,8.931169501985497e-05,-0.0011638890718233073,0.0003007466896184322,-0.0011395979202764963,-0.001467021559612588,0.001618723290456337,-0.2547723948955536,-51.31711196899414,-6.952103614807129,17.99811553955078,1.8135477304458618,-0.9729721546173096,0.06596527993679047,,,,,,,,,
1739302828.011612,-0.12302733398524934,1.072600267397415,-0.3753767540334547,-1.4180202685622108,1.529712468528286,1.144727656040572,1.3569132721303896,0.0008262973841348792,-4.781920165614805e-05,-0.0013800612591405859,0.0016878645002742969,0.0003647989214864996,-0.0014200526292635159,0.002609986103174451,-0.2825433909893036,-51.34091567993164,-6.928299903869629,17.94654083251953,1.8263651132583618,-0.9665634632110596,0.06596527993679047,,,,,,,,,
1739302828.0216742,-0.12302730781757258,1.072596448718125,-0.37537880757764186,-1.4180222767296573,1.5297143140354839,1.1447276618545403,1.356907541933232,0.0015216229164450724,0.00011859615210625468,-0.0012822021218964403,-0.0006334190575787403,0.0001783373186639697,-0.000650585073485769,-0.000765857667718957,-0.2825433909893036,-51.31711196899414,-6.900528907775879,17.97431182861328,1.8263651132583618,-0.9665634632110596,0.08610688149929047,,,,,,,,,
1739302828.033766,-0.1230296251436844,1.0725995812369846,-0.3753767539252979,-1.41802227585627,1.5297132279376555,1.1447310968958906,1.3569069283756099,-0.0013928122470899256,-0.0007393023830546401,-0.001685843142238957,0.00037095529899829966,-0.0016348234493418418,0.0005460644264918923,-0.0014041940128738694,-0.2547723948955536,-51.34091567993164,-6.928299903869629,17.97431182861328,1.8263651132583618,-0.9867050647735596,0.10624848306179047,,,,,,,,,
1739302828.0446472,-0.12302930608411816,1.0725981607657527,-0.3753728422172309,-1.4180241378971161,1.5297143142800353,1.1447277083701421,1.3569069433562648,-0.0007028586484578642,0.00010175539580908346,0.0006754326120206785,-0.00045566394281587336,0.0007875256110846168,-0.0009120570394191076,0.00037698611510118634,-0.2547723948955536,-51.34091567993164,-6.952103614807129,17.99811553955078,1.8263651132583618,-0.9665634632110596,0.07969819009304047,,,,,,,,,
1739302828.0546768,-0.12302567440133355,1.0725941324140922,-0.37537883367924446,-1.4180244185724,1.5297110551828645,1.1447277083690344,1.3569021251970432,0.0008050615503432973,-0.0017163206250915587,-0.0015452901946781305,0.00016690694145183015,-0.0005723856023754513,-0.001416550036938384,-0.0006623346377396668,-0.3063471019268036,-51.28934097290039,-6.900528907775879,17.97431182861328,1.8263651132583618,-0.9665634632110596,0.11998139321804047,,,,,,,,,
1739302828.0656586,-0.12302930511052393,1.0726003065289436,-0.3753769924520296,-1.4180222729491472,1.529713227716923,1.1447315931002087,1.3569099225854773,0.0001449511977897802,0.00046885512236923135,-0.00019249854511081465,0.000879936221943301,0.0002797356731668657,0.0008765955474173491,0.0015918245107141116,-0.2547723948955536,-51.34091567993164,-6.928299903869629,17.97431182861328,1.8263651132583618,-0.9729721546173096,0.06596527993679047,,,,,,,,,
1739302828.0757463,-0.12302930586649038,1.0725937351951504,-0.3753767549079383,-1.41802216596785,1.529713497798227,1.1447293974070032,1.3569037487613613,-3.936785810093843e-05,-0.0006503172604268539,-0.00011737948912909899,-6.127701127549149e-05,-0.0008572576291094325,0.00018255926207760864,-0.0011524045000188227,-0.2547723948955536,-51.28934097290039,-6.928299903869629,17.97431182861328,1.8327738046646118,-0.9802963733673096,0.10624848306179047,,,,,,,,,
1739302828.086709,-0.1230310095097182,1.0725985146336046,-0.37537318867941977,-1.4180258381572275,1.5297150652703002,1.1447292796521504,1.3569068992592632,-0.0008675653752432828,0.0006388194452378813,0.0007823447387614864,-0.00028048653453615594,0.0007375789752791836,-0.0001342115251520208,-6.290611820770778e-05,-0.2309686839580536,-51.31711196899414,-6.975907325744629,18.02191925048828,1.8199564218521118,-0.9802963733673096,0.07969819009304047,,,,,,,,,
1739302828.0986233,-0.12302962347979092,1.0725958809619143,-0.3753767834678454,-1.418027623778289,1.5297132279376193,1.1447284138619238,1.3569076614415636,-0.001697509778512761,-0.00047650466112832845,-0.0013028839253586856,-0.0008961742538329193,-0.0010755086958208998,0.0013651448633697604,0.0010077124368381872,-0.2547723948955536,-51.28934097290039,-6.928299903869629,18.04572296142578,1.8263651132583618,-0.9729721546173096,0.07328949868679047,,,,,,,,,
1739302828.1086628,-0.12302612408380477,1.0726000766513206,-0.37537106180852226,-1.4180240544996816,1.5297150695686237,1.144729473338548,1.3569049639214907,0.0012226771855672444,0.0010843591303901583,0.0003632395097269145,-0.00014378524918752056,-0.0008327107351820814,-0.00020507232687003396,0.0015334524008513253,-0.3301508128643036,-51.34091567993164,-6.975907325744629,17.99811553955078,1.8199564218521118,-0.9729721546173096,0.10624848306179047,,,,,,,,,
1739302828.1197119,-0.12302559530905048,1.0726020632572209,-0.37537307461216596,-1.4180244185709987,1.5297143140667262,1.1447276604069718,1.3569045049667816,0.0022711163416568917,0.0013926058529104713,0.001044634117966031,0.00026160439114970434,-0.0002959440315300513,-0.0004508907405967158,-0.001462771869705263,-0.3063471019268036,-51.36868667602539,-6.975907325744629,17.97431182861328,1.8263651132583618,-0.9665634632110596,0.09983979165554047,,,,,,,,,
1739302828.1297581,-0.1230272259731661,1.0725985912114266,-0.3753732668542605,-1.4180241380424654,1.5297133771233502,1.1447319458275895,1.3569079516296332,0.001304205842006004,0.0007058657194174684,0.00037623499647132476,-0.00043121834535467805,-0.0012359723851337306,0.001579465460609325,0.0012804793701153053,-0.2825433909893036,-51.31711196899414,-6.975907325744629,17.99811553955078,1.8327738046646118,-0.9729721546173096,0.07969819009304047,,,,,,,,,
1739302828.1406772,-0.12303099099693049,1.0726002006068387,-0.3753731624341895,-1.4180240673640507,1.5297150538471367,1.144728127225899,1.3569055876828922,0.00028317001943161323,0.001187918732974353,0.00048745345213984043,-0.0006471240127641038,-0.0007558168661638453,0.00034639646836602186,-0.0005747096295600067,-0.2309686839580536,-51.34091567993164,-6.975907325744629,17.99811553955078,1.8199564218521118,-0.9665634632110596,0.12639008462429047,,,,,,,,,
1739302828.1506925,-0.12302646492832087,1.0725957330251916,-0.3753767540330084,-1.418024093854739,1.5297146694564834,1.1447300387192583,1.3569061285887176,0.0010646795984063854,0.000172775731228177,-0.000781902174538092,0.0002166896029221436,4.842640428267205e-05,0.00039257053502947105,-0.0008608099912575472,-0.2547723948955536,-51.31711196899414,-6.928299903869629,17.99811553955078,1.8199564218521118,-0.9867050647735596,0.08610688149929047,,,,,,,,,
1739302828.1616087,-0.1230293096483622,1.0725975608502711,-0.37537318479116794,-1.4180240558080768,1.5297142733408349,1.1447284267823783,1.356908652240852,-8.161709878528304e-05,-6.117853114965692e-05,0.0005146489174369527,0.0007590310350758895,0.0002737120852735034,0.00019131120136094658,-0.0010201627167207745,-0.2547723948955536,-51.31711196899414,-6.975907325744629,17.99811553955078,1.8263651132583618,-0.9729721546173096,0.07969819009304047,,,,,,,,,
1739302828.1716158,-0.12302730792570686,1.0725939300055536,-0.3753759250306844,-1.418020196938528,1.52971208934982,1.1447300377424667,1.3569052626499005,-0.000989572917375661,-0.0009991663182370143,-0.000186697273585731,0.00031614727841656847,-0.000742523080497053,-0.00030074372025441266,-0.0005378722279392381,-0.2825433909893036,-51.26553726196289,-6.952103614807129,17.94654083251953,1.8327738046646118,-0.9867050647735596,0.09343110024929047,,,,,,,,,
1739302828.1816208,-0.12302938486291412,1.0725985852034687,-0.3753749713725844,-1.4180222728038587,1.5297167352962033,1.1447300429104321,1.3569076438373817,0.00026810238112241226,7.840459263027929e-05,-0.0003970623643936175,-5.457676245303214e-05,0.0006863836305741799,0.0007569746898855266,0.0007903638094525876,-0.2547723948955536,-51.31711196899414,-6.952103614807129,17.97431182861328,1.8327738046646118,-0.9867050647735596,0.07328949868679047,,,,,,,,,
1739302828.1917198,-0.12303196753921086,1.0725919232517303,-0.3753766752964533,-1.4180211467972694,1.5297150717806516,1.1447308101861549,1.3569007108916855,-0.0018158250372874059,-0.002558799830288428,-0.0006273647306667084,0.0007674663118500187,0.0010989227140892396,0.000783944800000596,-0.0015010680271856612,-0.2309686839580536,-51.23776626586914,-6.928299903869629,17.94654083251953,1.8199564218521118,-0.9802963733673096,0.11998139321804047,,,,,,,,,
1739302828.20176,-0.1230293057740583,1.0725985901090513,-0.37537310994108153,-1.418025838173983,1.5297109480804345,1.1447277011263175,1.356909306617062,-0.0007514291832459103,0.00016354638676105697,0.00010651733924314625,-9.459064656278576e-05,0.0011724254250137494,-0.000529297480009858,0.0005572784683174916,-0.2547723948955536,-51.31711196899414,-6.975907325744629,18.02191925048828,1.8263651132583618,-0.9665634632110596,0.05955658480525017,,,,,,,,,
1739302828.2127216,-0.12303001770235072,1.0725941654981699,-0.37537643908500884,-1.4180243748258006,1.5297102980004114,1.1447293207818283,1.3569068862313594,-0.0005065637350733401,-0.0014967347312107783,-0.0006805069326237402,-0.0016456614239766026,-0.0009610649675014353,0.0011477030093199178,0.0019160494773882248,-0.2547723948955536,-51.26553726196289,-6.928299903869629,17.99811553955078,1.8327738046646118,-0.9802963733673096,0.07969819009304047,,,,,,,,,
1739302828.2236826,-0.12303343397883586,1.0725985853245814,-0.3753749680064433,-1.4180223801866194,1.529717344688658,1.1447307949718746,1.3569045056059363,-0.0013914731874364926,0.0008751813176971543,-0.00029396784506027557,-0.0004290825839807356,0.0013003312643531397,0.0014377296889144535,-6.866415545293608e-06,-0.2071649730205536,-51.31711196899414,-6.952103614807129,17.97431182861328,1.8007303476333618,-0.9931137561798096,0.09983979165554047,,,,,,,,,
1739302828.2336879,-0.12303101536762338,1.0725985941588039,-0.37536898255847806,-1.4180240584260693,1.529714743257812,1.144726898380262,1.3569068861773137,-0.0005091268335330879,0.000519055492532613,0.0015099003343744027,0.00015044404062864543,4.698164395560171e-05,-0.0001830677375956397,0.0004986968466030998,-0.2309686839580536,-51.31711196899414,-7.003678321838379,17.99811553955078,1.8135477304458618,-0.9601547718048096,0.07969819009304047,,,,,,,,,
1739302828.2447102,-0.12303101827869725,1.0725985146860937,-0.37537496842824547,-1.418025838157847,1.529714709677658,1.1447300372577285,1.3569038645528886,0.00021812115775922815,0.00011430147106724969,-0.0004100483533894068,0.0003224174134317594,-0.0004460026044210135,0.0003218409146993741,-0.00047580980934516077,-0.2309686839580536,-51.31711196899414,-6.952103614807129,18.02191925048828,1.8199564218521118,-0.9867050647735596,0.10624848306179047,,,,,,,,,
1739302828.255639,-0.12302930575798249,1.0725965962176518,-0.3753739195014404,-1.4180222845775492,1.5297147096817456,1.1447301549952984,1.3569042711827581,0.0004927422632537241,0.0002737648959121963,0.0010090465592725694,-0.0003231994645562949,0.00035680808301044185,0.0005813105883882485,-0.00019320772236562438,-0.2547723948955536,-51.28934097290039,-6.928299903869629,17.97431182861328,1.8199564218521118,-0.9867050647735596,0.06596527993679047,,,,,,,,,
1739302828.2666256,-0.1230326557848963,1.0725928591565466,-0.37537675401745185,-1.4180201934500685,1.5297165865483,1.1447292795983148,1.356906886153376,-0.0013509548041860252,-0.0016077959577071076,-0.0008687560498012305,0.0010667745642246843,0.0012832676734797432,-0.0002880517671216788,0.0008236668478106279,-0.2071649730205536,-51.23776626586914,-6.928299903869629,17.94654083251953,1.8071390390396118,-0.9802963733673096,0.07969819009304047,,,,,,,,,
1739302828.276676,-0.1230282697708695,1.0725976319809176,-0.37537883382330817,-1.4180222767283854,1.5297158159778856,1.144727695286196,1.3569068861773024,0.0006903709481202798,0.0003677724395395191,-0.0013163593473251656,0.00027863291428144093,0.0015853928801622939,-0.0009606608067474127,0.0014196281575657795,-0.2825433909893036,-51.31711196899414,-6.900528907775879,17.97431182861328,1.8135477304458618,-0.9665634632110596,0.07969819009304047,,,,,,,,,
1739302828.288658,-0.12303241805082797,1.0725987141807325,-0.3753749699523447,-1.4180240554808337,1.5297143006576617,1.1447315926150272,1.3569019300016276,-0.0016090064308881388,0.000452876687733558,-0.00019808486408307694,-0.0006242320559172118,0.000250152392755976,0.00016544455165898504,-0.0009668193020432609,-0.2071649730205536,-51.28934097290039,-6.952103614807129,17.99811553955078,1.8263651132583618,-0.9729721546173096,0.11265717446804047,,,,,,,,,
1739302828.299679,-0.12302934124067526,1.0725968336595184,-0.3753727634802286,-1.4180265545400692,1.5297165870469482,1.1447267362511013,1.356907696163196,-0.0009837732066852968,-2.6535452324671428e-05,0.000762937535831033,-0.0020185170408535567,3.160517196959154e-05,-0.0004929619653707314,0.0006644278437471826,-0.2547723948955536,-51.28934097290039,-6.952103614807129,18.02191925048828,1.8071390390396118,-0.9867050647735596,0.07328949868679047,,,,,,,,,
1739302828.310647,-0.12303078151601946,1.0725965962194408,-0.3753736822699297,-1.4180194886868918,1.5297158110115974,1.1447276559678699,1.356903731311078,-0.0002229309401583123,5.545232933593775e-06,0.0011818296402739297,0.0018596770655476432,-0.00022959155522268753,0.0003083853429056456,0.00109285908916543,-0.2309686839580536,-51.28934097290039,-6.928299903869629,17.89893341064453,1.8135477304458618,-0.9665634632110596,0.10624848306179047,,,,,,,,,
1739302828.3207252,-0.12302754523642076,1.0725988325775326,-0.37537589317655673,-1.418024055856312,1.529714273839424,1.1447284137004166,1.3569052800623242,-0.0001954410366003063,-0.0003701147093623934,5.993089058363053e-05,-0.0011660201852468808,-0.0016440436895599811,-2.479819746200221e-05,0.0008351252993508663,-0.2825433909893036,-51.31711196899414,-6.900528907775879,17.99811553955078,1.8263651132583618,-0.9729721546173096,0.09343110024929047,,,,,,,,,
1739302828.3316848,-0.12302717500178356,1.0725966001440321,-0.3753749674155846,-1.418026209642278,1.5297150657670338,1.144728413700418,1.356905330820324,0.001080398313589011,-0.0003905042975361845,0.0008891516180246635,0.00017372870559890095,-0.0008743768239889257,-0.00012105194008558685,0.0005735581619683199,-0.2547723948955536,-51.28934097290039,-6.952103614807129,17.99811553955078,1.8199564218521118,-0.9729721546173096,0.06596527993679047,,,,,,,,,
1739302828.3426194,-0.1230310182666855,1.0725996179149226,-0.3753767452488728,-1.4180240643232893,1.5297153314913123,1.1447292797591557,1.3569068883127655,-0.0018763182170567032,-0.00014671330455463181,-0.0004356500998878223,0.0001856928881796591,0.00048823645589042054,0.00040662418357872423,0.00028672238515779097,-0.2309686839580536,-51.34091567993164,-6.928299903869629,17.99811553955078,1.8263651132583618,-0.9802963733673096,0.07969819009304047,,,,,,,,,
1739302828.3526757,-0.12302930575798228,1.0725985942563054,-0.3753743161297468,-1.4180209171001417,1.5297138313599319,1.1447284180610713,1.3569052495380762,0.00026219400296757897,0.0009978199481748215,1.0287009070359201e-05,0.0013501450017306357,8.075265011687024e-05,-0.0003759761088188878,-0.00043123801426486665,-0.2547723948955536,-51.31711196899414,-6.928299903869629,17.94654083251953,1.8263651132583618,-0.9729721546173096,0.09343110024929047,,,,,,,,,
1739302828.3636985,-0.12302741329036915,1.072594883661031,-0.375374866324003,-1.4180240554848988,1.5297139855950093,1.144732459965613,1.3569092673950585,0.0005462219798113905,-0.0008461571316487188,0.0004970303075472406,-0.0002212701049388474,0.0014936016779658425,0.000933920363284448,0.0005857159085376076,-0.2825433909893036,-51.26553726196289,-6.952103614807129,17.99811553955078,1.8199564218521118,-0.9802963733673096,0.05955658480525017,,,,,,,,,
1739302828.3737035,-0.12302559237518573,1.0725948836973687,-0.37537675403167414,-1.4180240554808115,1.529711054998924,1.1447284137542777,1.3569043210215188,0.0008869258608892013,-0.000781858842718289,-0.0006740445331659603,0.00046550708584705244,-0.00014546950699589797,-7.354768550502562e-05,-0.0004734451109813726,-0.3063471019268036,-51.26553726196289,-6.928299903869629,17.99811553955078,1.8263651132583618,-0.9729721546173096,0.07328949868679047,,,,,,,,,
1739302828.3846319,-0.1230310182786972,1.0725965962181006,-0.37537671903923076,-1.418020431432516,1.529713227698534,1.1447292800821671,1.3569037072441572,-0.001448131683118378,0.00024121625703705003,9.700685656385786e-05,0.0011934637389483943,-0.0012750853670081726,0.0009761562395915141,-0.0004648578986968135,-0.2309686839580536,-51.28934097290039,-6.928299903869629,17.94654083251953,1.8263651132583618,-0.9802963733673096,0.07969819009304047,,,,,,,,,
1739302828.3956726,-0.1230275451319188,1.0725985941589535,-0.37537497135584125,-1.4180242981550626,1.5297143835705191,1.1447280092530574,1.3569049091919414,0.00013483271758280837,0.0006664650345771196,-0.00016399834725144155,2.425829833011938e-05,0.0001626082601989163,3.695980890315684e-05,-0.0009715558944597084,-0.2825433909893036,-51.31711196899414,-6.952103614807129,17.99811553955078,1.8135477304458618,-0.9665634632110596,0.09343110024929047,,,,,,,,,
1739302828.4057226,-0.12302421820884546,1.0725965962181006,-0.37537461849802695,-1.41802405580923,1.529715053839987,1.1447261407221767,1.3569037080519837,0.0007925376918443943,-0.0004352703286905062,-7.849561183035408e-05,0.0005526953145640666,0.0003009523325360163,-0.0008250609309141664,-0.0012767735602022337,-0.2825433909893036,-51.28934097290039,-6.952103614807129,17.99811553955078,1.8199564218521118,-0.9537460803985596,0.10624848306179047,,,,,,,,,
1739302828.4166777,-0.12302730779968848,1.072600227206825,-0.37537580911579427,-1.418024418571006,1.5297150715611725,1.1447276560403394,1.3569015772732131,0.00040941441024042207,0.000640532314466861,0.0004340117592404587,-3.200249817834004e-05,0.00069993124129597,0.0005185028337142243,-0.002217066127384845,-0.2825433909893036,-51.34091567993164,-6.928299903869629,17.97431182861328,1.8199564218521118,-0.9665634632110596,0.11265717446804047,,,,,,,,,
1739302828.4276092,-0.12302930575798238,1.0725948735584077,-0.3753725292080209,-1.4180222463612908,1.5297143006577365,1.1447273692767057,1.3569082077490302,-0.0001575452797570809,-0.0012091115922985825,0.0010137039938485487,0.00030804436961387867,-0.00032697433788009,0.00023193294622676162,0.0014579417974608833,-0.2547723948955536,-51.26553726196289,-6.952103614807129,17.97431182861328,1.8263651132583618,-0.9601547718048096,0.05955658480525017,,,,,,,,,
1739302828.43768,-0.12302659893909618,1.0725985941587817,-0.37537284411999655,-1.4180247736795402,1.5297138313424745,1.1447292796056248,1.356912119544856,0.0008094630610477585,0.0006946606573969219,0.0008421508430847462,0.00021045025503013508,-0.0011299619055463945,0.0006216328006254047,0.0031578791250373504,-0.2825433909893036,-51.31711196899414,-6.952103614807129,17.99811553955078,1.8263651132583618,-0.9802963733673096,0.03941498324275017,750,730,713,39.436,0,0
1739302828.4486675,-0.12302920009299088,1.0726002007158717,-0.3753765178104449,-1.4180264430864997,1.5297152287075184,1.1447284130543955,1.3569067291965347,0.00012533682268353879,-0.0001156193648818646,3.37672777964578e-05,-0.0005915083746293843,-0.00035022500153984563,0.0003129068164348226,0.0006608388303339703,-0.2547723948955536,-51.34091567993164,-6.928299903869629,17.99811553955078,1.8199564218521118,-0.9729721546173096,0.07969819009304047,751,731,713,39.545,0,0
1739302828.4596364,-0.12302559515145614,1.0725987410035678,-0.37537291714883897,-1.4180201959708543,1.529713502771542,1.1447292795976465,1.356902083704718,0.00058006277275453,0.0003051548315726946,0.0015250598198573524,0.0016213523309971233,-0.00034621754138935133,0.0002083152751212912,-0.0013867761365837733,-0.3063471019268036,-51.28934097290039,-6.975907325744629,17.94654083251953,1.8327738046646118,-0.9802963733673096,0.09343110024929047,751,731,712,39.545,0,0
1739302828.469697,-0.12302532345751689,1.0725983542504687,-0.37537493635761326,-1.418022352276702,1.5297099695494996,1.1447276560403394,1.3569037470844947,0.0012211301062244593,0.0004632653034423364,0.0012652225551348546,0.0006405705184033017,-0.0007311775739275448,9.077403976528802e-05,-0.001770818949444345,-0.3063471019268036,-51.31711196899414,-6.952103614807129,17.97431182861328,1.8263651132583618,-0.9665634632110596,0.10624848306179047,752,729,712,39.545,0,0
1739302828.4797366,-0.12302930542860124,1.0725948840203552,-0.3753704002559675,-1.418023345198171,1.5297139093802519,1.1447315402869969,1.356907239390009,0.0005511518031868172,-0.0002717737472475272,0.001410180538799403,-6.506455759676703e-05,0.0010668108874488532,0.0002364509799097789,1.725243336900037e-05,-0.2547723948955536,-51.26553726196289,-7.003678321838379,17.97431182861328,1.8327738046646118,-0.9729721546173096,0.07969819009304047,751,730,713,39.436,1,0
1739302828.4906979,-0.12302754513191694,1.0725965962181023,-0.37537110791349726,-1.4180308116380647,1.5297169284017647,1.1447276561118243,1.3569057753065086,0.00030398508168751146,0.00018715078182925907,0.001107369637173223,-0.0006392478477015952,0.0016279811646961934,-0.00027226070803189865,-0.0006356889232862896,-0.2825433909893036,-51.28934097290039,-7.003678321838379,18.04572296142578,1.8400980234146118,-0.9665634632110596,0.08610688149929047,750,728,713,39.545,0,0
1739302828.501598,-0.1230292180693612,1.0725948833703205,-0.37537317996719255,-1.4180241745445887,1.5297157027702528,1.1447268983802616,1.35690438722035,-0.0005639103065434364,-0.00026704653269121563,-0.0001844837836315872,1.7779944313407465e-05,0.0007382172130750876,-0.0009613278300512213,-0.0018633578737211776,-0.2547723948955536,-51.26553726196289,-6.975907325744629,17.99811553955078,1.8135477304458618,-0.9601547718048096,0.09983979165554047,750,730,712,39.545,0,0
1739302828.5116358,-0.1230273078156444,1.0725948836973638,-0.3753746193857528,-1.4180224225076592,1.5297134968089556,1.144728413700418,1.3569048080291208,0.00047047201773321967,-0.0013351201083537172,-0.00099736964244319,0.0005157383949852278,4.841858471277087e-06,0.0003902460096503261,-0.0005764564939931814,-0.2825433909893036,-51.26553726196289,-6.928299903869629,17.94654083251953,1.8327738046646118,-0.9729721546173096,0.11265717446804047,750,730,712,39.545,1,0
1739302828.522643,-0.12302730770887019,1.0725985940499372,-0.37537664901463597,-1.4180241703126988,1.529714314065729,1.144727695286196,1.3569021297490258,0.00105176904286397,0.0008764784442165043,-0.0009496387222268829,0.0009304280214955978,0.0007897925416710719,0.0002745561555036404,-0.0009560175337907073,-0.2825433909893036,-51.31711196899414,-6.928299903869629,17.99811553955078,1.8263651132583618,-0.9665634632110596,0.11998139321804047,751,733,713,39.436,0,0
1739302828.532726,-0.12302730767278319,1.0725985941589529,-0.3753749801861587,-1.4180243864548507,1.5297145775318461,1.1447292795978719,1.3569132192374445,-0.0003054608458444803,-0.00012953150422069092,-6.865772391299124e-05,0.0004808581608194667,3.454062836920257e-05,0.000772069641316825,0.0020865433064194737,-0.2825433909893036,-51.31711196899414,-6.952103614807129,17.99811553955078,1.8199564218521118,-0.9802963733673096,0.06596527993679047,750,733,712,39.545,1,0
1739302828.5436795,-0.12302930575798167,1.0725965962544393,-0.3753749792147397,-1.4180203019230573,1.5297143006549476,1.144729278951628,1.356906886203888,-0.00011554652950499612,-0.0006628484530941067,-0.00013747705455974789,0.0007516470990906946,0.0002742359176407073,7.741622941954713e-06,0.0005494721946717269,-0.2547723948955536,-51.28934097290039,-6.952103614807129,17.94654083251953,1.8263651132583618,-0.9802963733673096,0.07969819009304047,752,730,713,39.436,1,0
1739302828.5537033,-0.12302721040428004,1.0725965952369547,-0.37537604496855953,-1.418026562681795,1.5297143095968442,1.1447268977342278,1.3569052626199927,0.0008383513086383479,2.7020830212891376e-05,-0.0001330387156960795,-0.0012587366323107373,0.0005426206243728737,-0.0004480545750821565,8.618191365907513e-05,-0.2825433909893036,-51.28934097290039,-6.928299903869629,18.02191925048828,1.8263651132583618,-0.9601547718048096,0.09343110024929047,750,732,713,39.545,0,0
1739302828.5646408,-0.12302922716200243,1.0726002272068196,-0.3753747351414315,-1.418022276732468,1.5297142602099847,1.1447292798129873,1.3569057335702719,-0.00025343894310678834,0.001361275790207965,-9.912776209014137e-05,-0.000289279253334956,0.0005721805324290784,0.0005977457058025473,-2.417416517092215e-05,-0.2547723948955536,-51.34091567993164,-6.952103614807129,17.97431182861328,1.8263651132583618,-0.9802963733673096,0.09343110024929047,751,730,714,39.545,0,0
1739302828.5756185,-0.12302722889483354,1.0725967993140628,-0.37537859663624673,-1.4180224565187853,1.5297150702360156,1.1447282959628515,1.3569053803655375,6.157071488501834e-05,-4.591784140488419e-05,-0.0009183621594643305,0.0003076911925612572,-0.00025152004251429816,0.00010808690957203059,0.0007627520426973825,-0.2825433909893036,-51.28934097290039,-6.900528907775879,17.94654083251953,1.8199564218521118,-0.9729721546173096,0.09343110024929047,751,732,716,39.545,1,0
1739302828.5856423,-0.12302646362846978,1.0725985941601,-0.37537497135509496,-1.4180233837511982,1.529714273839727,1.1447276560396746,1.3569096206085067,0.00024721497208824355,0.0008593696299113731,0.00030166978272705674,-0.0003093768229608662,-0.00037790632622289165,0.00033456743225387427,0.001374271634597905,-0.2547723948955536,-51.31711196899414,-6.952103614807129,17.94654083251953,1.8263651132583618,-0.9665634632110596,0.05955658480525017,750,733,713,39.436,0,0
1739302828.5957181,-0.12302927940286248,1.0725985941589535,-0.37537318738333253,-1.418026904784039,1.5297150516954057,1.144728413700418,1.3569076433588463,0.0003516822440213689,-6.473853537711704e-05,0.0006283368779673651,-0.0010144883933086678,0.0009279374185999349,0.00047152265137780943,0.00034320402923085434,-0.2547723948955536,-51.31711196899414,-6.975907325744629,17.99811553955078,1.8199564218521118,-0.9729721546173096,0.07328949868679047,749,731,712,39.545,0,0
1739302828.606664,-0.1230272288960158,1.0725965961090842,-0.37537580486917255,-1.4180250219261157,1.5297150716715227,1.1447276560403394,1.356906128517222,0.0017763218450564033,-0.00046058694039003486,0.00016287176754748638,0.0006033717275641886,0.0007103004761519643,0.00030789154647513177,0.0006742073552369141,-0.2825433909893036,-51.28934097290039,-6.928299903869629,17.99811553955078,1.8199564218521118,-0.9665634632110596,0.08610688149929047,750,725,713,39.654,1,0
1739302828.6167083,-0.12302828344326035,1.0725986209769538,-0.37537462811838174,-1.4180211733045895,1.5297135833277027,1.144728413700418,1.3569082991896473,-0.0004057672275555662,0.0005746452098497706,-0.00037249141417625923,-0.00016444389987509313,-0.00022943735243949345,0.0007493905481325198,0.001875761258130327,-0.2825433909893036,-51.31711196899414,-6.928299903869629,17.94654083251953,1.8199564218521118,-0.9729721546173096,0.07969819009304047,748,731,714,39.545,0,0
1739302828.6276703,-0.12302858670581025,1.072596596218252,-0.3753749700483507,-1.4180209478481134,1.5297153736964655,1.14472842678237,1.35690850974259,6.558421517716173e-05,-0.000387793814895803,0.0011023547439272573,0.0008226694500555484,0.001132095818413935,0.0003732807915892852,0.0011037691032194038,-0.2547723948955536,-51.28934097290039,-6.952103614807129,17.94654083251953,1.8263651132583618,-0.9729721546173096,0.06596527993679047,749,732,713,39.654,1,0
1739302828.6395986,-0.12302494995016582,1.0726003091870588,-0.37537497135642645,-1.4180226181715918,1.5297150657732423,1.1447268977343126,1.3569100250552106,0.0004050926307152372,0.00013332511165546775,3.551531435541383e-05,-0.0009378069455825034,-0.00043917671750638677,-0.00047854676200501746,0.0020639131744399934,-0.2825433909893036,-51.34091567993164,-6.952103614807129,17.97431182861328,1.8199564218521118,-0.9601547718048096,0.05314789339900017,750,732,713,39.545,1,0
1739302828.6507504,-0.12303136005934785,1.0725944504509028,-0.3753753433901932,-1.4180241359367671,1.5297125709996138,1.1447276560403357,1.3569101871899114,-0.0005914492023573253,-0.0009100269599626125,0.00022604674953995607,4.5226854961223824e-05,-0.0007721063652333722,0.0003328062787187582,0.001705400558560169,-0.2547723948955536,-51.28934097290039,-6.928299903869629,17.99811553955078,1.8135477304458618,-0.9665634632110596,0.07969819009304047,750,732,713,39.654,1,0
1739302828.6616857,-0.1230273078330518,1.0725956425276335,-0.37537500633902915,-1.4180202057689917,1.5297103110768397,1.1447292795976503,1.3569053551285335,0.0006628811820700025,-0.000502536758447836,-0.000575663759263203,0.00022681045825759992,-0.00010439387596592318,0.0006214562512379038,-0.001119934563275559,-0.2825433909893036,-51.28934097290039,-6.952103614807129,17.94654083251953,1.8327738046646118,-0.9802963733673096,0.07969819009304047,750,732,713,39.654,1,0
1739302828.6727364,-0.12302930543320512,1.0726022781134337,-0.3753749587202238,-1.4180233324421376,1.529711188149724,1.144728413700418,1.3569124062466713,0.00018827199185966588,0.0008994917440971991,-0.00013835164370896871,0.00048018204137746233,-0.003529017042575227,-0.0007554999001845234,0.0006374706665715213,-0.2547723948955536,-51.36868667602539,-6.952103614807129,17.97431182861328,1.8400980234146118,-0.9729721546173096,0.03300629183650017,750,732,713,39.436,1,0
1739302828.682754,-0.12303030495877036,1.072596914218406,-0.37537883378723486,-1.4180240849211856,1.529709929314924,1.1447276560403394,1.356908965417081,-0.00035056227979723547,0.00016658674517196497,-0.0013757003774872894,2.2229617576918445e-06,-0.001763439578839526,5.9671580704964765e-05,0.0011263993744865173,-0.2309686839580536,-51.28934097290039,-6.900528907775879,17.99811553955078,1.8263651132583618,-0.9665634632110596,0.05314789339900017,749,731,713,39.436,0,0
1739302828.6946027,-0.12302720258514958,1.0725968316950354,-0.37537318867941466,-1.4180244186075093,1.5297146138679756,1.1447292795976503,1.3569100235956786,0.0007367753207894707,-4.7014434908636835e-05,0.00039240768627141605,0.00016462556085226042,9.351289871978991e-05,0.0006689587056172236,0.0019873567862762646,-0.2825433909893036,-51.28934097290039,-6.975907325744629,17.97431182861328,1.8327738046646118,-0.9802963733673096,0.05314789339900017,749,730,714,39.654,1,0
1739302828.7046735,-0.1230290688501483,1.072594211379541,-0.3753749684402487,-1.4180241349657843,1.5297106934217082,1.1447244247981425,1.3569041517471956,0.0004503198102065218,-0.0011211896405994267,-1.9384960269915155e-05,-0.0009553120040033457,-0.0015030694459475299,-0.0007133208921591811,-0.0009602041127271489,-0.2547723948955536,-51.28934097290039,-6.952103614807129,17.99811553955078,1.8263651132583618,-0.9665634632110596,0.09983979165554047,750,729,714,39.654,1,0
1739302828.715601,-0.1230327307981075,1.0725965961682993,-0.37537667529643653,-1.4180269282779663,1.5297157875943832,1.1447275367771437,1.356905261164448,-0.0013814595325879952,-0.0004179651523555795,-0.0005683940850996749,-0.00047557614489211265,0.0019674067081586473,-0.0002984126232314204,-0.0007332479071287538,-0.2071649730205536,-51.28934097290039,-6.928299903869629,17.99811553955078,1.8135477304458618,-0.9665634632110596,0.09343110024929047,750,730,714,39.654,0,0
1739302828.7256308,-0.12302470397718449,1.0725994317148142,-0.37537310994108153,-1.4180222728524432,1.5297096060167836,1.1447234174858023,1.356906886177278,0.0012478393466048329,-1.789875753178201e-05,0.00032707228579196895,0.0008150870671339672,-0.001642551909139519,-0.0020611539842530853,-0.00021922347777940103,-0.2825433909893036,-51.36868667602539,-6.975907325744629,17.97431182861328,1.8263651132583618,-0.9665634632110596,0.07969819009304047,750,730,713,39.654,0,0
1739302828.7356334,-0.12302730378750905,1.0725985940129947,-0.37537497102841294,-1.4180245009873056,1.5297126882837153,1.1447284091244263,1.3569083502628008,-0.0005124662236805354,-0.00042073321671403724,0.0006846283634956877,0.0008807769511116505,7.598437457321302e-05,-0.00021703146789613334,0.0009484076798568702,-0.2825433909893036,-51.31711196899414,-6.952103614807129,17.97431182861328,1.8400980234146118,-0.9729721546173096,0.07328949868679047,751,727,712,39.545,0,0
1739302828.7456427,-0.1230282570762187,1.0725965962180979,-0.3753749713564283,-1.418028101809363,1.529715018090775,1.1447268983801835,1.3569037473117989,-0.00023732803053922846,0.0008218560879622984,-0.00037550846025865225,-0.001174025822256311,-8.13207926460874e-05,-9.992692125380766e-05,-0.0004539399678458685,-0.2825433909893036,-51.28934097290039,-6.952103614807129,18.02191925048828,1.8199564218521118,-0.9601547718048096,0.10624848306179047,751,729,713,39.545,1,0
1739302828.756665,-0.12302944354376086,1.0725986736318132,-0.375374970996411,-1.4180258385375903,1.5297121082344491,1.1447276555558226,1.3569061672785645,0.0011415997145657658,0.0007306737072775476,-0.0011052663597042101,-0.001011638469681685,-0.0007252668768605955,0.000982572568055438,0.0011106586315308322,-0.2825433909893036,-51.31711196899414,-6.952103614807129,18.02191925048828,1.8327738046646118,-0.9665634632110596,0.08610688149929047,752,730,713,39.545,1,0
1739302828.7676768,-0.12303070553672277,1.0725985940867246,-0.3753760454004519,-1.418022683163543,1.5297140248354157,1.1447279427501353,1.3569080774800901,-0.0003706768874432634,-0.00023655427721707946,-0.0011997756120990578,-0.00020194953841854888,0.0010311675176862295,-0.00011734995610004196,0.0009456440474817289,-0.2309686839580536,-51.31711196899414,-6.928299903869629,17.94654083251953,1.8199564218521118,-0.9729721546173096,0.07328949868679047,752,728,713,39.545,2,0
1739302828.7786248,-0.12302659752314954,1.0725965991615385,-0.3753756573303117,-1.4180269166549477,1.5297124682733296,1.1447276560323638,1.356906128686074,0.0013493002384574258,-0.0004832661344639318,-0.0002462173281421538,-0.0007241500748924,-0.0017742308620178641,0.00017153726664727203,0.001069219416019014,-0.2825433909893036,-51.28934097290039,-6.952103614807129,17.99811553955078,1.8327738046646118,-0.9665634632110596,0.08610688149929047,757,728,713,39.545,1,0
1739302828.7896538,-0.12302628184324993,1.0725965971871396,-0.37537497103370404,-1.4180209095953662,1.5297135519349456,1.144727654586789,1.3569092673951326,0.0014960451265723681,-0.00040740380377750503,0.00017476073645877844,0.0007351529478492597,0.00048402027642721135,1.2849554984087099e-05,0.0017752400687953015,-0.2825433909893036,-51.28934097290039,-6.952103614807129,17.94654083251953,1.8327738046646118,-0.9665634632110596,0.05955658480525017,751,729,713,39.545,1,0
1739302828.8006363,-0.12303092765996239,1.0725965962181059,-0.3753766749724306,-1.4180201930179819,1.529714314066713,1.1447276560403312,1.3569072001441558,-0.00045483042763519465,-0.0009807226307951965,-3.764350843442918e-05,0.0015059596082452166,0.00015416360275586065,0.0002261831772901433,0.0004191646030400857,-0.2309686839580536,-51.28934097290039,-6.928299903869629,17.94654083251953,1.8263651132583618,-0.9665634632110596,0.07969819009304047,750,729,713,39.654,0,0
1739302828.8126733,-0.12302818206122684,1.072594884024418,-0.37537181766372446,-1.41802405580786,1.5297150715612735,1.1447276560403394,1.356902123744297,0.0006372243021948246,-0.0015614516897666743,0.0029716847849981685,0.0007239651267104409,0.0006998787135396249,-0.00011755805333901596,-0.000908227723475297,-0.2825433909893036,-51.26553726196289,-6.952103614807129,17.99811553955078,1.8199564218521118,-0.9665634632110596,0.11998139321804047,748,729,713,39.654,1,0
1739302828.82366,-0.12302742251549709,1.0725965966541662,-0.37537883380537346,-1.4180286991807802,1.5297144710501647,1.1447276560403394,1.3569033940871258,-0.0004873634804350167,-0.001096563574593699,-0.001667567371077685,-0.0008256109821091255,0.00031092052568253094,-0.0003710481975873406,-0.0008625749296927438,-0.2825433909893036,-51.28934097290039,-6.900528907775879,18.02191925048828,1.8263651132583618,-0.9665634632110596,0.10624848306179047,751,728,714,39.436,1,0
1739302828.8347373,-0.12302930575862996,1.0725965958910542,-0.3753749363622116,-1.4180226159529925,1.5297135549176573,1.1447275378182526,1.3569037472978416,-0.0006091966637457262,1.8624815347314584e-05,-0.0002939926507451525,0.0007790352834428729,0.0005337900482799632,3.346536589186392e-05,-0.0015002966085192705,-0.2547723948955536,-51.28934097290039,-6.952103614807129,17.94654083251953,1.8327738046646118,-0.9665634632110596,0.10624848306179047,750,729,715,39.436,0,0
1739302828.8456364,-0.12302841709241726,1.0725988325775309,-0.37537675501440176,-1.4180289386305216,1.5297147096837809,1.1447284136997504,1.3569042711820962,2.174623617568687e-06,-0.00010949386961538906,-0.001755016317140427,0.00030192172510968456,0.00021405274451439965,0.0001777316841329139,-0.00020822581776927204,-0.3063471019268036,-51.31711196899414,-6.928299903869629,18.02191925048828,1.8199564218521118,-0.9729721546173096,0.06596527993679047,750,732,713,39.436,1,0
1739302828.855667,-0.12302276590870016,1.0726023311155286,-0.3753749713564504,-1.4180226036116574,1.5297121897350485,1.144728413700418,1.3569013660106661,0.0010714838285651193,0.0017072964392453771,0.0009072366204428785,0.00046726933240833185,-0.0021102304272965205,0.00019758789622357608,-0.0003970908743206187,-0.3063471019268036,-51.36868667602539,-6.952103614807129,17.97431182861328,1.8400980234146118,-0.9729721546173096,0.12639008462429047,751,733,713,39.436,1,0
1739302828.8666549,-0.12302921382994034,1.0725949631703784,-0.375374971248427,-1.4180241480738296,1.5297117666535534,1.1447276560403394,1.3569060107796542,0.0006366931420804431,-0.0010117699564776888,-0.00044950814968581154,-0.0006363310105240595,-0.0011957406332164906,-0.00013731055645545102,-0.0006936573913210552,-0.2547723948955536,-51.26553726196289,-6.952103614807129,17.99811553955078,1.8199564218521118,-0.9665634632110596,0.08610688149929047,751,730,713,39.545,1,0
1739302828.8766575,-0.12302717489037496,1.0725986242487895,-0.3753768335063108,-1.418025039681251,1.5297143006017657,1.1447292795976503,1.356906128676736,0.00041569820426839814,0.0011551529642072785,-0.0009570436594683322,-0.0007137301364405885,0.0005513238167101786,-0.0002879142700443271,0.00026997674536879653,-0.2547723948955536,-51.31711196899414,-6.928299903869629,17.99811553955078,1.8263651132583618,-0.9802963733673096,0.08610688149929047,750,728,714,39.545,0,0
1739302828.887663,-0.12302888740063414,1.0725985954673185,-0.3753728620671232,-1.4180229923530587,1.529715069740222,1.1447292752369993,1.356901927902056,-0.0002592043882866194,0.0005851759111879579,0.0018797768307244752,9.991241397257741e-05,0.0015658364164508976,0.000731766274496253,-0.0013051889782891995,-0.2309686839580536,-51.31711196899414,-6.975907325744629,17.97431182861328,1.8199564218521118,-0.9802963733673096,0.11265717446804047,751,731,714,39.654,1,0
1739302828.897703,-0.12302685917198579,1.072598621958124,-0.37537603664636715,-1.4180248061790215,1.5297099695503744,1.1447276560402655,1.3569065397841402,0.0003181387930432813,0.0004758301656638949,-0.0008935126866571924,7.26811482122823e-05,-0.0008530699193897326,0.00035507814626358197,6.318639216942564e-05,-0.2547723948955536,-51.31711196899414,-6.928299903869629,17.99811553955078,1.8263651132583618,-0.9665634632110596,0.04673920199275017,751,738,715,39.436,1,0
1739302828.908741,-0.12302707062677166,1.0725965991980355,-0.3753764216660548,-1.4180222728443688,1.529715066570452,1.144728413700418,1.3569079970261395,0.001337664424948611,-0.0008868884248410912,-0.0008475639361806472,-0.000890608413216219,0.0009292438766212577,0.00015782166728264601,0.00032866839123293093,-0.2547723948955536,-51.28934097290039,-6.928299903869629,17.97431182861328,1.8199564218521118,-0.9729721546173096,0.07328949868679047,749,733,713,39.654,1,0
1739302828.919691,-0.12302930574536511,1.072598593177824,-0.37537883349741163,-1.4180270316249404,1.5297134352289923,1.1447276516796885,1.3569021237445185,-0.0004975993633269454,-0.0002608051463157456,-0.001101340239051004,-0.0013560865197900609,-0.0006593329573625454,-9.913773316250703e-05,-0.0005424828315890918,-0.2547723948955536,-51.31711196899414,-6.900528907775879,17.99811553955078,1.8327738046646118,-0.9665634632110596,0.11998139321804047,751,732,713,39.545,1,0
1739302828.9306228,-0.1230253594018485,1.0725985834753538,-0.37537310951038566,-1.4180240556429669,1.5297145716079448,1.1447276555557981,1.3569076436758756,0.0008621220121738628,-0.000456128273366012,0.0007321103376253437,-0.0007938799570618626,0.0009380706140326583,0.0010289739744477082,0.0005072576374239019,-0.3063471019268036,-51.31711196899414,-6.975907325744629,17.99811553955078,1.8199564218521118,-0.9665634632110596,0.07328949868679047,751,731,713,39.545,1,0
1739302828.942607,-0.12302559529506661,1.0725950315236676,-0.3753759249222965,-1.4180307958609917,1.5297150717239936,1.1447284137004152,1.356906885692785,0.0015832662202218772,-0.0014247228577585272,-0.00020648081242255402,-0.0029789046885561822,0.0015592348990323404,0.0007770186784177794,0.00018719052777630113,-0.3063471019268036,-51.23776626586914,-6.952103614807129,18.04572296142578,1.8199564218521118,-0.9729721546173096,0.07969819009304047,749,732,713,39.545,1,0
1739302828.953704,-0.12302873336155029,1.0725958809744762,-0.3753767422660882,-1.418024458270849,1.5297135564066602,1.144725836804065,1.3569068861773002,0.0009172567003553223,-0.0005825597103879659,-0.0006890094237409642,0.00046433312739155145,-0.0008654602079067103,-0.0011412025325922013,0.0006321195962181142,-0.2825433909893036,-51.28934097290039,-6.928299903869629,17.97431182861328,1.8327738046646118,-0.9601547718048096,0.07969819009304047,750,732,713,39.545,0,0
1739302828.964645,-0.12302730781981183,1.0726003832077593,-0.37537493636218955,-1.4180225115656453,1.5297149510637527,1.144727656038342,1.3569037472818903,0.00013642223730652272,0.0007899438823025164,-0.0004081192330279319,0.0012063152427317708,-0.00018999151366490017,-0.0001373425313070776,-0.001003201445852546,-0.2825433909893036,-51.34091567993164,-6.952103614807129,17.97431182861328,1.8199564218521118,-0.9665634632110596,0.10624848306179047,751,732,715,39.436,1,0
1739302828.9746492,-0.12302978093945616,1.0725948836986652,-0.37537675306079854,-1.4180209115442055,1.529714949553875,1.1447276560403394,1.356907237936462,-0.0005271057116386329,-0.0012944725329922027,-0.000712195263710295,0.001672312125279696,-0.0003442565258451575,0.0002164125668071423,0.001747512111610317,-0.2547723948955536,-51.26553726196289,-6.928299903869629,17.94654083251953,1.8199564218521118,-0.9665634632110596,0.07969819009304047,750,734,714,39.545,2,0
1739302828.9856694,-0.1230293057606649,1.0725900257147132,-0.3753721358523706,-1.418027262198404,1.5297150891687301,1.1447276560403394,1.3569050288446005,0.00032781129804942814,-0.001929170344403405,0.0010679765745831818,-0.0008591153159934371,0.0005620484551175233,-6.98358087031141e-05,0.0011754191749867124,-0.2547723948955536,-51.23776626586914,-6.952103614807129,17.99811553955078,1.8199564218521118,-0.9665634632110596,0.05955658480525017,751,733,715,39.545,0,0
1739302828.9975946,-0.1230293057579825,1.0725985941428084,-0.3753749450947607,-1.418021147033404,1.5297136096491744,1.1447292795976503,1.3569047156424585,-0.0005801751388309842,0.0005040408236560269,-0.000662800443256725,0.00037871882376275007,-0.00032688334917966135,0.0008633251188686279,-0.00041995966600716936,-0.2547723948955536,-51.31711196899414,-6.952103614807129,17.94654083251953,1.8199564218521118,-0.9802963733673096,0.08610688149929047,751,733,711,39.762,0,0
1739302829.0076187,-0.12303144159108693,1.0725985971023926,-0.37537315238896213,-1.418025841142994,1.5297135562328634,1.1447284136465827,1.3569058265311977,6.693381275987327e-05,0.0010396333419304055,0.0017481990365298193,-5.5983921690696756e-06,-0.00048512213280654175,0.00040492429079667594,-0.00020227951433859307,-0.2547723948955536,-51.31711196899414,-6.975907325744629,18.02191925048828,1.8327738046646118,-0.9729721546173096,0.07969819009304047,751,735,712,39.545,1,0
1739302829.018617,-0.12302930577003932,1.0725985927417587,-0.37537426566666926,-1.4180233324782772,1.5297114512965404,1.1447268983264256,1.3569026349675153,-0.00023539800905033456,0.00021981479091442193,0.0011468710364031672,0.00019162337597127856,-0.00012889753219452166,-0.0002991670232487311,-0.0008177204194794881,-0.2547723948955536,-51.31711196899414,-6.952103614807129,17.97431182861328,1.8199564218521118,-0.9601547718048096,0.11265717446804047,752,736,713,39.545,1,0
1739302829.028703,-0.123027062285239,1.0725948836973453,-0.37537260923448623,-1.4180264426279874,1.5297139519623986,1.1447244771259504,1.356908509728607,0.0011106760231338999,-0.0007243325835239399,0.0002771957078250281,6.289197808836131e-05,-0.0008622536022869652,-0.0008809326779498752,0.001019431959434779,-0.2825433909893036,-51.26553726196289,-6.952103614807129,17.99811553955078,1.8263651132583618,-0.9665634632110596,0.06596527993679047,752,732,713,39.545,0,0
1739302829.039679,-0.12302730781574339,1.0725965167452407,-0.3753731536718584,-1.4180245364674047,1.5297109361686987,1.144726898362316,1.3569049091919416,0.0010247890439950213,-0.0010411251516293813,0.0008096779442993518,-7.232583165738308e-05,-0.0011107316960676783,7.434112145223836e-06,-1.347615920437896e-05,-0.2825433909893036,-51.28934097290039,-6.975907325744629,17.97431182861328,1.8263651132583618,-0.9601547718048096,0.09343110024929047,753,730,713,39.545,1,0
