IITGN-Robotics/Franka_IITGN_ROBOTICS/franka_ros/franka_iitgn/data01/os_006.csv
time,fr3_joint1_pos,fr3_joint2_pos,fr3_joint3_pos,fr3_joint4_pos,fr3_joint5_pos,fr3_joint6_pos,fr3_joint7_pos,fr3_joint1_vel,fr3_joint2_vel,fr3_joint3_vel,fr3_joint4_vel,fr3_joint5_vel,fr3_joint6_vel,fr3_joint7_vel,fr3_joint1_eff,fr3_joint2_eff,fr3_joint3_eff,fr3_joint4_eff,fr3_joint5_eff,fr3_joint6_eff,fr3_joint7_eff,flexpin1,flexpin2,flexpin3,Force,ContactMic,ContactMic_gt
1739303607.6111193,-0.10303367490908355,1.0614818967419826,-0.39767817379396353,-1.4310888291026735,1.5287203502737412,1.1569817247289984,1.3554304791261178,0.00040065746956842164,9.757081436318838e-05,-0.0002626830054390931,-0.0003509560101838091,0.0009957611495302104,-0.0004882811789819995,-8.685880728685107e-07,-0.6038934588432312,-51.19015884399414,-7.638443946838379,18.14490509033203,2.0955300331115723,-0.5326035022735596,0.07969819009304047,,,,,,,,,
1739303607.6211963,-0.10303633448145885,1.0614836130425422,-0.39767818239799657,-1.4310915736472736,1.5287196371885379,1.1569833541004118,1.355424161334361,-0.0008442381408327508,0.0020802833010823527,0.00016935972003022208,-0.0008959929924720521,0.00047427918549002176,0.0003352014348949941,-0.0024308595776955074,-0.5800897479057312,-51.21396255493164,-7.638443946838379,18.19647979736328,2.1019387245178223,-0.5463364124298096,0.10624848306179047,,,,,,,,,
1739303607.6332,-0.10303573824968025,1.0614855753394117,-0.39767675527504576,-1.431096179094539,1.5287215586369631,1.1569530592528505,1.35542500753091,-0.0007718131776734594,0.0014099865641087732,-0.00013155129272840373,-0.0004109007368364877,-0.0008120862233535523,-0.006119134359500194,-0.0018158308880881812,-0.4571039378643036,-51.16238784790039,-7.563065528869629,17.92273712158203,1.9252420663833618,-0.6580307483673096,0.08610688149929047,,,,,,,,,
1739303607.6441705,-0.10303036006058468,1.0614756247213766,-0.39767487115906663,-1.4311282119898532,1.5287187855737343,1.1568719723019087,1.3554232245054012,0.0010366025982055712,0.001321267679426365,6.025109256780053e-06,-0.0032892558486817395,0.000625469107331469,-0.00665036051717535,-0.0018821118426082038,-0.3539545238018036,-50.98386001586914,-7.511490821838379,17.89893341064453,1.8400980234146118,-0.7495834827423096,0.05955658480525017,,,,,,,,,
1739303607.6551561,-0.10302523349472906,1.0614814132674026,-0.39766781640433024,-1.4311588210878077,1.5287158986746578,1.1568406516107306,1.3554186126264787,3.08943929199809e-05,0.0007193702283551512,0.0010944573889366048,-0.003994998201232502,0.0008690284868588602,-0.0021443441734233983,0.00034536328633910396,-0.2825433909893036,-51.03543472290039,-7.563065528869629,17.97431182861328,1.8263651132583618,-0.7559921741485596,0.05955658480525017,,,,,,,,,
1739303607.6661584,-0.10302002176183762,1.0614833141379554,-0.3976678149462183,-1.4311743759444013,1.5287112089083945,1.1568302386966482,1.3554198946527043,0.0005695551356762881,0.0005657942429964557,0.0004690499183190536,-0.0020261840613854773,-0.0005974017971712867,0.0005511883717092022,0.0011181084162281232,-0.3063471019268036,-51.08700942993164,-7.563065528869629,17.99811553955078,1.8400980234146118,-0.7495834827423096,0.04673920199275017,,,,,,,,,
1739303607.6762419,-0.10301365128234147,1.0614908008366375,-0.3976716501953563,-1.4311855492420762,1.5287127133702807,1.1568213932693805,1.3554137249011975,0.0016885899251904094,0.0013160395991954855,6.751120252570489e-05,-0.001305683320337826,0.00029604397396813765,0.0002609586183992288,0.0013307455357865418,-0.3063471019268036,-51.11081314086914,-7.511490821838379,17.97431182861328,1.8263651132583618,-0.7166244983673096,0.05955658480525017,,,,,,,,,
1739303607.6872313,-0.10301820587650108,1.0614884934747981,-0.3976698859873564,-1.431188396875188,1.528712359990059,1.1568175308484179,1.3554142683254031,-0.0006393265760192926,-0.0005641107530007245,-3.791442674737789e-05,0.0005765946240327171,-5.537993299113865e-05,-0.0009610589068356426,0.001577511393806481,-0.2547723948955536,-51.08700942993164,-7.535294532775879,17.92273712158203,1.8263651132583618,-0.6973984241485596,0.05314789339900017,,,,,,,,,
1739303607.698199,-0.10301983335220805,1.0614835604361066,-0.39766694210455367,-1.431187829088805,1.5287123745235665,1.156815808409107,1.3554096584529869,-0.0018495491170633486,0.0004400029566014833,0.0008964019752415018,-0.0008735215779983464,0.0003145667265334963,0.0002713734437246181,-0.00038712595189553363,-0.1793939769268036,-51.03543472290039,-7.535294532775879,17.87512969970703,1.8263651132583618,-0.7102158069610596,0.05314789339900017,,,,,,,,,
1739303607.7092006,-0.10301406166115583,1.0614849571436575,-0.3976691971989216,-1.4311916328787266,1.5287103832181257,1.1568170782451537,1.355407813147772,0.0007436219411569623,0.0002238673648952149,-9.10219522145327e-06,-0.0016278702770821441,-0.0010713869944677002,0.00021703588297385053,-8.033967955214846e-05,-0.2547723948955536,-51.03543472290039,-7.511490821838379,17.92273712158203,1.8400980234146118,-0.7239487171173096,0.05955658480525017,,,,,,,,,
1739303607.720195,-0.10301861129070446,1.06148619953326,-0.3976667058915703,-1.4311963149537674,1.5287130609576889,1.156817678758303,1.3554060283576492,-0.000977976380403923,-0.000218817683318587,-0.0008366290302417954,-0.001004605683915109,-0.00047828642381297025,-0.00035194791118952224,-0.0006092831400397226,-0.2309686839580536,-51.08700942993164,-7.535294532775879,17.94654083251953,1.8199564218521118,-0.7303574085235596,0.04673920199275017,,,,,,,,,
1739303607.7302113,-0.10301569216398498,1.0614837877316292,-0.3976705565816972,-1.4311984628215677,1.5287131174856767,1.1568169815200977,1.3554048276357575,-0.00021747759926109102,-0.001213917560559631,-0.00034964119574590807,-0.0007809444748533446,0.000771553780010956,-0.00019818280991232995,-0.0006790256403566909,-0.2309686839580536,-51.00766372680664,-7.483719825744629,17.97431182861328,1.8199564218521118,-0.7559921741485596,0.05314789339900017,,,,,,,,,
1739303607.7411401,-0.10300992087483571,1.0614827947219299,-0.39767056835437825,-1.4311919484492654,1.528710730455046,1.1568212144046432,1.3554009326346803,-0.0014069912786705335,-0.0006660452966824116,0.0006352231919902261,-0.00015861333967823256,0.0006084713117797601,0.0009123049905571011,-0.0004440714893246162,-0.2825433909893036,-51.00766372680664,-7.483719825744629,17.87512969970703,1.8400980234146118,-0.7559921741485596,0.08610688149929047,,,,,,,,,
1739303607.7512147,-0.10300714472413795,1.061480546062882,-0.39767272049910835,-1.4311937756202473,1.528708463450417,1.1568197047610107,1.3554056874406397,-0.00019818061749397623,-0.0006183997677277333,-0.0008758140161003859,0.000391007934082756,9.909005791793664e-05,-0.0012411491096743156,0.0003996605718020236,-0.3063471019268036,-51.00766372680664,-7.483719825744629,17.89893341064453,1.8593240976333618,-0.7431747913360596,0.04673920199275017,,,,,,,,,
1739303607.762239,-0.10300568707161892,1.0614854148931931,-0.39767238614584166,-1.4311913656537019,1.5287102504604544,1.1568193898626111,1.3554008862279734,0.0009494518951047472,-3.317482579077253e-05,-0.0010056034793826337,0.0009330153591007256,-0.001473817909139843,-0.0008588758960746477,-0.0011276966956195586,-0.2825433909893036,-51.03543472290039,-7.459916114807129,17.87512969970703,1.8400980234146118,-0.7495834827423096,0.08610688149929047,,,,,,,,,
1739303607.7732012,-0.10300597628654751,1.061482075147393,-0.39767306970969524,-1.4311917629090323,1.528706799848057,1.1568196986057309,1.3553992449003325,0.00017701084433481567,-4.0251392352592864e-05,-0.0006102306754988559,0.001306269342193001,-5.489090331181959e-05,0.0006082301311316578,-0.0010216234165549645,-0.2825433909893036,-50.98386001586914,-7.459916114807129,17.87512969970703,1.8465067148208618,-0.7431747913360596,0.09983979165554047,,,,,,,,,
1739303607.7832258,-0.103007658544875,1.0614850435294043,-0.3976705814273315,-1.4312008627111075,1.5287084219421023,1.1568181881488726,1.355398189622602,-0.0005470113003983459,-0.0006276801880783592,-0.0008430551503371285,-0.0010700289911336253,-0.00037602021149288464,-0.0006656681948327416,-0.002076949676556126,-0.2547723948955536,-51.03543472290039,-7.483719825744629,17.97431182861328,1.8327738046646118,-0.7303574085235596,0.09983979165554047,,,,,,,,,
1739303607.7951658,-0.10300400910570445,1.061485785573383,-0.3976684888886835,-1.4311963987448995,1.5287133640129305,1.1568145772280027,1.3554043401585567,0.0016884309318853316,-0.00034076555471035,0.0003506956714816611,0.0008077501125890003,0.0007455666664092752,-0.0011982662994389484,0.0007552983615490524,-0.2825433909893036,-51.03543472290039,-7.511490821838379,17.94654083251953,1.8327738046646118,-0.7102158069610596,0.06596527993679047,,,,,,,,,
1739303607.8061512,-0.10300573950809638,1.061482047996509,-0.39766849245283664,-1.4311978355228503,1.5287052295587646,1.1568124587569635,1.3554001158467444,0.0006323411954862007,-0.002605889318978675,0.00022167311345621895,-0.00014313195917300438,-0.002045193160840877,0.00036984265924996603,0.0006187484067225911,-0.2825433909893036,-50.98386001586914,-7.511490821838379,17.92273712158203,1.8465067148208618,-0.7102158069610596,0.06596527993679047,,,,,,,,,
1739303607.8161752,-0.10300768452739692,1.0614837915662272,-0.3976727030020631,-1.4311969675428522,1.5287070104823304,1.1568126766767768,1.3554016173430472,-0.0003047805226659548,-0.0008285346787667224,0.0003420612223712479,-0.001215728194973501,-0.0003121772790528823,-0.0003061521332241295,0.00025782711319827266,-0.2547723948955536,-51.00766372680664,-7.483719825744629,17.89893341064453,1.8327738046646118,-0.7239487171173096,0.07969819009304047,,,,,,,,,
1739303607.8262193,-0.10300212669030412,1.0614864902846883,-0.397671539804281,-1.431197852341036,1.5287100526041546,1.156815842485408,1.3553953527229878,0.0011935986687265083,0.0004417345844117872,-0.0003839656964682389,-0.0006139056360722151,-0.0011500756989858423,-6.673043955639823e-05,-0.0012207664478055646,-0.3301508128643036,-51.05923843383789,-7.483719825744629,17.92273712158203,1.8327738046646118,-0.7239487171173096,0.13279877603054047,,,,,,,,,
1739303607.8372064,-0.1030018121372593,1.0614837877817682,-0.3976692059516275,-1.4311942664078616,1.5287057402094093,1.1568166394090662,1.3554021813153743,0.000600486604577349,-0.0008520771389748326,0.00121846695854011,0.0014434504898055123,0.00032198515009213935,0.00030258712472607777,0.0016188428549676198,-0.3063471019268036,-51.00766372680664,-7.511490821838379,17.87512969970703,1.8465067148208618,-0.7303574085235596,0.06596527993679047,,,,,,,,,
1739303607.8481555,-0.10300542297509357,1.0614775131700538,-0.3976708089257706,-1.4311967378495483,1.5287064804117063,1.1568149365691998,1.3554044630112956,-6.880017729818172e-05,-0.0019051884333348675,0.0011101398034285095,-0.0008537146728763807,0.00044360587840453587,-0.00017830017827011815,0.0006467620195635246,-0.2825433909893036,-50.93228530883789,-7.483719825744629,17.89893341064453,1.8400980234146118,-0.7431747913360596,0.04673920199275017,,,,,,,,,
1739303607.858244,-0.10300457472724318,1.0614837877730356,-0.3976762610156431,-1.4311942664194097,1.528707396100212,1.156815707293064,1.3554055269981122,0.00044359182975804625,0.0009048318589402089,-0.001929894938702833,0.0009187736129101676,0.000914761473365966,0.0006342222145275635,0.0014066844314982439,-0.2547723948955536,-51.00766372680664,-7.436112403869629,17.87512969970703,1.8400980234146118,-0.7495834827423096,0.04673920199275017,,,,,,,,,
1739303607.869209,-0.10300470896638438,1.0614818265104446,-0.3976772044634872,-1.4311942682610221,1.528708042262491,1.156814183736196,1.3553973802433728,-0.00014673208974909144,-0.00016531903850379296,-0.0029742815152409424,0.0008197512215207517,0.00017956561451360707,-0.0011448932893140832,-0.0013639081256314515,-0.2547723948955536,-50.98386001586914,-7.436112403869629,17.87512969970703,1.8529154062271118,-0.7367660999298096,0.11265717446804047,,,,,,,,,
1739303607.8792343,-0.10300217484737872,1.0614870233575526,-0.3976684887245995,-1.4311967378495798,1.5287077115144134,1.1568119154112178,1.3553973283940908,0.0012522580207116971,0.0012967779252563438,0.0005640875751381183,0.000691937523743341,-0.00034959325135323807,-0.0002947689051232441,-0.002158446849702858,-0.3063471019268036,-51.08700942993164,-7.511490821838379,17.89893341064453,1.8263651132583618,-0.7166244983673096,0.11265717446804047,,,,,,,,,
1739303607.8901517,-0.10300730427058691,1.0614857591493754,-0.3976723257578597,-1.4312016944384658,1.528709821545667,1.1568103217614358,1.3554008335699208,7.391189233867923e-05,0.00053231344241832,0.0004127469554997703,-0.000436469355585293,0.0004757172443900964,-0.0009297883839669164,8.356811427067025e-05,-0.2547723948955536,-51.03543472290039,-7.459916114807129,17.97431182861328,1.8465067148208618,-0.7038071155548096,0.08610688149929047,,,,,,,,,
1739303607.9002452,-0.10299986718203415,1.0614874968919454,-0.3976737304708147,-1.4311990337321656,1.5287107344900237,1.1568102823540765,1.3553977569649693,0.0010162324173706024,9.413429955575591e-06,-0.0005234140698450282,0.00037817191725734637,0.0010183631098229895,-0.0002798120940896039,-0.00017877070903048366,-0.2825433909893036,-51.05923843383789,-7.483719825744629,17.89893341064453,1.8400980234146118,-0.7038071155548096,0.07328949868679047,,,,,,,,,
1739303607.9112163,-0.10300247152227075,1.061487498135981,-0.3976705681562812,-1.431200532913675,1.528706886472625,1.1568086187591777,1.3554047560326168,0.0004382566633862451,1.6995320797588644e-05,-4.13173842710087e-05,-2.2107567650571564e-05,-0.0004815452018404666,-0.00045805552844765707,0.0013822413322511296,-0.2825433909893036,-51.05923843383789,-7.483719825744629,17.94654083251953,1.8327738046646118,-0.7166244983673096,0.05314789339900017,,,,,,,,,
1739303607.921311,-0.10300618243108611,1.0614838643168767,-0.39767151319844,-1.4311960311126344,1.5287046097233306,1.1568134211770411,1.3554001189640734,-1.1113033890977142e-05,-0.0007301790947727465,-0.0014775644079360545,0.0013185634214974945,-0.0017682334080666071,0.0004454274951857532,-0.00010057035040414398,-0.2309686839580536,-51.00766372680664,-7.483719825744629,17.89893341064453,1.8529154062271118,-0.7303574085235596,0.05314789339900017,,,,,,,,,
1739303607.9321976,-0.1030044696945987,1.0614857856156894,-0.39767160068933244,-1.431197831761682,1.528705214814465,1.1568149365510327,1.3553961456310744,0.0005107346280503603,-0.00010249958617788174,0.00019518813257391178,-0.00029132797479512133,-0.0016528026249971232,0.0007038769764534646,-0.0007202898852066858,-0.2547723948955536,-51.03543472290039,-7.483719825744629,17.92273712158203,1.8465067148208618,-0.7431747913360596,0.08610688149929047,,,,,,,,,
1739303607.9422166,-0.10300446969459748,1.0614815594949292,-0.3976744515901502,-1.4311960490847644,1.5287068339564784,1.1568146498412346,1.3554016395624984,-0.0002642420715097058,-0.0002566541547597571,-0.0010638122308735483,0.0009885540584863004,-0.0003774491654650349,-0.0007405559720365825,0.0011396726930259027,-0.2547723948955536,-51.00766372680664,-7.436112403869629,17.89893341064453,1.8327738046646118,-0.7367660999298096,0.03941498324275017,,,,,,,,,
1739303607.9532545,-0.10300246099772495,1.0614838867616512,-0.39767057271251577,-1.4311987505697363,1.5287055679724535,1.1568141788936133,1.3553933743771214,-0.0001255880197737228,0.000862644629969325,0.0005115693149675448,-3.358487281294992e-05,-0.002335755999787091,-0.00036420150613317506,-0.0016840633702901334,-0.2825433909893036,-51.00766372680664,-7.483719825744629,17.92273712158203,1.8465067148208618,-0.7367660999298096,0.10624848306179047,,,,,,,,,
1739303607.964221,-0.10300246298456617,1.0614840316743568,-0.39767085164672134,-1.4311965721739102,1.5287055138367498,1.1568134212308765,1.3553929655631094,-0.0001843094417972788,0.00030713812341139426,0.00042954412043716466,0.000418167945821236,-0.001207181488437672,-1.1776354843884328e-05,-0.0020411897275245073,-0.2825433909893036,-50.98386001586914,-7.511490821838379,17.87512969970703,1.8529154062271118,-0.7303574085235596,0.11265717446804047,,,,,,,,,
1739303607.9751325,-0.10300445800258617,1.0614857853928308,-0.3976726933576481,-1.431195029863413,1.5287083887576995,1.1568110400134874,1.35539846386062,-0.00022291370544774922,0.0012166987641926395,8.334081682100092e-05,0.0011855848022898686,0.00025083394301895573,-0.0007135641661369422,0.0021195190093771616,-0.2547723948955536,-51.03543472290039,-7.459916114807129,17.84735870361328,1.8199564218521118,-0.7102158069610596,0.06596527993679047,,,,,,,,,
1739303607.9852297,-0.10300610329416582,1.0614837887322603,-0.39767080457124165,-1.4312047554536267,1.52870596805984,1.1568116799359958,1.3553952383873775,0.0004423106063688509,-0.0009373578717956044,0.0003528300239042325,-0.0013791772908489863,-0.0013920430052582586,-0.0002964757921089475,-0.00023854032149901543,-0.2309686839580536,-51.00766372680664,-7.483719825744629,17.97431182861328,1.8400980234146118,-0.7166244983673096,0.09343110024929047,,,,,,,,,
1739303607.9952784,-0.10300446969326094,1.0614818279047922,-0.3976684895406512,-1.4312007012994674,1.5287067937294008,1.1568106693561808,1.3553992824087409,0.0009263493901470998,-0.0006557564950329768,0.0010226789531157415,-0.0004085765391154441,-0.0006166437510700613,-0.001091050863391175,0.0005663484021620566,-0.2547723948955536,-50.98386001586914,-7.511490821838379,17.92273712158203,1.8327738046646118,-0.7102158069610596,0.05955658480525017,,,,,,,,,
1739303608.0071926,-0.10300786832081235,1.0614874941777055,-0.39766848899662205,-1.4311961637376258,1.5287052103988659,1.156811026767937,1.3553937232293163,-0.0007111271665313076,0.0020325247131290614,0.0005896714881671316,0.0011748670354295126,-0.0019621538520567146,-3.93020461464789e-05,-0.0006941513404579414,-0.2071649730205536,-51.05923843383789,-7.511490821838379,17.89893341064453,1.8465067148208618,-0.7102158069610596,0.10624848306179047,,,,,,,,,
1739303608.0172408,-0.10300246883059659,1.0614781361492542,-0.39767236269620687,-1.4311988042495265,1.5287091112972895,1.1568094802956845,1.3554023822018602,0.0011387528153023656,-0.002170254460939115,-0.0009500770943488088,-0.0002863161836603353,0.0008007828223965835,-0.0004977396566936077,0.0013398397582162882,-0.2825433909893036,-50.96005630493164,-7.459916114807129,17.89893341064453,1.8135477304458618,-0.7239487171173096,0.03300629183650017,,,,,,,,,
1739303608.0281913,-0.10300654882137711,1.0614855384668451,-0.3976687252076821,-1.4312006348466282,1.5287049629351757,1.1568126585461553,1.3553971759288148,-1.1385348143053164e-05,-0.00037817416529104864,0.0017965090157290257,-0.00029407518005630215,0.0009465523769391991,-0.000346103125792184,0.0008703529865395818,-0.2309686839580536,-51.03543472290039,-7.511490821838379,17.94654083251953,1.8529154062271118,-0.7239487171173096,0.05314789339900017,,,,,,,,,
1739303608.0391264,-0.10300506233608961,1.0614835604840522,-0.3976713829461795,-1.4311944838825061,1.5287095001949094,1.1568134205847689,1.3553961043986422,-0.0019766265665429475,-0.00018949906280814533,-8.379473560664698e-05,0.0013724121799677256,0.0011806998477354286,-0.0006981904079484381,0.000725505474465526,-0.2071649730205536,-51.03543472290039,-7.483719825744629,17.84735870361328,1.8400980234146118,-0.7303574085235596,0.08610688149929047,,,,,,,,,
1739303608.0492072,-0.10300239281679058,1.0614815594823694,-0.397673138406061,-1.4311952228810012,1.5287068339763428,1.1568126635707945,1.3553944278615073,1.3708282924782294e-05,0.00036613818302819016,3.5406428317164484e-05,0.0012431525011537782,0.00040212919226228995,0.00017315388906813427,-0.001971803865729438,-0.2825433909893036,-51.00766372680664,-7.459916114807129,17.87512969970703,1.8327738046646118,-0.7239487171173096,0.09983979165554047,,,,,,,,,
1739303608.0611973,-0.10299955167759967,1.0614773833860942,-0.397670358717577,-1.4311990454951677,1.5287059685436883,1.1568075591210485,1.3553895821433846,0.00025488617306999417,-0.002304306812633403,-0.00011681771515320268,0.0006476596559829113,0.0004138261600426916,-0.0021184116960836644,-0.0026185208553193874,-0.2825433909893036,-50.96005630493164,-7.483719825744629,17.89893341064453,1.8400980234146118,-0.7166244983673096,0.14012299478054047,,,,,,,,,
1739303608.073247,-0.10300002509008047,1.0614839182130131,-0.3976705684020532,-1.4312027137285013,1.5287068450334445,1.1568102403704459,1.3553976197125497,0.0005590737760641551,-0.0009280731508690793,-0.00014397541274441573,-0.0018807784881231444,0.00042910542554432313,-0.001685168905134274,0.0007902504268728981,-0.2825433909893036,-51.03543472290039,-7.483719825744629,17.94654083251953,1.8327738046646118,-0.7303574085235596,0.07328949868679047,,,,,,,,,
1739303608.0832562,-0.10300617924243208,1.0614847194094372,-0.3976716191531719,-1.4312045555436623,1.5287043316842268,1.1568116038608776,1.355396206861967,-0.0008391139556878813,-0.00022928937089048025,-0.0011008804791146696,-0.0014130209949147808,-0.00044504696623431223,-0.0006475748130513636,0.00037548108452062205,-0.2309686839580536,-50.98386001586914,-7.483719825744629,17.97431182861328,1.8263651132583618,-0.7239487171173096,0.07328949868679047,,,,,,,,,
1739303608.0941553,-0.10300233882852997,1.0614895635408357,-0.39766820625037985,-1.4312007014737347,1.5287053857658912,1.156812663564816,1.3554007588519141,0.00024126290713637292,0.0013774472140247,0.0006936032736707227,-0.0004607486934634361,-0.0003118335453810283,0.0009340284219253137,0.0026159841261965875,-0.2547723948955536,-51.05923843383789,-7.483719825744629,17.92273712158203,1.8327738046646118,-0.7239487171173096,0.04673920199275017,,,,,,,,,
1739303608.1051614,-0.10300223094917267,1.0614874980498352,-0.3976727728424323,-1.431194346869974,1.5287068339318786,1.156806984247901,1.3553979191979957,0.001132607809942802,0.00020224100805000126,-0.0004221885577858892,0.0018540686888044553,0.00035795039906546736,-0.00015658834002418067,-0.0001948254972838599,-0.2825433909893036,-51.05923843383789,-7.483719825744629,17.87512969970703,1.8327738046646118,-0.7038071155548096,0.07328949868679047,,,,,,,,,
1739303608.117143,-0.10300446081688905,1.0614883340727346,-0.3976733046401668,-1.431200003909738,1.5287074765841304,1.1568124869672098,1.3553978304741168,-0.0005866970310105748,0.0006859446211528636,-0.00030617848277572353,0.0005169960396897198,0.0014281661492946136,-1.1586802064848572e-05,0.0011392962292873857,-0.2547723948955536,-51.05923843383789,-7.459916114807129,17.92273712158203,1.8263651132583618,-0.7239487171173096,0.05955658480525017,,,,,,,,,
1739303608.1272473,-0.1030024600256131,1.0614850664436901,-0.3976720374929365,-1.4311963904875273,1.5287068339557544,1.1568112700338296,1.3553941498276634,-0.00042714656348861123,-0.0003444036124584389,-0.0004350391122241533,0.0014351441607011754,0.0008489577572489411,0.0004439822663692821,0.0008490829484955051,-0.2825433909893036,-51.03543472290039,-7.459916114807129,17.89893341064453,1.8327738046646118,-0.7166244983673096,0.07969819009304047,,,,,,,,,
1739303608.1372776,-0.10299961760770618,1.0614871103687704,-0.39767057709769044,-1.4311978687200426,1.5287051657024229,1.1568097319499109,1.355396824591335,-4.685806407948986e-05,0.0005183692436936877,-0.000852477868409641,-0.0002747112077935643,7.360923338054316e-05,-0.001448489540969926,0.00017248587345615834,-0.2825433909893036,-51.03543472290039,-7.483719825744629,17.92273712158203,1.8465067148208618,-0.7303574085235596,0.07969819009304047,,,,,,,,,
1739303608.1481414,-0.1030044692454489,1.0614850439890984,-0.39767068636998815,-1.4312045719501472,1.528705963534071,1.1568132627730734,1.3553962981333347,7.806698020390294e-05,0.0006808116743048339,0.00020010590280033791,-0.001350924150644969,0.0019357198486739961,-0.0002246773606942523,0.0006595772842293362,-0.2547723948955536,-51.03543472290039,-7.483719825744629,17.97431182861328,1.8400980234146118,-0.7303574085235596,0.09343110024929047,,,,,,,,,
1739303608.1581845,-0.10299939340307114,1.0614837786175304,-0.39767269222712853,-1.4311987628659775,1.5287048819300122,1.1568095871230442,1.3553970958604746,0.0008843927024089599,-0.0003660660790093671,-0.000605462679144973,0.0008527649771038044,0.000400870580598126,2.1656654738889242e-05,-0.000673830727656128,-0.2825433909893036,-51.00766372680664,-7.459916114807129,17.92273712158203,1.8400980234146118,-0.7367660999298096,0.07328949868679047,,,,,,,,,
1739303608.1681943,-0.10300375794641202,1.061487498248887,-0.39767080554328427,-1.4311978440600512,1.528704452058448,1.1568126620394859,1.355397618304219,-0.00028435981784432935,0.0024705434734275415,-0.0009735362691234515,0.0022611501961832146,0.00027700530808067304,0.0010968032758504253,0.0016270704055903614,-0.2547723948955536,-51.05923843383789,-7.483719825744629,17.92273712158203,1.8529154062271118,-0.7239487171173096,0.07328949868679047,,,,,,,,,
1739303608.1792037,-0.10299954730757259,1.0614837510072535,-0.39767080489080386,-1.4312027158615355,1.52870270967192,1.1568126635707894,1.3553893654854499,0.0006213997306515224,-0.0015403084619386453,0.00101887474810441,-0.0008250335515338818,4.211442074552735e-05,0.001734562517623591,-0.0018058076854307777,-0.2825433909893036,-51.00766372680664,-7.483719825744629,17.94654083251953,1.8400980234146118,-0.7239487171173096,0.10624848306179047,,,,,,,,,
1739303608.1901798,-0.10300436408927173,1.0614837991249426,-0.39767235200486073,-1.4311989190470589,1.5287058471390442,1.1568060242587164,1.3553915126028226,-0.0015126499558650221,-7.597774060217038e-05,-0.00019645921240520503,-6.541131624921624e-05,-0.0008700812372136399,-0.0008314079166800534,-0.002232646775029021,-0.2547723948955536,-51.00766372680664,-7.459916114807129,17.89893341064453,1.8400980234146118,-0.7038071155548096,0.08610688149929047,,,,,,,,,
1739303608.2011917,-0.10300310332157851,1.0614808074605269,-0.39766850022934636,-1.4311999853082615,1.5287000903419685,1.1568121528180337,1.3553948475491797,0.0003164778049172504,-0.0012291487485188528,-0.0002740001430348103,1.763070436791689e-05,-0.001717892068116033,0.0006986289593659981,-0.0017163250355321244,-0.2309686839580536,-51.00766372680664,-7.511490821838379,17.94654083251953,1.8529154062271118,-0.7239487171173096,0.05955658480525017,,,,,,,,,
1739303608.2112331,-0.10300515575628204,1.0614835564014748,-0.39767056835451053,-1.4311991481959538,1.5287044527143887,1.156811660390937,1.3553959416240429,6.974558733673284e-05,0.00034670337693103013,-0.0010640840788784705,0.000966285088956563,-0.0002453749143044047,4.1640558256645136e-05,-0.00019967860916347098,-0.2309686839580536,-51.03543472290039,-7.483719825744629,17.89893341064453,1.8529154062271118,-0.7166244983673096,0.08610688149929047,,,,,,,,,
1739303608.2221658,-0.10300215472889371,1.0614822499052545,-0.3976708816823414,-1.4312027227106467,1.528703690609269,1.1568080934884122,1.3553929505480788,0.0010920049805939564,-0.0018746435129446404,-0.0010945091357293059,-0.0007895186873321232,-0.0005970890233854987,-0.0013050306187126282,-0.0017182126647491704,-0.2825433909893036,-51.00766372680664,-7.483719825744629,17.94654083251953,1.8593240976333618,-0.7166244983673096,0.11265717446804047,,,,,,,,,
1739303608.2321744,-0.10299903793791709,1.0614833429750388,-0.39767235103676996,-1.4312009325116564,1.5287036950788606,1.1568121381304062,1.3553961025081633,0.0003164682536823155,-0.0007182545750881769,-0.00020004924393205402,-0.00014593402208955492,-0.0013449119424022158,-0.0006636166779633387,0.0009316584603941927,-0.3301508128643036,-51.00766372680664,-7.459916114807129,17.92273712158203,1.8593240976333618,-0.7239487171173096,0.08610688149929047,,,,,,,,,
1739303608.2421813,-0.1030058664230615,1.061481559487398,-0.3976723510314638,-1.431200931203334,1.528705196990092,1.1568123483403907,1.3553968621065302,-0.0016285558967485331,0.0006608398851443555,0.00018337010310897934,-0.00075320460451282,0.0004246039192129926,0.000181829684810394,0.0023541041460519115,-0.2309686839580536,-51.00766372680664,-7.459916114807129,17.92273712158203,1.8465067148208618,-0.7303574085235596,0.07969819009304047,,,,,,,,,
1739303608.2531579,-0.10300199347988091,1.0614837872849792,-0.3976706149316159,-1.4312047936701864,1.5287034011968859,1.1568103804560195,1.3553944408522534,0.0009205046770883835,-0.0006180495551217653,0.00033777740675991117,-0.0013740647627830333,0.0007204144681335356,5.071661724437461e-05,-0.0005899584212306205,-0.2547723948955536,-51.00766372680664,-7.511490821838379,17.97431182861328,1.8327738046646118,-0.7166244983673096,0.07328949868679047,,,,,,,,,
1739303608.263193,-0.10300443156980967,1.061487498249017,-0.39767237738516104,-1.431203792226261,1.5287051699976877,1.1568131191808233,1.3553957622704478,-0.0013585285770469787,0.0015048594079842999,0.00017544475941204954,-0.0014075787714536456,0.0011780083411989052,0.0008306995095400058,0.0008505392959494876,-0.2547723948955536,-51.05923843383789,-7.459916114807129,17.92273712158203,1.8465067148208618,-0.7367660999298096,0.05314789339900017,,,,,,,,,
1739303608.2751248,-0.103003408489624,1.0614798133846277,-0.3976745119247325,-1.4312003219167708,1.5287072295733786,1.1568107315014389,1.3553977122434908,0.0003026121557431038,-0.0020306152243667417,-0.00093547530466515,-0.0002923996512146608,-0.0003488616904866567,9.480257991542276e-05,0.00025516458845745274,-0.2547723948955536,-50.98386001586914,-7.459916114807129,17.92273712158203,1.8263651132583618,-0.7166244983673096,0.05955658480525017,,,,,,,,,
1739303608.2851818,-0.10300220770353817,1.0614790806443584,-0.3976726138603512,-1.4312029532766168,1.5287059680571278,1.1568126067148143,1.3553926235454026,1.6435617539118448e-05,-0.0006680105896103536,-0.0015090971490413993,-0.001376110330749981,0.0012982049569686474,-0.00019465915051187645,0.0007673161883886487,-0.2825433909893036,-50.98386001586914,-7.459916114807129,17.94654083251953,1.8400980234146118,-0.7239487171173096,0.07969819009304047,,,,,,,,,
1739303608.2952712,-0.10300414188123476,1.0614901708411655,-0.39767257569018055,-1.4312026373549647,1.5287015028618318,1.1568079539055327,1.3553902015654693,-0.00134367775776127,0.0013097377672748802,-0.00035614844752724154,0.000463250480293149,-0.0011484470733185113,-0.0014375368917326607,-0.0013471502637149462,-0.2547723948955536,-51.05923843383789,-7.459916114807129,17.94654083251953,1.8400980234146118,-0.7239487171173096,0.09983979165554047,,,,,,,,,
1739303608.3062208,-0.10300472479255011,1.0614874698047183,-0.3976705946039159,-1.431200931311032,1.52870504776003,1.1568101073631043,1.3553968213346854,-0.0016619114912280065,0.0003873054127597531,-3.3991524962842274e-05,0.0007347209336202961,-0.0009453736295279591,-0.0006822659799935064,0.00047482718136171865,-0.2071649730205536,-51.05923843383789,-7.483719825744629,17.92273712158203,1.8465067148208618,-0.7038071155548096,0.07969819009304047,,,,,,,,,
1739303608.3172226,-0.10300344238089279,1.0614837877874046,-0.39767064956586456,-1.4312009414508413,1.5287052103803933,1.1568055727964475,1.355395293667457,-0.0006474375239703078,-0.0002327827804340496,0.0007752340646072482,9.665436079046741e-05,0.0010212046701055058,-0.0011527131856962315,0.00022334702135826362,-0.2547723948955536,-51.00766372680664,-7.511490821838379,17.92273712158203,1.8465067148208618,-0.7038071155548096,0.06596527993679047,,,,,,,,,
1739303608.3272247,-0.10300127646351126,1.0614837864308113,-0.39767338771788896,-1.4311998726125212,1.5287047276750558,1.156807070648409,1.355392140258821,0.0005191848502237756,-0.0003863787848022697,-0.0016431800954543017,-0.0006853900753369411,-0.0013104779810210005,-0.0012659285034930857,-0.0020889115151276278,-0.2547723948955536,-51.00766372680664,-7.459916114807129,17.89893341064453,1.8465067148208618,-0.7166244983673096,0.10624848306179047,,,,,,,,,
1739303608.3372512,-0.10300301222329283,1.06148207515365,-0.3976733746300187,-1.431201294305767,1.5287046872743348,1.1568094408083445,1.355395236422872,-0.0002860545668704003,-0.0005435558716446872,-0.0012299721720727286,0.00030560908758614513,-7.337282915282283e-05,0.0007407407825754011,-0.0018038775137325187,-0.2309686839580536,-50.98386001586914,-7.459916114807129,17.89893341064453,1.8465067148208618,-0.7239487171173096,0.09343110024929047,,,,,,,,,
1739303608.3481953,-0.10300341400504961,1.0614858510293543,-0.39767306355848786,-1.4311980810821312,1.5287044526808806,1.1568086143803344,1.3553937174148827,0.000513094651361896,0.0012315443451961176,-0.0007015992584251462,0.0007585725966690982,-5.507187626060115e-06,0.0010531712157378487,0.0002321420281275776,-0.2547723948955536,-51.00766372680664,-7.459916114807129,17.87512969970703,1.8529154062271118,-0.7166244983673096,0.10624848306179047,,,,,,,,,
1739303608.359124,-0.10299955704896002,1.0614857029844977,-0.397674444856446,-1.431200931067378,1.5287044527390143,1.1568130649689798,1.3553960521186432,0.0005299611660138132,0.0012262838503289877,-0.0006922685505305935,-0.00048476933618990894,0.00013646548282575735,0.001096420864919698,-7.577245414019018e-05,-0.2825433909893036,-51.03543472290039,-7.459916114807129,17.92273712158203,1.8529154062271118,-0.7367660999298096,0.08610688149929047,,,,,,,,,
1739303608.3692057,-0.10300138739723944,1.06148578572691,-0.3976715133419093,-1.431201010676169,1.5287033666099321,1.1568109461763434,1.3553985861946785,-0.00022054426170524987,0.001262559712628145,-0.0008206938805221892,-0.0004013091770410825,8.869100590850956e-05,0.0010180257653022093,0.0009136644630877755,-0.2547723948955536,-51.03543472290039,-7.483719825744629,17.92273712158203,1.8529154062271118,-0.7367660999298096,0.05314789339900017,,,,,,,,,
1739303608.3811612,-0.10300330192553313,1.0614857735184893,-0.3976667847379113,-1.4312009695774868,1.5287040504628528,1.1568091428759018,1.355388725554963,-0.00024612915598091215,0.001093879080196628,0.0011841891904318823,-0.001626634617095421,-7.127487904099285e-05,0.00032356432020028413,-0.002258554063539796,-0.2309686839580536,-51.03543472290039,-7.535294532775879,17.92273712158203,1.8529154062271118,-0.7303574085235596,0.11265717446804047,,,,,,,,,
1739303608.3912067,-0.10300019620104203,1.0614893862637433,-0.3976705683548898,-1.431202710101317,1.52870614338692,1.156811080145912,1.3553944280529133,-0.0004968983536167122,0.0006110874250571046,-0.000697087248729807,-0.00016906761821009885,0.0008207025574066044,-5.082377315952094e-05,-0.00046002160769292925,-0.2825433909893036,-51.08700942993164,-7.483719825744629,17.94654083251953,1.8263651132583618,-0.7239487171173096,0.09983979165554047,,,,,,,,,
1739303608.4021914,-0.103003301641396,1.0614830460401472,-0.39766848856458914,-1.4311991485262714,1.528702709498205,1.1568099627084758,1.3553992258814913,-0.0009045290666538203,-0.0005216774558031015,0.00037721197654039213,0.0003996746368549125,-0.0006288544191275568,2.8589564133459354e-05,0.004027711330730667,-0.2309686839580536,-51.00766372680664,-7.511490821838379,17.89893341064453,1.8400980234146118,-0.7102158069610596,0.05955658480525017,,,,,,,,,
1739303608.4132166,-0.10299927406619436,1.061483045584365,-0.39767235200352546,-1.4311991485262927,1.5287059531418867,1.156811076234013,1.355397421664995,0.0014403680602602896,-0.000507948361799688,-0.00036561225266587696,0.001093464518661064,0.0007864736127458081,0.0001496337181526428,-0.0003254478050260564,-0.2547723948955536,-51.00766372680664,-7.459916114807129,17.89893341064453,1.8400980234146118,-0.7239487171173096,0.06596527993679047,,,,,,,,,
1739303608.424127,-0.10300469972480804,1.0614819928462385,-0.39767258835853975,-1.4312027927354316,1.5287008323086553,1.1568084988592395,1.35539838823307,-0.0006576955438444097,-0.0013940267474094668,-0.0005798857082793485,-0.0009599659161411094,-0.002124525251072187,0.0009246104514578037,0.0016419895080300147,-0.2071649730205536,-50.98386001586914,-7.459916114807129,17.94654083251953,1.8529154062271118,-0.7166244983673096,0.03941498324275017,,,,,,,,,
1739303608.4341574,-0.10300158907940257,1.0614874616181804,-0.39767064709546374,-1.4312004808584422,1.5287052101722374,1.1568078952241032,1.355395684514551,-0.00018760847105488295,0.00024993368223698753,-0.0002130954724851613,0.00037494041798147803,-0.00016579163665910292,-0.0009734998008350365,-0.00027821347997375174,-0.2547723948955536,-51.05923843383789,-7.483719825744629,17.92273712158203,1.8465067148208618,-0.7239487171173096,0.07969819009304047,,,,,,,,,
1739303608.4462247,-0.10300127339730344,1.0614808973299097,-0.3976684885650336,-1.4312027256515456,1.528704090695986,1.156812892865362,1.3553949636601028,0.0005180621806892788,0.00020247361062802105,0.0004831154018962442,-0.00040085409532762196,-0.00010741845568001181,0.0006924784206136907,-0.0004976316304128943,-0.2547723948955536,-51.00766372680664,-7.511490821838379,17.94654083251953,1.8529154062271118,-0.7303574085235596,0.09343110024929047,,,,,,,,,
1739303608.4571993,-0.10300298591625259,1.0614837877820194,-0.3976705683544447,-1.431200931203334,1.5287052083934993,1.1568089680887816,1.3553976065047213,0.0003591921528717227,0.0005555890998114148,0.0006570844430180577,-0.00012772657787586114,0.0005411963290342771,-0.00023118705601098775,0.001961458487317429,-0.2309686839580536,-51.00766372680664,-7.483719825744629,17.92273712158203,1.8465067148208618,-0.7239487171173096,0.07328949868679047,,,,,,,,,
1739303608.467228,-0.10299930176165661,1.0614837876744043,-0.39767235978001925,-1.431202407762649,1.5287044527389808,1.156810210172608,1.3553913027656255,0.00040682593530773066,-0.0007498682230374157,-0.0002911360029809753,-0.00010497119540628201,0.0010382549045310375,-0.0013007344473216541,-0.0011239990268916494,-0.2825433909893036,-51.00766372680664,-7.459916114807129,17.94654083251953,1.8529154062271118,-0.7166244983673096,0.12639008462429047,,,,,,,,,
1739303608.478203,-0.1030022744371632,1.0614817468612727,-0.3976716423986129,-1.4312024076524863,1.5287006046109801,1.156808605650341,1.3553914328803711,0.0002639943340970643,-0.00025211831590590946,0.0003713880298837094,0.0006550540135234305,-0.002200588013349901,0.0008060195520732116,-0.0013494778756321865,-0.2309686839580536,-50.98386001586914,-7.459916114807129,17.94654083251953,1.8721414804458618,-0.7166244983673096,0.11265717446804047,,,,,,,,,
1739303608.489193,-0.1030016430822748,1.0614857857276931,-0.3976708045641109,-1.4311992289797224,1.528705847154474,1.1568075018328963,1.355391289178552,0.0002835435905675081,0.0013090397169756849,7.607620219802782e-05,0.0006409711770269835,0.001145832430884988,0.0005599176560486651,-0.00043034921896482024,-0.2825433909893036,-51.03543472290039,-7.483719825744629,17.89893341064453,1.8400980234146118,-0.7102158069610596,0.12639008462429047,,,,,,,,,
1739303608.500229,-0.10300127441930602,1.0614874972315573,-0.3976667057808966,-1.4311991485267468,1.5287059501798208,1.1568113072688078,1.3553957443430298,0.00026248602814978186,0.0009400260202110817,0.0011406790353907866,0.0018132048172126946,-6.400018471995451e-06,0.0012973151452113588,0.0012291439359660781,-0.2547723948955536,-51.05923843383789,-7.535294532775879,17.89893341064453,1.8400980234146118,-0.7166244983673096,0.05314789339900017,,,,,,,,,
1739303608.5112417,-0.10300125098587048,1.0614874890916701,-0.3976751748225941,-1.431202713880331,1.5287052098471812,1.1568093216406734,1.355390516731538,-0.0010650913476406732,0.000715556355998063,-0.0018301343504438959,-6.173055937240633e-05,-0.00040988865388510076,0.00019251066062153465,-0.002607200855560165,-0.2547723948955536,-51.05923843383789,-7.436112403869629,17.94654083251953,1.8465067148208618,-0.7239487171173096,0.11998139321804047,,,,,,,,,
1739303608.522143,-0.1030012646263988,1.0614837572628515,-0.39767057844096193,-1.4312030782787188,1.5287054672357392,1.156808091047738,1.3553976670209678,0.0004967459089075415,-2.2827082404796003e-05,-0.0007009269920493961,-0.0010640251413055397,-0.000989729932711845,-0.0006446988505792356,-0.0007584941546369263,-0.2547723948955536,-51.00766372680664,-7.483719825744629,17.92273712158203,1.8400980234146118,-0.7166244983673096,0.05955658480525017,,,,,,,,,
1739303608.5332298,-0.10300298342624123,1.0614857847106538,-0.39767316507921363,-1.4311991573337377,1.528703689116553,1.1568082484179194,1.3553995288783076,-0.0004278872143437198,0.0010197318084845788,-0.0009645297668803884,-4.648050034205826e-05,-9.96162946549869e-05,-9.260091726916121e-05,0.0009573851911965843,-0.2309686839580536,-51.03543472290039,-7.459916114807129,17.89893341064453,1.8593240976333618,-0.7239487171173096,0.04673920199275017,,,,,,,,,
1739303608.5441954,-0.10300127047250864,1.0614820751159828,-0.3976744769350561,-1.4312027496740554,1.5287052081918164,1.1568070816317866,1.3553960644030625,-2.968910397407675e-05,-0.0012073921887225069,-0.0012239930689751568,-0.000960255220996651,0.0002200614200337663,-0.0009102277921812683,0.0027989152475310633,-0.2547723948955536,-50.98386001586914,-7.459916114807129,17.94654083251953,1.8465067148208618,-0.7166244983673096,0.05955658480525017,,,,,,,,,
1739303608.556122,-0.10300274915334157,1.061485987844472,-0.39766875106925853,-1.4312009315305625,1.5287028433402197,1.1568101701178135,1.3554012518766216,8.531178453460935e-05,0.0006525460450097133,0.0006968731720600346,0.00017938314602724715,-0.0003183778460516469,0.00021542182911818967,0.0020230283728067473,-0.2309686839580536,-51.03543472290039,-7.511490821838379,17.92273712158203,1.8263651132583618,-0.7431747913360596,0.03941498324275017,,,,,,,,,
1739303608.5671167,-0.1030026701958613,1.0614828272451982,-0.3976705683669394,-1.4312030435455274,1.5287049211670107,1.1568080889580619,1.3553908689611531,0.00017173674175695493,0.0008565085785854599,0.0011846373991744896,-0.0007811997470785712,0.000666322507807941,-0.0007141766706473971,-0.0031726938196997233,-0.2309686839580536,-51.03543472290039,-7.483719825744629,17.94654083251953,1.8400980234146118,-0.7166244983673096,0.12639008462429047,,,,,,,,,
1739303608.5771601,-0.1030029933807914,1.0614798554273666,-0.39767338538932984,-1.4311994781970714,1.5287036948956638,1.156807029319929,1.3553893135967656,2.642190435404133e-05,-0.00038248104106480726,0.00042996720121370955,0.00048733619105951716,0.00017471700330706926,-0.0019700118358559784,-0.0021263913014095957,-0.2309686839580536,-50.98386001586914,-7.483719825744629,17.89893341064453,1.8593240976333618,-0.7166244983673096,0.11265717446804047,,,,,,,,,
1739303608.5881345,-0.10300469843711017,1.0614850439440275,-0.39767269559723073,-1.4312037667220372,1.5287059660726496,1.156807934445073,1.3553951948808987,-0.00042802337808184126,-3.879513828921634e-05,-0.0003151583424496365,-0.00028400816742591133,0.00045026402704252905,-0.0010584532517381071,0.0015258867800810169,-0.2071649730205536,-51.03543472290039,-7.483719825744629,17.92273712158203,1.8400980234146118,-0.7239487171173096,0.09343110024929047,,,,,,,,,
1739303608.5981998,-0.10300298591625259,1.0614815534208255,-0.39766670633160583,-1.4312018853297,1.5287048349470531,1.1568062861776294,1.3553976560472774,-0.000394453347523249,3.0930074351984886e-05,0.0010669383734979992,-0.001040998154358187,-2.6146855201590578e-05,-0.0010463149274078784,-0.0003345754015862877,-0.2309686839580536,-51.00766372680664,-7.535294532775879,17.92273712158203,1.8465067148208618,-0.7102158069610596,0.05955658480525017,,,,,,,,,
1739303608.6091866,-0.10300298591625259,1.0614857873818975,-0.3976694324365286,-1.4312027148668633,1.5287048819279694,1.156805869132686,1.355399646669651,-0.0009323759240791733,0.001028868932669953,0.00032710413549169956,-0.0009488263424198725,0.0005127372706246543,-0.0020517947779384376,0.0009000733487735715,-0.2309686839580536,-51.03543472290039,-7.511490821838379,17.94654083251953,1.8400980234146118,-0.7038071155548096,0.04673920199275017,,,,,,,,,
1739303608.6201684,-0.10300124708853312,1.0614820752667364,-0.39767059503746693,-1.431201170712059,1.5287031938079274,1.1568105101964274,1.3553999995246435,7.20758013027211e-05,-0.00020415531409034537,-0.0002744345194099957,0.0006355852007409053,-0.0020923269915005373,0.0009661837715963283,0.0036752515136807477,-0.2547723948955536,-50.98386001586914,-7.483719825744629,17.92273712158203,1.8593240976333618,-0.7102158069610596,0.05314789339900017,,,,,,,,,
1739303608.6302032,-0.10299919653325798,1.0614842840133834,-0.3976725992316766,-1.4312009430901411,1.5287067131013623,1.1568070293737642,1.3553916898528573,8.707161989511834e-05,0.0006927687429250034,-0.0007098617378854236,0.0006687495943757816,0.0002774302234609793,-0.00012981273606798142,-0.0002599286328147503,-0.2825433909893036,-51.05923843383789,-7.459916114807129,17.92273712158203,1.8327738046646118,-0.7166244983673096,0.08610688149929047,,,,,,,,,
1739303608.6421156,-0.10300297714681098,1.0614837874301521,-0.3976732171398636,-1.4312030812585639,1.5287044328179646,1.1568102474622288,1.3553913498587093,-0.0008527261916718066,-4.677566655796788e-05,-0.0006202288979108388,1.7092270947367263e-05,8.934330384093963e-05,0.0006905290162054765,-0.00034032639897686474,-0.2309686839580536,-51.00766372680664,-7.459916114807129,17.92273712158203,1.8529154062271118,-0.7166244983673096,0.08610688149929047,,,,,,,,,
1739303608.6521714,-0.10300266730934501,1.0614835604882376,-0.39766986847489044,-1.4312069310552826,1.5287028971365615,1.1568062718215775,1.3553947089456062,3.67396055605295e-05,0.0009305223217433005,0.00040866270553600577,-0.001444065872958701,-0.0002856723851393145,-0.0008934630855887631,-0.001882508339943698,-0.2309686839580536,-51.03543472290039,-7.483719825744629,17.97431182861328,1.8657327890396118,-0.7102158069610596,0.09343110024929047,,,,,,,,,
1739303608.6632366,-0.10300085504480623,1.061487496854711,-0.39766820859895924,-1.4312031064411128,1.5287015831496125,1.1568089591979993,1.3553937211205542,-0.00014287317679420705,0.0012274358761462263,0.0019041266529008253,-0.0005638620689606982,0.00015267886711745624,0.0008056209598335177,-0.0015561649225358126,-0.2309686839580536,-51.05923843383789,-7.511490821838379,17.92273712158203,1.8400980234146118,-0.7239487171173096,0.10624848306179047,,,,,,,,,
1739303608.6741827,-0.10300298590422376,1.0614835600710089,-0.3976723539460685,-1.4311992554835313,1.5287045931221275,1.1568118317796887,1.3553952784904757,0.00016701589099294735,0.00019665564304329245,0.0005671657758745238,0.0005494129460405817,0.0011284318786107341,-9.447140581971057e-05,-0.0012052918198415896,-0.2309686839580536,-51.03543472290039,-7.459916114807129,17.89893341064453,1.8593240976333618,-0.7303574085235596,0.07969819009304047,,,,,,,,,
1739303608.6852465,-0.1029992754546683,1.061480820796508,-0.3976705693265119,-1.4312009315305618,1.5287044527407045,1.1568066641064534,1.355396384837099,0.00129954715483388,-0.0006612464881216363,0.0008405451532531867,-0.0006946247728821806,-0.0009389132626580369,-0.00043546968475883943,-0.001048590506048638,-0.2825433909893036,-51.00766372680664,-7.483719825744629,17.92273712158203,1.8529154062271118,-0.7102158069610596,0.04673920199275017,,,,,,,,,
1739303608.6961522,-0.10300256757093305,1.061483783361607,-0.39767151352246943,-1.4311992280354928,1.5287019515152156,1.1568070690345726,1.355392113117878,-0.0006695082953589051,-0.0011833885675883917,1.354657575701045e-05,0.0001956782055717275,5.931863542215203e-05,-0.0003032489332043404,-0.0005845777936053751,-0.2071649730205536,-51.00766372680664,-7.483719825744629,17.89893341064453,1.8465067148208618,-0.7166244983673096,0.07969819009304047,,,,,,,,,
1739303608.706167,-0.1030012430468559,1.0614837876743293,-0.3976684885805956,-1.431203085802188,1.5287059218174228,1.1568070356013744,1.3553945141989954,-0.0006295264287782174,-0.00012079921945091593,0.00045452489721285104,-6.891578395254666e-05,9.32610764842667e-05,-0.0009839995118312715,0.0010300002817555428,-0.2547723948955536,-51.00766372680664,-7.511490821838379,17.92273712158203,1.8400980234146118,-0.7166244983673096,0.05955658480525017,,,,,,,,,
1739303608.716239,-0.10299927545415437,1.0614875237588475,-0.397670568354445,-1.4312001025641463,1.5287036950781532,1.1568070293020905,1.35540004138397,0.001775794367900403,0.0014706751261576653,4.486270382015516e-05,0.0010295236498028687,0.0005346780884630459,-0.0009903187033157971,0.0021293571345388914,-0.2825433909893036,-51.05923843383789,-7.483719825744629,17.89893341064453,1.8593240976333618,-0.7166244983673096,0.03941498324275017,,,,,,,,,
1739303608.727193,-0.10299913960647197,1.061483787892581,-0.39767238732176824,-1.4311981089095451,1.528704432818647,1.1568091238095741,1.3553988870715286,0.0002973963645107228,-0.0012154578890801787,-0.0005927652750374096,0.001918042978301116,0.001717254698860708,0.00025815880113976686,0.00141945566563105,-0.2547723948955536,-51.00766372680664,-7.459916114807129,17.87512969970703,1.8529154062271118,-0.7303574085235596,0.05314789339900017,,,,,,,,,
1739303608.7381368,-0.10300298588011668,1.06148378778746,-0.3976705684630661,-1.4311998560114614,1.5287011476682408,1.156810212584998,1.3553937130460187,-0.000893541072294998,-0.00021280447069565222,-0.0007357180339294347,0.00103001569947486,-0.0012901580111513073,0.0012181683004426657,-0.00030057359851361437,-0.2309686839580536,-51.00766372680664,-7.483719825744629,17.87512969970703,1.8529154062271118,-0.7166244983673096,0.06596527993679047,,,,,,,,,
1739303608.7481465,-0.10299927545466812,1.061483796290727,-0.3976682527856175,-1.4311974718271439,1.5287005037658967,1.1568094105373425,1.355395393956942,-0.0002344176262044563,-0.0009173707328594405,0.0011796235271385696,0.0007036862515743068,-0.0014977428958424905,0.0012277202139764818,0.00143404787738763,-0.2825433909893036,-51.00766372680664,-7.511490821838379,17.87512969970703,1.8465067148208618,-0.7367660999298096,0.05314789339900017,,,,,,,,,
1739303608.7582028,-0.10300056310683782,1.061482936152513,-0.39767235199953255,-1.4312056153275965,1.5287033269966455,1.1568070299480064,1.3553921068196655,-0.00045305747723266494,-0.0013990232661675998,-0.0008468602073632624,-0.0013403747617359608,0.00018755116495082014,-0.0007171414147417139,-0.0010789785237388366,-0.2547723948955536,-51.00766372680664,-7.459916114807129,17.97431182861328,1.8593240976333618,-0.7166244983673096,0.07969819009304047,,,,,,,,,
1739303608.7702248,-0.10300306288454203,1.0614803617237032,-0.39767056835445014,-1.4311973699238527,1.5287053857822157,1.1568080129367897,1.3553969962751662,-0.000585322167456171,-0.0005151926101804501,0.00043940587815502377,0.0014753099351354937,0.0004212607527396666,0.00028739230661226675,0.0009472939141731275,-0.2309686839580536,-50.96005630493164,-7.483719825744629,17.87512969970703,1.8327738046646118,-0.7239487171173096,0.04673920199275017,,,,,,,,,
1739303608.780239,-0.10299927545510282,1.0614857847108203,-0.39766848856458914,-1.4311973658492967,1.5287015634424763,1.1568080129374507,1.3553952327800733,0.00062150793352382,0.0002681819224549661,0.0009043508918772187,0.00023905423759984466,-0.0016830520037207312,-0.0005706846429522675,0.00026626882528602784,-0.2825433909893036,-51.03543472290039,-7.511490821838379,17.87512969970703,1.8400980234146118,-0.7239487171173096,0.05314789339900017,,,,,,,,,
1739303608.7911313,-0.10300203496734289,1.0614848005119486,-0.39767413374448507,-1.431200957694265,1.5287050358364913,1.156811074760291,1.3553913360749037,-6.633880385147116e-05,-4.659489508692738e-05,-0.001026509615223274,0.0007495432213360496,0.0009267441551748319,0.0008912584045656928,-0.0008532617441524697,-0.2309686839580536,-51.03543472290039,-7.436112403869629,17.92273712158203,1.8465067148208618,-0.7239487171173096,0.08610688149929047,,,,,,,,,
1739303608.801201,-0.10300291574817944,1.0614857857116264,-0.39766848856458975,-1.4312018220186873,1.5287012414661274,1.1568062716957515,1.3553882422574928,-0.0009310946483052406,-5.908137462344999e-06,0.0005771332195987895,0.0006962601392681467,-0.0012140965508303872,-0.001331238220144308,-0.0006093897414868652,-0.2309686839580536,-51.03543472290039,-7.511490821838379,17.94654083251953,1.8400980234146118,-0.7102158069610596,0.11265717446804047,,,,,,,,,
1739303608.8121862,-0.10300298587977008,1.0614858509163008,-0.3976726942534417,-1.4312030813261398,1.5287054296859302,1.1568070685478407,1.3553957035634228,0.000316112568324366,7.064653387818455e-05,-0.00011220248479497591,-3.576242321881855e-05,-0.00149346655678986,-0.00010252190147933799,0.0006634895504155958,-0.2309686839580536,-51.00766372680664,-7.483719825744629,17.92273712158203,1.8400980234146118,-0.7166244983673096,0.05314789339900017,,,,,,,,,
1739303608.8231623,-0.10299926672175844,1.061486015328219,-0.3976686791104756,-1.4312033252490433,1.5287050339269788,1.1568071869316543,1.3553942295906591,0.001002322252626855,0.0008943750181084295,0.0002572220058565974,-0.00020461651229899586,0.0008072536462887344,0.00046975275894966384,0.0011717943206265595,-0.2825433909893036,-51.03543472290039,-7.483719825744629,17.92273712158203,1.8465067148208618,-0.7166244983673096,0.06596527993679047,,,,,,,,,
1739303608.8332226,-0.1029992750214836,1.0614858847189714,-0.39767235099946924,-1.4312013045815772,1.5287027090067622,1.1568086528619639,1.3553920937436568,-5.186795848709729e-05,0.0008373256932080721,0.00047913850464371955,0.0017953392869893572,0.0004965860412646567,-7.052655050177417e-05,-0.0004288671782460455,-0.2825433909893036,-51.03543472290039,-7.459916114807129,17.89893341064453,1.8400980234146118,-0.7303574085235596,0.07969819009304047,,,,,,,,,
1739303608.8441687,-0.1030029855914725,1.0614820750680956,-0.397671323096585,-1.4312012051006877,1.528705206261862,1.1568070293019839,1.3553920007660794,-0.0005683647077185225,6.783991857621623e-05,-0.0004764351606754894,-0.00022333880462188405,-0.0007620209888752895,-0.00048698912732329433,-0.0006433111543725305,-0.2309686839580536,-50.98386001586914,-7.511490821838379,17.92273712158203,1.8327738046646118,-0.7166244983673096,0.09343110024929047,,,,,,,,,
1739303608.8551993,-0.10300469746264904,1.061485797066002,-0.3976725872944667,-1.431203909965377,1.5287012436119571,1.156808653343811,1.3553904700207673,-0.0011981812217297149,0.0003293247378193828,-0.0004405768714361913,0.0003072815170093794,-0.0013407575364302088,-0.0005056434545033302,-0.00042817006079259065,-0.2071649730205536,-51.03543472290039,-7.459916114807129,17.92273712158203,1.8400980234146118,-0.7303574085235596,0.09343110024929047,,,,,,,,,
1739303608.8661206,-0.10299543239265856,1.0614793696805318,-0.397670594601445,-1.431200185978257,1.5287012017120405,1.156810078953594,1.355396165658167,0.001732132977271426,-0.001687265046085106,0.00019033017503478718,-0.0005313328089248749,-0.000628782584584018,0.0011664151608072328,-0.0008585033782682477,-0.3063471019268036,-50.96005630493164,-7.483719825744629,17.89893341064453,1.8400980234146118,-0.7303574085235596,0.03300629183650017,,,,,,,,,
1739303608.8762157,-0.10299927152125582,1.0614820476647557,-0.397671600900457,-1.43120129442009,1.528703454641885,1.156807165959858,1.3553945141741421,0.00028558483259472723,-0.0004493805351046185,-0.00035843480323138134,0.00023809224290175597,0.0010646028816501155,-0.00021780671714100887,0.0005865901119355999,-0.2825433909893036,-50.98386001586914,-7.483719825744629,17.89893341064453,1.8327738046646118,-0.7166244983673096,0.05955658480525017,,,,,,,,,
1739303608.887227,-0.10299755903653894,1.0614837881019268,-0.3976675437380767,-1.4312027182773226,1.5287025824774998,1.1568078952015304,1.3553990266817815,0.0009415079326907251,-0.0005951750206756519,0.0024328452858545773,-0.00033397172799969397,0.0014812041424637043,-0.00038703834373136805,0.003436141920804669,-0.3063471019268036,-51.00766372680664,-7.511490821838379,17.94654083251953,1.8400980234146118,-0.7239487171173096,0.03300629183650017,,,,,,,,,
1739303608.897252,-0.10300056307072941,1.0614857898224794,-0.3976684885592556,-1.4311999020831039,1.5287030862042787,1.1568091238634093,1.3553976138382535,0.00019431071086113553,0.0012351229073901014,0.0004035540571762046,0.0002471203496827861,0.0004693774664152742,0.0010494382582045807,0.0008635382345563347,-0.2547723948955536,-51.03543472290039,-7.511490821838379,17.89893341064453,1.8327738046646118,-0.7303574085235596,0.03300629183650017,,,,,,,,,
1739303608.9081562,-0.10300056310282801,1.0614836782813126,-0.3976684424554477,-1.4312052133369102,1.5287021221888686,1.1568071862880693,1.3553953895963153,0.0001227370754513916,-0.00011491799148084863,0.001206557441601059,-0.0011196132715986197,-0.0015189715483032826,0.00016725210678011636,0.0025310737033302387,-0.2547723948955536,-51.00766372680664,-7.483719825744629,17.94654083251953,1.8327738046646118,-0.7166244983673096,0.05314789339900017,,,,,,,,,
1739303608.918195,-0.1030008560125059,1.0614837877856038,-0.3976684885285868,-1.4312001144527595,1.5287047158104425,1.1568078952018748,1.3553920937376394,-0.0010177331423956591,-0.0007159553298448952,0.0008036845400217155,-0.0006615133517645391,-0.00014830567084617394,-0.0003116780461889234,0.00035655265217643503,-0.2309686839580536,-51.00766372680664,-7.511490821838379,17.89893341064453,1.8400980234146118,-0.7239487171173096,0.07969819009304047,,,,,,,,,
1739303608.928199,-0.10300096024208488,1.0614857857283113,-0.39767447693046015,-1.4312015370890925,1.5287026947518267,1.1568070293019839,1.3553912165655628,-0.0007080462669265605,0.001275907996566608,-0.0003274699956784013,0.0005635275142858197,0.00037376847472770915,-0.0006392575077191123,-0.0005109609764196014,-0.2309686839580536,-51.03543472290039,-7.459916114807129,17.89893341064453,1.8400980234146118,-0.7166244983673096,0.05955658480525017,,,,,,,,,
1739303608.939112,-0.1030012733840864,1.0614857853891495,-0.3976667058995708,-1.4312010147595957,1.528700380933005,1.156808709547754,1.3553912153755,0.00045139521523822405,0.000713953049028006,0.0012614878055822014,-0.0004326886465571565,0.0008187169507024572,0.0001984054416019436,-0.0002305001082969799,-0.2547723948955536,-51.03543472290039,-7.535294532775879,17.92273712158203,1.8465067148208618,-0.7303574085235596,0.08610688149929047,,,,,,,,,
1739303608.9491704,-0.10300469843698358,1.0614819552034709,-0.3976723860256861,-1.4312036675560622,1.5287025306379127,1.1568078952001761,1.3553952726473248,-0.0013639759787422605,-0.001317832127314218,-0.0007409444244528174,-0.0007589301531492551,0.0018773566388011734,-0.00025231314568641535,0.0003733809734583983,-0.2071649730205536,-50.98386001586914,-7.459916114807129,17.94654083251953,1.8400980234146118,-0.7239487171173096,0.07969819009304047,,,,,,,,,
1739303608.9591804,-0.10300051926185735,1.061482074925532,-0.39766985972203833,-1.4312017272562545,1.5287038438252556,1.1568070297865005,1.3553952328282295,-0.00046667585822210585,-0.0006799630475119268,0.00024666783779448505,0.00020188454758818548,0.0013409136286665242,0.00027162574259741775,0.001051751549136908,-0.2547723948955536,-50.98386001586914,-7.483719825744629,17.92273712158203,1.8263651132583618,-0.7166244983673096,0.05314789339900017,,,,,,,,,
1739303608.9701438,-0.10300467180096075,1.0614820752667251,-0.3976685148062555,-1.4311993869493655,1.5287050876552277,1.1568090453178637,1.3553940705050027,-0.0007842289027238657,-0.0005135895454600644,0.0008041082587163848,0.0016151826530252755,0.0014317618119185143,0.0007623574093972217,0.0014270692800437638,-0.2071649730205536,-50.98386001586914,-7.511490821838379,17.89893341064453,1.8465067148208618,-0.7303574085235596,0.06596527993679047,,,,,,,,,
1739303608.9802756,-0.10300297324947381,1.061490329837599,-0.3976723510319081,-1.4312038044401207,1.528701611618813,1.1568084058865156,1.355393596617264,0.0001687958022994503,0.00209097362171664,4.929587113916567e-05,0.000430935946854609,0.00013756778930651282,0.001479949941679168,0.00018888265075382715,-0.2309686839580536,-51.05923843383789,-7.459916114807129,17.92273712158203,1.8327738046646118,-0.7239487171173096,0.06596527993679047,,,,,,,,,
1739303608.991168,-0.1030012735037091,1.0614858265126412,-0.3976705682464378,-1.431202358199488,1.5287019867661886,1.1568086528621773,1.3553937230506306,0.00011321698306771479,-0.00041359740430804297,0.00010697411798021286,-0.00033593700165402893,-0.0007389684163571791,-0.0003525473759620319,0.0004276373470187337,-0.2547723948955536,-51.00766372680664,-7.483719825744629,17.89893341064453,1.8327738046646118,-0.7303574085235596,0.06596527993679047,,,,,,,,,
1739303609.0012245,-0.10300195994371147,1.0614844789807896,-0.3976705946001095,-1.4311992677354302,1.5287019468728458,1.1568070293019839,1.3553856905108075,-0.00013724069362686412,0.00032765599322079927,-6.396292609585875e-05,0.0019228876739367325,-0.0010400813379545632,-0.0004649600223448029,-0.002998566609149815,-0.2309686839580536,-51.03543472290039,-7.483719825744629,17.89893341064453,1.8327738046646118,-0.7166244983673096,0.10624848306179047,,,,,,,,,
1739303609.012114,-0.10299927544887669,1.0614857885553575,-0.3976645812848036,-1.4312034303292613,1.528701609885528,1.1568070293019839,1.3553952325944614,0.00027038507399990434,0.0004915549619092822,0.0014394255141992097,-0.0005409109980737645,0.0016956455847888965,-0.00040011843400276665,0.00026777714461705403,-0.2825433909893036,-51.03543472290039,-7.535294532775879,17.92273712158203,1.8400980234146118,-0.7166244983673096,0.05314789339900017,,,,,,,,,
1739303609.0222251,-0.10300298299325379,1.061483458227289,-0.39766600013477593,-1.4311995424013964,1.5287020000205016,1.1568062716419054,1.3553889548575133,-0.0008939943931661133,-0.0015639460438775002,0.0015096166851489064,0.002129854509749297,0.0002706016456525919,-0.0010489653551611932,-0.0015713127239051303,-0.2309686839580536,-51.00766372680664,-7.535294532775879,17.87512969970703,1.8327738046646118,-0.7102158069610596,0.10624848306179047,,,,,,,,,
1739303609.0331821,-0.1030012734315913,1.0614856405167814,-0.397668548406192,-1.4312010401228505,1.5287006134026697,1.1568078951992162,1.3553880820483057,-0.00036092572004791355,0.0003334011981994677,0.0006621118949556946,-0.0006869124587093999,-0.0009389447966156133,-0.0006167362576153643,-0.0019088794628997247,-0.2547723948955536,-51.03543472290039,-7.483719825744629,17.92273712158203,1.8263651132583618,-0.7239487171173096,0.08610688149929047,,,,,,,,,
1739303609.04324,-0.10300056310683843,1.0614864754354438,-0.3976744856448083,-1.4312031951460034,1.5287054249592251,1.1568078966527664,1.3553937038281834,-0.00019792197181079074,0.00010005133474716313,-0.00031402911828883225,-0.00041982265865189044,0.0003801950409994448,-0.0004723161950598836,0.0007103009655629347,-0.2547723948955536,-51.03543472290039,-7.459916114807129,17.92273712158203,1.8400980234146118,-0.7239487171173096,0.06596527993679047,,,,,,,,,
1739303609.0532472,-0.10300298839418565,1.0614803631775906,-0.39767388586889224,-1.431197474794866,1.5287019515809461,1.1568078951992407,1.3553915707837132,-0.0010725345123635765,-0.0010968513697646037,-0.0012370825839810296,0.0010707143211693402,-8.798757510057196e-06,0.0008184824923059089,-0.0016012284449525107,-0.2309686839580536,-50.96005630493164,-7.436112403869629,17.87512969970703,1.8327738046646118,-0.7239487171173096,0.07969819009304047,,,,,,,,,
1739303609.0641844,-0.10300127339553539,1.061481333520039,-0.39767277396110423,-1.4312016858508758,1.5287037908820762,1.1568075667302118,1.3553921460598377,-0.0006137057131310353,-0.0008398409356526808,2.952463661456873e-06,0.0009381369954693731,0.0008151226431190888,4.070458369328879e-05,0.001081167619021735,-0.2547723948955536,-50.98386001586914,-7.483719825744629,17.92273712158203,1.8263651132583618,-0.7303574085235596,0.07969819009304047,,,,,,,,,
1739303609.0751553,-0.10300290602095485,1.061483787783271,-0.397673404230976,-1.4312020223084052,1.5287010806499781,1.156807895193085,1.3553920549618235,-0.0005175717425506553,-8.025765158954689e-05,-0.0005210311637774352,-0.0002824501248698341,-6.363263659958064e-05,-3.7506108366721334e-06,0.0003505568525144115,-0.2309686839580536,-51.00766372680664,-7.483719825744629,17.89893341064453,1.8400980234146118,-0.7239487171173096,0.07969819009304047,,,,,,,,,
1739303609.086113,-0.10300077569574917,1.0614835604882396,-0.397668409987607,-1.431202288005127,1.5287028248821637,1.156810946921983,1.3553889217526878,0.00012399646101355228,0.00023815966390754433,0.0009227157190379981,-0.0015181911765377253,-0.00019448278989296354,0.001751718457895901,0.0006196127299475547,-0.2309686839580536,-51.03543472290039,-7.511490821838379,17.89893341064453,1.8263651132583618,-0.7367660999298096,0.10624848306179047,,,,,,,,,
1739303609.0962226,-0.1030012996650794,1.0614820664915905,-0.39766962350911533,-1.4312009670138153,1.5287011207073493,1.1568055140078464,1.3553928780224183,-0.0011437814638231348,-0.0010194554296667022,0.00016401978689716793,0.00022616581663621938,0.0006018217328895948,-0.000685097410646171,0.0005359486757033362,-0.2547723948955536,-50.98386001586914,-7.483719825744629,17.92273712158203,1.8400980234146118,-0.7038071155548096,0.09983979165554047,,,,,,,,,
1739303609.1062396,-0.10300127296292944,1.0614835330159913,-0.3976706601442734,-1.4312013074850796,1.5287003632114489,1.156808652859295,1.3553912166191708,-0.0004154943450017853,-0.0003730829796875449,-0.0005386197299087692,0.0009048520765239799,-0.0010915635828682123,-0.00021828507506088017,0.0012356634231317505,-0.2547723948955536,-51.03543472290039,-7.483719825744629,17.89893341064453,1.8465067148208618,-0.7303574085235596,0.05955658480525017,,,,,,,,,
1739303609.1172125,-0.10300085501411302,1.0614858541740724,-0.3976708876232367,-1.4312020097067844,1.5287016034295675,1.1568078951992162,1.3553959902545738,-0.0003726119334668092,-0.0005954510689683045,-0.0005355285506769503,0.0004378789935886808,1.1459280173771078e-05,1.7662740800503915e-05,0.0018127845421685663,-0.2309686839580536,-51.00766372680664,-7.483719825744629,17.89893341064453,1.8400980234146118,-0.7239487171173096,0.04673920199275017,,,,,,,,,
1739303609.1281378,-0.10300297709914108,1.0614857836323282,-0.39767448571682085,-1.4312031957417302,1.5287017908849465,1.1568062716419054,1.355392395713032,-0.0003357313890101847,0.0016463685229427252,-0.0004928382243784748,-1.3001058889175606e-05,0.00011031286502695992,-0.0004468141944388663,-0.0003748895800000696,-0.2309686839580536,-51.03543472290039,-7.459916114807129,17.92273712158203,1.8327738046646118,-0.7102158069610596,0.08610688149929047,,,,,,,,,
1739303609.1381576,-0.10300075371943103,1.0614837877874228,-0.3976685935834067,-1.4312001154299276,1.5287010819655555,1.1568070293019839,1.3553882102973325,0.000405001460496885,-2.2144982846215015e-05,-7.818728339200622e-06,-0.0005158317040785426,-0.0007511060561268811,-0.00025384966188314964,-0.0008631922191698463,-0.2309686839580536,-51.00766372680664,-7.511490821838379,17.89893341064453,1.8400980234146118,-0.7166244983673096,0.11265717446804047,,,,,,,,,
1739303609.1491292,-0.10300290405968823,1.0614838216497955,-0.39767235103205656,-1.4312016156062446,1.5287053261611514,1.1568070290812595,1.3553913360749765,-0.00018615579069589008,0.0005289362546917486,-0.00022661357477445583,-2.2870873852549867e-05,0.0011100555806605305,-0.0006395960999748742,-0.0005540529887960665,-0.2309686839580536,-51.00766372680664,-7.459916114807129,17.89893341064453,1.8327738046646118,-0.7166244983673096,0.08610688149929047,,,,,,,,,
1739303609.1601448,-0.10300298591486634,1.0614805951692536,-0.3976646260977145,-1.4312033538046096,1.5287021668301626,1.1568070288053505,1.3553918175937856,-0.0003334504373352305,-0.0007396871497635365,0.001939974594529146,-0.0006605265945976109,-0.0008023370750641668,5.9852807930311326e-05,-0.0010285608999261254,-0.2309686839580536,-50.96005630493164,-7.563065528869629,17.92273712158203,1.8400980234146118,-0.7166244983673096,0.07328949868679047,,,,,,,,,
1739303609.1701736,-0.10299619742878029,1.0614803625131248,-0.3976723247857971,-1.431204149849636,1.5287031321432278,1.15680941051937,1.3553937182433764,0.0011240793806384089,-0.00019044864050077158,-0.0003648887680819959,0.0003267989966975764,0.0009262809995476989,0.00036157815568538335,0.0006075225197554716,-0.2825433909893036,-50.96005630493164,-7.459916114807129,17.92273712158203,1.8593240976333618,-0.7367660999298096,0.06596527993679047,,,,,,,,,
1739303609.180222,-0.1029998280511994,1.0614840051658936,-0.3976762134978939,-1.4312009696315462,1.5287020686196684,1.1568078951992162,1.355392093734997,0.0004863308241732777,0.00010896352952877001,-0.0002963700760516587,0.00129522307357521,0.0007253044733103204,-0.0005712819960229606,0.00046796635658241523,-0.2309686839580536,-51.00766372680664,-7.408341407775879,17.92273712158203,1.8327738046646118,-0.7239487171173096,0.07969819009304047,,,,,,,,,
1739303609.1921656,-0.10299756259133327,1.0614803882570296,-0.39767374408010686,-1.4311984118605865,1.5287003630459144,1.1568078951992162,1.3553922289470137,0.0007959957381621662,-0.0004629666569220158,0.0001644697582334861,0.0012047064274571925,-0.0002836334415811429,0.0002068762846803172,-0.0008615754689639821,-0.3063471019268036,-50.96005630493164,-7.483719825744629,17.87512969970703,1.8465067148208618,-0.7239487171173096,0.06596527993679047,,,,,,,,,
1739303609.203203,-0.10300084617294464,1.0614857857284552,-0.3976705771209273,-1.4311995234324861,1.5287034616959159,1.1568078951992162,1.3553952324389438,0.00042564691616090545,0.0001665279600142508,0.00035910789267253876,0.0016542759423059617,0.00030552513642429397,0.00020688493301862602,0.0008731043847998067,-0.2309686839580536,-51.03543472290039,-7.483719825744629,17.87512969970703,1.8199564218521118,-0.7239487171173096,0.05314789339900017,,,,,,,,,
1739303609.2151225,-0.10299914251341558,1.0614837877748968,-0.39767277300245885,-1.4312023640863196,1.5287003779261694,1.1568062716419054,1.3553903494966608,3.6972987561287654e-05,0.0005096490411691897,-0.0003954302404327664,-0.0003849563700570388,-0.000522420544335959,-0.00047685547659276345,-0.0008875418244903829,-0.2547723948955536,-51.00766372680664,-7.483719825744629,17.89893341064453,1.8465067148208618,-0.7102158069610596,0.09343110024929047,,,,,,,,,
1739303609.2251801,-0.1030012733474061,1.0614837878924368,-0.397670580067633,-1.4312023661959465,1.528700461543753,1.1568070291364405,1.3553893897197398,-0.0008346496452564918,0.00024392779573598298,1.802801612794888e-05,-0.0007146185344134034,0.0014099938004233843,-2.5517085394429395e-05,0.0009335724304268843,-0.2547723948955536,-51.00766372680664,-7.483719825744629,17.89893341064453,1.8465067148208618,-0.7166244983673096,0.09983979165554047,,,,,,,,,
1739303609.2372165,-0.10300024731471896,1.0614858622577323,-0.3976723511395367,-1.4312048993839672,1.5287012013808163,1.1568078953607208,1.355392845433681,-0.0004024219868669237,0.00043978371517848524,-0.001349506858803556,-0.000806649775758264,-0.0002088581476620334,0.0003877498247789744,0.0011273199657538483,-0.2547723948955536,-51.03543472290039,-7.459916114807129,17.94654083251953,1.8400980234146118,-0.7239487171173096,0.07328949868679047,,,,,,,,,
1739303609.247231,-0.10300124708274086,1.0614853500997345,-0.3976684972051384,-1.431201973338498,1.528706718145552,1.1568078951992171,1.355393717237077,-0.00014296656710000719,0.0009835982092172735,0.0011245824563999726,0.0001468371223391575,0.0024371831200538695,-0.0003367452800070001,0.0014195046001210707,-0.2547723948955536,-51.03543472290039,-7.511490821838379,17.92273712158203,1.8199564218521118,-0.7239487171173096,0.06596527993679047,,,,,,,,,
1739303609.2582076,-0.10299714166547037,1.0614820847123445,-0.3976687247756376,-1.431200221397612,1.5287041863163355,1.156809410519373,1.355387881810383,0.0011725438738141858,-0.0010683404654777272,-0.00011882630942758755,0.0008149933160031114,0.0011698310373195605,0.00044602661904828873,-0.002166826055628481,-0.2825433909893036,-50.98386001586914,-7.511490821838379,17.89893341064453,1.8400980234146118,-0.7367660999298096,0.10624848306179047,,,,,,,,,
1739303609.2692082,-0.10299856482916181,1.0614837877875116,-0.39767243268598224,-1.4312034345862794,1.5287021666249148,1.1568078951992162,1.3553891885543856,0.0009927029492415597,4.306823375218704e-05,-0.001279266700959875,-0.0002892730064533018,0.0004410255608366898,0.00019871062271031563,-0.000570695100549898,-0.2825433909893036,-51.00766372680664,-7.459916114807129,17.92273712158203,1.8400980234146118,-0.7239487171173096,0.07969819009304047,,,,,,,,,
1739303609.2801251,-0.10300298623701873,1.0614837606302945,-0.3976725872429243,-1.4312040434502138,1.528702308424691,1.1568078951992162,1.3553869691855944,-0.0007484537961818276,-6.076778000503892e-06,-0.0006780073130247476,-0.0003411183408443555,0.001075492146623172,0.00018695924357027392,-0.0014128322281929057,-0.2309686839580536,-51.00766372680664,-7.459916114807129,17.92273712158203,1.8327738046646118,-0.7239487171173096,0.11998139321804047,,,,,,,,,
1739303609.2911034,-0.10299927502163692,1.061482075266267,-0.39767056835844494,-1.4312012093565187,1.528701080484431,1.1568070114233158,1.3553908118513853,-0.0005613274486098785,-0.0002387650838533605,-7.143359394652324e-05,0.0008062561824947636,-0.0006791036495826025,-0.0009129368453031032,-0.0015859389927622572,-0.2825433909893036,-50.98386001586914,-7.483719825744629,17.92273712158203,1.8400980234146118,-0.7166244983673096,0.12639008462429047,,,,,,,,,
1739303609.3012195,-0.10300203853989441,1.0614865052185072,-0.3976705592818686,-1.431204070328332,1.5286971439038333,1.156808442152722,1.3553897125415166,0.00041165556585119893,0.00103940719732271,0.0010336483814740532,-0.0006139873882684266,-0.0017821170206589294,0.0003671997949747279,-0.0007139476062208188,-0.2309686839580536,-51.05923843383789,-7.483719825744629,17.92273712158203,1.8465067148208618,-0.7166244983673096,0.09983979165554047,,,,,,,,,
1739303609.312136,-0.10300021234164611,1.0614857856096516,-0.39766850022927863,-1.4312020463417834,1.5287010785222876,1.1568078971452587,1.35539204898313,0.0011475093237629042,0.00019939706097199473,-0.0004001287901449143,0.0003447599542620827,-0.0004937989705758931,0.000617757341724174,-0.0007590840809358439,-0.2547723948955536,-51.03543472290039,-7.511490821838379,17.89893341064453,1.8400980234146118,-0.7239487171173096,0.07969819009304047,,,,,,,,,
1739303609.3242002,-0.10299680114832413,1.0614838983649466,-0.39767056835451053,-1.4312004775533211,1.5287019464307021,1.156807895199227,1.3553913404353006,0.00246460136668485,0.001165777903906989,-0.0002978637151414188,0.0016856882722852654,-0.0001663595232094894,-0.0003090878835670571,-3.913634098279143e-05,-0.2825433909893036,-51.00766372680664,-7.483719825744629,17.87512969970703,1.8327738046646118,-0.7239487171173096,0.08610688149929047,,,,,,,,,
1739303609.3342447,-0.10300223909416097,1.0614819928510524,-0.3976705682104355,-1.4311999820095693,1.5287010809749297,1.156808088940113,1.3553936636563122,0.0004578972016543565,-0.0008032119498808936,-0.0008881562941518721,0.001393802664426589,0.000793165139819807,0.0005184054783747057,0.000426409625204687,-0.2309686839580536,-50.98386001586914,-7.483719825744629,17.89893341064453,1.8400980234146118,-0.7166244983673096,0.06596527993679047,729,741,715,39.002,0,0
1739303609.3451943,-0.10299816905842925,1.0614855384789492,-0.39767056835444387,-1.4312041115396164,1.5287012026492008,1.1568055139878088,1.3553951928700996,0.000582994034027538,-0.00043114901224077147,0.0008208522805951131,-0.0008070670829677799,0.0013268256085335814,-0.00033587593881236944,-0.0012000913280886347,-0.2547723948955536,-51.03543472290039,-7.483719825744629,17.92273712158203,1.8400980234146118,-0.7038071155548096,0.05314789339900017,731,741,715,39.219,0,0
1739303609.3561122,-0.1030011940972067,1.0614857970618161,-0.39767056835444464,-1.4311977347051692,1.5287011207073717,1.1568086528592945,1.3553944734622483,-0.00016382545448568377,0.001514256654890965,0.00027392408595546653,0.000635455595601258,0.0004771971003636067,6.145710558142024e-05,0.001699952964005165,-0.2547723948955536,-51.03543472290039,-7.483719825744629,17.87512969970703,1.8400980234146118,-0.7303574085235596,0.05955658480525017,731,742,715,39.002,0,0
1739303609.3661177,-0.10300126949774216,1.0614858623627743,-0.3976705392908126,-1.4312037827142476,1.5287027040358374,1.1568086528592945,1.3553889548575053,0.0002933118213645639,-5.4764589022682605e-05,0.0005747258224093114,-0.0010918259820239834,0.0023612714952303167,0.00022209676590771455,-0.0014898480135302882,-0.2547723948955536,-51.03543472290039,-7.511490821838379,17.94654083251953,1.8263651132583618,-0.7303574085235596,0.10624848306179047,732,740,714,39.111,1,0
1739303609.3772185,-0.10299903340411995,1.0614820749288632,-0.3976675437553197,-1.431202366704638,1.5287019463755323,1.1568062716419054,1.355388197197435,0.0013929888086604651,-0.001148986094812132,0.00217863559531134,-0.000610355677813669,0.000499725807939665,-0.0007294732327644669,-0.0013981564578403115,-0.2547723948955536,-50.98386001586914,-7.511490821838379,17.89893341064453,1.8327738046646118,-0.7102158069610596,0.11265717446804047,731,742,714,39.111,1,0
1739303609.3881297,-0.10300203005537706,1.0614819654007592,-0.39767056835266684,-1.431203433617245,1.528701946357587,1.156807030755534,1.3553933888053342,0.00017098231752635826,-0.0014948737104145886,0.0003789663833688291,-0.00032082900803738875,6.729072192993181e-05,-0.0002244674099807991,0.0006962112981519754,-0.2309686839580536,-50.98386001586914,-7.483719825744629,17.92273712158203,1.8327738046646118,-0.7166244983673096,0.05955658480525017,731,742,714,39.002,0,0
1739303609.3981335,-0.10300297377503337,1.061482071901192,-0.3976684885645891,-1.431202367164981,1.5287023084185594,1.156807382514718,1.3553944749344164,-0.00032474530327990844,-0.0015155757394948498,0.0002531070814184417,8.890955553677313e-06,0.0005459161995079728,1.1752923093076104e-05,0.0003803572859602598,-0.2309686839580536,-50.96005630493164,-7.511490821838379,17.89893341064453,1.8327738046646118,-0.7166244983673096,0.05955658480525017,731,741,715,39.002,0,0
1739303609.4081914,-0.10300127047231708,1.0614781273600171,-0.39767056835444464,-1.4312055221714,1.5286989876991255,1.1568070293079655,1.3553913226659013,-0.00020422649098764378,-0.0012578589829171866,-4.8107725115073595e-05,-0.0006912890388451037,-0.00010519718617021105,-1.056475716717518e-05,-0.00013939300174320454,-0.2547723948955536,-50.96005630493164,-7.483719825744629,17.97431182861328,1.8400980234146118,-0.7166244983673096,0.08610688149929047,731,742,715,39.111,0,0
1739303609.4201562,-0.10300398767916046,1.061483787624101,-0.39767061446358615,-1.431201968424541,1.5287006804887844,1.1568070293019839,1.355389005198728,-0.0007551518354037794,-0.00015284053021630799,0.00020587599518436276,-0.0004937759604088865,-3.1492377768982914e-05,-0.00042473481313423244,-0.0010158864684599784,-0.2071649730205536,-51.00766372680664,-7.511490821838379,17.92273712158203,1.8465067148208618,-0.7166244983673096,0.10624848306179047,729,742,715,39.111,0,0
1739303609.430156,-0.10300469735037941,1.0614837602023037,-0.3976723773251334,-1.4312076943809124,1.5287010819702078,1.1568073825146936,1.3553937172925759,-0.0014579525701184284,-2.3253580444799527e-05,-0.0016937398626785314,-0.0015204851956610067,-0.00011538913375221173,-5.2962136255993995e-05,0.0007661763204185571,-0.2071649730205536,-51.00766372680664,-7.459916114807129,17.97431182861328,1.8400980234146118,-0.7166244983673096,0.06596527993679047,730,742,715,39.002,0,0
1739303609.4411297,-0.1030045931007653,1.0614820711966306,-0.39767227618285916,-1.4312029930807104,1.528703407795146,1.156811079929799,1.355388071728099,-0.001450368746502596,-0.0018501384103406099,-3.7180139612419e-05,-0.0008142595987669811,0.0014689118664733458,0.00018769269190153367,-0.0013396446100223322,-0.2071649730205536,-50.98386001586914,-7.459916114807129,17.92273712158203,1.8327738046646118,-0.7239487171173096,0.08610688149929047,732,744,714,39.111,1,0
1739303609.4511824,-0.10300084617116269,1.0614819925111976,-0.39766848888734213,-1.431202371340515,1.5286995251459716,1.156808532232219,1.35539371674038,0.00015930765510129949,-0.0006832520291085262,0.0010059887369726643,-0.0004051468583537662,0.0005365119560212523,0.0002109269928138673,0.00045247932310603627,-0.2309686839580536,-50.98386001586914,-7.511490821838379,17.89893341064453,1.8263651132583618,-0.7303574085235596,0.06596527993679047,731,743,714,39.111,1,0
1739303609.4622262,-0.10300127204824554,1.0614835342754163,-0.39767056835444653,-1.4312038319627143,1.5287052067313536,1.1568078951985352,1.3553872910731966,-0.0005971777282146586,-0.0001639118781320298,9.185522049189203e-05,5.61587135220024e-05,0.000679702419966823,0.0004902557295171846,-0.0018211226096729479,-0.2547723948955536,-51.03543472290039,-7.483719825744629,17.92273712158203,1.8327738046646118,-0.7239487171173096,0.11998139321804047,728,743,714,39.111,1,0
1739303609.473173,-0.10300266730937171,1.0614844850173828,-0.39766741743675427,-1.4312013339155347,1.5287019464307465,1.1568062716419054,1.3553904832589412,-0.00036438921834958045,0.0008530796637647482,0.0012990387052346354,0.00042984979233095665,-0.0005964193444839768,-6.14312866655223e-05,-0.0011832308539803174,-0.2309686839580536,-51.00766372680664,-7.535294532775879,17.89893341064453,1.8327738046646118,-0.7102158069610596,0.09343110024929047,730,743,714,39.002,0,0
1739303609.4831824,-0.10300123831414137,1.0614798468729536,-0.39767056836649484,-1.4312038230058584,1.5287026647897546,1.1568078549722132,1.3553904700123485,-0.0006166284924501929,-0.000958088233394399,-0.0004098175073389429,-0.0008019102718234025,0.00026827996193577833,-0.000830677567636247,-0.00036781216457466067,-0.2547723948955536,-50.98386001586914,-7.483719825744629,17.92273712158203,1.8263651132583618,-0.7239487171173096,0.09343110024929047,731,743,714,39.111,1,0
1739303609.493203,-0.10300227559128458,1.0614857857157318,-0.39767056835444475,-1.431203431653108,1.5287010804780783,1.1568068799858076,1.35539209373498,-0.0006346596705597638,0.0013097048933551317,-0.0002079875993550224,-0.00038905220063503265,-1.162849462047952e-05,-0.00015771835843264462,-0.0010294134376300618,-0.2309686839580536,-51.03543472290039,-7.483719825744629,17.92273712158203,1.8400980234146118,-0.7166244983673096,0.07969819009304047,730,743,714,38.893,1,0
1739303609.505143,-0.10300298591224279,1.061481482814772,-0.3976667058875701,-1.431201999831229,1.5286968419257825,1.1568051855119799,1.3553949041438846,2.485071046002082e-05,0.00047109824704594304,0.0007139604795134429,0.0007833383293283007,-0.0008417586107819033,-0.0008238800301485921,0.0005861708707867808,-0.2309686839580536,-51.00766372680664,-7.535294532775879,17.92273712158203,1.8400980234146118,-0.7102158069610596,0.04673920199275017,730,744,709,38.893,0,0
1739303609.5161488,-0.10299927545466832,1.0614837877705594,-0.3976667058875701,-1.4312001331672777,1.5287027040096897,1.1568070292999402,1.355387291071156,0.0010538647996185479,-0.0004805663755105827,0.0006577110242392921,0.0005226538047808687,0.0009804008017568948,3.074157586517294e-05,-0.0023748345028800394,-0.2825433909893036,-51.00766372680664,-7.535294532775879,17.89893341064453,1.8263651132583618,-0.7166244983673096,0.11998139321804047,731,742,713,39.002,0,0
1739303609.5271246,-0.10300195106645435,1.061483787787458,-0.3976708833024442,-1.4312034244472682,1.5287006512872254,1.1568070158929828,1.3553928048731492,0.00013506388332082853,0.0006217628814006861,-0.000609464448567141,0.0002338632161178737,-0.00013263060567647605,0.0001529869207326604,0.000172484022019953,-0.2309686839580536,-51.00766372680664,-7.483719825744629,17.92273712158203,1.8529154062271118,-0.7166244983673096,0.07328949868679047,729,743,714,39.111,1,0
1739303609.5381715,-0.10299682877897376,1.0614837877874583,-0.39766670589290376,-1.4312016519090884,1.5287008100303188,1.1568070293017567,1.355389712516804,0.0014239090225982786,-0.0004370883981153114,0.0002839828049006804,2.5229236106300403e-05,0.0002913722080207228,-4.4251601850053376e-05,2.757849040539045e-05,-0.2825433909893036,-51.00766372680664,-7.535294532775879,17.89893341064453,1.8465067148208618,-0.7166244983673096,0.09983979165554047,730,743,714,39.219,1,0
1739303609.5492165,-0.1030010336597302,1.061482075266727,-0.3976684885285869,-1.4312022612092599,1.5287017893948558,1.1568078907295491,1.355388197197435,0.00015445103174157492,-0.0002700731211125702,0.0003569956819951751,-0.00048533205940862347,-0.00043789684193193374,-0.00040293130110955817,-0.0011695791778787317,-0.2547723948955536,-50.98386001586914,-7.511490821838379,17.89893341064453,1.8327738046646118,-0.7239487171173096,0.11265717446804047,730,743,714,39.111,1,0
1739303609.560225,-0.10300458136021033,1.061482074249242,-0.3976684210603025,-1.431202394600559,1.5287017139171108,1.1568078951992078,1.3553904298770925,-0.0009257742020138542,0.0002076207722440236,0.0006606235744460739,9.857367154568442e-05,0.00028523056901442686,-0.0006391780952093417,-0.000833139676295561,-0.2071649730205536,-50.98386001586914,-7.511490821838379,17.89893341064453,1.8327738046646118,-0.7239487171173096,0.09343110024929047,731,745,715,39.002,0,0
1739303609.5711646,-0.10299911189145305,1.0614858107858967,-0.39766848888822864,-1.4312059325313036,1.5287014118644682,1.1568070293019839,1.3553865718676865,0.0007335344537979337,0.0014248986699053664,0.0011265338043262834,-0.0005544397733871136,0.0006887050326114868,-0.0002750643177865025,-0.0013945333379051694,-0.2547723948955536,-51.03543472290039,-7.511490821838379,17.94654083251953,1.8263651132583618,-0.7166244983673096,0.09983979165554047,731,744,714,39.002,1,0
1739303609.5821478,-0.10299924025822299,1.0614857765710861,-0.39766848856459097,-1.4312041234762303,1.528703017477301,1.1568081701352577,1.355394133057076,0.0012946808435557928,0.0006932156952782307,0.0005096200456228917,-0.0003313700188357062,0.0022526516884159684,-0.00025412660272714285,0.0032877134020274775,-0.2825433909893036,-51.03543472290039,-7.511490821838379,17.92273712158203,1.8327738046646118,-0.7303574085235596,0.05314789339900017,730,742,715,39.219,1,0
1739303609.5931666,-0.10300060616207703,1.061485675839861,-0.39767061446358615,-1.4312041498539807,1.5286995651641895,1.156807029299259,1.355390458898837,-0.0010286499241718735,-0.00027892685088659966,-0.00020284519295572198,-0.0007162256987185505,-0.0009027770613108848,-0.0002539976452147403,0.0004429033443261411,-0.2309686839580536,-51.03543472290039,-7.511490821838379,17.92273712158203,1.8529154062271118,-0.7166244983673096,0.06596527993679047,731,743,714,39.002,0,0
1739303609.6031754,-0.1030022375076819,1.0614837877818752,-0.39766848867259597,-1.431204132520543,1.528700886737403,1.156807895199216,1.3553920935694375,-0.0009681338943929741,-0.0004107540585009342,0.0013308736932775298,-0.0005200692242265704,-0.00026266542448148743,-0.00025370955649829294,0.0008342849411356653,-0.2309686839580536,-51.00766372680664,-7.511490821838379,17.92273712158203,1.8327738046646118,-0.7239487171173096,0.07969819009304047,728,743,715,39.111,0,0
1739303609.613212,-0.10300216159030862,1.0614857861482256,-0.3976695164994684,-1.4312059324947122,1.5287019507853823,1.1568070293019839,1.3553928364961685,-0.0008702267253696719,0.0005439384330064115,0.0008445454368204658,-0.0008564151765609713,0.00018220154467736864,-1.219759647794377e-05,0.001157504826140163,-0.2309686839580536,-51.03543472290039,-7.459916114807129,17.94654083251953,1.8327738046646118,-0.7166244983673096,0.07328949868679047,729,743,715,39.002,1,0
1739303609.6241727,-0.10300266633040828,1.0614836687416955,-0.39767060333266585,-1.4312041497087744,1.5287019463755571,1.1568078951992162,1.3553931914234283,-0.0008224919113633045,-0.00038836066825114846,0.0004736167843076606,-0.0010005827101835709,-0.0004101646534156645,4.759655187141191e-05,0.00037841445397983624,-0.2309686839580536,-51.00766372680664,-7.483719825744629,17.92273712158203,1.8327738046646118,-0.7239487171173096,0.10624848306179047,730,743,715,39.002,1,0
1739303609.6351748,-0.10299811525601313,1.0614843605421318,-0.39766670588776754,-1.4312023793869317,1.5287010804783,1.1568078937093271,1.3553917312730743,9.873833925075451e-05,-0.0006712180732054616,0.0005718813220994783,0.0002855930234504329,-0.00012604247478664594,0.0006393924005106257,-9.476225239319876e-05,-0.2547723948955536,-51.05923843383789,-7.535294532775879,17.89893341064453,1.8400980234146118,-0.7239487171173096,0.07969819009304047,732,742,714,39.111,0,0
1739303609.6461961,-0.10300289431113227,1.0614837877697458,-0.397670646767424,-1.4312005845001605,1.5287043330513466,1.156808652859286,1.3553937171247024,0.00012407713026382848,0.00020354566825715872,-6.195220971557606e-05,0.0008000610093168841,0.0004895889430736504,0.0005147876368707487,-0.0006328599041607319,-0.2309686839580536,-51.00766372680664,-7.483719825744629,17.87512969970703,1.8400980234146118,-0.7303574085235596,0.06596527993679047,732,742,715,39.002,2,0
1739303609.6580408,-0.10299895847118132,1.061483787787458,-0.39767056846289417,-1.4312023671771106,1.5286992521030192,1.1568070273154651,1.3553856964702649,0.001034609453031327,2.6732524419991605e-05,-0.00015037695324658,0.0007965692805871447,0.00015863192446723042,-0.00017621739770396028,-0.0019783133660126683,-0.2825433909893036,-51.00766372680664,-7.483719825744629,17.89893341064453,1.8465067148208618,-0.7166244983673096,0.10624848306179047,731,741,716,39.111,1,0
1739303609.6681194,-0.10299702669254741,1.0614837878224512,-0.39767458482931306,-1.4312002184301205,1.528700923488829,1.1568086528592831,1.3553911617394958,0.0010749364033046688,-0.0001522826839797703,-0.0010840953590953927,0.0009493339942130915,2.839974338080431e-05,0.00031154543291071366,-0.0010040735431487721,-0.2825433909893036,-51.00766372680664,-7.459916114807129,17.89893341064453,1.8400980234146118,-0.7303574085235596,0.08610688149929047,731,742,715,39.002,1,0
1739303609.6781602,-0.10300216646420131,1.0614820752667276,-0.39767069962060736,-1.4312020040505284,1.5287019420122228,1.1568070336626346,1.3553865736371722,0.0004167366216788654,-0.0009820824056486705,0.0003986160823372471,-0.0006271399707321317,-5.312425301687876e-05,0.00028692833257884477,-0.002520090871927441,-0.2309686839580536,-50.98386001586914,-7.483719825744629,17.92273712158203,1.8327738046646118,-0.7166244983673096,0.12639008462429047,732,742,716,39.111,1,0
1739303609.6882415,-0.10299903728764007,1.0614857857283113,-0.3976745910959333,-1.4311994972875042,1.5287006512871517,1.1568068090702073,1.3553944880347626,0.0017662452001925679,0.0012208727057375834,-0.000526383689809526,0.0014649611826577488,-0.0001799157807610843,-0.00014486882970315236,-0.000929962219194687,-0.2547723948955536,-51.03543472290039,-7.459916114807129,17.89893341064453,1.8529154062271118,-0.7239487171173096,0.05955658480525017,731,743,714,39.002,1,0
1739303609.6992204,-0.10300127305812087,1.0614857866731189,-0.3976684890452641,-1.4312006241658126,1.5287010799999141,1.156807895193085,1.3553945416043014,9.05150777895034e-05,-0.00022185913964021208,0.0006005142902850496,0.001379416234511387,-0.0007154320491296284,0.0006872768948819127,4.828600717230716e-05,-0.2547723948955536,-51.03543472290039,-7.511490821838379,17.87512969970703,1.8400980234146118,-0.7239487171173096,0.04673920199275017,731,742,715,39.002,0,0
1739303609.710181,-0.10299919653370158,1.0614837757795235,-0.39767340288644343,-1.4312041377535478,1.5287031079984597,1.1568070293019839,1.3553933145174537,0.0005500655420249943,-0.0001056278153484406,-0.000990890554581474,0.00038047643480722607,-0.0010251827179984772,0.0002697577056894965,-0.00012038054690569259,-0.2825433909893036,-51.00766372680664,-7.483719825744629,17.92273712158203,1.8199564218521118,-0.7166244983673096,0.06596527993679047,732,742,715,39.111,0,0
1739303609.7211494,-0.10300127335898948,1.0614878520225957,-0.3976723513714853,-1.4312041498540613,1.5286995646716297,1.1568078951992162,1.3553959902706936,0.0003193388026924265,0.001571676706657513,-0.0005793226865781259,-8.488270194228088e-05,-0.0010802574258828022,0.00013109139236507184,0.0016682856934786777,-0.2547723948955536,-51.03543472290039,-7.459916114807129,17.92273712158203,1.8529154062271118,-0.7239487171173096,0.04673920199275017,731,742,715,39.111,0,0
1739303609.7321067,-0.10300224300981818,1.0614881870254909,-0.3976685235588132,-1.4312023583467928,1.528702208767066,1.1568070293019839,1.3553925646852607,-0.0008179370896338206,0.0017114592353657068,0.0014430305399022749,7.492909957716233e-05,0.0008036137837712713,7.296079424017201e-05,0.00037062415603366814,-0.2071649730205536,-51.05923843383789,-7.511490821838379,17.89893341064453,1.8400980234146118,-0.7166244983673096,0.07969819009304047,730,742,715,39.111,1,0
1739303609.7421489,-0.10299979969782987,1.0614871770987802,-0.39766986091011375,-1.431202367176961,1.528699565015745,1.1568074124751795,1.355392564693236,-0.0006019158085720762,0.0008383504740868819,-0.0002547897868521471,-0.0008898930146361099,-0.001600796391459335,-0.0004075858173732792,0.0009307355934939229,-0.2309686839580536,-51.05923843383789,-7.483719825744629,17.89893341064453,1.8529154062271118,-0.7239487171173096,0.07969819009304047,731,742,714,39.002,1,0
1739303609.7541068,-0.1030003165465416,1.0614857730644607,-0.39767080164526564,-1.4312037898163923,1.528699863856743,1.1568059431701763,1.3553941464864647,0.0014227837975965122,-0.00014033248275366643,-7.568081002541112e-05,-0.0013975734057020154,-0.0009746945118627208,-0.0009449149101090298,0.001554416881883805,-0.2547723948955536,-51.03543472290039,-7.483719825744629,17.94654083251953,1.8400980234146118,-0.7166244983673096,0.05314789339900017,732,741,715,39.002,0,0
1739303609.7641459,-0.10300298461174062,1.0614837877873868,-0.3976703320007528,-1.4312059325190531,1.5287027040287424,1.1568075667240807,1.3553937128164935,-0.0006709371810409094,-0.0010748769256776274,0.0008412216104047813,-0.0006429605546084839,0.0009988503428055994,-0.00010827272784373474,0.0007917349201051486,-0.2309686839580536,-51.00766372680664,-7.483719825744629,17.94654083251953,1.8263651132583618,-0.7303574085235596,0.06596527993679047,733,741,715,39.111,2,0
1739303609.774169,-0.10300642356460295,1.0614835604882396,-0.3976685672975863,-1.4312022877042507,1.5287003228182212,1.1568078951808225,1.3553944704830676,-0.002045934291664532,0.00024623617878919703,0.0008804378044490375,0.0008146716547362783,-0.00035497744277892564,0.0006500587047584024,0.0017842557852014562,-0.1793939769268036,-51.03543472290039,-7.511490821838379,17.89893341064453,1.8465067148208618,-0.7239487171173096,0.05955658480525017,731,745,720,39.219,1,0
1739303609.7842057,-0.10299906035610938,1.0614819936444972,-0.39766919719892146,-1.4312042322690828,1.5287010804782997,1.1568054603458227,1.3553935966112067,0.0010532939092095929,-0.001204359268255023,-0.00022560944487453726,-8.756255908337851e-06,0.00030176499331571803,-0.001307751778410931,0.0008650067960285261,-0.2547723948955536,-50.98386001586914,-7.511490821838379,17.92273712158203,1.8400980234146118,-0.7038071155548096,0.06596527993679047,731,746,715,39.002,1,0
1739303609.796114,-0.10300266910122204,1.0614857860427864,-0.39767439714121106,-1.43120388407697,1.5286995649966375,1.1568062716416025,1.3553931932438066,-0.0012563630545438058,0.0005296362872962443,-0.0016460128206197658,-0.0006509207027422884,-0.0005892310055620397,0.0005781025010136753,0.00036502143191196733,-0.2309686839580536,-51.03543472290039,-7.436112403869629,17.92273712158203,1.8529154062271118,-0.7102158069610596,0.10624848306179047,731,742,715,39.111,0,0
1739303609.8062015,-0.10300253704004711,1.061483796605665,-0.39767057710448733,-1.4312005580076381,1.5287052454864116,1.1568086394502934,1.3553904700360528,-0.0010927676224353404,-0.0008059320557653872,-0.0011785697889945199,0.00033313535564409916,0.0017779244136559742,0.0006720260668322468,-0.0006586904329481787,-0.2071649730205536,-51.00766372680664,-7.483719825744629,17.87512969970703,1.8327738046646118,-0.7303574085235596,0.09343110024929047,731,742,715,39.002,1,0
1739303609.8171067,-0.10300295959706315,1.061483456870644,-0.39767340288649006,-1.431204146765186,1.5287003142245597,1.1568086528592187,1.3553881971974344,-0.0010937791503578755,-0.0011668326315003783,-0.0006970547562622818,-0.0002037909752730743,-0.0005928020369509083,0.00012183066177498731,-0.0009989770469380258,-0.2309686839580536,-51.00766372680664,-7.483719825744629,17.92273712158203,1.8465067148208618,-0.7303574085235596,0.11265717446804047,729,743,716,39.002,1,0
1739303609.827173,-0.1030022392520284,1.0614830460351636,-0.39766670593557313,-1.4312023946491579,1.5287027442624679,1.1568078951992162,1.355391763279458,-0.00034628222893730797,-0.0004249531797056934,0.0016821116845641085,0.00045677696757982463,5.111820941327747e-05,0.0004377245023928839,-0.0017678724490394152,-0.2309686839580536,-51.00766372680664,-7.535294532775879,17.89893341064453,1.8263651132583618,-0.7239487171173096,0.07328949868679047,732,739,715,39.111,1,0
1739303609.8372016,-0.10300363726755242,1.0614875068447285,-0.3976705683544455,-1.4312020132447496,1.5287027040362917,1.1568086528592945,1.3553959500275368,-0.0017748091490457493,0.000614220615412409,9.923111018955965e-05,0.0005215851981618868,0.000813299925695967,0.00022677735627030948,0.0004852176377112871,-0.2071649730205536,-51.05923843383789,-7.483719825744629,17.92273712158203,1.8263651132583618,-0.7303574085235596,0.04673920199275017,732,742,716,39.002,0,0
1739303609.8472369,-0.1030009270563343,1.0614857582563573,-0.397670569650527,-1.431205919413013,1.5286979015639117,1.1568086394502934,1.355394474952129,-0.0004146005574000613,0.0004466222581545874,5.948449703060938e-05,0.00026285430569748813,-0.00041519260238800535,0.0008055330879759796,0.0014210367809924167,-0.2547723948955536,-51.03543472290039,-7.483719825744629,17.94654083251953,1.8400980234146118,-0.7303574085235596,0.05955658480525017,732,741,715,39.002,1,0
1739303609.8581858,-0.10300056209446343,1.061483890246445,-0.3976684885645964,-1.431202127777311,1.528702528632465,1.1568094105192972,1.355388197197435,5.685984451430241e-05,-0.0002164968443531043,0.0012853900498788534,-0.0008427884419380208,0.00048132043886407695,0.0006631047204060704,-0.0013235264472863236,-0.2547723948955536,-51.00766372680664,-7.511490821838379,17.89893341064453,1.8400980234146118,-0.7367660999298096,0.11265717446804047,734,742,715,39.002,1,0
1739303609.869166,-0.10300195993969433,1.0614827630146044,-0.39766848856458914,-1.4312058972085262,1.5286995701326147,1.1568078951992162,1.355393717554275,1.4116056602371768e-06,-0.0002872257099127665,0.0014272717041391729,-0.0010952488525555234,-0.000241419176695134,0.0008474628705389591,1.2706718712953e-05,-0.2309686839580536,-50.98386001586914,-7.511490821838379,17.94654083251953,1.8529154062271118,-0.7239487171173096,0.09343110024929047,731,742,715,39.111,1,0
1739303609.8801405,-0.10300263114502638,1.0614821239887684,-0.3976705683544447,-1.4312041498539303,1.5287010804783279,1.1568078937093271,1.3553947501225243,-0.0008608206279863674,-0.0010360906415655736,0.00036094388915245714,-0.00014579419229686092,-2.777902008600917e-05,-0.0001453835447639777,0.0008072199075892262,-0.2309686839580536,-50.98386001586914,-7.483719825744629,17.92273712158203,1.8400980234146118,-0.7239487171173096,0.05314789339900017,732,741,715,39.111,0,0
1739303609.891139,-0.10299816494679237,1.0614820751539482,-0.39766844245544775,-1.431206921526736,1.5286995651581432,1.1568078951992078,1.3553857633948647,-0.0001439207390847779,-0.000948989026204119,0.0012951507255689427,-0.0011277817033400962,-0.0005238142357192849,0.00037981725375216583,-0.0027494901504377597,-0.2547723948955536,-50.98386001586914,-7.483719825744629,17.94654083251953,1.8529154062271118,-0.7239487171173096,0.09343110024929047,730,743,716,39.111,2,0
1739303609.90117,-0.10300158106036028,1.0614838643168767,-0.3976663363839233,-1.4312033561894466,1.5287010803167942,1.1568070293019839,1.3553945360615913,0.0004032213178923414,0.0004980972411423786,0.0008065913518687887,-0.0004506599083996929,-0.0007252383411428054,0.00036454857353988965,-0.0005480096329678382,-0.2071649730205536,-51.00766372680664,-7.511490821838379,17.89893341064453,1.8400980234146118,-0.7166244983673096,0.04673920199275017,732,742,713,39.111,0,0
1739303609.9121468,-0.1030008199566198,1.061483044684553,-0.39767088325429284,-1.4312059295932926,1.5287019597845322,1.1568062716419054,1.3553937172840826,-0.00024812491700290954,-0.00012786513292295417,-0.00020126936690229984,-0.0011621733198970753,-0.0005675527775003645,0.00011738887817832016,-9.694295307385452e-05,-0.2309686839580536,-51.00766372680664,-7.483719825744629,17.94654083251953,1.8327738046646118,-0.7102158069610596,0.06596527993679047,732,743,715,39.002,0,0
