IITGN-Robotics/Franka_IITGN_ROBOTICS/franka_ros/franka_iitgn/data01/os_004.csv
time,fr3_joint1_pos,fr3_joint2_pos,fr3_joint3_pos,fr3_joint4_pos,fr3_joint5_pos,fr3_joint6_pos,fr3_joint7_pos,fr3_joint1_vel,fr3_joint2_vel,fr3_joint3_vel,fr3_joint4_vel,fr3_joint5_vel,fr3_joint6_vel,fr3_joint7_vel,fr3_joint1_eff,fr3_joint2_eff,fr3_joint3_eff,fr3_joint4_eff,fr3_joint5_eff,fr3_joint6_eff,fr3_joint7_eff,flexpin1,flexpin2,flexpin3,Force,ContactMic,ContactMic_gt
1739303251.3659503,-0.1086776812021455,1.0622052549403758,-0.3901735697681317,-1.4233432794228442,1.5172936556581569,1.1599936323488642,1.360451603882682,-0.0008082639770463138,0.0005061078398092669,0.00010258333782134516,-0.0005176169292871635,-0.000799085655970043,0.00011991268247283266,-0.0008852464743526504,-0.5562860369682312,-51.08700942993164,-7.483719825744629,18.14490509033203,1.9051004648208618,-0.5857040882110596,0.10624848306179047,,,,,,,,,
1739303251.3760204,-0.10867596868007148,1.0622069412852373,-0.39017684910786243,-1.423343563463925,1.5172911053938025,1.1599928745093364,1.3604526880959054,0.000511802581742206,-0.0004653009219034919,-0.0008216788037749686,-0.0009430442387033462,-0.00018762818587407862,-0.0004412007749241164,-0.002631093910648226,-0.5800897479057312,-51.11081314086914,-7.436112403869629,18.12110137939453,1.9316507577896118,-0.5792953968048096,0.13279877603054047,,,,,,,,,
1739303251.3870335,-0.10867665276634218,1.062207702597861,-0.39017498882171736,-1.4233457413688022,1.5173001885833273,1.1599657859943284,1.3604608756455998,-0.0012374521010241912,-6.784131300514382e-05,0.0003352081571284965,-0.00070572379334482,0.0009134172949197935,-0.006813943911754699,0.00034864269901253766,-0.4571039378643036,-51.08700942993164,-7.408341407775879,18.02191925048828,1.8135477304458618,-0.6909897327423096,0.05955658480525017,,,,,,,,,
1739303251.3980484,-0.10867341689538239,1.0622051231943255,-0.3901692904373614,-1.4233599184730423,1.517299582716813,1.1598984747642147,1.3604519727967619,0.0015377810149732251,0.0016238499415820117,0.0007919872270869436,-0.0006814573142508411,-0.0007395675990349195,-0.004476863405761318,-0.0008742598782117304,-0.3539545238018036,-51.00766372680664,-7.408341407775879,17.94654083251953,1.7677713632583618,-0.7697250843048096,0.09983979165554047,,,,,,,,,
1739303251.408949,-0.10867161598369367,1.0622032893561508,-0.390166389704697,-1.4233725961544577,1.517296700653105,1.1598619350249364,1.3604512287994355,0.00025656104830205933,-0.0016829647865085973,0.0008440144911658384,-0.0007470501612243381,-0.0003217354581945983,-0.002234654226368051,0.0017760899012706699,-0.3301508128643036,-50.98386001586914,-7.408341407775879,17.97431182861328,1.7613626718521118,-0.7633163928985596,0.06596527993679047,,,,,,,,,
1739303251.419927,-0.10867380419748732,1.0622059576473706,-0.3901670841118601,-1.4233846545568898,1.5172994406925318,1.1598527886929866,1.3604433964626674,-0.0011683681945503848,-0.0019371079042770298,-0.001495530167503414,-0.0002325967581760006,-0.0005544541704660812,-0.00018184245199772488,-0.0031141132573950982,-0.2547723948955536,-51.00766372680664,-7.356766700744629,17.94654083251953,1.7412210702896118,-0.7697250843048096,0.09343110024929047,,,,,,,,,
1739303251.4300003,-0.10866896734630227,1.0622136555970632,-0.39016551174513925,-1.4233912028544482,1.5173013496492975,1.1598465408583933,1.3604438342561151,0.0003762937923821191,0.0018761315894188489,0.00048677115243277993,-0.0011591089248738813,-8.25497235008853e-05,-0.00020104260693228732,-0.0013993667717369645,-0.2825433909893036,-51.11081314086914,-7.384537696838379,17.94654083251953,1.7219949960708618,-0.7633163928985596,0.08610688149929047,,,,,,,,,
1739303251.4409623,-0.10867233807427185,1.0622148727810943,-0.39016468169449314,-1.423394320117273,1.5173049379892736,1.1598403935821315,1.3604375322591655,0.0003453410298703932,0.0003024402639116575,0.0005161007959003613,0.0006356116421166714,0.0018072116721213598,-0.0011071130873887393,-0.0013369498370409082,-0.2309686839580536,-51.08700942993164,-7.384537696838379,17.97431182861328,1.7284036874771118,-0.7495834827423096,0.09983979165554047,,,,,,,,,
1739303251.4509628,-0.10866966683530402,1.0622091457897522,-0.390166752407087,-1.4233918847411902,1.5173005710461,1.1598370948629373,1.3604364718847386,0.0008599954004284557,-0.0013413345991290136,-0.000646775917973732,-3.9591516881358794e-05,0.00030487098628967303,-0.0008232358174027109,-0.0016217887418335558,-0.2547723948955536,-51.00766372680664,-7.356766700744629,17.89893341064453,1.7412210702896118,-0.7495834827423096,0.11998139321804047,,,,,,,,,
1739303251.4629576,-0.10867332863424893,1.0622069939175243,-0.3901625528385718,-1.42339399430344,1.5173003171106294,1.1598403784143216,1.3604422120141815,-0.0005198523219069625,9.215188156652489e-05,0.00028369972011791213,-0.00037567827283641617,0.0008059867645000419,0.0002659870249665756,-0.0006263583721207932,-0.2071649730205536,-51.00766372680664,-7.384537696838379,17.92273712158203,1.7348123788833618,-0.7495834827423096,0.05955658480525017,,,,,,,,,
1739303251.4749894,-0.10867137545730121,1.062211171307682,-0.39016649012642624,-1.4233954944230531,1.5173000131105645,1.1598423657381791,1.360441449875854,7.11309314620124e-06,0.0009380271008362323,7.65729660696221e-05,-0.00011925187342287664,0.0007979781877538989,-0.0005558041496134216,0.002050011665976586,-0.2309686839580536,-51.03543472290039,-7.356766700744629,17.94654083251953,1.7348123788833618,-0.7697250843048096,0.06596527993679047,,,,,,,,,
1739303251.4859724,-0.10867232629749886,1.0622091719900573,-0.3901674852209279,-1.4233968910838426,1.51729982124136,1.1598442880516635,1.3604358761449848,-0.00010432547294668121,0.0009080145353170907,0.0002736930459047339,0.0003805740080854772,-0.0004207343903930272,0.0009257567427415988,0.0004866212377939769,-0.2309686839580536,-51.00766372680664,-7.332962989807129,17.92273712158203,1.7348123788833618,-0.7825424671173096,0.11265717446804047,,,,,,,,,
1739303251.4979486,-0.10866644697266956,1.0622047181257117,-0.39016604859241655,-1.423391180998158,1.517294274356668,1.1598417130941432,1.3604373914650407,-0.0009236036940674313,-3.962854080527439e-05,0.00012299079656560743,0.0008013430420739554,-0.001417615487822516,-0.00010140170160311565,-0.0006964593469217616,-0.2825433909893036,-50.96005630493164,-7.356766700744629,17.87512969970703,1.7549539804458618,-0.7697250843048096,0.09983979165554047,,,,,,,,,
1739303251.5089645,-0.10866370814237451,1.0622090698723259,-0.39016713900724664,-1.4233969970899676,1.5173000064527822,1.159841487373638,1.3604403602232942,0.0008811622873479009,0.0016060986617678988,-0.0015845787647097548,-0.0013855911729045425,-0.00026457322958665236,-0.0013400849480484653,-0.0008609369996647397,-0.3063471019268036,-51.00766372680664,-7.309159278869629,17.92273712158203,1.7412210702896118,-0.7633163928985596,0.07328949868679047,,,,,,,,,
1739303251.5189989,-0.10866447259532622,1.0622066768965854,-0.390170326779715,-1.4233993655252546,1.5173006054078013,1.1598417124391842,1.3604429109114342,0.0011516038726076103,0.0003694246971961213,-0.0020278578309690844,-0.0008032136165252311,0.0016555975447883685,0.00042523468747143327,0.001278408067514364,-0.2825433909893036,-51.00766372680664,-7.309159278869629,17.94654083251953,1.7284036874771118,-0.7697250843048096,0.05314789339900017,,,,,,,,,
1739303251.5300283,-0.10866620992273097,1.0622074369709384,-0.39017132644263136,-1.4233987032509898,1.5172984411737425,1.1598427727302774,1.3604371964606747,0.0005755324206898245,-3.923192433240736e-05,-0.0009407277586480024,0.0003678695735252269,0.0008831389125764895,0.000517251586825576,-6.387187421650877e-05,-0.2309686839580536,-50.98386001586914,-7.332962989807129,17.94654083251953,1.7476297616958618,-0.7697250843048096,0.06596527993679047,,,,,,,,,
1739303251.5410335,-0.10866901172858277,1.0622111738916888,-0.3901615230089328,-1.423399888318659,1.5172991973445962,1.1598404838377627,1.3604335180903273,3.940160682121578e-05,-0.0003766049410043566,0.001537087231546706,0.00030470288682799625,-0.0012859680441464892,-0.000797796723569265,-0.0019640951368636544,-0.2309686839580536,-51.03543472290039,-7.384537696838379,17.92273712158203,1.7412210702896118,-0.7633163928985596,0.09343110024929047,,,,,,,,,
1739303251.5520036,-0.10866593393502944,1.062210775582732,-0.39016535674844843,-1.4233961200226206,1.5172992181098728,1.1598403914524045,1.360438699991387,-0.0003017451294473574,0.000874741253236679,-5.44032553169211e-05,2.4960289042918376e-05,-0.0006197733912143898,7.005232600573369e-05,-0.0009721889871188024,-0.2309686839580536,-51.03543472290039,-7.332962989807129,17.89893341064453,1.7348123788833618,-0.7495834827423096,0.07969819009304047,,,,,,,,,
1739303251.562985,-0.10866764676316402,1.0622072342031317,-0.39016380927420286,-1.4233982113956563,1.517299072298768,1.1598344632161797,1.3604340891378681,-0.00035398422551403085,-0.0002506824379724739,0.0001864342237691734,0.0004135248116418173,0.0007575589145240397,-0.0007995612072748228,-0.0007406348956844572,-0.2071649730205536,-50.98386001586914,-7.356766700744629,17.89893341064453,1.7412210702896118,-0.7367660999298096,0.12639008462429047,,,,,,,,,
1739303251.5749462,-0.10866806564978135,1.0622076586202491,-0.3901660668587067,-1.4234056403145,1.5172990808687474,1.1598399659601502,1.3604338328710297,0.00041169938514384907,-0.0008559342048069255,-0.0006177811542151899,-0.0018076057597513975,5.35546902611709e-05,0.001322271408619604,-0.0008824023319718494,-0.2309686839580536,-50.96005630493164,-7.332962989807129,17.99811553955078,1.7412210702896118,-0.7559921741485596,0.11998139321804047,,,,,,,,,
1739303251.585968,-0.10866422173774118,1.0622091851603943,-0.3901614932026738,-1.4233973828246778,1.5172991925412238,1.1598404709150898,1.360441996268595,0.0002950035182752418,0.0005095691179834007,0.0008525750607111109,-0.0001911306544519736,-5.366423067377455e-05,0.0013447129196323185,0.0029426584635192515,-0.2547723948955536,-51.00766372680664,-7.384537696838379,17.87512969970703,1.7284036874771118,-0.7633163928985596,0.05955658480525017,,,,,,,,,
1739303251.5959778,-0.10866430020963654,1.0622047848438423,-0.3901653553081928,-1.4233999987721833,1.5173005919593545,1.159843411982608,1.360440623147675,0.00022421969832178687,-0.0008806932953321846,0.0004593283445550912,-0.00047552573392915413,0.0010342216132760804,0.0011043542540882549,0.001542302533814756,-0.2547723948955536,-50.96005630493164,-7.332962989807129,17.92273712158203,1.7284036874771118,-0.7761337757110596,0.05955658480525017,,,,,,,,,
1739303251.606964,-0.10866522186547264,1.06220360535489,-0.39016388887524944,-1.4234028103286176,1.5172998193029565,1.159840901006015,1.360436629274165,0.00032133273007919666,-0.00022710204281927866,0.00034340157206482033,-0.0019093400680771202,-0.0007452612154545908,-1.3287184685293382e-05,-0.0015689656328033046,-0.2309686839580536,-50.96005630493164,-7.356766700744629,17.94654083251953,1.7348123788833618,-0.7633163928985596,0.10624848306179047,,,,,,,,,
1739303251.616974,-0.10866350922372754,1.0622057263808617,-0.39016715840385763,-1.4234003605555265,1.5172998343227215,1.159841947457266,1.3604353128297981,0.0011292586785449248,0.0008605023755287843,-9.660406537108894e-05,0.00019068972436865535,-0.0009138740355417652,-6.33772999120514e-05,-0.00027048234979910803,-0.2547723948955536,-50.96005630493164,-7.309159278869629,17.89893341064453,1.7348123788833618,-0.7761337757110596,0.08610688149929047,,,,,,,,,
1739303251.6270578,-0.10866522185296826,1.062208133028264,-0.39016713787754465,-1.4233982206940856,1.5172998343229758,1.1598414872451421,1.36044214075561,-0.00015856634642816782,0.0006717226094987139,-0.0011235610106865726,0.0010993797688569323,0.00011189241827603457,-0.0005773431074469553,0.00286639307201551,-0.2309686839580536,-51.00766372680664,-7.309159278869629,17.89893341064453,1.7348123788833618,-0.7633163928985596,0.05955658480525017,,,,,,,,,
1739303251.6380095,-0.10866222334379201,1.0622071105750444,-0.39016616060732345,-1.4234041604224508,1.5173031061192246,1.1598398624196145,1.3604287266365915,0.0010323925909187077,-0.0012400700669433504,-0.0006001289167038605,-0.0012611790302791974,0.0009122639472196957,-0.00023168621721806004,-0.0010089307801559024,-0.2825433909893036,-50.98386001586914,-7.332962989807129,17.94654083251953,1.7348123788833618,-0.7495834827423096,0.13279877603054047,,,,,,,,,
1739303251.6480405,-0.1086635083676918,1.0622091664969289,-0.390167138430871,-1.4234004665422035,1.5173023351055532,1.1598352376638785,1.3604331235454084,5.896425475685965e-05,-0.001010327418499281,-0.000857138342516027,-0.0006032091728378325,0.0004910792893392253,-0.0003303709743047062,-0.0005652648096727418,-0.2547723948955536,-51.00766372680664,-7.309159278869629,17.89893341064453,1.7412210702896118,-0.7431747913360596,0.13279877603054047,,,,,,,,,
1739303251.6589363,-0.10866398364431556,1.0622098915700566,-0.3901614825544479,-1.4233999974605653,1.5173005917861073,1.1598348669388743,1.360434851771207,0.0008013638566705539,-0.00014351182372652116,0.0014230403894017014,0.000794223038115775,-0.00032824577966721497,-0.00090730394658514,0.0006796521050071003,-0.2547723948955536,-51.00766372680664,-7.356766700744629,17.92273712158203,1.7284036874771118,-0.7431747913360596,0.09343110024929047,,,,,,,,,
1739303251.6689641,-0.10866764632610194,1.0622067482229702,-0.39016721657880316,-1.4233988133362012,1.517300539655242,1.1598363851640552,1.3604318698189428,-0.0004539677876221528,0.00037232119307477774,-0.0013180041631755681,0.001457061288265739,-0.000987425665151589,0.00011334544071806485,-0.0007743900000153561,-0.2071649730205536,-50.98386001586914,-7.309159278869629,17.87512969970703,1.7284036874771118,-0.7559921741485596,0.10624848306179047,,,,,,,,,
1739303251.6789935,-0.10866350934429587,1.0622090637971686,-0.390161492842643,-1.4234000780512361,1.5172998343220896,1.1598383063388154,1.3604365101306628,0.0011056880625441071,0.0008255723733124487,0.0004858176053596674,0.000896985603578029,6.71166053965019e-05,-0.00012793935111042248,0.0005393715644800056,-0.2547723948955536,-51.03543472290039,-7.384537696838379,17.92273712158203,1.7348123788833618,-0.7633163928985596,0.06596527993679047,,,,,,,,,
1739303251.6900227,-0.10866422128464515,1.0622091380014123,-0.39016713798520575,-1.4233982386458528,1.5172990765013918,1.1598380043666723,1.3604334808863339,-0.0002463765847350726,-0.00017372603217918035,-0.000704913758879578,0.001775224756054289,-0.0023166759965727326,0.0005498740872923086,-0.00017276718659853995,-0.2547723948955536,-51.00766372680664,-7.309159278869629,17.89893341064453,1.7412210702896118,-0.7697250843048096,0.09343110024929047,,,,,,,,,
1739303251.7009695,-0.10866538972948755,1.06220909651425,-0.3901650122302179,-1.4233982425701182,1.5172973831359837,1.1598363808033798,1.3604310677369467,0.00032768817835110507,0.0006556293985358632,-0.00046107292796248483,0.0004993694808190357,-0.0012844154098402725,-0.000869952126920975,-0.0009773927455869764,-0.2547723948955536,-51.00766372680664,-7.309159278869629,17.89893341064453,1.7549539804458618,-0.7559921741485596,0.08610688149929047,,,,,,,,,
1739303251.7121203,-0.10866593367130908,1.0622050360167246,-0.39016535529618673,-1.4234046484520693,1.5172983215892053,1.1598364200492364,1.3604302418042893,-0.0008811765031697546,2.006745020115405e-07,-0.0003723163602110193,-0.0006661087380528365,-0.0007635242412727276,-0.0009582907364213974,-0.001282293498446755,-0.2309686839580536,-50.96005630493164,-7.332962989807129,17.94654083251953,1.7476297616958618,-0.7559921741485596,0.11998139321804047,,,,,,,,,
1739303251.7229378,-0.10866434335483521,1.062204794215054,-0.3901614477042323,-1.4234014304398972,1.5172987234502022,1.1598374167662124,1.3604362746554484,-1.3978639597989474e-05,-0.0009322136303526506,0.0010383872557790247,-5.698595429603863e-05,5.478687890758514e-05,4.855893690730069e-06,0.0006923573780496466,-0.2547723948955536,-50.96005630493164,-7.356766700744629,17.89893341064453,1.7412210702896118,-0.7633163928985596,0.06596527993679047,,,,,,,,,
1739303251.7339318,-0.10866297144440068,1.0622109351771485,-0.39016357261917234,-1.4234049595298175,1.5173016778948019,1.1598352710247017,1.3604326230914647,-0.0005984992530033281,0.00036667563495847134,0.00127240998625686,-0.0016045569715410772,0.00030321040913222673,0.000768508881301769,0.0004746549496795088,-0.2309686839580536,-51.03543472290039,-7.356766700744629,17.94654083251953,1.7284036874771118,-0.7431747913360596,0.09983979165554047,,,,,,,,,
1739303251.7439513,-0.10866543025680866,1.0622089025704757,-0.3901643191745737,-1.4234028134349421,1.5172974130870562,1.15983724670748,1.3604381393126215,-0.00034014525710851084,-0.0010983790265704316,-0.0009797589554552694,0.0001799416965425607,-0.0004264323857787389,0.00030078925796219114,0.0007035648566222615,-0.2071649730205536,-51.00766372680664,-7.356766700744629,17.94654083251953,1.7284036874771118,-0.7633163928985596,0.05314789339900017,,,,,,,,,
1739303251.7540383,-0.10866565695886739,1.0622111771940312,-0.3901656956266222,-1.4234049956862598,1.5173024555158139,1.1598324442289134,1.3604363258904824,-0.0008643994822259107,0.0002953262716131425,0.0004171006331845464,-0.0002802929352546368,0.0004717305235842716,-0.0009930130129775277,0.0010948320068259003,-0.2309686839580536,-51.03543472290039,-7.356766700744629,17.94654083251953,1.7412210702896118,-0.7495834827423096,0.05955658480525017,,,,,,,,,
1739303251.764993,-0.1086673181895956,1.0622072252660648,-0.39016713803319236,-1.423402948245683,1.5172983192426173,1.1598348654114428,1.3604381417292235,0.0005840672188801495,-0.0013899768268091548,-0.0012802604603630858,0.00013402680450773155,0.0006417048942356072,-0.0006541597422945651,0.00024613493523997494,-0.2071649730205536,-50.98386001586914,-7.309159278869629,17.92273712158203,1.7476297616958618,-0.7431747913360596,0.05314789339900017,,,,,,,,,
1739303251.7750223,-0.10866568335914964,1.0622091645365783,-0.3901655915191871,-1.4234032131507297,1.5172983190028233,1.1598367340160882,1.3604380254511608,-0.0002032251017401495,4.572962770026454e-05,-0.0008134550506734726,-1.695279112796477e-05,-0.0010450290466443469,0.0010212470621848468,8.683808780559938e-05,-0.2309686839580536,-51.00766372680664,-7.332962989807129,17.92273712158203,1.7476297616958618,-0.7559921741485596,0.05314789339900017,,,,,,,,,
1739303251.7859566,-0.10866547110591065,1.062210220544506,-0.39016365100947803,-1.4234032131552161,1.517296655463769,1.1598363808053738,1.360435761808756,-0.0005592925554867582,0.000503988727742571,0.0006775166224738792,0.000466472594379656,-0.0007004148414454989,-0.0009301641253915018,0.0015867996860089557,-0.2071649730205536,-51.03543472290039,-7.356766700744629,17.92273712158203,1.7348123788833618,-0.7559921741485596,0.07328949868679047,,,,,,,,,
1739303251.7979255,-0.10866136912227922,1.0622070303964242,-0.3901671380216505,-1.4234049975764955,1.5172998342511959,1.1598356231433016,1.3604268030124524,0.0010746490691493648,0.00026362608638585185,-0.0004269796633462193,-0.0012877578075556648,0.0012902129571236295,-0.00032201779156031455,-0.0016427652027194567,-0.2547723948955536,-51.00766372680664,-7.309159278869629,17.94654083251953,1.7348123788833618,-0.7495834827423096,0.14012299478054047,,,,,,,,,
1739303251.808001,-0.10865912648402909,1.0622047975501434,-0.3901653557402143,-1.4234014304782068,1.517296901418979,1.1598372467006122,1.3604350028513268,0.0011376467200912173,0.00032154897130774935,-0.00027164477134458123,-0.00010929891668123469,-0.0014322390213729738,-0.0007357842441743687,0.0006249088436262325,-0.2825433909893036,-50.96005630493164,-7.332962989807129,17.89893341064453,1.7284036874771118,-0.7633163928985596,0.07969819009304047,,,,,,,,,
1739303251.8180268,-0.10866126657485577,1.0622037435044438,-0.39016535487616655,-1.4234014309304126,1.5172998342604758,1.1598372467006122,1.3604342466507446,0.00017177223052360042,-0.0001546700772683201,-0.00019331404105512763,0.0010261094038819946,0.0004346354587808661,-0.00032282685307514656,-0.0004742534461277455,-0.2547723948955536,-50.93228530883789,-7.332962989807129,17.89893341064453,1.7348123788833618,-0.7633163928985596,0.08610688149929047,,,,,,,,,
1739303251.8289297,-0.10866101754041321,1.0622065091381252,-0.39016535530818425,-1.4233996478011806,1.5173005919830538,1.1598380043606906,1.3604341308512664,0.0012423843509466507,-0.00046921893573408297,6.648800221364118e-05,0.0007516275937058854,0.0006464398288400529,0.00030349223888677417,-0.00017016336275345645,-0.2547723948955536,-50.98386001586914,-7.332962989807129,17.87512969970703,1.7284036874771118,-0.7697250843048096,0.08610688149929047,,,,,,,,,
1739303251.839031,-0.10866296737452805,1.062208355046323,-0.39016357263116763,-1.4234049958322352,1.5173038503703018,1.1598372467006122,1.360431877055899,0.0009554236429015323,0.00015205217633684743,0.0006877050563100055,-0.00019345855589851825,0.001737018594799366,0.0004400541380300252,0.00022788508201325504,-0.2309686839580536,-51.00766372680664,-7.356766700744629,17.94654083251953,1.7284036874771118,-0.7633163928985596,0.10624848306179047,,,,,,,,,
1739303251.8500226,-0.10866730503470408,1.0622111847192441,-0.39016357263116763,-1.4234032131552161,1.5172990766690286,1.1598348654832231,1.3604366278681803,-0.0005414171472698779,0.0008834342296186674,0.0007370774154257433,0.0007938301296038678,0.0007565524928922678,-1.1306569025924351e-05,0.0008027235541303698,-0.2071649730205536,-51.03543472290039,-7.356766700744629,17.92273712158203,1.7412210702896118,-0.7431747913360596,0.06596527993679047,,,,,,,,,
1739303251.8600364,-0.10866282190899723,1.0622128867761362,-0.39016430345320974,-1.4234083199562928,1.5173050397377907,1.1598341076616392,1.3604338855785794,-0.00044496926543484514,-7.573229610156093e-05,0.001171841147029609,-0.0007439431608823083,0.0017421589863008476,0.0007703003926348221,0.0005156301130340953,-0.2309686839580536,-51.05923843383789,-7.309159278869629,17.94654083251953,1.7284036874771118,-0.7367660999298096,0.05314789339900017,,,,,,,,,
1739303251.8709714,-0.10866368322583092,1.0622128602850056,-0.3901671379692047,-1.4234032955902798,1.5173006320736593,1.1598356231433007,1.3604373850201261,-0.000635036901819856,0.001053137683406127,-0.00018460738942370882,0.0014100540677422127,0.00019326108352534242,0.0006532478362997028,0.0005375461946366745,-0.2309686839580536,-51.05923843383789,-7.309159278869629,17.92273712158203,1.7284036874771118,-0.7495834827423096,0.05955658480525017,,,,,,,,,
1739303251.8819516,-0.10866644056287401,1.0622111641165652,-0.3901636105415749,-1.423405737579391,1.51729982124125,1.1598331888070395,1.3604366147862033,-0.000813432339258018,0.0009372803530910488,0.0010412583589933554,0.00018752422211664517,-9.19125305053265e-05,-0.0008637012579297705,0.0017766886417236217,-0.1793939769268036,-51.03543472290039,-7.356766700744629,17.94654083251953,1.7348123788833618,-0.7559921741485596,0.06596527993679047,,,,,,,,,
1739303251.8919752,-0.10865809891488828,1.0622090968409998,-0.39016149673148504,-1.4234050233420195,1.5172990708480318,1.1598363801566927,1.3604302418754048,0.002350552178288632,-0.0003372073032205732,0.001145206722945639,-0.00043660796817363175,-0.00048518820489416544,0.0004761955452877776,-0.0007490854489519906,-0.2825433909893036,-51.00766372680664,-7.384537696838379,17.94654083251953,1.7412210702896118,-0.7559921741485596,0.11998139321804047,,,,,,,,,
1739303251.9021003,-0.10866273004414674,1.0622078174569025,-0.3901653553082525,-1.423403213155682,1.5172997950770206,1.1598365915098405,1.3604318654333802,-6.953838382299473e-05,0.000917597756417749,0.000519453890995383,0.0007180031183568983,-0.0009512912027998674,-0.0018137267666722466,-0.0008978110096532142,-0.2309686839580536,-50.96005630493164,-7.332962989807129,17.92273712158203,1.7348123788833618,-0.7697250843048096,0.10624848306179047,,,,,,,,,
1739303251.9129791,-0.10866643857492819,1.062203514481303,-0.3901670918760643,-1.4234005024887226,1.5173005919829803,1.1598356224946207,1.3604315576411283,-0.0013169916422794557,-0.00042944722352330957,-0.000790757307227967,0.00042625157633869367,0.0009693642916376341,0.00022101484475948557,-0.0011381431178790133,-0.1793939769268036,-50.93228530883789,-7.281388282775879,17.87512969970703,1.7284036874771118,-0.7495834827423096,0.09983979165554047,,,,,,,,,
1739303251.923001,-0.10866273005970564,1.0622050350319836,-0.3901615015538653,-1.4234051148924745,1.517298017024768,1.1598363808033687,1.3604263046375376,0.0001474997241818481,0.00018110710563536679,0.001890310127133802,-0.0008415596449510393,-0.0005649210241104429,-0.0001728578460801246,-0.0011666682141431655,-0.2309686839580536,-50.96005630493164,-7.384537696838379,17.94654083251953,1.7412210702896118,-0.7559921741485596,0.12639008462429047,,,,,,,,,
1739303251.9340317,-0.10866174500917743,1.0622090971645206,-0.39016713798525493,-1.4234032141733732,1.51729895768652,1.1598355706001517,1.3604309900177831,0.0003885479969697634,0.000480117454071971,-0.0014466073247852412,-0.00023136852977746693,-0.0006562367725104791,-0.0004807360595590953,-0.00024007691420389454,-0.2309686839580536,-51.00766372680664,-7.309159278869629,17.92273712158203,1.7412210702896118,-0.7495834827423096,0.11265717446804047,,,,,,,,,
1739303251.9449282,-0.10866271933878724,1.0622045762792942,-0.390167126320465,-1.4234014702731783,1.5173021253467505,1.1598348654829265,1.3604346336548703,0.00042648357038046255,-0.001844613824354714,-0.0008736155774549234,0.0002719107014306873,0.0006541037688350833,-0.0001982410783928234,0.0002517928671640765,-0.2309686839580536,-50.98386001586914,-7.309159278869629,17.89893341064453,1.7155863046646118,-0.7431747913360596,0.07969819009304047,,,,,,,,,
1739303251.9559355,-0.10866444247215006,1.0622070262792283,-0.39016356874285485,-1.4234055211886576,1.5172969060982469,1.1598356231433016,1.3604349911729678,-0.0009198459430175485,-0.0018586144128108887,0.0004406365531476947,-0.00031609529430778633,-0.0016248387587074467,9.205503146780458e-05,0.0003768190947243483,-0.2071649730205536,-51.00766372680664,-7.356766700744629,17.92273712158203,1.7476297616958618,-0.7495834827423096,0.07969819009304047,,,,,,,,,
1739303251.966044,-0.10866436355124388,1.0622080747772884,-0.39016262767909626,-1.4234054475917408,1.5172982017379513,1.1598356231433016,1.360427953465854,0.00018481935582395404,-0.0011550025839303715,0.0015902175891661123,0.0007264207812297655,-0.0011194951785851045,-0.000594961965926361,-0.0029622250198359508,-0.2071649730205536,-51.03543472290039,-7.356766700744629,17.92273712158203,1.7476297616958618,-0.7495834827423096,0.12639008462429047,,,,,,,,,
1739303251.976938,-0.10866231185865502,1.0622087789325796,-0.39016117799598504,-1.4234053666993516,1.517300591982392,1.1598372467006122,1.3604337233102044,-0.00010846931759428681,0.00016034950110068697,0.0007226469417549182,-0.000615897425685958,0.000495943787640352,0.001355890857961331,5.959682022772984e-05,-0.2071649730205536,-51.00766372680664,-7.384537696838379,17.94654083251953,1.7284036874771118,-0.7633163928985596,0.08610688149929047,,,,,,,,,
1739303251.9869804,-0.10866272710065594,1.0622118895042354,-0.390167140896059,-1.4234082956559833,1.517299078649416,1.1598380043606906,1.3604302287852545,-7.436652234578411e-05,0.0017100936546961716,-0.001496280592103086,-0.0026944693356951185,0.00026429682739820043,0.001368349553550724,-4.7199245857134666e-05,-0.2309686839580536,-51.03543472290039,-7.309159278869629,17.94654083251953,1.7412210702896118,-0.7697250843048096,0.11998139321804047,,,,,,,,,
1739303251.9989915,-0.1086610175389907,1.0622058847128626,-0.3901671379852222,-1.4234039594426906,1.5173003034140156,1.1598372467006122,1.360430910752881,4.521064504988908e-05,-0.0006126534142940399,-0.0009301305524347921,-0.0002502304020869264,0.0011350544103684076,0.0008791679872845396,-8.885648157188524e-05,-0.2547723948955536,-50.96005630493164,-7.309159278869629,17.92273712158203,1.7219949960708618,-0.7633163928985596,0.08610688149929047,,,,,,,,,
1739303252.0100288,-0.10866557881381528,1.0622054202997724,-0.39016357263116763,-1.4234050243232244,1.5172997965650397,1.1598372060012052,1.3604365866779577,-0.0016429734759849555,-0.0001544987498488767,3.960788527968077e-05,0.0008848180668966903,-0.001307634860460487,-0.0009255677648936781,0.0008777820953227951,-0.2309686839580536,-50.96005630493164,-7.356766700744629,17.94654083251953,1.7348123788833618,-0.7633163928985596,0.06596527993679047,,,,,,,,,
1739303252.0209374,-0.10866444259655107,1.0622074595401407,-0.39016357263116763,-1.4234055523914724,1.5172982932209316,1.1598395196806175,1.3604366273834092,-0.0007967717185829292,-1.230008618284973e-07,0.0007159346500369001,0.00042947528842686845,-0.00014131337150522112,0.0015030605631169477,0.0010220046580460933,-0.2071649730205536,-50.98386001586914,-7.356766700744629,17.92273712158203,1.7476297616958618,-0.7825424671173096,0.06596527993679047,,,,,,,,,
1739303252.0310414,-0.1086590195981546,1.0622110946732797,-0.3901653553081867,-1.4234054520013717,1.5172997165849693,1.1598372467006122,1.3604356379346303,0.002332686477708997,0.00048035368312373465,0.0005157003714461393,-0.0008662035316497885,-6.333576230972845e-06,0.001205581637594039,0.00031052379253141023,-0.2825433909893036,-51.03543472290039,-7.332962989807129,17.92273712158203,1.7348123788833618,-0.7633163928985596,0.07328949868679047,,,,,,,,,
1739303252.0420086,-0.10866273002365219,1.0622050095257727,-0.3901650209427711,-1.4234070800438314,1.5172974664600878,1.1598380000000397,1.360430201623108,0.00040532925231033165,-0.0002482229752137212,-0.0006891802186815201,-3.067886817128586e-05,-0.00021131147847683253,0.0005227046444616021,-0.0003880881268630126,-0.2309686839580536,-50.96005630493164,-7.309159278869629,17.97431182861328,1.7549539804458618,-0.7697250843048096,0.09343110024929047,,,,,,,,,
1739303252.0529895,-0.10865973154252187,1.0622074636720658,-0.3901671378413466,-1.42340499583231,1.5173009204522847,1.1598353211651764,1.3604333806996982,0.001065827601513653,-0.001537911967477385,-0.0008128982205506527,0.0013681715658678268,0.0013370761365589668,-0.0005492130472599171,0.00040151246041042086,-0.2825433909893036,-50.98386001586914,-7.309159278869629,17.94654083251953,1.7348123788833618,-0.7559921741485596,0.09343110024929047,,,,,,,,,
1739303252.0631425,-0.10866444399513905,1.062211068291414,-0.3901614467321698,-1.4234035835575034,1.5173013496492638,1.1598316865628533,1.3604315503195414,0.00032400412839131556,-0.0005095662915731024,0.0008158922846664692,0.0008181892157885956,0.00044140103822926265,-0.0006357073917311463,-0.0010359084295468181,-0.2071649730205536,-51.03543472290039,-7.356766700744629,17.92273712158203,1.7219949960708618,-0.7431747913360596,0.09983979165554047,,,,,,,,,
1739303252.0739608,-0.10866657841358222,1.0622111742546296,-0.3901653523800007,-1.4234054388872788,1.5173005912831967,1.1598356231253564,1.3604355875388408,-0.0009020535017249653,-2.1167424885902553e-06,0.0002864856391949804,0.001047085958947435,-5.6222050596245426e-05,0.00032641448013797346,0.00036655058621023573,-0.2071649730205536,-51.03543472290039,-7.332962989807129,17.92273712158203,1.7284036874771118,-0.7495834827423096,0.07328949868679047,,,,,,,,,
1739303252.083961,-0.1086627321599,1.0622107027440368,-0.390165434045137,-1.423404078507521,1.5172987234501758,1.1598348654832227,1.3604362746524947,-0.0007715154890106602,0.0007550516148667049,0.0006057675226167707,0.0011984965834075671,-0.0008298770183949383,-0.00026637228473356747,0.0017524297692812726,-0.2309686839580536,-51.05923843383789,-7.332962989807129,17.92273712158203,1.7412210702896118,-0.7431747913360596,0.06596527993679047,,,,,,,,,
1739303252.0959296,-0.10866248160486114,1.0622057508971958,-0.3901653666493513,-1.42340452058555,1.5172977977040174,1.1598355054057317,1.3604369140918868,0.0006649539135480076,-0.0006230681188833743,0.00018198623961789083,0.0011199263543971662,-9.288835882038503e-05,0.0002404141594464652,0.002021471599398916,-0.2309686839580536,-50.96005630493164,-7.332962989807129,17.89893341064453,1.7549539804458618,-0.7495834827423096,0.05955658480525017,,,,,,,,,
1739303252.1060424,-0.1086636793174936,1.0622091802389582,-0.3901671467338253,-1.4233997713865432,1.517298195346669,1.1598356226581201,1.3604270571986545,-0.0007277524095699935,0.00015855151767433183,-0.0009225653171023166,0.0025508740413674826,-0.0015378827255918457,-0.0007359616965210548,-0.0017551831457848742,-0.2309686839580536,-51.00766372680664,-7.309159278869629,17.87512969970703,1.7476297616958618,-0.7495834827423096,0.11998139321804047,,,,,,,,,
1739303252.1180205,-0.10866444254974196,1.0622074359945173,-0.3901650403602365,-1.4234065465503918,1.5172969671345895,1.1598359098530973,1.3604297688082396,-0.0012841122113788784,0.0001994080979623461,0.00039877749932193363,-0.0004093662571914201,-0.0018380440483942132,-0.0003668288873044228,-0.0001151813902428799,-0.2071649730205536,-50.98386001586914,-7.332962989807129,17.92273712158203,1.7549539804458618,-0.7559921741485596,0.11998139321804047,,,,,,,,,
1739303252.128969,-0.10866027184956176,1.062203753332007,-0.39016357277458413,-1.4234063037664182,1.5172997163512056,1.1598361870615965,1.3604311061035208,0.0010543345978149164,-0.0022005588859247594,0.00024527856329777944,-0.0016838537812160726,-0.0015109447750275252,-0.0007752445793136462,-0.0005691723483698488,-0.2547723948955536,-50.93228530883789,-7.356766700744629,17.92273712158203,1.7348123788833618,-0.7633163928985596,0.11265717446804047,,,,,,,,,
1739303252.139034,-0.10866101785191377,1.062207224393918,-0.39016535530818913,-1.4234047652816617,1.5172990766608996,1.1598356226408397,1.360433069275042,0.0006195757993025836,-6.900484040418321e-05,-0.0004251131913659365,0.0003844183344936242,0.00014349012339625166,0.00048527971678746415,-2.474506493086576e-05,-0.2547723948955536,-50.98386001586914,-7.332962989807129,17.89893341064453,1.7412210702896118,-0.7495834827423096,0.08610688149929047,,,,,,,,,
1739303252.1500285,-0.10866452266200541,1.0622074254185656,-0.3901673741962054,-1.4234065505630906,1.5172987234501876,1.1598372467006093,1.3604275700242516,-0.0007856370208219024,0.0005308949909273332,1.0018195448471736e-05,-0.0005677069192810875,-6.402775430317876e-05,0.0003409720112553768,-0.002039443465195633,-0.2071649730205536,-50.98386001586914,-7.309159278869629,17.92273712158203,1.7412210702896118,-0.7633163928985596,0.10624848306179047,,,,,,,,,
1739303252.1609235,-0.10866007048788137,1.0622053091595585,-0.3901671378785323,-1.4234103998736383,1.5173004607887293,1.1598348595075165,1.3604301241142518,0.0015902566578820925,-0.001121636802352634,-0.0007749891936595866,-0.00043136689842672985,0.0004103927163991432,-0.0013669718670418663,-0.00012232911064690073,-0.2547723948955536,-50.98386001586914,-7.309159278869629,17.94654083251953,1.7284036874771118,-0.7431747913360596,0.11998139321804047,,,,,,,,,
1739303252.1710362,-0.1086588606754647,1.0622065100828382,-0.39016665212271695,-1.4234103855928737,1.5173004349974057,1.1598308836870923,1.3604366147842117,0.0020296016888386305,-0.000513183064792847,-0.0004338564546302732,-0.0020456045410904167,-0.00029349748008139487,-0.00037583579275479826,0.0013260975224192327,-0.2547723948955536,-50.98386001586914,-7.356766700744629,17.97431182861328,1.7284036874771118,-0.7367660999298096,0.06596527993679047,,,,,,,,,
1739303252.1819928,-0.10865888666078112,1.0622054246547883,-0.3901685091594461,-1.4234065510151659,1.5172998363086083,1.1598338038888263,1.3604339054267878,0.0009914193916761788,0.0002583199636331181,-0.0013305365960898491,0.00032867782548962147,0.0002602506767083016,0.00025232619882915386,-0.00042148425120130896,-0.2547723948955536,-50.96005630493164,-7.281388282775879,17.92273712158203,1.7348123788833618,-0.7431747913360596,0.07969819009304047,,,,,,,,,
1739303252.1920545,-0.10866317963216196,1.0622095300714018,-0.3901633081101881,-1.4234064685990244,1.5172966554086886,1.1598340677322894,1.3604357614305802,0.00025281387384870006,-0.0006091003740766809,0.0003446567417772669,0.0014640743978203232,-0.0002395603017852527,0.00035682674491445556,0.001992300226056802,-0.2547723948955536,-50.98386001586914,-7.332962989807129,17.92273712158203,1.7348123788833618,-0.7633163928985596,0.07328949868679047,,,,,,,,,
1739303252.2029252,-0.10866271837181217,1.0622057512768004,-0.3901635701431577,-1.4234058092684778,1.517298318925057,1.1598348189800973,1.360430240368683,-7.900865297447135e-05,0.00029140448924876345,0.00020931141094837088,0.0004604704039878979,-0.001261021692965577,0.00013363956446752368,-0.0010163871963284371,-0.2309686839580536,-50.96005630493164,-7.356766700744629,17.92273712158203,1.7476297616958618,-0.7697250843048096,0.11998139321804047,,,,,,,,,
1739303252.212926,-0.10866586812469273,1.0622050796078526,-0.3901655919511716,-1.4234014847352539,1.5173004130873562,1.1598358337958283,1.360430082793045,-0.001061619921658314,-0.001040662691479035,0.0006917654636966411,0.0016808435275563899,0.0009026384435711566,0.0001760862890574487,-0.000378580022013422,-0.2071649730205536,-50.98386001586914,-7.332962989807129,17.84735870361328,1.7284036874771118,-0.7633163928985596,0.11998139321804047,,,,,,,,,
1739303252.223979,-0.10866249375503204,1.0622055128139567,-0.39016357015101744,-1.423408563290407,1.5172998322203737,1.1598356224733515,1.3604261476694604,-0.00012875362067157154,-0.0002615578388253432,0.0008961945755376906,-0.0011164174657703938,7.840598631377903e-05,-0.00108584959555657,-0.001649391869116384,-0.2309686839580536,-50.96005630493164,-7.356766700744629,17.94654083251953,1.7348123788833618,-0.7495834827423096,0.12639008462429047,,,,,,,,,
1739303252.2340117,-0.10866201684672239,1.062203514766779,-0.39016737434020055,-1.4234065506774578,1.5172994808949134,1.1598350998652092,1.360431472164915,0.0007453285841543095,-0.0010317416526140699,-0.0007966318345565566,-0.00041180310285144565,-0.0009236152346169479,-0.00039314205468274745,0.0001519239321748861,-0.2309686839580536,-50.93228530883789,-7.309159278869629,17.92273712158203,1.7348123788833618,-0.7495834827423096,0.07969819009304047,,,,,,,,,
1739303252.2440124,-0.1086643096431938,1.0622083815817376,-0.39016357360723203,-1.4234065510153178,1.5173005905235186,1.1598356231344398,1.3604290237576102,-0.0009682974740634993,-1.028587283905788e-05,0.0009886564565337816,-0.00017489432958005157,0.000922612310848782,0.0006919266544062819,-0.0010072489757220297,-0.1793939769268036,-51.00766372680664,-7.356766700744629,17.92273712158203,1.7284036874771118,-0.7495834827423096,0.09343110024929047,,,,,,,,,
1739303252.2540493,-0.10866644037697702,1.0622111739147202,-0.3901635726311842,-1.423410413482198,1.5172990766628727,1.1598355708154924,1.3604349473870962,-0.0007909334772341807,0.001266908458153343,0.0005935941610199866,-0.0010559134380571443,-1.0872392020704405e-05,-0.00010540562607189532,0.00012828923294080506,-0.1793939769268036,-51.03543472290039,-7.356766700744629,17.97431182861328,1.7412210702896118,-0.7495834827423096,0.07969819009304047,,,,,,,,,
1739303252.264953,-0.10866420581757444,1.0622111741462097,-0.3901694656508017,-1.4234093060744597,1.5172997569779523,1.1598363808030845,1.3604379077132942,7.775173680174652e-05,0.001087053649293325,-0.0003462710956901241,-0.0011405382568674348,0.0019174632640055643,0.0004627375155895082,0.00180960582969073,-0.2071649730205536,-51.03543472290039,-7.281388282775879,17.92273712158203,1.7348123788833618,-0.7559921741485596,0.05314789339900017,,,,,,,,,
1739303252.2750287,-0.108661005843003,1.0622128857948108,-0.39016559141537727,-1.4234029857079427,1.5172955957691487,1.1598360254910973,1.3604365870032582,0.0007013619422195831,0.001735778132527979,-1.0818308456065286e-05,0.00031267951021750296,-9.921540843385541e-05,0.0009662790302224991,0.000751437579564901,-0.2547723948955536,-51.05923843383789,-7.332962989807129,17.87512969970703,1.7348123788833618,-0.7559921741485596,0.06596527993679047,,,,,,,,,
1739303252.2860594,-0.10866280039560627,1.0622057511638905,-0.39016262390025486,-1.4234047683383046,1.5172958919103816,1.1598348591286645,1.360435722186487,-0.00022621386660239126,-0.0003312987963874183,0.0008014153435893074,0.0014791466225363573,-0.0004899498291321156,-0.0010109968834835976,0.001813641472400618,-0.2309686839580536,-50.96005630493164,-7.356766700744629,17.89893341064453,1.7412210702896118,-0.7431747913360596,0.07328949868679047,,,,,,,,,
1739303252.2969544,-0.10866101043728056,1.062210865194106,-0.39016818972682016,-1.423407212308008,1.5173001210147965,1.1598356231432656,1.3604306218027784,0.000814852204680968,0.0011595823111684683,-0.00042502102600130043,7.500284716456402e-05,-9.05640382693337e-05,-0.0005771537738694136,-0.00230235663323221,-0.2547723948955536,-51.03543472290039,-7.332962989807129,17.92273712158203,1.7284036874771118,-0.7495834827423096,0.11265717446804047,,,,,,,,,
1739303252.306969,-0.1086610161315174,1.0622071445887755,-0.39016677391826804,-1.4234083423117891,1.517299834315,1.1598356231433016,1.360429444800399,9.57080892128486e-06,-0.00035766542939675,-0.00038043378970621243,-0.0006210978605200202,2.9748657371653925e-05,-0.0004635490327670741,-0.001630132136683954,-0.2547723948955536,-50.98386001586914,-7.332962989807129,17.94654083251953,1.7348123788833618,-0.7495834827423096,0.12639008462429047,,,,,,,,,
1739303252.3179147,-0.10866372806965315,1.0622085852385912,-0.39016570319848376,-1.4234068346328026,1.5173001210327741,1.1598380043606906,1.3604294310964509,0.00032322350566257,-0.0007394805771741394,0.0006208430227629264,-0.000261543809503206,-0.0008836231848344177,0.00047715461524786213,-0.001015320281743806,-0.2071649730205536,-50.98386001586914,-7.356766700744629,17.89893341064453,1.7284036874771118,-0.7697250843048096,0.09983979165554047,,,,,,,,,
1739303252.3289888,-0.10865863972966289,1.062208451253504,-0.39016501206223353,-1.4234065510269878,1.5173006047433741,1.1598339108027975,1.3604342465789152,0.002242239661786139,0.00018241793992472403,-0.00062145957360762,2.686182403864384e-05,0.0010827900856583187,-0.0006076434875006186,-0.0005293217032722827,-0.2547723948955536,-51.00766372680664,-7.309159278869629,17.92273712158203,1.7284036874771118,-0.7633163928985596,0.08610688149929047,,,,,,,,,
1739303252.3390744,-0.10866030709255542,1.0622084248974821,-0.3901646469872074,-1.4234119829233962,1.5173001632886816,1.1598371938694554,1.3604357600328587,0.00015410656220149737,-0.00025059397829884115,0.0004913378496827051,-0.0021533051491361126,-0.00022578882395129767,-0.0005724121749170415,0.0018474726884094802,-0.2547723948955536,-51.00766372680664,-7.332962989807129,17.99811553955078,1.7412210702896118,-0.7633163928985596,0.07328949868679047,,,,,,,,,
1739303252.3500385,-0.10866272875661757,1.0622091764191492,-0.3901635726271691,-1.42340825127484,1.5173002387764782,1.159835621689453,1.360430293192984,-0.0008695656966645053,0.0006695178106317517,0.00021278606614246061,-0.0005987494369830103,5.515345550049551e-05,0.0005486870062219219,-0.0016286246793434018,-0.2309686839580536,-51.00766372680664,-7.356766700744629,17.94654083251953,1.7284036874771118,-0.7495834827423096,0.07969819009304047,,,,,,,,,
1739303252.3610039,-0.1086623116783253,1.0622073846478333,-0.3901635725951653,-1.4234047683001545,1.5172944983046774,1.1598332014044668,1.3604357167227685,-0.0006965642241835705,-0.00036153442362483643,-8.487939176929776e-05,0.0008944180861441126,-0.0016605410819668471,0.0008639129100245847,0.000767633372738927,-0.2071649730205536,-50.98386001586914,-7.356766700744629,17.89893341064453,1.7412210702896118,-0.7559921741485596,0.07328949868679047,,,,,,,,,
1739303252.372024,-0.1086664362871846,1.0622128867755123,-0.3901671379492032,-1.4234090224571265,1.517301677924786,1.15983451794265,1.3604361569176233,-0.0013748076676022127,0.0009250217966827853,0.0003181263806235087,6.535710770914899e-05,0.000698446563103202,-0.0006180261255381458,0.0013378501920433723,-0.1793939769268036,-51.05923843383789,-7.309159278869629,17.94654083251953,1.7284036874771118,-0.7495834827423096,0.06596527993679047,,,,,,,,,
1739303252.382961,-0.10866396669006768,1.0622141690250095,-0.3901635726311674,-1.423410413486086,1.5172974130747963,1.1598372416877,1.3604346973234651,-0.00020184858286986275,0.0015155332262452824,-0.00022231993622188356,-0.0011764809867108362,-0.0007271719680902708,0.001865733284067205,0.0006498158675719982,-0.1793939769268036,-51.08700942993164,-7.356766700744629,17.97431182861328,1.7284036874771118,-0.7633163928985596,0.07328949868679047,,,,,,,,,
1739303252.393939,-0.10866030626202608,1.062208945595273,-0.3901632294091897,-1.4234083340072785,1.517298318984874,1.1598331478922634,1.36043318700663,0.0010902510962793165,0.00023288665079154304,0.00035817060294210997,-0.00015738055437443366,-0.00011351178594383904,0.0003069459892839836,-0.0004181424412267498,-0.2547723948955536,-51.03543472290039,-7.332962989807129,17.94654083251953,1.7476297616958618,-0.7559921741485596,0.08610688149929047,,,,,,,,,
1739303252.4049184,-0.10866152249272511,1.062207463319836,-0.3901635724871585,-1.423409306074465,1.5172989589253272,1.1598320893463983,1.3604311033947059,-0.0004028680520416771,-9.387540328121813e-05,0.0006446987355436935,0.00010105305049113898,-0.0005243238592452383,-0.0008641022218191816,-0.0013348407644335051,-0.2071649730205536,-50.98386001586914,-7.356766700744629,17.92273712158203,1.7412210702896118,-0.7495834827423096,0.11265717446804047,,,,,,,,,
1739303252.4149582,-0.10866249291949606,1.0622072131652398,-0.39016535530818586,-1.4234124266297776,1.5172946812918322,1.1598372073809717,1.3604307151532051,8.237555216949652e-05,-0.0004683389559374236,0.00016796397425510642,-0.0017642896878295484,-0.003132463593195785,0.0005625386555490636,-0.002402280657263917,-0.2309686839580536,-50.98386001586914,-7.332962989807129,17.99811553955078,1.7412210702896118,-0.7633163928985596,0.11265717446804047,,,,,,,,,
1739303252.4250314,-0.10866271836372782,1.0622111742509832,-0.3901653562802484,-1.4234048173995282,1.5173005919086182,1.1598313844286126,1.3604333792933376,-0.0003180636532027429,0.0007596299078920961,-3.0556200348475254e-05,0.001210356899907606,0.0011121466586038159,0.0007120375647679121,0.00017389721229601373,-0.2309686839580536,-51.03543472290039,-7.332962989807129,17.89893341064453,1.7284036874771118,-0.7495834827423096,0.09343110024929047,,,,,,,,,
1739303252.4359446,-0.10866265113857568,1.062209107852158,-0.3901653544441483,-1.4234065765259611,1.5173013491586145,1.1598317884818528,1.3604291308417513,-0.0009254647829380482,0.00033718277001998413,-0.000403065045100916,0.000251581976345382,0.000718327135498583,0.00018915029586939026,-0.0013176600253724752,-0.2309686839580536,-51.00766372680664,-7.332962989807129,17.92273712158203,1.7219949960708618,-0.7559921741485596,0.12639008462429047,,,,,,,,,
1739303252.4460213,-0.10866101753856189,1.0622056717996662,-0.3901671681191144,-1.4234065765252744,1.5172999237103386,1.1598372067828093,1.360431773066656,0.00044484625132684816,-0.000214299024377064,-0.0017365799305179386,-0.0006505009737811382,-0.0005244852861077932,0.0005945902330369371,-0.0010151042596942134,-0.2547723948955536,-50.96005630493164,-7.309159278869629,17.92273712158203,1.7219949960708618,-0.7633163928985596,0.07969819009304047,,,,,,,,,
1739303252.4569132,-0.10866443825010133,1.0622057512724636,-0.39016149284148216,-1.423406552310204,1.5172990766010128,1.159835099703482,1.3604333787972296,-0.0016972139893135973,-3.1985083214673324e-05,0.0020519123431408685,0.00046451936257694675,-0.0007632527092043946,-0.001514435273647103,0.00043701543732298286,-0.2071649730205536,-50.96005630493164,-7.384537696838379,17.92273712158203,1.7412210702896118,-0.7495834827423096,0.09343110024929047,,,,,,,,,
1739303252.4669342,-0.10866612483739015,1.0622091763143748,-0.39016748120718364,-1.4234065510153453,1.5172990635809442,1.159832096535918,1.360430788352615,-0.0017793243410815641,-0.00018019689519961743,-0.00030561739933316105,0.00043572484257244147,-0.00023032673810131983,-0.000922167667827766,-0.0004724401637160655,-0.1793939769268036,-51.00766372680664,-7.332962989807129,17.92273712158203,1.7412210702896118,-0.7559921741485596,0.10624848306179047,,,,,,,,,
1739303252.4770405,-0.10866167485186254,1.062211313251269,-0.3901615029219522,-1.4234065538497465,1.517302094221037,1.1598319207167649,1.3604300418182143,0.0005695770124983379,0.00035847483452328664,0.0014503780024529692,0.0002232121601605398,0.00031069069175788705,-0.0019355823235157417,-0.002173048762171602,-0.2309686839580536,-51.00766372680664,-7.384537696838379,17.92273712158203,1.7155863046646118,-0.7495834827423096,0.11265717446804047,,,,,,,,,
1739303252.4870617,-0.10866272863449881,1.0622074637208165,-0.3901653553083574,-1.423410421985515,1.517301349642911,1.1598308961352006,1.360431022173755,-3.626408870375608e-05,-0.0003258307236951079,0.00036772211902084127,-0.001733787312154629,0.0012928725170362025,-0.001282903155992122,-0.0010852018550388017,-0.2309686839580536,-50.98386001586914,-7.332962989807129,17.97431182861328,1.7219949960708618,-0.7495834827423096,0.08610688149929047,,,,,,,,,
1739303252.498001,-0.1086624143758551,1.0622053180264304,-0.39016921788306813,-1.4234078755631292,1.5172998084861202,1.1598345240177577,1.3604259882489262,7.74321136472715e-05,-0.00041767594806781696,-0.0018349914125852004,0.0002540798097517295,-0.0004242671941985566,0.0001848043973740702,-0.0009133197088696891,-0.2309686839580536,-50.98386001586914,-7.281388282775879,17.92273712158203,1.7348123788833618,-0.7495834827423096,0.11998139321804047,,,,,,,,,
1739303252.5090117,-0.10866241000883037,1.0622036055016628,-0.39016353763694567,-1.4234124442343556,1.5172998324032538,1.1598336436899392,1.3604333964026167,0.00010838783412029851,-0.0012917183859678994,0.0007949956502553124,-0.0006259554519403957,0.0010214813667158344,-0.0008180451672803834,0.00037920701966470075,-0.2309686839580536,-50.96005630493164,-7.356766700744629,17.97431182861328,1.7348123788833618,-0.7697250843048096,0.06596527993679047,,,,,,,,,
1739303252.5190296,-0.10866541421858218,1.0622084609132822,-0.390166063940593,-1.4234086174490452,1.517301678112104,1.159837344573925,1.3604322665166728,-0.0016581091690291655,0.00043710439227698917,-0.0007534769329749091,-0.0005685699991159325,1.2844450458360853e-05,0.0009381050502583767,0.001542562813177625,-0.1793939769268036,-51.00766372680664,-7.332962989807129,17.92273712158203,1.7284036874771118,-0.7761337757110596,0.06596527993679047,,,,,,,,,
1739303252.530079,-0.10866074266307708,1.0622074636805887,-0.3901634943301954,-1.4234065520067891,1.5172998745561102,1.1598320069011823,1.360436626336153,0.0008384849460228729,0.0005167871744716756,-0.0011537196064096975,0.0005991368529106088,0.001087442076860077,-0.0025415716075090633,0.0006509100973838908,-0.2547723948955536,-50.98386001586914,-7.356766700744629,17.92273712158203,1.7348123788833618,-0.7559921741485596,0.06596527993679047,,,,,,,,,
1739303252.5410452,-0.10866636156271992,1.0622069913013057,-0.39016263167497384,-1.4234074948781812,1.517297664308915,1.1598331959962647,1.3604301110565387,-0.0017170225536509414,-0.0014335032526896475,0.0004035096843222281,0.00011811002678822213,-0.0007680712773246829,-0.0008470375832068447,-0.00039897231644459887,-0.1793939769268036,-51.00766372680664,-7.356766700744629,17.92273712158203,1.7412210702896118,-0.7559921741485596,0.11998139321804047,,,,,,,,,
1739303252.5519133,-0.10866172948292983,1.0622091409807695,-0.3901632576778563,-1.4234083377918372,1.517299834315003,1.1598335380299338,1.3604275832736172,0.00018301452851130005,-0.0001043137656039699,0.0010405193300959078,-0.00023230049550853818,-0.00044436222225485174,-0.0002030708518867287,-0.0011151184604836417,-0.2547723948955536,-51.00766372680664,-7.356766700744629,17.94654083251953,1.7348123788833618,-0.7633163928985596,0.10624848306179047,,,,,,,,,
1739303252.5629926,-0.10866201101411577,1.0622107042696662,-0.3901667988145175,-1.4234065510153928,1.51729833241182,1.159834848214097,1.3604313377221222,0.0006661152909345877,0.000920388736988487,-0.0005583902130705823,0.0006292186789577448,-0.0014266057237897688,-0.0011118056446602317,-0.0014199014821803426,-0.2309686839580536,-51.05923843383789,-7.332962989807129,17.92273712158203,1.7476297616958618,-0.7559921741485596,0.10624848306179047,,,,,,,,,
1739303252.5739827,-0.10866417059589226,1.0622098915538924,-0.39016539239325765,-1.4234107092537356,1.5172990766629226,1.1598312145045764,1.3604287841421494,-0.0013173221463505152,0.0005385268516992313,-0.0007813732923254432,-0.0005322841075233553,3.751200283312394e-05,-0.0018264620247737643,-0.0018718818095430029,-0.2071649730205536,-51.00766372680664,-7.332962989807129,17.94654083251953,1.7412210702896118,-0.7495834827423096,0.09343110024929047,,,,,,,,,
1739303252.584913,-0.10865956141935557,1.0622074520239242,-0.3901653290627294,-1.423408371847988,1.5173005905295038,1.159830489572238,1.360431861435613,0.000538656952950269,-0.0003053802627290044,-0.0005887820657619345,-0.00031176536098859485,-0.00027590647744117397,-0.0031609135556145717,0.00017703700699446567,-0.2309686839580536,-50.98386001586914,-7.332962989807129,17.94654083251953,1.7284036874771118,-0.7431747913360596,0.06596527993679047,,,,,,,,,
1739303252.5950408,-0.1086610165110133,1.062209176205159,-0.39016357263072315,-1.4234096122977664,1.5172957164514431,1.1598302541017138,1.3604323713078015,-0.0011520618914064808,0.0001454948943246821,0.0005063170660063523,-0.0012529342238003123,-0.0029534934930888763,-0.0006594404801135418,-0.0005685566139435301,-0.2547723948955536,-51.00766372680664,-7.356766700744629,17.92273712158203,1.7348123788833618,-0.7431747913360596,0.06596527993679047,,,,,,,,,
1739303252.6060097,-0.10866436365949914,1.062205309232452,-0.39016535566820953,-1.423410413849408,1.5173004742222387,1.1598331625632685,1.3604342459807186,-0.002143422750849412,-0.0007952673323672319,-0.00024073266992533297,-0.0009700410001887453,-6.189146817557769e-05,-0.00014926107073954517,0.00032926709731254393,-0.2071649730205536,-50.98386001586914,-7.332962989807129,17.97431182861328,1.7284036874771118,-0.7559921741485596,0.08610688149929047,,,,,,,,,
1739303252.6169474,-0.1086627037162184,1.062205318014269,-0.390162544213681,-1.423408639915005,1.5172983591753222,1.159832951441468,1.3604297731868642,-0.0013264997548486528,-0.0008343869127300071,0.0014258618085283682,-0.001163149308534431,0.0009245000308636246,0.0012825586165348523,-0.00154128775715878,-0.2309686839580536,-50.98386001586914,-7.332962989807129,17.94654083251953,1.7476297616958618,-0.7633163928985596,0.11998139321804047,,,,,,,,,
1739303252.6270099,-0.10866241426717389,1.0622054304016952,-0.39016742663993254,-1.4234083365319514,1.5173013496438128,1.159832482697693,1.3604321281576373,-0.0005939675195891488,-0.0010502612296400839,-0.0006890239472695666,0.0005762923264061859,0.001517977812783739,-0.0007480427779336046,-0.0006406476954632818,-0.2309686839580536,-50.96005630493164,-7.309159278869629,17.94654083251953,1.7219949960708618,-0.7633163928985596,0.11265717446804047,,,,,,,,,
1739303252.637912,-0.10865830833335521,1.0622057498538895,-0.3901632294108191,-1.4234066558889897,1.517299829962325,1.159837233591767,1.3604342314750046,0.00048560545654272665,-3.0253357648573297e-05,0.0009077212871463844,-0.0007004477918526811,0.00039908334542965255,8.620019765446913e-05,0.0006801084737353794,-0.2825433909893036,-50.96005630493164,-7.332962989807129,17.92273712158203,1.7348123788833618,-0.7633163928985596,0.08610688149929047,,,,,,,,,
1739303252.6480114,-0.10866373227974087,1.0622053087600247,-0.39016346761249887,-1.423410413483974,1.51729817542832,1.159835149000077,1.360430604413996,-0.0013891307648286775,-0.0006744082198780283,0.0018467642599389136,-0.0007698268967898819,0.001049855257288587,0.0014615287041903342,0.00010253857334387344,-0.2071649730205536,-50.98386001586914,-7.356766700744629,17.97431182861328,1.7476297616958618,-0.7559921741485596,0.07969819009304047,,,,,,,,,
1739303252.6590722,-0.10866178202981794,1.0622132817455643,-0.3901635377803617,-1.4234083677054183,1.517301349642322,1.1598310297022296,1.3604268677423967,0.00030483848395523557,0.0008518880173845236,0.001222823963836267,-4.618713077539919e-05,0.0013793344566414806,8.217948257789695e-05,-0.0006461185354739527,-0.2309686839580536,-51.03543472290039,-7.356766700744629,17.94654083251953,1.7219949960708618,-0.7495834827423096,0.11265717446804047,,,,,,,,,
1739303252.6700072,-0.10866417907219847,1.0622089115620943,-0.39016380884197055,-1.4234093061796305,1.5172948381103801,1.1598358524388528,1.3604372501092283,-7.360180416407438e-05,0.0007646288951548751,-0.0007375404363691763,0.0003463659634913178,-0.002571266823841737,0.0018093599807095788,-0.0002091945989847057,-0.2071649730205536,-51.00766372680664,-7.356766700744629,17.92273712158203,1.7412210702896118,-0.7559921741485596,0.05955658480525017,,,,,,,,,
1739303252.6809828,-0.10866177910934138,1.0622096134476078,-0.39016569853149796,-1.423403062206259,1.517302107279284,1.1598356632430595,1.360431859403074,-0.00030877527471368145,0.0006187935870494832,0.00011780684974375228,0.001205643657957919,0.0012949027317489478,0.0008773922325242713,6.630305261905471e-06,-0.2309686839580536,-50.98386001586914,-7.356766700744629,17.87512969970703,1.7155863046646118,-0.7633163928985596,0.10624848306179047,,,,,,,,,
1739303252.6909852,-0.10866409924219832,1.0622091764235884,-0.3901653554161936,-1.4234093060783486,1.5172974531055854,1.159831612593608,1.3604338759951502,-0.0008859328891217847,3.6807540857298376e-05,-0.00019832884311658976,4.807260600362754e-05,-0.0005487051210761776,-0.0006900178468579113,0.0016410019246091028,-0.2071649730205536,-51.00766372680664,-7.332962989807129,17.92273712158203,1.7549539804458618,-0.7559921741485596,0.08610688149929047,,,,,,,,,
1739303252.7019362,-0.10866099112311386,1.0622070276400626,-0.3901653291345248,-1.4234086398152086,1.517300591983054,1.1598316167924487,1.3604320534251992,0.001134830408744268,0.0004718828222567814,-0.0014690199892625998,0.0005710272177543675,0.0015708154939657768,-0.001639298548402142,-0.0018488089457341112,-0.2547723948955536,-51.00766372680664,-7.332962989807129,17.94654083251953,1.7284036874771118,-0.7559921741485596,0.07328949868679047,,,,,,,,,
1739303252.711983,-0.10866272129029515,1.0622084610222495,-0.3901671379847625,-1.4234083592073337,1.5173004495017788,1.1598363262953193,1.360436584037341,0.000722843583200408,0.0008787350690203808,-0.0011958110843969501,0.00033644001840664147,0.0006195468155005098,0.0003975834784870784,0.0021592167906600286,-0.2309686839580536,-51.00766372680664,-7.309159278869629,17.94654083251953,1.7348123788833618,-0.7559921741485596,0.06596527993679047,,,,,,,,,
1739303252.7219968,-0.10866198433841638,1.0622111742431142,-0.39016646345855543,-1.4234047697034586,1.5173021073136288,1.1598340358655097,1.3604346630861979,-0.0007175879072579804,0.0022790959761882622,0.0007773711575842239,0.0023091499314640772,0.0007362229421879117,-0.001916552700632593,0.0017360624291094364,-0.2071649730205536,-51.03543472290039,-7.332962989807129,17.89893341064453,1.7155863046646118,-0.7495834827423096,0.07328949868679047,,,,,,,,,
1739303252.733061,-0.10866201921689153,1.0622091670479918,-0.39016784662446025,-1.4234065499978459,1.5173005919830542,1.1598324798005375,1.360431846531024,-0.0007272584041257257,0.0011460452963036284,-0.0004156566412035905,0.0007941387917854779,0.0011743908883538965,-0.0006418036445085114,-0.0004950686119089647,-0.2309686839580536,-51.00766372680664,-7.309159278869629,17.92273712158203,1.7284036874771118,-0.7633163928985596,0.10624848306179047,,,,,,,,,
1739303252.744017,-0.10866265099041542,1.0622091759872736,-0.39016353731692516,-1.4234065541646765,1.5173019135623138,1.159833539420718,1.3604317069589256,-2.331993577729571e-05,0.0007246695072561794,0.0005901624586379779,8.021520332505322e-05,0.0015433900526008728,0.00013552567862437469,0.000130203347654685,-0.2309686839580536,-51.00766372680664,-7.356766700744629,17.92273712158203,1.7082620859146118,-0.7633163928985596,0.07969819009304047,,,,,,,,,
1739303252.754059,-0.10866160109961881,1.0622071890726414,-0.3901653903018108,-1.4234074703132298,1.5172970174336704,1.1598316691382269,1.3604307650564669,-0.0010320156453576413,-0.00031613270383578897,0.0008432609674273786,0.00011372240469042812,-0.00041924167828044266,-0.0006619334313826099,0.0005902150979866646,-0.2071649730205536,-50.98386001586914,-7.332962989807129,17.92273712158203,1.7348123788833618,-0.7559921741485596,0.07969819009304047,,,,,,,,,
1739303252.7650034,-0.10865964906273115,1.0622091763097223,-0.3901678893895133,-1.423406664407811,1.5172984394746185,1.159835779342599,1.360429716911133,0.0008908843581549719,-1.8929408608222217e-05,-0.0015855990560146816,0.0007690594388679304,-0.000775582051544247,0.000829431383938784,2.0180801770534906e-05,-0.2309686839580536,-51.00766372680664,-7.309159278869629,17.92273712158203,1.7476297616958618,-0.7633163928985596,0.11998139321804047,,,,,,,,,
1739303252.7759259,-0.10866440737839995,1.062205724781959,-0.39016357641282157,-1.423405686726556,1.5173005919294456,1.1598316125097894,1.3604366220529696,-0.00042816341317009196,-0.0007301432859602766,0.0005077206591879429,-9.796713360643193e-05,0.0006365126285742713,0.00048522059283807894,0.00208135512303671,-0.2071649730205536,-50.96005630493164,-7.356766700744629,17.89893341064453,1.7284036874771118,-0.7559921741485596,0.06596527993679047,,,,,,,,,
1739303252.7860024,-0.10866712706891495,1.0622128867755103,-0.3901635726312317,-1.423406576960598,1.5172997167509483,1.1598322676225599,1.3604357561566265,-0.0009730014784185179,0.001752403213090084,0.0002429571487625718,0.0020575463182131598,-0.00022545486173655265,-0.0007425362645156016,0.0011379760752090065,-0.1555902659893036,-51.05923843383789,-7.356766700744629,17.92273712158203,1.7348123788833618,-0.7495834827423096,0.07328949868679047,,,,,,,,,
1739303252.7969475,-0.1086633901508013,1.0622086811621845,-0.39016219855812584,-1.4234065511204486,1.5172958958649598,1.1598319538251864,1.3604290068054554,0.0005432073147267323,-0.00034380224529965856,0.0006375248636498001,0.0008609979280121615,-0.0007777418001901914,-0.00042552307333456663,-0.0021832572000965176,-0.2071649730205536,-51.03543472290039,-7.384537696838379,17.92273712158203,1.7412210702896118,-0.7495834827423096,0.12639008462429047,,,,,,,,,
1739303252.806948,-0.10865995528205813,1.0622037284341295,-0.39016713497296507,-1.4234065538497482,1.5172951337358465,1.1598301014909043,1.360431823288802,0.0007925517963297766,-0.0009577576756072744,-0.00039958083406414026,0.0006261894023549163,-0.0010725202986902051,-0.0004132787648743747,0.0003781317015353084,-0.2547723948955536,-50.93228530883789,-7.309159278869629,17.92273712158203,1.7476297616958618,-0.7431747913360596,0.07969819009304047,,,,,,,,,
1739303252.8169613,-0.10866272874263866,1.062205742551189,-0.3901650402521292,-1.4234047796760443,1.5172994930451253,1.1598316516777285,1.3604287265020418,0.0003340193526185795,0.0004136188048416064,0.0006682467019478172,0.00036334258222998775,-0.00021574173934345027,0.0003579562746476487,-0.0017864165057156715,-0.2309686839580536,-50.96005630493164,-7.332962989807129,17.89893341064453,1.7284036874771118,-0.7559921741485596,0.13279877603054047,,,,,,,,,
1739303252.8270004,-0.10866411520459332,1.0622094677147127,-0.3901646466698522,-1.4234054838728307,1.5173005919644433,1.1598332490717254,1.3604278722452314,-0.0008640432437758195,0.0004534574935752617,-0.00017783038541953832,0.0014289800093079267,0.0014086884119999309,0.0009862773990056272,-0.0027369126202009078,-0.2071649730205536,-51.00766372680664,-7.332962989807129,17.89893341064453,1.7284036874771118,-0.7697250843048096,0.09983979165554047,,,,,,,,,
1739303252.8379812,-0.10866338012272468,1.0622105979971765,-0.39016346724847567,-1.4234063224782665,1.5172998336769534,1.1598360249917041,1.360432145962702,-0.0003066502154157406,0.00046051418539963605,0.0010833364397974435,0.0013062854699584152,0.00037957259049315633,0.0002840233001882074,-0.001687932490191036,-0.2071649730205536,-51.00766372680664,-7.356766700744629,17.89893341064453,1.7348123788833618,-0.7633163928985596,0.09343110024929047,,,,,,,,,
1739303252.848004,-0.1086623788488652,1.062208699501293,-0.3901647520880969,-1.423406551041643,1.5172983234724753,1.1598330259887222,1.360429848605528,0.0004861596309183341,-0.00011586623662566937,0.00030320634111953153,0.0014235265245153633,-0.0004824328232437865,0.0008233483449818824,-0.0011382485212603653,-0.2309686839580536,-51.00766372680664,-7.332962989807129,17.92273712158203,1.7476297616958618,-0.7559921741485596,0.09343110024929047,,,,,,,,,
1739303252.8599114,-0.10866272861429985,1.0622090615175526,-0.39016535660086377,-1.4234093062144315,1.517299024555838,1.159830854779699,1.3604397124602514,0.0001623936298432816,-0.0003541034778204332,0.0008828997699560266,-0.00040147983836893086,0.0001908280992126357,-0.0015749648787569382,0.0022458286208495272,-0.2309686839580536,-51.00766372680664,-7.332962989807129,17.92273712158203,1.7412210702896118,-0.7495834827423096,0.03941498324275017,,,,,,,,,
1739303252.8700073,-0.10865988782240403,1.0622074637929955,-0.3901671383092336,-1.423408588840957,1.5172964742767951,1.1598324783290301,1.3604315101207916,-0.0006092997122132063,0.00026235747207390087,-3.089672565670745e-05,0.00044115214293395855,-0.000742075034561216,-0.0006980598096800303,-0.00031908191576273537,-0.2309686839580536,-50.98386001586914,-7.309159278869629,17.94654083251953,1.7284036874771118,-0.7633163928985596,0.10624848306179047,,,,,,,,,
1739303252.8800685,-0.10866132553313224,1.0622091877610829,-0.3901635726311731,-1.4234067815527134,1.517295242488015,1.1598304503243508,1.3604298881728256,0.0001881604173001122,0.001964380586791086,0.00045817175066010753,0.0008402212864797113,-0.002063325441906958,-0.000604105841122932,-4.0583952622504386e-05,-0.2071649730205536,-51.00766372680664,-7.356766700744629,17.92273712158203,1.7348123788833618,-0.7431747913360596,0.11998139321804047,,,,,,,,,
1739303252.8909726,-0.10866443862945595,1.062212798036781,-0.3901671340969588,-1.4234104769373312,1.5172998975756968,1.1598324789770462,1.3604367170386267,-0.0009513438072892055,0.0017158309842604793,-0.00016569515655724264,-0.0010661834426915597,-0.0012236329004969896,-0.0007394857391511309,0.0019425941337874808,-0.2071649730205536,-51.05923843383789,-7.309159278869629,17.94654083251953,1.7219949960708618,-0.7633163928985596,0.05314789339900017,,,,,,,,,
1739303252.9009845,-0.10865785669475603,1.0622110947808652,-0.3901653290624542,-1.42340747360381,1.5172990708241054,1.1598316516776652,1.3604380196128325,0.001671545578798956,-0.00016702991518441,0.00010517064244023499,0.0013388829658820428,-0.00134981567938215,-0.0007504148089777169,0.0031783230996124305,-0.2547723948955536,-51.03543472290039,-7.332962989807129,17.92273712158203,1.7412210702896118,-0.7559921741485596,0.05314789339900017,,,,,,,,,
1739303252.9119453,-0.10866238805104789,1.0622090284875672,-0.39016358137957496,-1.423406860287643,1.5172983146421355,1.1598316255139713,1.3604286808491353,0.0001263844209748484,-3.7211589943093935e-05,0.00209920889287046,0.0003288956297694162,0.00019920335946725464,-0.001460878772194268,-0.0011103906980653427,-0.2309686839580536,-51.03543472290039,-7.356766700744629,17.89893341064453,1.7476297616958618,-0.7559921741485596,0.13279877603054047,,,,,,,,,
1739303252.921994,-0.10866127685882887,1.0622074373753678,-0.3901692178832163,-1.423414289258547,1.5172995323448508,1.1598356703255919,1.3604290000214798,-0.0004807383318360831,-0.0005185809955273253,-0.00022093696375384108,-0.002105119903890627,-0.0003676075494559243,4.357711568607513e-05,6.428132327432421e-05,-0.2071649730205536,-50.98386001586914,-7.281388282775879,17.99811553955078,1.7284036874771118,-0.7633163928985596,0.12639008462429047,,,,,,,,,
1739303252.9329214,-0.10866148643658279,1.0622053180262825,-0.3901671379852063,-1.4234085632924196,1.5173005919770723,1.159831920888091,1.3604304525798079,0.0010439361521826108,-0.0006237709631597861,-0.00017194284417190438,0.0006386263432551242,-2.683849513687922e-05,0.0012375148849331553,-0.00033482003605283064,-0.2071649730205536,-50.98386001586914,-7.309159278869629,17.94654083251953,1.7284036874771118,-0.7495834827423096,0.10624848306179047,,,,,,,,,
1739303252.9439113,-0.1086635194546033,1.0622057512607994,-0.3901629144611901,-1.4234084105379952,1.5173005876224033,1.1598313257280175,1.3604349628128416,-0.0005188243338695228,-0.0006039107959129773,-6.474426434364836e-05,3.656765219128388e-05,0.0013064991032660522,-0.0003705133303711448,0.0010785074980551174,-0.1793939769268036,-50.96005630493164,-7.332962989807129,17.94654083251953,1.7284036874771118,-0.7495834827423096,0.05314789339900017,,,,,,,,,
1739303252.953979,-0.10866362561631698,1.0622050242434173,-0.39016295881218943,-1.4234065519640353,1.517297256085018,1.1598320772314032,1.3604304344938416,-0.0007122595312348734,-0.0013343590133803253,0.001014673563969191,0.0008535105906197511,-0.0007871938704764497,0.0005766743413991728,-0.0003966585714465248,-0.2071649730205536,-50.96005630493164,-7.356766700744629,17.92273712158203,1.7284036874771118,-0.7495834827423096,0.10624848306179047,,,,,,,,,
1739303252.9649456,-0.1086605159016564,1.0622091761649157,-0.3901663496396801,-1.423413280168615,1.517300591748882,1.1598308549939609,1.3604307007711554,-8.024248492757675e-05,1.996442288478001e-05,-0.00034600078291059514,-0.0012976153134665108,0.0009194785825164621,-0.0007569242972767427,-0.0001345427539815086,-0.2309686839580536,-51.00766372680664,-7.309159278869629,17.97431182861328,1.7284036874771118,-0.7495834827423096,0.11265717446804047,,,,,,,,,
1739303252.9759653,-0.10866133830726729,1.062211186028984,-0.3901670472549943,-1.4234104135333734,1.5173052985424107,1.1598316516776555,1.360432989505919,0.0005647157613205805,0.0007794503445347854,-0.00018660210093030785,-0.00015509308635896038,0.0015229317976602208,-0.000913300945481247,2.3443109490576164e-05,-0.2071649730205536,-51.03543472290039,-7.309159278869629,17.97431182861328,1.7284036874771118,-0.7559921741485596,0.05955658480525017,,,,,,,,,
1739303252.9860437,-0.10866443823257763,1.06220746379371,-0.3901614641207627,-1.4234065595185927,1.5173005726289528,1.159832286734274,1.3604349905042221,0.0001987976635211327,-0.0006328068646895535,0.0008394339192739998,0.0010633332454703425,-0.000749399692839859,0.001907949698519879,0.001628469592903347,-0.2071649730205536,-50.98386001586914,-7.356766700744629,17.92273712158203,1.7284036874771118,-0.7495834827423096,0.07969819009304047,,,,,,,,,
1739303252.9969292,-0.10866396766439994,1.0622084508837857,-0.39016503732409247,-1.4234086511477644,1.517296078494386,1.1598308941871651,1.3604317859890196,-0.0005226799954499508,-0.0006169628481223896,0.0013104310688885749,0.0005523732655689722,-0.0012622947677529653,-0.0008370151626957975,0.0009234009658802669,-0.1793939769268036,-51.00766372680664,-7.332962989807129,17.94654083251953,1.7348123788833618,-0.7495834827423096,0.07969819009304047,,,,,,,,,
1739303253.007982,-0.10866228244255403,1.0622053180141464,-0.390160756661179,-1.4234083378968638,1.5173013540491942,1.1598316167931157,1.3604294289430432,-0.0003122648410841691,1.5667230446727345e-05,0.0027078054355968518,0.0002084018174861282,0.0003936888844329143,-0.00017588820281965882,-0.001039744601473957,-0.2071649730205536,-50.98386001586914,-7.384537696838379,17.94654083251953,1.7219949960708618,-0.7559921741485596,0.09983979165554047,,,,,,,,,
1739303253.0189667,-0.10865961283995149,1.0622036055016628,-0.3901653553068014,-1.4234093065410394,1.5172983190028275,1.1598308547717275,1.3604296932475615,0.0016693551834960807,-0.001310615852737946,0.0005796354481722348,-9.815090176572743e-05,0.0002601571280370172,-0.0010603018195868797,-0.0023057470465115176,-0.2309686839580536,-50.96005630493164,-7.332962989807129,17.92273712158203,1.7476297616958618,-0.7495834827423096,0.11265717446804047,,,,,,,,,
1739303253.029968,-0.10866019309232501,1.0622053178810764,-0.3901654340451865,-1.4234092534567753,1.517299834322976,1.1598324826896806,1.3604306363145504,0.0014387397131025424,-0.0008092357864846731,-0.0004851110447299396,0.00021597273075256966,0.00010031223861788169,0.0005465164524640527,2.6261696461509962e-05,-0.2547723948955536,-50.98386001586914,-7.332962989807129,17.94654083251953,1.7348123788833618,-0.7633163928985596,0.11265717446804047,,,,,,,,,
1739303253.041002,-0.10865963936597153,1.0622074510225892,-0.39016356874306884,-1.423406627686446,1.5172958977485094,1.1598340336861157,1.3604310278436154,0.0006287188126263396,-0.00017038773580558777,0.000861196154020807,0.0008729254339128044,-0.0008928721065694538,7.486560897648862e-05,0.0013762656513276225,-0.2309686839580536,-50.98386001586914,-7.356766700744629,17.92273712158203,1.7412210702896118,-0.7495834827423096,0.08610688149929047,,,,,,,,,
1739303253.051044,-0.10866154829224503,1.0622091723895728,-0.3901653290624542,-1.4234093323553376,1.5172999365769526,1.159831625567585,1.360434043762151,-0.0015156146831340673,0.0010975996490287282,-0.00030256736469500093,-0.0016969780723310867,-0.0008946940235232783,-0.0016369095089331129,0.0020204805570825674,-0.2309686839580536,-51.00766372680664,-7.332962989807129,17.94654083251953,1.7219949960708618,-0.7559921741485596,0.05955658480525017,,,,,,,,,
1739303253.0619419,-0.10866169224418414,1.062207463684605,-0.3901653815537051,-1.4234054697411542,1.5172990766549206,1.1598335379672335,1.3604338913200806,0.00026439055697034363,0.0007347543933447688,5.2388046475932315e-05,0.0018442387983677738,0.0007957680377025588,0.00047845441765688717,0.0010761143744342225,-0.2309686839580536,-50.98386001586914,-7.332962989807129,17.89893341064453,1.7412210702896118,-0.7633163928985596,0.05314789339900017,,,,,,,,,
1739303253.0720174,-0.10866051599788731,1.0622074546362714,-0.39016920902783914,-1.423406863957329,1.517298201265249,1.1598317307077195,1.360433454610268,0.00042385373626434297,-0.0006465153910717844,-0.0016764986819297958,0.0008737523091331487,-0.00033008139919790355,-0.00023958555205763634,0.0020052552125052383,-0.2309686839580536,-50.98386001586914,-7.281388282775879,17.89893341064453,1.7476297616958618,-0.7559921741485596,0.07969819009304047,,,,,,,,,
1739303253.0829458,-0.10866406116013026,1.0622091753332112,-0.3901614466961519,-1.4234094081292947,1.517299076662676,1.1598319700053807,1.3604316546641975,-0.0009450389643672969,-4.903436872685275e-05,0.0010505241824611913,-0.0007383276781994831,-7.447482159291183e-05,-0.0006731299192623232,-0.00025331334277695994,-0.1793939769268036,-51.00766372680664,-7.356766700744629,17.92273712158203,1.7412210702896118,-0.7559921741485596,0.07969819009304047,,,,,,,,,
1739303253.0929601,-0.10866337813561223,1.0622091674840404,-0.3901614462641403,-1.423407351315797,1.5172987234501876,1.1598316124378532,1.3604318632770813,-0.0002219295772568158,0.0003095153493105323,0.0005310974043486219,0.0016375524473781233,0.00015114555882696053,-0.00042472711952047594,-0.0006455718436530678,-0.2071649730205536,-51.00766372680664,-7.356766700744629,17.92273712158203,1.7412210702896118,-0.7559921741485596,0.10624848306179047,,,,,,,,,
1739303253.103922,-0.10866237817520752,1.06220746332119,-0.3901632643914084,-1.4234089238867826,1.5173015759345228,1.1598316124317978,1.360430896971133,-0.0005412638035473089,-0.0004574949558834841,-0.00028204207620358964,-0.00019664938794236762,0.0009756828647127036,-0.0010419205326309502,1.3083792888575593e-06,-0.2309686839580536,-50.98386001586914,-7.332962989807129,17.92273712158203,1.7476297616958618,-0.7559921741485596,0.08610688149929047,,,,,,,,,
1739303253.1139376,-0.10866195770083979,1.0622074608501963,-0.39016535516476997,-1.4234104904717177,1.5172994813309657,1.159830097111641,1.360434607812208,0.00019347251131666683,-1.6480373684979802e-06,-0.00014554378974500576,-0.0010433652765710426,-7.566672917570501e-05,-0.001249825814811541,0.0009786914413613677,-0.2071649730205536,-50.98386001586914,-7.332962989807129,17.97431182861328,1.7348123788833618,-0.7431747913360596,0.04673920199275017,,,,,,,,,
1739303253.1239946,-0.10866136158950139,1.0622030380762721,-0.39016149284130963,-1.4234089234286613,1.517299536324097,1.1598317301693677,1.3604355636351697,-0.00025584236741227155,-0.0012179240676899305,0.0010967221851233139,-0.0005719536809687291,0.000901174795618779,-0.0005661347827799099,0.0007365201119719415,-0.2071649730205536,-50.93228530883789,-7.384537696838379,17.92273712158203,1.7284036874771118,-0.7559921741485596,0.06596527993679047,,,,,,,,,
1739303253.1349764,-0.10866350870015022,1.062208937891758,-0.3901614928413121,-1.4234113307756038,1.5172998507421345,1.159830854772384,1.3604320341588567,0.00030778049713182747,-1.6397861986104794e-05,-0.0008471070591380733,-0.0019502889881824795,0.0003215660271978558,-0.00025197063672595946,0.0014211329879699557,-0.1793939769268036,-51.00766372680664,-7.384537696838379,17.94654083251953,1.7348123788833618,-0.7495834827423096,0.06596527993679047,,,,,,,,,
1739303253.146023,-0.10866408744060695,1.0622035139282962,-0.39016357263116763,-1.4234078673581847,1.5173005918218265,1.1598308941790816,1.360433785367323,-0.0005103851260720539,-0.0008993338701590687,-0.00018470864244722994,-0.00044590304016363597,0.0007996036733481562,-0.00048257525970472654,0.0005312487951833528,-0.2071649730205536,-50.93228530883789,-7.356766700744629,17.89893341064453,1.7284036874771118,-0.7495834827423096,0.05314789339900017,739,736,752,39.762,0,0
1739303253.1569674,-0.10866196956652874,1.0622121715197712,-0.39016330379230946,-1.4234047768823974,1.5172998342691404,1.1598313258835788,1.3604294274654964,0.000657606021522037,0.0017687220704084277,0.001210909008236639,0.0021845940900591786,0.0006968562708012951,0.00029148232657242023,-0.002248792699222118,-0.2071649730205536,-51.05923843383789,-7.384537696838379,17.89893341064453,1.7348123788833618,-0.7495834827423096,0.12639008462429047,740,739,751,39.871,0,0
1739303253.1679256,-0.10866006170447298,1.0622074725835848,-0.39016723379751217,-1.423406559938555,1.5172966554085876,1.1598316130804793,1.36042517924697,0.0001901514103042494,-0.0005736008485031506,-0.0007672235759923522,0.0015916986418872438,-0.0005756613847744333,-2.2940118619187925e-05,-0.0013468387786010913,-0.2547723948955536,-50.98386001586914,-7.309159278869629,17.92273712158203,1.7348123788833618,-0.7559921741485596,0.13279877603054047,737,736,753,39.762,0,0
1739303253.178027,-0.1086616000021786,1.0622091763145236,-0.3901613878602681,-1.4234065547947052,1.5172990759630398,1.1598316138853588,1.3604346848301199,-0.001531042647501427,-7.141049884100588e-05,0.001162959432278474,0.0013768463497610547,7.893625481874742e-05,0.00030758973467270986,0.0024745889253687346,-0.2071649730205536,-51.00766372680664,-7.384537696838379,17.92273712158203,1.7412210702896118,-0.7559921741485596,0.07328949868679047,738,735,751,39.762,0,0
1739303253.1889546,-0.10865953668565798,1.062211056517658,-0.390163572630575,-1.423410630834721,1.5172966554085838,1.1598308547717275,1.3604352336262489,0.0007303650637711797,-0.0001686883177332225,0.00043125599999524423,-0.0005626816180645798,0.00034947137055691205,-0.0005991303320087788,0.001710003197910918,-0.2309686839580536,-51.03543472290039,-7.356766700744629,17.94654083251953,1.7348123788833618,-0.7495834827423096,0.07328949868679047,737,734,751,39.871,0,0
1739303253.198997,-0.10866345704279169,1.0622112867583218,-0.39016356971498245,-1.423407243703219,1.5172984394684874,1.1598308547717195,1.3604276268719155,0.0004400394202375415,0.001059028094431167,0.0003083534071418519,-0.00023027971070540092,0.00045217198351564904,-0.0005056600222125982,-0.0011753501753166617,-0.2071649730205536,-51.00766372680664,-7.356766700744629,17.92273712158203,1.7476297616958618,-0.7495834827423096,0.10624848306179047,732,737,751,39.762,0,0
1739303253.2090142,-0.10866101654798434,1.0622128859395694,-0.3901632294091403,-1.423410451601171,1.5173023834464463,1.1598364149034965,1.3604306311359355,-0.0008566540485693391,0.001564671333453221,0.0011735677683653318,-0.000839928369396759,3.3432703646513195e-05,0.00037357068753648926,-0.0019213517901744957,-0.2547723948955536,-51.05923843383789,-7.332962989807129,17.97431182861328,1.7219949960708618,-0.7697250843048096,0.10624848306179047,737,736,752,39.762,1,0
1739303253.219962,-0.10866125943488224,1.0622074637936387,-0.3901615715303089,-1.423406818816021,1.5172979657959453,1.1598316517494345,1.3604291226518765,0.0003107720670159298,-0.0005575054324102449,0.0012045838445388216,0.0008725606781154742,-0.0009028077253824534,0.00012436580446956733,0.0016888956586623574,-0.2071649730205536,-50.98386001586914,-7.384537696838379,17.92273712158203,1.7476297616958618,-0.7559921741485596,0.09343110024929047,736,737,753,39.871,0,0
1739303253.2299736,-0.10866245513569495,1.0622091753332283,-0.39016713798653835,-1.4234060586002453,1.5172943482579655,1.1598324973873546,1.3604352497646115,-0.00022197121324212354,0.0002247137655106766,-0.0001483033575434641,0.0001901800705184991,-0.0016253875358620354,0.0003804274846368824,0.0016804965992861939,-0.2309686839580536,-51.00766372680664,-7.309159278869629,17.87512969970703,1.7412210702896118,-0.7633163928985596,0.07328949868679047,736,737,751,39.762,1,0
1739303253.2409055,-0.10866333531771698,1.0622057244548937,-0.39016535520017986,-1.4234111908427467,1.5173020896190261,1.1598324783293528,1.3604357207783282,-0.001119390659128549,-0.0006142363665129552,-0.0012388361475185279,0.0005096277957312754,0.0009120612003289997,-0.00014864008198672135,0.0009128440183210308,-0.1793939769268036,-50.96005630493164,-7.332962989807129,17.94654083251953,1.7155863046646118,-0.7633163928985596,0.07328949868679047,737,736,751,39.762,1,0
1739303253.2520134,-0.10866135150986106,1.062203578687547,-0.3901665713574065,-1.4234066657031077,1.5173012247830666,1.1598308547717195,1.3604287432819975,-0.00044594036348783925,-0.0016912479428309096,-0.00110473884934612,9.671566585823458e-05,-0.00089225974374409,-4.210595978123828e-06,-0.0005951953861288011,-0.2071649730205536,-50.96005630493164,-7.332962989807129,17.92273712158203,1.7219949960708618,-0.7495834827423096,0.09343110024929047,737,736,752,39.871,0,0
1739303253.2620463,-0.10866324422284078,1.0622074624368454,-0.39016567022704857,-1.4234068868775975,1.517299832384204,1.1598332359891086,1.3604303348187925,0.00031581407235376283,-0.00014056834641357647,4.083939512057166e-05,0.00046389817725267675,0.0002964701585439479,0.0007709745724697355,-0.00017322048794011407,-0.1793939769268036,-50.98386001586914,-7.332962989807129,17.92273712158203,1.7348123788833618,-0.7697250843048096,0.10624848306179047,738,743,752,39.762,0,0
1739303253.2739751,-0.10866177909278571,1.0622111862473085,-0.3901661689256299,-1.423411193627025,1.517300578901091,1.1598332359891086,1.360435393514216,-0.00026394707507071684,-0.00019137156361681906,-0.0010458258807444164,0.0007077888887805457,0.000901079184694733,0.00038718249691009317,0.0009503870961133478,-0.2309686839580536,-51.00766372680664,-7.332962989807129,17.94654083251953,1.7284036874771118,-0.7697250843048096,0.07328949868679047,738,738,752,39.871,0,0
1739303253.2849407,-0.1086581489447881,1.0622091763181567,-0.390158658310847,-1.4234051116704594,1.517299832869401,1.1598308533181692,1.360431917718646,0.001728883925614441,5.8190691697083755e-05,0.0012087807046520583,0.0015225925294570875,-0.0003884190414803876,-0.0006804927813190775,-0.0008973832397363222,-0.2547723948955536,-51.00766372680664,-7.384537696838379,17.89893341064453,1.7348123788833618,-0.7495834827423096,0.06596527993679047,737,736,751,39.871,0,0
1739303253.2949429,-0.10866432517890513,1.0622074628124971,-0.39016349287410296,-1.423407841908415,1.517299794592578,1.1598324783290053,1.3604350027775305,0.0005064265975010625,-0.00042708922776789766,0.0006402609004517681,0.00040397626351809185,-0.00018508956438269982,-0.00010384424869001955,0.0008606901830257592,-0.2071649730205536,-50.98386001586914,-7.356766700744629,17.89893341064453,1.7348123788833618,-0.7633163928985596,0.07969819009304047,737,736,753,39.762,1,0
1739303253.3059616,-0.10866048082962108,1.062205388668968,-0.39016535530773644,-1.4234096465375035,1.5172990826774102,1.1598308489575184,1.3604295242110531,0.001151967704693687,-0.0008579943214202026,-0.00013952121204748266,0.00014396784420056088,-3.3719399178888058e-06,8.438256591200425e-05,-0.000776349554112318,-0.2309686839580536,-50.98386001586914,-7.332962989807129,17.92273712158203,1.7412210702896118,-0.7495834827423096,0.11265717446804047,736,737,753,39.762,1,0
1739303253.3169177,-0.10866370301301585,1.0622111448091212,-0.3901668230372062,-1.4234093175695974,1.517299834378191,1.1598324783289973,1.3604323873686348,-0.0009347511534571246,0.00047153024679748225,-0.0007412777087028215,-0.0005376615128367148,0.0007751414326594961,0.0006167072051787555,0.0013615948495631055,-0.2071649730205536,-51.03543472290039,-7.309159278869629,17.92273712158203,1.7348123788833618,-0.7633163928985596,0.06596527993679047,739,737,754,39.762,0,0
1739303253.3279052,-0.10866124965129756,1.0622111742550615,-0.3901614462983653,-1.4234087316820125,1.5173013511330218,1.15983247832903,1.360433168092549,-0.0009962751002888653,0.0003570652500193531,0.00019333370513274366,0.000638386073117019,-3.394385328539995e-05,-0.00033663990137889493,0.001145643438607046,-0.2071649730205536,-51.03543472290039,-7.356766700744629,17.92273712158203,1.7219949960708618,-0.7633163928985596,0.08610688149929047,738,737,755,39.762,1,0
1739303253.3380327,-0.1086640962052953,1.06221256888452,-0.39016713787717683,-1.423407555771591,1.5172990635810208,1.1598308678536715,1.3604247683596802,-0.0007127004772758471,0.0013690180011888381,-0.0013554681753792644,-0.0007885443647810725,-0.0008595411083763167,-0.0004615391940074723,-0.0022107642334306746,-0.2071649730205536,-51.05923843383789,-7.309159278869629,17.92273712158203,1.7412210702896118,-0.7495834827423096,0.12639008462429047,737,737,754,39.762,1,0
1739303253.3489258,-0.10865995647779952,1.062209178930167,-0.39015936693031406,-1.423409615343391,1.5172994808949007,1.1598328310572477,1.3604290852704004,0.0009813781832366756,0.000426734113214298,0.0014687055569606866,-9.328400995383643e-05,-0.00025417629560201563,1.7724024685084809e-06,0.0006391316406933377,-0.2547723948955536,-51.00766372680664,-7.384537696838379,17.92273712158203,1.7348123788833618,-0.7633163928985596,0.09343110024929047,737,737,756,39.654,1,0
1739303253.3599904,-0.10865953390508216,1.062211138934001,-0.3901664288841768,-1.4234093636895653,1.5172963007363425,1.1598312079904027,1.3604321055732906,0.0013808870719396807,0.0004946667705968148,-0.0009736477672160995,-0.0007405485437858459,-0.0014704948157275273,0.00035638785381739336,0.0001205432575259593,-0.2309686839580536,-51.03543472290039,-7.309159278869629,17.94654083251953,1.7348123788833618,-0.7495834827423096,0.07328949868679047,739,737,753,39.436,1,0
1739303253.3699934,-0.10866152104327374,1.0622053190069798,-0.3901652765591781,-1.423411091918281,1.5172974514306892,1.1598292994206238,1.3604340881687755,-0.0002992016098419901,-0.0008376775768974568,-5.962064184950447e-05,0.00014208123405843166,-0.0005138797015235531,-0.00022002704885289983,0.001930742361335695,-0.2071649730205536,-50.98386001586914,-7.332962989807129,17.94654083251953,1.7549539804458618,-0.7633163928985596,0.05955658480525017,736,735,755,39.762,0,0
1739303253.3809724,-0.10866337729230705,1.0622035966592338,-0.39016451747501807,-1.4234125906858297,1.517300524781169,1.1598308547477927,1.360429326670063,0.0006647570289036388,-0.000866062588898722,-0.0009425474897546059,-0.001939049924095125,0.001155788700004877,-0.0007142263604450885,-0.0007597167127555585,-0.2071649730205536,-50.96005630493164,-7.356766700744629,17.97431182861328,1.7412210702896118,-0.7495834827423096,0.12639008462429047,738,734,754,39.871,1,0
1739303253.3919554,-0.10866227241031187,1.062207852206445,-0.3901653553135203,-1.423406867013287,1.5173018597473893,1.1598316124317976,1.3604305912775585,-0.00037091428014562596,-0.000479043527117854,-0.0005767061725184823,0.00048812711221192095,-0.0004805340049555438,0.00022274096171946895,-0.0013782824461720294,-0.2071649730205536,-50.98386001586914,-7.332962989807129,17.92273712158203,1.7412210702896118,-0.7559921741485596,0.11265717446804047,738,735,756,39.762,0,0
1739303253.4019568,-0.10866128559686489,1.0622070305537408,-0.3901614467321707,-1.423409623535185,1.5172986057597495,1.1598300971116409,1.3604239713382889,-0.0010738731331976885,0.00021963935617236037,0.0007717304743511352,8.729061688926717e-05,-0.0012383275069198718,-0.0006466220336880607,-0.004727492445664616,-0.2071649730205536,-51.00766372680664,-7.356766700744629,17.92273712158203,1.7412210702896118,-0.7431747913360596,0.13279877603054047,738,737,756,39.762,1,0
1739303253.4129345,-0.10866025617459966,1.06220746672497,-0.39016144672016984,-1.4234107433891343,1.517298319000161,1.1598316124317976,1.3604324195322097,0.0003602281226137851,-0.0009543889776651539,0.0007336093500476551,-0.000753758544816706,0.0001238661129476182,0.00018383355178935474,0.0005384091157807278,-0.2309686839580536,-50.98386001586914,-7.356766700744629,17.94654083251953,1.7476297616958618,-0.7559921741485596,0.07328949868679047,736,737,754,39.762,0,0
1739303253.4229782,-0.10866167343241176,1.0622074549634748,-0.39016073669508183,-1.423407575624188,1.5172985664667609,1.1598301014722916,1.3604333282559147,0.0006569405833516373,-0.00026125942033440683,0.001884293339160909,0.0009126399518634582,-0.0006785315378429463,-0.0008293748079450829,0.002425354622554248,-0.2309686839580536,-50.98386001586914,-7.356766700744629,17.92273712158203,1.7412210702896118,-0.7431747913360596,0.09343110024929047,736,735,756,39.654,2,0
1739303253.4340262,-0.10866196080824148,1.0622053150708628,-0.3901616858540191,-1.4234066305210664,1.5173013491576557,1.1598308547717275,1.3604339386430777,0.00032975528692037005,-0.00019255215953189095,0.0006319188744931576,0.001459348088607296,0.0005968082017999215,-1.8224096158908642e-05,0.000857468397532584,-0.2071649730205536,-50.98386001586914,-7.356766700744629,17.92273712158203,1.7219949960708618,-0.7495834827423096,0.07969819009304047,736,737,754,39.762,1,0
1739303253.4459379,-0.10865962448591489,1.062209149774953,-0.3901681897935294,-1.423408575668531,1.5173002566490097,1.1598324783290301,1.360432868613318,0.0012219116200935,0.000843878131940226,-0.0012380531778945839,0.0006778546363647522,-0.00016985043999356595,0.0005531411999154766,0.001127575811177525,-0.2309686839580536,-51.00766372680664,-7.332962989807129,17.94654083251953,1.7284036874771118,-0.7633163928985596,0.09343110024929047,736,735,755,39.871,1,0
1739303253.4559808,-0.10866148337060229,1.0622089378953463,-0.39016149299732117,-1.4234134872605495,1.5172997965613293,1.1598324797825803,1.3604307657496573,-0.00038761874310291205,-0.0010801332683477696,0.0005681226722120706,-0.0007207185449695133,0.0007639908111174886,-0.0013061609834846388,0.00023087039978350962,-0.2071649730205536,-51.00766372680664,-7.384537696838379,17.97431182861328,1.7348123788833618,-0.7633163928985596,0.07969819009304047,737,736,754,39.762,1,0
1739303253.4669108,-0.1086615620739584,1.0622070216800577,-0.39016535530818697,-1.423405493736544,1.5173013452824107,1.1598293394515655,1.3604297120759468,0.00018819258247094854,-0.00021350291254752362,-4.746610910271961e-05,0.0017361589858077352,0.0006095558817457238,-0.0011977891673602666,0.00034239994043433843,-0.2071649730205536,-51.00766372680664,-7.332962989807129,17.89893341064453,1.7219949960708618,-0.7367660999298096,0.11998139321804047,738,737,755,39.762,1,0
1739303253.4769366,-0.10865953506512102,1.0622074902481078,-0.3901653523920015,-1.4234108013013933,1.517302107303137,1.1598316124317978,1.3604279490964537,0.0004746419788183544,-0.00014169222075793993,-0.00010603261734523878,-0.00033056696098419415,0.0011308926887295418,-0.0006693913931878661,-0.0015846107944000422,-0.2309686839580536,-50.98386001586914,-7.332962989807129,17.92273712158203,1.7155863046646118,-0.7559921741485596,0.12639008462429047,737,736,755,39.871,1,0
1739303253.4869773,-0.10866125894778766,1.0622073843221278,-0.3901653290623719,-1.423411407682533,1.517298319002819,1.1598324783290301,1.3604293664004292,0.0005021075475174289,0.0004957262660012157,-0.0004074524921837617,-0.0010847202526195272,7.910270385665455e-05,0.00016613481537002765,-0.0008903179852335862,-0.2071649730205536,-50.98386001586914,-7.332962989807129,17.94654083251953,1.7476297616958618,-0.7633163928985596,0.12639008462429047,737,736,755,39.871,0,0
1739303253.4989648,-0.10865995547407022,1.0622081790855702,-0.3901625207761413,-1.4234128156556254,1.5172994380419575,1.1598324783469751,1.3604313605487792,0.0008935962963124312,-0.0009134289599175671,0.00035978266942880574,-0.0016671827248769104,0.00020729955598005592,0.00013557675214601338,0.00030305892626898993,-0.2547723948955536,-50.98386001586914,-7.332962989807129,17.97431182861328,1.7412210702896118,-0.7633163928985596,0.07328949868679047,735,734,756,39.762,0,0
1739303253.508977,-0.10866261169033915,1.0622109005194156,-0.39016511843314483,-1.423407584018592,1.5172972593667298,1.159830097111641,1.3604330231553303,-8.8226431550873e-05,0.0004877433660416834,-0.0002559105847560312,0.0005239106903185023,-0.001839686540578,-0.0005748659395708204,0.0013058006723970436,-0.2309686839580536,-51.03543472290039,-7.332962989807129,17.92273712158203,1.7476297616958618,-0.7431747913360596,0.09343110024929047,736,737,755,39.762,2,0
1739303253.5199037,-0.10866324535830028,1.0622137969670689,-0.3901635726298305,-1.4234135127720897,1.5172974530996048,1.1598316124317978,1.360430589392215,-0.0008611311628051194,0.0007045321809211897,-4.618344823934707e-05,-0.0017163069940119937,-0.0005542589787688006,0.00011508956343352833,-0.0007184593091985949,-0.1793939769268036,-51.03543472290039,-7.356766700744629,17.97431182861328,1.7549539804458618,-0.7559921741485596,0.07969819009304047,737,736,756,39.654,2,0
1739303253.5299723,-0.1086595341937186,1.0622120491554967,-0.39016642174408944,-1.4234112027098156,1.5173005918215483,1.159830097111641,1.3604364701639424,0.0016762678062460586,0.0017064472549654579,8.951004853081874e-05,0.0010382198137904137,-0.00043139644579224504,-0.00016008504641475268,0.0017748510717557188,-0.2309686839580536,-51.00766372680664,-7.356766700744629,17.94654083251953,1.7284036874771118,-0.7431747913360596,0.06596527993679047,738,738,756,39.762,1,0
1739303253.5400515,-0.108663245196587,1.0622091762540102,-0.39016712626070815,-1.4234078422661236,1.5173005919830513,1.159830097111641,1.36043373580594,0.0003453102850546356,0.0009073761044517434,-0.000151490514030566,-5.023178823046991e-05,0.0010514620646199452,2.9073026200010705e-05,0.001687474780468765,-0.1793939769268036,-51.00766372680664,-7.309159278869629,17.89893341064453,1.7284036874771118,-0.7431747913360596,0.08610688149929047,739,736,756,39.762,1,0
1739303253.5509653,-0.1086612463896584,1.0622091763143744,-0.390163572955122,-1.423411407588927,1.5172990635809451,1.1598316124317978,1.3604340435984372,0.0006371355513131965,0.0010191938907026857,0.00023839993865028692,-0.00019456315516199648,0.0005767691543359127,-0.00021735322008792238,0.001305799629733552,-0.2071649730205536,-51.00766372680664,-7.356766700744629,17.94654083251953,1.7412210702896118,-0.7559921741485596,0.05955658480525017,738,737,759,39.762,2,0
1739303253.561936,-0.10866719316176127,1.0622074068871514,-0.3901670592482113,-1.4234087321033737,1.517298958925106,1.1598316124317978,1.3604365544017407,-0.001974123302630159,-0.00043102258330363096,-0.0009767753399787678,0.0006314815066686086,-0.0010066374195371645,0.00041041624801375453,0.0020060525081790877,-0.1555902659893036,-50.98386001586914,-7.309159278869629,17.92273712158203,1.7412210702896118,-0.7559921741485596,0.05314789339900017,739,737,756,39.762,1,0
1739303253.5720513,-0.10866132913756409,1.0622074549623621,-0.39016354638416756,-1.4234114331183185,1.517299834320982,1.159833236150614,1.3604347878833647,1.8231194168659946e-05,-2.6861072621773733e-05,0.0008281988513452997,2.7823662065967392e-06,0.0008114300368380531,0.0007350359236303549,0.002607597012671454,-0.2071649730205536,-50.98386001586914,-7.356766700744629,17.94654083251953,1.7348123788833618,-0.7697250843048096,0.05314789339900017,737,738,756,39.762,1,0
1739303253.5829663,-0.10866237783855141,1.0622091763143582,-0.3901671370130946,-1.4234055719335579,1.5172990766628973,1.1598300570567757,1.3604270985359526,0.00021410880851550668,-0.00013218319718632095,-0.0006235786275671522,0.0009903248650750159,-0.00013357628394215562,0.000229184129216445,-0.0012876279180550228,-0.2309686839580536,-51.00766372680664,-7.309159278869629,17.89893341064453,1.7412210702896118,-0.7697250843048096,0.10624848306179047,738,738,756,39.871,1,0
1739303253.5929995,-0.10865953478316012,1.0622090699144968,-0.3901653543361085,-1.4234095455443212,1.5172974109690935,1.1598325183121154,1.3604305422779925,-2.816914360114029e-05,-0.00043203543323910344,-0.00015513696759306036,1.7126527548844898e-05,0.00016521741840309592,-0.000312087828764724,0.0006579155955433542,-0.2309686839580536,-51.00766372680664,-7.332962989807129,17.92273712158203,1.7284036874771118,-0.7367660999298096,0.08610688149929047,739,741,756,39.762,1,0
1739303253.6049275,-0.10866024697235056,1.0622091763137742,-0.39016140882175776,-1.4234094177186394,1.5173022187845073,1.159830907117473,1.3604361505982496,0.0007817503203475277,-0.00044730625274987487,0.0016118060368533614,0.00027055664961920275,0.00019238395386864208,0.0003710933107024902,0.002460834550895795,-0.2309686839580536,-51.00766372680664,-7.356766700744629,17.92273712158203,1.7412210702896118,-0.7495834827423096,0.06596527993679047,739,738,755,39.871,1,0
1739303253.61498,-0.10866324563364262,1.062210298979737,-0.39016534348722204,-1.423409650455538,1.5172987235231061,1.1598300971119364,1.3604290070181526,-0.0005835901643521833,0.0017083365437907134,0.0008866977705701465,-0.000831765536288113,-0.00032927100687500795,-0.00023199065980043652,9.180131841268627e-05,-0.1793939769268036,-50.98386001586914,-7.332962989807129,17.92273712158203,1.7412210702896118,-0.7431747913360596,0.09343110024929047,738,738,756,39.871,1,0
1739303253.6268973,-0.10866432452380811,1.062208222656063,-0.39016535527211765,-1.4234096503518732,1.5172998338364656,1.1598293394515629,1.3604326173208285,-0.0009389875558567457,0.0008860327245613876,4.249216175681637e-06,0.00013464530550818496,0.00022188245050881787,-0.0007021815776066924,-0.0012480475419976152,-0.2071649730205536,-51.00766372680664,-7.332962989807129,17.92273712158203,1.7348123788833618,-0.7367660999298096,0.05955658480525017,738,738,755,39.871,1,0
1739303253.63698,-0.10866195788656458,1.0622091674786736,-0.3901635755473526,-1.4234078678161708,1.5173002505976383,1.1598316167924483,1.3604265201145007,-0.0004783322073055856,0.0007902893188165864,0.0009735296755369785,0.0013258879725422722,-0.00026899134268611354,-0.00013552382558482928,-0.003330014536130758,-0.2071649730205536,-51.00766372680664,-7.356766700744629,17.89893341064453,1.7219949960708618,-0.7559921741485596,0.11998139321804047,739,738,755,39.762,1,0
1739303253.6480298,-0.10866055963724969,1.062209149823272,-0.39016716131473655,-1.4234075840575215,1.5172987703055834,1.1598316255138237,1.360427097079523,0.001592297901289888,0.00014609388535356956,-0.0009406890962890134,0.00011613372355628404,0.00016448075944512923,0.0005241431673080392,-0.0016656480596203857,-0.2309686839580536,-51.00766372680664,-7.309159278869629,17.92273712158203,1.7348123788833618,-0.7559921741485596,0.10624848306179047,735,738,755,39.762,2,0
1739303253.6580372,-0.10866324422803787,1.062207463793494,-0.39016569853029626,-1.423409647610764,1.5172963021898718,1.1598324783291039,1.3604333748171735,-0.0002902625861613044,-0.00026904505460805114,-4.2539523672472865e-05,-0.0002543678896048346,-0.0013894745898226381,-0.0001492593148296201,0.0005740009907964047,-0.1793939769268036,-50.98386001586914,-7.356766700744629,17.92273712158203,1.7348123788833618,-0.7633163928985596,0.05314789339900017,738,738,755,39.871,1,0
