IITGN-Robotics/Franka_IITGN_ROBOTICS/franka_ros/franka_iitgn/data01/os_003.csv
time,fr3_joint1_pos,fr3_joint2_pos,fr3_joint3_pos,fr3_joint4_pos,fr3_joint5_pos,fr3_joint6_pos,fr3_joint7_pos,fr3_joint1_vel,fr3_joint2_vel,fr3_joint3_vel,fr3_joint4_vel,fr3_joint5_vel,fr3_joint6_vel,fr3_joint7_vel,fr3_joint1_eff,fr3_joint2_eff,fr3_joint3_eff,fr3_joint4_eff,fr3_joint5_eff,fr3_joint6_eff,fr3_joint7_eff,flexpin1,flexpin2,flexpin3,Force,ContactMic,ContactMic_gt
1739303013.2051892,-0.1177064383235086,1.0654458350322455,-0.37965952816242743,-1.422478933777653,1.5211757922060813,1.15543752284871,1.3567278989896607,0.00032270961124700214,0.0007108709544929624,0.0005360069463678019,0.0012913998910194548,0.0003559647405367222,-0.003972004336051988,-0.0010691236946346674,-0.3301508128643036,-51.19015884399414,-7.102860450744629,17.84735870361328,1.7934061288833618,-0.8686020374298096,0.09343110024929047,,,,,,,,,
1739303013.217118,-0.11770779602053692,1.0654418063428719,-0.37967048378577023,-1.4225004481265222,1.5211790505667937,1.1554033544585156,1.356729490318633,2.283616878259414e-05,0.0016203467928075726,-0.0028381877131209822,-0.0020209133662506904,0.0005481539596286832,-0.0023958971388611935,0.0001010913229006211,-0.3063471019268036,-51.16238784790039,-6.975907325744629,17.94654083251953,1.7934061288833618,-0.8814194202423096,0.07969819009304047,,,,,,,,,
1739303013.2281823,-0.1177056042747885,1.065447120043084,-0.3796567417957908,-1.4225140292188767,1.5211757921427584,1.155393450028446,1.3567220514296174,0.00030220240110629337,0.0012857611928180578,0.0012795192129188217,-0.0005011301861855417,2.1921413504006368e-05,-0.0007145195075843587,-0.0007978386937191479,-0.2825433909893036,-51.23776626586914,-7.130631446838379,17.99811553955078,1.7934061288833618,-0.8750107288360596,0.09343110024929047,,,,,,,,,
1739303013.239194,-0.11770425708061019,1.0654491212538082,-0.37966176305043897,-1.4225358785794828,1.5211776694875487,1.155387633089452,1.3567207237461378,0.0009453399768075735,-0.00021774219857985787,-0.0009953293738150435,-0.0019187721985435592,0.0012651427599152366,-0.0002473073975401605,0.0008456642414934692,-0.3063471019268036,-51.26553726196289,-7.102860450744629,18.12110137939453,1.7805887460708618,-0.8750107288360596,0.07328949868679047,,,,,,,,,
1739303013.250155,-0.11769927954114227,1.0654498378177593,-0.379662748751393,-1.4225421130897207,1.5211757921071007,1.155383676886064,1.3567195784521817,0.0005747601072411664,-0.00016059293832461845,-0.0007034227235313876,-0.0004297591908351908,0.0005917052130432347,0.0007914997713593654,0.003150731484200504,-0.3063471019268036,-51.26553726196289,-7.079056739807129,18.04572296142578,1.7934061288833618,-0.8686020374298096,0.04673920199275017,,,,,,,,,
1739303013.260206,-0.11770311752672086,1.0654500877194517,-0.37966063085040774,-1.4225409803444184,1.521176549784442,1.1553844586687514,1.3567135244500061,-0.00029010332983280343,0.00026010538444532535,0.000737735614610444,0.0006172467188332979,0.00022307457636716263,0.001136924344218693,-0.00033335599798686646,-0.2547723948955536,-51.26553726196289,-7.079056739807129,17.97431182861328,1.7869974374771118,-0.8612778186798096,0.10624848306179047,,,,,,,,,
1739303013.2711737,-0.11769892441774633,1.0654476713917422,-0.37966060425055265,-1.4225410083596723,1.5211763958171332,1.1553784535956482,1.3567199601315167,4.172041133283257e-05,0.0004211966146469608,0.000362268813030554,-0.0004368784401518552,-0.0007780169292723197,-0.0009880756580791996,0.0008748902777420212,-0.3063471019268036,-51.21396255493164,-7.079056739807129,17.97431182861328,1.7869974374771118,-0.8686020374298096,0.03941498324275017,,,,,,,,,
1739303013.2812004,-0.11769739567515423,1.065451983296206,-0.3796568477474409,-1.4225410201333049,1.521175792121757,1.1553792167728885,1.356713221515708,0.001623790259569028,0.00194508344190572,0.0004017255384025837,0.000981035805696093,2.068780186696088e-05,-0.0011478510398661888,-0.000256029688291913,-0.3063471019268036,-51.26553726196289,-7.130631446838379,17.97431182861328,1.7934061288833618,-0.8548691272735596,0.09343110024929047,,,,,,,,,
1739303013.2912023,-0.1176977947692478,1.0654471321917602,-0.37966624983225583,-1.4225461299870363,1.521175791332987,1.1553788283582926,1.356712052942066,0.00026442458018675544,-0.001286389438067622,-0.0020641012172271825,-0.00016760632190501463,0.0001282828226392484,-0.0011041649804553262,0.0007540998548941487,-0.2825433909893036,-51.23776626586914,-7.003678321838379,17.99811553955078,1.7934061288833618,-0.8686020374298096,0.10624848306179047,,,,,,,,,
1739303013.302128,-0.11769968982449391,1.0654499975270417,-0.3796624842245486,-1.4225479228952531,1.5211749262271186,1.1553820688327996,1.3567136422825292,-0.0004492574984592555,0.0009670138586548141,-0.00015328705613165634,-0.000910735567901937,0.00023877493460321044,-0.0011057770796558894,0.0021726105261054155,-0.2825433909893036,-51.23776626586914,-7.055253028869629,18.02191925048828,1.8007303476333618,-0.8686020374298096,0.06596527993679047,,,,,,,,,
1739303013.3131583,-0.11769578739467729,1.0654461617125244,-0.379658888023793,-1.4225479261820702,1.5211757877637138,1.1553815829320975,1.3567137787413792,0.0008995398102714636,-0.0005063183939177931,0.0015326742824149724,-0.0007007028812355333,0.00010001593514951621,-0.001408355055593615,0.00017439634949909278,-0.3301508128643036,-51.21396255493164,-7.130631446838379,18.02191925048828,1.7934061288833618,-0.8750107288360596,0.07969819009304047,,,,,,,,,
1739303013.323191,-0.11769330640758001,1.0654400270685005,-0.37966238707288463,-1.4225443579936596,1.5211734104223846,1.1553820869108287,1.356708846450479,0.0007612089868014822,-0.001818693600805549,6.1022071858375735e-05,0.0004449809822627262,0.00010043725694042324,0.0003737769392877987,-0.0014780185515795706,-0.3301508128643036,-51.13858413696289,-7.055253028869629,17.97431182861328,1.8135477304458618,-0.8686020374298096,0.11998139321804047,,,,,,,,,
1739303013.3341994,-0.11769501776760002,1.0654399918436026,-0.37966756615890584,-1.4225479447875158,1.521174926227131,1.1553812155720438,1.3567136922062466,0.00034191276904317483,-0.0014240944930919317,-0.0027898811731900323,-0.0017933236529715075,0.0002216239867894735,-1.927746794350648e-05,0.003167988086784269,-0.3063471019268036,-51.13858413696289,-7.027482032775879,18.02191925048828,1.8007303476333618,-0.8612778186798096,0.05314789339900017,,,,,,,,,
1739303013.3451943,-0.11769801797658477,1.0654447328359218,-0.379660604267999,-1.4225466942499085,1.5211746512910904,1.1553767048815364,1.3567088058730183,-0.0005785410309414103,-0.0009065212056853409,0.0009567639783965202,0.0006178867110226045,-0.0005946873793344297,-0.0014131649829898403,0.00013564123556352012,-0.2547723948955536,-51.19015884399414,-7.079056739807129,18.02191925048828,1.8071390390396118,-0.8548691272735596,0.09343110024929047,,,,,,,,,
1739303013.3571591,-0.11770215330272134,1.0654439648224265,-0.3796627500177146,-1.4225488961427433,1.5211734109097004,1.155376862922877,1.356705666833346,-0.00248001403739378,-0.0005656961088767777,0.0001724447306683964,0.0006910190266532029,-0.0005995519571749301,-0.00019311119119209475,-0.0006034684350189654,-0.2071649730205536,-51.16238784790039,-7.079056739807129,17.99811553955078,1.8135477304458618,-0.8612778186798096,0.11998139321804047,,,,,,,,,
1739303013.3681536,-0.11769424855417539,1.0654438161672193,-0.37966060720605477,-1.4225492358760792,1.5211749262271321,1.1553826705265695,1.356712052825434,0.001142122716615107,-0.0023039783006256406,3.160522120834995e-05,-3.999051480520144e-05,9.463762820017274e-05,0.00024466151661564704,0.0009595948906130278,-0.2825433909893036,-51.19015884399414,-7.079056739807129,17.99811553955078,1.8007303476333618,-0.8750107288360596,0.06596527993679047,,,,,,,,,
1739303013.3781586,-0.11769661335437151,1.0654486163072654,-0.3796632430438053,-1.4225510227891542,1.5211749260656264,1.15537720158518,1.3567146678206405,0.0011548817491038189,1.701267517430525e-05,-0.0005972598791371448,-0.0009211314234310523,0.0003820497869884003,-0.00242630506230188,0.0011166693503766997,-0.2825433909893036,-51.21396255493164,-7.079056739807129,18.02191925048828,1.8007303476333618,-0.8686020374298096,0.07969819009304047,,,,,,,,,
1739303013.389133,-0.11769456882034775,1.0654503419637174,-0.37966155793971507,-1.4225474488268923,1.521174926227131,1.155377199497138,1.356713607721921,-0.0004251378946563407,0.0013149601813621673,0.0005195837657464542,0.0009076704168694594,0.0012727421807842516,0.0008344072892007464,0.0006027105210737402,-0.2825433909893036,-51.23776626586914,-7.079056739807129,17.97431182861328,1.8007303476333618,-0.8548691272735596,0.07969819009304047,,,,,,,,,
1739303013.3992496,-0.1176956152350501,1.0654486026250582,-0.37966060426665343,-1.4225491342935555,1.521177307444521,1.1553777821503284,1.3567025804571693,-0.0004392614395113969,0.001624627867744397,0.0011868702541186294,-0.0003880934355037282,0.0012188081675631552,0.0006278749918909064,-0.0028826669807951724,-0.2547723948955536,-51.21396255493164,-7.079056739807129,17.99811553955078,1.7805887460708618,-0.8612778186798096,0.10624848306179047,,,,,,,,,
1739303013.4102013,-0.11769353792408117,1.065444910150704,-0.37966238703653815,-1.4225491635809466,1.5211717342307918,1.1553788150777085,1.3567097739975993,0.0006151694725787276,-0.0009588564591295879,8.559051517736759e-05,8.38042000059013e-05,-0.0006938590247428874,0.0011528675180412144,-0.0002575632968500389,-0.2825433909893036,-51.16238784790039,-7.055253028869629,17.99811553955078,1.8007303476333618,-0.8686020374298096,0.07328949868679047,,,,,,,,,
1739303013.4202445,-0.11769010898389905,1.0654461392934065,-0.37966447554769556,-1.4225467686699238,1.5211765499319672,1.1553772043267465,1.3567111867587198,-0.00022491319340149727,-0.00030285132861273634,-0.0003263270574602544,0.0006164448101120541,0.001550467489153209,-0.0005488320670035446,-0.0005108535828553652,-0.3301508128643036,-51.21396255493164,-7.027482032775879,17.97431182861328,1.7869974374771118,-0.8686020374298096,0.07328949868679047,,,,,,,,,
1739303013.4312782,-0.1176956371941456,1.0654465857010185,-0.37966250172170213,-1.4225492430517102,1.5211772943625697,1.1553779575080654,1.3567051107860861,-0.0011838723855881624,0.0006846009126046493,-0.0003731729270781117,-0.0011438845118314019,0.0006694764234042529,0.0006223868853226779,-0.001714497574314427,-0.2547723948955536,-51.21396255493164,-7.055253028869629,17.99811553955078,1.7805887460708618,-0.8750107288360596,0.09343110024929047,,,,,,,,,
1739303013.4422047,-0.11769182150520224,1.065446913967353,-0.3796606042511506,-1.4225475369080163,1.5211757921242905,1.15537795750804,1.356712339514815,0.0009019953855197283,3.3673980227316323e-06,0.0016652898195376443,0.001082197219607451,0.0001351545346797214,0.000276991196815204,-0.0002250195821643919,-0.3063471019268036,-51.19015884399414,-7.079056739807129,17.97431182861328,1.7934061288833618,-0.8750107288360596,0.05955658480525017,,,,,,,,,
1739303013.4531476,-0.11769174225886576,1.0654481507367455,-0.37966275001771455,-1.4225475372363943,1.521174926227132,1.1553773205289708,1.3567100095445261,0.0008276856477013061,0.0006327200423119498,9.140886307589218e-05,0.0019196169458674626,0.0004598415337021068,-0.00015354152532268833,0.0003001088174991698,-0.3063471019268036,-51.23776626586914,-7.079056739807129,17.97431182861328,1.8007303476333618,-0.8686020374298096,0.07328949868679047,,,,,,,,,
1739303013.463204,-0.11769076009912782,1.065449478723971,-0.37966084271753336,-1.422551341008116,1.5211757921243643,1.1553748186312538,1.356708805704166,0.0002469956268497607,0.0005968920493944211,0.0004852262451999611,-0.0009786171599300564,0.000574224427365528,0.00016371994967536064,-0.0007107182732646598,-0.2825433909893036,-51.26553726196289,-7.079056739807129,18.02191925048828,1.7934061288833618,-0.8484604358673096,0.09343110024929047,,,,,,,,,
1739303013.4741511,-0.11769552794494277,1.065451823244567,-0.37966250564758414,-1.4225502860160348,1.5211741685670537,1.1553763339507293,1.3567056267425892,-0.0011870813483626811,0.0005964024940592267,-0.0006725291924970776,-0.0012226677788394903,6.081016399381631e-05,0.0001956658145693307,4.953746915365486e-06,-0.2547723948955536,-51.28934097290039,-7.055253028869629,17.99811553955078,1.8071390390396118,-0.8612778186798096,0.09343110024929047,,,,,,,,,
1739303013.485243,-0.11769353413357592,1.0654437114680655,-0.379663500595393,-1.4225513858852752,1.5211749282136509,1.155375576290651,1.3567043989053498,0.0007108693802693009,-0.0004916186497006871,0.00018496535195155898,-0.0006888307728179892,0.0008866156026893183,-0.0001538341700950674,-0.0036044330294291945,-0.2825433909893036,-51.19015884399414,-7.079056739807129,17.99811553955078,1.8007303476333618,-0.8548691272735596,0.12639008462429047,,,,,,,,,
1739303013.4961653,-0.11769353402534002,1.0654469041493309,-0.3796588215898335,-1.4225494795603364,1.5211749087845403,1.1553761763212802,1.3567061862982392,-0.0002603394885624432,-0.0009786984232383745,0.0020263051149566704,0.000501650772059044,-0.0005733800011872408,0.00011197050472234953,4.646642171536876e-05,-0.2825433909893036,-51.19015884399414,-7.102860450744629,17.99811553955078,1.8007303476333618,-0.8612778186798096,0.07969819009304047,,,,,,,,,
1739303013.507205,-0.11769700772402915,1.0654455295652505,-0.37965893931105377,-1.4225521011391633,1.521175254695841,1.1553752699492796,1.3567087998247565,-0.0007465738350920634,-0.000989947755055735,0.0011766939960259092,-0.00010992831981138025,-0.00022389660830988308,-3.677091597352049e-05,0.0009427476103551268,-0.2309686839580536,-51.21396255493164,-7.102860450744629,17.99811553955078,1.8071390390396118,-0.8612778186798096,0.09343110024929047,,,,,,,,,
1739303013.5182016,-0.11769069282204439,1.0654468903165268,-0.3796623869277432,-1.422554203017145,1.5211749247756254,1.155376333948727,1.3567055469244111,0.0013203248916282436,0.0005567602511711619,-3.714843307370249e-05,-0.0005828556309016557,-1.2353106011418428e-05,-8.516416311031677e-05,0.00025001644034466057,-0.2825433909893036,-51.19015884399414,-7.055253028869629,18.02191925048828,1.8007303476333618,-0.8612778186798096,0.11998139321804047,,,,,,,,,
1739303013.5291266,-0.11769545266832493,1.065449388252986,-0.37966107374057345,-1.422551106349931,1.5211759128053655,1.1553747785398167,1.3567120004969482,-0.0008139698598007869,0.0009605675487037962,0.0006838139820304677,1.8772618782175905e-05,0.0011680182653662397,-0.0004426796584059037,0.0020940680202414736,-0.2547723948955536,-51.23776626586914,-7.102860450744629,18.02191925048828,1.7934061288833618,-0.8750107288360596,0.06596527993679047,,,,,,,,,
1739303013.5391433,-0.11769256023239327,1.0654485990113702,-0.37966063960991425,-1.4225560152336043,1.521174289088601,1.155377957454204,1.3567089631364597,0.0002598476023316891,0.00044091895138114405,7.277510194925765e-05,-0.0029419052268863932,-0.002055059069401715,0.0010761064251940768,-0.0007875763974242092,-0.2825433909893036,-51.21396255493164,-7.079056739807129,18.04572296142578,1.8071390390396118,-0.8750107288360596,0.05314789339900017,,,,,,,,,
1739303013.5491872,-0.1176896901890294,1.0654503418542598,-0.37966089827948823,-1.4225524282382713,1.521176432048914,1.1553771998479607,1.3567042474442963,0.0005773236619456611,0.0010508694588754301,0.0008543071629773228,0.0005505633467077835,0.0003316358376149496,0.0009090681391565529,-0.0011560944780078125,-0.3063471019268036,-51.23776626586914,-7.102860450744629,17.99811553955078,1.7869974374771118,-0.8686020374298096,0.11998139321804047,,,,,,,,,
1739303013.5592184,-0.11768958104414193,1.06545041849321,-0.3796683953057936,-1.4225519857838684,1.5211726137046124,1.1553763339507293,1.3567039538227814,-0.0002194443435742983,0.0020509318066068757,-0.0015846935694325797,6.728570720928388e-05,0.00040007887622875936,0.0016424483947232752,-0.00020684826005474026,-0.3063471019268036,-51.23776626586914,-7.003678321838379,18.02191925048828,1.7934061288833618,-0.8612778186798096,0.10624848306179047,,,,,,,,,
1739303013.5701914,-0.11768894219389779,1.0654469138703058,-0.3796645722797527,-1.4225524232836175,1.5211773074265789,1.1553762947048725,1.3567083593354237,0.00035187009357656425,0.0004977316002707017,2.91348798486928e-05,0.0002853995212085737,0.0012082527054420233,-6.43807851892771e-06,0.0010749738661040256,-0.3063471019268036,-51.19015884399414,-7.055253028869629,17.99811553955078,1.7805887460708618,-0.8612778186798096,0.06596527993679047,,,,,,,,,
1739303013.581193,-0.11769128770262953,1.065446483675831,-0.37966084562485736,-1.4225503129592258,1.5211752882701595,1.1553763333044853,1.3567062125892162,-0.0006250176708728996,0.0005159551898511051,0.0005211693598370715,0.00024838581257307887,0.0009622201419091147,-0.00035049329666814915,0.00026146917777378643,-0.2825433909893036,-51.21396255493164,-7.079056739807129,17.99811553955078,1.8007303476333618,-0.8612778186798096,0.10624848306179047,,,,,,,,,
1739303013.5912533,-0.11769075608767081,1.0654486205764038,-0.37966542377528567,-1.4225525911814036,1.521174168573185,1.1553763339507181,1.3567083997502312,-1.9355691764258486e-05,0.0006115409262667718,-0.0004994836497934882,-0.0009730906984522834,0.0003309358175452796,-0.00039005074328478373,0.0003189234024539608,-0.3063471019268036,-51.21396255493164,-7.027482032775879,17.99811553955078,1.8071390390396118,-0.8612778186798096,0.05955658480525017,,,,,,,,,
1739303013.602193,-0.11769233570320307,1.0654486284617637,-0.3796624929075424,-1.4225524607275122,1.5211735075620922,1.155375269951949,1.3567072888205591,-0.0001239828884631683,-0.000943871773809436,0.0010836845071026625,-0.0003512387574845844,-0.001701994289401572,-0.00012914912834597754,0.001976648105797874,-0.2547723948955536,-51.21396255493164,-7.055253028869629,17.99811553955078,1.8007303476333618,-0.8612778186798096,0.06596527993679047,,,,,,,,,
1739303013.613172,-0.11769404807958844,1.0654469168738756,-0.3796624678177922,-1.4225542424211461,1.521174808652436,1.155376333876947,1.3567025220190818,-0.0003236908654232161,-0.0005386863187492219,0.0010695203985256671,0.0001807208061149429,-0.0002926429216031052,0.0005108849096968434,-0.0024543678717321004,-0.2309686839580536,-51.19015884399414,-7.055253028869629,18.02191925048828,1.8007303476333618,-0.8612778186798096,0.10624848306179047,,,,,,,,,
1739303013.6242704,-0.11768854628456547,1.0654523399046438,-0.37966086916140485,-1.4225524587629934,1.5211734109049844,1.1553720949136936,1.3567076958085715,0.0006813582948405773,0.001459452332579653,5.5963771755170234e-05,0.00015170987267030622,-0.001122960399890691,-0.0016412098711763065,0.000699452226000086,-0.3063471019268036,-51.26553726196289,-7.079056739807129,17.99811553955078,1.8135477304458618,-0.8612778186798096,0.06596527993679047,,,,,,,,,
1739303013.6351924,-0.1176903669561018,1.0654481924695176,-0.3796627048194589,-1.4225528218531698,1.5211729399566956,1.155377145556164,1.3567080843050325,-0.0009095442811709058,0.00044793444664814673,0.0007153974932192872,0.0006093885100539656,-0.0006228870516394078,0.0009618512530871012,0.0006502025397448737,-0.2825433909893036,-51.21396255493164,-7.055253028869629,17.97431182861328,1.8135477304458618,-0.8686020374298096,0.08610688149929047,,,,,,,,,
1739303013.6452138,-0.11768650310897254,1.0654503331260734,-0.379666250707975,-1.4225506761222966,1.5211733708620794,1.155373703934584,1.3566993894941954,0.0010269931509580442,0.001583368532642428,-0.00022352674873845593,-0.0006681832925558519,-0.0005940349632448746,-0.0008945403271305391,-0.0026118344322188,-0.3063471019268036,-51.23776626586914,-7.003678321838379,17.97431182861328,1.7869974374771118,-0.8750107288360596,0.13279877603054047,,,,,,,,,
1739303013.656179,-0.11768820825560306,1.065446685553419,-0.379662635193911,-1.4225543474038091,1.521175779024467,1.155374617225563,1.3567076420272481,0.0004383906433394302,-0.00022928484151305196,2.074922977397963e-05,-0.0004641277681544959,9.099420510924842e-05,0.00044536085422295664,-0.0007328555863432543,-0.2825433909893036,-51.19015884399414,-7.055253028869629,18.02191925048828,1.7934061288833618,-0.8750107288360596,0.06596527993679047,,,,,,,,,
1739303013.668125,-0.11768846735158155,1.0654464836745423,-0.37966334354667874,-1.42255674231679,1.5211757906707402,1.1553755760564541,1.3567032801656873,0.0007917142636562427,-0.00018543708061651666,-0.00114598795282929,-0.0007046680062211195,0.0007472755571837565,-0.0011412338551614102,-0.001582410746904565,-0.3063471019268036,-51.21396255493164,-7.055253028869629,18.04572296142578,1.7934061288833618,-0.8548691272735596,0.09983979165554047,,,,,,,,,
1739303013.6791947,-0.1176940491612894,1.0654449189330244,-0.37966247817953847,-1.422550993981451,1.5211740333868728,1.155376316508125,1.3567031096556261,-0.0006889060932079321,-0.0014513487058283989,-0.00027507450594338863,0.0006341930074081555,-0.00014040538548866374,0.0018921021597113035,-0.001022161114957711,-0.2309686839580536,-51.16238784790039,-7.055253028869629,17.97431182861328,1.8071390390396118,-0.8612778186798096,0.14012299478054047,,,,,,,,,
1739303013.690184,-0.11769033772626517,1.0654493237676739,-0.37966732774049816,-1.422558487776264,1.5211741554848472,1.1553731399445089,1.3567049051831712,4.301639124630221e-05,-0.0008362630435853069,-0.0004480826313510768,-0.0020429474280187544,-0.0006277712878173564,0.001050267923250105,-0.0004646124620990202,-0.2825433909893036,-51.21396255493164,-7.027482032775879,18.04572296142578,1.8071390390396118,-0.8612778186798096,0.08610688149929047,,,,,,,,,
1739303013.702191,-0.11769033772626333,1.0654483905923355,-0.3796654237873485,-1.4225543661255171,1.5211731074753005,1.1553727905660127,1.356707285907413,0.00040375035818352383,-0.00028425548632657577,-0.000980349967029547,-0.000685345953464124,-0.0009866877521309326,-0.0004213374982266103,0.0006045160387760667,-0.2825433909893036,-51.21396255493164,-7.027482032775879,17.99811553955078,1.8071390390396118,-0.8686020374298096,0.06596527993679047,,,,,,,,,
1739303013.7133198,-0.11769033675193043,1.0654483791412583,-0.37966549912575426,-1.4225524980124225,1.521173410420462,1.1553771804589947,1.3567064187181277,0.0003810498527698405,-0.00036951507033345423,-0.0008091351895010519,-9.414444090896854e-05,-0.002011071709901216,0.0020260807308401315,0.0010996107302430704,-0.2825433909893036,-51.21396255493164,-7.055253028869629,17.99811553955078,1.8135477304458618,-0.8686020374298096,0.07328949868679047,,,,,,,,,
1739303013.724233,-0.11769033769017143,1.0654469205911306,-0.3796567726528004,-1.4225524587631986,1.5211757921243616,1.1553770292979566,1.3567056609503771,-0.0005560739386566819,0.0005765981184972478,0.002168446164632389,-0.0004707407658142876,-0.0005455678405775883,0.00042173518408370023,-0.0015591214505581757,-0.2825433909893036,-51.19015884399414,-7.130631446838379,17.99811553955078,1.7934061288833618,-0.8686020374298096,0.07969819009304047,,,,,,,,,
1739303013.7351935,-0.11768862520553194,1.065448654916549,-0.37966239870145285,-1.4225514179780034,1.5211747193504477,1.155375651600646,1.3567032796791523,-0.00019467729133217521,0.001179816508528345,0.00020139760479800077,-0.0004028499872509232,-0.0008555542219672982,0.0015174836950714574,-0.00024956970601401336,-0.3063471019268036,-51.21396255493164,-7.055253028869629,17.97431182861328,1.7934061288833618,-0.8686020374298096,0.09983979165554047,,,,,,,,,
1739303013.7461216,-0.1176904405896273,1.0654440470692061,-0.379662504665158,-1.4225588969179093,1.5211773074384654,1.1553763288814811,1.3567001393117957,-0.00027509372118446893,-0.00042426125583893396,-8.157561588131317e-05,-0.0003910637014997719,0.0002845390457917797,0.0007122786284672981,-0.0016764322868106545,-0.2547723948955536,-51.19015884399414,-7.055253028869629,18.04572296142578,1.7805887460708618,-0.8612778186798096,0.12639008462429047,,,,,,,,,
1739303013.7561488,-0.11769267762587074,1.0654486201280762,-0.37966334060383194,-1.4225526972302072,1.5211749131451797,1.1553739999960762,1.3567050969773344,-0.0014452284309568505,-0.0009101586872511791,-0.0002323783609293188,0.0010137668071486727,-0.00028491617374403416,-0.0005322986676322518,2.9695049239499135e-05,-0.2547723948955536,-51.21396255493164,-7.055253028869629,17.99811553955078,1.8007303476333618,-0.8548691272735596,0.09343110024929047,,,,,,,,,
1739303013.7661777,-0.11769404819363868,1.0654503419636336,-0.3796628559976781,-1.4225552078732544,1.5211730570480217,1.1553729799375945,1.356707284471797,-0.0005681025346656424,0.0008744989208268623,0.0009671701211172875,0.00011632449480942857,-0.0009140338513822938,0.0005329482988028199,0.0009311690924718178,-0.2309686839580536,-51.23776626586914,-7.079056739807129,18.02191925048828,1.8135477304458618,-0.8612778186798096,0.06596527993679047,,,,,,,,,
1739303013.777257,-0.11769037182791484,1.06544691397889,-0.3796613581107101,-1.4225513942905899,1.5211764969701196,1.155372220777892,1.356703279679152,-0.0005792515218380797,-0.0005259295368914708,-0.0005051568999144969,0.0019501617117458222,-0.00016159834015057486,0.001208715369330112,-0.0013431228097839905,-0.2825433909893036,-51.19015884399414,-7.079056739807129,17.97431182861328,1.7869974374771118,-0.8548691272735596,0.09983979165554047,,,,,,,,,
1739303013.788215,-0.11769229377099423,1.06544935409001,-0.3796652744456796,-1.422557459604295,1.5211761541670938,1.1553750479331122,1.3567025220190738,-0.0003920854411865189,0.00048661174824068704,0.00045359899879234954,-0.0008566570193089171,0.001621293518346254,0.002242520717355491,-0.001505119251529526,-0.2547723948955536,-51.19015884399414,-7.055253028869629,18.02191925048828,1.7934061288833618,-0.8548691272735596,0.10624848306179047,,,,,,,,,
1739303013.7991824,-0.1176940218806228,1.0654486294568182,-0.37966632899257236,-1.4225486006749197,1.5211774269563454,1.1553724315541496,1.3566994485174426,-0.001131170677526635,0.00032604108815022877,-0.0006851497779561155,0.0030741231514628924,9.935944503539055e-05,-0.0006387359210539864,-0.0009273246005230884,-0.2309686839580536,-51.21396255493164,-7.003678321838379,17.94654083251953,1.8071390390396118,-0.8686020374298096,0.09343110024929047,,,,,,,,,
1739303013.810177,-0.11769033772581781,1.0654502359999787,-0.3796624134198228,-1.422551709233208,1.5211734051479555,1.1553715786611005,1.3567057008557497,-0.000868269092946682,0.00031700160539045757,0.00027627638261689443,0.0012432929495306594,-0.0001223743781423296,-0.0008924160383282686,0.000107693085064746,-0.2825433909893036,-51.23776626586914,-7.055253028869629,17.97431182861328,1.8135477304458618,-0.8612778186798096,0.10624848306179047,,,,,,,,,
1739303013.8201864,-0.11769033769017692,1.0654449161424173,-0.37966239870142815,-1.4225542810187337,1.5211741730366883,1.1553715718779387,1.3567032796970966,0.0006921764811215121,-0.00017796258206607713,-0.00019390329231904564,0.0002612475003650024,-0.000537926290772492,-0.0006829124662674518,-8.967776124233124e-05,-0.2825433909893036,-51.16238784790039,-7.055253028869629,18.02191925048828,1.8071390390396118,-0.8612778186798096,0.09983979165554047,,,,,,,,,
1739303013.8311417,-0.1176900999529493,1.0654483914443795,-0.37965892753736297,-1.4225549689421175,1.5211754374042945,1.1553719333273949,1.3567046228191109,0.0007611862835601342,0.001105951176634154,0.0010550406345548778,-0.0005225447750535845,0.0005101167171036195,-0.00039134379807601434,-0.0003282034983247224,-0.2825433909893036,-51.21396255493164,-7.102860450744629,18.02191925048828,1.7934061288833618,-0.8612778186798096,0.05955658480525017,,,,,,,,,
1739303013.841245,-0.11769162245140741,1.0654449189774455,-0.3796612155065143,-1.4225528350564585,1.5211749262211247,1.1553708079252967,1.3567025078899937,-0.0004448916318329438,-0.00045530212552205606,0.0019152133179401844,0.0018119757110419072,-0.0004979619949759049,0.00019464622657256974,-0.000314190703026699,-0.2547723948955536,-51.16238784790039,-7.079056739807129,17.97431182861328,1.8007303476333618,-0.8548691272735596,0.10624848306179047,,,,,,,,,
1739303013.8521752,-0.11768962353622203,1.0654483910244812,-0.3796606073427475,-1.4225571412122469,1.5211757921243643,1.1553734911145088,1.3567009507894918,-0.00011612325307035708,0.00015262836195007102,-6.6792145582098575e-06,-0.0009493876218221627,0.0007319668019361266,0.0004794736236213037,7.907635486706951e-05,-0.2825433909893036,-51.21396255493164,-7.079056739807129,18.02191925048828,1.7934061288833618,-0.8686020374298096,0.11998139321804047,,,,,,,,,
1739303013.8631442,-0.11769009987674507,1.065446901767722,-0.3796606317226197,-1.4225563423882108,1.5211741864457218,1.1553715655851287,1.3567020738750415,-0.0001494321888710643,-0.00010714046752731535,0.0006372545535641973,-0.00029549191950235923,0.001036879659813613,-0.0009204539714039469,-0.0015987901585851679,-0.2825433909893036,-51.19015884399414,-7.079056739807129,18.04572296142578,1.8071390390396118,-0.8612778186798096,0.07328949868679047,,,,,,,,,
1739303013.8732405,-0.117692602783365,1.065440345437539,-0.3796623882361821,-1.4225560515945048,1.5211748070363147,1.1553715655791472,1.356708042040793,-0.0007277892110156618,-0.0018086253156755793,0.0002696868716371154,0.0005873104859979173,0.0009570217260160157,-0.0002308898727027543,0.0015921647177633013,-0.2071649730205536,-51.13858413696289,-7.055253028869629,18.04572296142578,1.8007303476333618,-0.8612778186798096,0.05955658480525017,,,,,,,,,
1739303013.8841403,-0.11768747021106102,1.0654504920307415,-0.3796637036920531,-1.4225553590322482,1.521175674384776,1.1553711787358871,1.3567080421143694,0.0007376053396988984,0.0007910732646727972,0.0007996116427486949,0.0003293329887512274,0.0007454323871662606,0.001137734913971016,0.00100178935804477,-0.2825433909893036,-51.23776626586914,-7.079056739807129,17.99811553955078,1.7934061288833618,-0.8548691272735596,0.05955658480525017,,,,,,,,,
1739303013.894155,-0.1176923229846015,1.065442234690575,-0.379662386945018,-1.4225556685816798,1.5211748084888976,1.1553731891923864,1.3567087936493496,-0.0010794630081232977,-0.0024400719030258787,0.0007710383026893505,-0.000782488341553857,-0.00013389104257204156,0.00016397952707179547,0.0015160994397888118,-0.2547723948955536,-51.13858413696289,-7.055253028869629,17.99811553955078,1.8007303476333618,-0.8750107288360596,0.05314789339900017,,,,,,,,,
1739303013.9051387,-0.1176923356309584,1.0654486294012357,-0.3796644680255725,-1.422557139255886,1.5211749262264675,1.155372444558332,1.3567025612648957,0.0009729883601078406,0.00043838829075868216,-0.0003594149072933381,-0.0004734999768588496,-0.00014537599031159027,0.0007844592373628669,-0.0009745055054657617,-0.2547723948955536,-51.21396255493164,-7.027482032775879,18.02191925048828,1.8007303476333618,-0.8686020374298096,0.10624848306179047,,,,,,,,,
1739303013.9152043,-0.11769361815053266,1.0654469168133123,-0.3796631111226151,-1.4225517387166011,1.5211741685670537,1.1553715655793686,1.356706211407386,-0.0012335515959799636,-0.00029504219444279815,-7.861679867951819e-05,0.0009331879332445984,0.0003671454962696195,0.00020685851887472165,0.0005077396438524498,-0.2071649730205536,-51.19015884399414,-7.055253028869629,17.97431182861328,1.8071390390396118,-0.8612778186798096,0.06596527993679047,,,,,,,,,
1739303013.926177,-0.11768949348986799,1.0654449977636,-0.3796625027068868,-1.4225580584095803,1.5211757921243643,1.1553724314763796,1.3567060141031935,0.00036863083067988604,-0.0012363339797988252,0.000765095012299429,-0.0012254964699419087,0.0005639085603182227,0.00018885496939087401,0.00023973714828357038,-0.2547723948955536,-51.19015884399414,-7.055253028869629,18.06952667236328,1.7934061288833618,-0.8686020374298096,0.07969819009304047,,,,,,,,,
1739303013.9372065,-0.11769233532629458,1.065444770163137,-0.37966661542868196,-1.4225591593536386,1.521177307444521,1.155373189136458,1.3567025220210676,-0.001107087183469451,-0.0005810779789752643,-0.0009878451991992897,-0.0004896118621384189,0.0005597835783363002,0.0004782863330597703,-0.0017453495612660905,-0.2547723948955536,-51.19015884399414,-7.027482032775879,18.04572296142578,1.7805887460708618,-0.8750107288360596,0.10624848306179047,,,,,,,,,
1739303013.9472196,-0.11768851900322881,1.0654449185453605,-0.3796628564177421,-1.4225556734849714,1.5211757921243643,1.1553724314763796,1.3567104233317597,0.0010679672979157437,-0.0006637561955243194,0.00020258850252863634,-0.00020057134693770903,0.00036598631860668227,0.0001000587697406236,0.0009741457078417794,-0.3063471019268036,-51.16238784790039,-7.079056739807129,17.99811553955078,1.7934061288833618,-0.8686020374298096,0.03941498324275017,,,,,,,,,
1739303013.958152,-0.11769028511208693,1.0654503409826444,-0.37966349176864295,-1.4225571421993677,1.5211749247735817,1.155370751715126,1.3567074021914218,-0.0003046220325305693,0.0015740728189899428,0.00017790100352903612,-0.0006274823961271172,0.0007121191664186826,-0.0009643500317567772,0.0012345267285721797,-0.2825433909893036,-51.23776626586914,-7.079056739807129,18.02191925048828,1.8007303476333618,-0.8548691272735596,0.06596527993679047,,,,,,,,,
1739303013.9692001,-0.11768545959764538,1.0654510820749337,-0.3796606347913579,-1.4225564707663831,1.521174926227124,1.1553715655788297,1.356708042115035,0.0012315611885792956,0.0018693617964824698,0.0002893456570777278,-7.259426117687631e-05,0.000541691252404451,0.0004637241217817171,0.0015735375700038881,-0.3063471019268036,-51.26553726196289,-7.079056739807129,18.02191925048828,1.8007303476333618,-0.8612778186798096,0.05955658480525017,,,,,,,,,
1739303013.981115,-0.11768791359986809,1.0654464558695993,-0.37966347410394197,-1.4225592162349563,1.5211757528785077,1.1553700502589903,1.3567032706308015,0.000952764267947072,0.0006145772886981324,0.0008267755724674667,-0.0012968028690212203,0.00020247365517352069,-8.941157633126593e-05,4.528789658000292e-06,-0.3063471019268036,-51.21396255493164,-7.079056739807129,18.04572296142578,1.7934061288833618,-0.8484604358673096,0.09983979165554047,,,,,,,,,
1739303013.9911435,-0.1176885170505633,1.0654486294307903,-0.37966463867474687,-1.4225496691795585,1.521174575502587,1.1553708079190688,1.3567036752961519,0.0004998061630981162,0.0010183773994501604,-0.0007442914987416808,0.0020332089442465008,-0.001236770102460167,0.00046186378806244583,-0.00032648024707935755,-0.3063471019268036,-51.21396255493164,-7.055253028869629,17.94654083251953,1.7934061288833618,-0.8548691272735596,0.09343110024929047,,,,,,,,,
1739303014.0011537,-0.11768852192441322,1.065446916922329,-0.3796623869656552,-1.4225556763963096,1.5211741679004278,1.1553698932755638,1.3567059628684608,0.00046717227904294236,0.00013703798430586285,0.0002907461288010975,0.0005692479669235778,-0.00033682269248687575,-0.0010017909452075553,0.0008128849903085726,-0.3063471019268036,-51.19015884399414,-7.055253028869629,17.99811553955078,1.8071390390396118,-0.8484604358673096,0.08610688149929047,,,,,,,,,
1739303014.0121324,-0.11768949451063303,1.0654486294430603,-0.3796626341764191,-1.4225592427678158,1.5211765497844316,1.1553712123637787,1.3567008431813965,-0.0003844663294282714,-0.00038342034721548465,0.0004246485533387635,-0.001969290754778261,0.000655662909155111,-0.0005391165631194111,0.00021950592895528666,-0.2547723948955536,-51.21396255493164,-7.055253028869629,18.04572296142578,1.7869974374771118,-0.8612778186798096,0.11265717446804047,,,,,,,,,
1739303014.0221756,-0.11768959202077933,1.065450565010778,-0.37966458198530745,-1.4225556744703556,1.5211744968207173,1.1553715612165023,1.3567017067326408,0.00042078613757826305,0.0012070979908173306,0.00045988731303342895,-8.948926670341819e-05,-0.0004100517102131735,1.5618238880674802e-05,-0.001284764279320363,-0.2825433909893036,-51.26553726196289,-7.027482032775879,17.99811553955078,1.8135477304458618,-0.8612778186798096,0.11265717446804047,,,,,,,,,
1739303014.0331674,-0.1176903373888571,1.065444756953243,-0.37966536699818804,-1.4225592071194635,1.5211735316063746,1.1553724314763054,1.3567046630451378,-0.00030035078485427555,-0.0013115911893908014,-0.0008717768197702545,-0.000957292035435291,-0.00038090898652265594,0.0007101388484307637,0.0012555193933011205,-0.2825433909893036,-51.16238784790039,-7.055253028869629,18.04572296142578,1.8135477304458618,-0.8686020374298096,0.05955658480525017,,,,,,,,,
1739303014.044211,-0.11769223011438373,1.0654542276136048,-0.3796626531984105,-1.4225489534877047,1.5211734109076567,1.155370454706359,1.3567080420401145,-9.017404569387104e-06,0.00016427777949175543,0.0008852462840409128,0.0016404196782812512,0.0005652026124414761,-0.00019905124587689204,0.0009586575070980772,-0.2547723948955536,-51.28934097290039,-7.055253028869629,17.94654083251953,1.8135477304458618,-0.8548691272735596,0.05955658480525017,,,,,,,,,
1739303014.0551302,-0.1176864666850688,1.0654464557680132,-0.37966347708404863,-1.4225556730477598,1.5211749262271321,1.1553697482264398,1.356706418391076,-0.00011051282046060072,-0.0010539439873344263,0.0010658371498164505,-0.00021717490813673356,-0.0004312737413163447,-0.0013448465346505754,0.0003341824766961919,-0.3063471019268036,-51.21396255493164,-7.079056739807129,17.99811553955078,1.8007303476333618,-0.8548691272735596,0.07328949868679047,,,,,,,,,
1739303014.0661325,-0.11768748677992873,1.0654480862959106,-0.3796629987363788,-1.422557450279325,1.5211749262271321,1.1553715655731651,1.356706055023702,0.000687101744027052,-0.0008670381925361747,0.0001606480327732354,-0.00043698506975374475,0.0002969810135308306,0.00046169076360181335,0.0009607301536146503,-0.2825433909893036,-51.23776626586914,-7.079056739807129,18.02191925048828,1.8007303476333618,-0.8612778186798096,0.07328949868679047,,,,,,,,,
1739303014.0771916,-0.11768453331557989,1.0654488594130362,-0.3796623899115117,-1.4225554389950497,1.5211745730144222,1.1553706509356423,1.3567038615261717,0.002533904597451346,-0.00030393443643111516,0.001147296598448863,0.0003488913957786358,-0.0008427006060599023,-0.0001663383188033241,-0.00042762591696572807,-0.3301508128643036,-51.21396255493164,-7.055253028869629,17.99811553955078,1.8007303476333618,-0.8548691272735596,0.09343110024929047,,,,,,,,,
1739303014.087248,-0.11768796896520796,1.0654501138246963,-0.3796652843982601,-1.422555642091178,1.5211742232064362,1.1553700497735875,1.3567020728680677,0.0003834513364683906,0.000728001937177319,-0.0010161085841024267,0.00039590283562555465,-0.00022923833171337453,-8.720277445517152e-05,-0.0007628040797904546,-0.2825433909893036,-51.26553726196289,-7.055253028869629,17.99811553955078,1.8071390390396118,-0.8484604358673096,0.09983979165554047,,,,,,,,,
1739303014.0982392,-0.11768625353088093,1.0654525330437734,-0.3796683985901814,-1.4225574600902158,1.5211747324871605,1.1553715655791388,1.3567039679404955,-7.728392217143723e-06,0.0016331390527552338,-0.0015713464988724715,6.507044375963003e-05,-0.0005246785946750126,-5.36101063411304e-05,2.423270416986869e-05,-0.3063471019268036,-51.26553726196289,-7.003678321838379,18.02191925048828,1.7934061288833618,-0.8612778186798096,0.06596527993679047,,,,,,,,,
1739303014.1091814,-0.11769137936092743,1.0654503154732016,-0.37966246641653834,-1.4225529410624593,1.5211763743972482,1.155371565579147,1.3567056072359025,1.6314998534772005e-05,0.0012576499621391392,0.0011159569677651096,0.0008154461535174278,0.0012861089609088924,0.0004129017258305045,-8.431100055179624e-05,-0.2547723948955536,-51.23776626586914,-7.055253028869629,17.97431182861328,1.8007303476333618,-0.8612778186798096,0.07969819009304047,,,,,,,,,
1739303014.119233,-0.11768587359669834,1.0654504184927633,-0.37965788567016506,-1.4225529410463087,1.5211756351654628,1.1553723137388094,1.356710423330851,0.00237616054951812,0.0011311182779471813,0.0024544285435119176,0.0011011157153666725,0.0006640200849605008,0.0005164999808262078,0.0032241912823442916,-0.3301508128643036,-51.23776626586914,-7.102860450744629,17.97431182861328,1.7934061288833618,-0.8686020374298096,0.03941498324275017,,,,,,,,,
1739303014.1301184,-0.11768862086929803,1.0654462016670239,-0.3796591688940316,-1.4225556774084112,1.5211702276310506,1.1553724314757148,1.3567007787864394,0.0007258286625276982,0.00046708261320592133,-1.7097249880479145e-05,-0.0007449274326977226,-0.0006984749930514643,0.0004564128807151906,0.00024237513716830744,-0.3063471019268036,-51.19015884399414,-7.102860450744629,17.99811553955078,1.8135477304458618,-0.8686020374298096,0.09343110024929047,,,,,,,,,
1739303014.1401484,-0.11769232559893633,1.0654503036869682,-0.3796652832776237,-1.4225595234417268,1.5211734106915609,1.1553676290046808,1.3567029264733366,-0.0009841736726412702,0.00047667953581031987,-0.0005339034934127622,-0.0008997749576879511,-0.00038187198224442955,-0.001172845990892079,0.00114108696039884,-0.2547723948955536,-51.23776626586914,-7.055253028869629,18.02191925048828,1.8135477304458618,-0.8548691272735596,0.06596527993679047,,,,,,,,,
1739303014.1502059,-0.11768946820522332,1.0654485941211411,-0.37966164769425786,-1.4225556773397217,1.521174928213647,1.1553708078652336,1.356704743426317,-0.0001892749240544249,-0.00043253118982369967,0.00010697826583051651,0.0005824196706095172,0.0016917615465770104,-0.0005563514353506692,0.00014617070918371083,-0.2547723948955536,-51.21396255493164,-7.079056739807129,17.99811553955078,1.8007303476333618,-0.8548691272735596,0.05955658480525017,,,,,,,,,
1739303014.1611779,-0.1176899636916158,1.065446908091812,-0.37966275005994354,-1.4225574600908135,1.521174926173308,1.1553708064655184,1.3567051708387305,-0.00019292453823013141,-0.00036886897421665326,-0.00030727358691599253,-0.00107867065521692,0.0005231349283144359,9.853412438260589e-06,0.0013233048911209639,-0.2547723948955536,-51.19015884399414,-7.079056739807129,18.02191925048828,1.8007303476333618,-0.8548691272735596,0.07328949868679047,,,,,,,,,
1739303014.171193,-0.11769191295125882,1.0654486264994714,-0.37966060472290714,-1.422554124325037,1.5211730711032656,1.1553714085956959,1.3567023610899314,-0.0010754704196635878,0.0002320749044418164,0.0007323338191437061,0.00024591112414172573,-0.0009523330424184279,-0.0002460666290327421,-0.0004621872714008598,-0.2309686839580536,-51.21396255493164,-7.079056739807129,17.97431182861328,1.8135477304458618,-0.8612778186798096,0.10624848306179047,,,,,,,,,
1739303014.1831434,-0.11769012586804736,1.0654503759768505,-0.37966636433388457,-1.4225574600921098,1.5211749262252139,1.1553715655782608,1.3567040272985216,-9.527802254188325e-05,0.0010954520605680879,-0.0019028315380344774,-0.0005460835227484642,0.0010826919416111489,-0.0004845886463274991,0.0011468404243418682,-0.2547723948955536,-51.23776626586914,-7.003678321838379,18.02191925048828,1.8007303476333618,-0.8612778186798096,0.06596527993679047,,,,,,,,,
1739303014.1931605,-0.11769033767770254,1.0654503529746264,-0.37966449331799557,-1.422553045979107,1.521174926227132,1.1553708079190688,1.3567035366164604,-0.0010142355480278415,0.0015767503242030316,-0.0004903824362099611,0.0014130418601166486,-4.760148892530079e-05,-6.944799512971266e-05,0.0010809697989844942,-0.2825433909893036,-51.23776626586914,-7.027482032775879,17.99811553955078,1.8007303476333618,-0.8548691272735596,0.05955658480525017,,,,,,,,,
1739303014.2041478,-0.11768725948385661,1.065445963248075,-0.3796606130809705,-1.4225555979260807,1.5211757921243643,1.155371565579147,1.3566976543607268,0.0009258208173726706,-0.0006924267106469088,6.404260184379013e-05,0.00021885436602978752,0.000909692601977259,0.0005558061934853235,-0.0015701328676906413,-0.2825433909893036,-51.19015884399414,-7.079056739807129,17.99811553955078,1.7934061288833618,-0.8612778186798096,0.10624848306179047,,,,,,,,,
1739303014.2141943,-0.11769008652987692,1.0654449950586808,-0.3796623869276711,-1.4225556777273844,1.5211757858256467,1.1553724314763794,1.3567072843714174,0.0003576999423210602,-0.002036313987297405,-0.0014416909111726122,-0.000187688119177531,0.0009410159152575144,0.001152472282299749,0.002553029500102612,-0.2547723948955536,-51.16238784790039,-7.055253028869629,17.99811553955078,1.7934061288833618,-0.8686020374298096,0.06596527993679047,,,,,,,,,
1739303014.2242086,-0.11768819372275874,1.0654439909232334,-0.37966246650939756,-1.4225556774138002,1.5211717022525797,1.155368386664759,1.3567088480224532,0.00184596848628635,-0.002252712241905445,0.0006016661189056287,0.00016625169105077793,-0.0002615053764189591,-0.00033701808461638987,0.001453867215495709,-0.2825433909893036,-51.16238784790039,-7.055253028869629,17.99811553955078,1.8007303476333618,-0.8612778186798096,0.03941498324275017,,,,,,,,,
1739303014.2351875,-0.11768546528749121,1.065448628129626,-0.3796623899804264,-1.4225574854916043,1.521174886963076,1.1553708079011238,1.356704889818569,0.001291046419959516,-0.00019792129444864113,0.00016299876921150387,-0.00034775682356071497,0.001297747569005248,0.00018988712668318078,0.00019448552047796153,-0.3063471019268036,-51.21396255493164,-7.055253028869629,18.02191925048828,1.8007303476333618,-0.8548691272735596,0.08610688149929047,,,,,,,,,
1739303014.2462132,-0.11768917877500924,1.0654469168132907,-0.37966446682644517,-1.4225574599822277,1.5211754883731248,1.155371561218496,1.3567063629338694,-0.0001110390242451989,0.00013865890204813318,-0.0006426004280898501,-9.274762243076829e-05,0.00047437649131294127,-0.00016400204678691945,-0.0003197291781855713,-0.2547723948955536,-51.19015884399414,-7.027482032775879,18.02191925048828,1.7869974374771118,-0.8612778186798096,0.07328949868679047,,,,,,,,,
1739303014.2572305,-0.11768785172797377,1.0654449520134053,-0.37966283257936867,-1.4225549621580573,1.521174921864484,1.1553708064655104,1.3567056564267692,-0.00044895247194737795,-0.0011527135561659719,0.0009110622236907796,0.0015766652914099444,1.4755588065778436e-05,0.0003520026326560071,0.00022710314935938487,-0.2825433909893036,-51.16238784790039,-7.079056739807129,17.99811553955078,1.8007303476333618,-0.8548691272735596,0.07969819009304047,,,,,,,,,
1739303014.2681584,-0.11768717943017999,1.0654486175604734,-0.37966069554603704,-1.4225556774097572,1.5211754384271132,1.1553715655791388,1.3567086776035253,0.0012564828448451987,0.0006368142404830071,0.00031854993506664087,0.0009124806561897512,0.0014194840629355384,-0.00025532608516649734,0.0015520183312267622,-0.2825433909893036,-51.21396255493164,-7.079056739807129,17.99811553955078,1.7934061288833618,-0.8612778186798096,0.05314789339900017,,,,,,,,,
1739303014.2791789,-0.11768745743646783,1.0654487059722795,-0.37966169480780093,-1.4225559070020561,1.5211757906648242,1.1553708077575633,1.3567072427348907,0.0012453640376589485,-0.00019828061002187015,-6.314027298149477e-05,2.0171815569190396e-05,0.0004097790025817974,0.00030074396712248785,0.0005990138574060499,-0.2825433909893036,-51.21396255493164,-7.102860450744629,17.99811553955078,1.7934061288833618,-0.8548691272735596,0.06596527993679047,,,,,,,,,
1739303014.290114,-0.11768808848054924,1.0654460431210309,-0.3796609762235715,-1.422557460055771,1.5211735314264707,1.155372431314873,1.3567047685944063,0.0007630576817902458,-0.00025301250598429607,0.0017027552933033922,0.00024017526712855888,1.499588279616328e-05,0.0007786038408635757,0.00036721496988103154,-0.2825433909893036,-51.19015884399414,-7.102860450744629,18.02191925048828,1.8135477304458618,-0.8686020374298096,0.08610688149929047,,,,,,,,,
1739303014.3001962,-0.11768715442363872,1.0654503406506637,-0.3796645327068966,-1.4225592427678329,1.5211728999204557,1.1553708079190679,1.3567111789493782,0.0007097806436208138,0.0007947319944968869,0.0003564264993660899,-0.00048565580709740896,0.0002602505322355055,0.00011025838406522887,0.0028168224636991195,-0.2825433909893036,-51.23776626586914,-7.055253028869629,18.04572296142578,1.7869974374771118,-0.8548691272735596,0.03300629183650017,,,,,,,,,
1739303014.3122141,-0.11768948276633107,1.0654496174416639,-0.37966601648659315,-1.4225556774137949,1.5211756351203343,1.155371565579147,1.3567064178392538,0.0003133692451687817,0.00022259432141512672,-0.001478797601753654,0.00045039372177479444,-0.0013841162306899386,0.0001707374476786263,5.323376883548235e-05,-0.2547723948955536,-51.23776626586914,-7.027482032775879,17.99811553955078,1.7934061288833618,-0.8612778186798096,0.07328949868679047,,,,,,,,,
1739303014.3231726,-0.11768542901536144,1.065450091334027,-0.3796637959227102,-1.4225619978269692,1.521172614000745,1.155370454706359,1.3567062576486058,0.0005165565915402653,-5.957286486480215e-05,-0.0001581698492225099,-0.0013531723548001564,-0.00030955841479430565,-7.147797359485152e-05,4.589516723314536e-05,-0.3063471019268036,-51.23776626586914,-7.079056739807129,18.04572296142578,1.8199564218521118,-0.8548691272735596,0.07328949868679047,,,,,,,,,
1739303014.334202,-0.11768803458279237,1.0654539006730166,-0.3796606841774445,-1.422555685967609,1.5211726379784232,1.155370807917075,1.3566998872009857,0.0009579371040578108,0.00146706251947917,0.0012111406888302072,0.0004589823505154525,-0.0023022094578454663,0.0005325148593012725,-0.0003250770429021642,-0.2547723948955536,-51.31711196899414,-7.079056739807129,17.99811553955078,1.8071390390396118,-0.8548691272735596,0.09983979165554047,,,,,,,,,
1739303014.3451962,-0.1176840320633477,1.0654489061142145,-0.37966063960856355,-1.4225556787085796,1.521173410898335,1.1553708079190688,1.3567007769463135,0.0008411446241816826,-6.61082722596259e-05,0.0013231468035768193,-0.00020480426257995905,-0.0015756678704102306,-8.891505606774348e-05,0.0016127826154599247,-0.3301508128643036,-51.21396255493164,-7.079056739807129,17.99811553955078,1.8135477304458618,-0.8548691272735596,0.09343110024929047,,,,,,,,,
1739303014.3561177,-0.11768574751866016,1.0654469170319933,-0.3796623958674544,-1.4225538947367975,1.5211765497844427,1.155371565579147,1.3567012681707424,0.0007382236252084088,-0.00038594832386111566,0.0005352851261429686,0.0006103727857895605,0.001139963920528586,0.0005204129846882403,-0.001379775005366174,-0.3063471019268036,-51.19015884399414,-7.055253028869629,17.97431182861328,1.7869974374771118,-0.8612778186798096,0.11265717446804047,,,,,,,,,
1739303014.366162,-0.1176870391240314,1.0654505711159883,-0.3796633504496914,-1.422559242767833,1.5211760079417287,1.1553724314763794,1.3567042601111092,0.0005744966751430927,0.0016498322405776081,-0.000258708397909389,-0.001119803456289608,0.0006899609741125302,0.00044166314103724413,-0.0004775679047044748,-0.2825433909893036,-51.23776626586914,-7.055253028869629,18.04572296142578,1.8007303476333618,-0.8686020374298096,0.05955658480525017,,,,,,,,,
1739303014.3771446,-0.11768558689215386,1.065448064304018,-0.37966313863647044,-1.4225563661785787,1.521173410428565,1.1553700502589903,1.3566974652395227,0.0016972400630000306,0.0003849513821153072,-0.0006499243582388438,-0.00037875123573687927,-0.0008335605829680065,0.00026448827274448044,-0.0031898320420963916,-0.3063471019268036,-51.21396255493164,-7.055253028869629,17.99811553955078,1.8135477304458618,-0.8484604358673096,0.11998139321804047,,,,,,,,,
1739303014.3871446,-0.11769085189144701,1.0654496266984834,-0.37966239086483755,-1.422560627831188,1.5211733708700468,1.1553708079190688,1.3567033326697693,-0.0005335449100129633,0.0008244732459548674,0.0008516698567153569,-0.0013466322020397872,-0.0004594829976725499,5.1600296087508224e-05,-0.00039040157318549773,-0.2309686839580536,-51.23776626586914,-7.055253028869629,18.04572296142578,1.7869974374771118,-0.8548691272735596,0.08610688149929047,,,,,,,,,
1739303014.397151,-0.11768921828900519,1.0654486291038983,-0.3796623869275883,-1.4225595265136008,1.5211749240737242,1.1553708079190688,1.3566972775082602,-0.0007587757317888617,2.4249821974591668e-05,0.0005270808333833272,-0.0010186122193580002,0.0003560433377202522,0.00039382561769150953,-0.0017992998557518358,-0.2547723948955536,-51.21396255493164,-7.055253028869629,18.02191925048828,1.8007303476333618,-0.8548691272735596,0.11998139321804047,,,,,,,,,
1739303014.4082177,-0.11768935154031698,1.0654464279843594,-0.37966518491655377,-1.4225595265251398,1.521175796593995,1.1553715612184963,1.3567008932686018,-0.0006695866629780201,-0.0009590897976938351,-0.0007658117634700444,-0.0015313301425579607,0.0007185322271186282,0.00017063444162118395,0.0005732450264139073,-0.2825433909893036,-51.19015884399414,-7.027482032775879,18.02191925048828,1.7934061288833618,-0.8612778186798096,0.11998139321804047,,,,,,,,,
1739303014.4201097,-0.1176885156092685,1.0654468988247086,-0.3796624752320505,-1.4225556774293473,1.5211749204129394,1.155369258376184,1.3567031600038186,-0.0002559884930537187,-0.0003884269505448406,0.000654643987422425,0.0003168014562348878,0.00011736595929588836,0.00042934708743210806,0.0008420902703680366,-0.3063471019268036,-51.19015884399414,-7.055253028869629,17.99811553955078,1.8007303476333618,-0.8686020374298096,0.07328949868679047,,,,,,,,,
1739303014.4301808,-0.11768927267028918,1.0654487059721742,-0.37966238692901705,-1.4225574600908142,1.5211741685669553,1.1553708073808153,1.3567064125418795,0.0008462257578352988,0.0004052427927579813,0.000277744715202553,-0.0008576842390301636,0.0007291266086551047,-0.00038449112725886,0.0024815138071461107,-0.2825433909893036,-51.21396255493164,-7.055253028869629,18.02191925048828,1.8071390390396118,-0.8548691272735596,0.07328949868679047,,,,,,,,,
1739303014.4421802,-0.11769298275883254,1.0654483909882864,-0.3796666213149069,-1.4225541324039053,1.5211741678671962,1.1553724314763785,1.3566994502896415,-0.0016465648668179504,-7.554823031949744e-05,-0.0013499550746692,0.0008194266737832741,-0.0003546637866249568,-0.0003566001262982102,-0.001938441510137365,-0.2309686839580536,-51.21396255493164,-7.027482032775879,17.97431182861328,1.8071390390396118,-0.8686020374298096,0.11998139321804047,,,,,,,,,
1739303014.4521897,-0.11768949013991288,1.0654462785096022,-0.379664502196166,-1.42255567643399,1.5211771249762467,1.1553692923835714,1.356697518667977,-0.0004184402850207239,0.0002750642523415605,-0.00012762445062744086,0.00012563018770539957,0.0014927397761910213,-0.0008824984810171818,-0.0019330270950397965,-0.2547723948955536,-51.19015884399414,-7.027482032775879,17.99811553955078,1.8007303476333618,-0.8420517444610596,0.11998139321804047,,,,,,,,,
1739303014.4641728,-0.11768735220985124,1.0654485499665967,-0.3796634652736521,-1.4225538947367702,1.5211734109745685,1.1553708072730453,1.3567024621837103,0.0009727547340618265,0.0005011027283717578,0.00016249602503263995,0.0005927289362827718,0.0006137455525287326,0.00032851705922623477,4.999032257749366e-05,-0.2825433909893036,-51.21396255493164,-7.079056739807129,17.97431182861328,1.8135477304458618,-0.8548691272735596,0.10624848306179047,,,,,,,,,
1739303014.4752243,-0.11768913947669615,1.0654469851666624,-0.37966270777989614,-1.4225553850321628,1.521175791962859,1.1553689905670246,1.3567034945228913,-0.00021698065331018435,-0.0009253482186566339,-0.0006984116564430233,0.0007768607278910552,0.0007892651976999027,-0.00016504176054127633,0.0002321212362883571,-0.2547723948955536,-51.16238784790039,-7.055253028869629,17.99811553955078,1.7934061288833618,-0.8484604358673096,0.09343110024929047,,,,,,,,,
1739303014.486143,-0.11768913980107777,1.0654446806095534,-0.3796627628107679,-1.4225535349342628,1.5211715485651731,1.155369893269582,1.3567020540064951,-0.0006628117221608706,-0.0011346000626501712,-3.193227740539177e-05,0.0012291059339914225,0.0003912590430303454,-0.00031853306242692254,-0.0003738967489620561,-0.2547723948955536,-51.16238784790039,-7.079056739807129,17.99811553955078,1.7934061288833618,-0.8484604358673096,0.07328949868679047,,,,,,,,,
1739303014.4962351,-0.11768890260515312,1.0654486290029583,-0.37966060526820444,-1.422557562093758,1.5211708325973743,1.1553708079164102,1.3567060415407879,-0.0002508359198838088,-5.6398655563327294e-05,0.0007039706074163249,-0.001406995058828767,-0.0007462655099446163,-0.0003205230431331267,0.0009097287656730569,-0.2547723948955536,-51.21396255493164,-7.079056739807129,18.02191925048828,1.8071390390396118,-0.8548691272735596,0.07328949868679047,,,,,,,,,
1739303014.5062516,-0.11769127023008144,1.065450341963784,-0.37965675159510937,-1.4225574600925412,1.5211765366459957,1.1553724314763794,1.3567045277780494,-0.0013254696029917005,0.0011670866903560869,0.0025447929840756037,-0.001019305944063603,0.0007421801031797415,0.0010835581706797452,0.001630774941337522,-0.2547723948955536,-51.23776626586914,-7.130631446838379,18.02191925048828,1.7869974374771118,-0.8686020374298096,0.08610688149929047,,,,,,,,,
1739303014.517123,-0.11768913938006909,1.0654493182078442,-0.37965977622900177,-1.4225581489955694,1.5211749306967248,1.1553701525129672,1.3567021396912216,-0.0008764509535508585,0.0011129608727940676,0.001397211631684937,-0.000729056476223746,0.0007352741768325319,-0.0004016513164861834,0.0008200052035537917,-0.2547723948955536,-51.21396255493164,-7.102860450744629,18.02191925048828,1.8007303476333618,-0.8612778186798096,0.09983979165554047,,,,,,,,,
1739303014.5271952,-0.11768501056113673,1.0654469136635054,-0.37966338019091067,-1.4225559835431434,1.521173867085708,1.1553715655552166,1.356707109620903,0.0015951643714775577,-0.00040168838864503324,-0.0006215597742304499,-0.00010069535497519912,-0.0009433947814647404,0.0005867813049249246,0.002011283104721701,-0.2825433909893036,-51.19015884399414,-7.055253028869629,17.99811553955078,1.8007303476333618,-0.8612778186798096,0.06596527993679047,,,,,,,,,
1739303014.5372226,-0.11768856157151755,1.0654479053568395,-0.3796646475393272,-1.422557746558123,1.5211741685132438,1.1553713660240479,1.3567014008171963,0.000858286876611168,0.0001539965851885743,-0.0003547885638534562,-0.0002368173068740022,-0.0008956363287164375,0.0006810071737014662,-0.0009081345901675745,-0.2825433909893036,-51.21396255493164,-7.055253028869629,17.99811553955078,1.8071390390396118,-0.8686020374298096,0.11265717446804047,,,,,,,,,
1739303014.5472243,-0.11768519280113356,1.0654469169182417,-0.37966242651318827,-1.422558433429419,1.521175792124364,1.155368329970285,1.3567036958853749,0.0013215914885418177,0.00023727270232198032,7.787064836208273e-05,-0.000607392662453204,0.0014024809036111072,-0.0008969840185519423,0.0017807020922170308,-0.3063471019268036,-51.19015884399414,-7.055253028869629,17.99811553955078,1.7934061288833618,-0.8612778186798096,0.05955658480525017,,,,,,,,,
1739303014.558169,-0.11769085188743869,1.0654494785546467,-0.3796608554242086,-1.4225592551008832,1.5211730572097488,1.1553704546342587,1.3567075593106181,-0.0003313960371282468,-0.00030621454638990475,0.00014778463001528715,-0.0004969301432727461,0.00032174054375193415,0.0005632394869722844,0.002800564830308507,-0.2309686839580536,-51.26553726196289,-7.079056739807129,18.04572296142578,1.8135477304458618,-0.8548691272735596,0.05955658480525017,,,,,,,,,
1739303014.5691388,-0.1176871411024096,1.0654459629048116,-0.37966275405273436,-1.4225518149469898,1.5211717080648908,1.1553708078632394,1.3567048356296008,0.0007514775970822453,-0.0017228868737789568,0.0003730136725571294,0.0014436663244786951,-0.00032017504648086795,0.001154455011387824,0.0003995033036210921,-0.2825433909893036,-51.19015884399414,-7.079056739807129,17.94654083251953,1.8007303476333618,-0.8548691272735596,0.07328949868679047,,,,,,,,,
1739303014.5791407,-0.11768714142718176,1.0654503380230493,-0.3796627804696605,-1.4225578287408362,1.5211734108524755,1.1553692925989112,1.356707224334855,0.0002615113832558706,0.0012928190586651534,0.00022082657925995752,0.00030261973945472793,-0.00013037128862233616,0.0008623212417649579,0.002819809191868059,-0.2825433909893036,-51.23776626586914,-7.079056739807129,17.99811553955078,1.8135477304458618,-0.8420517444610596,0.06596527993679047,,,,,,,,,
1739303014.5901434,-0.11769084896577281,1.0654444444683313,-0.37966524937996715,-1.4225574727003936,1.5211741683517126,1.1553707686732122,1.3566971551980773,-0.0008382041806592692,-0.0012966685307350516,7.4638573148765535e-06,0.000604822420292354,-0.0007417566855581588,-6.823592330372521e-05,-0.00179098927212922,-0.2309686839580536,-51.19015884399414,-7.055253028869629,18.02191925048828,1.8071390390396118,-0.8548691272735596,0.11998139321804047,,,,,,,,,
1739303014.6002593,-0.11768714175181638,1.0654486028264933,-0.37966192999075726,-1.4225592770964852,1.5211749321866772,1.155370807917075,1.3567040468383544,0.0017712965471714448,-0.00014432527523110733,-0.0007061052651049317,-0.000986332083768106,0.0009237391320052582,0.00036678855331335363,0.0007231522824086864,-0.2825433909893036,-51.21396255493164,-7.102860450744629,18.04572296142578,1.8007303476333618,-0.8548691272735596,0.05314789339900017,,,,,,,,,
1739303014.6112115,-0.11768913644504223,1.0654483821941132,-0.37966156821453606,-1.4225592513061593,1.5211757921064306,1.1553707948371166,1.3567075184738207,-0.00041380308412019363,-0.0009160168906626195,9.44701675451372e-05,-0.00030078479682714584,-0.00015962975536353024,-0.0005192161396092294,0.0016783629417725242,-0.2547723948955536,-51.21396255493164,-7.079056739807129,18.04572296142578,1.7934061288833618,-0.8548691272735596,0.05955658480525017,,,,,,,,,
1739303014.6221924,-0.11768913936802382,1.0654503429072033,-0.3796652875288179,-1.4225584353074021,1.5211734109069752,1.1553692921143215,1.3567072827402826,-0.00029099941218437844,0.00016756465431614498,-0.0002767667807449185,-0.00025580416693782456,0.00038123118429309754,0.0001998584798407415,0.0015932348970500144,-0.2547723948955536,-51.23776626586914,-7.055253028869629,17.99811553955078,1.8135477304458618,-0.8420517444610596,0.06596527993679047,,,,,,,,,
1739303014.6331196,-0.11768711512019897,1.0654486294430656,-0.3796637420094539,-1.4225592683282011,1.521174926227132,1.1553714478415744,1.3567008142876074,0.0003467316955093695,0.0004336074502163646,-0.0007662746086352389,-0.0004821002716617202,0.0012115832496455555,-0.0004245340894668673,-0.002053169018220112,-0.2825433909893036,-51.21396255493164,-7.079056739807129,18.04572296142578,1.8007303476333618,-0.8612778186798096,0.07969819009304047,,,,,,,,,
1739303014.6432247,-0.11768913947585402,1.0654468904313759,-0.3796637038541854,-1.4225556774142276,1.5211741511244508,1.1553720782616759,1.3567075576528238,-0.0005922038076299163,-0.000888716344640694,-0.0012309629857839468,-5.745938224098902e-05,-5.0087117147477405e-05,-0.00031470489721792806,0.0019856034376584853,-0.2547723948955536,-51.19015884399414,-7.079056739807129,17.99811553955078,1.8071390390396118,-0.8686020374298096,0.05955658480525017,,,,,,,,,
1739303014.6541803,-0.11768819231646283,1.0654486974569493,-0.3796666124664207,-1.422555681298004,1.5211741685669553,1.155370152726314,1.3567047641902878,0.00046857962154846325,0.0009007299011044628,-0.00014038671485546675,0.0008161652678578168,0.0005129836938676739,-0.0008823157886023499,0.002864132770803777,-0.2547723948955536,-51.21396255493164,-7.027482032775879,17.99811553955078,1.8071390390396118,-0.8612778186798096,0.05955658480525017,,,,,,,,,
1739303014.6661167,-0.11768913936269418,1.065448637981706,-0.3796606072060547,-1.4225556802482398,1.521174926227132,1.1553710946208917,1.3567044158035306,0.00019814613468878103,0.0012314796195060276,0.0012506523633327557,0.000813212133696696,-0.0002320694144175329,0.001024395947512749,0.0015666457125051427,-0.2547723948955536,-51.21396255493164,-7.079056739807129,17.99811553955078,1.8007303476333618,-0.8612778186798096,0.08610688149929047,,,,,,,,,
1739303014.6761498,-0.11768716762591623,1.0654469156142787,-0.3796655658419597,-1.4225580498258767,1.52117491314518,1.1553724313068983,1.3567005118631459,-0.0006303853436778231,-0.0009156130430585329,-0.002414687981262943,-0.0015628949720975559,0.0011316891246806974,0.0006501787594087894,0.00022814515167119385,-0.2825433909893036,-51.19015884399414,-7.055253028869629,17.99811553955078,1.8007303476333618,-0.8686020374298096,0.08610688149929047,,,,,,,,,
1739303014.6861691,-0.11768714045300224,1.0654469140138754,-0.37966262580011084,-1.4225518149603127,1.5211757921242905,1.15536899062086,1.356701103277364,0.0011192670192075858,-0.0007800584790175021,0.000840565469884189,0.002702378492992897,-0.0012560179093950713,-0.0007741811452895782,-9.621844340730219e-05,-0.2825433909893036,-51.19015884399414,-7.055253028869629,17.94654083251953,1.7934061288833618,-0.8484604358673096,0.08610688149929047,,,,,,,,,
1739303014.6971867,-0.11768542890645058,1.0654469159411664,-0.379663104685323,-1.422557460090814,1.5211757916398476,1.1553715655731653,1.3567023973757497,0.001007883580154155,-0.0004550200510455386,0.00044144445765073907,0.0002685903307704966,3.6460384557153414e-05,0.0004365115352167448,5.669788620795758e-05,-0.3063471019268036,-51.19015884399414,-7.079056739807129,18.02191925048828,1.7934061288833618,-0.8612778186798096,0.06596527993679047,,,,,,,,,
1739303014.707213,-0.11768566534457296,1.0654461221937157,-0.3796630281605604,-1.4225596029145866,1.521174926227124,1.1553699325214204,1.3567023968729888,0.0009208247506286933,-0.0007654538539716741,-7.724377657826199e-05,-0.0005530681654034745,-0.00012776969867708924,-0.000753603600193745,0.0003249848722057031,-0.3063471019268036,-51.19015884399414,-7.079056739807129,18.02191925048828,1.8007303476333618,-0.8484604358673096,0.06596527993679047,,,,,,,,,
1739303014.7181823,-0.11768890260914988,1.0654476056736546,-0.37966250481515695,-1.4225574602320814,1.5211749247735817,1.1553714459015163,1.3566997181472071,-0.0008065962910876027,0.00013879690881266624,-0.001181526418570786,-6.093754865844813e-05,0.0002696415803984186,0.00010687873558354861,-4.3161744686022756e-05,-0.2547723948955536,-51.19015884399414,-7.055253028869629,18.02191925048828,1.8007303476333618,-0.8612778186798096,0.07969819009304047,,,,,,,,,
1739303014.7301753,-0.11768698262759265,1.0654486206140383,-0.3796633675654169,-1.4225574896947875,1.5211749257426126,1.1553707948368914,1.356696010878906,0.0005157947986426008,0.0006954734267487453,7.114211724243865e-05,-0.00042550669672420017,0.0005875168473713638,-0.0002080720005988001,-0.0016218826765411053,-0.2547723948955536,-51.21396255493164,-7.055253028869629,18.02191925048828,1.8007303476333618,-0.8548691272735596,0.11998139321804047,,,,,,,,,
1739303014.7411077,-0.11768713850013027,1.0654487324149655,-0.3796614382268015,-1.4225577437082026,1.5211738139007929,1.155369252561967,1.3567004928477482,0.0006479435104640558,0.000551313792351682,0.0005849241112056763,0.0006736634583308353,0.0001066489962181911,0.0007147501242299037,6.886514416230534e-05,-0.2825433909893036,-51.21396255493164,-7.079056739807129,17.99811553955078,1.8071390390396118,-0.8686020374298096,0.11265717446804047,,,,,,,,,
1739303014.7511857,-0.11769186067977842,1.0654486265013647,-0.3796623908662307,-1.422555686371971,1.521175774675755,1.1553705058871826,1.356708090700043,-0.0016564558108750737,-0.000475085968166632,0.00024345698517043175,0.0012131276875439114,-0.00030837448872606064,0.000602312976301995,0.0022716086715061155,-0.2547723948955536,-51.21396255493164,-7.055253028869629,17.99811553955078,1.7934061288833618,-0.8612778186798096,0.04673920199275017,,,,,,,,,
1739303014.7612033,-0.11768842869240555,1.0654476017624779,-0.3796633528117268,-1.4225577437082988,1.5211741642061076,1.155368373564861,1.3567078611507892,0.0004223014948840599,0.00026881482820486865,5.828669240464003e-06,0.0007313532987519997,-6.602136414219799e-05,-7.307456840110251e-05,0.001864506061642901,-0.2547723948955536,-51.19015884399414,-7.055253028869629,17.99811553955078,1.8071390390396118,-0.8612778186798096,0.05955658480525017,,,,,,,,,
1739303014.7721074,-0.11768945504788789,1.0654469340259192,-0.37966450237114946,-1.4225577440347472,1.5211757921243398,1.155368990602842,1.3567025175805585,-0.0005476401530069624,-0.00036046514374288925,-0.0006138316334423103,0.00011599751161740366,0.0010417014777967873,-0.0004393397553168676,0.00026897842569468465,-0.2547723948955536,-51.21396255493164,-7.027482032775879,17.99811553955078,1.7934061288833618,-0.8484604358673096,0.06596527993679047,,,,,,,,,
1739303014.7822616,-0.11768714143253331,1.0654461652264462,-0.3796668538472113,-1.4225557115668477,1.5211731089289244,1.1553657604538692,1.3567026176035042,-0.00012333280951654354,-0.0014429139955500366,-0.0020952848157707107,0.0006509187677402593,-0.0011572188400603063,-0.0013441576883150286,-0.0002805701807434755,-0.2825433909893036,-51.19015884399414,-7.027482032775879,17.99811553955078,1.8071390390396118,-0.8420517444610596,0.07328949868679047,,,,,,,,,
1739303014.7931955,-0.11768712681219379,1.0654486029478636,-0.37966060462736556,-1.4225559325120558,1.5211757906648324,1.1553700497006993,1.3566975951984797,0.0004181003285483422,-0.0001759293951586787,0.0008784397306185039,0.0009664157512517383,-6.867985028281764e-05,0.000762283185556099,-0.00015246528306406455,-0.2825433909893036,-51.21396255493164,-7.079056739807129,17.99811553955078,1.7934061288833618,-0.8484604358673096,0.10624848306179047,,,,,,,,,
1739303014.8031974,-0.11768714142693974,1.065450250716726,-0.37966527444143044,-1.4225593561490724,1.5211706875130846,1.1553711731205711,1.3566952552066673,0.0001650782341891815,-0.00021669605922234654,-0.001371899557921938,-0.000888755513435642,-0.00018254220225343582,0.000687500788143062,-0.001627693563863363,-0.2825433909893036,-51.23776626586914,-7.055253028869629,18.04572296142578,1.8007303476333618,-0.8612778186798096,0.12639008462429047,,,,,,,,,
1739303014.8141093,-0.1176886946074733,1.0654503419632764,-0.379666621331207,-1.4225575622356599,1.5211748874539774,1.155370671229295,1.35670088701126,-0.0009267906607760962,7.2804745518782e-05,-0.0006221394593642507,7.06575340746059e-05,0.00017110652046597996,-0.0015949009123866961,-0.0009936021205977546,-0.2309686839580536,-51.23776626586914,-7.027482032775879,18.02191925048828,1.8007303476333618,-0.8548691272735596,0.10624848306179047,,,,,,,,,
1739303014.8261347,-0.11768683450014605,1.0654486307028037,-0.3796630680666712,-1.4225574685946594,1.5211749218124273,1.1553700371762665,1.356695997872481,0.0004016582396460098,0.0003024079968229244,-0.00023228097636296093,0.00011133461533677393,0.0005170563779998163,0.00022116029266301907,-0.001298067768612935,-0.2825433909893036,-51.21396255493164,-7.079056739807129,18.02191925048828,1.8007303476333618,-0.8484604358673096,0.11998139321804047,,,,,,,,,
1739303014.836191,-0.11768903413835458,1.0654486294067285,-0.3796623869414299,-1.4225556783586504,1.5211741635065206,1.1553661086777771,1.3567031686045994,0.0007772800670580229,0.0006985845204576571,0.0003384736293752206,0.0012307388601974479,-0.00021284044860450554,-0.0009480452651183208,0.0009158903072288852,-0.2547723948955536,-51.21396255493164,-7.055253028869629,17.99811553955078,1.8071390390396118,-0.8420517444610596,0.05955658480525017,,,,,,,,,
1739303014.8462558,-0.11768699680821273,1.065447018961556,-0.37966084266908195,-1.4225595243865505,1.5211752546960506,1.155370454652439,1.3566972842418474,0.000388634326567578,2.3558718052389975e-05,0.0005456571310030647,-0.000815221862015144,-0.0005002615642309988,-0.00020479034668788564,-0.0010393694253876444,-0.2547723948955536,-51.19015884399414,-7.079056739807129,18.02191925048828,1.8071390390396118,-0.8548691272735596,0.10624848306179047,,,,,,,,,
1739303014.8571825,-0.11768690497697554,1.065446201667168,-0.37966239019935555,-1.4225581498120585,1.5211738105153079,1.1553704544890242,1.3567020993630599,0.0003035997211631314,-0.0007173894065633946,0.00022733834277108875,-0.0006387500838032135,-0.0001844859991255604,-0.00016967306166975027,-0.00010132686744102916,-0.2825433909893036,-51.19015884399414,-7.055253028869629,18.02191925048828,1.8071390390396118,-0.8548691272735596,0.05955658480525017,,,,,,,,,
1739303014.8681424,-0.11768363746342526,1.0654418305465532,-0.37966446671739573,-1.4225619978308628,1.5211756726122494,1.155371548134549,1.3567038568275447,0.0009532295690263321,-0.0019761452725081743,-0.00047204620872024047,-0.0010528428111340042,-0.0005264259747537784,-0.000253713694402337,0.0010901073720111336,-0.3301508128643036,-51.16238784790039,-7.027482032775879,18.04572296142578,1.7934061288833618,-0.8612778186798096,0.05314789339900017,,,,,,,,,
1739303014.8791716,-0.1176891396914814,1.0654501034929094,-0.37965882299069503,-1.4225584325195884,1.5211749260636025,1.1553658117061778,1.3566964828650694,-0.0016340378719728555,0.00032706341468197327,0.0007126040592809466,-0.0009603916537921029,0.000993167338154792,-0.000178245536187126,-0.0022987062930457224,-0.2547723948955536,-51.23776626586914,-7.102860450744629,17.99811553955078,1.8007303476333618,-0.8484604358673096,0.11265717446804047,,,,,,,,,
1739303014.8901854,-0.11768913936804093,1.0654486647154306,-0.37966695817517904,-1.4225559866510975,1.521172648886246,1.1553708035504426,1.3567015309750068,-1.0281137117434078e-05,0.0007356905234097527,-0.002272136528911535,0.0006911813830974833,0.00043574624332549244,-5.111542767517681e-05,9.293046849006306e-05,-0.2547723948955536,-51.21396255493164,-7.027482032775879,17.97431182861328,1.8199564218521118,-0.8548691272735596,0.07328949868679047,,,,,,,,,
1739303014.9011629,-0.11768924459599343,1.0654469254607901,-0.3796644696748808,-1.4225600335836532,1.5211757921243398,1.1553658110604261,1.3567011032207275,-0.0008439437076131558,-0.0004774517515595218,4.857601201198135e-05,-0.00102425961136305,0.0002444226985385728,-0.00015307418794948562,0.001212249641854073,-0.2547723948955536,-51.19015884399414,-7.027482032775879,18.04572296142578,1.7934061288833618,-0.8484604358673096,0.08610688149929047,,,,,,,,,
1739303014.9111862,-0.1176871375316377,1.065454176049969,-0.3796644755477451,-1.4225566982393745,1.52117818461438,1.155366398583359,1.3567040193805215,0.0004286894132079145,0.0020986457696353196,-0.0006838773540821368,-1.0782131770028678e-05,0.0014273527053693083,-0.0005098742844381424,0.0021951267325551515,-0.2825433909893036,-51.28934097290039,-7.027482032775879,17.99811553955078,1.8007303476333618,-0.8548691272735596,0.06596527993679047,,,,,,,,,
1739303014.9221737,-0.11768713850416657,1.0654451868351456,-0.37966456899720075,-1.4225548896250042,1.521173410925369,1.1553698743545198,1.3567042451414077,0.0011595154093459342,-0.0009327834367558422,-0.00022843132729193487,0.0011339960942112924,-0.00037985986630756873,0.00014637735503145692,0.0027692523916225753,-0.2825433909893036,-51.16238784790039,-7.055253028869629,17.97431182861328,1.8135477304458618,-0.8484604358673096,0.05955658480525017,,,,,,,,,
1739303014.933175,-0.11768906044705897,1.0654503665989425,-0.3796652872449841,-1.42256021641531,1.521170009996139,1.1553706887269557,1.3566983921044369,-0.0004166812534154108,0.000986341176998404,-0.0009568559065464424,-0.00051817227623041,-0.001426380952835327,0.0005174987651237866,0.0009498944582465147,-0.2547723948955536,-51.23776626586914,-7.055253028869629,18.02191925048828,1.8071390390396118,-0.8548691272735596,0.09983979165554047,,,,,,,,,
1739303014.9441383,-0.11768905135285623,1.065448629334183,-0.3796645463156256,-1.422557463885604,1.5211749131217045,1.155370010527944,1.3567007733156695,0.0006217303918266274,-8.186119807234842e-05,-0.0020119488510593293,0.0007089837920103962,-0.000684108054181751,-7.432713766456834e-05,-2.1508192478112873e-05,-0.2547723948955536,-51.21396255493164,-7.027482032775879,18.02191925048828,1.8007303476333618,-0.8484604358673096,0.07969819009304047,,,,,,,,,
1739303014.955103,-0.11768371627597511,1.0654495477961037,-0.37966239575918737,-1.4225583784439235,1.521174050829262,1.1553714085950477,1.3567006689871006,0.0016696037065783622,0.0016940125546026836,-0.00020128017382663497,-0.0004645776294937005,-0.0014951185346478188,0.0004916617292783468,0.0007037954295135724,-0.3301508128643036,-51.21396255493164,-7.055253028869629,18.02191925048828,1.8071390390396118,-0.8612778186798096,0.07969819009304047,,,,,,,,,
1739303014.9651515,-0.11768500763813722,1.0654490031560127,-0.37966270776244954,-1.422555961036312,1.5211731090938032,1.1553683411192985,1.3567023970379346,0.00040921456417722195,-0.00020880603914283025,0.0008694168001908422,-2.805962469642749e-05,0.0005419202003496112,0.00018373215652489513,-0.00027178570287276967,-0.2825433909893036,-51.21396255493164,-7.055253028869629,17.97431182861328,1.8071390390396118,-0.8612778186798096,0.06596527993679047,,,,,,,,,
1739303014.9761355,-0.11768340325631317,1.065446802130308,-0.3796623879104792,-1.422556377562928,1.5211731082769215,1.1553672576313083,1.3566991491675187,0.0009366392812450793,-0.00023633928690254433,0.00018759275697885323,0.0005881366572338438,-0.00024839126949755013,0.0003746535255656954,0.0005519765094797353,-0.3063471019268036,-51.19015884399414,-7.055253028869629,17.99811553955078,1.8071390390396118,-0.8548691272735596,0.09343110024929047,725,731,742,39.762,0,0
1739303014.9861598,-0.11768508688130386,1.065446484618712,-0.37966238692753823,-1.4225561934656692,1.5211743280035597,1.155369683904204,1.3567020436602604,0.001683761971181314,0.0006182524823156887,0.0010968744288329397,-0.0004174063050050263,0.0006201130423342662,-0.0001985901876257469,-0.0001525521447854178,-0.3063471019268036,-51.21396255493164,-7.055253028869629,17.97431182861328,1.8071390390396118,-0.8484604358673096,0.06596527993679047,724,732,742,39.871,0,0
1739303014.9971802,-0.11768927228744575,1.0654486379100063,-0.3796623903070259,-1.4225593533492584,1.5211708359513894,1.1553674720150502,1.3566976344322204,-0.00031233020296208473,-0.0005654668262551254,-0.0003987774771071206,-0.000612539443329301,-0.0015253964770660276,-2.450116293617253e-05,-0.0007556020144394148,-0.2825433909893036,-51.21396255493164,-7.055253028869629,18.04572296142578,1.8263651132583618,-0.8548691272735596,0.10624848306179047,725,730,743,39.871,0,0
1739303015.0072103,-0.11768697343803398,1.065448629297753,-0.37966652444246063,-1.4225597564289592,1.5211749262211505,1.1553693892351975,1.3567030367959292,-4.760870848145263e-05,0.0003550102951340421,-0.0014280676062273215,-0.00024452702834340675,0.00036490283472233716,0.0012831327978583835,0.001368555167932484,-0.2547723948955536,-51.21396255493164,-7.003678321838379,18.02191925048828,1.8007303476333618,-0.8548691272735596,0.05955658480525017,725,731,741,39.762,0,0
1739303015.018275,-0.11768686911859129,1.0654449218158966,-0.3796626253507587,-1.4225613432191282,1.521174732486235,1.1553703979938739,1.3566976344362083,0.0002371708790043384,-0.001776106945162207,0.0003305685832625018,-0.0006856811693810762,0.0006213671378180782,0.0017074997905345633,-0.0005154033181725597,-0.2825433909893036,-51.16238784790039,-7.055253028869629,18.04572296142578,1.7934061288833618,-0.8548691272735596,0.10624848306179047,723,733,743,39.871,0,0
1739303015.0291066,-0.11769082561735723,1.0654476757324103,-0.3796576997100275,-1.4225574686446925,1.521172653191068,1.1553693890917518,1.356696997459133,-0.001516284579012678,-3.2969327029860375e-05,0.000710639305403736,-1.2393269761616448e-05,-0.0007444896992406466,0.00012436229132870968,-0.0016757602719179236,-0.2309686839580536,-51.21396255493164,-7.130631446838379,18.02191925048828,1.8199564218521118,-0.8548691272735596,0.11265717446804047,724,733,744,39.871,0,0
1739303015.0391083,-0.11769032307380882,1.0654468372112482,-0.37966446673359977,-1.4225595264902895,1.521173526785293,1.1553677219495546,1.356699911329066,0.0001279136923193324,-0.0005444770334575937,0.0003337371190401576,0.0002584678806296497,-0.000229534474878901,-0.0004100782655646097,-0.0005949576300820638,-0.2547723948955536,-51.19015884399414,-7.027482032775879,18.02191925048828,1.8007303476333618,-0.8686020374298096,0.08610688149929047,724,732,744,39.871,2,0
1739303015.0491173,-0.11768920954005523,1.0654459632466629,-0.3796615579248193,-1.4225574604407445,1.5211741685433542,1.1553676635903107,1.356702273157937,-0.0006368295674167262,-0.0009368705953318023,-9.413778244695878e-05,0.0008744116027560483,-0.00019183180157266867,-0.001361221753548236,0.000428057946200631,-0.2547723948955536,-51.19015884399414,-7.079056739807129,18.02191925048828,1.8071390390396118,-0.8686020374298096,0.06596527993679047,724,731,741,39.762,1,0
1739303015.0592096,-0.11768542891002118,1.0654485499217488,-0.37966347807680695,-1.4225620236517298,1.5211764141197521,1.1553695218935005,1.3567039136771808,0.00023950075833839546,-0.0006812652206660911,-0.0014587318769544628,-0.0009625413195381241,-0.0010315169417830026,0.0010817888315967992,0.0028695261511890837,-0.3063471019268036,-51.21396255493164,-7.079056739807129,18.04572296142578,1.7869974374771118,-0.8484604358673096,0.05314789339900017,724,731,743,39.871,0,0
1739303015.069215,-0.11768934982394662,1.065445769363572,-0.379666249552081,-1.422557460242887,1.5211698907663824,1.1553649172422182,1.356697632984677,-0.0009491789587317978,-0.0013091476991941046,-0.0007110862725415614,0.001038981688893766,0.0011922455693238825,1.5198783869482195e-05,-0.0003285433028527627,-0.2547723948955536,-51.21396255493164,-7.003678321838379,18.02191925048828,1.8071390390396118,-0.8420517444610596,0.10624848306179047,724,731,742,39.762,0,0
1739303015.0802476,-0.11768714139149686,1.0654496322625022,-0.37966061308082066,-1.4225620288772443,1.5211717517743617,1.1553684739562684,1.3567007713775998,-0.00033486153351416535,0.00019218281721190204,0.0007071748815629565,-0.0012570303754408504,0.00015158740452697047,-0.0005867323930889775,0.0003352693685323583,-0.2825433909893036,-51.23776626586914,-7.079056739807129,18.06952667236328,1.8007303476333618,-0.8484604358673096,0.07969819009304047,723,725,743,39.871,1,0
1739303015.0911222,-0.11768713846810194,1.0654486206087361,-0.3796626282895898,-1.4225619447833622,1.521173815336424,1.1553665672580806,1.3567000156555802,-0.0003444215735314429,0.0006200741910197508,0.0009339553680064452,-0.0014322669828227138,-0.0009229069751587099,-0.0004680165656783054,0.00031817979607050035,-0.2825433909893036,-51.21396255493164,-7.055253028869629,18.06952667236328,1.8071390390396118,-0.8548691272735596,0.08610688149929047,724,731,742,39.762,0,0
1739303015.1021197,-0.11769252933350162,1.0654469169222793,-0.37966060537836654,-1.422558413546904,1.5211738646489417,1.155367325549141,1.3567031022056901,-0.001353854112677351,-0.0005758519980049374,0.0006341138928781869,-0.00015945101978507846,-0.0002447488470947353,0.0026226359314242475,0.0002721446918086091,-0.2071649730205536,-51.19015884399414,-7.079056739807129,18.02191925048828,1.8007303476333618,-0.8612778186798096,0.05955658480525017,723,732,744,39.871,0,0
1739303015.1121235,-0.11768910396668429,1.0654496719814655,-0.3796613227767471,-1.422559931548764,1.5211732926669108,1.155368580001864,1.3566983920973943,-0.00034655088910663244,9.538780793236635e-05,-1.4310966252907022e-06,-0.0010234587248744277,-0.00029527444793687666,0.0005718159231958164,-0.00019392453199810838,-0.2547723948955536,-51.19015884399414,-7.079056739807129,18.04572296142578,1.8135477304458618,-0.8484604358673096,0.09983979165554047,724,733,744,39.871,2,0
1739303015.1221852,-0.11768542890585654,1.0654503417883785,-0.3796644706541312,-1.4225548905757137,1.5211749262251295,1.1553672190786126,1.3566944955607347,0.0004495976083877891,0.0009353265624264451,-0.0011070356684658995,0.0016111972818744992,0.0006977826949267786,0.0004919492300943438,-0.0017791277578701357,-0.3063471019268036,-51.23776626586914,-7.027482032775879,17.97431182861328,1.8007303476333618,-0.8548691272735596,0.13279877603054047,723,730,744,39.871,1,0
1739303015.1341631,-0.11768913936804032,1.0654503430135767,-0.37966478460883823,-1.4225559184503482,1.5211757921243643,1.1553663929283609,1.356704670019199,0.00037291732201791755,-0.0005556771142587137,-0.0004217870976823277,5.769024091377818e-05,0.0006259564816204488,0.0010506367047289137,0.00308725953198656,-0.2547723948955536,-51.23776626586914,-7.027482032775879,17.99811553955078,1.7934061288833618,-0.8548691272735596,0.04673920199275017,724,730,742,39.762,0,0
1739303015.1452315,-0.11768884995508283,1.0654502179635459,-0.3796634755336921,-1.4225616151803206,1.521174913310723,1.1553684672626847,1.3567007733156697,-0.0001066834241433507,0.001231000407501699,-0.0016983838874745703,-0.0016695591069678635,0.0006802416725578616,-0.00011249157279835044,0.00012256686458519394,-0.2547723948955536,-51.26553726196289,-7.079056739807129,18.04572296142578,1.8007303476333618,-0.8484604358673096,0.07969819009304047,723,731,743,39.871,0,0
1739303015.1561468,-0.11768632590891681,1.0654469164742857,-0.37966311495437083,-1.4225556787919094,1.5211751539739937,1.1553702976601612,1.3566976329846518,0.002000466237451945,-0.0005397214520510229,-0.00010035904831608877,-0.00019329122340082117,0.00044048977898211684,-0.0005688942036914181,-0.00010200694824447559,-0.2825433909893036,-51.19015884399414,-7.055253028869629,17.99811553955078,1.8263651132583618,-0.8548691272735596,0.10624848306179047,724,731,743,39.871,1,0
1739303015.167139,-0.1176891393634367,1.0654516246489047,-0.37966533167907474,-1.422556730104571,1.5211741681009308,1.1553655901882143,1.3566953695411634,-0.0005884427497775702,0.0014239500869480106,-0.0005681582748307048,0.0003055236923183613,0.0003037203555170179,-0.000985132383656856,-0.0030955193207069694,-0.2547723948955536,-51.26553726196289,-7.055253028869629,17.97431182861328,1.8071390390396118,-0.8420517444610596,0.12639008462429047,725,732,743,39.762,1,0
1739303015.1791086,-0.11768913925978108,1.0654457684160734,-0.37966239886325687,-1.4225601367778753,1.5211754009941787,1.1553672701019293,1.3567071034329945,-0.00014404833984779582,-0.0020439027735233545,-0.00039083920669340103,-0.0004770366212505608,0.00042864881063197366,0.0002599320107742419,0.003048203620302698,-0.2547723948955536,-51.21396255493164,-7.055253028869629,18.02191925048828,1.7934061288833618,-0.8612778186798096,0.06596527993679047,725,732,743,39.762,0,0
1739303015.1892638,-0.11768911273627257,1.065448629499587,-0.37966093391590056,-1.4225584581330464,1.5211749087779054,1.1553664106953248,1.3567039122732834,-0.0006662003576491649,0.0009402147205592853,0.00024380504946454361,-0.0006802770763829039,0.0003292836241254453,-0.001450600972542281,0.000961034723913712,-0.2547723948955536,-51.21396255493164,-7.079056739807129,17.99811553955078,1.8007303476333618,-0.8548691272735596,0.05314789339900017,724,733,743,39.762,0,0
1739303015.2001164,-0.11768714121051849,1.0654523397956288,-0.3796644933192077,-1.422557769233651,1.5211741685669553,1.1553682159285357,1.3567014132933595,0.00010655356102555425,0.0005693940428335646,-0.00014024552893779585,0.000938234258582618,-0.0006271657405536128,0.0013437428472447529,0.0002270066989977655,-0.2825433909893036,-51.26553726196289,-7.027482032775879,17.99811553955078,1.8071390390396118,-0.8612778186798096,0.07328949868679047,724,730,744,39.979,2,0
1739303015.210222,-0.11768469231078299,1.0654482851656462,-0.3796613224861681,-1.4225539046165752,1.5211709876607638,1.1553653211412738,1.356702396872316,0.001634317476407764,-0.0007059613079868242,3.8051200418702134e-05,0.0017231205325885588,-0.0012897286611913558,-0.0015891157962077654,0.0008016845191117075,-0.3063471019268036,-51.21396255493164,-7.079056739807129,17.97431182861328,1.8071390390396118,-0.8484604358673096,0.06596527993679047,724,732,743,39.762,1,0
1739303015.2212565,-0.11768429691225932,1.0654486201383953,-0.3796623957982326,-1.4225557883762612,1.5211734094354687,1.1553653008376183,1.3566969356658967,0.001224056604533865,-0.0005109327796576547,0.0008559172971581095,0.0001211028743031046,0.00019866418272305965,-0.0011492747636196103,-0.0006470528918363291,-0.2825433909893036,-51.21396255493164,-7.055253028869629,17.99811553955078,1.8135477304458618,-0.8484604358673096,0.11998139321804047,722,733,742,39.762,0,0
1739303015.2321317,-0.11768700751159933,1.0654486294430077,-0.3796644667174273,-1.4225581501159679,1.5211726532468888,1.155366920759443,1.3567031590083865,-0.00018578571020246324,0.0008110943190431099,-0.00028199819631092915,4.827257758799889e-05,-0.00039929663554829633,8.489385156037034e-06,0.0012180138189109803,-0.2547723948955536,-51.21396255493164,-7.027482032775879,18.02191925048828,1.8199564218521118,-0.8612778186798096,0.05955658480525017,726,733,742,39.871,0,0
1739303015.2421658,-0.11768542876209369,1.0654468402838924,-0.37966625037554264,-1.4225593202537468,1.5211754901463135,1.1553672071108267,1.356701650485604,0.000289930732309604,0.00010799974671894753,-0.0005168598896006884,-0.0004473725756040033,0.0013085512215025602,-0.00036815432997934315,0.0008561197774393372,-0.3063471019268036,-51.19015884399414,-7.003678321838379,18.04572296142578,1.7869974374771118,-0.8612778186798096,0.09983979165554047,723,730,742,39.762,2,0
1739303015.253219,-0.11768682574332706,1.0654503918928098,-0.37966060534067086,-1.4225575624454143,1.5211712003531557,1.1553720208507487,1.356699149997477,0.0005856610687947919,0.0011962154435006477,0.0004674962008606239,-7.461542400689496e-05,-0.00208862008323635,4.782584321804854e-05,0.00029419506243946687,-0.2825433909893036,-51.23776626586914,-7.079056739807129,18.02191925048828,1.7934061288833618,-0.8686020374298096,0.09343110024929047,724,731,742,39.871,1,0
1739303015.2641263,-0.11768913904148064,1.06545031547312,-0.3796624791552909,-1.4225569596934022,1.521174880656637,1.155367668943598,1.3566959919847394,-0.0005189311558734338,0.00039080374500993293,0.0005775273694297452,0.0001283755981580111,0.00041447893886658736,-0.001262121375959257,-0.0006673646938719887,-0.2547723948955536,-51.23776626586914,-7.055253028869629,17.97431182861328,1.8007303476333618,-0.8686020374298096,0.11998139321804047,724,733,742,39.979,0,0
1739303015.2751787,-0.1176840547405568,1.0654502709937521,-0.37966463909617343,-1.4225540094253437,1.5211735132140156,1.155370030636161,1.3567023968726601,0.0010920384034685988,0.0009737232346167426,-0.00032280387356846646,0.002096062295662592,-0.0008837758029451214,0.0009199373134524062,0.001504680141361308,-0.2825433909893036,-51.23776626586914,-7.055253028869629,17.97431182861328,1.8007303476333618,-0.8484604358673096,0.06596527993679047,725,733,744,39.871,1,0
1739303015.2861092,-0.11768914033656507,1.0654486274321822,-0.3796631031686432,-1.4225579770875192,1.5211749218458774,1.1553671012941245,1.35670062080191,-0.000614974848689348,9.97109956454816e-05,2.7289960605722356e-05,0.0006787740550893971,0.00048744353389930633,-0.0008658034101715924,0.0001077721120065182,-0.2547723948955536,-51.21396255493164,-7.055253028869629,17.99811553955078,1.8007303476333618,-0.8548691272735596,0.07969819009304047,725,731,745,39.762,1,0
1739303015.2971556,-0.11768724512054397,1.0654510307285643,-0.37966310331380354,-1.4225559624438247,1.5211745730143975,1.1553661616517013,1.356699032019928,-8.900083257870508e-05,0.0010599361080120828,-0.0009579766632526695,0.0006282315282490745,-0.0005833695804708365,-0.0013128351901827732,-0.00014153189428936638,-0.2547723948955536,-51.23776626586914,-7.055253028869629,17.97431182861328,1.8007303476333618,-0.8548691272735596,0.09343110024929047,724,732,743,39.871,0,0
1739303015.3072095,-0.11768842601601959,1.0654541626524876,-0.3796666124967212,-1.4225567092837548,1.5211747319957367,1.155365282373993,1.3567007689530248,-0.00020118259627787636,0.00225665682853973,-0.0012791954525853571,-0.0004145189621919651,0.00015954514106198415,-0.001826109099833969,-0.00020086482825224452,-0.2547723948955536,-51.28934097290039,-7.027482032775879,17.99811553955078,1.7934061288833618,-0.8484604358673096,0.07969819009304047,724,734,744,39.871,0,0
1739303015.318166,-0.11768703619520723,1.0654485499708226,-0.3796606307899076,-1.4225577023873142,1.5211748084835777,1.1553668369379413,1.3566983920982558,-2.2618163656380757e-05,6.84105428081118e-06,8.684829640238619e-05,0.0010223385017536803,0.0005311508736245885,-2.3413614804833658e-05,-0.002022438517321602,-0.2825433909893036,-51.21396255493164,-7.079056739807129,18.02191925048828,1.8007303476333618,-0.8612778186798096,0.09983979165554047,725,731,744,39.871,3,0
1739303015.3291817,-0.11769077293112623,1.065446828618703,-0.37966241745222656,-1.4225596033708616,1.5211765497837781,1.1553683408781508,1.356703154533499,-0.0012961442738158115,-0.0011694853703409086,0.00013195362971191957,0.00040384024393645083,0.0012134369223715854,0.0008061334384167828,-6.685438084874195e-05,-0.2309686839580536,-51.19015884399414,-7.055253028869629,18.02191925048828,1.7869974374771118,-0.8612778186798096,0.05955658480525017,724,731,742,39.871,2,0
1739303015.340097,-0.11768807828298088,1.0654449189809776,-0.3796623870367102,-1.4225577734641908,1.5211748869812753,1.1553665124983827,1.3567055357508881,0.0008991610878267956,-0.001126584181810104,-0.0006834456009620661,-1.6430145717031896e-05,0.00035408746413882866,0.00016101993482827706,0.00219406004706105,-0.2547723948955536,-51.16238784790039,-7.055253028869629,17.99811553955078,1.8007303476333618,-0.8548691272735596,0.03941498324275017,724,730,742,39.871,0,0
1739303015.350182,-0.11768714140921768,1.0654483027213035,-0.3796644667173791,-1.4225574614910328,1.521169917648519,1.1553653361612939,1.356701099846607,-0.0006413249781818197,-0.0006478595028947029,-7.788317384954245e-05,0.0007617187583131062,-0.0010850062919398325,-0.000776915150406444,0.0008740860146262811,-0.2825433909893036,-51.21396255493164,-7.027482032775879,18.02191925048828,1.8199564218521118,-0.8484604358673096,0.08610688149929047,722,729,743,39.762,1,0
1739303015.361256,-0.11769085044531526,1.0654481901988404,-0.3796608515357382,-1.4225575625849565,1.5211741730212782,1.1553674698412353,1.3567057568327252,-0.0007067861225417571,0.000822160871255961,-0.00012613409054143142,0.0011705184692185505,-0.00038579052088035296,0.0007125650040740443,0.0019832752475620226,-0.2309686839580536,-51.23776626586914,-7.079056739807129,18.02191925048828,1.8071390390396118,-0.8548691272735596,0.04673920199275017,723,732,743,39.871,1,0
1739303015.372114,-0.1176853923870074,1.065448424880055,-0.37966548669749467,-1.42255963801302,1.5211741162392702,1.1553652818954825,1.3567023968791163,0.001405136486915125,0.00022071761309639716,-0.0016311503381293716,-0.00041023974820722563,-0.00043542364316378454,-0.0002290779673237358,0.0014251092742421038,-0.3063471019268036,-51.21396255493164,-7.055253028869629,18.02191925048828,1.8071390390396118,-0.8484604358673096,0.06596527993679047,724,731,743,39.979,1,0
1739303015.382136,-0.11768519214294308,1.0654469136483768,-0.3796606871553615,-1.4225580537469213,1.521171553570961,1.1553668509889243,1.3566995118013865,0.00102772821279713,-0.00035977220538342767,0.0018453446971794546,0.0007573308449768932,-0.00043155595466973934,-0.0004229000042430907,-2.5704946710214762e-05,-0.3063471019268036,-51.19015884399414,-7.079056739807129,17.99811553955078,1.7934061288833618,-0.8612778186798096,0.09343110024929047,730,731,743,39.871,0,0
1739303015.3921664,-0.11769085155998427,1.065451624648852,-0.3796645330231863,-1.4225584579529247,1.521174925993846,1.1553676631057084,1.3566983921044116,-0.001141268114501872,0.0009527984533222926,0.0006570508831555486,-0.0005361128723912826,0.0005494312721362444,0.0006283032485050045,0.00019017602695735325,-0.2309686839580536,-51.26553726196289,-7.055253028869629,18.02191925048828,1.8007303476333618,-0.8686020374298096,0.09983979165554047,724,731,741,39.871,0,0
1739303015.4031239,-0.11768842875457354,1.0654524053025913,-0.37966239001632146,-1.422560292956013,1.5211741147856908,1.1553660923598126,1.3567046698536558,-0.0005666671412772313,0.0001961218529351318,0.00035285903146511883,-5.816817763900764e-05,-0.0013184874754916438,9.677849400945928e-05,0.0012914525813280781,-0.2547723948955536,-51.23776626586914,-7.055253028869629,18.02191925048828,1.8071390390396118,-0.8548691272735596,0.04673920199275017,725,730,743,39.979,1,0
1739303015.4140985,-0.1176819161736956,1.0654487063029634,-0.37966100658655794,-1.4225595389995964,1.521175779042311,1.1553674523984254,1.3567006882191317,0.0013180316256170713,-0.0006495726584257258,0.000532373561749618,0.0002300434045225676,0.000763677235452839,0.0006813959210222058,0.0009670094155415749,-0.3539545238018036,-51.21396255493164,-7.102860450744629,18.02191925048828,1.7934061288833618,-0.8548691272735596,0.05314789339900017,724,731,742,39.871,1,0
1739303015.4242175,-0.11768714142570219,1.0654486332235926,-0.3796645632562921,-1.4225605557358287,1.5211749262269105,1.1553653218032143,1.3566930826552972,-0.0002342370733089849,-0.0007069958327562997,0.000445430030784471,-0.0018689033873105641,0.00017621447134903609,5.120002195511396e-05,-0.0033983216042928993,-0.2825433909893036,-51.21396255493164,-7.055253028869629,18.02191925048828,1.8007303476333618,-0.8484604358673096,0.13279877603054047,725,731,737,39.762,0,0
1739303015.4352536,-0.11768872091446157,1.0654486218725072,-0.3796627529734392,-1.4225559864883532,1.5211694743325093,1.1553692228227508,1.3567043950751814,-0.0002879080801658101,0.0008996447396090576,-8.839951481261763e-05,4.2900682556190075e-05,-0.0003704707435817008,0.0011877089438320002,0.002044965276286127,-0.2309686839580536,-51.21396255493164,-7.079056739807129,17.99811553955078,1.8199564218521118,-0.8548691272735596,0.05314789339900017,724,727,741,39.871,1,0
1739303015.446098,-0.11768714094603458,1.0654485235141973,-0.37966239086423686,-1.4225583826447492,1.5211749261553518,1.1553663927781663,1.3566944555265399,0.0006171184651005356,-0.00038648205960188295,0.00041345277980787563,-0.000514262628782253,-0.0006960702233116294,0.00018675093327370507,-0.0027320631611725257,-0.2825433909893036,-51.21396255493164,-7.055253028869629,18.02191925048828,1.8007303476333618,-0.8548691272735596,0.10624848306179047,723,729,744,39.979,1,0
1739303015.4561465,-0.11768542890644791,1.0654499557170596,-0.37966273130998035,-1.4225604574562491,1.5211747303866612,1.1553671510722792,1.3567004069671722,0.0007679656232725244,0.0010758268373784973,0.00035685058587583995,-0.0010882748870790137,-0.0012484068419621112,0.0009988509093109953,-0.0002564210586750766,-0.3063471019268036,-51.26553726196289,-7.055253028869629,18.02191925048828,1.7934061288833618,-0.8612778186798096,0.07969819009304047,723,732,745,39.762,0,0
1739303015.4661684,-0.117687004604658,1.0654506947158895,-0.37966249333323177,-1.4225561939244875,1.5211757746637808,1.1553693754512941,1.3566949512365578,-0.00018292274775877804,0.001103925908924428,-0.0002486370781443684,0.0010831294362739527,0.0016699440320514778,-0.0003516659747012659,-0.0015683222245735811,-0.2547723948955536,-51.21396255493164,-7.055253028869629,17.97431182861328,1.7934061288833618,-0.8548691272735596,0.11998139321804047,724,732,745,39.871,0,0
1739303015.4771237,-0.11768471860572169,1.065446917073959,-0.3796588245175235,-1.4225602524653354,1.5211736965235254,1.1553660410198683,1.3567007733096876,0.0014431644835021414,0.0007762888627642173,0.0009094540935214073,0.0002661206738546677,-0.0008259680954898999,-0.0009021247273276181,-0.0002209417552733353,-0.3063471019268036,-51.19015884399414,-7.102860450744629,18.02191925048828,1.8007303476333618,-0.8548691272735596,0.07969819009304047,726,732,744,39.871,1,0
1739303015.4871347,-0.11768531587181075,1.0654524082581462,-0.3796605262494124,-1.4225566499481797,1.5211747281047592,1.1553660395475118,1.3567002320234203,0.0004475788788581473,0.0011812289692631874,0.0008936770391623694,0.0015061492518921812,-0.0004196308438820371,-0.0005426326130200655,0.0007293749186735071,-0.3063471019268036,-51.23776626586914,-7.079056739807129,17.97431182861328,1.7934061288833618,-0.8548691272735596,0.09343110024929047,724,732,745,39.871,1,0
1739303015.497157,-0.11768643016225652,1.0654493874483,-0.3796633772299833,-1.422556959214591,1.5211715491931772,1.1553660938133627,1.3567018945269926,-0.0002519603043346301,1.425570337699073e-05,-0.0003753438299816217,0.00037583331397871976,-0.0013684190936413708,-0.0003091650263185145,0.0010269900427225798,-0.2825433909893036,-51.23776626586914,-7.055253028869629,17.97431182861328,1.7934061288833618,-0.8548691272735596,0.07328949868679047,724,732,746,39.871,0,0
1739303015.5081244,-0.11768682573128256,1.0654486290998466,-0.37965882159025444,-1.4225577810274574,1.5211757395631955,1.1553651646352743,1.356700015661748,0.000751081430312728,-0.0006920846623451021,0.0020466647764802543,-0.00019902464688528962,0.00024755585185661633,-0.0009463215519613418,0.0005571670618782401,-0.2825433909893036,-51.21396255493164,-7.102860450744629,17.99811553955078,1.7934061288833618,-0.8484604358673096,0.08610688149929047,724,733,744,39.871,0,0
