IITGN-Robotics/Franka_IITGN_ROBOTICS/franka_ros/franka_iitgn/data01/os_005.csv
time,fr3_joint1_pos,fr3_joint2_pos,fr3_joint3_pos,fr3_joint4_pos,fr3_joint5_pos,fr3_joint6_pos,fr3_joint7_pos,fr3_joint1_vel,fr3_joint2_vel,fr3_joint3_vel,fr3_joint4_vel,fr3_joint5_vel,fr3_joint6_vel,fr3_joint7_vel,fr3_joint1_eff,fr3_joint2_eff,fr3_joint3_eff,fr3_joint4_eff,fr3_joint5_eff,fr3_joint6_eff,fr3_joint7_eff,flexpin1,flexpin2,flexpin3,Force,ContactMic,ContactMic_gt
1739303441.8658679,-0.10182277212123195,1.0575886259734033,-0.39725706119553295,-1.432527181545438,1.5213539332764159,1.16342657924846,1.362083456578569,-0.0010883040541763145,0.001464199613943348,0.0009546956453769922,0.00038810898774724307,-0.0006598727095695393,-0.002033485769050541,0.003449357261706518,-0.1555902659893036,-51.05923843383789,-7.511490821838379,17.84735870361328,1.7869974374771118,-0.8612778186798096,0.05314789339900017,,,,,,,,,
1739303441.8773808,-0.10182276853065689,1.0575953861310914,-0.39726257473598336,-1.4325402909665208,1.5213539332072947,1.1634246358031548,1.3620766134355338,0.00042452852274262444,0.0010768688504911895,-0.001042394953846799,-0.002376601726645348,-1.0759555766209092e-05,-0.00035039354303373284,-0.0006062172859843684,-0.1555902659893036,-51.03543472290039,-7.459916114807129,17.89893341064453,1.7869974374771118,-0.8612778186798096,0.11998139321804047,,,,,,,,,
1739303441.8883708,-0.101821055793387,1.0575890149370617,-0.3972583521933498,-1.4325357988860628,1.5213542864200043,1.1634222528805003,1.3620750001742248,0.00024344052808937257,-0.0002232488707105062,0.0016930685958239735,-0.00043784939366505214,0.00037316550937248496,-0.000649192064820328,0.0001984984744082088,-0.1793939769268036,-50.93228530883789,-7.483719825744629,17.82355499267578,1.7869974374771118,-0.8750107288360596,0.07969819009304047,,,,,,,,,
1739303441.8993788,-0.10181589949830969,1.0575876478949147,-0.3972614928148625,-1.4325319167736006,1.5213583452548616,1.1634226004716883,1.3620772251942492,0.0016505378460876271,-0.0006889099361366317,0.00012081942629204315,0.0005613338110614368,0.0005018500425155952,-0.00020626320737616164,0.00032263101994229704,-0.2071649730205536,-50.90848159790039,-7.483719825744629,17.77594757080078,1.7805887460708618,-0.8814194202423096,0.06596527993679047,,,,,,,,,
1739303441.9094355,-0.10181905758381737,1.0575858490498002,-0.3972594215630248,-1.432533990471571,1.5213539522891097,1.16342260039914,1.3620754187275712,0.000267355410701983,-0.001805237977889417,0.0007567889609088778,-0.00047698044497584844,0.0008217118228833385,-7.220655879184023e-05,-0.0008772059286777237,-0.2071649730205536,-50.85690689086914,-7.511490821838379,17.79975128173828,1.7869974374771118,-0.8814194202423096,0.09983979165554047,,,,,,,,,
1739303441.9194646,-0.10181856980103496,1.0575942589649912,-0.3972650657353052,-1.4325399892802368,1.5213512475893782,1.163424115719293,1.3620798067710473,0.00032211682003377467,0.0015613008190802228,-0.0007387778815428035,-0.0009469950032077797,-0.001951573303170243,-3.6783817915771004e-05,0.0015646950454724494,-0.1793939769268036,-50.96005630493164,-7.436112403869629,17.87512969970703,1.8007303476333618,-0.8942368030548096,0.06596527993679047,,,,,,,,,
1739303441.9294696,-0.10181786069719134,1.0575888810327831,-0.39726150167732927,-1.4325379284648982,1.5213543648937315,1.1634226003991364,1.362077381146556,0.0003673803985341492,-0.00028246565878479345,0.0008522527109383927,-0.00042373889973892204,-7.551310362905963e-06,-0.0008741060743321122,-0.0003023420554957644,-0.1793939769268036,-50.88071060180664,-7.483719825744629,17.84735870361328,1.7869974374771118,-0.8814194202423096,0.05955658480525017,,,,,,,,,
1739303441.940406,-0.10181788699217088,1.0575922980281696,-0.3972643079353688,-1.4325322641779676,1.5213510562782682,1.1634210850789797,1.3620744959773987,0.00012449175711040872,0.0014902604412510255,-0.001133502214836858,0.0016432147039567794,-0.0001493546703535156,-0.0008866630386140542,-0.00046710247745405,-0.1793939769268036,-50.93228530883789,-7.459916114807129,17.77594757080078,1.7934061288833618,-0.8686020374298096,0.07969819009304047,,,,,,,,,
1739303441.9524384,-0.10181586144524875,1.0575933051132664,-0.39726328338423456,-1.4325358804368025,1.5213542864160166,1.1634218427390581,1.3620721086680032,0.0004426264467011491,0.0007502407572081476,-0.0004051743251022395,-2.2766276041695055e-05,0.0009647773147426443,-0.00017909643009226975,-0.0012206894409486435,-0.2071649730205536,-50.90848159790039,-7.459916114807129,17.82355499267578,1.7869974374771118,-0.8750107288360596,0.09983979165554047,,,,,,,,,
1739303441.9643636,-0.10181499331458356,1.0575951900832619,-0.39726328431836616,-1.4325358004189572,1.5213546019651887,1.163419461521669,1.3620743719324702,0.0011649946870543318,0.0008246200973849838,0.00034329565045232565,0.0011086786971649335,0.0002543828541135925,-8.90189880264474e-06,0.0005795539516642862,-0.2071649730205536,-50.96005630493164,-7.459916114807129,17.82355499267578,1.7934061288833618,-0.8548691272735596,0.07969819009304047,,,,,,,,,
1739303441.975409,-0.10182027926756533,1.0575973572504807,-0.3972625495837113,-1.4325382980608548,1.521350754354794,1.1634187038615906,1.3620752061455297,-0.00037059117965424745,0.0014346524040228963,0.0006015312277299952,0.000742430922640194,-0.00031761356452423,-6.354543456051058e-05,0.0005299624163773527,-0.1555902659893036,-50.96005630493164,-7.459916114807129,17.84735870361328,1.7869974374771118,-0.8484604358673096,0.07328949868679047,,,,,,,,,
1739303441.9854326,-0.10181886163007671,1.0575940573429237,-0.3972593757659108,-1.4325407704165811,1.5213546908135385,1.1634168715433637,1.362065488520541,-0.0009188214054441931,-0.0009188377491071804,0.0012261632717525362,-0.0013289379491079256,-0.0008713461721736824,-0.0009347306704624939,-0.003877266457523936,-0.1555902659893036,-50.90848159790039,-7.483719825744629,17.84735870361328,1.7805887460708618,-0.8420517444610596,0.11998139321804047,,,,,,,,,
1739303441.9954379,-0.1018192562108931,1.0575965178510929,-0.39726325677661883,-1.4325347633580319,1.5213551487356993,1.1634200254226508,1.362076584105847,-0.0004642592724983956,-0.00034466997599798775,-0.00046302350763662475,0.001153905194952104,0.00046205420958457077,0.0011186143186356378,0.0013188114973988572,-0.1555902659893036,-50.90848159790039,-7.459916114807129,17.79975128173828,1.7805887460708618,-0.8686020374298096,0.06596527993679047,,,,,,,,,
1739303442.0054665,-0.10181957190143473,1.0575964333852863,-0.3972611867288846,-1.432536128025327,1.5213539332150485,1.1634186181006447,1.3620712715177692,-0.000910021607381139,0.000926472602507527,0.00019250117052967884,0.0006584018484691143,0.0002575795890556673,0.0005555114670529771,-0.00045945979692552433,-0.1555902659893036,-50.93228530883789,-7.483719825744629,17.82355499267578,1.7869974374771118,-0.8750107288360596,0.07969819009304047,,,,,,,,,
1739303442.016464,-0.10181609817200489,1.0575941446713313,-0.39726068762788036,-1.4325419175983354,1.521353175547216,1.1634205610828303,1.3620734169317914,0.0001402521187856715,9.624826697220238e-05,0.001238707710488662,-0.001575575212406984,-0.00011710727141083168,-0.001519995306138062,-0.00018879228963458229,-0.2071649730205536,-50.88071060180664,-7.483719825744629,17.87512969970703,1.7934061288833618,-0.8686020374298096,0.07969819009304047,,,,,,,,,
1739303442.0274255,-0.1018138303189439,1.0575968677237504,-0.39726150167275587,-1.4325390176469732,1.5213546385395638,1.1634214357420312,1.362070993213156,0.0020366268212778016,0.0005214233374601692,0.0004124539534103958,-0.00028162511697624415,-0.0009049121873267654,0.00042732628486578684,-0.0008894254468007391,-0.2309686839580536,-50.90848159790039,-7.483719825744629,17.82355499267578,1.7805887460708618,-0.8750107288360596,0.10624848306179047,,,,,,,,,
1739303442.0383792,-0.10181578252243344,1.0576005770992654,-0.3972632846783908,-1.4325341365150057,1.5213532147927773,1.1634159630228238,1.3620693740205332,0.00017772659913707132,0.0011119008338574432,-0.0007520734458460245,0.0006256187894984552,-0.0007341452614343885,-0.0009971345832224087,-0.001483787352456124,-0.2071649730205536,-50.96005630493164,-7.459916114807129,17.79975128173828,1.7934061288833618,-0.8612778186798096,0.11998139321804047,,,,,,,,,
1739303442.0483937,-0.10181294136816112,1.0575947883518309,-0.397260448850318,-1.4325354257549316,1.5213489369953634,1.1634189321957955,1.3620737313579572,0.0005164766121768462,-0.0006776243745414788,0.0012454263083198974,0.00038340128067578953,-0.0016533176021556388,-0.0003386616355736234,0.0004827768572224292,-0.2071649730205536,-50.88071060180664,-7.459916114807129,17.77594757080078,1.7934061288833618,-0.8548691272735596,0.08610688149929047,,,,,,,,,
1739303442.0584114,-0.10181735816986358,1.057593152033019,-0.39726506301912906,-1.4325397416722931,1.5213531755232892,1.1634153677992825,1.3620744496335557,-0.00020105166990806662,-0.0017400521712749913,-0.0005268372574685836,-0.0003960876612748409,-0.00045212673637754576,-0.001966052599562355,0.002968025734816765,-0.1555902659893036,-50.85690689086914,-7.436112403869629,17.84735870361328,1.7934061288833618,-0.8484604358673096,0.05314789339900017,,,,,,,,,
1739303442.0694654,-0.10181474592191,1.0575948684787178,-0.3972632846783229,-1.4325390185065972,1.521354691351889,1.1634186297488096,1.362076865019833,0.0018869279101403013,-8.038384577219263e-05,-0.00044710568424641045,-0.0008213477485935558,0.0004934148220410775,-0.0006248048303016156,0.0043637741864774315,-0.1793939769268036,-50.88071060180664,-7.459916114807129,17.82355499267578,1.7805887460708618,-0.8612778186798096,0.05955658480525017,,,,,,,,,
1739303442.080424,-0.10181890368131513,1.0576008254383187,-0.3972605567973509,-1.4325408012742389,1.5213537882126709,1.1634174690945833,1.3620704209136962,-0.0005077700508465417,-0.0004398515540102883,-7.433218391278645e-05,-0.0007453436346463113,0.0005565162068069606,-0.0005700489655170146,-0.0019715184126409624,-0.1317865550518036,-50.96005630493164,-7.483719825744629,17.84735870361328,1.7805887460708618,-0.8484604358673096,0.11265717446804047,,,,,,,,,
1739303442.091361,-0.10182022236433388,1.0575985881019447,-0.3972611574673099,-1.4325324833493185,1.5213578697664742,1.1634139355498505,1.362069727232345,-0.0005754157697609046,-0.0007651070172377637,3.3982275930628445e-05,0.001758917852595141,0.0010776019378534387,-0.0009908432462336731,-0.0013634553055256108,-0.1317865550518036,-50.93228530883789,-7.459916114807129,17.77594757080078,1.7805887460708618,-0.8484604358673096,0.11998139321804047,,,,,,,,,
1739303442.10238,-0.10181274407913339,1.0575960205785948,-0.39726503494134596,-1.4325390186167932,1.5213543420332585,1.1634161060009265,1.3620744894546988,0.0014274472907760461,-0.0012134491924234486,0.00019049917637907097,8.880990748172255e-05,-0.0007814846797761386,0.0006828598467935951,0.001318649295555076,-0.2071649730205536,-50.85690689086914,-7.436112403869629,17.82355499267578,1.7805887460708618,-0.8548691272735596,0.07969819009304047,,,,,,,,,
1739303442.112395,-0.10181466319567858,1.057597756481265,-0.39726150200119065,-1.432539019578366,1.5213545731278335,1.1634170743754515,1.362069839116779,0.0004219596720115473,0.0001873649354984984,0.0007542771048808614,-0.00023225996174240854,-0.0005011936439921941,0.00021274310297872526,-0.0019762227110658257,-0.1793939769268036,-50.88071060180664,-7.483719825744629,17.82355499267578,1.7805887460708618,-0.8750107288360596,0.07969819009304047,,,,,,,,,
1739303442.1234338,-0.10181434751137548,1.0575988190431005,-0.3972650670313948,-1.4325372359565558,1.5213538941209495,1.163414693150087,1.3620673596252393,-0.0002719680954427198,0.001991827421605868,-0.0002712720394602305,0.00013903953853169722,-0.0015906764631958106,-0.0003867177567620741,-0.0011266010036616043,-0.1793939769268036,-50.93228530883789,-7.436112403869629,17.79975128173828,1.7869974374771118,-0.8548691272735596,0.09983979165554047,,,,,,,,,
1739303442.1353927,-0.10181395283378282,1.0576007339501945,-0.39725658731949737,-1.4325372359444268,1.521353933207221,1.1634154508101653,1.3620690474433497,-2.8365800823850244e-05,0.0010359590452102712,0.002286727784011608,0.0007945419329305159,0.0011529505778123314,-0.000375126610314279,-0.0014181054790617744,-0.1793939769268036,-50.93228530883789,-7.511490821838379,17.79975128173828,1.7869974374771118,-0.8612778186798096,0.11265717446804047,,,,,,,,,
1739303442.1464505,-0.10181679394901512,1.0576007280265762,-0.39726352051336644,-1.4325372359565398,1.5213543362011126,1.1634154508101653,1.3620698964425366,-0.0011028982630366022,0.0005037503735900978,-0.0008770221552265336,-0.0003363063808921139,-4.349872774850853e-05,-0.00021398060244213525,-0.0009320390984882167,-0.1793939769268036,-50.93228530883789,-7.459916114807129,17.79975128173828,1.7805887460708618,-0.8612778186798096,0.07969819009304047,,,,,,,,,
1739303442.157434,-0.10181636359494216,1.0575980480513187,-0.3972632843548146,-1.4325390187385374,1.5213546923920358,1.163417074367476,1.3620772753265946,-0.001294210511461059,-1.6925063439610788e-05,-0.0014736175905159616,-0.00020345640977981276,-0.0004259979381727337,0.000568002304119422,0.002632671936349337,-0.1555902659893036,-50.88071060180664,-7.459916114807129,17.82355499267578,1.7805887460708618,-0.8750107288360596,0.05314789339900017,,,,,,,,,
1739303442.1674356,-0.10181242838302276,1.057597847729215,-0.3972633096279752,-1.4325390186335605,1.5213551506199403,1.1634139354900086,1.3620748546252652,0.000720186812293124,0.0004484722301502504,-0.0002426231166502091,-0.000427206526485362,0.0012184765365018165,1.5019340120507943e-05,0.0010349481463799827,-0.2071649730205536,-50.88071060180664,-7.459916114807129,17.82355499267578,1.8135477304458618,-0.8484604358673096,0.03941498324275017,,,,,,,,,
1739303442.1783736,-0.10181371603405916,1.057603795821402,-0.3972632931030685,-1.4325408013105778,1.521353214817664,1.163414693150087,1.3620666288125574,0.000728582013866221,0.0003506077794109675,-0.00027848112256789693,-0.0003335182480610179,-0.0005339675210792717,0.0002790692410560198,-0.002649167445410586,-0.1793939769268036,-50.96005630493164,-7.459916114807129,17.84735870361328,1.7934061288833618,-0.8548691272735596,0.13279877603054047,,,,,,,,,
1739303442.188392,-0.10181806180540946,1.0576033626126127,-0.3972632843545184,-1.4325417195546069,1.521353175547881,1.1634139354900086,1.3620642598840706,-0.0008714414348736919,0.0017668409495798603,-0.0007722356875904924,-0.0015302121685067706,-0.0010384767423549845,0.00020069505660072967,-0.002462688743180329,-0.1317865550518036,-50.98386001586914,-7.459916114807129,17.84735870361328,1.7934061288833618,-0.8484604358673096,0.12639008462429047,,,,,,,,,
1739303442.1984541,-0.10181479990905727,1.0575979353423246,-0.3972633543428146,-1.4325390951785295,1.5213546908673727,1.1634139295304526,1.3620687926632746,-0.00011363302637806914,-0.0005902227727896393,7.79051767696811e-05,-0.0007734251022192213,0.0007467681785949052,-0.0010468974768949209,-0.00017980717476163868,-0.2071649730205536,-50.90848159790039,-7.459916114807129,17.82355499267578,1.7805887460708618,-0.8484604358673096,0.09983979165554047,,,,,,,,,
1739303442.210409,-0.1018146601760259,1.057599652138892,-0.397261501641744,-1.432537235956972,1.5213550197136647,1.1634154508101315,1.3620729525488542,6.6773901033350735e-06,0.00022454580851341349,0.0015854204331210268,0.0003348983074370009,-0.00042265314230384736,-0.00027737168285588273,0.0010097945164304883,-0.1793939769268036,-50.93228530883789,-7.483719825744629,17.79975128173828,1.8007303476333618,-0.8612778186798096,0.07969819009304047,,,,,,,,,
1739303442.2214289,-0.10181266514611524,1.0575956624621219,-0.3972632833823085,-1.4325379237401774,1.521353579999684,1.163414868314563,1.3620665840959614,0.0010671134170994975,-0.0011734056872704534,-0.0006421605420819871,-5.665209674281539e-06,0.0007322401870711774,-0.0006765322038087601,-0.0020857774302130948,-0.2071649730205536,-50.85690689086914,-7.459916114807129,17.79975128173828,1.7869974374771118,-0.8686020374298096,0.10624848306179047,,,,,,,,,
1739303442.231459,-0.10181261114188792,1.0575998469668648,-0.3972632833822921,-1.432539015701767,1.5213526628567118,1.1634153301046273,1.3620645031816805,0.00013240549527006884,0.00017635042468254567,-0.000498088992442427,0.0001849370667846414,-0.00023161693462812644,0.0001839918636864107,-0.0013563383707549195,-0.1793939769268036,-50.90848159790039,-7.459916114807129,17.82355499267578,1.8007303476333618,-0.8612778186798096,0.13279877603054047,,,,,,,,,
1739303442.2423642,-0.10181634914478781,1.0575972104355598,-0.39726504078571717,-1.4325343758783815,1.5213531740956596,1.1634150872765674,1.3620756233061464,0.00021686603898603193,-0.0015043373210668134,-0.000975332320186015,0.0010586216959778774,-0.0015108261344947567,0.00015759423988377888,0.0014299269642330998,-0.1555902659893036,-50.82913589477539,-7.436112403869629,17.79975128173828,1.7934061288833618,-0.8612778186798096,0.06596527993679047,,,,,,,,,
1739303442.2533982,-0.10181542855597751,1.0575996524940727,-0.3972632843542221,-1.432538064943097,1.5213539333687918,1.1634154506425698,1.3620704170348077,5.035765932731427e-05,8.355188089127156e-06,0.00017689610406752322,0.00032519091269230134,-0.0009775320649488468,0.000483871932083865,-0.00043991533786399886,-0.1555902659893036,-50.93228530883789,-7.459916114807129,17.82355499267578,1.7869974374771118,-0.8612778186798096,0.11265717446804047,,,,,,,,,
1739303442.2634227,-0.10181679361220848,1.0576027250652713,-0.39726325810870367,-1.4325390186174078,1.52135372233932,1.1634139354900057,1.3620680405711632,-0.0002240306191424644,0.0016774994941186649,-0.00013749509642474884,-0.00010177692746527259,0.0010116652817485114,9.523851761851905e-05,0.0004668678648694132,-0.1793939769268036,-50.93228530883789,-7.459916114807129,17.82355499267578,1.8007303476333618,-0.8484604358673096,0.10624848306179047,,,,,,,,,
1739303442.2743852,-0.10181634931274358,1.0575980874618902,-0.3972632843542221,-1.4325375449086444,1.5213531905752098,1.1634139309651605,1.3620680977493782,0.00032198970710721177,-0.0007697141208983838,0.00014332414473633035,6.033967431629656e-05,-4.463208521817867e-05,0.0006416455351372558,0.0016088921438909358,-0.1555902659893036,-50.88071060180664,-7.459916114807129,17.79975128173828,1.7934061288833618,-0.8484604358673096,0.09343110024929047,,,,,,,,,
1739303442.284459,-0.10181808801973165,1.0575942278605184,-0.39726328435437025,-1.4325372359617718,1.521354677785675,1.1634146909979486,1.3620673380945498,-0.0008226580411567417,-0.0025125439469253557,-3.459860908112844e-05,1.5940143874911022e-05,0.0004117864781315565,0.0009384456421511687,-0.0005803134297962386,-0.1317865550518036,-50.85690689086914,-7.459916114807129,17.79975128173828,1.7805887460708618,-0.8548691272735596,0.09983979165554047,,,,,,,,,
1739303442.2954006,-0.10181466305088678,1.0576009066049397,-0.3972615012453238,-1.432537465544801,1.5213515003245088,1.1634139310203293,1.3620658291753864,0.00025070620718441075,0.000821525310097502,4.1583865355532116e-05,0.0012711336829239767,-0.0010115511833115596,0.0007178898483372996,-0.000998759185011785,-0.1793939769268036,-50.90848159790039,-7.483719825744629,17.79975128173828,1.7805887460708618,-0.8484604358673096,0.11265717446804047,,,,,,,,,
1739303442.3054101,-0.10181737783975198,1.0575980796213924,-0.3972594306360439,-1.4325354532834087,1.5213539462352146,1.163410677102685,1.3620680730595944,-0.0009652961378505017,-0.0008237450214282939,0.0002916646950082714,0.0006440410125614184,0.001529305361974828,-0.000809705590854931,-0.001273851434868247,-0.1317865550518036,-50.88071060180664,-7.511490821838379,17.77594757080078,1.7869974374771118,-0.8484604358673096,0.06596527993679047,,,,,,,,,
1739303442.3154294,-0.1018189851210379,1.0575980874565238,-0.39726506800359923,-1.4325355557386625,1.521354695228244,1.163415284715132,1.36207169801307,-0.0015218046217585668,-0.0009235431448259279,-0.0012304573249307966,0.0013202140546705074,0.00035905951219342396,-0.0010266719452755486,0.0009168448801093558,-0.10798283666372299,-50.88071060180664,-7.436112403869629,17.77594757080078,1.7805887460708618,-0.8612778186798096,0.06596527993679047,,,,,,,,,
1739303442.3254304,-0.10181424472784321,1.0575963749359256,-0.39726541025338374,-1.4325414910219045,1.5213565245270568,1.1634102965160795,1.3620697213044382,-0.0004913212230122207,-0.0011232917462595821,0.00023872705983678477,-0.0013164346334121283,0.0007861965327808595,-0.00021517523078776088,-0.00019769513299973277,-0.1555902659893036,-50.85690689086914,-7.459916114807129,17.84735870361328,1.7934061288833618,-0.8484604358673096,0.07969819009304047,,,,,,,,,
1739303442.3354535,-0.10181637557161835,1.0575973712197728,-0.3972650670673916,-1.4325361566411432,1.5213554900746373,1.1634145181092745,1.3620649439647894,-0.000940271114642015,-0.00034117275896365976,-0.0008874996451800966,-0.00025007476007741136,-7.011762842754142e-05,0.0008674412642230039,-0.0007858598147640275,-0.1555902659893036,-50.88071060180664,-7.436112403869629,17.82355499267578,1.8007303476333618,-0.8548691272735596,0.11998139321804047,,,,,,,,,
1739303442.3463733,-0.1018139527982896,1.0575946242318397,-0.39726116048368565,-1.4325390214195135,1.5213578698356216,1.163414190361105,1.3620704789582836,-0.00016470047273728562,-0.0009469835299261809,0.000633884720618226,-0.0004111415537193594,0.0020945172035708136,0.0010859199316071465,0.000749609869800042,-0.1793939769268036,-50.82913589477539,-7.483719825744629,17.82355499267578,1.7805887460708618,-0.8612778186798096,0.07328949868679047,,,,,,,,,
1739303442.3564672,-0.10180920488031876,1.0576000855442604,-0.39726328323637333,-1.4325410855456855,1.5213545731477482,1.163410744243692,1.3620662203779628,0.002226301722822013,0.0008050655887502239,-0.00014395980614245355,-0.0007060660275301947,-0.0005852103791680271,-0.00024282722285668556,-0.0005621195264367783,-0.2547723948955536,-50.90848159790039,-7.459916114807129,17.82355499267578,1.7805887460708618,-0.8612778186798096,0.10624848306179047,,,,,,,,,
1739303442.3674521,-0.10181466308677495,1.0575972243745615,-0.3972615804143448,-1.4325374659063976,1.5213534880598543,1.1634141904791138,1.3620677578323699,-0.0007995917051912176,-0.0004517516108381742,0.00017505668045410174,0.0005102447496386842,-0.0011476540921218027,0.00022558869669007676,0.0006840767661450752,-0.1793939769268036,-50.90848159790039,-7.483719825744629,17.79975128173828,1.7934061288833618,-0.8548691272735596,0.05955658480525017,,,,,,,,,
1739303442.3784275,-0.10181253218483667,1.0576038221158641,-0.3972650667078132,-1.4325372359578379,1.5213554877212367,1.163412151696447,1.3620680977166209,0.00034545773668386904,0.001141254434962202,-0.0003768777455358083,-0.0003736793101834926,0.00043700310694597426,0.0014777034196634367,0.00017664647255255116,-0.1793939769268036,-50.96005630493164,-7.436112403869629,17.79975128173828,1.7741800546646118,-0.8612778186798096,0.09343110024929047,,,,,,,,,
1739303442.389368,-0.10181250586581939,1.0576013904155777,-0.39726328431836616,-1.432541392305336,1.5213543498919195,1.1634120782180422,1.362069725659108,0.0007904164939428276,0.00013905549826953388,-0.00039755393164043156,-0.001547703685179974,9.558817713347246e-05,3.2495564301188466e-05,0.0002843307413508272,-0.1793939769268036,-50.93228530883789,-7.459916114807129,17.82355499267578,1.7869974374771118,-0.8420517444610596,0.07969819009304047,,,,,,,,,
1739303442.3994002,-0.1018136897830204,1.0576022664790916,-0.3972615016773506,-1.432539044183564,1.5213539724602076,1.1634134391728057,1.362072115598313,-0.0006257329035391555,-0.00042687113714375436,0.00022801816347022203,5.2024532046501056e-05,0.000627289901695057,0.0003548885988548092,0.0008123413246192846,-0.2071649730205536,-50.90848159790039,-7.483719825744629,17.82355499267578,1.7869974374771118,-0.8484604358673096,0.05955658480525017,,,,,,,,,
1739303442.4094236,-0.10180982390047953,1.0575964014638157,-0.3972611497068177,-1.4325354532799532,1.5213531736098136,1.1634108919382076,1.3620713333850558,0.0004979470771519856,-0.001144801819973063,0.000819819681575526,0.0006494579540935519,-0.00027713503213207453,0.0007775142243327798,0.0022760158459065832,-0.2071649730205536,-50.85690689086914,-7.459916114807129,17.77594757080078,1.7934061288833618,-0.8548691272735596,0.06596527993679047,,,,,,,,,
1739303442.4204032,-0.10181636682266998,1.0576002006278553,-0.3972631793236513,-1.4325391291760547,1.5213528354164474,1.1634099664833601,1.3620680977410822,-0.0007327775775818892,0.00011912416026090206,0.00016719490992861885,-0.0006957804703174403,0.00038699489181043625,0.00018466666549000712,8.06417491368253e-05,-0.1555902659893036,-50.90848159790039,-7.459916114807129,17.82355499267578,1.7934061288833618,-0.8548691272735596,0.09343110024929047,,,,,,,,,
1739303442.431397,-0.10181242699282118,1.05760105444537,-0.39726328392056415,-1.4325410881841203,1.5213539332015342,1.1634094106170625,1.3620676420591196,0.0012738863258699683,0.0003746000438688015,-0.0005280041533600951,-0.00024045898068187076,-4.763920870811463e-05,-0.0006550381559402537,-0.00016077827666574976,-0.1793939769268036,-50.88071060180664,-7.459916114807129,17.82355499267578,1.7869974374771118,-0.8484604358673096,0.10624848306179047,,,,,,,,,
1739303442.4414468,-0.10181637252773786,1.0575964926902441,-0.39726510202560905,-1.4325390186452414,1.5213546908673725,1.1634109453363495,1.3620704759484008,-0.0012799206545428155,-0.00024320631354167877,-0.0010281247160984493,-0.0009871942085805242,0.0005426095331545944,-0.0007700534626897129,0.0007387320349833303,-0.1555902659893036,-50.85690689086914,-7.436112403869629,17.82355499267578,1.7805887460708618,-0.8548691272735596,0.07328949868679047,,,,,,,,,
1739303442.4533684,-0.10181465096192477,1.0575963749365902,-0.3972615017855556,-1.4325372360615185,1.5213521920739193,1.1634084516601346,1.3620713448557513,-0.0010272168270141328,-0.00032835953827646064,0.00017850029961372478,0.000665006060304057,-0.0005436714520523245,-0.0016948590221364046,0.0011141885027301718,-0.1793939769268036,-50.85690689086914,-7.483719825744629,17.79975128173828,1.8007303476333618,-0.8420517444610596,0.06596527993679047,,,,,,,,,
1739303442.4634323,-0.10181418288948992,1.0575980874566566,-0.3972649970429456,-1.4325390186335591,1.521354690866709,1.1634091688117816,1.3620680975756037,4.6555294609027594e-05,-4.000198834151891e-05,-0.0009916968813466543,-0.0004581818619713946,0.001216533101022055,0.0001846656839809954,0.00047866457951829014,-0.1555902659893036,-50.88071060180664,-7.436112403869629,17.82355499267578,1.7805887460708618,-0.8484604358673096,0.09343110024929047,,,,,,,,,
1739303442.4744134,-0.10181465430559974,1.057597771018768,-0.39726577566399324,-1.4325390186335587,1.5213539351453613,1.163411548636989,1.3620713448557673,0.0007644521628989277,-0.0012439660742341182,-0.00150466117147874,-0.0003143115426414812,-0.00013465693878669162,1.8762171691884418e-05,0.0013155439384185028,-0.1793939769268036,-50.88071060180664,-7.436112403869629,17.82355499267578,1.7869974374771118,-0.8420517444610596,0.06596527993679047,,,,,,,,,
1739303442.48446,-0.10181389398166181,1.057600111883104,-0.3972635993143706,-1.4325372614663465,1.5213503626254368,1.1634115486914876,1.3620623966602967,-0.0003905367537939926,0.001247120036888144,-0.0018495188559041532,0.0005032750208053295,-0.0017367945602950333,0.0009428752741105809,-0.0012432599002654818,-0.1555902659893036,-50.90848159790039,-7.459916114807129,17.79975128173828,1.8135477304458618,-0.8420517444610596,0.13279877603054047,,,,,,,,,
1739303442.4953854,-0.10181626062241401,1.057603188218692,-0.397261155540966,-1.4325390199984247,1.5213574140972965,1.1634092222445442,1.3620637960881499,-0.0013260810674477737,0.0015489762285866458,-0.00026703907684749435,-0.0009048039929890134,0.0009745761998738601,0.00028990351825690624,-0.002440903295130636,-0.1555902659893036,-50.90848159790039,-7.459916114807129,17.82355499267578,1.7934061288833618,-0.8484604358673096,0.13279877603054047,,,,,,,,,
1739303442.5054214,-0.10181541686218482,1.0576008007057935,-0.39725871278641756,-1.4325372387909858,1.5213536313010236,1.163408290252011,1.362067348699324,-0.00014800966993471236,0.0002914319767624863,0.0017938853159460125,0.0010597746992056258,-5.1422269759444786e-05,9.667523678124181e-05,-0.001069119434766729,-0.1555902659893036,-50.90848159790039,-7.511490821838379,17.79975128173828,1.7805887460708618,-0.8420517444610596,0.09983979165554047,,,,,,,,,
1739303442.5164366,-0.10181583889356924,1.057600951572438,-0.3972609193241855,-1.4325354532795367,1.5213531232134259,1.1634098055692155,1.3620729127195637,-0.0018110329912723719,0.0002478658314578882,-0.00022136677647619722,0.001085480087086445,-0.0005287326740550033,0.0007126174809576242,0.002985260489501406,-0.1317865550518036,-50.88071060180664,-7.459916114807129,17.77594757080078,1.7934061288833618,-0.8548691272735596,0.05314789339900017,,,,,,,,,
1739303442.5274675,-0.10181626892359873,1.0575964554424384,-0.3972622206772928,-1.4325372614663465,1.5213531755469205,1.1634105632292937,1.362064958863976,0.00023017940663104156,-0.002039880018645571,-0.0007927414191498834,0.000536222341529985,-0.0001452871027433774,0.0005774810220163986,-0.0011861502499538794,-0.1555902659893036,-50.85690689086914,-7.436112403869629,17.79975128173828,1.7934061288833618,-0.8612778186798096,0.11998139321804047,,,,,,,,,
1739303442.5383785,-0.10181368929476833,1.0575980917087455,-0.39726328397827965,-1.4325354532796646,1.5213539201253423,1.16340908813614,1.362071891809375,0.0004516441946846149,-0.0008290733863913191,0.0010940522287346875,0.0007209321974692465,0.0002844499611354111,6.945231341420977e-05,0.0015948168113278575,-0.1793939769268036,-50.88071060180664,-7.459916114807129,17.77594757080078,1.7869974374771118,-0.8484604358673096,0.07328949868679047,,,,,,,,,
1739303442.549371,-0.10181242297088788,1.0576011339163505,-0.3972614754316782,-1.4325410849279108,1.5213531363011379,1.1634098055698967,1.362071344879695,-0.00039940599509738934,0.00027667451922320103,0.00011297422429121511,-0.0005117659399287604,-0.000583087885645871,6.062527520372607e-05,0.0018174742812773334,-0.1793939769268036,-50.88071060180664,-7.483719825744629,17.82355499267578,1.7934061288833618,-0.8548691272735596,0.06596527993679047,,,,,,,,,
1739303442.559413,-0.10181231307452093,1.0576011480326144,-0.3972622062535785,-1.432539018645223,1.521350754292685,1.1634082902490588,1.362069721459963,0.0012682698947584432,0.001690513173058353,-0.00017669315512625118,0.0003765996884708322,-0.000855154334730941,-0.0007976184993769361,0.0014678965158003467,-0.2071649730205536,-50.90848159790039,-7.436112403869629,17.82355499267578,1.7869974374771118,-0.8420517444610596,0.07969819009304047,,,,,,,,,
1739303442.569443,-0.10181353011663989,1.0576046883935784,-0.39726262613594526,-1.4325411074282597,1.5213515499980033,1.1634098055692155,1.362061323853177,-0.0002517937082605362,0.0022357414388075084,-1.0629244322391809e-05,-0.001035347897831932,-0.0002121186933048641,-0.00010602214127625954,-0.002478071421691133,-0.1555902659893036,-50.93228530883789,-7.436112403869629,17.84735870361328,1.8071390390396118,-0.8548691272735596,0.14653168618679047,,,,,,,,,
1739303442.5804994,-0.10181319100656466,1.057603935013102,-0.3972650668820457,-1.4325397157977795,1.521353946289213,1.163412132082413,1.3620680977327448,-0.00011757451634865135,0.0006734779026785888,-0.00078700157217018,-0.0005051593369996363,0.000505738726645846,0.0014457784160937645,-0.00019979711453251925,-0.1555902659893036,-50.93228530883789,-7.436112403869629,17.82355499267578,1.7869974374771118,-0.8612778186798096,0.09343110024929047,,,,,,,,,
1739303442.5913944,-0.10181413556230598,1.057608378245156,-0.3972632843543694,-1.4325372359604753,1.5213559593696837,1.163410294955088,1.3620672161016212,-0.0005901584399827698,0.0009410533719994408,-0.000979963795089511,0.0007452265039324809,0.002082309132576834,0.0010469226544565905,0.0004014341376250573,-0.1555902659893036,-50.98386001586914,-7.459916114807129,17.79975128173828,1.7741800546646118,-0.8484604358673096,0.07328949868679047,,,,,,,,,
1739303442.603423,-0.10181319540816076,1.0575963749413257,-0.3972633634153907,-1.4325417736926949,1.5213539332082557,1.163409805571562,1.3620697034136497,-0.0005467230458070865,-0.00280368017185853,0.0008109813093188128,0.00020832301987007526,6.21351955415092e-05,0.00024197902981725516,0.0001937961289345747,-0.1555902659893036,-50.85690689086914,-7.459916114807129,17.82355499267578,1.7869974374771118,-0.8548691272735596,0.07969819009304047,,,,,,,,,
1739303442.6144423,-0.10181430805092151,1.0575995656361834,-0.39725906081850265,-1.4325372372214675,1.521351249958019,1.163409047909137,1.362066422628992,-0.0006700553627195931,-0.00022898849998452347,0.0007094223747369158,0.0008606966720221413,-0.001534212709159629,1.4843417655656851e-05,1.1030873355616973e-05,-0.1793939769268036,-50.85690689086914,-7.483719825744629,17.79975128173828,1.8007303476333618,-0.8484604358673096,0.07969819009304047,,,,,,,,,
1739303442.625364,-0.1018148918453991,1.0576047752068827,-0.39726328434059155,-1.432537235956547,1.5213536312232614,1.163409047909137,1.3620665867630197,-0.0018031525184162914,0.0008758895685640648,-0.00018592367709776027,0.0008269928436771629,-0.00013012591735166176,0.00018310545287518638,0.0002115879567426024,-0.1317865550518036,-50.93228530883789,-7.459916114807129,17.79975128173828,1.7805887460708618,-0.8484604358673096,0.10624848306179047,,,,,,,,,
1739303442.6354687,-0.1018144784516306,1.0575974438908584,-0.3972622005897327,-1.4325372387909627,1.521353932543327,1.1634105632292937,1.3620625776463637,-0.0011829874329645986,-0.0007466268762588893,0.00037606060959752497,0.00022611888925646098,0.0003011070773933016,0.0009456873776562437,-0.0020717168479773428,-0.10798283666372299,-50.85690689086914,-7.483719825744629,17.79975128173828,1.7869974374771118,-0.8612778186798096,0.14012299478054047,,,,,,,,,
1739303442.645481,-0.10181359761794614,1.05760130312763,-0.39726327561765085,-1.4325372387910107,1.5213507943298157,1.1634098055692155,1.3620658247609119,0.0006237332850768187,0.0008941319418870398,7.274084694552642e-05,0.0008131935742586392,-0.0013371440644547232,0.00013566440381157266,-0.0005979528668405884,-0.1793939769268036,-50.88071060180664,-7.459916114807129,17.79975128173828,1.8135477304458618,-0.8548691272735596,0.11265717446804047,,,,,,,,,
1739303442.6564205,-0.1018141615925656,1.0575987635368587,-0.39725910679543763,-1.4325372359565558,1.5213531757625567,1.163409047909137,1.362068963417655,-0.001293602464704491,-0.0014835214872837633,0.0017115909505567928,0.0003183355944044459,0.00011661127543310408,-7.786792190642768e-05,0.0014566353547236712,-0.1555902659893036,-50.85690689086914,-7.511490821838379,17.79975128173828,1.7934061288833618,-0.8484604358673096,0.08610688149929047,,,,,,,,,
1739303442.667394,-0.10181147070186437,1.0575996288939575,-0.3972632833769724,-1.4325390186335587,1.5213514596251796,1.163409047909137,1.362067339584435,0.0007185433910571926,8.905059891012432e-05,-9.083310647844961e-05,0.0004570523819952896,-0.00048434172508465877,8.237538547642943e-05,0.00013713961608507335,-0.1793939769268036,-50.85690689086914,-7.459916114807129,17.82355499267578,1.7805887460708618,-0.8484604358673096,0.09983979165554047,,,,,,,,,
1739303442.6774795,-0.10181360057701341,1.0575989248657205,-0.39726498592800913,-1.4325390979974022,1.521355446857674,1.163408995581328,1.362069667662445,0.0006686177306036756,-0.00012008957996190406,-0.0008155136087967025,0.0006117692404432134,0.0009062266554486028,-0.00027795301152644386,-0.0005204330422249795,-0.1793939769268036,-50.88071060180664,-7.408341407775879,17.82355499267578,1.7741800546646118,-0.8484604358673096,0.07969819009304047,,,,,,,,,
1739303442.6884959,-0.10181146716080705,1.0575995935369624,-0.3972612537534102,-1.4325390186340066,1.5213496946547678,1.1634097663230634,1.362075583407983,0.0002620295406602086,-0.0007068622123008139,-0.0006258623093135577,-0.00022242762222237392,-0.001224102528069841,-0.00014015631837598633,0.0022658897219093484,-0.1793939769268036,-50.85690689086914,-7.483719825744629,17.82355499267578,1.7869974374771118,-0.8548691272735596,0.06596527993679047,,,,,,,,,
1739303442.7003624,-0.10181773298409508,1.057603700213447,-0.39726432912806514,-1.4325390186335587,1.5213539334146595,1.163409047909063,1.36206968107943,-0.0013770269266000722,0.0007883843921618087,-0.0010290240767017516,-5.7490896729148503e-05,-0.00023346950140934765,-0.0001633074821509727,0.0004785503040361297,-0.1317865550518036,-50.90848159790039,-7.436112403869629,17.82355499267578,1.7869974374771118,-0.8484604358673096,0.07969819009304047,,,,,,,,,
1739303442.7104588,-0.10180947019427038,1.0575995671024994,-0.3972622606528684,-1.4325372700745942,1.5213478628793846,1.1634082902490588,1.3620685947761475,0.0005944611918843071,-0.0006024725052926852,0.00047999801462751435,0.0006802921603965591,-0.0017427814390562448,0.00032535367476989617,0.0004392338032651776,-0.2071649730205536,-50.85690689086914,-7.459916114807129,17.79975128173828,1.8071390390396118,-0.8420517444610596,0.07969819009304047,,,,,,,,,
1739303442.7214384,-0.10180946884704718,1.0576043013132717,-0.39726294403465046,-1.4325428705793888,1.521352309643042,1.163409804115665,1.3620651324755826,0.0010600050612931105,0.0008074852249057579,-0.0018422299832888032,-0.0010906832555925734,-0.001961969191218836,0.0004706345097234049,-0.0005762894106882161,-0.2071649730205536,-50.93228530883789,-7.436112403869629,17.84735870361328,1.8007303476333618,-0.8548691272735596,0.10624848306179047,,,,,,,,,
1739303442.7323961,-0.10181049481958758,1.057605016556946,-0.397261498617206,-1.432537465999759,1.5213524273875534,1.1634047581219362,1.3620642011790463,0.0008974331177266979,0.0011621122266696003,0.000973669574488626,0.00040004856721556235,0.00042661334393597703,-0.0009122258969488148,-0.001923388854527684,-0.2071649730205536,-50.93228530883789,-7.483719825744629,17.79975128173828,1.8007303476333618,-0.8420517444610596,0.12639008462429047,,,,,,,,,
1739303442.7424572,-0.10181490352714653,1.0576062445441365,-0.39726327301363284,-1.4325417736939936,1.5213539722923102,1.163407532515206,1.3620658068822435,-0.0011840710785450538,0.0016677084730902028,-0.00015334230120696909,-0.0007611927173572865,-0.00012635697231238707,-0.000317555741799808,0.0004711812078428288,-0.1317865550518036,-50.90848159790039,-7.459916114807129,17.82355499267578,1.7869974374771118,-0.8356430530548096,0.11265717446804047,,,,,,,,,
1739303442.7533925,-0.10180946895550196,1.0576050045180507,-0.39726317839944997,-1.4325390196250234,1.5213553293369928,1.1634090479091357,1.362064561016075,0.0007293875058012575,-0.0001576303199903805,-0.00012525366909988634,0.00018374509611954968,0.0013266904160323958,0.0005309292586853214,-0.0002772136046620748,-0.2071649730205536,-50.93228530883789,-7.459916114807129,17.82355499267578,1.7741800546646118,-0.8484604358673096,0.08610688149929047,,,,,,,,,
1739303442.763466,-0.10181146678789833,1.0576017659538568,-0.39726422908976394,-1.4325372359565454,1.5213515519892324,1.1634061197381411,1.3620689228898935,0.0006877226430827023,-0.0006656744052978669,-0.0012755718936095445,0.00019157255676313304,-0.00018930107563921522,-0.0017134304161958197,0.000309510756591099,-0.1793939769268036,-50.85690689086914,-7.459916114807129,17.79975128173828,1.8071390390396118,-0.8356430530548096,0.08610688149929047,,,,,,,,,
1739303442.7743618,-0.10181560514930157,1.0576013061197376,-0.3972611583526995,-1.4325390198933021,1.5213527805464282,1.163408576789376,1.3620680975753736,-0.0011176178391280407,-0.0009210147066845355,0.000565470933380849,0.00017589963349796405,-0.0003912409037672026,-0.0007143206573646906,0.00030868123164978995,-0.1317865550518036,-50.88071060180664,-7.459916114807129,17.82355499267578,1.8007303476333618,-0.8484604358673096,0.09343110024929047,,,,,,,,,
1739303442.7844334,-0.10181149310696613,1.0576005908517372,-0.39726150164134716,-1.4325390454031304,1.521355448535426,1.1634082902410803,1.3620685551168794,8.5802365248543e-05,-4.606529213205864e-05,0.0010887950796789453,0.00030287289694671247,0.00035540324056407193,-0.00036424373730408984,0.0008028748169553212,-0.1793939769268036,-50.88071060180664,-7.483719825744629,17.82355499267578,1.7741800546646118,-0.8420517444610596,0.09343110024929047,,,,,,,,,
1739303442.7944481,-0.10181359765528558,1.0576042576863052,-0.39726150135332877,-1.4325408013119378,1.5213539332072947,1.1634082902490583,1.362064161484352,0.0003190780625264902,0.0008294990961810221,-0.0003645197876759921,-0.0006560676887431548,0.00013621717413395934,-0.0011618539579021376,-0.0022202178885222285,-0.1793939769268036,-50.90848159790039,-7.483719825744629,17.84735870361328,1.7869974374771118,-0.8420517444610596,0.12639008462429047,,,,,,,,,
1739303442.805434,-0.1018131797336746,1.0576050165708533,-0.3972594895095756,-1.4325408013105778,1.5213543888354866,1.1634090478911918,1.362066620967947,-0.00018401910233441744,0.0002588848227419811,-0.0005796721881815676,-6.890782256697362e-05,0.0010300608291212692,-0.0001276159425843802,-0.00020694964163709166,-0.1555902659893036,-50.93228530883789,-7.483719825744629,17.84735870361328,1.7741800546646118,-0.8484604358673096,0.13279877603054047,,,,,,,,,
1739303442.8155043,-0.10181076822302694,1.0576013162459874,-0.3972615002790402,-1.4325410861876544,1.5213539786980308,1.1634082752290384,1.3620689851669978,0.0012785873172446005,-0.00045221060335172176,4.982400191321304e-05,0.0003164401066351306,0.0004436412452177968,2.2077146398035525e-06,-0.0005183517304836805,-0.1793939769268036,-50.88071060180664,-7.483719825744629,17.82355499267578,1.7869974374771118,-0.8420517444610596,0.08610688149929047,,,,,,,,,
1739303442.8263528,-0.1018114667839543,1.057605449779258,-0.3972611492387801,-1.432539029982922,1.521352308142855,1.1634090479090522,1.3620649453996188,0.0007948788038975204,0.00025115764591194286,0.00022679583557599898,0.00011302962698516979,-0.0006063602806715934,0.0007482743549700314,-6.449901448883676e-05,-0.1793939769268036,-50.90848159790039,-7.459916114807129,17.82355499267578,1.8007303476333618,-0.8484604358673096,0.11998139321804047,,,,,,,,,
1739303442.8364267,-0.1018097085329378,1.057607268772487,-0.3972625756852129,-1.4325410858729108,1.5213556069644025,1.1634058689947488,1.362068963638151,0.000396372864737476,0.0014440256534325787,-0.0011130392056633368,-0.0013148385208865076,0.0013780896167235972,-0.00015937555781428523,0.000489403035350584,-0.2071649730205536,-50.93228530883789,-7.459916114807129,17.82355499267578,1.7741800546646118,-0.8484604358673096,0.08610688149929047,,,,,,,,,
1739303442.847078,-0.10181105258326884,1.0576033050421878,-0.39726467149045874,-1.4325423819491236,1.5213565086509917,1.1634090474066752,1.3620657040799027,0.0009782150425680096,-0.0002646107020344287,-0.0007041015445346426,-0.00025888858091011914,0.0011866283792570428,0.0002611853863005097,-0.0010583289135806485,-0.1555902659893036,-50.90848159790039,-7.436112403869629,17.84735870361328,1.7741800546646118,-0.8484604358673096,0.11265717446804047,,,,,,,,,
1739303442.8574944,-0.1018131792606212,1.0576078777010298,-0.39726482973808824,-1.4325390186774742,1.5213531755532004,1.1634082887955055,1.3620645544156298,0.0003511746367160022,0.002186074268780457,-0.00020332362932503297,-0.0006222689996562109,0.0004666164190105756,0.0005154704838679081,-0.0005820046702226449,-0.1555902659893036,-50.93228530883789,-7.436112403869629,17.82355499267578,1.7934061288833618,-0.8420517444610596,0.12639008462429047,,,,,,,,,
1739303442.8684204,-0.10181492214193891,1.0575995935665559,-0.39726013098478824,-1.432539018633559,1.5213563733577573,1.1634114233123167,1.3620649529061173,-0.0008694232679253435,-0.0022857328953394354,0.0010377695981770272,0.0007550759516197394,0.0014287833800324615,-3.832354974694696e-05,-0.0016236502004394315,-0.1317865550518036,-50.85690689086914,-7.459916114807129,17.82355499267578,1.7934061288833618,-0.8686020374298096,0.11998139321804047,,,,,,,,,
1739303442.8803804,-0.1018148947525299,1.057601623998913,-0.3972625727873852,-1.4325354546442428,1.5213531755114325,1.1634082901951908,1.3620649141669756,-0.0008649122080951227,0.0013411977634430145,-0.0005113920471396948,0.0009947498275678745,-0.0005119327941697611,-0.00044494726509496443,-0.0013817124182066134,-0.1317865550518036,-50.88071060180664,-7.459916114807129,17.77594757080078,1.7934061288833618,-0.8420517444610596,0.11998139321804047,,,,,,,,,
1739303442.8914173,-0.10181317963341203,1.057605016569657,-0.39726282349958364,-1.4325408013105803,1.5213539329740084,1.163409805305423,1.3620704789584517,-0.0009599110664297247,0.001193710029031554,-0.0009176148674635582,-0.0005304321764387625,0.00012714978913895886,0.0005247839874847122,0.0006439396486556526,-0.1555902659893036,-50.93228530883789,-7.436112403869629,17.84735870361328,1.7869974374771118,-0.8548691272735596,0.07328949868679047,,,,,,,,,
1739303442.9020333,-0.1018131754203875,1.0576029066840291,-0.3972649881483882,-1.432539945555892,1.5213512500118502,1.1634090464555822,1.3620697198085685,0.00011646366532149404,8.516324983026365e-05,-0.0010735674287750178,-0.0002478679618445483,-0.0007564996820122849,0.0005587814644832131,0.0004334419539504308,-0.1555902659893036,-50.90848159790039,-7.436112403869629,17.79975128173828,1.8007303476333618,-0.8484604358673096,0.07969819009304047,,,,,,,,,
1739303442.9134207,-0.10181146678787577,1.0576061915599868,-0.39726483081994435,-1.4325408017807808,1.5213539506439158,1.1634082902490506,1.3620660942151943,0.0004419342019055995,0.0008176681414009943,-0.00062580447832965,-0.0008176360659187116,0.0006416432510184739,-0.00018437172876176823,-0.001517192086220357,-0.1793939769268036,-50.90848159790039,-7.436112403869629,17.84735870361328,1.7869974374771118,-0.8420517444610596,0.07328949868679047,,,,,,,,,
1739303442.9253485,-0.1018131793086289,1.0576030139614705,-0.3972604147077,-1.432539715913277,1.521353175565194,1.163405864580263,1.3620680819906028,-0.0003372174935697762,-0.0012781362397064463,-0.00015544803892985246,-0.0008806280510496798,0.0009389350476225734,-0.0002666196061312516,-0.00012298169513879167,-0.1555902659893036,-50.90848159790039,-7.459916114807129,17.82355499267578,1.7934061288833618,-0.8484604358673096,0.06596527993679047,,,,,,,,,
1739303442.9354334,-0.10181147555689381,1.0576013032681388,-0.39726469717709506,-1.4325383033896297,1.5213549928454242,1.1634098055153055,1.3620713448005113,0.0007288950256407822,-0.0010780055479279306,-0.00021106079649059234,0.0014178503961802885,0.0008150199214363367,0.0010732929479269782,0.0012371230384177693,-0.1793939769268036,-50.88071060180664,-7.408341407775879,17.82355499267578,1.7869974374771118,-0.8548691272735596,0.06596527993679047,,,,,,,,,
1739303442.945435,-0.10181531013872684,1.057604019740114,-0.39726505391272887,-1.4325408098098091,1.5213539332132762,1.163408288741673,1.3620702587266853,-0.0010377560362853215,0.001204542187455066,-0.0015565714777401236,0.00020263129526383995,-0.0005922461369087137,0.00013119150005750472,0.002084393438638854,-0.1555902659893036,-50.90848159790039,-7.436112403869629,17.84735870361328,1.7869974374771118,-0.8420517444610596,0.06596527993679047,,,,,,,,,
1739303442.9555066,-0.10181145710336624,1.0576013178933517,-0.39726494941169815,-1.4325373474439875,1.5213542806058034,1.1634081274514056,1.3620665645239285,0.0009713999957883657,-0.00020314365852044838,-0.0007785123726883785,-0.0007705697962798345,0.001457514461140256,-0.0007001009080914313,-0.0002883549691237991,-0.1793939769268036,-50.88071060180664,-7.436112403869629,17.79975128173828,1.7869974374771118,-0.8420517444610596,0.10624848306179047,,,,,,,,,
1739303442.9664297,-0.1018131793084649,1.057601200143861,-0.39726245766788293,-1.432541315462868,1.5213521526724403,1.1634082902463017,1.3620656638525963,0.00036851905581849917,-0.0016477954948456858,0.0005106147379324169,-0.0007490181384447164,-0.0022494733683739096,-0.0002157194929309432,-0.0007591771099671807,-0.1555902659893036,-50.88071060180664,-7.459916114807129,17.82355499267578,1.8007303476333618,-0.8420517444610596,0.11265717446804047,,,,,,,,,
1739303442.9764612,-0.10181317639244374,1.0576017404798586,-0.3972586671406885,-1.4325365975581243,1.521350859738702,1.1634067073328407,1.3620697198076601,-0.00041005996170081436,-0.00042194398376483173,0.0015114092228960122,0.0018480622226991852,-0.0012761300335552058,-0.0011295621007558244,0.001312504218004857,-0.1555902659893036,-50.85690689086914,-7.483719825744629,17.79975128173828,1.8135477304458618,-0.8420517444610596,0.07969819009304047,,,,,,,,,
1739303442.9883628,-0.10181317930861244,1.0576033306967552,-0.39726189082169633,-1.4325401053337992,1.5213546894141916,1.1634090086543447,1.362071304628757,0.0006265242392010759,0.0003470754214365403,0.0010389592483512934,-0.0008320154251831536,0.00012875768484578497,0.0005022343513718943,0.0021962667594030453,-0.1555902659893036,-50.90848159790039,-7.436112403869629,17.79975128173828,1.7805887460708618,-0.8484604358673096,0.06596527993679047,,,,,,,,,
1739303442.998381,-0.10181325822959375,1.057602696953008,-0.397262256867195,-1.4325376220492123,1.5213571121216745,1.1634082691663838,1.3620664629109827,-0.000519089372976329,-0.0003197377633109654,5.154290692174298e-05,0.0004297233252650784,0.0013503371692171954,-0.001124575657904727,0.00016408556024449534,-0.1555902659893036,-50.85690689086914,-7.459916114807129,17.77594757080078,1.7869974374771118,-0.8548691272735596,0.07969819009304047,,,,,,,,,
1739303443.0084243,-0.10181317920195858,1.0575995934212665,-0.39726017427947746,-1.4325420119259322,1.5213531812537466,1.1634098055431963,1.3620672319302007,-2.9930954493616882e-05,-0.0012178606237790131,0.000181356515543961,-0.0008403923301291134,0.0004369072550510396,0.000537179462649895,0.00022700697631302785,-0.1555902659893036,-50.85690689086914,-7.459916114807129,17.82355499267578,1.7934061288833618,-0.8548691272735596,0.09983979165554047,,,,,,,,,
1739303443.0194323,-0.10181146682398352,1.0575983109016267,-0.3972607829821579,-1.4325411133940165,1.521354690867405,1.1634066266548273,1.362068844128429,0.00041394919627273563,-0.0024915810396254887,-6.706559506639942e-05,-0.0002835478286889612,8.114479627010802e-05,0.00016210607223287666,0.002394539569651481,-0.1793939769268036,-50.82913589477539,-7.483719825744629,17.82355499267578,1.7805887460708618,-0.8548691272735596,0.05955658480525017,,,,,,,,,
1739303443.0304122,-0.10181560211804387,1.0576050254034142,-0.3972643025645745,-1.4325390271486527,1.5213542849664539,1.1634090478911918,1.3620632781474498,0.0001291599831118891,0.0010353393940890486,-0.0018823541745212424,0.0003950891650192547,-0.0001224874045885588,0.0014448874382363773,-0.0014781693531875036,-0.1317865550518036,-50.93228530883789,-7.408341407775879,17.82355499267578,1.7869974374771118,-0.8484604358673096,0.13279877603054047,,,,,,,,,
1739303443.0414298,-0.10180946885105426,1.0576010267146583,-0.39725835120923797,-1.4325375990777358,1.521352425935989,1.1634079355827986,1.362069714841338,0.0013783754606784627,-0.0004815050108543933,0.0014413704030740385,0.0008024809903346675,-0.0006465352724571744,-0.0005665139853008056,0.0015106873384354018,-0.2071649730205536,-50.85690689086914,-7.483719825744629,17.77594757080078,1.8007303476333618,-0.8420517444610596,0.07969819009304047,,,,,,,,,
1739303443.0523536,-0.10181319100062372,1.0576033044198052,-0.3972619841378387,-1.432535463683172,1.5213531770014228,1.163409030464532,1.3620672998540289,-0.0003671256764209265,0.0001441830837604514,4.150571747021828e-05,0.001331211144671801,-0.00039435713604905735,0.001244101652401729,-0.0006823513992154155,-0.1555902659893036,-50.90848159790039,-7.436112403869629,17.77594757080078,1.7934061288833618,-0.8484604358673096,0.09983979165554047,,,,,,,,,
1739303443.0623648,-0.10181138805109584,1.057603410121163,-0.39726033182667564,-1.4325408130683603,1.5213539332073192,1.163409008662985,1.3620605562409969,-0.0004652013703194335,0.0005877208491918652,0.0020560954811802267,6.824601596262223e-05,-6.792683096586534e-05,-0.00011175815129029225,-0.001786997499668916,-0.1793939769268036,-50.90848159790039,-7.459916114807129,17.84735870361328,1.7869974374771118,-0.8484604358673096,0.11998139321804047,,,,,,,,,
1739303443.0725,-0.10181154603230677,1.0576050548355653,-0.39726150033126756,-1.4325375433341643,1.5213535287599258,1.1634089300093968,1.3620649587891205,-0.00020282999495961244,0.0007840390018379331,0.0003237636767392522,4.2447169123415395e-05,-8.324029781479642e-05,-0.00013691705781139444,0.0012261517617464068,-0.1793939769268036,-50.93228530883789,-7.483719825744629,17.79975128173828,1.7934061288833618,-0.8484604358673096,0.11998139321804047,,,,,,,,,
1739303443.0834577,-0.10181661899421689,1.0575996998782533,-0.3972649761975985,-1.4325417747476867,1.521354354941742,1.1634082883089951,1.362064934589389,-0.0010148425868976808,0.0004448094539662295,-0.0006290573168547469,-0.0014198611530540886,0.00048521802477236253,0.001545243850900715,0.0008238787724893226,-0.10798283666372299,-50.85690689086914,-7.436112403869629,17.82355499267578,1.7805887460708618,-0.8420517444610596,0.11998139321804047,,,,,,,,,
1739303443.0944505,-0.10181146673992222,1.0575996024172611,-0.39726328435419933,-1.432540802680486,1.5213515163130034,1.1634053849445682,1.3620728600107763,0.0005257946111414472,-0.001583902733184293,-0.0014031841447052812,-0.0011918327781480598,-0.00011685863268868916,-0.0018071713128088435,0.0019248247085734372,-0.1793939769268036,-50.85690689086914,-7.459916114807129,17.84735870361328,1.7805887460708618,-0.8484604358673096,0.05314789339900017,,,,,,,,,
1739303443.1053767,-0.1018166043506265,1.0576078775921576,-0.39726117506461095,-1.4325397103377675,1.5213546908136113,1.1634079751270228,1.3620728537201767,-0.002196307939634017,0.001713839989197238,0.0009457525207256495,-0.0008973787563234098,0.0003598447580048925,-0.0012201307897464141,0.001665119287047049,-0.10798283666372299,-50.93228530883789,-7.483719825744629,17.82355499267578,1.7805887460708618,-0.8484604358673096,0.05314789339900017,,,,,,,,,
1739303443.1153927,-0.10181170355079223,1.0575990558098116,-0.3972611584535295,-1.4325449473986904,1.52135227020525,1.1634087277825698,1.3620649454546419,-0.0008729924844158236,-0.0010895823145347999,0.0010462763848635777,-0.0016934781527826698,-0.00033942409059270354,-0.0009416034227625536,-0.001059516942358449,-0.1793939769268036,-50.88071060180664,-7.459916114807129,17.87512969970703,1.7741800546646118,-0.8548691272735596,0.11998139321804047,,,,,,,,,
1739303443.1263635,-0.10181310057296555,1.0576036901352075,-0.3972593378559461,-1.432537579388292,1.5213561538417788,1.1634081722900638,1.3620664081039011,0.00032196807150605266,0.0007568441042958026,0.0014981276659826303,-0.0002958896926867825,0.0010813082003975814,-7.653538850881122e-05,-0.0009192051366398273,-0.1555902659893036,-50.88071060180664,-7.483719825744629,17.79975128173828,1.7677713632583618,-0.8420517444610596,0.10624848306179047,,,,,,,,,
1739303443.1364179,-0.10180946819842716,1.0576013062568643,-0.3972614227956999,-1.4325374998786289,1.5213535789005481,1.1634029403372388,1.3620665819214084,0.0009144538154916937,-0.0006471682351338677,0.00048287630025705395,-0.000424178941177856,-0.0006584081524574221,-0.0018065363431243554,-0.00016314724485010773,-0.2071649730205536,-50.88071060180664,-7.483719825744629,17.79975128173828,1.7805887460708618,-0.8356430530548096,0.10624848306179047,,,,,,,,,
1739303443.147439,-0.10181317930861793,1.0576050155879149,-0.3972584299609579,-1.4325428676093996,1.5213557504866708,1.1634044021232748,1.3620662188880652,-0.0004148840056151216,0.0007866922474269408,0.0009442301737455074,-0.0012787858072156476,0.0006143363117426964,-0.0008144260498372131,-7.783916855303328e-05,-0.1555902659893036,-50.93228530883789,-7.483719825744629,17.84735870361328,1.7805887460708618,-0.8484604358673096,0.10624848306179047,,,,,,,,,
1739303443.1583934,-0.10180734294804765,1.0576043370864856,-0.3972623394925908,-1.4325355386776912,1.5213531363571884,1.1634059132953696,1.3620704787371276,0.0024941032177384632,0.001037642572394066,0.0013945949066872536,0.0018358139414536517,-0.0006938977527357965,-0.0017476239178905464,0.0011617809955722798,-0.2071649730205536,-50.90848159790039,-7.459916114807129,17.77594757080078,1.7934061288833618,-0.8612778186798096,0.07328949868679047,,,,,,,,,
1739303443.168434,-0.10181310053562674,1.057600695104913,-0.3972623352821028,-1.4325390274532097,1.521354690866709,1.1634082350101802,1.3620715018391911,-0.0005218035283416124,-0.0009652806453179319,0.0007651834197744743,0.0006849916673562336,0.0002497575592456412,-0.0003493749088776747,0.0006850455943365973,-0.1555902659893036,-50.82913589477539,-7.459916114807129,17.82355499267578,1.7805887460708618,-0.8548691272735596,0.06596527993679047,,,,,,,,,
1739303443.1794775,-0.10181489182891541,1.057604177286433,-0.39726503944828057,-1.4325390272768488,1.5213521157475811,1.1634071782204194,1.3620642012583224,-0.0004145669274130035,0.0008996609996760561,-0.0013756891266190183,0.000907964366680409,0.00025649294025290904,0.00026827645723036687,-0.0019757054679592403,-0.1317865550518036,-50.88071060180664,-7.436112403869629,17.82355499267578,1.7934061288833618,-0.8420517444610596,0.12639008462429047,,,,,,,,,
1739303443.190359,-0.10181283811496272,1.0576036484832663,-0.3972624619899935,-1.4325364850095341,1.5213542351793627,1.1634077669108576,1.362066059523786,0.0007969733268089697,0.0016168637623862928,0.00036680729811562233,0.0008817439059467926,0.0014069486102941755,-0.0012536763356160033,-0.0017647174320457146,-0.1555902659893036,-50.90848159790039,-7.459916114807129,17.77594757080078,1.7934061288833618,-0.8420517444610596,0.10624848306179047,,,,,,,,,
1739303443.2003796,-0.10181064441789851,1.0575995975171621,-0.39726328293635427,-1.432545280404469,1.5213539325792171,1.1634036853930165,1.362064945445823,0.0016642691606691081,-0.0017246781579781578,-0.000255829692312228,-0.00202869495173662,-0.0007296129327482806,-0.0015765065566535942,-0.0003828207291508691,-0.1793939769268036,-50.85690689086914,-7.459916114807129,17.87512969970703,1.7869974374771118,-0.8420517444610596,0.11998139321804047,,,,,,,,,
1739303443.211428,-0.101813179294702,1.0576054498156062,-0.39726328435434627,-1.4325449512146486,1.5213523038357721,1.1634086946184434,1.3620634384114556,-0.00046838637495395753,0.0011033688677655183,-0.0004440506846086605,-0.0007799060376265121,-4.474650513492523e-05,0.0007000733296200445,-0.0015281141178024758,-0.1555902659893036,-50.90848159790039,-7.459916114807129,17.87512969970703,1.8007303476333618,-0.8484604358673096,0.13279877603054047,,,,,,,,,
1739303443.221428,-0.10181146340368273,1.0576064810125358,-0.3972585503539388,-1.4325381916236772,1.5213538808794527,1.163407880345895,1.3620644773108426,0.00013093017562118537,0.0017618684782753952,-0.00011024637655526208,0.0002975703717992885,7.035525320258436e-05,-7.624132928330478e-05,-0.0005026637779683855,-0.1793939769268036,-50.90848159790039,-7.483719825744629,17.79975128173828,1.7869974374771118,-0.8420517444610596,0.09343110024929047,,,,,,,,,
1739303443.2314594,-0.10180950392297171,1.057599630379028,-0.39726304474517704,-1.432542038255024,1.521352873568279,1.163407177791662,1.3620701166886529,0.0010395086320370993,-0.0013581714159498133,-2.6762300032888764e-05,-0.0009713260194581067,-0.0007238995454352563,-0.00029689958870195805,0.001678636047430806,-0.2071649730205536,-50.85690689086914,-7.459916114807129,17.82355499267578,1.7869974374771118,-0.8420517444610596,0.07328949868679047,,,,,,,,,
1739303443.2414632,-0.10181146678849172,1.0576081984275092,-0.39726430936900586,-1.4325416337144545,1.5213545731118576,1.1634055146700497,1.362069843041519,0.0007939593177084864,0.0013686740710229703,-0.0010248947962288935,-0.0007424225152687868,0.0004560274215156196,0.0006650245153264323,-3.2551217751698746e-05,-0.1793939769268036,-50.93228530883789,-7.408341407775879,17.82355499267578,1.7805887460708618,-0.8548691272735596,0.06596527993679047,,,,,,,,,
1739303443.2524645,-0.10181067941789883,1.05760206165993,-0.397264358242331,-1.4325364495709954,1.521355448525457,1.1634092806034042,1.362071016361771,0.0010949182103283123,-6.065083635225122e-05,-0.0012070627901410581,0.0005297474832458723,9.879215236184471e-05,0.0007727984782981438,0.0012833385183377867,-0.1793939769268036,-50.85690689086914,-7.436112403869629,17.77594757080078,1.7741800546646118,-0.8548691272735596,0.05955658480525017,,,,,,,,,
1739303443.263446,-0.10180852400156441,1.0576013149545491,-0.39726327157222496,-1.4325363877779038,1.5213523096499835,1.1634082352494453,1.362066767304563,0.0010679218858932525,-0.001215862051872745,-0.00041714467116684486,0.0008014683826674232,-0.0010280786317257734,-0.0009816150867546485,0.0005818384368274423,-0.2071649730205536,-50.88071060180664,-7.459916114807129,17.74817657470703,1.8007303476333618,-0.8548691272735596,0.09343110024929047,,,,,,,,,
1739303443.2743711,-0.10181489182402641,1.0576045144563049,-0.3972625868698241,-1.432540000830697,1.5213515476292547,1.163409321528119,1.3620664629036994,-0.0009160067656764008,-1.3010224895877568e-05,-9.946581698877684e-05,1.0370160285453256e-05,-0.002164958867638956,0.0010370786261957444,0.0002589569553716723,-0.1317865550518036,-50.88071060180664,-7.436112403869629,17.79975128173828,1.8071390390396118,-0.8548691272735596,0.07969819009304047,,,,,,,,,
1739303443.2844672,-0.10181247078388904,1.0576039311642376,-0.39726679381282937,-1.432535468280049,1.5213533694495447,1.1634058539665324,1.3620647644135035,-0.00027028161087081046,-0.00020175521377418363,-0.0010785243263002414,0.001368678986184131,-5.75431460757731e-05,0.0005355756557961715,-0.00013237721763203927,-0.1555902659893036,-50.90848159790039,-7.408341407775879,17.74817657470703,1.8007303476333618,-0.8484604358673096,0.11265717446804047,,,,,,,,,
1739303443.2954595,-0.10181317054807444,1.0576033423236582,-0.3972615003752907,-1.4325357878818863,1.5213523227498837,1.163404796059072,1.362068632619818,-0.00026625455429123113,-0.0005898429189168825,0.0008118914150968393,0.0013677567683617982,0.00036337237191790255,0.0009183803509449516,0.002220770533513277,-0.1555902659893036,-50.90848159790039,-7.483719825744629,17.77594757080078,1.8007303476333618,-0.8484604358673096,0.07969819009304047,,,,,,,,,
1739303443.3063936,-0.10181317930861243,1.0575999127864495,-0.3972632046453062,-1.4325414280336926,1.5213539332073192,1.1634067533359862,1.3620620240520187,-0.00011818261149030226,-0.0015363297944847591,0.00016334480632479312,0.00015719331809861103,0.00046894364290736074,0.0007107176020927871,-0.0007581059348245003,-0.1555902659893036,-50.85690689086914,-7.459916114807129,17.82355499267578,1.7869974374771118,-0.8420517444610596,0.11265717446804047,,,,,,,,,
1739303443.3164165,-0.10181146678789771,1.0575978370241255,-0.3972612654623019,-1.4325375793590664,1.5213521483059063,1.1634047903823832,1.362065824071186,0.000864808653363124,-0.0021599021848215092,0.0005775105921490525,0.00043460318177138656,-0.0014528781236392953,0.0007870761478884325,-0.0007378007123221105,-0.1793939769268036,-50.82913589477539,-7.483719825744629,17.79975128173828,1.8007303476333618,-0.8484604358673096,0.11265717446804047,,,,,,,,,
1739303443.3273702,-0.10181146971089641,1.0576042523825082,-0.39726091835479327,-1.4325400686318142,1.5213523170947938,1.1634049354310572,1.3620665228254263,4.084836515370611e-05,0.0003732308269612254,-1.590577070873726e-05,0.00048766755775290593,-0.0005358680968674573,0.0008405945622052644,-0.0017966887750655255,-0.1793939769268036,-50.88071060180664,-7.459916114807129,17.79975128173828,1.7741800546646118,-0.8420517444610596,0.10624848306179047,,,,,,,,,
1739303443.3374388,-0.10180923263606148,1.0576062831888662,-0.3972583404832565,-1.4325421171287733,1.521353174991187,1.1634081310932862,1.36206335045782,0.001080495422033382,0.00038193909825621846,0.0012218971725978846,0.00014697408946084576,-0.0020861484662921914,0.001096703116084362,8.620778317295778e-05,-0.2071649730205536,-50.90848159790039,-7.483719825744629,17.82355499267578,1.7934061288833618,-0.8420517444610596,0.09343110024929047,,,,,,,,,
1739303443.3483505,-0.10181318027896155,1.0576042853545107,-0.3972631783461069,-1.4325438639045913,1.5213558528133047,1.1634035791285104,1.3620629428604223,-0.0010709972574491733,0.0009445787715562891,0.00015667777953936462,-0.0008471572433065098,0.0003184657954294104,-0.0011049283258265233,0.00047299387027325114,-0.1555902659893036,-50.88071060180664,-7.459916114807129,17.84735870361328,1.7677713632583618,-0.8420517444610596,0.13279877603054047,,,,,,,,,
1739303443.3583577,-0.10181146667989634,1.057605043549234,-0.39726113184908535,-1.4325394170448147,1.5213539724511562,1.1634067007921878,1.3620665421911606,-0.000438227172494683,-0.0005889955678297744,0.0006992790005820341,0.0001333953996691545,-0.0011922888794079869,-0.00018897904573812047,0.0001702410022463606,-0.1793939769268036,-50.93228530883789,-7.459916114807129,17.79975128173828,1.7869974374771118,-0.8420517444610596,0.10624848306179047,,,,,,,,,
1739303443.3684173,-0.10181276593036126,1.0576055601404601,-0.3972640128479969,-1.4325420925497279,1.5213517626970416,1.1634035351747698,1.3620672205706068,-0.0015182509253229713,0.0007324802324284304,0.0002064864555173982,-0.0010570818615042658,-0.0008197994510116053,-0.0014613029144502796,-8.726444454105922e-05,-0.1317865550518036,-50.90848159790039,-7.436112403869629,17.82355499267578,1.7934061288833618,-0.8420517444610596,0.07328949868679047,,,,,,,,,
1739303443.380455,-0.10181530134220286,1.057604520392208,-0.3972661562386047,-1.4325379544476282,1.521353177638813,1.1634050502796607,1.362063443525129,-0.0011692533742236175,-0.0004166236386520223,-0.0009118082854218856,0.0008222169839174825,0.0007494629154223547,-0.00035502734043399133,-0.000992916536189737,-0.1555902659893036,-50.88071060180664,-7.436112403869629,17.79975128173828,1.7934061288833618,-0.8548691272735596,0.13279877603054047,,,,,,,,,
1739303443.392445,-0.10181317916861275,1.057606403508017,-0.39726067833111717,-1.432540301053912,1.5213539329919576,1.1634038755747278,1.3620697150997834,-0.00029980925867512435,-0.00024464733179378425,0.002297514340649772,0.0005086969641552382,-5.597940850136327e-05,-0.0016853955635294851,0.0017294764791026655,-0.1555902659893036,-50.90848159790039,-7.483719825744629,17.79975128173828,1.7869974374771118,-0.8420517444610596,0.07969819009304047,,,,,,,,,
1739303443.4034271,-0.10181314427840418,1.0576054853001107,-0.39726327517223803,-1.4325421180750222,1.5213523033512655,1.163402777300016,1.362067339529246,-0.00019158556943703407,4.732849317845415e-05,0.0009062702217295146,-0.00041484013015809934,-0.0002466358399766177,-0.0011089129087453813,0.0006429388288617025,-0.1555902659893036,-50.90848159790039,-7.459916114807129,17.82355499267578,1.8007303476333618,-0.8356430530548096,0.09983979165554047,,,,,,,,,
1739303443.4153433,-0.10181492095114246,1.0576023567459054,-0.39726328435431846,-1.4325403098882612,1.5213565082193803,1.1634028034633288,1.3620704610798646,-0.0017573475423584787,-0.0010148495759747264,-0.0009999171682228334,0.0006340324416162575,0.0010574586600715704,-0.0013395041690990946,0.0013643682893305308,-0.1317865550518036,-50.88071060180664,-7.459916114807129,17.79975128173828,1.7741800546646118,-0.8356430530548096,0.07328949868679047,,,,,,,,,
1739303443.4254363,-0.10180734294821205,1.0576043763221246,-0.3972669479708311,-1.4325363843873253,1.5213539332132764,1.1634038881723603,1.3620670116119633,0.0005128338909831465,-0.000398363609045232,-0.0014414910406521143,0.001705780359070482,0.0008481029537498521,0.0002150205304286106,-0.0004030825110249937,-0.2071649730205536,-50.90848159790039,-7.436112403869629,17.77594757080078,1.7869974374771118,-0.8420517444610596,0.09343110024929047,,,,,,,,,
1739303443.4364789,-0.10181317929662816,1.0576055316928101,-0.39726219621970676,-1.4325403350708918,1.5213550440800825,1.163408216114089,1.3620641997075809,0.0001825774624058255,0.0002140684387129054,-0.0013193311345635079,5.142812272634098e-05,0.0010016165930455013,-0.00011482419888659043,-0.0008460824376230408,-0.1555902659893036,-50.90848159790039,-7.436112403869629,17.79975128173828,1.7805887460708618,-0.8548691272735596,0.12639008462429047,,,,,,,,,
1739303443.4474454,-0.10180938913798297,1.0576028112508207,-0.39726043670133626,-1.4325421170252988,1.5213531755492098,1.1634050372694136,1.3620688429573617,0.0005593063313794735,-0.0002404801287856196,0.001024570475703989,-0.00020556833742285191,-0.00034228214209374146,0.00019886677580968425,7.95653302525433e-05,-0.2071649730205536,-50.85690689086914,-7.459916114807129,17.82355499267578,1.7934061288833618,-0.8548691272735596,0.08610688149929047,,,,,,,,,
1739303443.459372,-0.10181489182891013,1.057605564773189,-0.39726291083839455,-1.4325376343679976,1.5213539332072945,1.1634035219313124,1.3620634033158383,-0.0005319879228525904,0.00048237160698076404,0.00015856666344576953,0.001487630974262122,0.0002593003335219484,-0.0013013733295841863,-0.00012773908881107978,-0.1317865550518036,-50.90848159790039,-7.436112403869629,17.77594757080078,1.7869974374771118,-0.8420517444610596,0.13279877603054047,,,,,,,,,
1739303443.469451,-0.10181178250784348,1.0576065226573992,-0.39726403339358113,-1.4325400280154585,1.521351494564217,1.1634053391756847,1.3620640771687456,-0.0003649224186741265,0.0007257846020497956,0.0001011748865492768,0.0007351937874068708,-0.0006892801439769009,-0.000908616789518081,4.1395924324198256e-05,-0.1793939769268036,-50.90848159790039,-7.436112403869629,17.79975128173828,1.7805887460708618,-0.8484604358673096,0.09983979165554047,,,,,,,,,
1739303443.4814172,-0.10181317931041116,1.057604138513354,-0.3972611565536009,-1.4325421176184443,1.5213546908493294,1.1634073653439814,1.3620668518881125,-0.001017793808238133,-0.0003670256892955638,0.00042399275533715956,-0.00048519879649945206,0.0009732607551803888,0.002585835111819537,0.0017611367908009603,-0.1555902659893036,-50.90848159790039,-7.483719825744629,17.82355499267578,1.7805887460708618,-0.8612778186798096,0.07328949868679047,,,,,,,,,
1739303443.492378,-0.10181146689615693,1.0576064152651832,-0.39726293117129335,-1.4325357211324914,1.5213538939614377,1.1634035218804317,1.3620697212180577,-0.0004246175253116418,-0.00014595948854110072,-0.0007913439823014819,0.0013082084326073917,-0.0002925399433300054,0.0001941512918818945,0.0026932436278992063,-0.1793939769268036,-50.90848159790039,-7.459916114807129,17.77594757080078,1.7869974374771118,-0.8420517444610596,0.07969819009304047,,,,,,,,,
1739303443.504458,-0.10181317045206711,1.057604418793873,-0.39726325385844014,-1.4325385526000858,1.5213532785008288,1.1634035218774768,1.3620624167382778,0.0002939168960978802,-0.0004449847983663217,0.0005442893386286714,0.0009138222623254395,-0.0002938140811759791,-0.0005916472239579037,-0.0020312002660741657,-0.1555902659893036,-50.88071060180664,-7.459916114807129,17.77594757080078,1.7805887460708618,-0.8420517444610596,0.14012299478054047,,,,,,,,,
1739303443.515468,-0.10181317930861224,1.0576025738187829,-0.397259270759628,-1.432543798292964,1.521354690864715,1.163404279537555,1.3620691849197202,0.00013322863000986008,-0.000878944633369015,0.0008880377249583151,-0.0005207805785992081,0.0007509398640998216,0.00041340559515021084,-0.0006655658974176411,-0.1555902659893036,-50.85690689086914,-7.483719825744629,17.84735870361328,1.7805887460708618,-0.8484604358673096,0.07969819009304047,,,,,,,,,
1739303443.526527,-0.10181488891317492,1.0576028122362153,-0.39726142001157255,-1.4325402587280978,1.5213546860222051,1.1634085180900724,1.3620680972414894,-0.0007685775122202323,-0.00022877858285881396,-0.0001381836785181264,0.0011118966123556627,0.00011213670271236346,0.0015319838799549123,0.0011285260504134184,-0.1317865550518036,-50.85690689086914,-7.483719825744629,17.79975128173828,1.7805887460708618,-0.8484604358673096,0.09343110024929047,,,,,,,,,
1739303443.5373416,-0.10181146581581953,1.0576045247582924,-0.3972619953158709,-1.4325421171298465,1.5213519564372466,1.1634044147954896,1.3620728408078053,-0.0002707981173901779,0.0014007853950642262,-0.00010645193233142065,0.00039381230869055267,-0.0012577246341873734,0.0011378270228921872,0.0019129024444493534,-0.1793939769268036,-50.88071060180664,-7.436112403869629,17.82355499267578,1.8007303476333618,-0.8484604358673096,0.05314789339900017,,,,,,,,,
1739303443.5473757,-0.10180946884702818,1.0576028001367554,-0.39725909479070814,-1.4325403353980521,1.5213523081904516,1.1634092757524415,1.3620695827384524,-0.0004463082536616188,0.0011355039613865784,0.0006454652575122934,0.0006100956441400052,6.0111807516153074e-05,0.0022525909126066917,0.0003780335099597814,-0.2071649730205536,-50.85690689086914,-7.511490821838379,17.79975128173828,1.8007303476333618,-0.8548691272735596,0.07969819009304047,,,,,,,,,
1739303443.5573807,-0.10181034477663291,1.057605603457935,-0.3972614896830505,-1.4325402587636689,1.5213531755471914,1.163405812372095,1.3620728581875001,1.5661935251167348e-05,0.0003679867324488117,0.0007459697886038353,0.00023315754100713498,0.0003096147762484227,0.00023834582179281194,0.0012860847740488411,-0.1555902659893036,-50.93228530883789,-7.483719825744629,17.79975128173828,1.7934061288833618,-0.8612778186798096,0.05314789339900017,,,,,,,,,
1739303443.5674014,-0.10181146673989466,1.0576042479214176,-0.39726013476616473,-1.4325418883805492,1.5213531755472158,1.1634042795378516,1.3620704789585023,-0.0009728109580954909,-0.00033221254627548846,0.0005257314135793794,0.00024272958859817016,0.000776239885476397,-0.0003515761410264637,0.0009414014077264125,-0.1793939769268036,-50.88071060180664,-7.459916114807129,17.82355499267578,1.7934061288833618,-0.8484604358673096,0.07328949868679047,744,740,719,39.871,0,0
1739303443.5774174,-0.10181146581583518,1.0576007073470604,-0.3972630218443654,-1.4325402985466795,1.5213581325139554,1.1634050371976334,1.3620712236781294,6.333606064535535e-05,-0.001002533089754312,-0.0006976103740851728,-0.00029002026094799535,0.0005794669160643702,-3.5413094909369244e-05,0.0026445677646776645,-0.1793939769268036,-50.82913589477539,-7.459916114807129,17.79975128173828,1.7869974374771118,-0.8548691272735596,0.06596527993679047,744,738,720,39.871,0,0
1739303443.5883892,-0.1018148918293546,1.0576082348922242,-0.3972623004824115,-1.432540411091489,1.5213530449667398,1.1634049347283157,1.3620697212977733,-0.00043348887390568013,0.001655338401010269,4.5043653951781814e-05,2.4415615658813944e-06,-0.0007414816535064642,-1.7558666697846625e-05,0.0019448277887378544,-0.1317865550518036,-50.93228530883789,-7.459916114807129,17.79975128173828,1.7934061288833618,-0.8420517444610596,0.07969819009304047,747,738,719,39.979,0,0
1739303443.5987651,-0.10181489182936009,1.05760652269914,-0.3972650209055859,-1.4325438753525974,1.5213539332050832,1.1634042795614816,1.3620712911577029,-0.0007542043133529277,0.0005922463625687276,0.00020934055762740597,-0.0007041110854951793,-0.0008674294446851773,0.0006980556655132603,0.001639057712816688,-0.1317865550518036,-50.90848159790039,-7.408341407775879,17.84735870361328,1.7869974374771118,-0.8484604358673096,0.05314789339900017,747,739,719,39.871,0,0
1739303443.6093745,-0.10181215959991076,1.0576045129845353,-0.39726293004387103,-1.4325421269052614,1.5213539462892467,1.1634042796990607,1.3620684787534236,-0.00032087696751917653,-0.00058724617810302,-0.00023684275836271477,-0.0008735953461430927,0.0012530530855042652,0.00016415945908694564,3.100600784865064e-05,-0.1793939769268036,-50.88071060180664,-7.459916114807129,17.82355499267578,1.7869974374771118,-0.8484604358673096,0.08610688149929047,746,741,718,39.871,0,0
1739303443.6193783,-0.10181317932036174,1.0576028137635896,-0.3972583492751702,-1.4325385527211985,1.521352309650205,1.1634042795375577,1.362066418206328,-0.0006098965134661256,-0.0009144221256215774,0.0012593043560701518,0.0006366313250482283,-0.000668778089673448,-0.0003316104964379403,0.0010286291176427674,-0.1555902659893036,-50.85690689086914,-7.483719825744629,17.77594757080078,1.8007303476333618,-0.8484604358673096,0.07969819009304047,747,740,719,39.871,0,0
1739303443.630344,-0.10180934088890078,1.0576028122375698,-0.3972639579729551,-1.4325436682944288,1.5213539332072945,1.163403521931312,1.3620691892804213,0.00035041455468933516,-0.0016509381518042315,-0.00040379130267658727,-0.0007423712881317187,-0.0002535286036069939,-0.00012482641547904996,-0.00016445973088567505,-0.1793939769268036,-50.85690689086914,-7.408341407775879,17.84735870361328,1.7869974374771118,-0.8420517444610596,0.07969819009304047,748,739,720,39.871,0,0
1739303443.6403718,-0.10181317927262662,1.0576065226991456,-0.39726471314691725,-1.4325395445901201,1.5213521657485092,1.1634027779453737,1.3620675703114302,-0.0004108081235272884,0.0004945834970479826,-0.0007476275563093181,0.0016059184019179757,-0.001706411470382249,0.00016032610794386524,-0.0009458886005297099,-0.1555902659893036,-50.90848159790039,-7.436112403869629,17.79975128173828,1.8007303476333618,-0.8356430530548096,0.09343110024929047,751,739,719,39.979,0,0
1739303443.6514049,-0.10181067941789862,1.0576015040062998,-0.3972608828918771,-1.4325418884823615,1.5213539327219654,1.1634035218775542,1.362069719805591,0.0008773532925832774,-0.00020685511357492218,0.0003442121189874536,7.31174325970519e-05,0.0005943798692991237,-0.00029409034459715756,0.0006826231626295254,-0.1793939769268036,-50.82913589477539,-7.459916114807129,17.82355499267578,1.7869974374771118,-0.8420517444610596,0.07969819009304047,748,742,719,39.871,1,0
1739303443.6623423,-0.1018114550107054,1.0576025729467078,-0.397259067575441,-1.4325384506805257,1.5213539332072916,1.1634035218774768,1.3620696001208101,-0.000734242701580319,-0.00034132891498667996,0.0007068498596189091,0.0015207872337639624,-0.0003764427955042099,-0.0010410682888531897,-0.0006671939908688769,-0.1793939769268036,-50.85690689086914,-7.511490821838379,17.77594757080078,1.7869974374771118,-0.8420517444610596,0.07969819009304047,748,740,719,39.871,0,0
1739303443.6724484,-0.10181146678769827,1.0576018933195521,-0.39725839161385873,-1.432545968257734,1.5213539550105482,1.1634035218774768,1.3620679351756504,-0.0006175605420187106,-0.0010478703581964027,0.0003221855338131138,-0.0015105549054301643,-0.0007856160407415096,0.0003390623673906041,0.0006979651030345602,-0.1793939769268036,-50.88071060180664,-7.483719825744629,17.87512969970703,1.7869974374771118,-0.8420517444610596,0.09343110024929047,746,740,719,39.871,0,0
1739303443.6834931,-0.10181052194389904,1.0576028378374922,-0.39725831714957477,-1.4325421180750177,1.5213553853041133,1.1634035223619934,1.3620642815781872,0.0004600238971923552,-0.0013641905479300017,0.0015682675162058271,-0.0005872606236331439,0.0013525746554838112,-0.0009318021931123404,-0.00186751955293684,-0.1793939769268036,-50.85690689086914,-7.483719825744629,17.82355499267578,1.7869974374771118,-0.8420517444610596,0.11265717446804047,747,740,719,39.979,1,0
1739303443.6943474,-0.10181146959755588,1.057602494346267,-0.3972621943906613,-1.432539352289359,1.5213557547128442,1.163403522038985,1.3620653765526916,-0.00012051144246905213,-0.0017621569986958343,-0.0007945982380815703,0.0007843339957898509,0.0005178576712909167,0.00010036186148012944,-0.0009940069256551035,-0.1793939769268036,-50.85690689086914,-7.436112403869629,17.79975128173828,1.7805887460708618,-0.8420517444610596,0.07969819009304047,746,741,718,39.871,2,0
1739303443.7053397,-0.10181075811891228,1.057600574895188,-0.3972618785803675,-1.432538450676272,1.5213531755532215,1.1634042795375559,1.3620590938708264,0.0001155080061410529,-0.002174714645036574,-0.0004608991534124781,0.0013956867773768705,6.737284029092993e-05,5.101505232680008e-05,-0.002955154429486232,-0.1793939769268036,-50.82913589477539,-7.436112403869629,17.77594757080078,1.7934061288833618,-0.8484604358673096,0.13279877603054047,747,738,718,39.871,0,0
1739303443.7153907,-0.10181146677589635,1.0576029237208109,-0.39725855195604726,-1.4325384506800936,1.5213543231191606,1.163403117430108,1.36206623980715,0.0006510613704999071,-0.0009431574760947402,0.0011921657919685103,0.0008209879570537761,5.744541022848046e-05,-0.00017629521176998428,-0.001412200126272022,-0.1793939769268036,-50.85690689086914,-7.483719825744629,17.77594757080078,1.7805887460708618,-0.8356430530548096,0.09983979165554047,747,739,719,39.871,0,0
1739303443.72545,-0.10180703559654611,1.057600814298596,-0.39725902146590436,-1.4325394180244408,1.521350601663903,1.1634044365269631,1.362068963619746,0.0018395092388915476,-0.0016515062982714115,0.0007832156993281434,0.0005671385944427772,-0.0008285749982380716,-3.142254072014829e-06,0.0009534394762220895,-0.2309686839580536,-50.82913589477539,-7.483719825744629,17.79975128173828,1.7869974374771118,-0.8484604358673096,0.08610688149929047,746,740,719,39.979,1,0
1739303443.736437,-0.1018132569294429,1.0576058074434083,-0.3972600956538842,-1.432543900606956,1.521350798671671,1.1634035262390137,1.362061698489913,-0.00037355031868575655,0.0002650969983712707,0.001050751524372097,-0.001511170107414135,-0.0004849989135056853,0.0006010786613180367,-0.0018741567459207385,-0.1555902659893036,-50.90848159790039,-7.459916114807129,17.84735870361328,1.8135477304458618,-0.8420517444610596,0.11998139321804047,747,740,719,39.871,1,0
1739303443.7474196,-0.10180863225633989,1.0576042745619185,-0.39725831380091825,-1.4325438242226847,1.5213562060260482,1.1634035218775012,1.3620645788683978,0.0005413556390546978,-0.0002694345046158779,0.0020079109398334826,-0.000442455620805778,0.0009923623481033063,0.0004263345077685156,-0.0015552505343387078,-0.1793939769268036,-50.88071060180664,-7.483719825744629,17.84735870361328,1.7677713632583618,-0.8420517444610596,0.11998139321804047,750,738,718,40.088,1,0
1739303443.7584343,-0.10181489080929532,1.0576036616719593,-0.39726471303892685,-1.4325401058085105,1.5213539159261944,1.1634050371976334,1.362066564535887,-0.00099273649265654,0.00013530826554808227,0.0002913444321271519,-9.577216339033093e-05,0.0005184090847152767,1.2605211986124162e-05,2.8430360870593686e-05,-0.1317865550518036,-50.90848159790039,-7.436112403869629,17.79975128173828,1.7869974374771118,-0.8548691272735596,0.10624848306179047,748,740,720,39.871,0,0
1739303443.7684767,-0.10180939011003899,1.0576035796760728,-0.397262304370142,-1.4325403098869651,1.5213517626962794,1.1634035218774768,1.3620631838185322,0.0015514976621513025,-0.00018017108810725816,-0.0007076668771805585,0.00017987122382528048,-0.0020502834205228192,0.0003507446169948558,-0.0011405470919330011,-0.2071649730205536,-50.88071060180664,-7.459916114807129,17.79975128173828,1.7934061288833618,-0.8420517444610596,0.10624848306179047,747,738,720,39.871,1,0
1739303443.779419,-0.10181317801210213,1.0576045247529573,-0.39726258686436416,-1.432540326894655,1.52135364648952,1.1634035218774768,1.3620720846184338,0.00010653606142007094,-0.0009105750558796608,-0.0007666957260885894,0.00029106388760061154,0.0008085246413417385,7.025605311955838e-05,0.0024087710051716718,-0.1555902659893036,-50.88071060180664,-7.436112403869629,17.79975128173828,1.7934061288833618,-0.8420517444610596,0.05955658480525017,747,738,720,39.979,2,0
1739303443.7903433,-0.1018114667878904,1.0576072114639294,-0.39725759854918063,-1.4325403353980202,1.5213539201280006,1.1634011406600877,1.3620691938776497,5.434784017194466e-05,0.0017456913408456865,0.0006021505130406829,-3.7507688118075967e-05,0.0016220399050555657,-0.0007504151723193091,0.0009411074384927339,-0.1793939769268036,-50.90848159790039,-7.483719825744629,17.79975128173828,1.7869974374771118,-0.8219101428985596,0.07969819009304047,747,738,715,39.871,1,0
1739303443.8004596,-0.10181223446463024,1.057602811268079,-0.39726104033777704,-1.432542118075087,1.5213531755469945,1.1634050371976334,1.3620609428074215,-0.0009486208041961206,-0.0002412228684532669,-4.7931666197266324e-05,-8.389021602150877e-05,5.66329301094178e-05,0.00013016759528821904,-0.001533495493429506,-0.1555902659893036,-50.85690689086914,-7.459916114807129,17.82355499267578,1.7934061288833618,-0.8548691272735596,0.12639008462429047,746,737,718,39.979,1,0
1739303443.8114336,-0.10181146678256404,1.057606591052639,-0.39725831315820986,-1.432540335083132,1.5213537489668132,1.1634042809911052,1.3620688429389765,0.0002876190430801429,0.0005700604303566384,2.739275744103578e-05,-9.117196111143379e-05,0.0004049202103352838,-0.00037404699278592503,0.0008139954664917555,-0.1793939769268036,-50.88071060180664,-7.483719825744629,17.79975128173828,1.7805887460708618,-0.8484604358673096,0.08610688149929047,745,736,719,39.871,1,0
1739303443.821446,-0.10181306557740658,1.0576072030535264,-0.3972624585879499,-1.4325364729311776,1.5213496433722646,1.1634035218775505,1.3620644638957384,0.0009385181214462677,0.0013460550522890456,-0.00041552779636693676,0.001954261659757625,-0.0007737059216823157,-0.0001933520229953332,-0.0019902577222902017,-0.1555902659893036,-50.90848159790039,-7.459916114807129,17.74817657470703,1.7934061288833618,-0.8420517444610596,0.09343110024929047,747,738,720,39.871,0,0
1739303443.831458,-0.10181097467199,1.0576065194324982,-0.3972649818911082,-1.4325403352580965,1.5213557504855628,1.16340503768215,1.3620712850189707,0.0004243630456727541,-8.166638876535369e-05,-0.001966644832459842,0.00029794910413766024,0.0016034877804335004,0.00082650614724104,0.0006962520887370938,-0.1555902659893036,-50.90848159790039,-7.408341407775879,17.79975128173828,1.7805887460708618,-0.8548691272735596,0.06596527993679047,748,739,719,39.871,0,0
1739303443.8414943,-0.10181105326428934,1.057606442245084,-0.39725929689668416,-1.4325421152406617,1.5213546908853173,1.1634027642174063,1.3620721025152738,-6.029993640205641e-05,-0.00037737635804626897,0.000925335940461673,-0.0005648568659228505,0.0005025906084320907,-0.0006091906283376238,0.002815009780005118,-0.1555902659893036,-50.90848159790039,-7.483719825744629,17.82355499267578,1.7805887460708618,-0.8356430530548096,0.05955658480525017,750,737,719,39.979,0,0
1739303443.8524115,-0.10181145507515311,1.0576045248628168,-0.3972600955114298,-1.432542106737379,1.521353893961438,1.163404279537555,1.36207043806936,4.16542216404488e-06,-0.0002807275831464275,7.717835916245378e-05,-0.0009742577499118874,0.0005895102456925063,-7.046819564966372e-05,0.0006146466823540355,-0.1793939769268036,-50.88071060180664,-7.459916114807129,17.82355499267578,1.7869974374771118,-0.8484604358673096,0.07328949868679047,747,738,720,39.762,1,0
1739303443.863341,-0.1018114667878316,1.0576054516146072,-0.39726046497351936,-1.432540258763605,1.521351511898928,1.1634035218774768,1.362061679439785,2.56878226086079e-05,0.0013519538541399878,0.00012244843483950077,0.0006826508642985122,-0.000554372421893071,-0.0011466101565277083,-0.0034939139187188705,-0.1793939769268036,-50.88071060180664,-7.483719825744629,17.79975128173828,1.7805887460708618,-0.8420517444610596,0.14653168618679047,746,738,720,39.979,1,0
1739303443.8733785,-0.10181316764388819,1.057604601334802,-0.3972583122810701,-1.4325421180711935,1.521352331291729,1.1634027642173983,1.3620704789513955,-0.001145235450996822,0.00012047926678209988,-0.0007836326193433006,-0.0005373998321645024,-0.00036294194094789207,-0.0004196713683406449,0.0006911678596024098,-0.1555902659893036,-50.88071060180664,-7.483719825744629,17.82355499267578,1.8007303476333618,-0.8356430530548096,0.07328949868679047,746,739,719,39.871,0,0
1739303443.8843749,-0.1018131789845425,1.0576044024421727,-0.39726009943012086,-1.4325439007521061,1.5213554485275733,1.1634035218774768,1.3620657710697266,-9.070608239284666e-05,0.0017331937535361912,9.913653613966678e-05,-0.0013626033761507202,0.0008938732083333229,-0.0001971892280321897,-0.001644847540632564,-0.1555902659893036,-50.90848159790039,-7.459916114807129,17.84735870361328,1.7741800546646118,-0.8420517444610596,0.11265717446804047,746,739,720,39.871,1,0
1739303443.8944664,-0.1018073679589518,1.0576085932331631,-0.39726396963751226,-1.4325421446750564,1.521354686506722,1.163404279537555,1.3620658225533657,0.002518072015171517,0.002437488123761878,-0.001303603645958308,-0.000697989743075072,0.0014449257589292457,7.03383569723554e-05,-0.0018711655468290644,-0.2071649730205536,-50.90848159790039,-7.408341407775879,17.82355499267578,1.7805887460708618,-0.8484604358673096,0.11265717446804047,746,740,719,39.871,0,0
1739303443.9054346,-0.10181247066377033,1.0576006664820377,-0.3972647729925699,-1.4325400517808848,1.5213515519360457,1.163404279537555,1.3620654493088709,6.3890253181117e-05,-0.0005801020028566611,-0.002250573801662451,4.9348912741780054e-05,-0.0005150388341201536,0.00024346115010361218,-0.0012559612094121932,-0.1555902659893036,-50.85690689086914,-7.408341407775879,17.82355499267578,1.8071390390396118,-0.8484604358673096,0.11265717446804047,746,738,719,39.979,1,0
1739303443.9163806,-0.10180946869903519,1.0576045208215938,-0.39726262505492155,-1.432542119044569,1.5213531760317325,1.1634035218774768,1.3620664629090904,0.0011086863942767404,-0.00029660110483343795,-0.0007906154011497791,-0.000634488207814213,0.001205682804279763,-0.00024363804900229616,0.0008683655349892459,-0.2071649730205536,-50.88071060180664,-7.436112403869629,17.82355499267578,1.7934061288833618,-0.8420517444610596,0.07969819009304047,745,739,719,39.871,1,0
1739303443.9273474,-0.1018124706756274,1.0576034224742266,-0.397260133752951,-1.4325421180751035,1.521357059793882,1.1634046839849237,1.3620668568176475,0.0001043891735506286,-1.974280811931157e-05,0.0008690485158068857,7.826426488448875e-05,-0.00042594156113746396,-0.00024172959281067315,-0.0010663863078324708,-0.1555902659893036,-50.85690689086914,-7.459916114807129,17.82355499267578,1.7869974374771118,-0.8548691272735596,0.07328949868679047,746,738,720,39.979,1,0
1739303443.937371,-0.10181317638044297,1.0576083117596315,-0.39726396088958227,-1.4325439370545234,1.5213546905973105,1.1634027642114164,1.3620666448724852,-0.0005568238392505802,0.001292588105524778,-0.001200014206445409,-0.0010936254200769734,0.0006190698740762103,-0.00016368921154122612,-0.0015967932136176062,-0.1555902659893036,-50.93228530883789,-7.408341407775879,17.84735870361328,1.7805887460708618,-0.8356430530548096,0.09343110024929047,746,739,719,39.871,1,0
1739303443.9474404,-0.10181317930861238,1.0576028122379935,-0.3972619044285769,-1.4325403363794194,1.5213504526378652,1.1634050371976334,1.3620658062118693,-0.00039861840205822016,-0.00023052002039374958,0.00046193853340606374,-0.0001274508150009607,-0.00191148604815547,0.0003109861635599214,9.460148863429561e-05,-0.1555902659893036,-50.85690689086914,-7.436112403869629,17.79975128173828,1.7805887460708618,-0.8548691272735596,0.11265717446804047,747,739,719,39.871,1,0
1739303443.957457,-0.10181146678789771,1.0576045247582924,-0.3972629426751177,-1.432543899807315,1.5213507942580522,1.1634050371976334,1.3620633839476484,0.00012916192759987184,0.0005527308881668427,5.9166545030376065e-05,-0.0005208849085809643,-6.083635560988983e-05,5.472798420947121e-05,-0.0019898019579955416,-0.1793939769268036,-50.88071060180664,-7.459916114807129,17.84735870361328,1.8135477304458618,-0.8548691272735596,0.13279877603054047,745,739,719,39.979,0,0
1739303443.9683816,-0.10181146581583599,1.0576045247582924,-0.3972585490880724,-1.4325403353980521,1.5213535625519805,1.1634050371976334,1.3620635744371272,0.000456750863586203,-9.42425413250153e-05,0.0014917891255902998,0.0009382159296119172,-0.000993515730111888,0.0003667003364106885,-0.0005371036011695962,-0.1793939769268036,-50.88071060180664,-7.483719825744629,17.79975128173828,1.7869974374771118,-0.8548691272735596,0.09343110024929047,745,742,718,39.979,1,0
1739303443.979449,-0.10181105340963008,1.0576062815191196,-0.3972622300448556,-1.4325385527093846,1.5213522660966141,1.163403521715971,1.3620624973814894,0.00023728768097523633,-0.0001960614784493483,-0.00039327730738529087,0.0010846586538095925,-0.0014743543873833188,0.0002773184411674664,-0.0023354129702710265,-0.1555902659893036,-50.88071060180664,-7.459916114807129,17.77594757080078,1.8007303476333618,-0.8420517444610596,0.09983979165554047,742,742,718,39.979,1,0
1739303443.9914148,-0.10181146630786723,1.057602149085687,-0.3972608129354811,-1.432542118075087,1.5213531755469702,1.163404279537554,1.3620649537045024,0.00023006463466635076,-0.0012025468155494746,0.00048271196003468395,-0.00017344480889946962,-0.00021668124176947045,0.0004049274144074915,-0.0002970782744564172,-0.1793939769268036,-50.88071060180664,-7.459916114807129,17.82355499267578,1.7934061288833618,-0.8484604358673096,0.11998139321804047,746,742,718,39.979,0,0
1739303444.0023596,-0.101813179308628,1.0576082352154066,-0.39726195735327113,-1.4325436064081813,1.5213531755472158,1.1634035218774768,1.3620647979556575,-0.0009924683315934665,0.0007782253070927553,-6.188532486794366e-05,-0.00037154295079641636,-0.00020714309361441003,-7.61932756144303e-05,-0.00047035724228177886,-0.1555902659893036,-50.93228530883789,-7.436112403869629,17.84735870361328,1.7934061288833618,-0.8420517444610596,0.11998139321804047,746,738,720,39.871,0,0
1739303444.0123777,-0.10181489182936009,1.0576046483827406,-0.39726294202797285,-1.4325439007471212,1.5213497119358745,1.163404279537555,1.3620653767794022,-0.0009150833089499992,5.371069613430352e-05,-0.0012408774817960497,-0.0005157813053770399,0.000246233510440486,0.0003079491252560522,-0.0008125178891713682,-0.1317865550518036,-50.88071060180664,-7.459916114807129,17.84735870361328,1.7869974374771118,-0.8484604358673096,0.07969819009304047,747,739,720,39.871,2,0
1739303444.0233407,-0.10181317898460833,1.0576062833015136,-0.3972583118959154,-1.4325385527210488,1.5213553307183936,1.1634035218774768,1.3620692365143272,-0.0007102067952374072,-0.0007119798375070483,0.0006712220736431863,0.0005430248466815069,0.00033611796854212734,0.0002784126245080254,-0.001353029042755046,-0.1555902659893036,-50.90848159790039,-7.483719825744629,17.77594757080078,1.7741800546646118,-0.8420517444610596,0.07969819009304047,746,742,720,39.979,0,0
1739303444.0333457,-0.10181052194389721,1.05760281223621,-0.3972600955058695,-1.4325439007521061,1.5213556992701784,1.1634050371976334,1.3620673394161589,0.0017905840926039573,-0.0008109007177567871,0.0007769739043994346,-0.0003685130126153183,-0.0014590573181665054,0.0007247620232465916,-0.0007798480857807026,-0.1793939769268036,-50.85690689086914,-7.459916114807129,17.84735870361328,1.7869974374771118,-0.8548691272735596,0.09983979165554047,746,746,719,39.871,0,0
1739303444.0433884,-0.10181146673989466,1.0576028887669817,-0.3972600955058747,-1.4325403353980681,1.5213515520796308,1.163401898320166,1.3620582137613693,-0.00018131358450384935,0.00013401359919536232,0.0010915913177322438,0.0005673797837862907,-0.0004335361797857671,-0.0006409861023289598,-0.001846756169773351,-0.1793939769268036,-50.85690689086914,-7.459916114807129,17.79975128173828,1.8071390390396118,-0.8283188343048096,0.14012299478054047,746,740,718,39.979,1,0
1739303444.0534093,-0.10181145825611267,1.0576019439113022,-0.39726104909842896,-1.432546046519318,1.5213546850531723,1.1634035218774768,1.362065133562073,-0.000566424994980201,-0.001129008375489538,-0.0008475152526638102,-0.0015033883968300393,0.0010758974446434273,-0.0002556121296799933,-0.0023596216597125963,-0.1793939769268036,-50.85690689086914,-7.459916114807129,17.84735870361328,1.7805887460708618,-0.8420517444610596,0.10624848306179047,746,737,719,39.979,1,0
1739303444.0638394,-0.1018148918292156,1.057602846235932,-0.39726187819904296,-1.4325403354344068,1.5213531750626008,1.163404279537555,1.3620647855278154,-0.0006514230965186189,-0.0005770283898285322,-0.0005565414861980393,0.0002532003039267275,0.00047826099787599174,0.000453286709796501,-3.4964176986874225e-05,-0.1317865550518036,-50.85690689086914,-7.436112403869629,17.79975128173828,1.7934061288833618,-0.8484604358673096,0.09343110024929047,746,738,718,39.871,1,0
1739303444.0743535,-0.10180944260137802,1.0576045247584842,-0.3972618781828939,-1.4325432119873223,1.521356677083971,1.1634027642173983,1.362064943394281,0.001147480828328643,-0.00041441967347604855,-6.654474376573135e-05,-0.0008560528022417855,0.002166676589253943,-0.0003281251940366678,0.0003097721707320904,-0.2071649730205536,-50.88071060180664,-7.436112403869629,17.84735870361328,1.7677713632583618,-0.8356430530548096,0.11998139321804047,746,738,718,39.871,0,0
1739303444.0843997,-0.10181075523826906,1.0576028122375614,-0.39725794973866285,-1.432540338329843,1.5213539312772022,1.1634042838982057,1.362066132455425,0.0009382746229319464,-0.0014797345358680367,0.0005851419514655575,0.0004841988019182261,0.00047858440279874195,0.00010639971717986296,-0.001135569908638098,-0.1793939769268036,-50.85690689086914,-7.459916114807129,17.79975128173828,1.7869974374771118,-0.8484604358673096,0.07328949868679047,745,739,717,39.871,1,0
1739303444.09534,-0.10180974952463169,1.0576028289170503,-0.3972639579364106,-1.4325431512223126,1.5213531755471834,1.1634038238556015,1.3620692340311453,0.0002945727457172048,-0.0013399485094081913,-0.0013851248150620647,-0.0007626244228420898,-0.00042685882118085943,0.00011329293939525177,0.00038289208333075974,-0.2071649730205536,-50.85690689086914,-7.408341407775879,17.82355499267578,1.7934061288833618,-0.8356430530548096,0.07969819009304047,746,739,716,39.871,1,0
1739303444.1054113,-0.10180915098761321,1.0576013564951594,-0.39726009842205934,-1.4325403325811414,1.5213523096499835,1.1634057948756567,1.3620702567319152,0.0017898009877371152,-0.001980540454749725,0.00015238099656381774,0.00032797151643889494,-0.0002665716354887159,0.0005601200158764958,0.0005807827865982493,-0.2071649730205536,-50.85690689086914,-7.459916114807129,17.79975128173828,1.8007303476333618,-0.8612778186798096,0.06596527993679047,745,740,717,39.871,1,0
1739303444.1154308,-0.10180775632451913,1.0576045275844976,-0.3972600964779529,-1.432539646633268,1.5213566657950295,1.163404279537555,1.3620693525723775,0.001429372734497253,-0.0007961566035562207,-9.653699429654629e-05,0.00027572971580449337,0.0024983200671806023,-0.00031971592928176854,-8.089205856320929e-05,-0.2309686839580536,-50.88071060180664,-7.459916114807129,17.79975128173828,1.7741800546646118,-0.8484604358673096,0.07969819009304047,747,739,717,39.979,0,0
1739303444.126399,-0.10181310057162901,1.0576028150720003,-0.39726009550588026,-1.4325424811613918,1.5213554885712433,1.163404580422456,1.3620659794677377,6.7764100587644005e-06,-0.0011796817353580732,0.00030504563873456247,0.0003428169714811226,-8.86147458524797e-05,0.0003824281332654423,-0.0004656270911260967,-0.1555902659893036,-50.85690689086914,-7.459916114807129,17.79975128173828,1.8007303476333618,-0.8484604358673096,0.07969819009304047,746,740,718,39.871,1,0
1739303444.136457,-0.10181317930729548,1.0576028884399808,-0.3972625868158928,-1.432540258069195,1.5213524276028945,1.1634035218825722,1.3620644726122932,-0.00013421807137409223,-0.00043129247295166915,-0.001020565869501857,6.924643153501651e-06,0.00027220888828227225,0.0006229126653549458,-0.0005984418888200758,-0.1555902659893036,-50.85690689086914,-7.436112403869629,17.79975128173828,1.8007303476333618,-0.8420517444610596,0.09343110024929047,746,738,719,39.871,1,0
1739303444.147414,-0.10180946776697605,1.0576027450476313,-0.397260095509875,-1.4325420670913755,1.5213539722923113,1.1634027642173983,1.3620661794131417,-0.00047632058559202346,-0.0002477254257311427,-0.0003312463428774414,-0.00018374644267002855,0.0002986498052267243,0.0002642170427868308,-0.0007551046067252479,-0.2071649730205536,-50.85690689086914,-7.459916114807129,17.82355499267578,1.7869974374771118,-0.8356430530548096,0.10624848306179047,745,738,719,39.871,1,0
1739303444.1584053,-0.10181146678787942,1.0576079968001597,-0.39726187807387764,-1.4325421445651767,1.521351967635674,1.1634042790530381,1.3620618558240776,-0.00016016573827479336,0.0005763783620085116,-0.0001595840211524129,-0.000245096406323013,-0.0005729855207933215,0.00026894513249513247,-0.002393300469181884,-0.1793939769268036,-50.93228530883789,-7.436112403869629,17.82355499267578,1.7677713632583618,-0.8484604358673096,0.10624848306179047,746,738,719,39.871,0,0
