IITGN-Robotics/Franka_IITGN_ROBOTICS/franka_ros/franka_iitgn/data01/os_001.csv
time,fr3_joint1_pos,fr3_joint2_pos,fr3_joint3_pos,fr3_joint4_pos,fr3_joint5_pos,fr3_joint6_pos,fr3_joint7_pos,fr3_joint1_vel,fr3_joint2_vel,fr3_joint3_vel,fr3_joint4_vel,fr3_joint5_vel,fr3_joint6_vel,fr3_joint7_vel,fr3_joint1_eff,fr3_joint2_eff,fr3_joint3_eff,fr3_joint4_eff,fr3_joint5_eff,fr3_joint6_eff,fr3_joint7_eff,flexpin1,flexpin2,flexpin3,Force,ContactMic,ContactMic_gt
1739302283.964948,-0.12966005959323199,1.0506811049437688,-0.3584659164556826,-1.4317646891795246,1.4961235983024779,1.1820459002010233,1.3688073896546646,-0.0005630056679130649,-0.0004240049043501852,0.000825342951797393,0.001048893579873447,0.0006909867414503374,0.0008185984537638463,-0.0017698447797278435,-0.5285150408744812,-51.44406509399414,-6.749772071838379,18.36707305908203,2.0360207557678223,-0.6772568225860596,0.15294037759304047,,,,,,,,,
1739302283.97587,-0.12966006840661334,1.0506835096067122,-0.35846733566440714,-1.4317644055621686,1.496123958871064,1.1820458958410784,1.3688139456866735,-0.00029167449844001627,0.0011056791573872192,0.0009550351556560647,0.0006563498306796551,0.0011692060522632964,0.0005711392721772514,-0.0011346938514765167,-0.5285150408744812,-51.44406509399414,-6.749772071838379,18.39087677001953,2.0360207557678223,-0.6772568225860596,0.11998139321804047,,,,,,,,,
1739302283.985936,-0.1296580621105189,1.0506777302874337,-0.358470465853013,-1.4317693328444772,1.4961240193611944,1.1820436228608189,1.36881447042741,0.00037890271765526873,-0.00036684785029571763,-0.002305887063192836,-0.0006147393479577546,0.0003291576042228078,-0.0004619401735987594,0.0012900589164388965,-0.5562860369682312,-51.39249038696289,-6.722001075744629,18.39087677001953,2.0232033729553223,-0.6580307483673096,0.11998139321804047,,,,,,,,,
1739302283.9978924,-0.12965814110678908,1.0506794443149328,-0.3584665863389818,-1.4317685516517598,1.4961236010585115,1.1820436228608189,1.3688105555768275,8.158851094933054e-05,-0.0014403645668750963,-0.00031564940471142224,-0.000654209701579964,-0.0003786488642326816,-0.000538278801157381,-0.00030421737718435115,-0.5562860369682312,-51.42026138305664,-6.773575782775879,18.41864776611328,2.0360207557678223,-0.6580307483673096,0.15294037759304047,,,,,,,,,
1739302284.0089266,-0.12966105642907497,1.0506748250759268,-0.35846589720451083,-1.4317796925606365,1.4961273529251764,1.1820123573812336,1.3688097145812848,-0.0009104318493971636,-0.0009593280410448043,-0.0012563217024038355,-0.001016126113373158,0.0004212341386561056,-0.00473267762484882,-0.0003088286592804809,-0.3817255198955536,-51.26553726196289,-6.698197364807129,18.16870880126953,1.8465067148208618,-0.8219101428985596,0.11998139321804047,,,,,,,,,
1739302284.0189505,-0.1296551968281562,1.050669722268681,-0.35846098875594534,-1.4318023615471924,1.4961246509441242,1.1819564029853402,1.3688073548669017,0.0011320156787595465,-0.00010212950831433687,0.001201241818964471,-0.001483712418836681,-0.001124996173100286,-0.005034727089333069,-0.0006660942104844784,-0.3301508128643036,-51.16238784790039,-6.722001075744629,18.14490509033203,1.8007303476333618,-0.8356430530548096,0.12639008462429047,,,,,,,,,
1739302284.0298843,-0.12965419641323733,1.0506758194217347,-0.3584644453665861,-1.431831495166887,1.4961235802224642,1.181931992386677,1.3687986494540598,6.946520964516418e-05,0.0009058276210801362,0.0010626018845412723,-0.0015725480588646794,0.0010747976082760705,-0.002213278051457582,-0.001653127206922564,-0.2547723948955536,-51.23776626586914,-6.674393653869629,18.19647979736328,1.8007303476333618,-0.8484604358673096,0.13279877603054047,,,,,,,,,
1739302284.0399501,-0.12965103373106085,1.050686032070046,-0.3584566928831161,-1.431849286967147,1.4961246982129102,1.1819200084349146,1.368798471681447,-0.0007399807901517139,0.0017461538070213513,0.0006243154684194348,-0.0016594137216848167,0.0007793327572904707,-0.0012399203492012365,0.00025501192578739,-0.2547723948955536,-51.34091567993164,-6.749772071838379,18.22028350830078,1.7869974374771118,-0.8283188343048096,0.09343110024929047,,,,,,,,,
1739302284.0509613,-0.12964566973496305,1.0506850657123585,-0.3584584216737634,-1.4318706091756628,1.496126973122869,1.1819139901423168,1.3687906720862735,0.0003559866816213028,-0.0005499804857667665,-0.00018556459209607024,-0.0019217999618189956,0.0017608281934609095,-0.0005746908764238832,-0.0009138547638010577,-0.2547723948955536,-51.31711196899414,-6.722001075744629,18.29169464111328,1.7677713632583618,-0.8219101428985596,0.11998139321804047,,,,,,,,,
1739302284.0619316,-0.1296467387246045,1.050683345912557,-0.3584577228714448,-1.431870838834123,1.4961226957177987,1.1819033668795147,1.3687897509024,-2.2850857572217055e-05,-0.0013740963105303735,4.4532931249222064e-05,-0.00029639702887371765,-0.0007730715812412265,-0.001640364526795902,0.00023904969671510577,-0.2547723948955536,-51.28934097290039,-6.722001075744629,18.22028350830078,1.7741800546646118,-0.7962753772735596,0.12639008462429047,,,,,,,,,
1739302284.0729318,-0.1296463948366861,1.0506844942741305,-0.358461285011651,-1.4318621132607512,1.496126483427487,1.1819009100735565,1.3687858143270106,-0.0002466082330772388,-0.0002983511076215397,-0.0019081970455654533,0.0007454683394659959,0.00012849551105755452,-0.001525749230268973,-0.0013080085392067429,-0.2309686839580536,-51.26553726196289,-6.674393653869629,18.12110137939453,1.7869974374771118,-0.7889511585235596,0.13279877603054047,,,,,,,,,
1739302284.0829506,-0.12964826412089167,1.050687090545912,-0.3584583179158181,-1.43186498982025,1.4961237964467442,1.181902415866355,1.3687868587701488,6.571011167730776e-05,-3.96160770279325e-05,0.0010270162538148105,-5.0643270925345915e-05,0.000220846685092343,0.0014804276064219822,0.00025615591836492733,-0.2071649730205536,-51.26553726196289,-6.674393653869629,18.16870880126953,1.7549539804458618,-0.8026840686798096,0.14653168618679047,,,,,,,,,
1739302284.0939522,-0.12964802669898035,1.0506867167437834,-0.3584594100537263,-1.4318691531641705,1.4961230873423506,1.1819016622806582,1.3687888660633574,-1.3488687316580417e-05,-0.0008459539936650869,-0.0009232746004443119,0.0005799226554332021,0.0015159265648510844,0.0008141285387249346,0.0016105856146267578,-0.2071649730205536,-51.26553726196289,-6.698197364807129,18.19647979736328,1.7741800546646118,-0.8356430530548096,0.09343110024929047,,,,,,,,,
1739302284.1049078,-0.12964802550956467,1.0506885903881504,-0.35845807520874484,-1.4318719515790583,1.4961233343844391,1.1819007978107259,1.3687863039475758,-0.00016258811084614972,0.0013930850348660923,1.1052726623481655e-05,-0.00044460392532933275,-0.0017969328078971311,-0.00021173466933200672,-0.00023775973095724182,-0.2071649730205536,-51.31711196899414,-6.674393653869629,18.22028350830078,1.7677713632583618,-0.8283188343048096,0.10624848306179047,,,,,,,,,
1739302284.11588,-0.1296435490213275,1.0506819088187758,-0.35846049445766187,-1.4318726668755222,1.4961212185836426,1.1819057546656195,1.3687876112052435,0.00035865281147918793,-0.0009878966929364158,-0.00020490378223407438,-0.000254939283256278,-0.0011275603511637455,0.0004188447063241354,0.00011011671810248541,-0.2547723948955536,-51.19015884399414,-6.646622657775879,18.22028350830078,1.7805887460708618,-0.8420517444610596,0.09983979165554047,,,,,,,,,
1739302284.1259058,-0.1296396604025944,1.0506752372703048,-0.3584572403074139,-1.4318680930896093,1.4961203045347125,1.181901306125275,1.3687849825212548,0.00018584396534195523,-0.0018630431604742183,0.0007740992656468864,-0.0006457673844716763,-0.0016843616382210553,0.00047084002219375994,-0.0008997764104128974,-0.2825433909893036,-51.16238784790039,-6.698197364807129,18.16870880126953,1.7869974374771118,-0.8283188343048096,0.12639008462429047,,,,,,,,,
1739302284.1359513,-0.12963941497899295,1.0506825844357772,-0.3584633525533224,-1.4318681955528554,1.4961219372293904,1.1819034797227597,1.3687826013125057,-0.00034434109704476737,0.0003117667333874736,-0.0004214576698442257,-0.0010309325768446593,0.0006692488966500106,0.0010111657186248507,-0.0004118906652209823,-0.2825433909893036,-51.23776626586914,-6.646622657775879,18.16870880126953,1.7805887460708618,-0.8420517444610596,0.14653168618679047,,,,,,,,,
1739302284.1469834,-0.1296431254364209,1.0506808662786906,-0.35846094482191715,-1.4318698885965218,1.496125926331488,1.1819016634447648,1.3687776815877541,-0.0009513947933004926,-0.0007870897393786403,0.0008069956396277575,-0.0007098386472750268,0.0013921199145872428,0.0003102534579271555,-0.0014941925799763756,-0.2309686839580536,-51.21396255493164,-6.646622657775879,18.22028350830078,1.7677713632583618,-0.8356430530548096,0.16026459634304047,,,,,,,,,
1739302284.1579964,-0.12964300780988605,1.0506865160148129,-0.3584592520922418,-1.431873110373083,1.4961223576104228,1.1818992805525088,1.368779002610055,-8.269642707616257e-05,0.00037400203406923394,0.0003292062921770345,0.00010449055162547967,-0.001069373885928622,-0.0001898644878425003,-0.0012056732430854842,-0.2309686839580536,-51.28934097290039,-6.698197364807129,18.19647979736328,1.7677713632583618,-0.8155014514923096,0.14012299478054047,,,,,,,,,
1739302284.168967,-0.12964261922004439,1.0506892878946898,-0.35845549437973545,-1.431872354008778,1.4961207519346646,1.1818977654476834,1.3687833741205595,-0.0004890924725852032,0.0011406195468239854,0.001496565615392907,0.0014379246051295892,-0.0013318725649900183,-0.0007901376686276421,-0.0002936168521183861,-0.2071649730205536,-51.28934097290039,-6.722001075744629,18.19647979736328,1.7805887460708618,-0.8026840686798096,0.11265717446804047,,,,,,,,,
1739302284.1809516,-0.1296428077020381,1.050684959871592,-0.3584601490996811,-1.4318691252921996,1.4961242128791759,1.181897765232344,1.368779429544433,-0.000634358111235036,6.604525434896906e-05,0.00019828892820076768,0.0006073456196381626,0.0004137550978171972,-0.0003442279030012697,-0.0028083286089706986,-0.2309686839580536,-51.23776626586914,-6.646622657775879,18.16870880126953,1.7549539804458618,-0.8026840686798096,0.16026459634304047,,,,,,,,,
1739302284.191893,-0.12964472911826025,1.0506853651431873,-0.3584590322449338,-1.431867263135835,1.4961211367136225,1.1818977645701698,1.3687849243956094,-0.0008041041407326457,0.00023321853147415786,0.00023520294996163106,0.0023936763480087416,-0.0011832488083381746,-0.0001915069541315872,0.002856565223180366,-0.2071649730205536,-51.26553726196289,-6.674393653869629,18.14490509033203,1.7677713632583618,-0.8026840686798096,0.09983979165554047,,,,,,,,,
1739302284.2019403,-0.1296402734263829,1.0506866431790176,-0.3584643134913006,-1.4318711620136948,1.4961240922984052,1.1818970073515362,1.3687795136800813,-0.00045335057985821823,-0.0007531176683909668,-0.0008205590950794518,-0.00040929332957262307,0.0003442275708852148,0.0008836089928651367,-0.0016317713742043157,-0.2309686839580536,-51.26553726196289,-6.622818946838379,18.19647979736328,1.7613626718521118,-0.7962753772735596,0.13279877603054047,,,,,,,,,
1739302284.212994,-0.12964069951237217,1.0506831972591617,-0.35846113922020806,-1.4318741356685252,1.4961243103678585,1.1818992790626066,1.3687853258216192,-0.0007792306924216668,-0.00011358250223007934,-0.0007838004235071049,-0.000685561163597837,0.001247320371753752,0.0005093510574873551,-0.0005280444939198962,-0.2547723948955536,-51.21396255493164,-6.646622657775879,18.22028350830078,1.7869974374771118,-0.8155014514923096,0.08610688149929047,,,,,,,,,
1739302284.223949,-0.12963915876746812,1.0506846681001019,-0.3584632544243489,-1.4318733875916374,1.4961208379348567,1.1819016481953413,1.368784047473055,-0.00043285909174310146,0.0007580178085170349,-0.00013547321074355433,-0.0010636480548373958,0.00015430043281795792,-0.0004155405186158664,-0.00026155662492516443,-0.2547723948955536,-51.23776626586914,-6.646622657775879,18.19647979736328,1.7805887460708618,-0.8356430530548096,0.10624848306179047,,,,,,,,,
1739302284.2339597,-0.12963993081781713,1.0506835067409053,-0.3584612542671396,-1.4318713078037286,1.496121503781997,1.1819007953757965,1.3687825954002937,-0.00047656730546388195,0.001503311870729648,0.0006934588153602975,0.00015319422549974003,0.00015166480983921503,-0.0004019305420427809,-0.0007343056061341178,-0.2309686839580536,-51.23776626586914,-6.674393653869629,18.16870880126953,1.7741800546646118,-0.8283188343048096,0.10624848306179047,,,,,,,,,
1739302284.244882,-0.12963992168681576,1.0506812201974898,-0.35846121609062737,-1.431873386285389,1.4961237375143774,1.1818992785659779,1.3687745343805084,0.0003390475724574931,-0.000843211509382841,-0.0004078937992645737,-0.00032852514724312376,0.0006899701262987195,-0.0002997430777684569,-0.002096909005213242,-0.2309686839580536,-51.19015884399414,-6.646622657775879,18.19647979736328,1.7549539804458618,-0.8155014514923096,0.14653168618679047,,,,,,,,,
1739302284.2559273,-0.12963820916603302,1.0506808919284716,-0.3584590995260743,-1.4318713078037064,1.496123750596108,1.181897434611243,1.3687762093277518,-0.0002475150472715681,-0.0010516755139604685,-0.0004151431682907648,0.0006387893196112373,0.0005787488431840227,-0.00036490478784614085,-0.0029341002088632273,-0.2547723948955536,-51.21396255493164,-6.674393653869629,18.16870880126953,1.7549539804458618,-0.8090927600860596,0.16026459634304047,,,,,,,,,
1739302284.266966,-0.1296440083319933,1.0506868698235716,-0.35846093621987785,-1.4318713068225821,1.4961220171344722,1.181897999935238,1.3687787475844286,-0.0014855315756789331,0.0008648673108882479,3.8289387405597564e-05,0.0012121280412782257,-0.0005634655706011946,-0.000952797925562596,0.00042389790087854723,-0.2071649730205536,-51.26553726196289,-6.674393653869629,18.16870880126953,1.7677713632583618,-0.8090927600860596,0.14012299478054047,,,,,,,,,
1739302284.2769916,-0.12963949838779296,1.050687443614564,-0.3584580676851743,-1.4318734232418984,1.4961214645327634,1.181895746626587,1.3687809718192774,0.0005332586033299091,-0.0002133713799171011,0.0009882348070153239,0.0004262534227244917,-0.00027341334275866,0.0008418988407019462,0.00026802181951862865,-0.2071649730205536,-51.26553726196289,-6.674393653869629,18.19647979736328,1.7741800546646118,-0.7962753772735596,0.11998139321804047,,,,,,,,,
1739302284.2878702,-0.1296416341592681,1.050691153799444,-0.35846328385688025,-1.4318695133531536,1.4961246025675219,1.1818922412446853,1.368782456816025,-0.00026199023543422884,0.00194955965958841,0.0003235940993144769,0.0020229224044486906,0.00026609468044419733,-0.0015058462392885928,0.0004815294376043039,-0.2071649730205536,-51.31711196899414,-6.646622657775879,18.14490509033203,1.7476297616958618,-0.7962753772735596,0.10624848306179047,,,,,,,,,
1739302284.298014,-0.129634499681052,1.050687660746002,-0.3584583176964148,-1.431873387593385,1.4961264607465024,1.1818936353136031,1.3687802154439737,0.0009359176007074048,-0.0004967596572638636,0.0012993422173973729,-0.0006655459739461624,0.002394372218256239,-0.0012783960572464834,-0.0008277217486342499,-0.3063471019268036,-51.26553726196289,-6.674393653869629,18.19647979736328,1.7677713632583618,-0.8090927600860596,0.12639008462429047,,,,,,,,,
1739302284.308922,-0.1296372595813463,1.0506822503299533,-0.3584612457489893,-1.4318779066219387,1.496124643472236,1.1818973564638946,1.368775332213762,0.0009773585045425603,-0.0011431916282620847,-0.00012595933020009847,-0.0016839640092701706,0.0007728550337996754,0.000978886998341694,-0.002863603008689783,-0.2547723948955536,-51.19015884399414,-6.674393653869629,18.24408721923828,1.7741800546646118,-0.8283188343048096,0.14012299478054047,,,,,,,,,
1739302284.3208761,-0.1296362098091692,1.0506829325904914,-0.35846332519198626,-1.4318751702759867,1.4961238858061758,1.1818959083551406,1.3687792967430576,0.0013004580603083254,-0.0004723957403939866,-0.001209540315705231,-0.0007865317295778936,0.0017387689165139248,-0.0006441340939773775,0.00023875094746811788,-0.2825433909893036,-51.21396255493164,-6.646622657775879,18.22028350830078,1.7805887460708618,-0.8283188343048096,0.10624848306179047,,,,,,,,,
1739302284.3309898,-0.12963738881860493,1.0506815530561553,-0.35846097621844797,-1.4318733875572454,1.4961222222119444,1.1818955126747341,1.3687809583907695,-0.00028582743122534655,-0.000579412664635549,-0.0010476057284787383,-0.0004655070299459302,0.0007142677520813072,-0.00011573072201319915,-0.00011378115635649912,-0.2547723948955536,-51.19015884399414,-6.646622657775879,18.19647979736328,1.7677713632583618,-0.8219101428985596,0.11998139321804047,,,,,,,,,
1739302284.3420403,-0.129637497217034,1.050683606273768,-0.3584605004945312,-1.431871352100672,1.4961211024908936,1.1818963634033979,1.3687794564981588,-0.00010067800237992039,0.0002619874013634457,-0.00046624075843083976,0.00014713830497392204,-0.00019733858330829958,-0.0005444978150482691,0.00043727006164911617,-0.2547723948955536,-51.23776626586914,-6.646622657775879,18.16870880126953,1.7741800546646118,-0.8219101428985596,0.13279877603054047,,,,,,,,,
1739302284.3529918,-0.12963984257781544,1.0506853691371458,-0.3584622864030141,-1.431873467066694,1.4961215037777338,1.1818943931440171,1.3687779491886047,-0.0003097622802069667,0.00040063463511871925,-0.0009750285891011835,-0.0005959898586508726,0.00012619331239774906,-0.0024400197948287483,0.0009881850758801814,-0.2309686839580536,-51.23776626586914,-6.622818946838379,18.19647979736328,1.7741800546646118,-0.8155014514923096,0.14653168618679047,,,,,,,,,
1739302284.3639371,-0.1296359940828701,1.0506876392275493,-0.35846023898434987,-1.4318713078405159,1.4961189636414298,1.181895083649204,1.368778590105029,0.0016586648512571587,0.0011821712637600013,0.0009732211143098149,0.0010111406088795984,-0.0013642478943313998,-0.0002762531747627153,0.00047864618481722565,-0.2547723948955536,-51.26553726196289,-6.674393653869629,18.16870880126953,1.7677713632583618,-0.8090927600860596,0.14012299478054047,,,,,,,,,
1739302284.3749385,-0.1296394705829265,1.05068767334714,-0.35846022536756234,-1.4318709987426077,1.4961246032274507,1.1818936353197256,1.368782595210156,-0.0015652253146178881,0.0010439652512048954,-0.0002419735418078143,0.0024810215901655457,0.0021304891939968075,-1.9608483220543514e-05,0.0004335696396073728,-0.2071649730205536,-51.26553726196289,-6.674393653869629,18.16870880126953,1.7476297616958618,-0.8090927600860596,0.10624848306179047,,,,,,,,,
1739302284.3849487,-0.1296396051218923,1.050685343778991,-0.35846014913063645,-1.4318712447645776,1.4961219329708486,1.18189287963799,1.3687830244012302,-0.0010346232439583621,-0.0014201466369007398,0.00041744578301700823,0.0005754016244306712,0.0006685913088640207,-0.00036436401282639614,-0.0005114734311476323,-0.2309686839580536,-51.23776626586914,-6.646622657775879,18.19647979736328,1.7613626718521118,-0.8026840686798096,0.09343110024929047,,,,,,,,,
1739302284.3958752,-0.12963796794304033,1.0506869817462536,-0.35845831757061675,-1.431875173201946,1.4961240907209559,1.1818936353115608,1.3687824344063768,0.00014438930820139494,0.0001823693625609111,0.00029280603552842856,3.7656362339689455e-05,0.001001524816945419,-0.0003577127928972993,-0.0011790676457138188,-0.2547723948955536,-51.26553726196289,-6.674393653869629,18.22028350830078,1.7549539804458618,-0.8090927600860596,0.10624848306179047,,,,,,,,,
1739302284.4059496,-0.12963767994228864,1.050687571296393,-0.3584605574957833,-1.4318733871575688,1.4961207206077987,1.1818959082917846,1.3687825932209143,6.563501645625142e-05,-0.00010404359790667546,7.88587705232998e-05,0.00058074616918197,-0.0007170033243707153,0.0006728048127175265,0.0010258974277974379,-0.2309686839580536,-51.26553726196289,-6.674393653869629,18.19647979736328,1.7805887460708618,-0.8283188343048096,0.10624848306179047,,,,,,,,,
1739302284.4159853,-0.12963754806685998,1.0506839539608366,-0.3584603299077481,-1.4318751712517421,1.4961229798543103,1.1818936353115497,1.3687821038465873,0.0004855726599475192,-0.0011914102572684394,7.753016194411266e-05,-0.0001327738015535977,0.0002710894513676433,-0.00014292104469511933,0.00010599837169752643,-0.2309686839580536,-51.21396255493164,-6.674393653869629,18.22028350830078,1.7613626718521118,-0.8090927600860596,0.09983979165554047,,,,,,,,,
1739302284.4279697,-0.1296351201539556,1.050687834921505,-0.35846296311410863,-1.4318754542149907,1.496122221188627,1.1818951506317064,1.368782265409757,0.00018358804875369113,0.0008966121472418027,-0.0006423804538277446,0.0004075135135651815,-0.00016166287585896578,-4.4086286769093834e-05,-0.0001215659090545574,-0.2547723948955536,-51.26553726196289,-6.622818946838379,18.19647979736328,1.7677713632583618,-0.8219101428985596,0.09983979165554047,,,,,,,,,
1739302284.4380336,-0.1296330996024884,1.0506839629956766,-0.35845810495837627,-1.4318713343426868,1.4961207241508967,1.181894392971628,1.3687770345510732,0.002017983528479186,-0.0002138834536306117,0.00018617550293821415,0.00039116784606740596,0.0006563599643465949,-0.00047147989607273936,0.0006718507523922062,-0.2825433909893036,-51.21396255493164,-6.674393653869629,18.16870880126953,1.7805887460708618,-0.8155014514923096,0.15294037759304047,,,,,,,,,
1739302284.4488928,-0.1296388931604296,1.0506839628507558,-0.3584641580288672,-1.4318733915183197,1.4961246032459428,1.1818951506317064,1.368777712934284,-0.0006300147314110173,0.0007690514867763517,-0.00018097265325991594,0.0009946941018570059,0.0003013633670916556,-0.00033997477268600757,0.0009990995432503072,-0.2309686839580536,-51.21396255493164,-6.622818946838379,18.19647979736328,1.7476297616958618,-0.8219101428985596,0.11998139321804047,,,,,,,,,
1739302284.459887,-0.12963675455395415,1.0506876733123396,-0.3584584151527441,-1.4318726824763819,1.4961222352759505,1.1818951506317064,1.3687788408370203,0.00035642765624621257,0.00017494484650200056,0.000595653590641452,0.0009328412936370444,0.00016575582825217189,0.0006765231935195529,0.0006171758741264599,-0.2309686839580536,-51.26553726196289,-6.674393653869629,18.19647979736328,1.7677713632583618,-0.8219101428985596,0.10624848306179047,,,,,,,,,
1739302284.4699135,-0.12963778569151252,1.0506856070529798,-0.35845841510972826,-1.4318734535589992,1.4961219356459279,1.181894392971628,1.3687837815434116,0.00019560525056878307,0.0014357985701430361,0.0008518086337125758,-5.305359247678752e-05,0.00011264988156518573,0.0001659951536396263,0.003390791283290179,-0.2309686839580536,-51.26553726196289,-6.674393653869629,18.16870880126953,1.7741800546646118,-0.8155014514923096,0.09983979165554047,,,,,,,,,
1739302284.4799614,-0.1296384392653579,1.0506869845475557,-0.35846303497863796,-1.4318762574831898,1.496122979862056,1.181892119991393,1.3687785057719404,9.68996193361181e-05,-0.000414324408741503,-0.0008587211967723504,-7.371022988809655e-05,0.0004037494569894548,-0.0004092257360516615,-0.0004642411353177856,-0.2071649730205536,-51.26553726196289,-6.646622657775879,18.19647979736328,1.7613626718521118,-0.7962753772735596,0.09983979165554047,,,,,,,,,
1739302284.490985,-0.12963682384444322,1.0506856744577835,-0.3584621775464079,-1.4318733915343704,1.4961222352759513,1.181892119991393,1.3687797505359216,0.0004150483799027671,-0.0008599235250026359,-0.0001450704645550139,0.0007151109080341198,0.0005723140413223282,-0.00045058254654691893,0.001190337544088674,-0.2309686839580536,-51.23776626586914,-6.622818946838379,18.19647979736328,1.7677713632583618,-0.7962753772735596,0.09343110024929047,,,,,,,,,
1739302284.5020232,-0.1296381945729716,1.0506856752665026,-0.35846022954948364,-1.4318766018292655,1.4961228591731424,1.181892119991393,1.3687785883461383,0.00017636314575230852,0.00022871849987342498,0.0006787678397280525,-0.0012191086806525413,0.0002641995195854728,3.259048571071782e-05,-0.0005769982432329209,-0.2071649730205536,-51.23776626586914,-6.646622657775879,18.19647979736328,1.7613626718521118,-0.7962753772735596,0.09983979165554047,,,,,,,,,
1739302284.5129628,-0.12963956571324856,1.0506876733473318,-0.3584604916236597,-1.431878308140341,1.4961214822948161,1.181894392971628,1.368778604180823,-0.00022864204159566017,0.00012482279978571258,0.0009034783439813632,-0.0013214689294976105,-0.001085930157465816,0.0006392838143962293,-0.00016754459562901572,-0.2309686839580536,-51.26553726196289,-6.646622657775879,18.22028350830078,1.7741800546646118,-0.8155014514923096,0.09983979165554047,,,,,,,,,
1739302284.5239024,-0.12963500546862264,1.0506839590715247,-0.35845637605882796,-1.4318734889099247,1.4961237767601128,1.1818951506317064,1.3687810817118424,0.0007584695913898813,-0.000560823937708795,0.0022717948322654776,-0.0005591875958660095,0.0006916876931857566,-0.00014127368247546771,-0.0007358223542715846,-0.2547723948955536,-51.21396255493164,-6.698197364807129,18.16870880126953,1.7549539804458618,-0.8219101428985596,0.10624848306179047,,,,,,,,,
1739302284.5348825,-0.1296421497088599,1.0506829680032608,-0.35846335286469216,-1.4318723904136055,1.4961199492139858,1.1818959039311336,1.3687817417398704,-0.0025357697380082437,-0.0005605343775149732,-0.0008380756804470121,0.0011661690881461955,-0.00031420318888062044,0.0004095534316097338,0.00044873042953973017,-0.1555902659893036,-51.21396255493164,-6.646622657775879,18.14490509033203,1.7869974374771118,-0.8283188343048096,0.09983979165554047,,,,,,,,,
1739302284.544916,-0.1296384555302152,1.050683656751218,-0.3584623051631206,-1.4318720613726998,1.4961222223555048,1.1818928776513973,1.3687792231704714,-0.0006402069204961842,-0.0008557664743467112,0.00041972301793394545,-0.0004846521469382703,0.0010195095902568046,0.0002836637303998044,0.00034966205820860464,-0.2071649730205536,-51.21396255493164,-6.646622657775879,18.16870880126953,1.7677713632583618,-0.8026840686798096,0.09343110024929047,,,,,,,,,
1739302284.5549605,-0.12963877617610464,1.0506801927908196,-0.3584630468920682,-1.4318713167558244,1.4961217394699653,1.1818936353115497,1.3687833608084692,-0.0010792053472801284,-0.0017165313963120915,-0.0005436029158201036,-0.00015027846055817414,4.014588444849898e-05,-4.67863799171798e-05,0.000895614335274475,-0.2071649730205536,-51.19015884399414,-6.646622657775879,18.16870880126953,1.7677713632583618,-0.8090927600860596,0.08610688149929047,,,,,,,,,
1739302284.5658977,-0.1296367189156632,1.0506813137788098,-0.35846103772456633,-1.431873701255953,1.4961270689395787,1.181894392971628,1.3687737045284891,-0.0005008210999045458,-0.0007565134401472771,0.0008582392598912943,0.0002736178080529415,0.002545752504186708,0.0005109899539932165,-0.0028478481177077247,-0.2309686839580536,-51.21396255493164,-6.674393653869629,18.16870880126953,1.7549539804458618,-0.8155014514923096,0.14012299478054047,,,,,,,,,
1739302284.5759082,-0.12963670918856857,1.0506882810886753,-0.35845878707465234,-1.4318721408375692,1.4961261588248838,1.1818921193453706,1.368774917878464,0.00038468225246503153,0.0011537997019855984,0.0007138862437387992,-0.0001604273791513448,0.0014313496700899455,0.00010421547678145053,-0.0008143927680397255,-0.2309686839580536,-51.28934097290039,-6.698197364807129,18.16870880126953,1.7613626718521118,-0.7962753772735596,0.13279877603054047,,,,,,,,,
1739302284.5859282,-0.12964053387178334,1.0506854462355737,-0.3584587831421415,-1.4318775544705016,1.496121617747539,1.1818918136526801,1.3687737074957074,-0.000803577748213565,-0.0013476525159964543,-9.075112598554873e-05,-0.0006697236322716758,0.0008717149655889885,-0.00041758833979901855,-0.001635839302840093,-0.1793939769268036,-51.23776626586914,-6.698197364807129,18.22028350830078,1.7741800546646118,-0.8026840686798096,0.14012299478054047,,,,,,,,,
1739302284.5959737,-0.12963853636691092,1.0506913838050358,-0.35846216772462597,-1.4318757802140045,1.4961222177269269,1.1818936309328798,1.3687737030202065,4.814919201062169e-05,0.0006564173039085272,-0.000630361007760559,-0.00015797119457340773,-0.0003326742979252506,0.0003941650663863862,-0.0012875654121110296,-0.2071649730205536,-51.31711196899414,-6.622818946838379,18.19647979736328,1.7677713632583618,-0.8090927600860596,0.14012299478054047,,,,,,,,,
1739302284.6069322,-0.12963850988890108,1.0506943233599182,-0.35845902428807813,-1.4318758858668956,1.4961227454720625,1.181888639098929,1.3687816017439358,-0.0008766729585429391,0.002611186072693547,0.00021103797275829247,0.00012659211873511497,0.0017476038406037781,-0.0006720192884083978,0.0012924238739244727,-0.2071649730205536,-51.31711196899414,-6.674393653869629,18.22028350830078,1.7677713632583618,-0.8026840686798096,0.09983979165554047,,,,,,,,,
1739302284.617902,-0.1296384187935464,1.05068744392102,-0.35846015792979874,-1.43187338770664,1.4961207257729496,1.1818936337802373,1.3687734693151987,-0.00025633741925614156,0.00038689348027287087,0.0007987437460657588,0.0005463034250650979,-0.0008238334464759879,0.00017146174318924398,-0.00043829826259405896,-0.2071649730205536,-51.26553726196289,-6.646622657775879,18.19647979736328,1.7805887460708618,-0.8090927600860596,0.10624848306179047,,,,,,,,,
1739302284.6289883,-0.12963648172591033,1.0506857018935474,-0.3584630455475094,-1.431875170270605,1.4961212187388946,1.1818928776514452,1.3687746090725872,0.00011480062007284775,-2.2730374005815678e-05,-0.0011994829529974106,0.0008085456603797376,-0.00036861641582412984,0.00047767842023505237,0.0006938731446517025,-0.2309686839580536,-51.23776626586914,-6.646622657775879,18.22028350830078,1.7741800546646118,-0.8026840686798096,0.13279877603054047,,,,,,,,,
1739302284.63997,-0.1296371412490363,1.050682250365067,-0.35845839450520245,-1.4318755346689913,1.4961237375316385,1.1818928776514712,1.3687737712204395,0.0010047151704291664,2.0576432603604104e-05,-0.0004896165111617395,-0.0003061492490702522,0.0014964726039999306,-0.0005612552697288335,-4.199084184409118e-05,-0.2547723948955536,-51.19015884399414,-6.674393653869629,18.19647979736328,1.7549539804458618,-0.8026840686798096,0.11265717446804047,,,,,,,,,
1739302284.6508799,-0.12963499667987763,1.0506839633218132,-0.35846192886584444,-1.4318735625266517,1.4961197214668303,1.1818936353115497,1.3687725921293974,0.0013404998476164239,0.00012407727452626898,-0.000773691799152095,6.815628249820505e-05,0.0002818358360280399,-0.0008179394513071264,-0.0018746837671374163,-0.2547723948955536,-51.21396255493164,-6.622818946838379,18.16870880126953,1.7613626718521118,-0.8090927600860596,0.14653168618679047,,,,,,,,,
1739302284.6610682,-0.1296368234101993,1.0506839628857556,-0.3584587855411023,-1.4318721378917805,1.4961226506677194,1.1818943915180775,1.3687777034281978,-0.0004070615660068507,-0.0003871025420232069,0.000585633912098524,0.0005466857915233495,8.576385210063499e-05,0.00047069847343109703,0.00014016908048382316,-0.2309686839580536,-51.21396255493164,-6.674393653869629,18.16870880126953,1.7549539804458618,-0.8155014514923096,0.10624848306179047,,,,,,,,,
1739302284.67199,-0.12963500574250642,1.0506836059627684,-0.3584633265226323,-1.431874173082998,1.4961189633039866,1.1818936353115415,1.3687721894105627,0.0001553227112456043,-0.0015951578135285833,-0.00014746532544222926,0.0009400112350832737,-0.0010653341550723651,-0.0003503572106969361,-0.0006686991701937706,-0.2547723948955536,-51.23776626586914,-6.646622657775879,18.16870880126953,1.7677713632583618,-0.8090927600860596,0.15294037759304047,,,,,,,,,
1739302284.6829615,-0.1296404283986936,1.0506913838712582,-0.3584562840651005,-1.4318744203797225,1.4961228590994908,1.1818928776514712,1.3687792229534914,-0.0011909904791222014,0.0005730761825411058,0.0013156632558652267,-0.000773519195790493,0.0004307702733873108,-7.770152965075669e-05,0.0005819984700156313,-0.1793939769268036,-51.31711196899414,-6.698197364807129,18.16870880126953,1.7613626718521118,-0.8026840686798096,0.09343110024929047,,,,,,,,,
1739302284.6939487,-0.1296404199756709,1.0506856754064797,-0.35846332521037944,-1.4318774220555373,1.4961222221933177,1.1818928384056144,1.3687775899509351,-0.00033438856614759134,-0.0016333171051616008,-0.0015388285643198824,-0.0017461227830880878,-0.0005234083974437188,0.0001104453748289187,-0.000389715329286441,-0.1793939769268036,-51.23776626586914,-6.646622657775879,18.22028350830078,1.7677713632583618,-0.8026840686798096,0.10624848306179047,,,,,,,,,
1739302284.704951,-0.12963671793696488,1.0506857018974327,-0.35846802934334054,-1.4318774264004128,1.4961212900513645,1.1818920022531583,1.3687784652914077,0.0006307779831227226,0.00010502182893348978,-0.0028266842073854928,-0.0017865138785828993,-0.0010932999728290689,-0.0007327485198697343,-0.0003305063036917192,-0.2309686839580536,-51.23776626586914,-6.571244239807129,18.22028350830078,1.7741800546646118,-0.7962753772735596,0.09983979165554047,,,,,,,,,
1739302284.715975,-0.12963064536552663,1.0506893858681137,-0.35845912702060445,-1.4318764777124104,1.4961218177463025,1.1818914647824654,1.3687800890122193,0.0018620560552384566,0.0015562818677172302,0.0005088418152483329,-5.2639459361746444e-05,-5.2639423797386394e-05,-0.0006048891915586711,0.0013603381596351152,-0.2825433909893036,-51.28934097290039,-6.674393653869629,18.19647979736328,1.7741800546646118,-0.8026840686798096,0.08610688149929047,,,,,,,,,
1739302284.7259939,-0.12963671789710499,1.0506839668103338,-0.358463116098798,-1.431876364880207,1.4961207068798241,1.1818942359642741,1.3687745288804425,-2.8661069867719983e-05,0.00015216243254711088,-0.0003980721199480186,-0.00056003754722565,-0.00045966144339260463,-0.00036987940384405324,0.0006028835669331019,-0.2309686839580536,-51.21396255493164,-6.646622657775879,18.19647979736328,1.7805887460708618,-0.8155014514923096,0.10624848306179047,,,,,,,,,
1739302284.736959,-0.1296346271958569,1.0506822503650395,-0.35845886503072677,-1.4318705175549469,1.4961214645339211,1.181893869692653,1.368777407715663,0.00023792048832727833,-0.0014473024025687658,0.0005776484490528904,0.0007096116106349055,0.00012922282092205876,-0.0009022155332536927,0.0010091914223228672,-0.2309686839580536,-51.19015884399414,-6.674393653869629,18.14490509033203,1.7741800546646118,-0.8155014514923096,0.10624848306179047,,,,,,,,,
1739302284.7479045,-0.12963500536857175,1.0506858371906593,-0.3584633637703061,-1.431873665590671,1.4961178776776691,1.1818928776485171,1.3687792231132934,0.0011787186948148999,0.00024164095094216128,-0.0005054987647777557,0.0002969811369348392,-0.001009789901630766,0.00020707802598183514,0.0010004724186994174,-0.2547723948955536,-51.23776626586914,-6.646622657775879,18.19647979736328,1.7677713632583618,-0.8026840686798096,0.09343110024929047,,,,,,,,,
1739302284.7598748,-0.1296384303498316,1.0506849127817472,-0.35846025227796574,-1.4318774048149656,1.496119708033304,1.1818936353115497,1.368780846672298,-0.00030106592964046687,-0.00021254911789009054,-0.0004743933027689611,0.0004463684676527192,0.000145818692231917,-0.00037287850536063224,0.001000411644463517,-0.2071649730205536,-51.21396255493164,-6.646622657775879,18.22028350830078,1.7613626718521118,-0.8090927600860596,0.07969819009304047,,,,,,,,,
1739302284.7699344,-0.1296404253744991,1.0506836019224157,-0.35846195673641706,-1.4318765796388773,1.4961203783863688,1.181894392971628,1.3687729568309863,-0.0009533370396595439,0.00026833790494281817,-0.0005761485624423848,-0.0012102175004349177,-0.00085171039541206,0.0002868811778600044,-0.0013140555028854223,-0.1793939769268036,-51.23776626586914,-6.622818946838379,18.19647979736328,1.7741800546646118,-0.8155014514923096,0.14653168618679047,,,,,,,,,
1739302284.7799397,-0.1296367163230099,1.0506893935125396,-0.3584583843617064,-1.4318741820717038,1.49612691641015,1.1818936309508987,1.3687769501349463,0.0005204627757437886,0.000863000929034899,0.0011252479161451793,0.0011135574663864356,0.000558359938532182,-0.00013768913830509215,0.0002799504579302527,-0.2309686839580536,-51.28934097290039,-6.674393653869629,18.16870880126953,1.7549539804458618,-0.8090927600860596,0.11265717446804047,,,,,,,,,
1739302284.7909768,-0.1296359043214329,1.0506839628507985,-0.35846120582689744,-1.431876606242458,1.496119717015108,1.1818921199913683,1.3687792231149873,0.0008469860310713284,-0.0004976491611481245,-0.0005285054139261425,-0.0004605037902194618,3.325744608433161e-05,-0.00035448734348415487,0.0006852491067371275,-0.2309686839580536,-51.21396255493164,-6.646622657775879,18.19647979736328,1.7613626718521118,-0.7962753772735596,0.09343110024929047,,,,,,,,,
1739302284.803009,-0.12963885344159853,1.0506840423586077,-0.3584581468207667,-1.4318745261274977,1.4961249523513531,1.1818909008814507,1.3687810198180823,-0.0003509630138332937,-0.0011442259489472762,-0.00025988635327440016,0.0010350451932686082,0.0010610733299936904,-0.000918661110577465,0.0011755021650221814,-0.2309686839580536,-51.21396255493164,-6.674393653869629,18.16870880126953,1.7476297616958618,-0.7889511585235596,0.10624848306179047,,,,,,,,,
1739302284.8138795,-0.12963576918493483,1.0506877528566807,-0.3584590200352465,-1.4318800656346264,1.4961213321003133,1.1818929742520878,1.3687735455768133,0.00035988977708041803,0.0004142507830475528,0.0006511294043067347,-0.0009040551120349538,0.0003583146039719123,-0.0018668626906776292,-0.001670970611172949,-0.2309686839580536,-51.26553726196289,-6.674393653869629,18.24408721923828,1.7476297616958618,-0.8155014514923096,0.14012299478054047,,,,,,,,,
1739302284.8248634,-0.12963195227706786,1.0506839717174126,-0.3584611129230534,-1.4318765934877042,1.496120760718994,1.1818951113618235,1.368779342622101,0.0015615222294626929,-0.0009778967095772021,-0.0006519191411909014,-0.0002375318962734742,-0.0007234397081568846,0.0008598285276156191,0.00013990154828920072,-0.2547723948955536,-51.21396255493164,-6.646622657775879,18.19647979736328,1.7677713632583618,-0.8219101428985596,0.11998139321804047,,,,,,,,,
1739302284.83489,-0.12963840289885475,1.0506856754065292,-0.3584580663662361,-1.4318765973776735,1.496122222020206,1.1818959082915628,1.368777750026746,-0.000238043297990354,-0.00045387504775771555,0.000983259382527009,-0.00037108170280105904,-0.0006508133938144972,0.0007474131427897538,0.0015523170550367405,-0.2071649730205536,-51.23776626586914,-6.674393653869629,18.19647979736328,1.7677713632583618,-0.8283188343048096,0.10624848306179047,,,,,,,,,
1739302284.8449721,-0.1296366916909742,1.0506876733473327,-0.3584587933902731,-1.431876606244252,1.4961222087849952,1.1818925737353534,1.3687745269430909,-0.00012389945718581523,0.00025092278240960693,0.0008025688201975943,-0.000490778350628996,-0.0001988870854328103,-0.001246005844586997,0.0006152860534918922,-0.2309686839580536,-51.26553726196289,-6.674393653869629,18.19647979736328,1.7677713632583618,-0.8090927600860596,0.10624848306179047,,,,,,,,,
1739302284.854986,-0.1296367413887878,1.0506856741467359,-0.35845631149522034,-1.4318773493477395,1.4961217665117448,1.181891817995364,1.3687750226074555,-0.00023676585141872797,0.0004811225866384217,0.0010575887410366415,-0.000519995853063684,-0.0009283589748028988,-0.0004692501502583423,0.00040392597979652177,-0.2309686839580536,-51.23776626586914,-6.698197364807129,18.19647979736328,1.7805887460708618,-0.8026840686798096,0.11998139321804047,,,,,,,,,
1739302284.8658898,-0.1296343529110581,1.0506866290807888,-0.3584601465868563,-1.431873811203004,1.4961237241111365,1.181894375523043,1.368774867609971,0.0005430774769568593,0.0015992145940909976,0.00045520440977580206,0.0010992996894292084,-0.0009758264770512537,0.00030638474379445906,-0.001575490983994166,-0.2309686839580536,-51.23776626586914,-6.646622657775879,18.16870880126953,1.7549539804458618,-0.8155014514923096,0.11998139321804047,,,,,,,,,
1739302284.8769853,-0.12963670914850006,1.0506836091282776,-0.3584602155075023,-1.4318744604650773,1.4961216345990729,1.1818912140569442,1.3687713899823715,0.0007564728048303286,-0.00044152682004713374,7.334535169709814e-05,-6.0701625574236185e-05,0.0005007263302108168,-0.0004221793043994025,-0.0008898896208326145,-0.2309686839580536,-51.23776626586914,-6.674393653869629,18.19647979736328,1.7741800546646118,-0.8155014514923096,0.13279877603054047,,,,,,,,,
1739302284.8879378,-0.12963822061513247,1.0506876733434447,-0.35846312594479546,-1.4318729906953376,1.4961229798543976,1.1818909115886904,1.368776557670204,-0.0005024561876832594,0.00024780126549223824,-0.001435981855748828,-0.00032839317598809244,0.0011070976619055688,-0.0028416726676163697,0.00023745448182278122,-0.2071649730205536,-51.26553726196289,-6.646622657775879,18.14490509033203,1.7613626718521118,-0.8219101428985596,0.11265717446804047,,,,,,,,,
1739302284.898943,-0.12963843045665416,1.0506886309112418,-0.358462292261716,-1.431876606245796,1.4961237370175262,1.181893629473419,1.3687775900550452,-0.0005724058960362742,0.0013735263348939057,0.0002454975656678427,-0.0003392168839738692,-0.0009609870139716308,-2.860943740770898e-05,0.00032852775531576415,-0.2071649730205536,-51.26553726196289,-6.646622657775879,18.19647979736328,1.7549539804458618,-0.8090927600860596,0.10624848306179047,,,,,,,,,
1739302284.9108682,-0.12963287951737934,1.0506893858734694,-0.3584619553307214,-1.4318766062444022,1.4961218937249923,1.1818931512792847,1.3687742206030091,3.91059238281282e-05,0.0010015102565443515,-0.00033802464717085925,-0.0005307618268678634,-0.00039799399555107,0.0015525540362506772,-7.967350854163604e-05,-0.2547723948955536,-51.28934097290039,-6.622818946838379,18.19647979736328,1.7613626718521118,-0.8090927600860596,0.09983979165554047,,,,,,,,,
1739302284.9218829,-0.12963500497234814,1.0506856754428182,-0.3584565221024883,-1.4318727427963809,1.49612373756186,1.1818916610271828,1.3687694132089923,0.00019201592004061273,-0.00016851026350989608,0.0013752084101694836,0.001262374445496233,0.0009975424763175125,-0.0008371401321954017,-0.002678491925566628,-0.2547723948955536,-51.23776626586914,-6.698197364807129,18.14490509033203,1.7549539804458618,-0.8026840686798096,0.14653168618679047,,,,,,,,,
1739302284.9318974,-0.12963671502091986,1.0506822513461638,-0.35845545482775787,-1.431875270926638,1.4961236168331469,1.1818943924802432,1.368780728430272,-0.000726389137953852,-0.0012838846260302447,0.0020894103610203385,0.0007875507016716407,2.6456964351071984e-05,0.0009134350747742308,0.000752093331832254,-0.2309686839580536,-51.19015884399414,-6.722001075744629,18.16870880126953,1.7549539804458618,-0.8155014514923096,0.07969819009304047,,,,,,,,,
1739302284.942001,-0.12963601809339703,1.050683962885798,-0.3584620377833646,-1.4318745264923696,1.4961196207386287,1.1818908608445051,1.3687769057311736,-2.280308658228849e-05,-0.0007137502004944845,-0.0015918862777282,0.0006741684202142357,-0.0004886672902978332,-0.0007086998454318965,0.002246829651955655,-0.2309686839580536,-51.21396255493164,-6.622818946838379,18.16870880126953,1.7805887460708618,-0.8155014514923096,0.08610688149929047,,,,,,,,,
1739302284.9529366,-0.1296330071501858,1.0506893861951125,-0.35846192882785827,-1.431876594470645,1.496118635262129,1.1818928776448248,1.3687718344094941,0.0009492546901401405,0.0011700966836851547,0.00044276627504628103,-7.94894398664505e-05,-0.0004939000244852821,0.0009164140562182316,0.0006464362514467609,-0.2825433909893036,-51.28934097290039,-6.622818946838379,18.19647979736328,1.7613626718521118,-0.8026840686798096,0.15294037759304047,,,,,,,,,
1739302284.9649096,-0.12963672184352198,1.050682250365019,-0.35845628368375965,-1.4318746089084635,1.4961229798295523,1.1818942621521056,1.3687715188869145,-0.00017427600811715607,-4.919960599603611e-05,0.0019954293641297827,-5.1748747912816226e-05,0.0006798530385527583,0.00029145376548660835,-0.0005881715500629442,-0.2309686839580536,-51.19015884399414,-6.698197364807129,18.16870880126953,1.7613626718521118,-0.8155014514923096,0.14653168618679047,,,,,,,,,
1739302284.9749448,-0.12963598305846397,1.0506876733473327,-0.35846014615063426,-1.431874517624694,1.4961229798540776,1.181891042909922,1.3687760441925467,5.778712905866562e-05,0.0004527043727165993,0.000784900589311928,0.001357102033633901,0.0005694242261317568,0.00047929338580403444,0.0005180166664872882,-0.2309686839580536,-51.26553726196289,-6.646622657775879,18.16870880126953,1.7613626718521118,-0.7962753772735596,0.09343110024929047,,,,,,,,,
1739302284.9868634,-0.12963843045369033,1.0506839628857483,-0.3584587820525811,-1.431872028973956,1.4961222215318264,1.181889043486407,1.368775378775156,7.90664330855447e-05,-0.0005013248889336047,0.0003395748243414002,0.0021202387428575463,-5.496190169705318e-05,0.0008196367738699654,3.6425930939565905e-05,-0.2071649730205536,-51.21396255493164,-6.674393653869629,18.14490509033203,1.7677713632583618,-0.8090927600860596,0.11265717446804047,,,,,,,,,
1739302284.9969702,-0.12963671696504578,1.0506876733473327,-0.35845990897161295,-1.4318808614063543,1.496122975384407,1.1818908856859722,1.3687737015577102,-2.0600620254261403e-07,0.0005271858087525657,0.0006756440337058988,-0.00105920056321526,0.0003284491828171403,-0.0011051609458711887,-9.17127455792962e-05,-0.2309686839580536,-51.26553726196289,-6.646622657775879,18.22028350830078,1.7613626718521118,-0.7962753772735596,0.14012299478054047,,,,,,,,,
1739302285.0079644,-0.12963324479030716,1.0506876734563488,-0.35846006741229547,-1.4318766887123429,1.4961209399274238,1.1818927030569684,1.3687788508446106,0.00010141877719449315,0.0004590844850820206,0.0002483524721154781,-0.00026729591671786993,-0.00023281770704656102,-0.0006925277583438892,0.00022921253474904736,-0.2825433909893036,-51.26553726196289,-6.646622657775879,18.19647979736328,1.7741800546646118,-0.8026840686798096,0.09343110024929047,,,,,,,,,
1739302285.0180302,-0.1296384304618577,1.0506913955826758,-0.3584601471304472,-1.4318783889228177,1.496122222185115,1.181892483251881,1.3687718344809598,-0.0002499909776278998,0.0005227052030080826,0.0004845100809604455,-0.0007068570000524759,-8.5752363137302e-05,-0.0012331791192577676,-0.0013581078434097974,-0.2071649730205536,-51.31711196899414,-6.646622657775879,18.22028350830078,1.7677713632583618,-0.8026840686798096,0.15294037759304047,,,,,,,,,
1739302285.0289521,-0.12963843045783874,1.0506898989508582,-0.35845628368376514,-1.4318727437775274,1.4961228055370643,1.1818934782720614,1.368772339471378,0.0008434641774121922,0.0005607219826338709,8.546539738355202e-05,0.0008076086142027719,-0.0002921445482114601,-0.00036132931623237294,0.00024695193725435965,-0.2071649730205536,-51.26553726196289,-6.698197364807129,18.14490509033203,1.7613626718521118,-0.8090927600860596,0.11265717446804047,,,,,,,,,
1739302285.0399141,-0.12963840432068366,1.0506876763033355,-0.358465106445959,-1.4318766062444022,1.496121464532937,1.1818918136518046,1.3687745312245096,-0.0004070512945896861,7.726038483699214e-05,-0.0015396009898352276,0.0007063548245784357,-0.000489665686486161,0.00033367267726565396,0.0018756902220891485,-0.2071649730205536,-51.26553726196289,-6.622818946838379,18.19647979736328,1.7741800546646118,-0.8026840686798096,0.10624848306179047,,,,,,,,,
1739302285.050867,-0.1296330070433483,1.0506846903513243,-0.35846014911201124,-1.4318765012980743,1.4961218556813047,1.1818890435403162,1.3687741705892926,0.0013788535891790317,0.0006417527193593939,-0.0002878056559516114,-0.00035698941198134785,0.0004659663785017732,-0.0008477040555169555,-0.0010062179551586282,-0.2825433909893036,-51.21396255493164,-6.646622657775879,18.19647979736328,1.7677713632583618,-0.8090927600860596,0.10624848306179047,,,,,,,,,
1739302285.0609553,-0.1296366129544337,1.050688389596536,-0.358464008617559,-1.4318745264527692,1.4961214653190913,1.1818919571160034,1.3687777027282546,0.0004986894442888762,0.00048145789559841533,-0.001457949960630176,9.131487298353529e-06,0.0003900803548096014,-0.00036363000347180367,0.0005974815967960122,-0.2309686839580536,-51.26553726196289,-6.595047950744629,18.16870880126953,1.7741800546646118,-0.7962753772735596,0.10624848306179047,,,,,,,,,
1739302285.0719063,-0.1296367179365149,1.0506830009460688,-0.35846086238751795,-1.431880168655001,1.496122854703406,1.1818914477384526,1.368778869902249,0.0005799497147485158,-0.0009127124385257325,-0.00024166645636943579,-0.0020788187052619834,-8.462220239622333e-05,-0.00032051526969719004,0.0007754482861730009,-0.2309686839580536,-51.19015884399414,-6.646622657775879,18.24408721923828,1.7613626718521118,-0.8219101428985596,0.09343110024929047,,,,,,,,,
1739302285.0828977,-0.12963672086691974,1.0506914194699477,-0.3584603845813429,-1.4318727437774774,1.4961193599062,1.1818884688093605,1.3687777034281983,-0.00011228480101904058,0.0017502919765440847,-6.683274377350086e-05,0.001086503704443559,-0.0007000467404275155,-0.0014410744509855689,-1.2499611760477024e-05,-0.2309686839580536,-51.31711196899414,-6.646622657775879,18.14490509033203,1.7613626718521118,-0.8026840686798096,0.10624848306179047,,,,,,,,,
1739302285.092907,-0.12963956571459667,1.0506856754066807,-0.3584552318301286,-1.4318783762795715,1.4961237195598722,1.181893998496271,1.3687757134206768,-0.001625878733480141,0.0007936880691826713,0.001186807106594201,-0.0007526417533984895,-0.000978162671704752,0.0005289372428784858,-0.0004717430660192209,-0.2309686839580536,-51.23776626586914,-6.674393653869629,18.22028350830078,1.7549539804458618,-0.8155014514923096,0.11998139321804047,,,,,,,,,
1739302285.102961,-0.12963819429506643,1.0506906256168984,-0.35845998936449125,-1.4318801715982261,1.496117877677365,1.1818925223325083,1.3687728276162026,0.0003500279853524709,0.0008699310698768628,-3.916082738156227e-05,-0.0015604064825220083,-0.0010347661788488406,0.0005396531043353831,-0.000495972448158415,-0.2071649730205536,-51.26553726196289,-6.646622657775879,18.24408721923828,1.7677713632583618,-0.8026840686798096,0.14653168618679047,,,,,,,,,
1739302285.1148717,-0.1296328795160462,1.0506861179360085,-0.3584572638481442,-1.4318745264545465,1.4961207598710091,1.1818921768602952,1.3687711641726281,0.0018042516718869504,0.0008400153182394211,0.0010042941235398465,0.0007225797586044349,-0.0008083828761236725,-0.0004067567698587043,-0.0015219122380710891,-0.2547723948955536,-51.21396255493164,-6.698197364807129,18.16870880126953,1.7677713632583618,-0.8090927600860596,0.16026459634304047,,,,,,,,,
1739302285.1248984,-0.12963671792510675,1.05068981912671,-0.3584612466911406,-1.4318784165065745,1.4961222265463952,1.1818896923762972,1.3687765645123833,0.0005543305925566102,0.0007032727020655576,-0.0006410902152410222,-0.0009847551584600714,0.0006048366888793913,0.0011923532302117912,0.0007159916740404758,-0.2309686839580536,-51.26553726196289,-6.622818946838379,18.22028350830078,1.7677713632583618,-0.8026840686798096,0.07969819009304047,,,,,,,,,
1739302285.1349435,-0.12963842170928297,1.0506856754428184,-0.35846192301098495,-1.4318709611009757,1.4961214645339946,1.1818901391836427,1.3687779881333926,-0.0005630904817810246,0.00026237195608922305,-0.0008313532864086873,0.0024631464670061493,-0.00023475660612246122,-0.0007948029845241383,5.736790112091894e-05,-0.2071649730205536,-51.23776626586914,-6.622818946838379,18.12110137939453,1.7741800546646118,-0.8155014514923096,0.09983979165554047,,,,,,,,,
1739302285.1449454,-0.12963638553272985,1.0506839628857487,-0.35846014745873095,-1.4318773754631922,1.4961229798540778,1.1818896922048214,1.368776934945144,0.00113076707423708,5.346288901396731e-05,-0.0010772426254777201,-0.0004550778910572102,0.0008787824640622162,0.0013365219670741155,-0.00026627059946152885,-0.2309686839580536,-51.21396255493164,-6.646622657775879,18.19647979736328,1.7613626718521118,-0.8026840686798096,0.11265717446804047,,,,,,,,,
1739302285.1558988,-0.12964213216899098,1.0506856725720566,-0.3584630071735908,-1.4318781504708453,1.4961222207041103,1.181890843383945,1.3687742150585454,-0.0007078848834570428,-0.0003007700896493307,-0.0014076341283721847,-0.0007073285681010701,9.063759193529125e-05,0.0008603693005592379,-0.00020015660529497647,-0.1555902659893036,-51.23776626586914,-6.646622657775879,18.22028350830078,1.7677713632583618,-0.8155014514923096,0.13279877603054047,,,,,,,,,
1739302285.1669912,-0.1296364817260585,1.0506877528201763,-0.3584601461667848,-1.4318745264532005,1.4961214600642456,1.1818920509217439,1.3687777077928331,0.00046833512998511914,0.0011326263235925246,-0.0002624106773613031,-3.678492057465656e-05,-8.295366438645728e-05,-0.0004784414325077498,0.001268292013909783,-0.2309686839580536,-51.26553726196289,-6.646622657775879,18.16870880126953,1.7741800546646118,-0.8090927600860596,0.10624848306179047,,,,,,,,,
1739302285.1778812,-0.12963835171950544,1.050684201526846,-0.35845806636077876,-1.4318816034962416,1.496122239636577,1.1818881490820712,1.368778852298169,0.0014380954021178465,-0.0012731483899186752,-0.0002174685229536906,-0.0011458576009006874,0.000601998992643205,-0.0011906797328645126,0.0005140885412654008,-0.2071649730205536,-51.21396255493164,-6.674393653869629,18.22028350830078,1.7677713632583618,-0.8026840686798096,0.09343110024929047,,,,,,,,,
1739302285.187953,-0.12963841879176458,1.050687673351374,-0.3584601462596505,-1.4318729910808632,1.4961218596546373,1.1818892608527582,1.3687788524533948,3.7757213324767435e-05,-4.878763300563327e-05,-0.0006476580539873814,-0.00011809546154804796,-1.4074949541979104e-05,-0.0013282605923280906,-0.0009920672716022274,-0.2071649730205536,-51.26553726196289,-6.646622657775879,18.14490509033203,1.7677713632583618,-0.8090927600860596,0.09343110024929047,,,,,,,,,
1739302285.1988683,-0.12963671761302112,1.0506907813405817,-0.3584601461506348,-1.4318775949143367,1.4961223339699665,1.1818928432470308,1.368772939543759,0.001134988514185786,0.0024552713493021395,-0.0014472005905049792,-0.000922755040228997,0.000865110007126376,-0.0002665231382411939,-0.0018809578422926828,-0.2309686839580536,-51.26553726196289,-6.646622657775879,18.19647979736328,1.7677713632583618,-0.8155014514923096,0.14653168618679047,,,,,,,,,
1739302285.2088733,-0.12963671793710205,1.0506898191671787,-0.35846014615063426,-1.431878388938164,1.4961214243088108,1.1818890304381253,1.3687721426398178,-0.0002923483744952091,0.0009093985577242883,-0.0010909160203010978,-0.0012999753408829947,0.00028100680730846133,0.0012887061603365604,-7.01288691685874e-05,-0.2309686839580536,-51.26553726196289,-6.646622657775879,18.22028350830078,1.7741800546646118,-0.8090927600860596,0.15294037759304047,,,,,,,,,
1739302285.2189124,-0.1296355706567802,1.0506859404250306,-0.35846014615063426,-1.431876606244403,1.4961229778655154,1.1818938631608698,1.3687736850907217,-0.0003420891924055795,0.0003053040065636725,-0.0007875768749513716,-0.0005867673336126021,0.0005067216035840624,-0.00032328828723552684,0.0003802593472975611,-0.2071649730205536,-51.23776626586914,-6.646622657775879,18.19647979736328,1.7613626718521118,-0.8155014514923096,0.14012299478054047,,,,,,,,,
1739302285.2289722,-0.1296349266272305,1.050691531745788,-0.3584640086175089,-1.4318757350240694,1.4961214243069068,1.1818902861134513,1.3687762498838325,0.002359862056345901,0.00023491936820769967,-0.0009791718377179495,0.0006498844648589923,0.000650024397519102,0.0005863296974284713,0.002108004003224399,-0.2547723948955536,-51.28934097290039,-6.595047950744629,18.19647979736328,1.7741800546646118,-0.8090927600860596,0.10624848306179047,,,,,,,,,
1739302285.239009,-0.12963834772325078,1.0506839934466439,-0.3584619025819867,-1.4318756525553316,1.4961229798533964,1.1818920856087627,1.3687776286529065,-0.00016190972762818618,-0.00038881145239803286,-0.0010412164333685314,0.0007870842197442488,0.00041996319788701133,0.0006562166958479433,0.0028740712347958856,-0.2071649730205536,-51.21396255493164,-6.622818946838379,18.19647979736328,1.7613626718521118,-0.8090927600860596,0.07969819009304047,,,,,,,,,
1739302285.2495227,-0.1296384304564376,1.0506867085541731,-0.3584601374016342,-1.431875515433983,1.496121343852912,1.1818921701066571,1.3687768824841935,-0.00035579313804709077,0.0005745510233931687,-0.00015891297105661135,-0.0004148102564207302,-0.0004418944166454916,0.00035263136636270363,0.00221388133638838,-0.2071649730205536,-51.23776626586914,-6.646622657775879,18.16870880126953,1.7741800546646118,-0.8090927600860596,0.09983979165554047,,,,,,,,,
1739302285.2598796,-0.12963630445083488,1.0506861030989625,-0.358458066397068,-1.4318773479966755,1.4961182061998273,1.1818920459268372,1.3687692410590673,-0.0014572270040282974,0.0003827138472771663,0.0008557196631762711,-0.00040283809387794376,-0.0008807255492840343,-0.0008477737993613241,-0.003036649522742985,-0.2071649730205536,-51.21396255493164,-6.674393653869629,18.19647979736328,1.7741800546646118,-0.8090927600860596,0.14653168618679047,,,,,,,,,
1739302285.2708728,-0.129630878624337,1.0506881508751318,-0.35846047287239136,-1.4318788419020325,1.4961174305527467,1.1818920983975065,1.3687737692195645,0.001931011546624124,0.0011948974109299237,-0.0002523672387787526,-0.0004996376913213573,0.00013271201248334107,0.00019897751431444233,-0.00030898292646814847,-0.2825433909893036,-51.23776626586914,-6.646622657775879,18.19647979736328,1.7805887460708618,-0.8090927600860596,0.11265717446804047,,,,,,,,,
1739302285.2809727,-0.1296363006585774,1.0506839628997224,-0.35845652210418305,-1.4318766072745075,1.4961222221755044,1.1818929605699373,1.3687721702394147,-0.0007691763421590621,-0.0014260939856153077,0.0008321177027229415,0.0005967436457061609,0.0007061145142557008,0.000494224106932353,-0.0007338300650160159,-0.2071649730205536,-51.21396255493164,-6.698197364807129,18.19647979736328,1.7677713632583618,-0.8155014514923096,0.15294037759304047,,,,,,,,,
1739302285.2919352,-0.12964042532647466,1.0506839628857483,-0.35846014615198013,-1.4318792130844162,1.496122911985394,1.1818935611933439,1.3687703282113395,-0.0014743245161667252,-7.927891688454334e-05,-0.00035207921014583307,-0.0018557548595570194,0.0012085544937818949,0.0006959298379447963,2.9503369813093077e-05,-0.1793939769268036,-51.21396255493164,-6.646622657775879,18.22028350830078,1.7613626718521118,-0.8219101428985596,0.13279877603054047,,,,,,,,,
1739302285.3029392,-0.1296403904882671,1.050686915155314,-0.3584630068495629,-1.4318765944752976,1.496121464533538,1.1818923500037595,1.3687725513701614,0.0001359011901150434,0.0004756353354860849,-0.0014223120217587263,-0.00042385494329419426,0.0013870050505685857,0.00040906912395657636,-0.001172953341760036,-0.1793939769268036,-51.21396255493164,-6.646622657775879,18.19647979736328,1.7741800546646118,-0.8026840686798096,0.14653168618679047,,,,,,,,,
1739302285.312945,-0.1296350054157343,1.0506876743784759,-0.358458066301218,-1.4318781505026426,1.4961229798540776,1.1818892376670973,1.3687784639946863,0.0012585332690170207,-0.0013152398787663376,-0.0002912758392586319,0.0003085718935402894,0.0006681575145315946,0.00039664644510630745,0.0005760154858430626,-0.2547723948955536,-51.26553726196289,-6.674393653869629,18.22028350830078,1.7613626718521118,-0.8090927600860596,0.09983979165554047,,,,,,,,,
1739302285.3239026,-0.1296421367071555,1.050686188234842,-0.358458145833638,-1.4318745227587604,1.4961197211317059,1.1818929270682974,1.368777701334599,-0.0010239043433394848,-0.0009675157053061124,0.0005851026460228949,0.0020719282260391733,0.0011289054102258912,0.0003657470765165551,0.0016907621361350214,-0.1555902659893036,-51.21396255493164,-6.674393653869629,18.16870880126953,1.7613626718521118,-0.8155014514923096,0.10624848306179047,,,,,,,,,
1739302285.334908,-0.12963811259363023,1.0506897302993568,-0.35846014615108285,-1.4318801715984193,1.4961222241136707,1.1818892102820902,1.3687744697903055,-0.00037739253527512565,0.0024762421891436344,0.00019782846137357388,-0.0013780925828620724,0.0002887651762618564,0.0012944352429949207,-0.0006010878944816707,-0.2071649730205536,-51.28934097290039,-6.646622657775879,18.24408721923828,1.7677713632583618,-0.8026840686798096,0.09343110024929047,,,,,,,,,
1739302285.3459344,-0.12963500541458198,1.050687673349277,-0.3584580634085912,-1.4318743983765816,1.4961214593469108,1.1818890245756317,1.3687767800425408,0.0005044388252766542,0.0014892894509303388,0.0012226889756580327,0.00022299813222169043,-0.0003519678567447033,-0.0005688680614076519,1.3339362600652536e-07,-0.2547723948955536,-51.26553726196289,-6.674393653869629,18.16870880126953,1.7741800546646118,-0.8090927600860596,0.11265717446804047,,,,,,,,,
1739302285.356932,-0.12963843013381815,1.0506864701350764,-0.35846423427642776,-1.431876529823275,1.4961237375141268,1.181890099911866,1.368771414770683,-0.0010529673987664059,0.0012607525906395312,-0.0011897400772732892,0.0004312716937062197,0.0010791246835505325,0.00035045243965876893,-0.0013106543470508946,-0.2071649730205536,-51.23776626586914,-6.622818946838379,18.19647979736328,1.7549539804458618,-0.8155014514923096,0.14653168618679047,,,,,,,,,
1739302285.366967,-0.129636717290575,1.0506842366390572,-0.3584581018301089,-1.431874526792414,1.4961170663815868,1.181889676935904,1.3687697383760864,-0.0005201731104199997,-0.000804630434132921,0.0004008467293942571,-5.334970257922121e-05,-0.000919575461043289,0.00023703535786911243,-0.0032478793288153226,-0.2309686839580536,-51.21396255493164,-6.674393653869629,18.16870880126953,1.7741800546646118,-0.8155014514923096,0.16026459634304047,,,,,,,,,
1739302285.3779469,-0.12963558129141445,1.0506868242372915,-0.3584562574382932,-1.4318745264545483,1.4961218599054198,1.1818904219907929,1.368776893437354,-0.00038155220574907496,-0.0002155801787362374,0.001327370206339167,4.256856937158204e-06,-0.00045684171663032305,0.00031986449268957,0.0016812644254010107,-0.2071649730205536,-51.21396255493164,-6.698197364807129,18.16870880126953,1.7677713632583618,-0.8219101428985596,0.11265717446804047,,,,,,,,,
1739302285.3889701,-0.12963576918877834,1.05068878772808,-0.35846014615048605,-1.431880614090161,1.4961189503957053,1.1818896246002701,1.368775920002486,-0.00016177582798883078,0.0009732949212707652,-0.00028788938248312194,-0.0013137675616001494,-0.000628815143885863,0.0005377256107759278,-0.00019272808379194395,-0.2309686839580536,-51.23776626586914,-6.646622657775879,18.22028350830078,1.7677713632583618,-0.8155014514923096,0.09343110024929047,,,,,,,,,
1739302285.3999093,-0.12963670918319628,1.0506942449584515,-0.35845806636077865,-1.4318766062946477,1.496118959263434,1.1818888689318696,1.3687681409316406,-0.0007349998342421711,0.00333752172009592,0.0012979022071601537,-0.00010496980698797683,-0.0009461676911177915,-0.00019438778496508457,-0.0024078188409762348,-0.2309686839580536,-51.31711196899414,-6.674393653869629,18.19647979736328,1.7677713632583618,-0.8090927600860596,0.16026459634304047,,,,,,,,,
1739302285.4099696,-0.12963598961069395,1.0506863937631261,-0.35845660027911613,-1.4318791703070368,1.496119202821183,1.181888871300652,1.3687728464812312,0.00016224962982536975,-0.0014088130026687598,-3.482187381709115e-05,-0.0004313210767352249,-0.0010197712612749204,-9.540829894519694e-05,-0.0011420236505537168,-0.2071649730205536,-51.23776626586914,-6.698197364807129,18.19647979736328,1.7613626718521118,-0.8090927600860596,0.11998139321804047,,,,,,,,,
1739302285.4208698,-0.12963843001203262,1.050691773473753,-0.3584580653905041,-1.4318806233333334,1.4961222221726778,1.1818896660905411,1.3687733063725733,0.0005295166768053961,0.00120570148255108,0.0011566239258957187,-0.0002252551106563959,0.0007610098852528229,0.00019754599711093942,-0.000665637798192627,-0.2071649730205536,-51.28934097290039,-6.674393653869629,18.22028350830078,1.7677713632583618,-0.7889511585235596,0.10624848306179047,,,,,,,,,
1739302285.431942,-0.12963671739908453,1.050687074577533,-0.35845806777797373,-1.4318750799613227,1.4961228189460651,1.1818888676398496,1.3687743710311002,-0.0009989519584173447,-0.0002593183160057397,0.0008310438097197551,0.0013351009717535046,-0.0001442429097865085,0.00033542752726231704,0.002088282741783764,-0.2309686839580536,-51.21396255493164,-6.674393653869629,18.14490509033203,1.7613626718521118,-0.8090927600860596,0.10624848306179047,,,,,,,,,
1739302285.4429214,-0.12963841782103527,1.0506857942400674,-0.35845806668783015,-1.4318783889258169,1.4961261156491596,1.1818888669399688,1.3687734124757946,0.00012271725787534407,0.0005431739485313085,-2.390272663019017e-06,-9.940213168173616e-05,0.0018997658935227635,-0.00038711456148238406,0.0005975784770626704,-0.2071649730205536,-51.23776626586914,-6.674393653869629,18.22028350830078,1.7677713632583618,-0.8090927600860596,0.10624848306179047,,,,,,,,,
1739302285.452946,-0.12963835064055623,1.05068570233551,-0.35845628368376514,-1.4318766072618874,1.4961214644343137,1.1818881092798892,1.3687675385275233,-0.0005420259472409943,0.00014050515053711432,0.001418526873574573,0.00010523671980146358,-0.0019242913792442866,-0.000921562074726467,-0.001960114333389007,-0.2071649730205536,-51.23776626586914,-6.698197364807129,18.19647979736328,1.7741800546646118,-0.8026840686798096,0.15294037759304047,,,,,,,,,
1739302285.4629934,-0.12963648172205272,1.0506842052302812,-0.3584601111564121,-1.4318719932005708,1.4961203188092733,1.1818888669399676,1.3687759867914204,1.0775312542169396e-05,-0.00011058723162059029,-1.6320920377461913e-05,0.0015330794037764456,-0.0009444200010735474,-0.000794694977421436,0.0017811581280311448,-0.2309686839580536,-51.21396255493164,-6.646622657775879,18.14490509033203,1.7741800546646118,-0.8090927600860596,0.09343110024929047,,,,,,,,,
1739302285.4738958,-0.12963497913426295,1.0506839894861737,-0.3584602121279247,-1.4318766062429897,1.496122216716804,1.181890285658843,1.3687759473644212,0.00014141680134411422,-0.0009018195340897432,-0.00017678258448151695,0.0008393480774981428,-0.0008805497468774245,0.0006238054594120741,0.0016850510575947162,-0.2547723948955536,-51.21396255493164,-6.674393653869629,18.19647979736328,1.7677713632583618,-0.8090927600860596,0.11998139321804047,,,,,,,,,
1739302285.4839354,-0.12963671782865557,1.0506840689590278,-0.3584580660730968,-1.431876688660701,1.496116000314392,1.18189280353846,1.368774586125879,-0.0008449741153600656,-0.001156782870143488,0.0012438963235445679,-0.000642464937561014,-0.00254425708930226,0.0014593199518467457,-7.169058920100538e-05,-0.2309686839580536,-51.21396255493164,-6.674393653869629,18.19647979736328,1.7805887460708618,-0.8155014514923096,0.09343110024929047,,,,,,,,,
1739302285.4958735,-0.12963843045783813,1.0506880266696574,-0.3584562925504145,-1.4318745264550117,1.4961182453659614,1.1818888669579126,1.3687698157280475,-0.001477005773561422,0.0011802801523927984,0.0012724114159046232,0.000895926859983261,-0.0011478387567071377,-0.0002333191941978099,5.6086320781889175e-05,-0.2071649730205536,-51.26553726196289,-6.698197364807129,18.16870880126953,1.7741800546646118,-0.8090927600860596,0.13279877603054047,,,,,,,,,
1739302285.5058954,-0.1296367169650458,1.0506864976091705,-0.3584602433659417,-1.4318768535309836,1.4961195737435635,1.1818881092798892,1.3687729394233343,-0.0005160938230545385,0.00037310426545774565,-3.1468950418351866e-05,-0.00011700184049137717,-0.0015473784071614073,-0.0006541689456230861,7.29335593061594e-05,-0.2309686839580536,-51.23776626586914,-6.646622657775879,18.19647979736328,1.7869974374771118,-0.8026840686798096,0.10624848306179047,,,,,,,,,
1739302285.5159388,-0.12963429635133344,1.0506916478605421,-0.3584611008077434,-1.4318745274762195,1.496121136058558,1.1818884112579402,1.3687744933267754,0.0001584345430194387,0.002092108252518244,-0.0007225442403456262,0.0009587504463255613,-0.0006581939572550563,-0.00014290681091660022,-0.0010136332716355547,-0.2547723948955536,-51.28934097290039,-6.646622657775879,18.16870880126953,1.7677713632583618,-0.7962753772735596,0.11998139321804047,,,,,,,,,
1739302285.5269177,-0.12963771876064273,1.050686860223884,-0.358456998944886,-1.4318758909886706,1.4961221538346676,1.1818881092858706,1.3687733438885539,-0.00037563118624252213,0.0012910238642805131,-0.0001756648968313123,0.00029341158961787084,0.0002887911326347396,-0.0006782198495755372,-0.00043812120371394445,-0.2071649730205536,-51.21396255493164,-6.698197364807129,18.19647979736328,1.7677713632583618,-0.8026840686798096,0.09983979165554047,,,,,,,,,
1739302285.5379105,-0.12963493742254603,1.050688536482123,-0.3584562835797904,-1.4318766063534183,1.4961214241409888,1.1818903822601243,1.368770597934239,0.0006876173175874412,-6.232732078333711e-05,0.0007524528617696913,0.0004868043586230184,-0.001122067997740725,0.0007140390713565105,0.00016430902909643182,-0.2547723948955536,-51.23776626586914,-6.698197364807129,18.19647979736328,1.7741800546646118,-0.8219101428985596,0.12639008462429047,,,,,,,,,
1739302285.5479681,-0.1296367176119355,1.0506839639153471,-0.35845805188886726,-1.4318775219308952,1.4961229798533935,1.1818888669399676,1.368770597452389,-0.0005530480202063075,-0.0009300636262281608,0.00118768172892322,-0.0002760243771245381,0.0004733943924324282,-0.0008363317406451207,-0.0011891107012134583,-0.2309686839580536,-51.21396255493164,-6.674393653869629,18.16870880126953,1.7613626718521118,-0.8090927600860596,0.12639008462429047,,,,,,,,,
1739302285.5589397,-0.12963402557815368,1.0506840422536352,-0.3584601199048859,-1.4318727530648574,1.4961223790657177,1.1818888674244843,1.3687682160730428,0.000881392975451182,-0.0005151953205339535,-6.263734944156985e-05,0.0013990888832271144,0.0011165920999536688,-0.0006390119301680754,-0.0015620734885162012,-0.2547723948955536,-51.21396255493164,-6.646622657775879,18.14490509033203,1.7677713632583618,-0.8090927600860596,0.14653168618679047,,,,,,,,,
1739302285.5699298,-0.12963427708457978,1.0506861087987631,-0.3584622932258932,-1.4318734856750088,1.4961217348356377,1.1818896246000485,1.3687753606777786,-0.0004687197603545,-0.000534120689819085,0.000371402817670217,0.0005604425258723066,9.286278398677847e-05,0.0006216943892857068,0.00034546932670457154,-0.2309686839580536,-51.21396255493164,-6.646622657775879,18.14490509033203,1.7677713632583618,-0.8155014514923096,0.11265717446804047,,,,,,,,,
1739302285.5799592,-0.12963740553942182,1.0506839630311058,-0.3584598020771438,-1.4318727437900916,1.4961211226476623,1.1818888669399676,1.368770271549896,0.00028837448627331446,-0.0016076185466085391,0.0017927548595581063,0.0010463227569051034,0.0001994798113173501,-0.00015536741336910655,4.7966702333887155e-05,-0.2071649730205536,-51.21396255493164,-6.646622657775879,18.14490509033203,1.7677713632583618,-0.8090927600860596,0.13279877603054047,,,,,,,,,
1739302285.590949,-0.12963490039192183,1.0506895011345991,-0.3584620557049042,-1.4318747737034434,1.4961194583406516,1.1818888669399676,1.368776091439162,0.00047405388902547,0.0017155574686041858,-0.0001269621719452717,4.431428834231714e-05,-0.0009523169344010168,-0.00020218720647421364,0.0016098812697055895,-0.2547723948955536,-51.28934097290039,-6.646622657775879,18.16870880126953,1.7805887460708618,-0.8090927600860596,0.07969819009304047,,,,,,,,,
1739302285.6009772,-0.12963535971306447,1.0506887329874142,-0.35845830481169627,-1.431876615405956,1.4961229798329336,1.1818896246000459,1.3687754776242866,0.0010014467476199631,0.001241762937712596,0.0001342116993002281,-0.0002629168545528601,0.000832279330790579,0.00044994508465956066,0.0014296378659375687,-0.2071649730205536,-51.26553726196289,-6.674393653869629,18.19647979736328,1.7613626718521118,-0.8155014514923096,0.08610688149929047,,,,,,,,,
1739302285.6119623,-0.12963842997380798,1.0506887836962706,-0.3584612201986925,-1.4318727437776824,1.4961189638067511,1.181888709956541,1.368777280447742,-0.0006398632954958223,-0.001497432695283703,-0.0004572409330124297,0.001403200013162847,-0.0007089515020673148,-0.00031933850835883816,0.0020400221277070557,-0.2071649730205536,-51.23776626586914,-6.622818946838379,18.14490509033203,1.7677713632583618,-0.8090927600860596,0.09343110024929047,,,,,,,,,
1739302285.6229014,-0.12963528097784227,1.050687912752907,-0.35845806635944527,-1.4318798204800611,1.4961218584894083,1.1818896245997503,1.3687705582829568,-0.00036407880242321185,-3.626290175058367e-05,0.0006697545399896891,-0.0006695798434998383,-0.00030877624720100416,-0.00019766845067886436,-0.00036023022131745743,-0.2071649730205536,-51.26553726196289,-6.674393653869629,18.19647979736328,1.7677713632583618,-0.8155014514923096,0.12639008462429047,,,,,,,,,
1739302285.6339407,-0.12963662996574346,1.0506903484103882,-0.35846014647768304,-1.4318746088889898,1.4961236972850998,1.1818896246000457,1.368775266917593,0.0004930788969375907,0.0011869229566610086,0.00021410551542779547,0.0007068989598618688,0.0004066261511593202,0.0004736807508009154,0.0012176921696959448,-0.2309686839580536,-51.28934097290039,-6.646622657775879,18.16870880126953,1.7549539804458618,-0.8155014514923096,0.09983979165554047,,,,,,,,,
1739302285.6448677,-0.12963843034834208,1.05068783002031,-0.3584580663607842,-1.4318765267729385,1.496122222193318,1.1818873516198107,1.3687698398182229,-0.0006468106726754542,-0.0014558936744565657,0.0003736390390002214,0.0007533256179141225,0.0005013171861482828,-0.0001433491649933522,-0.0007906336331180664,-0.2071649730205536,-51.23776626586914,-6.674393653869629,18.19647979736328,1.7677713632583618,-0.7962753772735596,0.13279877603054047,,,,,,,,,
1739302285.6549056,-0.12963842754165295,1.050687701303999,-0.3584580663607787,-1.4318823925864286,1.4961203649406563,1.1818888669399674,1.3687753356608785,-6.533306006547857e-05,-0.0004292516257910411,0.0005580500997285527,-0.00248094914603595,0.0006448078911636451,0.0005204195457288014,0.0008747841555529775,-0.2071649730205536,-51.26553726196289,-6.674393653869629,18.24408721923828,1.7741800546646118,-0.8090927600860596,0.08610688149929047,,,,,,,,,
1739302285.664966,-0.12963670918840384,1.0506867481279814,-0.35846204362178397,-1.43187660635724,1.496120773966024,1.1818896246000457,1.3687713551125575,0.0008860573894521647,0.0004991378551622424,-0.0010755531957546416,0.0006038500239226668,-0.0007385165389255286,0.0005427301597751789,-0.0010663630900875141,-0.2309686839580536,-51.23776626586914,-6.622818946838379,18.19647979736328,1.7677713632583618,-0.8155014514923096,0.11998139321804047,,,,,,,,,
1739302285.6758718,-0.12963819089860998,1.0506880635188747,-0.3584601470959944,-1.4318774934538703,1.4961235759412457,1.1818888669579126,1.3687738540847723,0.0011325103064575772,0.0002435740827757418,0.0005676342897259406,0.0002649476640964785,-0.0006526832638557791,4.81336102791812e-05,0.0005778673023030368,-0.2071649730205536,-51.23776626586914,-6.646622657775879,18.16870880126953,1.7549539804458618,-0.8090927600860596,0.09983979165554047,,,,,,,,,
1739302285.6859536,-0.12963843045378176,1.050684068890004,-0.3584580653887329,-1.4318745265047927,1.4961184393630864,1.1818873516198112,1.3687755143841933,-0.0006372884853290604,-0.00013944922426083477,-0.00038896643632098984,0.00037207007669050264,-0.001107808259582446,-0.0008027064110109566,0.001087204569497811,-0.2071649730205536,-51.21396255493164,-6.674393653869629,18.16870880126953,1.7677713632583618,-0.7962753772735596,0.09343110024929047,,,,,,,,,
1739302285.6969647,-0.12963842642558265,1.050687822482485,-0.3584601461506287,-1.4318745267937085,1.4961210443638682,1.1818885137272577,1.3687682947320219,0.0002521899270560981,-0.00046483247035227285,-0.0005354601115535446,0.0004524008329965709,-0.0011828193212020412,-0.0010071016765300467,-0.0009368937140291067,-0.2071649730205536,-51.23776626586914,-6.646622657775879,18.16870880126953,1.7741800546646118,-0.8090927600860596,0.14653168618679047,,,,,,,,,
1739302285.70786,-0.12963528097782043,1.0506877008678914,-0.3584580662527718,-1.4318783889214228,1.4961222043129594,1.181889624598052,1.3687698005464457,-6.3843460570947e-05,-0.0010837345448936986,0.0005119895637127731,3.926450772941825e-05,-0.0002283557565444083,0.00013735986141835067,-0.0013333534879711758,-0.2071649730205536,-51.26553726196289,-6.674393653869629,18.22028350830078,1.7677713632583618,-0.8155014514923096,0.13279877603054047,,,,,,,,,
1739302285.7179682,-0.12963819311343378,1.0506871695997506,-0.35845522016404013,-1.4318745264545465,1.49612070637691,1.1818873123739542,1.3687755544184552,-0.00012491776496042418,0.0006030655853922259,0.0015613968877991019,0.0003962875518738585,-0.0003644036170695427,-0.0007546853531766424,0.0005877404874551126,-0.2071649730205536,-51.21396255493164,-6.674393653869629,18.16870880126953,1.7805887460708618,-0.7962753772735596,0.11998139321804047,,,,,,,,,
1739302285.7288775,-0.12963500109476217,1.05068775676288,-0.35845901127047264,-1.43187496869055,1.4961198955225763,1.181888866939746,1.3687713159436996,0.0008879261026346651,0.00018955911554409144,0.0001319082970721495,0.0005658085088196094,0.00020342635336164728,0.00012448047832938226,0.0005532547756515801,-0.2547723948955536,-51.26553726196289,-6.674393653869629,18.14490509033203,1.7869974374771118,-0.8090927600860596,0.11998139321804047,,,,,,,,,
1739302285.7399697,-0.12963630488430325,1.050686655682178,-0.3584580663767808,-1.431876847715065,1.4961182330668075,1.1818888669399674,1.3687722594638208,0.0006864159421612968,-0.00025451921425277837,0.0014555560446719218,2.725362194516722e-05,-0.001984787936350001,-0.0003302519793327901,0.0009099168776095402,-0.2071649730205536,-51.23776626586914,-6.674393653869629,18.16870880126953,1.7613626718521118,-0.8090927600860596,0.08610688149929047,712,679,751,40.957,0,0
1739302285.7509212,-0.12963761640614613,1.0506859182360055,-0.35846014658669934,-1.4318807332116257,1.4961229798451459,1.1818888800219196,1.3687716690908325,-0.000158748546924277,-0.00014181517244396676,-0.0007439402905673074,-0.0010036577641669624,6.0736154523015676e-05,-0.00044399149751914976,-0.0005534808235324913,-0.2071649730205536,-51.23776626586914,-6.646622657775879,18.22028350830078,1.7613626718521118,-0.8090927600860596,0.11998139321804047,711,676,751,41.065,0,0
1739302285.7609286,-0.1296328795035933,1.050683964307072,-0.3584561779083064,-1.4318766093365585,1.4961218467419706,1.181888866940189,1.3687732544892335,0.00047191560710456773,-0.00104705035338504,0.001877495203664085,0.0005345521158107776,0.0004054465805631523,0.00010027779356318863,-0.0001393046066194825,-0.2547723948955536,-51.21396255493164,-6.674393653869629,18.19647979736328,1.7677713632583618,-0.8090927600860596,0.11265717446804047,714,676,752,41.065,0,0
1739302285.7718956,-0.1296384301218173,1.0506859139704214,-0.3584580663501183,-1.4318769369271005,1.4961213423609034,1.1818888669399676,1.3687736970893825,-0.00094197506807903,0.0009617495871281535,0.00041268238723937483,-0.00039019728763150163,-0.001304446512946342,0.000798356956489233,0.0005799765018278779,-0.2071649730205536,-51.23776626586914,-6.674393653869629,18.19647979736328,1.7741800546646118,-0.8090927600860596,0.09983979165554047,712,677,751,40.957,1,0
1739302285.7828712,-0.1296352809778413,1.0506841522483532,-0.3584619553186065,-1.4318717061328707,1.4961214645332315,1.1818880089849222,1.3687744547434053,0.0007653255699264749,-0.0009047440575564554,-0.0003928964535385241,0.0011383594978599029,-0.00016950346346873794,-0.00012219264462793892,0.000709346310309748,-0.2071649730205536,-51.21396255493164,-6.622818946838379,18.16870880126953,1.7741800546646118,-0.8026840686798096,0.09343110024929047,712,678,751,41.174,1,0
1739302285.7939706,-0.12963497900892165,1.0506876777090524,-0.35846014615078375,-1.4318727441007684,1.4961207070353482,1.1818896245994797,1.3687729394232486,0.0001569528223431206,0.0008613745842591454,-0.00016928761387052625,0.0018406302041679527,-0.0006692990689514452,-9.472983102936576e-06,-2.8346661791868867e-05,-0.2547723948955536,-51.26553726196289,-6.646622657775879,18.14490509033203,1.7805887460708618,-0.8155014514923096,0.10624848306179047,710,678,750,41.065,0,0
1739302285.8058703,-0.12963598165420367,1.0506864024359983,-0.3584555838810784,-1.431876581497711,1.496119721466831,1.1818888669399674,1.3687698050679373,-0.0006045336146461892,-0.0002827939100406992,0.001640315198246094,0.00042333733898666857,-0.0005479739865885721,5.135970930461185e-06,-0.0015247016846486193,-0.2309686839580536,-51.23776626586914,-6.698197364807129,18.19647979736328,1.7613626718521118,-0.8090927600860596,0.13279877603054047,713,677,752,40.957,0,0
1739302285.8159356,-0.1296377116680387,1.0506901728037623,-0.358458075187146,-1.4318783889212812,1.4961189637883578,1.181888109279889,1.368767563229892,-6.130041351810994e-05,-0.0006755174741594887,0.0003550814856056512,-0.0003342418965287309,-0.0011575087208672151,-3.249090698721668e-05,-0.0015864622899955437,-0.2071649730205536,-51.26553726196289,-6.674393653869629,18.22028350830078,1.7677713632583618,-0.8026840686798096,0.15294037759304047,712,677,751,40.957,0,0
1739302285.8259497,-0.1296383244909377,1.0506850328137354,-0.35845796137826164,-1.431874526906762,1.4961238770391245,1.181888109279889,1.368771328950327,-0.0013166359308644307,-0.001688875815415306,0.0010748053746446038,0.0012603631822358144,0.00039775003216563544,1.5938121001449375e-05,0.0006935376467235084,-0.2071649730205536,-51.21396255493164,-6.674393653869629,18.16870880126953,1.7613626718521118,-0.8026840686798096,0.11998139321804047,712,678,750,41.065,0,0
1739302285.8369322,-0.12963761586831693,1.0506886438285725,-0.3584580663590008,-1.4318745274720392,1.4961223606517788,1.1818888669399674,1.36877329263618,0.00020132165565884706,-0.000310563875865694,-0.00015435178793244406,0.0008066155417414786,3.2985244708639606e-05,0.0002205355166446693,0.0011004376726042146,-0.2071649730205536,-51.23776626586914,-6.674393653869629,18.16870880126953,1.7677713632583618,-0.8090927600860596,0.10624848306179047,713,678,751,41.174,0,0
1739302285.8469946,-0.129633882959289,1.0506880610597524,-0.3584598802007072,-1.4318745264545636,1.4961203784071833,1.1818896115180935,1.3687736970893085,0.0006341673142453788,-0.00010809111872542472,-3.6033732809842415e-05,0.0007423594746306252,0.00026855227218868736,0.0004568869643881886,0.00026651337162041815,-0.2309686839580536,-51.23776626586914,-6.674393653869629,18.16870880126953,1.7741800546646118,-0.8155014514923096,0.09983979165554047,712,677,751,40.957,1,0
1739302285.8579032,-0.12963843045250423,1.0506852183858664,-0.35846477818927486,-1.4318710438559692,1.4961221817994093,1.1818881092798643,1.3687665534311597,-0.00047553996749193626,-0.0006199846099066643,-0.0017949630290571695,0.0009216377400223872,5.1082045046090755e-05,0.0002782535625364393,-0.0009540609211504823,-0.2071649730205536,-51.19015884399414,-6.622818946838379,18.12110137939453,1.7677713632583618,-0.8026840686798096,0.16026459634304047,713,677,752,40.957,2,0
1739302285.8689282,-0.12963577276908825,1.0506888671288641,-0.3584580624886165,-1.4318783980792547,1.4961222221937711,1.181888109279889,1.3687657426522084,0.0008153469107997353,0.0003599688457401849,0.0003649197822536241,-0.0010842924505887598,0.000480429699291429,-0.0002711749062442022,-0.000867704300040723,-0.2309686839580536,-51.23776626586914,-6.674393653869629,18.22028350830078,1.7677713632583618,-0.8026840686798096,0.14012299478054047,712,676,752,41.065,1,0
1739302285.8799455,-0.12963426178381968,1.0506867216899638,-0.3584580414232854,-1.4318783889214726,1.4961206934096605,1.1818873516198107,1.3687729394052297,0.0012510117194449238,0.0008388993293632346,0.0003258263537402542,1.3356946516555196e-05,1.6267982339197547e-05,0.00019587222338426474,0.0010810508002151047,-0.2547723948955536,-51.23776626586914,-6.674393653869629,18.22028350830078,1.7805887460708618,-0.7962753772735596,0.10624848306179047,712,676,752,40.957,1,0
1739302285.8899484,-0.1296350039996937,1.050687181499777,-0.35846014615021193,-1.431874535611913,1.496119681239599,1.1818888669399674,1.3687681769884699,0.00039448850240526417,0.0003304709548143588,0.0007369113544409981,-0.00047263802753009815,-1.2929202716006102e-05,0.0002452100736435096,-0.0015812255174472716,-0.2547723948955536,-51.21396255493164,-6.646622657775879,18.16870880126953,1.7613626718521118,-0.8090927600860596,0.14653168618679047,712,676,753,41.065,1,0
1739302285.8999662,-0.12963842041317689,1.0506843115742823,-0.35845806766897387,-1.431878843694451,1.4961229797982154,1.181888109279889,1.3687698005457811,0.0002944287834358101,-0.0012899156025426375,0.0011351480448230475,-0.0009446980302416564,-0.0014237908917735268,-0.00011351677565380887,-0.0008292318612006471,-0.2071649730205536,-51.21396255493164,-6.674393653869629,18.19647979736328,1.7613626718521118,-0.8026840686798096,0.13279877603054047,714,679,752,40.957,1,0
1739302285.9109545,-0.12964143228636726,1.0506899353641939,-0.3584544985266278,-1.4318766052758862,1.4961218586610823,1.1818888669399674,1.3687740503498718,-0.0011543175865928322,0.0005907891154063789,0.0020062841265405854,0.0004021891652777112,-5.324089021044868e-06,0.00026164720407936717,0.00140962697097581,-0.1555902659893036,-51.26553726196289,-6.722001075744629,18.19647979736328,1.7677713632583618,-0.8090927600860596,0.09983979165554047,712,678,751,40.957,0,0
1739302285.921884,-0.12963435258290487,1.0506864300661976,-0.35845819323995787,-1.4318768536871,1.4961207068717903,1.1818888669399674,1.3687776338751283,0.0007679779575005766,-0.0005527913038775523,0.0018757598043610182,-6.403378963426972e-05,0.0003198761928627977,0.00011839698390942909,0.0013334918855367214,-0.2309686839580536,-51.23776626586914,-6.698197364807129,18.19647979736328,1.7805887460708618,-0.8090927600860596,0.09343110024929047,712,678,753,41.283,0,0
1739302285.9328606,-0.12963842943642223,1.0506871540142184,-0.35846014619775246,-1.4318795733456149,1.4961230176100453,1.1818896246000457,1.3687760783724974,-0.0006192543715872169,-0.0008218529322901734,-0.00010790073059294413,-0.0003862024871354464,0.001685445743786964,-0.00032068618343565717,-0.00017795966452969396,-0.2071649730205536,-51.21396255493164,-6.646622657775879,18.19647979736328,1.7613626718521118,-0.8155014514923096,0.07969819009304047,712,679,753,41.065,1,0
1739302285.9429767,-0.12963830347624694,1.050686710023977,-0.3584580670179069,-1.4318745662872125,1.4961237370194445,1.1818873516198107,1.3687760783007195,-0.0009197101667185127,2.1138267795489695e-05,0.0006415849897600557,0.00033093913308606467,0.0005497333166962064,-0.00023753204452397182,0.001993577966616874,-0.1793939769268036,-51.23776626586914,-6.674393653869629,18.16870880126953,1.7549539804458618,-0.7962753772735596,0.07969819009304047,712,678,752,41.065,2,0
1739302285.9539614,-0.12963398138735116,1.0506867355189595,-0.35846075660297394,-1.4318794145465494,1.4961222215318255,1.1818881091183835,1.3687744546895702,0.0015361222145238089,0.00020691785492691207,-0.001403046820613325,-0.0009407381887884728,0.0002547026864019909,0.0002678141049332265,0.00040077381750366247,-0.2547723948955536,-51.23776626586914,-6.622818946838379,18.22028350830078,1.7677713632583618,-0.8026840686798096,0.09343110024929047,713,678,752,40.957,1,0
1739302285.964933,-0.12963395428784819,1.0506861117477388,-0.3584562836771424,-1.4318766093026474,1.4961214198372472,1.1818888688780336,1.3687666196933257,0.0007509893691266577,-0.00022335230899974966,0.001083389213544423,0.00027913367670325364,-3.666648233412882e-05,0.00026837972590644445,-0.0013729942767807088,-0.2547723948955536,-51.21396255493164,-6.698197364807129,18.19647979736328,1.7741800546646118,-0.8090927600860596,0.13279877603054047,713,674,753,40.957,1,0
1739302285.9749732,-0.12963600928630759,1.050685032807798,-0.358462291917846,-1.431876607601101,1.4961217393036623,1.1818881092799218,1.3687737370663795,-0.0006334789891074986,-0.000552429765077815,-0.0016061880794561254,-4.5087737231465265e-05,0.00030431793218338844,0.00012593015180889885,0.0011022131425901752,-0.2309686839580536,-51.21396255493164,-6.646622657775879,18.19647979736328,1.7677713632583618,-0.8026840686798096,0.12639008462429047,713,677,753,41.065,1,0
1739302285.985911,-0.12963843045383838,1.0506888837976385,-0.35846014616274713,-1.431876607261895,1.4961177167669308,1.1818864857225784,1.3687776293150873,0.0001789698716653103,0.0006793243293234056,-1.5639883428570624e-05,0.00045282585473683536,-0.0009021489168373951,-0.0009200769410162067,0.0019026460933333586,-0.2071649730205536,-51.23776626586914,-6.646622657775879,18.19647979736328,1.7677713632583618,-0.7889511585235596,0.09343110024929047,711,677,751,41.065,1,0
1739302285.9959178,-0.1296404283986917,1.050687930571343,-0.3584612201946545,-1.43187660771412,1.4961222221176995,1.1818896376819978,1.3687736971370883,-0.0007004287692499343,-0.001115867214509009,-0.000874194501527284,-0.0008077480253258723,-0.0006899733756424928,0.000607486080313822,0.0006944110306709597,-0.1793939769268036,-51.23776626586914,-6.622818946838379,18.19647979736328,1.7677713632583618,-0.8155014514923096,0.09983979165554047,711,678,751,40.957,1,0
1739302286.0068622,-0.12963842624557126,1.0506860320477627,-0.3584580313625563,-1.4318766459263321,1.4961228591730682,1.181888109279963,1.36876893631744,0.000417236762901281,-0.000114874580019573,0.0013855717823346631,-0.0015961342334319924,0.0013878421036008586,-0.00020615101158228235,-0.0003004735675268809,-0.2071649730205536,-51.23776626586914,-6.674393653869629,18.19647979736328,1.7613626718521118,-0.8026840686798096,0.14012299478054047,713,678,752,41.065,1,0
1739302286.01688,-0.12963648140201597,1.050688854653956,-0.3584581007093952,-1.4318786365101515,1.496117756994616,1.1818896246000459,1.368776078300744,0.00047605276310868337,0.0003957561769127425,-0.00041997701705658095,-0.001198901411325567,-0.0008424247813507214,0.00032026068784068003,0.00017559682212146713,-0.2309686839580536,-51.23776626586914,-6.674393653869629,18.22028350830078,1.7677713632583618,-0.8155014514923096,0.07969819009304047,711,679,752,40.957,1,0
1739302286.0269265,-0.12963671696104007,1.0506871815358987,-0.35845809972507864,-1.431876606248595,1.4961197212256683,1.1818881092798892,1.3687766702560662,-0.0005784533890398505,6.755842798576977e-05,-0.0001134199560653277,-0.000799615037359789,0.0007668394400040007,0.00013651133823488828,0.00011720718591420182,-0.2309686839580536,-51.21396255493164,-6.646622657775879,18.19647979736328,1.7613626718521118,-0.8026840686798096,0.07328949868679047,712,680,747,40.848,0,0
1739302286.0378788,-0.12963840388814601,1.0506869434450357,-0.35845806598920366,-1.4318727447950126,1.4961237372750367,1.1818881092798892,1.3687694468476193,-9.980802325028587e-05,-0.000802073097405484,0.0004817403666360047,0.0010790804582856204,0.0008799666912935657,0.00027795222986253226,-3.1231184085029446e-05,-0.2071649730205536,-51.21396255493164,-6.674393653869629,18.14490509033203,1.7549539804458618,-0.8026840686798096,0.13279877603054047,712,679,752,41.065,0,0
1739302286.0479069,-0.12963492667892648,1.0506879514983096,-0.35845650763042275,-1.4318783889214381,1.496121464533917,1.1818838692738216,1.3687704404622998,0.0006620668317935269,0.0003970239569253013,0.0010681537583649304,0.00027430066164340424,0.0006211910726760534,-0.0013169664226914746,0.0010972997208027742,-0.2547723948955536,-51.26553726196289,-6.698197364807129,18.22028350830078,1.7741800546646118,-0.8026840686798096,0.12639008462429047,712,679,752,40.957,1,0
1739302286.058974,-0.1296357730926644,1.050686197066724,-0.3584601462972534,-1.4318784255508872,1.4961207740218891,1.1818864856986433,1.368770585160163,-0.00018209923883479782,-0.000706607762659098,-0.00015003941210070556,-0.0006418875424437578,-0.00045216631444614945,-0.00016027492028249834,9.148452594495249e-05,-0.2309686839580536,-51.21396255493164,-6.646622657775879,18.22028350830078,1.7677713632583618,-0.7889511585235596,0.15294037759304047,709,672,751,41.065,2,0
1739302286.0690022,-0.12963842169328216,1.0506898545826677,-0.35845806636078115,-1.431881607227641,1.4961207068493176,1.1818880961979363,1.3687705582594731,-0.000856144336763286,0.00014392196364872243,-0.00027551562779799734,-0.0021014237295605125,0.0007224755139233641,-0.0008346432139101623,-0.0001737392233017226,-0.2071649730205536,-51.26553726196289,-6.674393653869629,18.22028350830078,1.7805887460708618,-0.8026840686798096,0.12639008462429047,710,679,752,41.065,1,0
1739302286.0798738,-0.12963637659938274,1.0506885465802547,-0.35846014615063426,-1.4318791612808908,1.4961206666468394,1.181889624599972,1.3687721817631704,0.0012175744538959774,-0.0006684165391623151,0.00038110114362507105,-7.889348631319126e-05,-0.000630978332780693,0.0002935553466795664,0.000736791662175505,-0.2309686839580536,-51.23776626586914,-6.646622657775879,18.19647979736328,1.7805887460708618,-0.8155014514923096,0.11265717446804047,711,680,752,40.957,1,0
1739302286.0899312,-0.12963808796230966,1.0506881774874801,-0.3584612172784691,-1.4318791703503058,1.4961214643676966,1.181888109279889,1.3687665514930927,0.0007321402325447057,-0.0005330126110995878,-0.0008084671179140624,0.00024581832124412947,-0.0006700481655637864,-0.0005175463670372485,-0.0012088008681773739,-0.2071649730205536,-51.23776626586914,-6.622818946838379,18.19647979736328,1.7741800546646118,-0.8026840686798096,0.16026459634304047,712,681,752,40.957,0,0
1739302286.100032,-0.12963756469904378,1.0506864574383759,-0.35845699892744676,-1.4318806173704255,1.4961222177243294,1.181888109279889,1.3687729394232158,-0.0004433814433273595,-5.234733281984665e-05,0.0012620401086667593,-0.00048772921680708065,1.8180965093535245e-05,-5.6440951100804385e-05,0.0006049109872192359,-0.1793939769268036,-51.21396255493164,-6.698197364807129,18.22028350830078,1.7677713632583618,-0.8026840686798096,0.10624848306179047,710,679,750,41.065,1,0
1739302286.1109512,-0.12963647296138667,1.0506850353292014,-0.35845807227894877,-1.4318745259381953,1.496118601763699,1.181888109279889,1.3687729263412962,0.00040260063718528167,-0.0013977422162371731,0.0004178557306559842,0.000643357221159039,-0.0004898934036688249,1.6422561586696633e-05,0.0005052230980717959,-0.2309686839580536,-51.21396255493164,-6.674393653869629,18.16870880126953,1.7677713632583618,-0.8026840686798096,0.10624848306179047,710,681,752,40.957,1,0
1739302286.1210058,-0.12963842169683715,1.0506885495658667,-0.3584562587465889,-1.4318799028963338,1.4961222200235436,1.181891275112325,1.3687713027833208,-0.0013308554612891288,-0.0010479530957100138,0.0019186502388178622,-0.0017403110630771134,2.5118961600982183e-05,0.0010314834269888565,-0.00033792955648664187,-0.2071649730205536,-51.23776626586914,-6.698197364807129,18.19647979736328,1.7677713632583618,-0.8026840686798096,0.11998139321804047,710,679,754,41.065,0,0
1739302286.1318848,-0.12963300650344506,1.0506902421518247,-0.3584602266045934,-1.4318761412962204,1.4961169978466886,1.1818881078322958,1.3687721133475714,0.0006740285519342562,-0.00030644376748132415,7.309608318501897e-05,0.0006202819309657019,-0.0010165804564521278,-0.00030916710009439556,-0.0006403664816746638,-0.2825433909893036,-51.23776626586914,-6.646622657775879,18.19647979736328,1.7741800546646118,-0.8026840686798096,0.14012299478054047,712,678,752,41.065,1,0
1739302286.142891,-0.12963376643367824,1.0506869421807894,-0.35846192882810746,-1.43187835076714,1.4961214644535255,1.181888829147653,1.3687722995725191,0.0005637203554130297,-9.109431691337982e-05,-0.00024065547024932363,-0.0002735678918013883,0.0017797719446062186,0.00020803512220119255,0.00012545842978023403,-0.2309686839580536,-51.21396255493164,-6.622818946838379,18.22028350830078,1.7741800546646118,-0.8090927600860596,0.11265717446804047,712,679,751,41.065,1,0
1739302286.1529658,-0.12963547922845153,1.0506859535574349,-0.3584616926166536,-1.4318766185666318,1.496122818946064,1.181888109279249,1.3687676902949049,0.0010082998055394687,-0.0008552691905984134,0.00013306357981906895,0.0006389935306628509,0.0007263282995190785,0.0003236771396756914,-0.0014818370721342668,-0.2071649730205536,-51.23776626586914,-6.622818946838379,18.19647979736328,1.7613626718521118,-0.8026840686798096,0.11265717446804047,710,680,751,41.065,1,0
1739302286.1649203,-0.12964034928500923,1.0506908164332773,-0.3584580663594452,-1.4318802540148086,1.4961207740209808,1.18188669642905,1.3687729394517294,-0.0015510496493393111,0.0016734214455482754,0.00022281002181963832,-0.0014810495805767146,-0.0006581106811739317,-0.0010684738461281134,0.0006343143840619248,-0.1793939769268036,-51.26553726196289,-6.674393653869629,18.24408721923828,1.7677713632583618,-0.8026840686798096,0.10624848306179047,711,681,752,41.065,1,0
1739302286.1758797,-0.12963128523402595,1.0506867365040733,-0.35845796137811214,-1.4318752778109742,1.496118601098826,1.1818888669373089,1.3687705167153885,0.0024982183774000803,-0.0013091461414198751,0.00013134826809248473,-0.0004465718632662061,-0.00010074922259770253,-0.0008495277907811018,0.0003218304113961585,-0.3063471019268036,-51.23776626586914,-6.674393653869629,18.16870880126953,1.7677713632583618,-0.8090927600860596,0.09983979165554047,711,678,752,40.957,1,0
1739302286.1859162,-0.12963458199297884,1.0506881786919449,-0.3584562836784259,-1.431876606282575,1.4961224969460702,1.1818891536497658,1.3687698003842015,0.0004891629441065713,0.00018706772922334996,0.0018705019519829336,3.8183485617024684e-05,0.000839592171223223,-0.0007066089497226298,0.00014305396532514184,-0.2309686839580536,-51.23776626586914,-6.698197364807129,18.19647979736328,1.7613626718521118,-0.8155014514923096,0.13279877603054047,709,677,752,41.065,1,0
1739302286.197935,-0.12963476612916242,1.0506907732659752,-0.3584593591076841,-1.4318755520796,1.49611630822397,1.1818881092790028,1.3687761183376363,0.000640166036489103,0.0007671968089564311,-0.0006683606512185092,-3.2159986107602612e-06,-0.0022250412445513163,-0.0004984092130387672,0.0007506106790521774,-0.2547723948955536,-51.26553726196289,-6.646622657775879,18.16870880126953,1.7805887460708618,-0.8026840686798096,0.10624848306179047,712,678,751,41.174,1,0
1739302286.207953,-0.12963214463736294,1.0506908645253807,-0.3584580666833846,-1.431876607380731,1.4961222221139876,1.181888109279889,1.3687744160538455,0.0014911080540362092,0.0002595398540814282,0.00010813574728972151,-0.00012604785110564688,0.0008701277331955929,0.0003329302184853886,0.0005637824428082348,-0.2547723948955536,-51.26553726196289,-6.674393653869629,18.19647979736328,1.7677713632583618,-0.8026840686798096,0.09343110024929047,713,678,750,40.957,1,0
1739302286.218918,-0.12963458316539897,1.0506908120890708,-0.35846014615063604,-1.4318756657973992,1.4961182538709814,1.1818873521043276,1.3687707689121127,0.0004945945467031094,0.00013844621113145989,0.0001320893493851641,0.0007203922135845621,-0.0021177575520151272,0.00014477210269611798,-0.0014592954254469778,-0.2309686839580536,-51.26553726196289,-6.646622657775879,18.19647979736328,1.7613626718521118,-0.7962753772735596,0.11265717446804047,711,677,751,40.957,1,0
1739302286.2289212,-0.12963662652715266,1.0506871815352128,-0.3584618584889437,-1.4318745542498812,1.496120773776311,1.181887351619819,1.3687681315979388,-0.0004537204022577254,-0.001663720404786653,-0.0004186461521972387,0.0007049807780700228,-0.0011449146061225353,-0.0006449446414250934,-0.0008519768307093116,-0.2309686839580536,-51.21396255493164,-6.622818946838379,18.16870880126953,1.7677713632583618,-0.7962753772735596,0.11998139321804047,711,677,752,40.957,1,0
1739302286.239862,-0.1296345540191803,1.0506888940572974,-0.3584601374016816,-1.4318773785158048,1.4961214511167436,1.1818888669399676,1.3687729394052732,0.00040100495916322513,0.0005329285093309394,-0.0004927448738024239,-0.0015261732024655183,0.0007563944359892639,0.0005418201653781673,0.00010959595188890969,-0.2309686839580536,-51.23776626586914,-6.646622657775879,18.19647979736328,1.7741800546646118,-0.8090927600860596,0.10624848306179047,712,677,750,41.065,1,0
1739302286.2499251,-0.12963940046077274,1.0506868358459789,-0.35846122902482386,-1.431876616771494,1.496121462547175,1.1818881092798892,1.3687729394232482,0.0007075464671393378,-0.001191535722181351,-0.0012690173415659638,-0.0002289502698169812,0.00025243678600590883,6.92833902723518e-05,0.0011234288286147095,-0.1793939769268036,-51.21396255493164,-6.622818946838379,18.19647979736328,1.7741800546646118,-0.8026840686798096,0.10624848306179047,711,676,752,40.957,0,0
1739302286.2609787,-0.12963549133541746,1.050691889261193,-0.35846085848623593,-1.4318768657031804,1.4961214645339098,1.1818881092798892,1.3687729394232486,0.00032819805827502687,0.0013522808594483618,-0.0004139103021192125,-0.00018857861373406336,0.0003687269194357296,0.000306465820508455,9.478724762023257e-05,-0.2071649730205536,-51.28934097290039,-6.646622657775879,18.19647979736328,1.7741800546646118,-0.8026840686798096,0.10624848306179047,713,678,752,40.957,1,0
