IITGN-Robotics/Franka_IITGN_ROBOTICS/franka_ros/franka_iitgn/data01/s_b_018.csv
time,fr3_joint1_pos,fr3_joint2_pos,fr3_joint3_pos,fr3_joint4_pos,fr3_joint5_pos,fr3_joint6_pos,fr3_joint7_pos,fr3_joint1_vel,fr3_joint2_vel,fr3_joint3_vel,fr3_joint4_vel,fr3_joint5_vel,fr3_joint6_vel,fr3_joint7_vel,fr3_joint1_eff,fr3_joint2_eff,fr3_joint3_eff,fr3_joint4_eff,fr3_joint5_eff,fr3_joint6_eff,fr3_joint7_eff,flexpin1,flexpin2,flexpin3,Force,ContactMic,ContactMic_gt
1739303984.0331235,-0.06007488937627527,1.0595827578283623,-0.4165384400272839,-1.456306140997769,1.5690012380137985,1.1471415793635342,1.327193094096095,-0.0018048311196415692,0.0007103921433640832,-0.0009761800814804951,0.000781403493929398,-0.0005988868173712163,-0.0002695001378317768,-0.0019655792147694386,-0.004833422601222992,-51.42026138305664,-8.043107032775879,17.52600860595703,1.8986917734146118,-1.5195419788360596,0.05955658480525017,,,,,,,,,
1739303984.0441456,-0.0600689928761896,1.0595986906671682,-0.4165378374285558,-1.4563041752081014,1.5690087243464492,1.1471460467800794,1.3271977123409835,0.00045315982952573767,0.002390955795713835,-0.0009355872962964319,0.000961452137750222,0.0005474790400373487,0.0007547189724287257,0.003238708845487974,-0.08021184056997299,-51.21396255493164,-8.019303321838379,17.40302276611328,1.7805887460708618,-1.4728500843048096,0.012864691205322742,,,,,,,,,
1739303984.055038,-0.06007214610896192,1.0596188449139046,-0.4165357253129364,-1.4563008781167024,1.5690080462082272,1.147155744945005,1.3271885397985288,-0.000527303889066331,0.0011432682570554598,2.1278450436877042e-05,5.508977593058948e-05,-0.00034555486906524813,-0.00028389667954831764,0.0005394780756064097,-0.03260441869497299,-51.05923843383789,-7.991532325744629,17.35541534423828,1.7549539804458618,-1.4472153186798096,0.03300629183650017,,,,,,,,,
1739303984.0670385,-0.06007204194221606,1.0596442419675725,-0.41653356468171915,-1.4563079865943542,1.569007851742546,1.1471645086588624,1.327193807092148,-0.00036467039834090376,0.0007874610100344005,3.504936364829233e-06,-0.0012472192796454417,-0.0004628127510582941,-0.0006101064538618171,0.0019489701105557626,-0.004833422601222992,-51.08700942993164,-8.019303321838379,17.37921905517578,1.7476297616958618,-1.4792587757110596,0.026597600430250168,,,,,,,,,
1739303984.0781097,-0.06007589159224862,1.0596603457372582,-0.41653285967335935,-1.4563147459115167,1.5690078648225032,1.1471613631836814,1.3271952731270178,0.0002702634895778481,0.0002787186345736578,0.0002947344912292571,-0.002190170311631687,0.00028942733055285644,-0.0007079307063293585,-0.0003971314899044401,0.018970288336277008,-51.08700942993164,-8.019303321838379,17.43079376220703,1.7476297616958618,-1.4398910999298096,0.03300629183650017,,,,,,,,,
1739303984.0890715,-0.06007417908358163,1.0596635723772465,-0.4165327816590037,-1.4563153186384135,1.569008609400654,1.147160725369262,1.3271943977281857,3.1290047352987857e-06,-0.0007148817769964762,-5.697079894937502e-05,-0.0005807059963539567,-0.0008891515547293964,0.0003309676896047579,0.0021682658972904203,-0.004833422601222992,-50.98386001586914,-8.019303321838379,17.40302276611328,1.7412210702896118,-1.4334824085235596,0.03941498324275017,,,,,,,,,
1739303984.0990796,-0.06007756908994076,1.0596670739379894,-0.41652862588552697,-1.4563104562564255,1.5690046684655123,1.1471590916137082,1.3271915549070832,-0.00036794393811641845,-0.0004234586297604539,0.001358095272846601,-0.0009325448752466425,-0.0007584278013058507,-0.0012034225221441758,0.001013132350679579,0.04277399927377701,-50.98386001586914,-8.043107032775879,17.35541534423828,1.7476297616958618,-1.4206650257110596,0.03300629183650017,,,,,,,,,
1739303984.1101022,-0.06007689466360943,1.0596705227387333,-0.41653355305855855,-1.4563080158663313,1.5690094191731019,1.1471598521788815,1.327193246595114,0.0005176877898419192,-6.066195707462381e-05,-0.0014046360708660807,-0.0015586724622839512,0.0018932596090384696,-4.975912253394005e-05,0.000249590500134118,0.04277399927377701,-50.96005630493164,-7.967728614807129,17.33161163330078,1.7348123788833618,-1.4270737171173096,0.019273381680250168,,,,,,,,,
1739303984.1201515,-0.060079316641770304,1.0596786164839895,-0.4165300875218866,-1.456307687058287,1.569005089262628,1.1471599655558005,1.3271947619163145,-0.0003515558351968497,0.00027475791300761725,0.0006931175694975654,0.0008156733009592988,-0.0011177031825679031,0.0003274405772864442,4.618890049070269e-05,0.06657771021127701,-51.05923843383789,-8.019303321838379,17.33161163330078,1.7348123788833618,-1.4270737171173096,0.0064559997990727425,,,,,,,,,
1739303984.1310837,-0.06007834442165937,1.0596764082151464,-0.41652730597403775,-1.4563094583957579,1.569009248652967,1.147159847322241,1.3271885513633714,0.0006130065598062531,-0.0010744064343955937,0.002084662740585576,0.00032681147561086117,4.6072384415007044e-05,0.00025964516521033215,-0.0003632338239212647,0.06657771021127701,-50.98386001586914,-8.019303321838379,17.35541534423828,1.7348123788833618,-1.4270737171173096,0.04673920199275017,,,,,,,,,
1739303984.1410947,-0.06007768299661478,1.0596758289367936,-0.41653224543198514,-1.456309458395694,1.5690086093946134,1.1471613631383375,1.3271857427651275,-0.0002232259430032338,-0.0013060073499663223,0.00023972870010037322,-8.808685882037015e-05,0.0002312141760679724,-2.5393139748438698e-05,-0.0014755467923797789,0.04277399927377701,-50.93228530883789,-7.991532325744629,17.35541534423828,1.7412210702896118,-1.4398910999298096,0.07969819009304047,,,,,,,,,
1739303984.1530523,-0.06007759990800409,1.059678241084987,-0.4165303130576165,-1.456303838761607,1.5690086050220333,1.1471606204983034,1.3271848623749307,-0.0008158150612256605,0.001992306545498755,-0.0002271582828796447,0.0008837902412986494,0.0008219121297663419,0.000611042040892679,-0.00258603460144163,0.04277399927377701,-50.96005630493164,-7.991532325744629,17.28003692626953,1.7412210702896118,-1.4334824085235596,0.08610688149929047,,,,,,,,,
1739303984.1640768,-0.06007204972785255,1.0596782927597763,-0.41653044820215906,-1.4563062851485589,1.5690079694601675,1.147161363138391,1.327192380698127,0.001621322920231964,0.0007982935154400457,0.00015027908279679106,-0.0010203566314633673,-0.0004162730758601619,0.0006616840057369486,0.00215763330105338,-0.004833422601222992,-50.93228530883789,-8.019303321838379,17.30384063720703,1.7476297616958618,-1.4398910999298096,0.026597600430250168,,,,,,,,,
1739303984.1750991,-0.06007760690384887,1.0596803258030612,-0.4165303260542405,-1.4563103767604113,1.5690050767910082,1.1471606103234517,1.3271915634433973,0.00020246446555654814,0.0017966185588838021,0.0012239286625978399,-0.0012707167349504964,-0.0007851009952819204,-0.00030965574782910354,0.00021970171907067392,0.04277399927377701,-50.96005630493164,-8.019303321838379,17.35541534423828,1.7412210702896118,-1.4334824085235596,0.03300629183650017,,,,,,,,,
1739303984.1851115,-0.060079316645822285,1.059676721059909,-0.41652790759227526,-1.4563055987787947,1.5690074972133605,1.1471609597842263,1.3271897211431158,-0.00053037946480104,-1.2574350363860298e-06,0.001063105967649575,0.0006403065053450299,-0.0010817986729803584,-0.0005320210498511021,-0.00010801390720597192,0.06657771021127701,-50.93228530883789,-8.043107032775879,17.30384063720703,1.7412210702896118,-1.4270737171173096,0.03941498324275017,,,,,,,,,
1739303984.1971009,-0.06007931664577523,1.059683154522562,-0.41652758577625076,-1.4563055960338034,1.5690101247186932,1.1471598478202985,1.327186102886326,-6.553075777914787e-05,4.788478022345414e-05,0.0018898253544388083,0.0012227345221917226,0.0015496548121518806,-0.0003033717314432402,-0.00024027409053532962,0.06657771021127701,-50.96005630493164,-8.043107032775879,17.30384063720703,1.7284036874771118,-1.4270737171173096,0.07969819009304047,,,,,,,,,
1739303984.207144,-0.060074179083581654,1.05967901982485,-0.41653037901786133,-1.4563059560755747,1.569008590504476,1.1471606112924853,1.3271844793863485,0.0010858058172679482,-0.0012277832414510784,-4.125705372529022e-05,-2.347266950740391e-05,0.0004051966773194459,-0.00011583540684330124,-0.0016023522305406174,-0.004833422601222992,-50.93228530883789,-8.019303321838379,17.28003692626953,1.7412210702896118,-1.4334824085235596,0.09343110024929047,,,,,,,,,
1739303984.2181141,-0.06007960605330714,1.0596851609701554,-0.41653142284151223,-1.4563056214507224,1.569009367060601,1.1471598480335796,1.327180698048062,1.872004849680882e-05,0.00027632661373320285,-0.00011863438529589811,0.0008458231251927279,0.0007541336923322773,-0.0007165689570232526,-0.0031459224029996465,0.06657771021127701,-51.00766372680664,-7.991532325744629,17.30384063720703,1.7348123788833618,-1.4270737171173096,0.09343110024929047,,,,,,,,,
1739303984.2281163,-0.06008155138724293,1.0596875550078035,-0.41653248531023535,-1.4563054941642954,1.5690076810291498,1.1471592471415553,1.327188479008304,-0.0011315493737160801,0.0012255122148145765,-0.0010042907386582727,0.000747939876083007,-0.0009172670264671253,0.0009559704396705345,0.0002816492463286506,0.09434870630502701,-51.00766372680664,-7.991532325744629,17.30384063720703,1.7476297616958618,-1.4206650257110596,0.05955658480525017,,,,,,,,,
1739303984.2390592,-0.06008144783794033,1.0596811330136195,-0.4165304056690407,-1.456308671545374,1.5690101242353054,1.1471641376062682,1.3271908653788496,-0.0008034862403081664,-0.0015397566313367361,0.0006308090585062478,-0.0004784244923966899,0.00022614161324191912,0.0014934459073654262,0.0006644459510482293,0.06657771021127701,-50.96005630493164,-8.019303321838379,17.33161163330078,1.7284036874771118,-1.4334824085235596,0.03941498324275017,,,,,,,,,
1739303984.249118,-0.06007760426939517,1.0596822039741232,-0.41652834812836437,-1.4563094596723019,1.5690093670606995,1.1471606056996069,1.3271869001440295,0.00027647597119020165,-0.0006208831909405854,0.0022917799025056404,-0.00012364035111669507,-0.00047046395618824,-0.0002617666885836081,-0.00034606189495219736,0.04277399927377701,-50.93228530883789,-8.043107032775879,17.35541534423828,1.7348123788833618,-1.4334824085235596,0.09983979165554047,,,,,,,,,
1739303984.2611487,-0.060075891929091296,1.0596792861697206,-0.4165304054158104,-1.4563055950526587,1.569008844875769,1.1471606461776924,1.3271877264072052,0.000633281357749548,-0.0014644111374621173,-0.00030218813312830786,0.000986938620626915,0.0007672411693153825,-0.0008571950023227615,-0.00014827255706798166,0.018970288336277008,-50.93228530883789,-8.019303321838379,17.30384063720703,1.7412210702896118,-1.4334824085235596,0.06596527993679047,,,,,,,,,
1739303984.2721412,-0.060077601205452705,1.0596805259010817,-0.41653251256424345,-1.4563062875280248,1.5690054304866843,1.1471606098390117,1.327191622927249,-0.00016990368346329107,0.00034339805162227044,-0.0011246812536590824,0.00028731191495767495,-0.0002680023524660464,-0.0007175948080520502,0.0011649639156680496,0.04277399927377701,-50.90848159790039,-7.991532325744629,17.30384063720703,1.7412210702896118,-1.4334824085235596,0.03300629183650017,,,,,,,,,
1739303984.2830544,-0.06007518214342212,1.0596783800425214,-0.41653277083030155,-1.4563016674963005,1.5690086091852884,1.1471599001460888,1.3271929179616084,0.0009350580745575099,-0.0009168586432302322,-0.0006484422145290169,0.0015956691310798834,0.000674649847834205,0.00011330619838420232,0.0026409516224445853,0.018970288336277008,-50.90848159790039,-7.991532325744629,17.28003692626953,1.7412210702896118,-1.4270737171173096,0.012864691205322742,,,,,,,,,
1739303984.2931376,-0.06007931707480715,1.0596842363682206,-0.41652838443239104,-1.4563055959167064,1.5690086087546056,1.1471600048019281,1.327187604833437,-0.0006363426318951931,0.0007132616501698901,-7.722762265055961e-05,0.0016011220805540038,0.00020867610744311797,-0.0010989901353021013,-0.0003446189193790179,0.06657771021127701,-50.96005630493164,-8.043107032775879,17.30384063720703,1.7412210702896118,-1.4270737171173096,0.03941498324275017,,,,,,,,,
1739303984.3040369,-0.06007931762011055,1.0596829535135246,-0.4165279075922752,-1.456309458395694,1.5690093668453633,1.147159143940373,1.3271884841430839,-0.0006820418311495139,0.00014141419613408957,0.0006844435903635872,-0.0008329287813543456,-0.0008663359052250773,-0.0006062687558634302,4.537730362859892e-05,0.06657771021127701,-50.93228530883789,-8.043107032775879,17.35541534423828,1.7348123788833618,-1.4206650257110596,0.05955658480525017,,,,,,,,,
1739303984.3140774,-0.06007919415579385,1.059684236392444,-0.4165287355055589,-1.456309776026103,1.5690092488386174,1.1471602021249765,1.3271928304206062,-0.00010130816175583633,-0.0007230079180607705,0.0003903440825402976,-0.0010522420171048912,0.0005622641820975164,0.0002491441480573987,0.0012774988337980477,0.06657771021127701,-50.96005630493164,-8.043107032775879,17.33161163330078,1.7348123788833618,-1.4206650257110596,0.019273381680250168,,,,,,,,,
1739303984.32511,-0.060077765304658144,1.059680526245799,-0.4165264770840543,-1.4563076758592226,1.5690043141576502,1.1471583368775313,1.3271898787935892,-6.349417956099372e-05,-0.00036298901697450663,0.001274055076084204,0.00012146363310927289,-0.0021164242205807837,-0.000499888835306354,3.396004410139995e-05,0.04277399927377701,-50.90848159790039,-8.043107032775879,17.33161163330078,1.7412210702896118,-1.4142563343048096,0.04673920199275017,,,,,,,,,
1739303984.33611,-0.06007931664607852,1.0596852734520965,-0.4165273059596823,-1.4563055959288196,1.5690078516606885,1.1471606054782926,1.3271892284123399,-5.6330724561101924e-05,0.0007063748041452236,0.0009198674170146289,0.0012853712298573701,-0.0005911192763673823,0.0009022125574325555,0.0013384937676259629,0.06657771021127701,-50.96005630493164,-8.019303321838379,17.30384063720703,1.7476297616958618,-1.4334824085235596,0.05314789339900017,,,,,,,,,
1739303984.3461149,-0.0600793165376422,1.059683201288727,-0.4165282597066741,-1.45630559970805,1.569007806680492,1.147162234849796,1.327184427886493,0.0002146272685133152,5.907980119549193e-05,-0.000313019761215134,0.0008430592086319027,-0.00017192292563467768,0.0004023033532412134,-0.0012495512781636612,0.06657771021127701,-50.93228530883789,-8.019303321838379,17.30384063720703,1.7476297616958618,-1.4472153186798096,0.06596527993679047,,,,,,,,,
1739303984.3571126,-0.06007760412504343,1.0596771240718268,-0.41652645057908005,-1.4563056044321094,1.5690063210980523,1.1471622690725485,1.3271934312701936,0.0005160710972149285,-0.0019002389966331925,0.0014411730374241662,0.0001604438144910666,-0.000899084277655783,0.0013436731720474623,0.0023443039432985923,0.04277399927377701,-50.88071060180664,-8.043107032775879,17.30384063720703,1.7476297616958618,-1.4206650257110596,0.026597600430250168,,,,,,,,,
1739303984.3671465,-0.06007760542415457,1.0596854439300634,-0.41653247644912766,-1.4563062846937473,1.569010070267483,1.1471613764356559,1.3271820824444587,0.000113078814685204,0.0009624267911839592,0.0003364096917139535,-5.500555106191735e-05,0.000973575364981305,0.0014507869415995552,-0.0024139975952156842,0.04277399927377701,-50.93228530883789,-7.991532325744629,17.30384063720703,1.7284036874771118,-1.4398910999298096,0.08610688149929047,,,,,,,,,
1739303984.3780375,-0.06007588868472824,1.059683299512917,-0.41653426799320203,-1.456307684225832,1.5690093649608277,1.1471594448244626,1.3271831987568126,0.0012143873353505882,0.001035808757542716,-0.001188118408708003,-0.0017103431855766372,0.0003291655760183133,-7.795725613825267e-05,-0.0024182949074773035,0.018970288336277008,-50.93228530883789,-7.967728614807129,17.33161163330078,1.7348123788833618,-1.4206650257110596,0.09983979165554047,,,,,,,,,
1739303984.3881664,-0.06008002693440936,1.0596830636015864,-0.4165287233508472,-1.4563074373002398,1.5690108817348063,1.1471659592702468,1.3271911336530842,0.00011494744559463024,0.0011810003825455397,0.0013735507336218853,0.0005854818999739103,0.0016476990099479148,0.001697629717278211,0.00010744660778783978,0.06657771021127701,-50.93228530883789,-8.019303321838379,17.33161163330078,1.7219949960708618,-1.4398910999298096,0.026597600430250168,,,,,,,,,
1739303984.3990536,-0.06007931957278353,1.0596794816568713,-0.41652802229406755,-1.4563113174554325,1.5690086094006255,1.147159142511882,1.327185768771853,-0.00056123286332006,-0.001548239698169751,-5.834798486156181e-06,-0.0014372276429447514,-7.263180343334582e-05,0.0007442083991718229,-0.002397643072104283,0.06657771021127701,-50.88071060180664,-8.019303321838379,17.37921905517578,1.7412210702896118,-1.4206650257110596,0.07328949868679047,,,,,,,,,
1739303984.4091368,-0.06007589257869532,1.0596825592905097,-0.41653208675539266,-1.456307662224465,1.569007545401849,1.1471583324989358,1.3271923791906564,0.0005209218421186173,-0.0009524832217989731,-0.0004052512654515517,-0.00015931943097667828,0.0002777902948848138,-0.0008259340935200747,0.0010483868059862334,0.018970288336277008,-50.93228530883789,-7.967728614807129,17.30384063720703,1.7412210702896118,-1.4142563343048096,0.026597600430250168,,,,,,,,,
1739303984.4201133,-0.06007589192909598,1.0596823457133004,-0.41653248526758113,-1.4563076757653322,1.569008609394623,1.1471590901581277,1.32718686060373,-0.00035027867527905884,-0.001487195200435637,0.00013046919384030159,-0.000613145613617372,-0.001264078224534954,-0.0008220211529599275,6.513700746163466e-05,0.018970288336277008,-50.93228530883789,-7.991532325744629,17.33161163330078,1.7412210702896118,-1.4206650257110596,0.07328949868679047,,,,,,,,,
1739303984.4301488,-0.0600759706335424,1.0596874430956873,-0.4165265440224791,-1.456307752248096,1.5690076947571243,1.1471583324980494,1.327187686273968,0.0005139529038007425,0.0003942290235432347,0.0007166885696397549,-0.0009782415476828534,-0.0007018324890136697,0.00012353802892585842,-0.0010663383758938302,0.018970288336277008,-50.96005630493164,-8.070878028869629,17.33161163330078,1.7476297616958618,-1.4142563343048096,0.06596527993679047,,,,,,,,,
1739303984.4411528,-0.06007761289448625,1.059686497068795,-0.4165324019187931,-1.4563076756100908,1.569008609399743,1.1471606054782844,1.327189999965936,-0.0009514938637196538,-0.0009234128042587221,0.00037719353839869347,-0.00014315718096905722,-0.00012107751531092222,-9.06594181484063e-05,-0.000570900773214035,0.04277399927377701,-50.96005630493164,-7.991532325744629,17.33161163330078,1.7412210702896118,-1.4334824085235596,0.04673920199275017,,,,,,,,,
1739303984.452127,-0.06007760412509354,1.0596867355183726,-0.41652790759315034,-1.4563048718427636,1.5690078472183946,1.1471590921500299,1.3271832390022371,-0.001174034714979015,0.00019133369687773143,7.22733223884641e-06,0.0017500458739862453,1.0005972299944005e-05,-0.0016014191823395384,-0.0005945807688741505,0.04277399927377701,-50.96005630493164,-8.043107032775879,17.30384063720703,1.7476297616958618,-1.4206650257110596,0.09983979165554047,,,,,,,,,
1739303984.4630482,-0.060074179083581654,1.0596851038735275,-0.41653216717072983,-1.4563055963796392,1.5690092100772555,1.1471606054782955,1.3271899979890325,0.0013936735879713823,-5.3984384314639225e-05,-1.0592680573894681e-05,-0.00025997130549387364,0.0005932638241626936,-0.0009367519916551783,0.00026717279909861305,-0.004833422601222992,-50.93228530883789,-8.019303321838379,17.30384063720703,1.7348123788833618,-1.4334824085235596,0.04673920199275017,,,,,,,,,
1739303984.4730654,-0.060077499019734214,1.059683744563586,-0.416530405120146,-1.45630767897302,1.5690086093979707,1.1471622290355952,1.3271884713984858,0.00016943319995130733,-0.0009026622786401817,-0.000137524016526432,-0.0013767871338915014,0.0003993365099327802,-0.00047869365805252044,0.0004528813069788817,0.04277399927377701,-50.90848159790039,-8.019303321838379,17.33161163330078,1.7412210702896118,-1.4472153186798096,0.05955658480525017,,,,,,,,,
1739303984.4831245,-0.06007950727136379,1.0596866338116016,-0.41653248531622616,-1.45630767571873,1.5690065882330373,1.1471639413760988,1.3271848418351753,-5.8207105778577744e-05,0.0009067990808592425,-0.001050983012429969,-0.0013886883346685575,-0.000571467481224378,-0.000667173845019651,-0.0012240599284134394,0.04277399927377701,-50.96005630493164,-7.991532325744629,17.33161163330078,1.7284036874771118,-1.4334824085235596,0.07969819009304047,,,,,,,,,
1739303984.4940856,-0.060075891615056165,1.0596837455460784,-0.41652790465018186,-1.4563076727752358,1.569010125185339,1.1471607234500263,1.327185774467537,0.0007297715304905808,-0.0005003455734185487,0.001525005611932466,0.00019034329331777284,0.001626271037951026,-0.0006423537699570881,-0.0011274630319289285,0.018970288336277008,-50.90848159790039,-8.043107032775879,17.33161163330078,1.7284036874771118,-1.4334824085235596,0.07328949868679047,,,,,,,,,
1739303984.5041642,-0.06007763920102859,1.0596874550311686,-0.4165268664011031,-1.4563076330932643,1.569008609400637,1.1471618233774188,1.3271841919545746,7.601615588409717e-05,0.0009961375015505734,0.0015807718221261576,-0.0003827550384666344,0.00040060118420004947,0.001674183447058843,-0.0006484827297347543,0.04277399927377701,-50.96005630493164,-8.094681739807129,17.33161163330078,1.7412210702896118,-1.4069321155548096,0.05955658480525017,,,,,,,,,
1739303984.5151327,-0.06007595884710794,1.0596854570902992,-0.41653040653690887,-1.4563077531926625,1.5690066438283472,1.1471592472199836,1.3271903756036814,0.000930412636611559,0.00026219507811962145,-0.00037634897900288715,-0.0009203380585984157,-0.00020705890826282875,0.0001690274144119448,-0.0005060395136080767,0.018970288336277008,-50.93228530883789,-8.019303321838379,17.33161163330078,1.7219949960708618,-1.4206650257110596,0.0064559997990727425,,,,,,,,,
1739303984.5261421,-0.06007931664615482,1.0596854570539602,-0.4165324853162387,-1.4563086961463778,1.569008711792185,1.1471645420536374,1.3271844621294064,-0.0005091028560622818,-0.0005384643037242929,-0.00051434366024392,0.0006113877102983027,-0.0006966249585621903,0.00045896585722068623,-0.0016563762077031886,0.06657771021127701,-50.93228530883789,-7.991532325744629,17.33161163330078,1.7284036874771118,-1.4398910999298096,0.06596527993679047,,,,,,,,,
1739303984.5371065,-0.060075891604312856,1.0596854483689968,-0.41653072495555477,-1.456303813269081,1.5690101246968577,1.1471606055321195,1.3271948014014332,0.0009620117749829426,-0.0001699488786159936,0.00043202781339117264,0.0016058089742278917,8.023711746436935e-05,-0.00022306927151840553,0.002364733872985445,0.018970288336277008,-50.93228530883789,-8.043107032775879,17.28003692626953,1.7284036874771118,-1.4334824085235596,0.03300629183650017,,,,,,,,,
1739303984.5491986,-0.06007943067881085,1.0596793188643427,-0.4165339231787505,-1.4563079081642392,1.5690084392814152,1.1471583455800016,1.327183721658677,-0.0009393705721273179,-0.002351093541719797,0.0006712653230359285,-0.0003041773323492016,-0.0002987132891592118,-0.00031419546532301837,-0.0008636550078757685,0.06657771021127701,-50.85690689086914,-7.967728614807129,17.33161163330078,1.7412210702896118,-1.4142563343048096,0.09983979165554047,,,,,,,,,
1739303984.5611162,-0.060077683371001084,1.0596810953638824,-0.4165304314170924,-1.4563076757191125,1.5690093670603875,1.147164086370748,1.3271907043053233,-0.0004317413571023771,-0.0019245885707955103,0.0002304723041832407,-0.00013253856827029461,-0.00036303912213134345,0.000898838153320376,0.00011120695637009822,0.04277399927377701,-50.90848159790039,-8.019303321838379,17.33161163330078,1.7348123788833618,-1.4270737171173096,0.03941498324275017,,,,,,,,,
1739303984.5731397,-0.060076579312378066,1.0596837445645828,-0.4165307175309865,-1.4563055959638123,1.5690078386585988,1.14715909210417,1.3271884707521857,0.0012798176130262896,-0.0011575428716842785,-0.0002524767229549358,-0.0005925325199959395,-0.001269433639929389,-0.0011567504422504461,9.547896109035983e-05,0.04277399927377701,-50.90848159790039,-8.019303321838379,17.30384063720703,1.7476297616958618,-1.4206650257110596,0.05955658480525017,,,,,,,,,
1739303984.5841134,-0.06007760704611437,1.059689600786251,-0.4165324027551662,-1.4563036513626417,1.5690084914297489,1.1471599006305353,1.3271859822626257,0.0002789693456612457,0.0009638691138388806,-0.00055712834399753,0.0015324280994187655,-0.0008379855076932675,-0.0006663036787782901,-0.0016152900319231812,0.04277399927377701,-50.96005630493164,-7.991532325744629,17.28003692626953,1.7412210702896118,-1.4270737171173096,0.07969819009304047,,,,,,,,,
1739303984.595054,-0.060075970525294176,1.0596865261681088,-0.4165285433760326,-1.4563037592878334,1.5690092473844048,1.147159888517911,1.3271903119700421,0.00037608717771873957,0.0006561425117561377,0.0008852379171285982,0.001076198715083019,-0.0001714967695466583,0.00052028394120847,0.0009930811540633485,0.018970288336277008,-50.90848159790039,-8.043107032775879,17.28003692626953,1.7348123788833618,-1.4270737171173096,0.04673920199275017,,,,,,,,,
1739303984.6050584,-0.060075891605649384,1.0596865194848128,-0.41653048352617167,-1.4563056724573258,1.5690093670586809,1.1471594433715266,1.3271903012744664,0.0001347640519618003,-0.0007488981558232632,-0.0007458736078051336,0.0009720719537129945,0.00046360875415459854,-0.0003706752415296123,0.0011993539353846404,0.018970288336277008,-50.98386001586914,-8.019303321838379,17.30384063720703,1.7348123788833618,-1.4206650257110596,0.07969819009304047,,,,,,,,,
1739303984.6151254,-0.06007763043203234,1.0596908800277691,-0.41652937410226865,-1.456309713495058,1.5690093670607075,1.1471651987030433,1.3271899995527456,0.000149460063849282,0.0001525699896481801,0.0007775977569696529,-0.0009890328177545298,0.001508240604675293,0.001265285215466957,0.001762906164279893,0.04277399927377701,-51.00766372680664,-7.991532325744629,17.35541534423828,1.7348123788833618,-1.4334824085235596,0.04673920199275017,,,,,,,,,
1739303984.6271996,-0.06007585267656883,1.0596886360046869,-0.4165304055088146,-1.4563038932348424,1.5690087113315947,1.1471623873743664,1.3271883966012383,0.0011467663748506436,0.0008861742212482005,0.00011877839393143028,0.001085874908531915,0.0006810161523386753,2.5807106210294674e-05,0.0011149352633274688,0.018970288336277008,-50.93228530883789,-8.019303321838379,17.28003692626953,1.7284036874771118,-1.4206650257110596,0.05955658480525017,,,,,,,,,
1739303984.6380978,-0.06007931664570198,1.0596896008043455,-0.4165304040728272,-1.4563094673190278,1.5690101109901518,1.1471574796889734,1.3271866382196618,-0.0006441859872729303,0.0009161935121341283,-0.000108502425279012,-0.001061182959508889,0.0006400595646571871,-0.0013326205555613947,-0.0005851381440232238,0.06657771021127701,-50.96005630493164,-8.019303321838379,17.35541534423828,1.7284036874771118,-1.4069321155548096,0.06596527993679047,,,,,,,,,
1739303984.6491334,-0.060074217082564725,1.0596881712801487,-0.41653248517086977,-1.456305826916846,1.5690093670606302,1.1471594491851123,1.3271876058138183,0.0010358200843603367,-7.01326657549679e-05,-0.00047238576503583966,0.0006396424586374504,-0.0004068202410882982,-0.0001224833823550937,-0.0005562315636328442,-0.004833422601222992,-50.96005630493164,-7.991532325744629,17.30384063720703,1.7348123788833618,-1.4206650257110596,0.06596527993679047,,,,,,,,,
1739303984.6591635,-0.06007417908422517,1.059681826113704,-0.4165353780944005,-1.4563085940756322,1.5690086031019115,1.1471614154722518,1.3271905028371778,0.0008081676032349059,-0.0007588367236539753,-0.0015133533196114868,-0.001708842462225082,-3.056032092493816e-05,0.00016193157631859845,-0.0001727253379829708,-0.004833422601222992,-50.88071060180664,-7.943924903869629,17.33161163330078,1.7412210702896118,-1.4398910999298096,0.03941498324275017,,,,,,,,,
1739303984.6700597,-0.06007589160431285,1.059683983969742,-0.41653452810025304,-1.4563076766686667,1.569008452417167,1.147159207895993,1.3271861029416137,0.00016743064994364018,-0.0006326694458653409,-0.0005113894993327161,-0.000223823848719659,-0.00020875337454101588,-0.0013819371578207454,0.0006544721160967759,0.018970288336277008,-50.90848159790039,-7.967728614807129,17.33161163330078,1.7412210702896118,-1.4206650257110596,0.07969819009304047,,,,,,,,,
1739303984.6801157,-0.06007589160431285,1.0596874936269653,-0.4165324843394916,-1.4563020305747973,1.5690089962412308,1.1471606447261349,1.3271914616343152,0.0008381311189478556,0.0008551682371803937,-0.0001111900940995302,0.0009375219034131287,-0.001105233400506231,0.00019408655797896376,0.0013544098186052548,0.018970288336277008,-50.96005630493164,-7.991532325744629,17.25623321533203,1.7348123788833618,-1.4334824085235596,0.03300629183650017,,,,,,,,,
1739303984.6901183,-0.06007760412504404,1.0596854845630523,-0.41653245882526324,-1.456307663944918,1.5690078517342712,1.1471606229215519,1.3271833626133502,-0.0004907765765214539,-0.001083060816050674,4.121220379374826e-05,0.00017085027690241233,0.000300658355364617,3.6858680810288806e-05,-0.0003890726909898999,0.04277399927377701,-50.93228530883789,-7.991532325744629,17.33161163330078,1.7476297616958618,-1.4334824085235596,0.06596527993679047,,,,,,,,,
1739303984.701138,-0.060077604449821666,1.059685563090606,-0.41652645973256663,-1.4563076757186084,1.569004790563733,1.147159090158226,1.3271908653542446,-0.0002200497378615217,0.00021804785365286283,0.0029270252809433777,-0.0001951752883689868,-0.0007742851197861661,-0.0008169249803875135,0.0005925227307298866,0.04277399927377701,-50.93228530883789,-8.070878028869629,17.33161163330078,1.7476297616958618,-1.4206650257110596,0.03941498324275017,,,,,,,,,
1739303984.712105,-0.060073769071194986,1.0596874904620375,-0.41653039669558933,-1.4563079915993693,1.5690101116215533,1.1471590945187784,1.3271889264345158,0.0007120197146810142,0.0004149807802999334,0.0001641760607380481,-0.0011120784676218198,0.0002667577080319409,-0.001459097488947611,0.0018401625337165595,0.018970288336277008,-50.96005630493164,-8.019303321838379,17.33161163330078,1.7284036874771118,-1.4206650257110596,0.04673920199275017,,,,,,,,,
1739303984.723055,-0.06008155133754105,1.0596854689005948,-0.4165322468976041,-1.4563056979698297,1.569010124720712,1.1471590908041744,1.3271877258327407,-0.0005354784324505447,-0.0015348422668935414,-0.0009876638226699436,0.000868860645200004,0.0009951112124091219,-0.0014752588212675847,0.001381289159199653,0.09434870630502701,-50.93228530883789,-7.991532325744629,17.30384063720703,1.7284036874771118,-1.4206650257110596,0.06596527993679047,,,,,,,,,
1739303984.7340422,-0.0600776041263805,1.0596909193185378,-0.4165304045438852,-1.4563087431405326,1.5690108823808642,1.147160201730777,1.327191893505328,0.00017841245744755547,0.000917780621924552,0.0006766185145410323,0.0007597220086081913,0.001378627962097242,0.0006524664531228419,-0.0003816856548871159,0.04277399927377701,-51.00766372680664,-8.019303321838379,17.35541534423828,1.7219949960708618,-1.4270737171173096,0.026597600430250168,,,,,,,,,
1739303984.7440803,-0.06007831149413569,1.059688205608825,-0.4165285875280708,-1.4563104307656984,1.5690093670607075,1.1471598478241996,1.327188424557679,-3.885211899400191e-05,0.0005347465933110598,0.001239982043792933,-0.0008982251415853873,-8.831417776796445e-05,-0.0005991968880743255,-0.0005611774045207408,0.04277399927377701,-50.96005630493164,-8.043107032775879,17.33161163330078,1.7348123788833618,-1.4270737171173096,0.05955658480525017,,,,,,,,,
1739303984.7541275,-0.06007955634364781,1.0596817466414257,-0.4165335524098678,-1.4563076758703106,1.5690086050399785,1.1471631488308147,1.3271876593184306,-0.0010676647931108468,-0.0014069217520682443,-0.001101859348354178,-8.863305922657825e-06,-0.000775215572542643,0.0006292370233268394,0.00033574506706438397,0.06657771021127701,-50.88071060180664,-7.967728614807129,17.33161163330078,1.7412210702896118,-1.4270737171173096,0.03941498324275017,,,,,,,,,
1739303984.7651274,-0.06007752529741477,1.0596874547041033,-0.41653040454119156,-1.4563055960337987,1.5690092493231131,1.1471648441032711,1.3271923806257562,-9.22559761527417e-05,0.00040948710633207047,0.00011927850584370336,0.0010600965985450952,-2.1750097232857935e-05,6.772497625460918e-05,0.002544236592550971,0.04277399927377701,-50.96005630493164,-8.019303321838379,17.30384063720703,1.7348123788833618,-1.4334824085235596,0.026597600430250168,,,,,,,,,
1739303984.7772233,-0.06008131458618331,1.0596855494634154,-0.41653032594449596,-1.4563076625731008,1.5690107515606775,1.1471623868340128,1.327190744532326,-0.0008169008290361027,0.0006603726103911103,0.0007971179833506161,-2.6712257641662532e-05,0.0010457774765102786,0.0001708324434617163,0.00018967623916449664,0.09434870630502701,-50.93228530883789,-8.019303321838379,17.30384063720703,1.7219949960708618,-1.4206650257110596,0.03941498324275017,,,,,,,,,
1739303984.788094,-0.06007770935299716,1.0596837450421455,-0.4165323695408062,-1.4563076842608256,1.5690090138477517,1.1471607755498663,1.3271907038084663,0.00020481777994022367,-0.0007235849931779281,-0.00012871469299375942,-0.0004184674739296313,0.0003818837343595332,-5.256699191671119e-06,-4.259201003208149e-05,0.04277399927377701,-50.90848159790039,-7.991532325744629,17.33161163330078,1.7348123788833618,-1.4334824085235596,0.03941498324275017,,,,,,,,,
1739303984.799064,-0.060077332603587684,1.0596876833115196,-0.4165321223680499,-1.4563076766635308,1.5690086045534677,1.147160960269621,1.3271828968833093,0.0010996387114918379,-0.0003728005423452729,-0.00071238514643842,0.00010017865036228975,4.5053151865881934e-05,0.0007311264563733011,3.340120969337027e-05,0.04277399927377701,-50.93228530883789,-7.967728614807129,17.33161163330078,1.7412210702896118,-1.4270737171173096,0.07969819009304047,,,,,,,,,
1739303984.8100655,-0.060077604123511284,1.0596903283128292,-0.4165286228009075,-1.4563076757186804,1.569008608916085,1.1471602184797987,1.3271915022846688,0.000814165774430046,0.0017919229933295526,0.0005268108897978683,0.000607334910546981,0.0013536611504894665,0.0016183426488634526,0.0013885399901976975,0.04277399927377701,-50.96005630493164,-8.043107032775879,17.33161163330078,1.7412210702896118,-1.4270737171173096,0.03300629183650017,,,,,,,,,
1739303984.8220367,-0.06007589160431284,1.0596884974609306,-0.41653342096652607,-1.456307675718675,1.5690101116388309,1.1471636819792823,1.3271853452277191,0.00023912407469675882,0.0013760238500261123,-0.0011611906279075741,0.0006136571561412911,-0.0004366732404053738,-4.31785741637842e-05,-0.0007217038093537768,0.018970288336277008,-50.96005630493164,-7.991532325744629,17.33161163330078,1.7284036874771118,-1.4206650257110596,0.08610688149929047,,,,,,,,,
1739303984.8321333,-0.060079316645775226,1.059686497765482,-0.4165321496059161,-1.4563056044320881,1.5690093670606338,1.147160618747663,1.3271868452082187,-0.00038263721958176213,0.0011732016827658539,-0.0010166233288893337,0.0003569505626057276,0.000601437687414867,0.0004191919369850346,0.00046335976355952756,0.06657771021127701,-50.93228530883789,-7.991532325744629,17.30384063720703,1.7348123788833618,-1.4334824085235596,0.07328949868679047,,,,,,,,,
1739303984.843104,-0.06007761289404013,1.0596857077245747,-0.41653053258294326,-1.456306946967482,1.5690074898065396,1.1471594564528644,1.3271885221581552,0.0002454514127267605,-0.000682591558909408,6.307649240136125e-05,0.0013638248783930133,-0.0011093392713207514,-0.0012507904437490868,0.00011538250698353006,0.04277399927377701,-50.93228530883789,-8.019303321838379,17.30384063720703,1.7476297616958618,-1.4206650257110596,0.019273381680250168,,,,,,,,,
1739303984.853116,-0.06007974571004074,1.0596867233343314,-0.41652724507191524,-1.4563034501844874,1.5690093670545782,1.147160307431909,1.3271886251510794,-0.0005170649644922093,0.00012494534151776622,0.001645090443050566,0.0016794370970508038,2.5382124164887636e-05,0.0005771274717258593,-0.0007819850486782301,0.04277399927377701,-50.90848159790039,-8.070878028869629,17.30384063720703,1.7348123788833618,-1.4206650257110596,0.06596527993679047,,,,,,,,,
1739303984.8641064,-0.06007589226633595,1.0596818264454382,-0.41652858672654125,-1.4563033706766348,1.5690078517405508,1.1471594493160266,1.3271824619598473,0.0012411250682700264,-0.0006022467706617365,0.0006784998943277965,0.001904793371417897,0.0004245129658862058,-0.000968194408983023,-0.0018817841523655577,0.018970288336277008,-50.88071060180664,-8.043107032775879,17.30384063720703,1.7476297616958618,-1.4142563343048096,0.07328949868679047,,,,,,,,,
1739303984.8751798,-0.06007417875918628,1.0596857759633347,-0.4165324588250759,-1.4563076762875333,1.5690042516569918,1.1471651972498158,1.3271908638089782,0.00034665748390752516,0.0006629602523572998,-0.00010687611675644744,0.00032916303691469937,-0.0006209753274241662,0.0015635958621052003,0.000587274274907372,-0.004833422601222992,-50.93228530883789,-7.991532325744629,17.33161163330078,1.7412210702896118,-1.4334824085235596,0.03941498324275017,,,,,,,,,
1739303984.8871024,-0.0600802636973515,1.0596864112024804,-0.4165286228492089,-1.4563106603660758,1.569010229351804,1.1471583325778052,1.3271916170793925,-0.0014736312656257848,0.00024526242135600873,0.0008139079649952692,-0.000700631902051653,0.0013538598295748812,-0.0014172867683297104,0.0009824675834999644,0.06657771021127701,-50.93228530883789,-8.043107032775879,17.33161163330078,1.7284036874771118,-1.4142563343048096,0.03300629183650017,,,,,,,,,
1739303984.899033,-0.0600776041148113,1.0596892853275872,-0.41653248626709716,-1.456304511470277,1.5690060290635175,1.1471602024844663,1.3271868846136319,-0.00011792569803361991,0.0012672316628111998,-0.0005390906540052951,0.0012488569921096223,-0.000562306090606071,0.0005995634863093994,0.0010917018925213138,0.04277399927377701,-50.98386001586914,-7.991532325744629,17.28003692626953,1.7348123788833618,-1.4270737171173096,0.04673920199275017,,,,,,,,,
1739303984.9090972,-0.06008127987630259,1.0596901244973524,-0.4165301669624487,-1.4563055959327607,1.5690100723741338,1.1471585264562894,1.3271909325093418,-0.00028915686970477277,0.00021347049025846382,0.0007914443021317899,0.0010311640987722883,0.0010101822139790622,-0.00040356702349496457,0.0012478322240195721,0.09434870630502701,-50.98386001586914,-8.019303321838379,17.30384063720703,1.7284036874771118,-1.4069321155548096,0.026597600430250168,,,,,,,,,
1739303984.9191473,-0.060079316645187404,1.0596865298265865,-0.41653318732245365,-1.456306285638411,1.5690086093997426,1.147159561126356,1.327184354211148,-9.6950742828778e-05,-0.001110583307806237,-2.392581719590323e-05,0.0004958831097359436,-0.0008849131753367993,-0.000975175896431456,-0.0018800767996879188,0.06657771021127701,-50.93228530883789,-7.991532325744629,17.30384063720703,1.7412210702896118,-1.4206650257110596,0.09343110024929047,,,,,,,,,
1739303984.9301174,-0.060071367547204796,1.0596886753656156,-0.4165285433804615,-1.4563058245398277,1.5690042531105421,1.147159108087906,1.3271892418208615,0.001351263940780173,0.0008215383288077822,0.0006764663453679828,0.001047039924553629,-0.0014879020866267192,0.00019207587578507824,0.0019227047782029087,-0.004833422601222992,-50.93228530883789,-8.043107032775879,17.30384063720703,1.7412210702896118,-1.4206650257110596,0.05314789339900017,,,,,,,,,
1739303984.9401352,-0.06007956472865183,1.0596886626591584,-0.41652653128440004,-1.456306568314808,1.569008837894644,1.1471606461779948,1.327189201594565,0.0004550384756884929,-1.5750176255422085e-05,0.0014031172011939065,0.0005639527612493586,0.00092315087850485,-0.0008149935012749237,-0.0006613498982161267,0.06657771021127701,-50.93228530883789,-8.070878028869629,17.28003692626953,1.7348123788833618,-1.4334824085235596,0.05314789339900017,,,,,,,,,
1739303984.951051,-0.06007931664717566,1.0596854703357017,-0.4165286274824833,-1.4563020309052694,1.569008727135212,1.1471598478184357,1.3271852526950585,-0.0005398715547212559,-0.001115560598517553,0.0013659166672647534,0.0025635737595731773,-0.0004148941237636779,-0.001679639340438635,-0.00015573337506894977,0.06657771021127701,-50.93228530883789,-8.043107032775879,17.25623321533203,1.7412210702896118,-1.4270737171173096,0.04673920199275017,,,,,,,,,
1739303984.961096,-0.06007760380064495,1.0596886717622473,-0.4165345912380773,-1.4563055962437608,1.5690093670627014,1.147162815881081,1.3271907978598982,0.000434470667858465,6.779507647096736e-05,-0.0020669801179451965,0.0007940056539078189,0.0010879140443291726,0.0007623719290573115,0.0002927302339245446,0.04277399927377701,-50.93228530883789,-7.991532325744629,17.30384063720703,1.7348123788833618,-1.4398910999298096,0.026597600430250168,,,,,,,,,
1739303984.9720266,-0.06007449476743919,1.0596906635434344,-0.41653426796880133,-1.456307994433794,1.569009358339406,1.1471598609621942,1.3271868605948034,0.0008298208376391462,0.001895983540428281,-0.0006775031864676249,-0.00025267137982625383,0.000327668655494419,0.0007938065126729455,0.00038876054981820814,-0.004833422601222992,-50.96005630493164,-7.967728614807129,17.33161163330078,1.7348123788833618,-1.4270737171173096,0.07328949868679047,,,,,,,,,
1739303984.982081,-0.06007760413039017,1.0596803887922412,-0.4165324853162326,-1.456308398606911,1.56900936706056,1.1471637863309618,1.327190301294154,-0.0006728042892720641,-0.001931756778071172,-0.0010053937127197114,-0.000871353259753665,0.001183579249299473,0.0006972086798646343,0.0014872311260817088,0.04277399927377701,-50.85690689086914,-7.991532325744629,17.33161163330078,1.7348123788833618,-1.4334824085235596,0.05314789339900017,,,,,,,,,
1739303984.9921064,-0.06007931664577532,1.059686936680931,-0.41653248389902153,-1.4563083742587137,1.5690085701547725,1.1471606491386597,1.3271859768305336,-0.0010401108662324847,-0.00014880993182290417,-0.00013849844352716316,-0.0011088988692074151,-0.0002283404637222377,-2.452606368630619e-05,-0.00011884435181303574,0.06657771021127701,-50.90848159790039,-7.991532325744629,17.33161163330078,1.7412210702896118,-1.4334824085235596,0.05314789339900017,,,,,,,,,
1739303985.0030456,-0.06007760412504404,1.0596913441157414,-0.4165283049578956,-1.4563059668139944,1.5690075497618352,1.1471609597848835,1.327190013903542,-0.0003871283195944033,0.0008124460366250549,0.0016504812765165272,-6.639019724463056e-05,-0.0005676121211635913,-0.00019061341829329728,-0.0007629863614108715,0.04277399927377701,-50.98386001586914,-8.043107032775879,17.30384063720703,1.7412210702896118,-1.4270737171173096,0.03300629183650017,,,,,,,,,
1739303985.0130823,-0.06007908015882814,1.0596868601941294,-0.41653248531443854,-1.456309744849544,1.5690084480505702,1.147159090810427,1.3271864743229527,-0.00020700541835090832,-0.0007010458278542983,-0.000619834769068337,-0.0005811235735403639,-7.524796466113037e-05,0.000574518395286228,-0.0013417058063965011,0.06657771021127701,-50.90848159790039,-7.991532325744629,17.33161163330078,1.7412210702896118,-1.4206650257110596,0.06596527993679047,,,,,,,,,
1739303985.0231056,-0.060079319564769,1.0596886639656151,-0.41652861303789424,-1.4563101556987879,1.5690108817321096,1.1471598478182172,1.3271899994604408,-0.00047521158872900556,-0.0004184233682245206,0.0013745679529203662,-0.0005795996971351715,0.0014800246073343056,-0.0004901919394490962,-1.1009073972268607e-05,0.06657771021127701,-50.93228530883789,-8.043107032775879,17.35541534423828,1.7219949960708618,-1.4270737171173096,0.04673920199275017,,,,,,,,,
1739303985.0331154,-0.06007589160446115,1.059690231604573,-0.4165314256776052,-1.4563094839409274,1.5690065148930057,1.147159567407125,1.32718772650097,7.344802476227767e-05,0.0011213270852481775,0.0004942008855132152,-0.00022406868499469466,-0.0015988770645025297,0.0001948342173339275,0.00017452255265291386,0.018970288336277008,-50.98386001586914,-7.991532325744629,17.35541534423828,1.7549539804458618,-1.4206650257110596,0.06596527993679047,,,,,,,,,
1739303985.0451045,-0.060079316790120844,1.0596904352593364,-0.4165317168265686,-1.4563094927237534,1.569008609399743,1.147158333198805,1.3271872447094857,-0.0008039188766458678,0.000555949964792735,0.0011165654166420732,0.0006467268823229096,-0.0005763489558900116,-0.0018769210947086365,8.639799918910741e-05,0.06657771021127701,-50.96005630493164,-8.019303321838379,17.35541534423828,1.7412210702896118,-1.4142563343048096,0.03941498324275017,,,,,,,,,
1739303985.0560355,-0.06008044527977915,1.0596866325726975,-0.4165302451520066,-1.456305595929013,1.5690101247207857,1.1471648614734087,1.327193227152091,-0.0008475156354041382,-0.0015286742227583424,-0.00025749720798038474,0.0011883784011184934,0.0011965782891432224,0.0006385363810330121,0.0016749090323562956,0.04277399927377701,-50.90848159790039,-8.019303321838379,17.30384063720703,1.7284036874771118,-1.4334824085235596,0.019273381680250168,,,,,,,,,
1739303985.0661364,-0.06007760417315924,1.05968688276078,-0.41652738419027074,-1.456307687056367,1.569008878667825,1.1471594448964633,1.3271856791274053,4.130702499277109e-05,0.00021172625116859008,0.0008411414828148991,-0.0010916110789540312,-0.00021281960961549512,-0.0006636194136928079,-0.0007964961621217564,0.04277399927377701,-50.90848159790039,-8.019303321838379,17.33161163330078,1.7348123788833618,-1.4206650257110596,0.08610688149929047,,,,,,,,,
1739303985.0770292,-0.06007789866019426,1.0596879604488894,-0.4165303965450195,-1.4563076757536892,1.5690078516857968,1.1471590902305755,1.3271867276676321,-0.00041046345300789727,-8.680775215855337e-05,0.0003726097545704829,-0.00023679843410009363,-0.000363405690530717,-0.0016079980214258058,-0.0009025380472334567,0.06657771021127701,-50.93228530883789,-8.019303321838379,17.33161163330078,1.7476297616958618,-1.4206650257110596,0.04673920199275017,,,,,,,,,
1739303985.0870402,-0.060079733669484624,1.0596903557784176,-0.4165304055262254,-1.4563077012284824,1.5690093321755008,1.1471598628382265,1.3271908651579272,0.0002773898743857073,-0.00012608591164257633,-0.00038557317295062377,0.0001495162255436257,0.0011827019599687833,-0.001025444562819228,0.0007452650951970541,0.04277399927377701,-50.96005630493164,-8.019303321838379,17.33161163330078,1.7348123788833618,-1.4270737171173096,0.03941498324275017,,,,,,,,,
1739303985.097108,-0.06007760034044685,1.0596931450329647,-0.41652862284935843,-1.4563020305760772,1.5690101247190136,1.1471591352189483,1.3271899994816352,0.0015447964425441335,0.0007113189744559325,-0.0010143247933107947,0.002901162951014797,0.000881111122083681,-0.0008599725921734259,-0.0002666779227939812,0.04277399927377701,-51.00766372680664,-8.043107032775879,17.25623321533203,1.7284036874771118,-1.4206650257110596,0.04673920199275017,,,,,,,,,
1739303985.1080613,-0.0600768946161365,1.0596885697755094,-0.41653248531623305,-1.4563076842219438,1.5690075497086646,1.147158685710844,1.3271861159309597,0.0012634131896895114,-0.0006760330855093026,-0.0010504266442258091,0.0003009763165957488,-1.7343271209362165e-05,-0.0005563107506112414,-0.0018439615869665577,0.04277399927377701,-50.93228530883789,-7.991532325744629,17.33161163330078,1.7412210702896118,-1.4142563343048096,0.06596527993679047,,,,,,,,,
1739303985.118127,-0.060079553829691004,1.059688568794363,-0.41653248531623305,-1.456305596873771,1.5690101116208877,1.1471603213211676,1.3271890764166137,-0.0006842762521107381,-0.0015269852727448708,-0.0007635601414788305,0.0017306709691382463,-0.0006006316350727782,-4.070401629367352e-05,0.0004526660528918375,0.06657771021127701,-50.93228530883789,-7.991532325744629,17.30384063720703,1.7284036874771118,-1.4206650257110596,0.05314789339900017,,,,,,,,,
1739303985.129044,-0.06007908062929029,1.0596847268603495,-0.4165265401160636,-1.4563059029913141,1.569006945806324,1.1471590901650777,1.3271919650190702,-0.00015207708922307622,-0.003161047069605225,0.0011176148083253262,0.00020110626796981685,-0.00012174529116906882,-0.0005182633651860569,-0.0003176030310912312,0.06657771021127701,-50.88071060180664,-8.070878028869629,17.30384063720703,1.7284036874771118,-1.4206650257110596,0.026597600430250168,,,,,,,,,
1739303985.1390567,-0.06007689466020579,1.0596886747559329,-0.41653415025563234,-1.456307675723875,1.5690073638531281,1.1471606074163514,1.3271844149551963,0.00023903803111140025,-0.00036472034967703913,-0.0004895840156927155,-0.00017235354851639914,-0.00016444678293574505,-0.0005797730514730329,-0.0020383646575452548,0.04277399927377701,-50.93228530883789,-7.967728614807129,17.33161163330078,1.7348123788833618,-1.4334824085235596,0.06596527993679047,,,,,,,,,
1739303985.14907,-0.06007931955675908,1.0596879575419236,-0.416532869433061,-1.4563077553974544,1.5690086043600318,1.147159847818239,1.327192380477411,-0.0005775057296845044,0.00057596467602318,-0.0006145822218474831,-0.0007836281902568768,0.0004133096637250708,-0.0013669432331762427,-0.00040317248057706635,0.06657771021127701,-50.93228530883789,-7.991532325744629,17.33161163330078,1.7412210702896118,-1.4270737171173096,0.026597600430250168,,,,,,,,,
1739303985.160168,-0.06007757006432296,1.059684882196973,-0.4165342679997571,-1.4563047319211309,1.5690092493230523,1.1471610110188029,1.3271862206812264,0.0003562150666226784,-0.0016052659139456744,-0.0012711967092599854,0.00027848899907783513,0.0007650138050046131,0.00019433683856896023,-0.0003629068124491846,0.04277399927377701,-50.88071060180664,-7.967728614807129,17.28003692626953,1.7348123788833618,-1.4334824085235596,0.07969819009304047,,,,,,,,,
1739303985.171136,-0.06007932021864363,1.0596923862025447,-0.41652854326748245,-1.456307752249824,1.5690086094004077,1.1471605422555864,1.3271908653791005,-0.0005718618185978947,0.0013768867841005609,0.00015391982050931623,-0.00017685642897736549,-0.0003099638663184724,-0.0003227929872929825,0.0014274081080968286,0.06657771021127701,-50.98386001586914,-8.043107032775879,17.33161163330078,1.7412210702896118,-1.4206650257110596,0.03941498324275017,,,,,,,,,
1739303985.1820848,-0.060077612894060294,1.0596859578360194,-0.41653041288452636,-1.456313315905759,1.569008894172361,1.147160664361241,1.3271868606037387,8.175957116039615e-05,-0.001727176153723891,0.001020667281575648,-0.001536736796471913,-0.00015097974253106648,-0.00015212431425108683,0.0005780713133711787,0.04277399927377701,-50.90848159790039,-8.019303321838379,17.37921905517578,1.7348123788833618,-1.4206650257110596,0.07328949868679047,,,,,,,,,
1739303985.1922178,-0.0600776012056006,1.0596892444616641,-0.41653040552650206,-1.456306619295631,1.5690104266908287,1.1471640926961004,1.327180081068472,0.000238533698795881,9.787985728869765e-05,6.51596457851485e-05,-0.0003373760210453973,0.001671087038929535,0.0022466869459787215,-0.001893052417589084,0.04277399927377701,-50.96005630493164,-8.019303321838379,17.30384063720703,1.7348123788833618,-1.4270737171173096,0.09343110024929047,,,,,,,,,
1739303985.2030387,-0.060075885768519244,1.0596906736739018,-0.41652862284935843,-1.456307677089174,1.569009967743341,1.1471625885709673,1.3271896367516174,0.0008303185621466883,0.000670230196000701,0.0004769393587465071,3.3383255181049253e-05,0.001231034590009074,0.0016270119946273308,0.0010632713668362907,0.018970288336277008,-50.96005630493164,-8.043107032775879,17.33161163330078,1.7284036874771118,-1.4142563343048096,0.04673920199275017,,,,,,,,,
1739303985.2130544,-0.06007547574242136,1.059689959843444,-0.4165257618264092,-1.4563080186838788,1.5690074985251827,1.1471591033121566,1.3271809828824408,0.0004141152606263466,-0.00025449414940632864,0.002756839894726423,-0.001004340893447047,-0.001613212934565295,-0.0013320155623327496,-0.0019610897811199305,0.04277399927377701,-50.96005630493164,-8.043107032775879,17.33161163330078,1.7476297616958618,-1.4206650257110596,0.08610688149929047,,,,,,,,,
1739303985.2230685,-0.060076894628158406,1.059688675729028,-0.41653033950056945,-1.4563040513491385,1.5690092042570982,1.1471592471417769,1.327191132098174,9.593819878836778e-05,-0.0007234419141410253,-0.0007507571408739324,0.0004942490595140626,1.4310788201226316e-05,-0.00016204738764408956,-2.701566607791919e-05,0.04277399927377701,-50.93228530883789,-7.991532325744629,17.28003692626953,1.7348123788833618,-1.4206650257110596,0.026597600430250168,,,,,,,,,
1739303985.2330964,-0.06007921109591788,1.0596909566723727,-0.4165304054900379,-1.4563112505248217,1.5690073284597053,1.1471598478208644,1.3271882030603792,8.19032474983232e-06,0.001419203459528356,-0.00017992484117345997,-0.001942499808876466,-0.0013687136397987308,0.00013994143920066307,0.0002298999399952793,0.06657771021127701,-50.98386001586914,-8.019303321838379,17.37921905517578,1.7476297616958618,-1.4270737171173096,0.03300629183650017,,,,,,,,,
1739303985.2440867,-0.0600776038000491,1.0596891525702052,-0.41653016544832827,-1.4563112410727663,1.5690117887965802,1.147160149796257,1.3271896324530164,0.00045061408726495937,-0.0005081267615022185,0.0013133338047341323,-0.002175408130595901,0.000732590217098516,-0.00031370709901168317,0.0009659069128672204,0.04277399927377701,-50.93228530883789,-8.019303321838379,17.37921905517578,1.7412210702896118,-1.4206650257110596,0.04673920199275017,,,,,,,,,
1739303985.2550366,-0.060079394593540926,1.0596884372162132,-0.4165324853148778,-1.4563094830293328,1.569009771579859,1.147159984457911,1.3271931259131868,-0.0007100714548167237,-0.0001042090333259174,-0.000618193787936728,-0.0003806277302761967,3.465512974525889e-05,-0.0001886130355425572,0.001898597847816289,0.06657771021127701,-50.93228530883789,-7.991532325744629,17.35541534423828,1.7284036874771118,-1.4270737171173096,0.019273381680250168,,,,,,,,,
1739303985.265076,-0.060077604126364086,1.0596886639633205,-0.41653039375262046,-1.456307676034028,1.5690051270486598,1.147161076430878,1.3271810005996647,-0.00046566897025070695,-0.0002116151055730095,-0.0001874489724001109,-0.00012309035392501155,-0.0016789792046170225,0.0016769290427970573,-0.0027184223848094975,0.04277399927377701,-50.93228530883789,-8.019303321838379,17.33161163330078,1.7348123788833618,-1.4334824085235596,0.08610688149929047,,,,,,,,,
1739303985.27603,-0.060077604125044044,1.0596896294153668,-0.4165325115570931,-1.4563038472648777,1.5690069124046424,1.14716318393402,1.3271923806745096,-0.0005095258453070095,0.00043844886301006123,-0.0008195063488754595,0.0005090083573808435,0.00020566502001216188,-0.00030446763402341845,0.0011349653162577124,0.04277399927377701,-50.93228530883789,-8.019303321838379,17.28003692626953,1.7284036874771118,-1.4270737171173096,0.026597600430250168,,,,,,,,,
1739303985.2871602,-0.060077267076083185,1.0596865210507216,-0.41653237927906966,-1.4563077051132671,1.5690054151635882,1.1471592270098536,1.3271930358897959,-0.0003457914847115655,-0.0006420438503410857,0.0005276374166984161,-0.0008136125100889831,-0.0006626080067171414,-0.0011080414891138017,0.0014033965944045975,0.06657771021127701,-50.93228530883789,-7.991532325744629,17.33161163330078,1.7284036874771118,-1.4206650257110596,0.03300629183650017,,,,,,,,,
1739303985.2981193,-0.06007407397441521,1.0596905821045488,-0.4165324848799684,-1.4563076766635379,1.5690076947303175,1.1471590945190357,1.3271903759861272,0.002329018937507674,0.00031787974158779093,-0.0001557327563658531,-0.0005550844343249893,-0.001769488362012445,-0.0006947471827406116,0.00038059616496976037,-0.004833422601222992,-50.93228530883789,-7.991532325744629,17.33161163330078,1.7476297616958618,-1.4206650257110596,0.03300629183650017,,,,,,,,,
1739303985.3090732,-0.06007760412445069,1.0596850568636609,-0.4165345884035734,-1.4563038160862285,1.5690098238349988,1.1471609586910188,1.32719074469083,0.0013380912126550457,-0.001349469279328861,-0.0009195637824864515,0.0011808404658961217,0.0008988227955427095,0.0018372268198743073,0.0011693051349942476,0.04277399927377701,-50.90848159790039,-7.991532325744629,17.28003692626953,1.7284036874771118,-1.4334824085235596,0.03941498324275017,,,,,,,,,
1739303985.3191159,-0.06007931664577522,1.0596868842603229,-0.41652969041325355,-1.4563076760336588,1.5690090645930443,1.1471592607140049,1.3271876064929575,-0.0004056503285022763,-0.0010327205151744508,0.00022242991964496278,1.8810674139862604e-05,0.00019655963903760225,-0.0001841586631320239,-0.0005116993547910418,0.06657771021127701,-50.90848159790039,-8.019303321838379,17.33161163330078,1.7284036874771118,-1.4206650257110596,0.03941498324275017,,,,,,,,,
1739303985.3301046,-0.06008044527977833,1.0596849652790867,-0.41653425621545825,-1.4563055959288211,1.5690099895346286,1.1471594609759086,1.3271840763805685,-0.00048725563239450126,-0.0016799185565409163,0.0003112904585656684,-0.00020474200215791453,0.0010696225538505675,-0.0011670156154666893,0.0014550911226997455,0.04277399927377701,-50.88071060180664,-7.967728614807129,17.30384063720703,1.7284036874771118,-1.4206650257110596,0.09343110024929047,,,,,,,,,
1739303985.342098,-0.06007760414108244,1.0596870426932452,-0.4165304055619768,-1.4563076622231714,1.5690071514889694,1.147158450883735,1.3271850856672198,0.0005063109596902147,-0.0006337692621750286,0.0002929375282127982,0.00012475388748084225,-0.002592800953103794,-0.0029285004840493498,-0.0024777812647665065,0.04277399927377701,-50.90848159790039,-8.019303321838379,17.30384063720703,1.7412210702896118,-1.4142563343048096,0.05955658480525017,,,,,,,,,
1739303985.3530338,-0.06007931794488585,1.0596902391277425,-0.41653037031210416,-1.456309743284435,1.5690057128271593,1.1471633287651484,1.3271861574079429,-0.001804252053715385,0.0007331032500988647,-0.0003582650735158918,-0.0004360221409361761,-0.001015249256836496,0.0006608737998218814,-0.0009738284062807332,0.06657771021127701,-50.98386001586914,-8.019303321838379,17.33161163330078,1.7348123788833618,-1.4206650257110596,0.06596527993679047,,,,,,,,,
1739303985.3630846,-0.060074784266962736,1.059689867821892,-0.41652864614664686,-1.4563076761852538,1.5690089625927108,1.147160201054843,1.3271864985518536,0.0014900147718372068,0.0004159308467016693,0.0014954506265305286,-0.00046739746317263397,0.00035787511579184477,-0.0011563091097652356,-0.0007022513096976574,-0.004833422601222992,-50.93228530883789,-8.070878028869629,17.33161163330078,1.7412210702896118,-1.4270737171173096,0.07328949868679047,,,,,,,,,
1739303985.3730903,-0.060077190223301595,1.0596872016591528,-0.41653416162899004,-1.4563056057968182,1.5690086087605881,1.1471598492777384,1.3271846469495987,-0.00026343123913323205,-0.00033445605567080923,-0.0013370662550011869,0.0003429083291712955,-9.311977916039317e-06,-0.0016705013175976088,0.00017600123169960862,0.06657771021127701,-50.90848159790039,-7.967728614807129,17.30384063720703,1.7412210702896118,-1.4270737171173096,0.07328949868679047,,,,,,,,,
1739303985.3840985,-0.060076894976976665,1.0596885167967434,-0.41653033660498145,-1.4563038132518558,1.5690108823808606,1.147160253358733,1.3271892418090718,0.00043947991191820685,-0.0004334555103791412,0.0003875295712283117,0.000944258892844311,0.00029216309515821937,-0.0002033526627981234,0.0003800155716977547,0.04277399927377701,-50.93228530883789,-7.991532325744629,17.28003692626953,1.7219949960708618,-1.4270737171173096,0.05314789339900017,,,,,,,,,
1739303985.3941336,-0.06008002692244932,1.0596886731220347,-0.41653248805975923,-1.4563038132518002,1.5690101247207857,1.1471594433777053,1.3271833819846404,-0.000247098959605515,0.0004267200061639741,-0.0003293898256067868,0.0010074063279916343,0.00019259227540541592,-0.0017505233015864224,-0.0010579023286321147,0.06657771021127701,-50.93228530883789,-7.991532325744629,17.28003692626953,1.7284036874771118,-1.4206650257110596,0.06596527993679047,,,,,,,,,
1739303985.4050925,-0.06007931664978476,1.0596937731234835,-0.41653008763495414,-1.4563076766634826,1.5690090148170315,1.1471584692952719,1.3271923789638973,0.0002908872362252613,0.0011020327680070427,0.0009048010587426216,0.0006085058177750003,0.00028009640517842106,0.0005153577059747505,0.0018408369688331548,0.06657771021127701,-50.96005630493164,-8.019303321838379,17.33161163330078,1.7348123788833618,-1.4142563343048096,0.026597600430250168,,,,,,,,,
1739303985.4151216,-0.06007955340866982,1.0596935357385548,-0.41653274531464973,-1.4563040428400775,1.5690088448698039,1.1471594826190106,1.3271821525544625,-0.0008515551630262386,0.0005459380871560659,-0.0006884309005993066,-0.0003471210007634705,0.001287949417472171,-0.0013233960672990896,-0.0031534355610691443,0.06657771021127701,-50.96005630493164,-7.991532325744629,17.28003692626953,1.7412210702896118,-1.4206650257110596,0.07328949868679047,,,,,,,,,
1739303985.4270914,-0.06007931664711177,1.0596906736981262,-0.41653247648738295,-1.4563086028912213,1.5690052733426383,1.1471583325002648,1.327192381156975,-0.0007207587446467485,0.0003012244916160279,-0.0013278350800249791,-0.0008474588895624001,-0.0009557009362777739,-0.002223623316935702,0.0012632408475207555,0.06657771021127701,-50.96005630493164,-7.991532325744629,17.33161163330078,1.7412210702896118,-1.4142563343048096,0.026597600430250168,,,,,,,,,
1739303985.4380782,-0.06007931664577523,1.0596886845835476,-0.4165304146568098,-1.4563040428418061,1.5690093670544303,1.1471630404605686,1.3271914614503793,-0.0004796659671486244,-0.0013777412951479872,-0.0009851596979268832,0.00030475112080291267,0.001014562804893731,7.244039794806285e-05,0.0002395674191354471,0.06657771021127701,-50.93228530883789,-8.019303321838379,17.28003692626953,1.7348123788833618,-1.4270737171173096,0.03300629183650017,,,,,,,,,
1739303985.4481463,-0.06007931664577523,1.059688678684706,-0.41653248531638765,-1.4563062846974915,1.5690116269589902,1.147161079029332,1.3271850079815233,4.751119125367514e-05,-0.0015667105204999093,-3.5853984526137614e-05,9.885148055471641e-06,0.001580570941075149,-0.00039716920176012077,-0.0010645870020305087,0.06657771021127701,-50.93228530883789,-7.991532325744629,17.30384063720703,1.7155863046646118,-1.4270737171173096,0.07969819009304047,,,,,,,,,
1739303985.4590406,-0.06007394259663456,1.0596849682229883,-0.41653177006049574,-1.4563097220009191,1.5690077032510616,1.147165607996548,1.327190744195059,0.001551582559937872,-0.0018795594642387757,-0.0008854510753859384,-0.0009836653811919856,0.0008014363167270428,0.0013543140986186377,0.0008029635243785695,-0.004833422601222992,-50.88071060180664,-7.991532325744629,17.35541534423828,1.7219949960708618,-1.4398910999298096,0.03941498324275017,,,,,,,,,
1739303985.470089,-0.06007447350646764,1.0596895057910347,-0.41653016709568547,-1.456307906256208,1.5690093668453633,1.147159214427808,1.3271891151789506,0.0009718609782302552,8.55810110626542e-05,0.0007147378437711187,-0.0014995999289623932,0.0008435098067581705,-0.00043909219643111603,0.0011056971306968118,0.018970288336277008,-50.93228530883789,-8.019303321838379,17.33161163330078,1.7348123788833618,-1.4206650257110596,0.05314789339900017,,,,,,,,,
1739303985.4811003,-0.060075891589629664,1.0596906864384352,-0.4165324853157844,-1.456310745399196,1.5690085752362233,1.147159109700537,1.327192260017788,0.00033999825726224937,0.0003919142616248696,-0.00022716805521676484,-0.0014989020670945125,-0.0010366684362219315,-0.0001362293292525062,0.0016988800832078814,0.018970288336277008,-50.96005630493164,-7.991532325744629,17.33161163330078,1.7284036874771118,-1.4206650257110596,0.026597600430250168,,,,,,,,,
1739303985.4920914,-0.060075595099661955,1.0596931373406926,-0.41652859635840517,-1.456303810465661,1.56900859630993,1.1471583499945979,1.3271923806983543,0.0006051240634173601,0.0011927310952881262,0.001381176162932244,0.0012573362557645232,0.0010649212930242324,-0.0005129373204204905,0.0022684854821282256,0.018970288336277008,-50.96005630493164,-8.043107032775879,17.28003692626953,1.7412210702896118,-1.4142563343048096,0.026597600430250168,,,,,,,,,
1739303985.5020988,-0.0600776041200227,1.059692819490904,-0.41653043152630886,-1.4563059048808769,1.5690086094004074,1.147162142527213,1.327188036017162,0.0004819287561441919,0.0018519578679652665,-0.0003867292173271918,0.000102758019216717,0.0007502705135783421,0.0012497132851187979,0.0007568246199254129,0.04277399927377701,-50.96005630493164,-8.019303321838379,17.30384063720703,1.7412210702896118,-1.4334824085235596,0.026597600430250168,,,,,,,,,
1739303985.5130937,-0.06008344545267898,1.0596906747115682,-0.4165286228495052,-1.4563020305765253,1.5690086035864281,1.147160959345693,1.327195626243951,-0.001438430155789917,0.00046136421388208985,0.0009860265082319124,0.0013230844672499596,-0.0008944066587718691,0.0003751429547783244,0.003220077942131159,0.09434870630502701,-50.96005630493164,-8.043107032775879,17.25623321533203,1.7412210702896118,-1.4334824085235596,-0.0008682189509272575,,,,,,,,,
1739303985.5231051,-0.060075891640399254,1.0596849682229892,-0.4165303399770109,-1.456307786261171,1.5690078502869023,1.1471601541629004,1.3271886995019446,0.00019575124764090038,-0.0015265935789722605,0.00023420080547341702,-0.0008092410379110253,-0.00048439943215874173,-0.00030396922195432435,-0.0009043684853601962,0.018970288336277008,-50.88071060180664,-7.991532325744629,17.33161163330078,1.7476297616958618,-1.4206650257110596,0.05314789339900017,,,,,,,,,
1739303985.5331123,-0.06007662563349357,1.0596918575990937,-0.41653040670135233,-1.4563055959344353,1.569009314732825,1.1471598934168374,1.3271844258726488,0.00030090985143367836,2.0760489195915423e-05,0.00011535452900943532,3.929330875154194e-05,-0.00029722578115901424,-0.00047194699786573844,-0.0019332668073244591,-0.004833422601222992,-50.93228530883789,-8.019303321838379,17.30384063720703,1.7348123788833618,-1.4270737171173096,0.06596527993679047,,,,,,,,,
1739303985.5441318,-0.06007760412964765,1.0596881476157507,-0.41653248787811753,-1.4563084410128795,1.5690074972895334,1.1471598478182918,1.3271923789822115,-0.00020113232343133998,-0.0005548070303590604,0.0001472980983499444,3.232770700587888e-05,-0.00022771462338617407,-0.0007406600937243971,0.0008888018359979655,0.04277399927377701,-50.88071060180664,-7.991532325744629,17.33161163330078,1.7476297616958618,-1.4270737171173096,0.026597600430250168,,,,,,,,,
1739303985.5541716,-0.060076893691005516,1.0596872493171372,-0.4165296905916759,-1.4563055959417797,1.5690086093946265,1.1471617179287392,1.3271904447335214,0.0007453282581102307,0.00035713067181371885,0.0003237351484554989,0.00013374034812019373,0.0010503051619849611,-0.0012106794093089115,-2.4988912929617142e-05,0.04277399927377701,-50.93228530883789,-8.019303321838379,17.30384063720703,1.7412210702896118,-1.4334824085235596,0.03941498324275017,,,,,,,,,
1739303985.5650933,-0.060075879921934666,1.0596907531104387,-0.41652970229038805,-1.4563055959288194,1.5690078326828922,1.1471656414275333,1.3271840979258929,0.0008840179702330683,-8.048165920571668e-05,-0.0005116788818152646,-0.0007990935330825347,0.0008630185628393532,0.002197436052579947,-0.0017126910440390787,0.018970288336277008,-50.96005630493164,-7.991532325744629,17.30384063720703,1.7476297616958618,-1.4398910999298096,0.05955658480525017,,,,,,,,,
1739303985.5761049,-0.06007760412497808,1.0596908255423791,-0.41652862283364817,-1.456308602679968,1.5690077207055804,1.1471575848470548,1.3271891222318462,0.000419692071930602,-0.0008426650710237327,0.0005805073793769913,-0.00140334336032038,0.0006238760658498455,9.5846257671063e-06,0.0008781520040923075,0.04277399927377701,-50.93228530883789,-8.043107032775879,17.33161163330078,1.7476297616958618,-1.4069321155548096,0.026597600430250168,,,,,,,,,
1739303985.5871055,-0.060076601929082825,1.059689109036072,-0.4165286229563558,-1.4563076758288864,1.5690101245585406,1.1471609486409267,1.3271918979566046,-7.143138958619496e-05,0.0007277174546680355,0.00017252462211568185,0.0008568808361188417,-0.0005755806458645773,0.0007422169142788955,0.0021649871566257355,0.018970288336277008,-50.90848159790039,-8.043107032775879,17.33161163330078,1.7284036874771118,-1.4270737171173096,0.026597600430250168,,,,,,,,,
1739303985.5971081,-0.060079316657804645,1.0596923862390406,-0.416530405417363,-1.4563094583956957,1.5690083466684324,1.1471595654877007,1.3271877130837948,0.00036586756183264787,0.0002310821078351569,0.0008068224083722293,-0.0012225756125375004,0.00023443545660495357,-4.5062119816501294e-05,0.00027169632632722266,0.06657771021127701,-50.98386001586914,-8.019303321838379,17.35541534423828,1.7348123788833618,-1.4206650257110596,0.06596527993679047,,,,,,,,,
1739303985.6080616,-0.06008121825031463,1.059693536122131,-0.4165327183385062,-1.4563055953675874,1.5690075497567397,1.1471616690445694,1.327191856258031,-0.0007258095463117368,0.0009552599291537399,-0.0004862848508300208,0.0005590667493932043,-0.0008369088934507538,0.00042005959645257155,0.00011213558235567602,0.09434870630502701,-50.96005630493164,-7.991532325744629,17.30384063720703,1.7412210702896118,-1.4142563343048096,0.026597600430250168,,,,,,,,,
1739303985.6180916,-0.06007760412014964,1.059688714151254,-0.41653037773906776,-1.4563087088658224,1.5690067528027296,1.1471598673683903,1.327185983407676,0.0005498392331311281,-0.0005922257195927927,0.0003093699207818975,0.0005296369603187439,-0.0009617696339772179,5.1047835333533736e-05,4.075524250049859e-05,0.04277399927377701,-50.93228530883789,-8.019303321838379,17.33161163330078,1.7476297616958618,-1.4270737171173096,0.05314789339900017,,,,,,,,,
1739303985.6291199,-0.0600783144137276,1.0596969952251927,-0.41653033954896884,-1.4563055959307634,1.5690093670586398,1.1471602065026985,1.327189359534613,-0.000551340277282904,0.0018732135210401115,-0.0007584916235376075,0.0004961183175499442,0.0015447226344680919,0.00046060101808584005,0.00026361062692007353,0.04277399927377701,-51.00766372680664,-7.991532325744629,17.30384063720703,1.7348123788833618,-1.4206650257110596,0.05314789339900017,,,,,,,,,
1739303985.6410697,-0.06007931664978483,1.0596898246230733,-0.41653404108194575,-1.4563096879839552,1.5690084742204562,1.147158822350784,1.3271836810033029,-0.00023567417581781789,0.0006381892692806463,-0.0008197813140154,-1.2060911559101791e-05,-0.0006348052219528838,-0.001671327950859728,-0.0002834994014256078,0.06657771021127701,-50.90848159790039,-7.967728614807129,17.35541534423828,1.7412210702896118,-1.4142563343048096,0.09983979165554047,,,,,,,,,
1739303985.653084,-0.06008110473023184,1.0596908127924116,-0.41653427086964334,-1.4563066164265026,1.5690058469221575,1.1471609119973585,1.3271887589319113,-0.00041391126880328593,-0.00036121309802836856,-0.0017486753137683768,-0.00031773917050675367,-0.0002975021332075716,0.0007511343116854164,-0.00032175847353089744,0.06657771021127701,-50.93228530883789,-7.967728614807129,17.30384063720703,1.7284036874771118,-1.4270737171173096,0.05314789339900017,,,,,,,,,
1739303985.6640174,-0.06007710943763361,1.059690856845734,-0.4165345913470205,-1.4563056327782382,1.5690097715000266,1.1471626765531038,1.327189635727097,0.0011102578634561984,0.0004629966120498032,-0.0011291681612042967,0.0009397737738864003,0.0003890809603131677,0.0019164421044115254,0.0011789072980147044,0.06657771021127701,-50.93228530883789,-7.991532325744629,17.30384063720703,1.7284036874771118,-1.4206650257110596,0.04673920199275017,,,,,,,,,
1739303985.6740668,-0.060077603979531734,1.059693535832019,-0.4165304056690407,-1.4563077100473105,1.5690110001124524,1.1471595613306487,1.3271898251584728,-3.4723026742875736e-05,0.0015958965983330089,0.00032249954209642956,-0.000507738840784145,0.0008278168449538236,-0.00031496753263379637,0.0018132523940144391,0.04277399927377701,-50.96005630493164,-8.019303321838379,17.33161163330078,1.7219949960708618,-1.4206650257110596,0.04673920199275017,,,,,,,,,
1739303985.68513,-0.06007425800454403,1.0596911395572546,-0.4165279422607969,-1.4563083984971161,1.5690093612485003,1.1471622710185618,1.3271868546412304,0.0008562026144898977,0.0009493366865650711,7.218337077424006e-05,-0.00012916987759279888,2.3882369128967267e-05,0.00043676561739965905,0.0005158304355439912,-0.004833422601222992,-50.93228530883789,-8.043107032775879,17.33161163330078,1.7348123788833618,-1.4206650257110596,0.07328949868679047,,,,,,,,,
1739303985.6960864,-0.06007759536641672,1.0596838088517058,-0.41653240584209267,-1.4563055959301794,1.5690086094006184,1.1471605480929548,1.3271829581066257,0.0010400151557161828,-0.0012262729729860655,-0.0008786374609213565,0.0001634297284647685,-0.0004067452876751306,-0.000596575311866909,-0.001970640437564981,0.04277399927377701,-50.88071060180664,-7.991532325744629,17.30384063720703,1.7412210702896118,-1.4206650257110596,0.10624848306179047,,,,,,,,,
1739303985.7070725,-0.06007931794483632,1.059689708990781,-0.41653040418139486,-1.4563076668883572,1.5690075347424808,1.1471630834292839,1.327190851804301,-0.0005812215085974389,0.0013300954802923422,0.0005248362173589881,0.00013827876477423703,-0.0006800060851398512,0.0019083801801213654,0.0006121425794623421,0.06657771021127701,-50.93228530883789,-8.019303321838379,17.33161163330078,1.7412210702896118,-1.4270737171173096,0.03941498324275017,,,,,,,,,
1739303985.7190468,-0.0600812211733206,1.059687316475267,-0.41652968729085454,-1.4563038132517503,1.5690071965437236,1.1471598609722586,1.3271884796917461,-0.0009157843033172715,-0.000656449554741685,0.0008499163401572695,0.0022936541817330314,-0.001113440649946086,0.0002239425567296591,0.0010555786674861763,0.09434870630502701,-50.90848159790039,-8.019303321838379,17.28003692626953,1.7412210702896118,-1.4270737171173096,0.05955658480525017,,,,,,,,,
1739303985.730022,-0.06007702023814017,1.0596906854563914,-0.41652862284800696,-1.4563078513905405,1.5690058469197534,1.1471641256166047,1.3271905028392132,0.0004447257188525673,-0.0002716230087653096,0.00035635232469585494,0.0005754218724633338,-0.0005282809754466216,0.0015580406564538562,0.0008401357830314935,-0.004833422601222992,-50.96005630493164,-8.043107032775879,17.33161163330078,1.7284036874771118,-1.4270737171173096,0.03941498324275017,,,,,,,,,
1739303985.7400334,-0.06007591893374923,1.0596886757413164,-0.4165275445034282,-1.4563105441577053,1.5690093493841542,1.1471649632943666,1.3271884657800526,0.0002991596182386166,3.8259347294687814e-05,0.000758401142503493,-0.000841251463268443,0.0014597993136192568,0.0010645017935754938,0.0006394687003855932,0.018970288336277008,-50.93228530883789,-8.019303321838379,17.33161163330078,1.7348123788833618,-1.4334824085235596,0.05955658480525017,,,,,,,,,
1739303985.7501233,-0.06007760412550686,1.0596914052904463,-0.4165324855887737,-1.4563038136153135,1.569008607462263,1.1471599657910816,1.3271923404717212,0.00018013530367713226,-0.00027323142573065036,-0.0007247853092176181,0.0008460353195097609,0.0003796316236704128,-0.0001968884433947279,0.0012672217074668386,0.04277399927377701,-50.93228530883789,-7.991532325744629,17.28003692626953,1.7412210702896118,-1.4270737171173096,0.026597600430250168,,,,,,,,,
1739303985.761059,-0.06007928662100414,1.0596896297578906,-0.4165360506702727,-1.4563055959638143,1.5690078515251993,1.1471583330370672,1.3271892353651553,-0.0005813871696536779,0.0017772674716357666,-0.0018378142436015926,0.0006736961586656927,0.0008687047279793416,0.0003036583424978202,0.0008432555222817313,0.06657771021127701,-50.93228530883789,-7.943924903869629,17.30384063720703,1.7476297616958618,-1.4142563343048096,0.05314789339900017,,,,,,,,,
1739303985.772125,-0.060079316645605736,1.0596914020250447,-0.4165324823727938,-1.4563080073461638,1.5690075497624987,1.1471623083183753,1.327189981602942,-0.0006263643314187337,0.0005320814842504412,-0.0008334026569982168,-0.0010280437226581661,-0.0007063045675155971,0.00016106330958141576,0.0004960411810423829,0.06657771021127701,-50.96005630493164,-7.991532325744629,17.33161163330078,1.7412210702896118,-1.4206650257110596,0.04673920199275017,,,,,,,,,
1739303985.7821317,-0.06007761289404013,1.0596893910091887,-0.41652576311032874,-1.4563056299475112,1.5690093494386539,1.147159862892725,1.327191897974696,-2.2077552022771175e-05,0.00025038977889853156,0.00046879111996111356,0.00039947836481055805,0.0009634355082350054,-0.0006045722568789764,0.0005715928873174725,0.04277399927377701,-50.93228530883789,-8.043107032775879,17.30384063720703,1.7348123788833618,-1.4270737171173096,0.026597600430250168,,,,,,,,,
1739303985.7931135,-0.060081314586677786,1.0596914936134914,-0.4165345048694601,-1.4563076757538598,1.5690089074531082,1.147160620067707,1.3271845337695962,-0.001361996697325906,0.0010373863826632379,-0.0022274757307056475,-0.0007704132598272961,5.727081510801977e-05,-0.0005771093894284983,-0.002023880140975345,0.09434870630502701,-50.90848159790039,-7.967728614807129,17.33161163330078,1.7284036874771118,-1.4334824085235596,0.05314789339900017,,,,,,,,,
1739303985.8040218,-0.06007760412504404,1.0596905844235192,-0.4165360506716083,-1.4563062876679982,1.5690051270477685,1.147160204062215,1.3271818779105333,-0.0007210717165638746,0.0010658738050439553,-0.0021613733320429984,0.00020763136660596705,-0.0006056615667621435,-0.00045604787782447354,-0.0025338667762166917,0.04277399927377701,-50.93228530883789,-7.943924903869629,17.30384063720703,1.7348123788833618,-1.4206650257110596,0.10624848306179047,,,,,,,,,
1739303985.8141053,-0.06008131556096119,1.059688914301036,-0.4165324862792101,-1.4563103770753898,1.5690101186732743,1.1471593965156937,1.3271894156984856,-0.002624880977380407,-0.0003253991038123911,-0.0011564027550273561,-0.001149704171799269,0.0011372745683398706,-0.001144021477823831,-0.0005980427113284815,0.09434870630502701,-50.93228530883789,-7.991532325744629,17.35541534423828,1.7284036874771118,-1.4142563343048096,0.03941498324275017,735,772,773,39.654,0,0
1739303985.82616,-0.06007931664578073,1.0596915367654127,-0.41653016710780383,-1.4563055959340052,1.5690108256923707,1.147160240282779,1.327182498200557,0.0005824443223415361,0.00046140374814708225,-3.174067358606677e-05,0.0011331818861581328,0.0006098561312486604,-0.0006462677631410969,-0.003521843767789667,0.06657771021127701,-50.93228530883789,-8.019303321838379,17.30384063720703,1.7219949960708618,-1.4270737171173096,0.07328949868679047,733,770,773,39.762,0,0
1739303985.8370938,-0.060073763221789,1.0596898255569136,-0.4165324793743978,-1.4563079830961003,1.5690049595179099,1.1471588165489648,1.3271876025137554,0.0013623867453382002,0.0004462017515301438,-0.0009737496625839173,-0.0009597395740959324,-0.0009677393272972583,0.0016028024116052357,9.461693104554345e-05,0.018970288336277008,-50.90848159790039,-7.991532325744629,17.33161163330078,1.7412210702896118,-1.4142563343048096,0.03941498324275017,733,772,774,39.654,0,0
1739303985.848056,-0.06007760408899969,1.0596915498944923,-0.41653213799030114,-1.4563056299471004,1.569009366837391,1.1471601890503111,1.3271899840308699,0.000906096023218094,0.0007009283229994291,0.0005591697937810678,-0.00010754607766811589,0.0010375224014389404,-0.0005771394434681948,0.0005666418358102436,0.04277399927377701,-50.93228530883789,-7.991532325744629,17.30384063720703,1.7348123788833618,-1.4206650257110596,0.04673920199275017,734,771,773,39.654,0,0
1739303985.8580701,-0.060077603692511694,1.0596849652957572,-0.4165302995606039,-1.456307891811625,1.5690083030080912,1.1471585026234667,1.3271916238302475,-0.0004998406978391626,-0.0015929775329759227,0.0007781778203786719,0.00035490493083614635,1.4240366312165333e-05,-0.0004918427723298896,0.0009913571434078216,0.04277399927377701,-50.88071060180664,-8.019303321838379,17.30384063720703,1.7348123788833618,-1.4142563343048096,0.03300629183650017,733,771,773,39.545,1,0
1739303985.8681047,-0.06007760412503671,1.0596877844399362,-0.4165304055245829,-1.4563055959677003,1.569010111620814,1.147158690074291,1.3271804588693699,-0.0005462390837445199,-0.0009400237759544965,0.0011642203755904052,0.0007415316969706116,-5.0864466450312586e-05,-0.001761548875414925,-0.0010582983575134247,0.04277399927377701,-50.90848159790039,-8.019303321838379,17.30384063720703,1.7284036874771118,-1.4142563343048096,0.09983979165554047,734,770,773,39.762,1,0
1739303985.8781056,-0.060077605099376936,1.0596909248693598,-0.4165324848801679,-1.456301561520776,1.5690093525249833,1.147162427515548,1.3271923791538898,-0.0009524738430850596,0.0008052711862840229,-0.00022418004745463713,0.0022096188565531856,0.0003211990268580583,0.0011149729010905501,0.0023559372682178175,0.04277399927377701,-50.96005630493164,-7.991532325744629,17.28003692626953,1.7348123788833618,-1.4206650257110596,0.026597600430250168,732,771,773,39.545,1,0
1739303985.8891227,-0.060078180079882124,1.059685718946753,-0.41653016725045916,-1.4563046125463694,1.5690101247207038,1.1471602032031631,1.3271868586172113,-0.0002880398134396993,-0.0014686175652749074,0.0010692835566797464,4.309483282726931e-05,0.00023607758623425776,-0.0007898639655195066,-0.001203996862771246,0.018970288336277008,-50.88071060180664,-8.019303321838379,17.28003692626953,1.7284036874771118,-1.4270737171173096,0.07328949868679047,733,771,772,39.654,1,0
1739303985.9000971,-0.060075971116083364,1.0596886770535665,-0.4165303250710263,-1.4563037337834526,1.5690042138646854,1.1471583731994623,1.3271840184675094,0.00014432852693700793,-0.001951792483232562,0.00042853827110894997,0.000724083125902049,-0.0021505719090113918,0.00011179992718770416,-0.0008903824976601442,0.018970288336277008,-50.93228530883789,-8.019303321838379,17.28003692626953,1.7412210702896118,-1.4142563343048096,0.05955658480525017,732,771,773,39.654,1,0
1739303985.911033,-0.06007760412639058,1.0596907924007084,-0.41653040552501497,-1.4563056842145004,1.5690092487641822,1.1471629418680742,1.3271916229633303,-9.07854558400989e-05,-0.001039460993415715,-0.0004686640431954247,-0.00013053536897645015,-0.0010938950518737977,0.0013029411003042976,0.0016148228743474466,0.04277399927377701,-50.96005630493164,-8.019303321838379,17.30384063720703,1.7348123788833618,-1.4142563343048096,0.03300629183650017,734,770,773,39.545,1,0
1739303985.9210474,-0.06008228798128108,1.0596880228591852,-0.41652862284935843,-1.456307688001673,1.5690086091846205,1.147158371769926,1.32719399780005,-0.0012520979666448932,-0.00029908437773589207,0.00045091138444748775,-0.0007094087420001014,0.0005819976943025302,-0.0019717701128979244,0.003216497547966825,0.09434870630502701,-50.90848159790039,-8.043107032775879,17.33161163330078,1.7412210702896118,-1.4142563343048096,0.012864691205322742,733,770,773,39.545,0,0
1739303985.931141,-0.06008344579394116,1.0596870467447923,-0.41653248531623305,-1.4563038133569868,1.5690061879848105,1.147164445559805,1.3271892017559612,-0.0011319964061456901,-0.0006714553654652913,-0.0009760740666628728,0.00012932481099231925,0.0001853646650017111,0.0005980186728826945,-0.0007065041776075257,0.09434870630502701,-50.90848159790039,-7.991532325744629,17.28003692626953,1.7348123788833618,-1.4270737171173096,0.05314789339900017,734,772,774,39.654,0,0
1739303985.942082,-0.0600792903814785,1.0596951420095928,-0.4165283049579196,-1.4563055987632427,1.5690085701368266,1.1471591032660342,1.3271905369096486,0.0005014412776547653,0.002726041615380742,0.001069088487608723,0.001355189732024603,-0.0003917264557398959,-0.0008051032609108943,0.001928414681385185,0.06657771021127701,-51.00766372680664,-8.043107032775879,17.30384063720703,1.7412210702896118,-1.4206650257110596,0.03300629183650017,734,770,773,39.654,2,0
1739303985.9520977,-0.06007760412459925,1.0596906779512725,-0.4165321409284575,-1.4563076622232194,1.569009360761325,1.1471593921364007,1.3271871625633958,0.000271108141830131,-0.0008658246783270286,-5.276393781320713e-05,0.0002838808222986697,-0.0002300092064211845,-5.691798588398965e-05,0.0004031631848357154,0.04277399927377701,-50.96005630493164,-7.991532325744629,17.30384063720703,1.7348123788833618,-1.4142563343048096,0.07969819009304047,734,772,774,39.654,2,0
1739303985.963065,-0.06007589160431284,1.0596870780508791,-0.4165286228474143,-1.4563055997197143,1.5690061918609126,1.147159105345634,1.3271843184843188,-9.85292479765666e-05,-0.001027320096482099,6.407351839988183e-06,1.5057701402271782e-06,-0.0002493942729910532,-0.0013026058261059756,-0.0007976927416789891,0.018970288336277008,-50.90848159790039,-8.043107032775879,17.30384063720703,1.7348123788833618,-1.4206650257110596,0.09343110024929047,733,772,773,39.762,1,0
1739303985.9731364,-0.06007465288531813,1.059688676724208,-0.4165255893851864,-1.4563083644835233,1.5690101130386116,1.1471627294878008,1.32718489664034,0.0003083769569602211,-0.0004911521007487435,0.0019776294680587227,-0.0005872827736995768,0.000792474837920411,0.0009355136729527029,-0.00013519340161490038,-0.004833422601222992,-50.93228530883789,-8.070878028869629,17.33161163330078,1.7284036874771118,-1.4142563343048096,0.05314789339900017,732,771,773,39.654,1,0
1739303985.9840548,-0.06007760412771866,1.059689109132958,-0.41652968895706144,-1.456307675722563,1.5690086094005633,1.1471603264005152,1.3271880334970585,-0.00015644677633830015,-0.0007536964054524204,0.0014269506414484033,-0.00011703714214317636,0.0005690977933362828,6.930311135324016e-05,0.0012923748079382478,0.04277399927377701,-50.90848159790039,-8.019303321838379,17.33161163330078,1.7412210702896118,-1.4206650257110596,0.05314789339900017,734,771,773,39.545,1,0
1739303985.9940925,-0.06007760412504408,1.059687078159874,-0.4165335527253796,-1.4563076622231714,1.569008609400629,1.1471619218190594,1.3271887590770681,0.00016576155122088908,-0.0016091648467532833,-0.0009102078920335457,0.00015607150334864584,-0.00010987461461358083,-0.000743735345111514,-2.6464229209122896e-05,0.04277399927377701,-50.90848159790039,-7.967728614807129,17.30384063720703,1.7412210702896118,-1.4142563343048096,0.05314789339900017,733,770,773,39.654,1,0
1739303986.0041108,-0.060079313401784185,1.0596909513483521,-0.4165324058312602,-1.4563038143365794,1.5690089610356721,1.1471627969335458,1.3271899989768414,-0.0010698430342015505,0.0008214724720846302,0.00021872886148713766,0.0011306106765973847,9.345724628454871e-05,0.0010023288061691772,-0.00015534640526026526,0.06657771021127701,-50.96005630493164,-7.991532325744629,17.28003692626953,1.7348123788833618,-1.4206650257110596,0.04673920199275017,733,770,776,39.654,1,0
1739303986.0150602,-0.06007650510938006,1.0596887673163498,-0.4165304055259288,-1.456307701228488,1.569008609398337,1.1471583500154123,1.3271889217916912,0.0011141103303178154,0.0006580743110606079,-2.6222166923280707e-05,0.0005587534998129566,-0.0010056397961229983,-0.001373447796154323,0.001054759474268347,0.06657771021127701,-50.93228530883789,-8.019303321838379,17.33161163330078,1.7412210702896118,-1.4142563343048096,0.019273381680250168,733,770,772,39.654,0,0
1739303986.0260568,-0.06008128818629659,1.0596891129127002,-0.4165293983795814,-1.4563056727733197,1.5690064388897118,1.1471598483028216,1.3271916230145435,-0.0022688054993589618,-0.0022589175412040356,0.0012456389341959336,0.0011815236973835186,-0.0016174211831435476,-0.00018896973536333163,0.0013652635096881877,0.09434870630502701,-50.90848159790039,-8.019303321838379,17.30384063720703,1.7476297616958618,-1.4270737171173096,0.03300629183650017,733,771,773,39.654,1,0
1739303986.036083,-0.06007768304556178,1.0596891883878463,-0.41653040550932136,-1.4563094587119312,1.5690061430623352,1.147159129565498,1.3271827233787732,-0.0013182669884356949,-0.0013474832783949712,-8.861961037757303e-05,-0.0012138882318250342,-0.001734382524384385,-0.0005533557488416505,-0.002738658034892119,0.04277399927377701,-50.90848159790039,-8.019303321838379,17.35541534423828,1.7348123788833618,-1.4206650257110596,0.07969819009304047,733,771,773,39.762,1,0
1739303986.0461006,-0.06007760412638056,1.059690753192513,-0.4165286228493581,-1.456309771617006,1.56900795415527,1.147161376382488,1.3271915822580913,-0.0002680513248592286,-0.0003268746937965378,0.0012042102550986354,-0.001264160157690959,-0.002247482151141331,0.000599525387987193,0.001751838279415147,0.04277399927377701,-50.96005630493164,-8.043107032775879,17.33161163330078,1.7348123788833618,-1.4398910999298096,0.03300629183650017,732,771,773,39.654,1,0
1739303986.0571232,-0.060079632329634605,1.0596907132553242,-0.41653248531623305,-1.456304120641057,1.569011114816811,1.1471638127429518,1.3271899572678945,-0.001768126753576211,0.0006011391966789118,-0.0008738674756019512,0.000263883474219086,0.0005692862824556561,0.0011728914177219253,0.0010478171424257116,0.06657771021127701,-50.96005630493164,-7.991532325744629,17.28003692626953,1.7155863046646118,-1.4206650257110596,0.04673920199275017,731,771,775,39.654,1,0
1739303986.0680816,-0.060075891501525945,1.0596909958257132,-0.4165324588252798,-1.4563083985017404,1.5690108386039567,1.147160620826514,1.3271837217255562,0.0004558932920232993,9.929803602421296e-05,-0.0010980621059353281,-0.0006442315106162616,0.0005789951062898841,0.0013549926846469834,-0.003753287001180957,0.018970288336277008,-50.96005630493164,-7.991532325744629,17.33161163330078,1.7219949960708618,-1.4206650257110596,0.09983979165554047,734,770,774,39.654,1,0
1739303986.0781276,-0.06007750151020019,1.059689837000057,-0.4165304025464499,-1.4563058259760682,1.5690098220964657,1.1471616701855627,1.32719129390778,0.0006470600885664497,-0.0002950686491672396,0.0009317712089599799,0.000558995486444163,-7.173315776048126e-05,0.0006298484134768742,0.0004294813347169588,0.04277399927377701,-50.90848159790039,-8.019303321838379,17.30384063720703,1.7219949960708618,-1.4334824085235596,0.026597600430250168,733,770,774,39.545,1,0
1739303986.0890641,-0.060079317619528866,1.0596879563021364,-0.4165297249377967,-1.4563076660037007,1.5690093147269133,1.1471618648464983,1.327189122305653,-0.0005934323696629308,-0.00011433606873353995,-0.00011709141430505976,0.0006115701367650974,-0.00023463852483507578,0.00014525556328936925,0.0019033072604857774,0.06657771021127701,-50.90848159790039,-8.019303321838379,17.30384063720703,1.7348123788833618,-1.4142563343048096,0.026597600430250168,732,769,774,39.654,0,0
1739303986.100021,-0.06007931664578073,1.0596858946326984,-0.4165286234814447,-1.4563106862374937,1.5690090138477024,1.1471596198087093,1.3271802520373848,-9.55269290720828e-05,-0.0011221004315287472,0.00016025943885929818,-0.0020659704501296123,0.0018909339591228933,0.0019661404529891513,-0.0014300572991796446,0.06657771021127701,-50.93228530883789,-8.043107032775879,17.33161163330078,1.7348123788833618,-1.4206650257110596,0.09343110024929047,732,769,775,39.654,1,0
1739303986.110061,-0.06007589160431285,1.059687229063966,-0.41653040552638815,-1.456307712932093,1.5690093654396702,1.1471652153411065,1.3271911397467004,0.001458071167244306,-0.0008616281953303174,-0.001212136461537557,-0.0001531469415877048,4.804215992603307e-05,0.001586233936989375,-0.0003081632952857107,0.018970288336277008,-50.90848159790039,-8.019303321838379,17.33161163330078,1.7348123788833618,-1.4334824085235596,0.03300629183650017,733,770,774,39.762,0,0
1739303986.1200888,-0.06007931632137613,1.059689665731357,-0.4165304055263775,-1.4563055959307099,1.5690088902961445,1.1471574682885726,1.3271840592130972,-9.393933152470566e-05,-0.00045928942942705,0.000445140689009138,0.0004992497150283623,-0.0007318899288406932,-0.0020644725653226974,-0.001522433778780264,0.06657771021127701,-50.93228530883789,-8.019303321838379,17.30384063720703,1.7348123788833618,-1.4069321155548096,0.09343110024929047,733,770,774,39.654,1,0
1739303986.1310778,-0.060079342916718556,1.0596870691497227,-0.41652862288502424,-1.45630559970805,1.5690125459203634,1.1471598877639235,1.3271915826456202,-0.0005566274966274029,-0.0016290153031727158,0.0008129357345597962,-0.00024298278051925582,0.0005445558213395501,0.0005601887231005159,0.0014528512041242694,0.06657771021127701,-50.90848159790039,-8.043107032775879,17.30384063720703,1.7348123788833618,-1.4270737171173096,0.03300629183650017,733,771,773,39.436,1,0
1739303986.142078,-0.06007760412548894,1.0596900669153424,-0.41653039669606035,-1.4563076622232354,1.569009353871084,1.147162031411752,1.3271891223111036,-0.0005532121067768163,0.0001837400052601036,0.00030701136553250633,0.00013795451232462963,0.0004032491311939386,0.0007678701387589064,0.00043907107878107137,0.04277399927377701,-50.90848159790039,-8.019303321838379,17.30384063720703,1.7348123788833618,-1.4334824085235596,0.026597600430250168,734,769,774,39.545,1,0
1739303986.152107,-0.06007760412504404,1.0596955946780182,-0.4165303702050566,-1.4563086706128052,1.5690083466683604,1.1471575253968986,1.3271923672716408,-0.0009715219415751647,0.0015997106756728099,0.0008018548566383905,-0.0012508283260803136,0.0009837585785999875,-0.0010278756030878578,0.0015302569290202893,0.04277399927377701,-50.98386001586914,-8.019303321838379,17.33161163330078,1.7348123788833618,-1.4069321155548096,0.026597600430250168,734,769,774,39.654,2,0
1739303986.1630566,-0.06007920862087347,1.0596853194915006,-0.416532258453179,-1.4563048806786982,1.5690101232076403,1.1471612752048794,1.3271919846602072,-0.00048231115766261454,-0.0009093972261923112,-0.0006851875880942511,0.0005863692950546209,0.0008975283150738541,0.00018859350349834802,-0.0002488014752156061,0.06657771021127701,-50.88071060180664,-7.991532325744629,17.30384063720703,1.7284036874771118,-1.4270737171173096,0.019273381680250168,733,769,774,39.545,1,0
1739303986.174054,-0.06007931664516543,1.0596891923870424,-0.41652825975788493,-1.4563038132477626,1.5690116395564173,1.147160673297744,1.3271863354682372,-0.0002954938396698089,0.0004249911707558591,0.00031159686500333185,0.0012507516520269863,0.0008802813883995974,0.0012907200427172863,-0.00035273403184189154,0.06657771021127701,-50.90848159790039,-8.019303321838379,17.28003692626953,1.7155863046646118,-1.4206650257110596,0.07969819009304047,733,772,774,39.654,1,0
1739303986.1841376,-0.060077366664899594,1.0596889273549015,-0.4165295838707621,-1.4563076622231714,1.569009367060683,1.147160911897418,1.3271818818485468,0.0010819504853536459,-0.0002711600326565703,0.00035309604550238285,0.0006750822506229209,-0.00029760884538844646,0.00025034563743939686,-0.0017627910153045138,0.04277399927377701,-50.93228530883789,-8.019303321838379,17.30384063720703,1.7348123788833618,-1.4270737171173096,0.08610688149929047,735,769,774,39.762,2,0
1739303986.1950703,-0.06007760407653808,1.0596880915395364,-0.4165324843335405,-1.4563068092407778,1.569004353172223,1.1471578387116823,1.3271884841549728,0.00018941978620462644,-0.0006442884875507712,-0.00048444921728020747,-0.00022333236490264415,-0.0018833168760605658,-0.0022068967386345098,-0.0010054749339067073,0.04277399927377701,-50.88071060180664,-7.991532325744629,17.28003692626953,1.7412210702896118,-1.4069321155548096,0.05955658480525017,735,770,774,39.654,1,0
1739303986.2050965,-0.060077604233302426,1.0596870028462346,-0.41653040552636084,-1.4563055972393002,1.569005010214024,1.1471591298948027,1.327192017166119,0.00021877361051841226,-0.0009369717258212627,-0.0008954265213381476,0.0008682844563439056,-0.0007507463609092078,-0.0007189650054795986,0.00025309175117244846,0.04277399927377701,-50.90848159790039,-8.019303321838379,17.30384063720703,1.7348123788833618,-1.4206650257110596,0.026597600430250168,732,770,774,39.654,0,0
1739303986.2160945,-0.060077595366268825,1.0596891332987477,-0.41653039665972097,-1.4563056725982186,1.5690069326998513,1.1471624001076028,1.3271868601050567,-0.000651256089793652,-2.0319320991471013e-05,0.00031443334822330173,0.0001356958685553888,-1.0374432245579288e-05,-0.0005926515185546623,-0.0010035920965058912,0.04277399927377701,-50.88071060180664,-8.019303321838379,17.30384063720703,1.7284036874771118,-1.4206650257110596,0.07328949868679047,730,770,774,39.654,1,0
1739303986.226986,-0.0600793166456269,1.0596859278547524,-0.41653249373284945,-1.4563085943879548,1.5690092883534317,1.1471615119530083,1.327191622376776,-0.0004832740453495337,-0.000614387067141135,-0.00027022108693853467,-0.0011113370616250137,0.001192675470658639,-0.000595382121314651,0.0006101799754343906,0.06657771021127701,-50.88071060180664,-8.019303321838379,17.33161163330078,1.7348123788833618,-1.4142563343048096,0.03300629183650017,732,767,772,39.545,1,0
1739303986.238075,-0.06007589030671643,1.0596873105879894,-0.416526156185706,-1.4563045049611718,1.5690085701543282,1.1471606751918662,1.327192365303512,0.0009248395281371831,-0.0010113182292280846,0.0011634698420169842,0.0009273683488401556,-0.0010789231880655584,0.001994095381772238,0.0017615456831749062,0.018970288336277008,-50.90848159790039,-8.043107032775879,17.28003692626953,1.7412210702896118,-1.4206650257110596,0.026597600430250168,731,769,775,39.654,1,0
1739303986.2491322,-0.06007930788699208,1.0596886796676634,-0.41653050068365544,-1.4563104312016306,1.5690105248072823,1.1471583332068545,1.327185613566557,-0.000656574000852302,-0.0012343010047178517,-0.0003375429326208086,-0.0003087740377171463,0.0007800272647312981,-0.0016819948736359921,-0.00247463987288925,0.06657771021127701,-50.93228530883789,-8.019303321838379,17.33161163330078,1.7219949960708618,-1.4142563343048096,0.07328949868679047,731,770,774,39.654,1,0
1739303986.2601016,-0.06007752529604519,1.0596899038252183,-0.4165342678844149,-1.4563055960856401,1.5690100067492572,1.1471640863707249,1.3271908250759543,-0.0007217216694254283,-0.0003168183357257502,0.0002064188676352334,7.772640483144179e-05,0.00017265118165675999,0.0010658489738422088,0.00023169256968686168,0.04277399927377701,-50.90848159790039,-7.967728614807129,17.30384063720703,1.7284036874771118,-1.4270737171173096,0.03941498324275017,731,769,774,39.545,2,0
1739303986.2710226,-0.06007736763676196,1.0596878273334274,-0.41653039277147225,-1.4563056204574825,1.5690086108521817,1.147158333215852,1.3271839951717412,-0.0003828077271215744,-0.0005901904018247077,0.0008818798050559075,8.916472631902305e-06,0.0022968977582574334,-0.0007120621821775873,-0.0027937405567473594,0.04277399927377701,-50.88071060180664,-8.019303321838379,17.30384063720703,1.7412210702896118,-1.4142563343048096,0.09343110024929047,732,768,774,39.762,1,0
1739303986.2811062,-0.06007760802104065,1.0596880951890948,-0.41653251155708754,-1.4563077523532124,1.5690093672222214,1.1471600106158377,1.3271867541736175,0.0006663965354459216,-0.0010587785339847683,0.0004422144873386558,-0.0008138595567853263,0.0017610762081245017,-0.0009026284663561873,-0.0010032020762381446,0.04277399927377701,-50.88071060180664,-8.019303321838379,17.33161163330078,1.7348123788833618,-1.4270737171173096,0.04673920199275017,732,770,774,39.545,1,0
1739303986.2921264,-0.06007929026133673,1.0596856936348904,-0.4165317612057278,-1.4563083644838917,1.5690083072072385,1.1471598609549125,1.3271923806807155,-0.0006798306393853478,-0.0022704557629730816,4.4395665727842615e-05,-0.0003014939415340158,0.0002455984706716551,-0.000587902177261529,0.0017459782957682988,0.06657771021127701,-50.88071060180664,-7.991532325744629,17.33161163330078,1.7348123788833618,-1.4270737171173096,0.026597600430250168,732,770,774,39.654,1,0
1739303986.303085,-0.06008144751167701,1.0596894002673485,-0.4165317700564081,-1.4563055968775152,1.5690108809213312,1.1471585305996712,1.3271821540443807,-0.0017280266907557273,0.0008279797920628814,-0.00017237662912067154,0.0005567868141091951,0.0011341143907234112,-0.0009951973600475735,-0.002507029679766343,0.06657771021127701,-50.93228530883789,-7.991532325744629,17.30384063720703,1.7219949960708618,-1.4069321155548096,0.07328949868679047,733,768,774,39.654,1,0
1739303986.3140247,-0.060075856581238374,1.059689825700975,-0.4165265430554652,-1.4563085942116971,1.5690054300017162,1.1471606592656496,1.327191207333357,0.0009818697766861132,-0.0009835651648307368,0.0012523031410208625,-0.0003928168338645598,-0.0010361673396417168,-0.0007564464662081664,0.0012497477826009468,0.018970288336277008,-50.90848159790039,-8.070878028869629,17.33161163330078,1.7412210702896118,-1.4334824085235596,0.03300629183650017,733,768,774,39.654,1,0
1739303986.3240976,-0.06007931340119107,1.0596922115300578,-0.4165299213306211,-1.4563076757342297,1.5690097028517491,1.147162136552121,1.327184650294843,-0.0001796656322374657,0.00011571550793681952,0.00032270510089482234,-0.00020766542459720494,2.9354742540390276e-05,0.000818651707689994,-0.0023518288991423546,0.06657771021127701,-50.90848159790039,-8.019303321838379,17.33161163330078,1.7219949960708618,-1.4334824085235596,0.07969819009304047,734,769,774,39.545,1,0
1739303986.3341312,-0.0600768975871465,1.0596887587913777,-0.4165286247489432,-1.4563078927562407,1.5690086093806537,1.1471607022295935,1.327190810228385,3.339233229314955e-05,-0.0008561822488507182,0.0005461876790220866,-0.00015268955903100922,0.00037619724563263336,0.0005206655476346017,-0.00014251893694583212,0.04277399927377701,-50.93228530883789,-8.043107032775879,17.30384063720703,1.7412210702896118,-1.4069321155548096,0.03941498324275017,732,768,773,39.654,1,0
