IITGN-Robotics/Franka_IITGN_ROBOTICS/franka_ros/franka_iitgn/data01/s_b_019.csv
time,fr3_joint1_pos,fr3_joint2_pos,fr3_joint3_pos,fr3_joint4_pos,fr3_joint5_pos,fr3_joint6_pos,fr3_joint7_pos,fr3_joint1_vel,fr3_joint2_vel,fr3_joint3_vel,fr3_joint4_vel,fr3_joint5_vel,fr3_joint6_vel,fr3_joint7_vel,fr3_joint1_eff,fr3_joint2_eff,fr3_joint3_eff,fr3_joint4_eff,fr3_joint5_eff,fr3_joint6_eff,fr3_joint7_eff,flexpin1,flexpin2,flexpin3,Force,ContactMic,ContactMic_gt
1739304119.666276,-0.05648243343897907,1.0596234935249256,-0.4207066169067174,-1.4549740797169428,1.5670150163250065,1.1492259760352124,1.3435377498573775,-0.001576498161508314,0.0006793181863914211,0.0004339158470707201,0.0005136891274610502,-5.579443713206582e-05,0.0007243237856326593,-0.0022158769709017963,0.11815241724252701,-50.39670181274414,-8.070878028869629,16.93488311767578,1.6954447031021118,-1.1176254749298096,0.09343110024929047,,,,,,,,,
1739304119.6772182,-0.05647719063176893,1.0596225151009973,-0.42070412548758357,-1.454973448773856,1.5670160889630875,1.1492215687581409,1.343541896625897,0.0019848378162426027,2.0008081572937494e-05,0.0006411133174915432,0.00010881778921866187,-0.000164934283778758,-0.0009432679197757499,-0.0014475776610460196,0.018970288336277008,-50.36893081665039,-8.094681739807129,16.95868682861328,1.6954447031021118,-1.0983994007110596,0.05314789339900017,,,,,,,,,
1739304119.6872768,-0.05648010834516635,1.059623822428199,-0.42070661777474716,-1.454970042351912,1.567016850436715,1.1492244586896039,1.3435483720437258,0.001140415419876637,0.0006264603025821992,-0.00010795970448835266,0.001878538408524227,-0.00035998073683191117,0.0011887109156537648,0.0021820323983718242,0.06657771021127701,-50.39670181274414,-8.070878028869629,16.91107940673828,1.6890360116958618,-1.0919907093048096,0.026597600430250168,,,,,,,,,
1739304119.6982863,-0.05648480101598726,1.0596262530351919,-0.42070303977882767,-1.4549843420208626,1.5670150190633174,1.1492208775227886,1.3435452317315428,-0.0009464589850933091,0.0004039908696663512,0.0008343224390976159,-0.002298754257628375,-0.0007047699748807258,-0.0005472952979532522,0.000570369746698912,0.11815241724252701,-50.42050552368164,-8.118485450744629,17.03406524658203,1.6954447031021118,-1.0983994007110596,0.05314789339900017,,,,,,,,,
1739304119.7093203,-0.05647906241516459,1.0596225425776613,-0.4207031045626832,-1.4549779550863295,1.5670190569562876,1.1492219626004723,1.3435444755250068,0.0004897659283676177,-0.000764831903879662,-0.00039520266675433776,-0.0003818908532570237,-0.0009983854940184777,0.00040690622222853387,-0.0002752919416066933,0.04277399927377701,-50.36893081665039,-8.118485450744629,16.95868682861328,1.6890360116958618,-1.0983994007110596,0.05955658480525017,,,,,,,,,
1739304119.7200522,-0.05648293062402336,1.0596188765950136,-0.4207066166904937,-1.4549775438081702,1.567018138546997,1.1492213016180954,1.3435437178644962,-0.0007954551040560782,-0.002647511075620267,-0.00031204432657300874,-0.001398087344150253,0.0004748384315745667,0.0002670859941105832,-0.00043001944195262284,0.09434870630502701,-50.31735610961914,-8.070878028869629,17.01026153564453,1.6826273202896118,-1.1048080921173096,0.06596527993679047,,,,,,,,,
1739304119.7302809,-0.056482982239383264,1.0596281989803908,-0.42070483379655954,-1.4549708741660257,1.5670157992585871,1.1492226814977708,1.3435428912131206,-0.0017766330063944335,0.00024304951276498483,3.9407552978456235e-05,0.0016129401640335183,2.124195871040793e-05,0.0008980488457439684,-0.0008423878560303532,0.06657771021127701,-50.44827651977539,-8.094681739807129,16.93488311767578,1.6890360116958618,-1.1048080921173096,0.07328949868679047,,,,,,,,,
1739304119.740345,-0.05648085397567228,1.0596218273579694,-0.4207055932166006,-1.454979658633605,1.5670190167294118,1.1492215490653588,1.3435381977698613,-0.0010424613045560984,4.855221795941006e-05,-0.0002326774104346119,-0.002404225577790722,0.00041806631736596167,-0.001382740166955385,-0.0022755760110558954,0.06657771021127701,-50.36893081665039,-8.070878028869629,17.01026153564453,1.6890360116958618,-1.1112167835235596,0.11265717446804047,,,,,,,,,
1739304119.7512362,-0.05648085136505857,1.0596262358106376,-0.4207048341148038,-1.4549735812282483,1.5670157577694857,1.1492236407090144,1.343545232539071,-0.00016681596939299316,0.0016924332291739373,0.000580206173627713,-0.0003030982491690811,-0.001108095571725274,0.00024835233122693317,0.0002958972798493921,0.06657771021127701,-50.42050552368164,-8.094681739807129,16.95868682861328,1.6890360116958618,-1.1249496936798096,0.05314789339900017,,,,,,,,,
1739304119.7612581,-0.05648285179633533,1.0596232285080298,-0.4207048253720263,-1.4549747723020385,1.567017876861043,1.1492224244549476,1.3435389153927866,-0.00045136346582966107,-0.0003694818113442141,0.0006848508017193251,-0.0005644471969803921,0.0002737171026268922,0.0003117397714057304,-0.0008563077921409268,0.09434870630502701,-50.36893081665039,-8.094681739807129,16.95868682861328,1.7018533945083618,-1.1176254749298096,0.07969819009304047,,,,,,,,,
1739304119.771268,-0.056479150093569075,1.0596225161227533,-0.4207023641112891,-1.4549758315972658,1.567017054533189,1.1492227776497606,1.3435423808554787,0.0013038679177685654,-0.001283996030596769,0.001430433031742853,-0.0009157296112738311,0.0005194380391926136,-0.0005068265601859654,-0.0005332488148275443,0.04277399927377701,-50.36893081665039,-8.094681739807129,16.95868682861328,1.6826273202896118,-1.1176254749298096,0.07328949868679047,,,,,,,,,
1739304119.7822826,-0.056480616118346476,1.0596225160865587,-0.4206989605348977,-1.4549743999836215,1.5670142430248166,1.1492202027094194,1.3435468691756747,0.0004438035799147062,-0.0018219419220960615,0.0011841750109616586,0.00022496067052744933,-0.0017257111091574296,-0.0004801199966610176,0.0006961206957210302,0.06657771021127701,-50.36893081665039,-8.146256446838379,16.98249053955078,1.7018533945083618,-1.1048080921173096,0.03941498324275017,,,,,,,,,
1739304119.794272,-0.05648085385507711,1.0596225278603155,-0.42070869663212396,-1.4549725927234585,1.5670201028582633,1.149221262345555,1.3435444930394216,0.00044712731588554875,0.0002990588387067458,-0.0011644433753313496,0.0005772634693558252,0.0013267703816074784,0.00030085387228712086,0.00025593314936697215,0.06657771021127701,-50.36893081665039,-8.043107032775879,16.95868682861328,1.6890360116958618,-1.1048080921173096,0.05955658480525017,,,,,,,,,
1739304119.8043036,-0.05648119079635227,1.0596291869936965,-0.4207044121616043,-1.454972626554702,1.5670157583664581,1.1492197470273922,1.343544469710913,0.0014191854870278684,0.0018498782206112494,0.000686166939353005,-6.113012452293307e-05,-7.819882730266805e-05,7.314230141681211e-05,-7.3625609227198e-06,0.04277399927377701,-50.44827651977539,-8.070878028869629,16.95868682861328,1.6890360116958618,-1.0919907093048096,0.05955658480525017,,,,,,,,,
1739304119.8143075,-0.05648464318079888,1.0596263060373026,-0.4207065383503142,-1.454976479719151,1.5670172065140435,1.149219091675126,1.3435483722239678,-0.0014011427111324068,0.00015840405621465555,-0.0008526045643373673,-0.0015104021701724567,-0.00027968243641456357,-0.0009779269677036304,0.0004368991663938073,0.11815241724252701,-50.42050552368164,-8.070878028869629,17.01026153564453,1.6890360116958618,-1.0983994007110596,0.026597600430250168,,,,,,,,,
1739304119.825217,-0.056481869863744295,1.059631112003347,-0.42070480657839016,-1.4549775128661695,1.5670145780103224,1.1492220199996508,1.3435476124644166,-0.0006847767543976483,0.001917810966050061,-0.0010443396265786425,-0.0017326654047591424,-0.0003325557647229203,0.00031701630600850287,0.0009368504448920283,0.06657771021127701,-50.44827651977539,-8.094681739807129,17.01026153564453,1.7082620859146118,-1.1112167835235596,0.03300629183650017,,,,,,,,,
1739304119.8362093,-0.056480846293071756,1.0596245140763119,-0.4207023311453567,-1.4549765486572852,1.5670157583604374,1.149220504525965,1.3435420812252004,0.0003418355435663065,2.552351794373267e-05,0.0009515034381457028,-0.0010198506023173914,-0.0012464987528084239,-0.0005323688700312029,-0.0014718718244566957,0.06657771021127701,-50.39670181274414,-8.118485450744629,16.98249053955078,1.6890360116958618,-1.0983994007110596,0.07969819009304047,,,,,,,,,
1739304119.8472803,-0.05648286055511064,1.0596245140637506,-0.4207066167935349,-1.4549743999412674,1.5670150147530288,1.1492220200076264,1.3435372924814355,-0.0012812543305607102,0.0005025194414476191,-0.00025775422434888996,-0.00027708095891820653,-0.0009544431442887464,0.0002866339556233963,-0.0019425877911165494,0.09434870630502701,-50.39670181274414,-8.070878028869629,16.98249053955078,1.6954447031021118,-1.1112167835235596,0.09343110024929047,,,,,,,,,
1739304119.8572843,-0.05648085428820492,1.0596303712373547,-0.42070412548758285,-1.4549743999291378,1.5670157583421715,1.1492212623475488,1.3435450746942923,0.00042080922915580795,0.0012132892602816831,0.0005196992119329201,-0.0015930425564500575,-0.0005113149637065294,-4.306898303664341e-05,9.407067457496633e-05,0.06657771021127701,-50.44827651977539,-8.094681739807129,16.98249053955078,1.6890360116958618,-1.1048080921173096,0.05314789339900017,,,,,,,,,
1739304119.8683088,-0.05648285038900858,1.0596225425815513,-0.42070281512322294,-1.4549726059144268,1.56701767642875,1.1492220200076273,1.3435456376321637,-0.00019007335104058578,7.038477946736603e-05,4.371028708127561e-05,0.0018650499288430347,0.00018699119397489914,0.000386020794719575,0.0012092751267282977,0.09434870630502701,-50.36893081665039,-8.118485450744629,16.95868682861328,1.6762186288833618,-1.1112167835235596,0.04673920199275017,,,,,,,,,
1739304119.879289,-0.05648085385551651,1.0596262270206962,-0.42070388009466625,-1.4549743999290738,1.5670151347741386,1.1492173257730827,1.3435444362771645,-0.00014322950256151295,-9.103380758829162e-05,-0.00045016970717423344,-0.0010144569299807417,-0.0007403717736408958,-0.0006875921929437532,0.000169829966015824,0.06657771021127701,-50.42050552368164,-8.094681739807129,16.98249053955078,1.6954447031021118,-1.0983994007110596,0.05955658480525017,,,,,,,,,
1739304119.8902707,-0.05648085089643935,1.0596287181512996,-0.4207030514381774,-1.454972617252119,1.5670205340917942,1.1492207870186735,1.343547916380312,0.00010960219709748242,0.00010926980965552111,0.000737439388707463,0.0002619960340415491,0.0021759237029495867,4.940839072363663e-06,0.0028273054548344258,0.06657771021127701,-50.42050552368164,-8.118485450744629,16.95868682861328,1.6762186288833618,-1.1048080921173096,0.03941498324275017,,,,,,,,,
1739304119.900278,-0.05648085385547434,1.059626668776153,-0.4207044821500483,-1.4549804053288016,1.5670177700158865,1.1492197426586919,1.3435420962631974,-0.0002331482853130201,-5.017614640563477e-05,-0.0004239785455633747,-0.0015207179898428691,0.0002205947735047022,-0.00031694829811311834,-0.00018317970889877757,0.06657771021127701,-50.39670181274414,-8.070878028869629,17.03406524658203,1.6762186288833618,-1.0919907093048096,0.07969819009304047,,,,,,,,,
1739304119.9112132,-0.056482851796377506,1.0596195336841174,-0.42070378428186656,-1.454972617264216,1.5670168579379997,1.149220504687446,1.3435477663792472,-5.756659750395636e-06,-0.0017641617163957823,0.0010243916324064136,-0.0003633676463036808,-0.0013500207722266248,0.0007227770100716134,0.0009482582830439353,0.09434870630502701,-50.31735610961914,-8.094681739807129,16.95868682861328,1.6890360116958618,-1.0983994007110596,0.03300629183650017,,,,,,,,,
1739304119.9212174,-0.056482851796377506,1.0596247627058497,-0.42070082011209275,-1.4549708345750998,1.5670165211524731,1.149220960369498,1.3435432058285697,-0.0007449153971142203,-0.0014254384235678594,0.0006453795921129595,-0.0001548507033030132,-0.0005200580635812939,0.0003434978506765587,-0.0002950274391422198,0.09434870630502701,-50.39670181274414,-8.118485450744629,16.93488311767578,1.6826273202896118,-1.1112167835235596,0.07328949868679047,,,,,,,,,
1739304119.9313347,-0.05648085385552445,1.0596262265523542,-0.4207056627352315,-1.4549708370986245,1.5670163596808449,1.1492205046695256,1.343540538956101,-0.0008470676663220998,-0.0007507598054471164,0.00013144382505545456,0.0002453386674108185,-0.0023383891503313456,2.263863253469916e-06,0.000131333993369884,0.06657771021127701,-50.42050552368164,-8.070878028869629,16.93488311767578,1.6826273202896118,-1.0983994007110596,0.06596527993679047,,,,,,,,,
1739304119.942237,-0.056484224800235516,1.0596270134797372,-0.4207065019449223,-1.4549726172521331,1.5670169987251656,1.1492205046874706,1.343546856724459,-0.0017223033374076245,-0.0004322492313315164,-0.0002757952991842156,-0.0005310738198052128,0.0005210242957610055,-0.0005771280259032882,0.0009296233769222354,0.1419561207294464,-50.39670181274414,-8.070878028869629,16.95868682861328,1.6826273202896118,-1.0983994007110596,0.03941498324275017,,,,,,,,,
1739304119.9522717,-0.05648085403691292,1.0596272199467094,-0.4207045619413533,-1.4549707561924026,1.5670190703733597,1.1492205046874706,1.3435438360865828,-0.000338849539446386,0.0012946782107317017,0.0004217265047994075,-0.00020038975847198686,-0.00010084683959730729,-0.0007804866938268872,0.0010659009007281139,0.06657771021127701,-50.42050552368164,-8.094681739807129,16.93488311767578,1.6890360116958618,-1.0983994007110596,0.06596527993679047,,,,,,,,,
1739304119.9622848,-0.05648085353074989,1.0596267392843064,-0.4207044558997724,-1.4549743996128743,1.5670186637381038,1.1492220200076273,1.343539673054878,0.00021503505663144636,2.7695442334775306e-05,-0.0007803614755509242,-0.0005765824572962764,-0.00021549338149787494,1.8360792695941e-05,-0.0013028341900863149,0.06657771021127701,-50.39670181274414,-8.070878028869629,16.98249053955078,1.6890360116958618,-1.1112167835235596,0.07328949868679047,,,,,,,,,
1739304119.9732652,-0.05648285082204278,1.0596209106687033,-0.4207104778121858,-1.4549728556706962,1.567016654633271,1.1492212623475488,1.3435459907733915,7.882627893730433e-06,-0.0005456191289394931,-0.00020526470237303097,-0.0011166736202486626,9.087921027830218e-06,0.0004474112254953564,-0.00037519180310006803,0.09434870630502701,-50.34512710571289,-8.019303321838379,16.95868682861328,1.6826273202896118,-1.1048080921173096,0.04673920199275017,,,,,,,,,
1739304119.9832869,-0.05648001074975975,1.0596253784195169,-0.4207084603764323,-1.4549707571049093,1.5670157984097783,1.1492212623475488,1.3435459908451706,0.0004123525825054772,-0.00047695301652558267,-0.0003903947357962109,0.0006893769359688322,-0.0012396062963681734,0.0011655690373191655,3.7829753549533664e-05,0.09434870630502701,-50.36893081665039,-8.043107032775879,16.93488311767578,1.6890360116958618,-1.1048080921173096,0.04673920199275017,,,,,,,,,
1739304119.994237,-0.05648093234369139,1.0596225162480717,-0.4207038106472662,-1.4549764796135773,1.567015919692966,1.1492212885114534,1.343545443891565,-0.0002894296150094487,-0.0013926062686059216,0.0009580099946377887,-0.0008101614092490524,-0.0002841253570013309,0.0018610178437530151,6.0242327502767104e-05,0.06657771021127701,-50.36893081665039,-8.094681739807129,17.01026153564453,1.6890360116958618,-1.1048080921173096,0.03941498324275017,,,,,,,,,
1739304120.004349,-0.056482839131379026,1.0596293349290078,-0.4207009716363747,-1.454970834575098,1.5670157643042217,1.149220381136143,1.343546606766149,-0.00026510404865051987,0.0011932199534537414,0.00030896686573021054,0.00021345740460202274,0.002280705194696404,-0.00048104709581806205,0.0008552797124468904,0.09434870630502701,-50.42050552368164,-8.146256446838379,16.93488311767578,1.6890360116958618,-1.0983994007110596,0.05314789339900017,,,,,,,,,
1739304120.0153074,-0.05648316711223548,1.0596273868416648,-0.420707986514366,-1.4549719284873348,1.5670150028891314,1.1492197450347925,1.3435404707576288,-0.00015705341451824535,8.978855842579762e-05,-0.0014855172035437908,0.0006517679096981595,-0.0006620843646953002,-0.00022237209858319776,-0.0011233601496892492,0.09434870630502701,-50.39670181274414,-8.043107032775879,16.95868682861328,1.6954447031021118,-1.0919907093048096,0.09343110024929047,,,,,,,,,
1739304120.0262694,-0.0564775339571962,1.0596284915226921,-0.42070401909681887,-1.454972228757247,1.5670157583419457,1.1492201499673642,1.3435444755250152,0.0006586880460155448,0.0013549414166732483,0.0012077225900958225,0.00035805177053003563,-0.0006425420700823053,-0.000393810859511814,0.0008186960942813029,0.018970288336277008,-50.42050552368164,-8.094681739807129,16.98249053955078,1.6890360116958618,-1.0983994007110596,0.05955658480525017,,,,,,,,,
1739304120.0372531,-0.05648127069110796,1.059626941816666,-0.42070661387681496,-1.454974056951701,1.5670149994490288,1.1492212623455464,1.3435431495846641,-0.00012238784764353377,0.0007324065519122979,-0.0003054143224756438,3.0678476960678764e-05,-0.0008909931527037059,0.0008510938858274196,0.00016317651465954383,0.04277399927377701,-50.42050552368164,-8.070878028869629,16.98249053955078,1.6954447031021118,-1.1048080921173096,0.07969819009304047,,,,,,,,,
1739304120.0472968,-0.05648288730007376,1.05962726297792,-0.42070412548753344,-1.4549708342543555,1.5670157643014684,1.1492162617743025,1.3435404179554205,-0.000910127347027829,-9.551164819975055e-05,1.3146792602282105e-05,0.0013713426060256973,-0.0006048174779446186,-0.00014431207720796635,-0.002529686140496969,0.09434870630502701,-50.42050552368164,-8.094681739807129,16.93488311767578,1.6890360116958618,-1.0983994007110596,0.09343110024929047,,,,,,,,,
1739304120.058243,-0.05648085385572487,1.0596254039333606,-0.4207019879198449,-1.4549726172521171,1.5670208212725185,1.1492205044481785,1.3435487315198376,9.878602478408535e-05,-0.00033846276311264186,0.0010047790995455497,0.00012199034140882253,0.001419229268773923,-0.00026802748658249,0.00036124307551050293,0.06657771021127701,-50.36893081665039,-8.094681739807129,16.95868682861328,1.6826273202896118,-1.0983994007110596,0.05955658480525017,,,,,,,,,
1739304120.0692499,-0.056480853855524454,1.0596303971268504,-0.42070168070027025,-1.454972617217126,1.5670164891052714,1.1492205042029526,1.343541336509627,6.903139081164232e-05,0.0017694988940721622,0.0005220730717427879,0.0005824563769457543,-0.00012148765644682117,0.0004965586099989546,-0.0013512546715960991,0.06657771021127701,-50.44827651977539,-8.094681739807129,16.95868682861328,1.6954447031021118,-1.0983994007110596,0.08610688149929047,,,,,,,,,
1739304120.0793073,-0.05648456420884949,1.05962773222445,-0.4207065336869233,-1.454972532219429,1.5670180373069307,1.1492212226171674,1.3435452327005744,-0.00013013422631630897,-0.0003652485559388774,-0.0012267383389798865,0.0003499512957131791,-0.00015048278243748033,-0.0006044818462749385,0.0008640832319288094,0.11815241724252701,-50.39670181274414,-8.070878028869629,16.95868682861328,1.6698099374771118,-1.1048080921173096,0.05314789339900017,,,,,,,,,
1739304120.0912964,-0.05648388529583706,1.0596266715515545,-0.4207048340121059,-1.4549743914253888,1.5670155281025953,1.1492173614491281,1.3435437198025606,-0.0017746038396054228,-0.0004540934558365489,0.0005646328468998218,-0.0011082887423920886,0.0007128279689951114,-0.0004311804651385505,-0.0004720124924720291,0.09434870630502701,-50.39670181274414,-8.094681739807129,16.98249053955078,1.6954447031021118,-1.0718491077423096,0.06596527993679047,,,,,,,,,
1739304120.102274,-0.05647687885303631,1.05962762572728,-0.42070868783890036,-1.454972104046476,1.5670159326619237,1.1492201514747362,1.343540117537176,0.0009036989434065799,0.001473596828280392,-0.0020995482805741847,-0.0005743255410193656,7.405517755773404e-05,-0.0001045669587151318,-0.0013223435570169659,0.04277399927377701,-50.39670181274414,-8.043107032775879,16.98249053955078,1.6890360116958618,-1.0983994007110596,0.09343110024929047,,,,,,,,,
1739304120.1133184,-0.05647937781748309,1.05962912693182,-0.42069988901573796,-1.4549726171428201,1.5670158790232704,1.1492205032332559,1.3435452738838356,0.0003355922560052894,0.0014517503055304667,0.0009894127636049846,0.0007214394274703915,-0.001523298355528991,0.00011825483394436396,-0.00010439464596613876,0.04277399927377701,-50.42050552368164,-8.118485450744629,16.95868682861328,1.6890360116958618,-1.0983994007110596,0.05314789339900017,,,,,,,,,
1739304120.1242726,-0.05648284790038087,1.0596314388863826,-0.4207034284172843,-1.4549716988990729,1.5670184259373519,1.149218835225195,1.3435438595803406,0.00013289942272157583,0.002005504966066894,0.001227564162146011,-0.00010014127813717454,0.0006344010189404072,0.0007093838866152625,0.0015025171722179397,0.09434870630502701,-50.44827651977539,-8.070878028869629,16.95868682861328,1.6954447031021118,-1.1112167835235596,0.05314789339900017,,,,,,,,,
1739304120.1352408,-0.056480853891546806,1.0596232666817123,-0.42070448124417653,-1.454971613826207,1.5670175014283598,1.1492205046694925,1.3435428519595098,0.0001929095759808393,0.0001609273831536553,0.0001715757655016704,0.0008950575849964722,0.0002236955357031909,-0.00046291836520894294,-0.0008080232009996162,0.06657771021127701,-50.36893081665039,-8.094681739807129,16.95868682861328,1.7018533945083618,-1.0983994007110596,0.07328949868679047,,,,,,,,,
1739304120.1452453,-0.056480888890628335,1.0596257080956102,-0.4207062207402618,-1.4549705509407733,1.5670142899256898,1.1492205027494033,1.343543712713222,-0.0007711005650563556,0.001149198641309839,-0.0018786462513497627,0.0007642928234764141,-0.0006493198431915433,-0.0012766019282870408,0.0021230624602502366,0.06657771021127701,-50.36893081665039,-8.043107032775879,16.95868682861328,1.7018533945083618,-1.0983994007110596,0.03941498324275017,,,,,,,,,
1739304120.155304,-0.0564828504978603,1.0596245405724218,-0.4207041378902615,-1.4549726160663985,1.567015043061714,1.1492189893672813,1.3435428475533688,-0.00017351532205607382,-0.0013009691556176183,0.00027165637460526196,-0.00041888666767465974,-0.00017573432309891875,-8.073210805836447e-05,3.519468371044471e-05,0.09434870630502701,-50.39670181274414,-8.070878028869629,16.95868682861328,1.6954447031021118,-1.0855820178985596,0.07328949868679047,,,,,,,,,
1739304120.1662757,-0.05648285179637018,1.0596267789858935,-0.42070377789533486,-1.4549740710002026,1.5670191797894941,1.149220200609847,1.3435452331312332,-0.00026112956484190396,0.0003596386972029579,-0.0008094466032384593,-0.000586758104827182,0.002495894464042776,-0.0001441333046972055,0.0006198661822691375,0.09434870630502701,-50.39670181274414,-8.070878028869629,16.95868682861328,1.6890360116958618,-1.1048080921173096,0.05314789339900017,,,,,,,,,
1739304120.177235,-0.05648466942241852,1.0596252425124746,-0.4207102420333371,-1.454970145834935,1.567015919307888,1.1492212579689176,1.3435459908451708,-0.0018084279500671988,-0.001126922987093167,-0.00266868910656798,0.00041309167174995675,0.00036577903597189343,0.0010205782248570733,0.00044811473299928204,0.11815241724252701,-50.39670181274414,-8.019303321838379,16.93488311767578,1.6890360116958618,-1.1048080921173096,0.04673920199275017,,,,,,,,,
1739304120.1872745,-0.05648079683690378,1.0596291681745655,-0.420704373925837,-1.4549719272237032,1.5670183799717445,1.1492212098043746,1.3435455340699942,-0.0008429480549169455,0.0006559627531411308,5.959418246485068e-07,-0.0009720365669867172,-9.627443867998153e-05,0.0010731148783329906,-0.0008982757779372615,0.09434870630502701,-50.42050552368164,-8.070878028869629,16.95868682861328,1.6954447031021118,-1.1048080921173096,0.05314789339900017,,,,,,,,,
1739304120.1982718,-0.056480853807837746,1.059624594970427,-0.4206999006188216,-1.4549716447611276,1.567016516241812,1.1492192348928922,1.343542094308884,-0.0007953389154439022,-0.0009047451072754353,0.002320898770652088,0.0008448005984760208,-0.0004738186413411413,-0.00035004460647217634,0.0001571276266019463,0.06657771021127701,-50.39670181274414,-8.118485450744629,16.98249053955078,1.6826273202896118,-1.0919907093048096,0.07969819009304047,,,,,,,,,
1739304120.2092175,-0.05647914165919209,1.0596246926331538,-0.4207030208238331,-1.4549725406021667,1.567016556229016,1.14921969186437,1.343545233131258,0.0006856040003237307,-0.0008842449665199599,-0.0003086164720500088,-0.0007057155757325009,0.0006143142520042227,-0.0003419361494751854,-0.0011572063309751592,0.04277399927377701,-50.36893081665039,-8.118485450744629,16.95868682861328,1.6826273202896118,-1.1048080921173096,0.05314789339900017,,,,,,,,,
1739304120.2193158,-0.05647872298947922,1.059626778986265,-0.4207085916042715,-1.4549716988977752,1.5670187223315108,1.149219679404735,1.3435428524517798,0.0010100758779187252,-0.00045174929582262094,-0.0013787559957834255,5.9972714095006964e-05,0.002080072378197321,-0.0003818344334821581,-2.2000562439250297e-05,0.06657771021127701,-50.39670181274414,-8.043107032775879,16.95868682861328,1.6762186288833618,-1.1048080921173096,0.07328949868679047,,,,,,,,,
1739304120.2302861,-0.056477428693774055,1.0596269507923386,-0.4207034673170128,-1.4549743957947943,1.5670168466312555,1.1492187866569221,1.3435396870874003,0.0010130523208498842,-0.0005535350912820978,-0.0002007349529157611,-0.0007970268608651528,0.0009265410008065019,0.0007452509946087389,-0.0013087332831836927,0.018970288336277008,-50.42050552368164,-8.070878028869629,16.98249053955078,1.6890360116958618,-1.1112167835235596,0.09983979165554047,,,,,,,,,
1739304120.2412813,-0.056478722989473054,1.0596291008024876,-0.4207022276574737,-1.454973378592034,1.5670182590752457,1.1492160902371211,1.3435500356028103,0.0007850926940346092,0.00044797444102240226,0.0016239258703168427,0.00016341893147772603,6.674851216968586e-06,-0.0009810426105784252,0.00043847036770183875,0.06657771021127701,-50.42050552368164,-8.118485450744629,16.98249053955078,1.6954447031021118,-1.0983994007110596,0.03941498324275017,,,,,,,,,
1739304120.252326,-0.05648285192852609,1.0596274579552887,-0.4207040085115048,-1.4549743224491443,1.5670206527487405,1.1492192755676762,1.3435428524697255,0.00013847984551183204,0.0001654017427142978,0.0005223811073010432,-0.0008992577739441623,0.0017605093651458835,-2.99256870902446e-05,-0.0005628964314257092,0.09434870630502701,-50.39670181274414,-8.094681739807129,16.98249053955078,1.6762186288833618,-1.0919907093048096,0.07328949868679047,,,,,,,,,
1739304120.2642622,-0.05648088013185265,1.0596276943029521,-0.42070585006203864,-1.4549725394625175,1.567016878119295,1.149216905408778,1.3435468572269238,0.0004182790521735904,0.0007475425800366296,-0.0009419718645142824,-0.0006279785888035002,-0.0004885904118428852,-0.000962370969001874,0.0003472916506007587,0.06657771021127701,-50.39670181274414,-8.043107032775879,16.95868682861328,1.6826273202896118,-1.1048080921173096,0.03941498324275017,,,,,,,,,
1739304120.2752225,-0.05648085252037696,1.059630701393051,-0.42070018175597856,-1.4549687682456083,1.5670150071571156,1.1492138435101016,1.3435468175144936,0.0004628535753575348,0.0008075062086535267,0.0008606424524320777,-0.00011994655666929758,-0.0005042662046735282,-0.0005097611506220505,0.0014581571897446235,0.06657771021127701,-50.44827651977539,-8.118485450744629,16.93488311767578,1.6954447031021118,-1.0782577991485596,0.03941498324275017,,,,,,,,,
1739304120.2852786,-0.056479141334725425,1.0596267874694973,-0.42070556682514054,-1.4549716987940928,1.567017279621975,1.149214979165141,1.3435444755230221,0.0002228544168843739,-0.0011874806658455283,-6.9215209784628e-05,-0.001575273913428781,-0.0006405008825853269,-0.0019001927680547587,2.5202549829378418e-05,0.04277399927377701,-50.39670181274414,-8.070878028869629,16.95868682861328,1.6762186288833618,-1.0919907093048096,0.05955658480525017,,,,,,,,,
1739304120.2962425,-0.0564808480061203,1.059629206778603,-0.42070223392567396,-1.454974170339148,1.5670201409571458,1.1492177652417273,1.3435479690687426,0.0004107349391909469,0.001511481788829469,0.002000058104581739,-0.00048688266210554455,0.0007703095266276243,-0.0002012163932485617,0.00040297447029044413,0.06657771021127701,-50.42050552368164,-8.118485450744629,16.98249053955078,1.6826273202896118,-1.0782577991485596,0.03300629183650017,,,,,,,,,
1739304120.306303,-0.05647914133469419,1.0596243042218643,-0.4207066124634819,-1.454970645160085,1.5670186345825197,1.149215135713923,1.3435404707558811,0.0009747338290606936,-0.0007981442702046029,-9.532611904679105e-05,8.668045133255299e-05,-0.00042693056220819336,-0.0013377375796232338,-0.0007064961338763642,0.04277399927377701,-50.36893081665039,-8.070878028869629,16.95868682861328,1.6954447031021118,-1.0919907093048096,0.09343110024929047,,,,,,,,,
1739304120.3163273,-0.056479141767325394,1.05962719344371,-0.4207016467301056,-1.4549734730394257,1.5670165160635519,1.1492166509620534,1.3435441260269338,0.0010013050805705408,5.087524374058948e-05,0.0006998514654406303,0.0007231758747363552,-0.00022138874087004675,0.0005633943326846502,-0.000752892661022642,0.04277399927377701,-50.42050552368164,-8.094681739807129,16.98249053955078,1.6826273202896118,-1.1048080921173096,0.05955658480525017,,,,,,,,,
1739304120.3283238,-0.05648014356684332,1.0596294422428103,-0.420705543057212,-1.454971893524219,1.567016845960905,1.1492180666853269,1.3435491741182375,0.00016783430032606415,0.001987436149024179,-0.0007114079837254048,0.0007305072022741629,-0.00046249441570786286,0.0006924866947832493,0.002159467170499382,0.06657771021127701,-50.42050552368164,-8.043107032775879,16.95868682861328,1.6890360116958618,-1.1176254749298096,0.04673920199275017,,,,,,,,,
1739304120.3383644,-0.05647801269678056,1.059625416845921,-0.42070175057897286,-1.4549725292759423,1.5670165161736942,1.1492165133569607,1.3435484898719356,0.000885121409472495,-0.0004885407828526488,0.0013076036822701744,0.00034772833132188296,-0.0008910676066520082,0.00010516351207174942,0.0021412598115570893,0.06657771021127701,-50.36893081665039,-8.094681739807129,16.95868682861328,1.6826273202896118,-1.1048080921173096,0.026597600430250168,,,,,,,,,
1739304120.349296,-0.05648379383079587,1.0596268014231311,-0.42070482103434537,-1.4549743108017852,1.5670157987344804,1.1492157421840343,1.343540681887693,-0.0003995889487384818,-0.0008233253553404021,-0.00023514428978038131,0.0005682616820526501,-0.0012428089607816224,-0.0008301224601264254,-0.0019491270448990807,0.09434870630502701,-50.39670181274414,-8.094681739807129,16.98249053955078,1.6890360116958618,-1.0983994007110596,0.07969819009304047,,,,,,,,,
1739304120.360218,-0.056483167117624786,1.059626696473341,-0.42070238157276846,-1.4549761451516001,1.5670170345926284,1.1492164939760001,1.343544475517042,-0.0007633998411053454,-0.0008295321551021303,-0.0001057244432753501,-0.0007773654200831216,-0.00010315280474950699,-0.0004084412024633268,0.0005357776251579173,0.09434870630502701,-50.39670181274414,-8.094681739807129,17.01026153564453,1.6826273202896118,-1.1048080921173096,0.05955658480525017,,,,,,,,,
1739304120.3712394,-0.05648285169345829,1.0596255751197123,-0.4207062929515049,-1.4549716448643355,1.5670150026771559,1.1492157406765395,1.3435404728494473,-0.0001406394064962013,-0.0004118979672081113,-0.0009329472985880587,-5.829260299329545e-05,-0.0003029803703268484,-0.00047873146891402586,-0.0018994707169869228,0.09434870630502701,-50.39670181274414,-8.070878028869629,16.98249053955078,1.6954447031021118,-1.0983994007110596,0.09343110024929047,,,,,,,,,
1739304120.3823066,-0.05648214150769375,1.0596228707669282,-0.4207040906381064,-1.4549737081731107,1.567015123073481,1.149216498336626,1.3435423064672114,0.0005641126555181969,-0.001022879113834304,-0.000824238369610252,0.00018858370441387042,-0.0009677852885468385,0.00026103248769054747,-0.0013627435932319258,0.09434870630502701,-50.36893081665039,-8.094681739807129,16.98249053955078,1.6954447031021118,-1.1048080921173096,0.06596527993679047,,,,,,,,,
1739304120.3923156,-0.05648369168686079,1.0596314429822957,-0.42070088729754695,-1.4549723307886475,1.5670167608061714,1.149214978655884,1.3435449464513927,-0.000543817525907265,0.001772709583301575,0.0014414794565079498,7.6668291835051e-05,-0.0008522770973275405,-0.0006977085841043207,0.0017873792257309794,0.06657771021127701,-50.44827651977539,-8.118485450744629,16.98249053955078,1.6826273202896118,-1.0919907093048096,0.05955658480525017,,,,,,,,,
1739304120.4042115,-0.05648078666499135,1.059627493278503,-0.4207007232977205,-1.454971644823328,1.5670130357731271,1.1492157363158888,1.3435420944713494,-0.00040285944110015275,-0.00011667880522596828,0.0005230836761122236,-0.0009143207314748382,-0.0012573764870629494,-0.00029909475446034193,-0.0007257676025128568,0.06657771021127701,-50.39670181274414,-8.146256446838379,16.98249053955078,1.6762186288833618,-1.0983994007110596,0.07969819009304047,,,,,,,,,
1739304120.41429,-0.056483061030564975,1.0596277325678618,-0.42070343707428304,-1.4549743705895546,1.5670157719477356,1.1492172516360455,1.34354373665298,-0.0010710350679328995,0.0012981203147272593,0.0002845074205393674,-0.001479846697894158,0.00010580100473517575,0.00047050760361216036,0.00029945741995030374,0.06657771021127701,-50.39670181274414,-8.070878028869629,16.98249053955078,1.6890360116958618,-1.1112167835235596,0.06596527993679047,,,,,,,,,
1739304120.4252043,-0.05648085256887349,1.0596235889338252,-0.4207055626327118,-1.4549713261547184,1.5670177563862033,1.1492172516360455,1.3435380647639235,-0.0003056682070644513,-0.00019404201894115036,-0.0005545225130033954,-0.0001555785534457792,0.0004153095973670055,0.0017198250123320795,-0.000967259462549762,0.06657771021127701,-50.36893081665039,-8.070878028869629,16.98249053955078,1.6762186288833618,-1.1112167835235596,0.09983979165554047,,,,,,,,,
1739304120.4352224,-0.05648284887335703,1.059623578795312,-0.42070380620145664,-1.4549722997446906,1.5670194994613924,1.1492172516360455,1.3435437197746487,-0.0009226066273180504,-0.0006307545850352529,-0.00037656623489978235,6.961536151348118e-05,0.0011380938276603866,-8.739557198371733e-05,0.00017848117062119534,0.09434870630502701,-50.36893081665039,-8.094681739807129,16.95868682861328,1.6890360116958618,-1.1112167835235596,0.06596527993679047,,,,,,,,,
1739304120.4463074,-0.0564845643170592,1.0596277578244764,-0.4207034542313676,-1.4549719242828125,1.567016515903862,1.1492165070579192,1.3435397130898288,-6.0597934308227156e-06,-0.0011514232559137355,-0.0004616722052571354,-0.0005461913242868067,-0.00014604652822154852,0.00014023584535019433,-0.002325634200399318,0.11815241724252701,-50.39670181274414,-8.070878028869629,16.95868682861328,1.6826273202896118,-1.1048080921173096,0.09983979165554047,,,,,,,,,
1739304120.4572403,-0.05648159542847032,1.0596313525476408,-0.4207018847233413,-1.454973600480582,1.5670166413918054,1.1492157421301143,1.3435451852179352,-0.00021074452812203917,0.0009147180537174392,0.000712770631040922,0.0008609848828422921,2.6896930417689245e-05,0.0011485012345574374,-0.0002838204749686258,0.06657771021127701,-50.42050552368164,-8.094681739807129,16.98249053955078,1.6826273202896118,-1.0983994007110596,0.05314789339900017,,,,,,,,,
1739304120.467252,-0.05648088890318633,1.059634481096509,-0.42070559305864724,-1.4549725800761455,1.5670157583440567,1.1492164939760654,1.343543717863684,0.0001393180485434488,0.003031278978193254,-0.0015541564164611812,-0.00034851342964368576,0.0004836407833997524,0.00034063543553440785,-0.00016617881412646547,0.06657771021127701,-50.52365493774414,-8.070878028869629,16.95868682861328,1.6890360116958618,-1.1048080921173096,0.06596527993679047,,,,,,,,,
1739304120.4783125,-0.056480853855722296,1.059629445040142,-0.42070449194907494,-1.4549698354232223,1.5670157752636806,1.14921533186852,1.3435440725307564,-0.0006336189103268583,0.0008868541454043266,-0.00046266572838266323,0.0011725197713015208,-0.0005485564932474734,-4.0256580010837145e-05,-7.022568278954186e-05,0.06657771021127701,-50.42050552368164,-8.094681739807129,16.95868682861328,1.6890360116958618,-1.0919907093048096,0.06596527993679047,,,,,,,,,
1739304120.4892688,-0.05648285190451055,1.0596277237388945,-0.4207044645069966,-1.4549705254322562,1.5670173138891885,1.149216493977961,1.3435437178664984,-0.0002471330148925696,0.0007332778417142889,-0.0005687483544305864,3.980695675866218e-05,-3.741449746663526e-06,-0.0001484563111397035,-0.0007067510663299443,0.09434870630502701,-50.39670181274414,-8.070878028869629,16.95868682861328,1.6762186288833618,-1.1048080921173096,0.06596527993679047,,,,,,,,,
1739304120.5002027,-0.05647914133479386,1.0596277297347396,-0.42070374293895874,-1.4549702448282764,1.56701727586956,1.1492172647718328,1.3435460039271239,0.0007225135728918899,-5.6911564470734895e-05,-0.0010114282130128912,-0.0006597747255508618,0.0009550184900756161,0.00045627918326752824,0.0005280068028391829,0.04277399927377701,-50.39670181274414,-8.070878028869629,16.95868682861328,1.6762186288833618,-1.1112167835235596,0.04673920199275017,,,,,,,,,
1739304120.5102663,-0.05648669399722898,1.0596269815402601,-0.42070164527742077,-1.4549725819391224,1.5670134853617355,1.1492164896155386,1.3435397218113194,-0.0007766281898246412,-0.0008705385359125265,-0.0003098975630131892,-0.0006662596390740452,-0.0016118674901865145,0.0005405499380361407,-0.0009169923651844649,0.11815241724252701,-50.42050552368164,-8.094681739807129,16.95868682861328,1.7082620859146118,-1.1048080921173096,0.09983979165554047,,,,,,,,,
1739304120.5202875,-0.05648456435317502,1.0596277030930983,-0.4207034292451879,-1.454969811347806,1.5670157985689364,1.1492164547300365,1.343548384983155,-0.0013929811693513018,9.683178914028614e-05,0.00032824774124420115,0.0007032030173358667,-0.0005843934987708527,9.851502406886017e-05,0.0030308684427733257,0.11815241724252701,-50.39670181274414,-8.070878028869629,16.93488311767578,1.6890360116958618,-1.1048080921173096,0.026597600430250168,,,,,,,,,
1739304120.5312545,-0.0564808567751166,1.0596240094615748,-0.4207006791269254,-1.454972104040748,1.5670199487064993,1.1492164939757454,1.3435402701600139,-5.323711834175919e-05,-0.0004734988133457823,0.00033946490352404805,-0.00013532604098954052,0.0015228041559916048,1.8148224281019016e-05,-0.0006254796644262614,0.06657771021127701,-50.34512710571289,-8.118485450744629,16.98249053955078,1.6826273202896118,-1.1048080921173096,0.09343110024929047,,,,,,,,,
1739304120.5413063,-0.056480853855573894,1.059630160454482,-0.4207041467485772,-1.4549716434663982,1.5670182591272355,1.1492159325451718,1.343546861099658,-0.00028131110034185377,-2.7740759400136797e-05,0.0007643844007736492,-0.00047143791934274186,-0.00018246781233825681,-9.260633183604345e-05,0.0008685170858006557,0.06657771021127701,-50.42050552368164,-8.070878028869629,16.98249053955078,1.6954447031021118,-1.0983994007110596,0.03941498324275017,,,,,,,,,
1739304120.5522673,-0.05648085320559066,1.0596294452029984,-0.42070404223635377,-1.454972277105801,1.5670157598502161,1.1492164939770746,1.343544471433565,0.0006559225479893624,0.0009140441106719245,0.0007937109099956743,-0.0003933096466667848,-0.0007186595992004162,6.289960943648893e-06,0.0012717994646737184,0.06657771021127701,-50.42050552368164,-8.094681739807129,16.95868682861328,1.6890360116958618,-1.1048080921173096,0.05955658480525017,,,,,,,,,
1739304120.5632308,-0.05647914133478225,1.059631089927104,-0.42070235794193195,-1.454968019217548,1.5670206576966688,1.1492140727216573,1.3435454828352664,0.0003249145733930746,0.0019949121469784257,0.0008966918536579206,0.0013901843407495785,0.0007846959158178159,-0.0004760755838934961,-0.00017157323142486997,0.04277399927377701,-50.44827651977539,-8.094681739807129,16.91107940673828,1.6762186288833618,-1.1112167835235596,0.05955658480525017,,,,,,,,,
1739304120.5732367,-0.056480852881191555,1.0596311782282875,-0.4207017512308377,-1.4549713118719612,1.567017273736374,1.1492172515642651,1.3435378544683099,-5.7069991237552656e-05,-0.0007616823096233634,-0.0007503841123190497,0.0011663659338449937,-0.0006606822708487472,5.806806851020406e-05,-0.0019957484597588043,0.06657771021127701,-50.44827651977539,-8.094681739807129,16.98249053955078,1.6762186288833618,-1.1112167835235596,0.07969819009304047,,,,,,,,,
1739304120.5832384,-0.05648285212076011,1.0596293389036127,-0.42069882283865306,-1.4549695291484752,1.5670173158756129,1.1492164939759657,1.3435459907733698,-0.000180335470296307,-0.0004648965013084108,0.0013165425187002498,0.0007048626579140929,0.0005728887670442061,0.0002016441067539748,0.00020383023655284129,0.09434870630502701,-50.42050552368164,-8.094681739807129,16.95868682861328,1.6762186288833618,-1.1048080921173096,0.04673920199275017,,,,,,,,,
1739304120.5933113,-0.056482852769580316,1.0596254964260134,-0.4207034661357352,-1.4549733805925928,1.5670185877043648,1.1492157364773943,1.3435386022170073,-2.0364514056250323e-05,4.333490565335799e-05,0.00032744477771358985,-0.0005515785033473634,0.0008539657395530266,0.0003901313291852516,-0.001141036087582839,0.09434870630502701,-50.36893081665039,-8.070878028869629,17.01026153564453,1.7018533945083618,-1.0983994007110596,0.10624848306179047,,,,,,,,,
1739304120.6042717,-0.05647700657141643,1.0596277326768841,-0.4207025940045475,-1.4549734559088194,1.5670165160265372,1.1492172516360464,1.3435476148850054,0.0013759175758805055,0.0020718413840575814,0.00010665719312336579,-0.0015467175797572847,-0.0008226463110956898,5.196228611625096e-05,0.0019463435874806255,0.04277399927377701,-50.39670181274414,-8.094681739807129,16.98249053955078,1.6826273202896118,-1.1112167835235596,0.03300629183650017,,,,,,,,,
1739304120.614346,-0.056480932648354416,1.0596277287536437,-0.42070652495383465,-1.454967760784859,1.567016516002012,1.149216493975967,1.34354133648561,0.00031761932449713933,0.0010964732974706637,-0.0011686493784399512,0.0019060149479759876,-0.0008864933461934874,0.0003082869891827821,-0.0004638870530448019,0.06657771021127701,-50.39670181274414,-8.070878028869629,16.93488311767578,1.6826273202896118,-1.1048080921173096,0.08610688149929047,,,,,,,,,
1739304120.6252153,-0.05648088013229669,1.0596291243640603,-0.4207030163048131,-1.4549718987260383,1.56701727366209,1.1492133150615789,1.3435420942533494,0.0001392685466490948,0.001154824679346413,0.0007164805873545726,-0.00024801735718321595,0.0009227801011636483,-0.0010950174807836403,-0.0007642538605162889,0.06657771021127701,-50.42050552368164,-8.118485450744629,16.95868682861328,1.6762186288833618,-1.1048080921173096,0.07969819009304047,,,,,,,,,
1739304120.6352818,-0.056478749266246187,1.05962872993779,-0.42070196902204987,-1.454973368082026,1.5670176175266137,1.1492157362620536,1.3435463988740757,0.0009349399824647276,-6.677765229235778e-05,0.0009392236455545689,-0.0004840567474677825,0.0006172280434261564,-0.0005236311858317479,0.001101994655088366,0.06657771021127701,-50.42050552368164,-8.094681739807129,16.98249053955078,1.6826273202896118,-1.0983994007110596,0.03941498324275017,,,,,,,,,
1739304120.6462398,-0.056482852217029186,1.059631443135776,-0.42070343086711826,-1.4549715954892992,1.567017288567198,1.1492139190176807,1.3435476013179457,-0.00070550816477845,0.0012767103226591372,0.00015109452089825224,0.0007352358388402969,0.0009876426701320225,-0.0009332634196431023,0.0016478039059143257,0.09434870630502701,-50.44827651977539,-8.070878028869629,16.95868682861328,1.6762186288833618,-1.0919907093048096,0.03300629183650017,,,,,,,,,
1739304120.6572094,-0.05647922001943238,1.0596272960159057,-0.42070196360431733,-1.4549713809479605,1.5670171571507006,1.1492142209897502,1.3435462873693482,0.00037140643622991126,-0.0013342477643153087,0.00011227037671885446,-0.0011559084658641387,-0.00014549636384079718,-0.0010839462362861219,0.0012070416252762386,0.04277399927377701,-50.42050552368164,-8.094681739807129,16.98249053955078,1.6762186288833618,-1.0855820178985596,0.04673920199275017,,,,,,,,,
1739304120.667263,-0.05648119362960608,1.0596271621599989,-0.42070377441668017,-1.4549733708774908,1.5670166361965308,1.1492157363158886,1.3435420957657573,-0.0001190839249306636,-0.0010023533390064795,0.0007760033085996071,0.00010441696341105793,-0.0008177671087768994,6.850301767811118e-05,-0.0008776388929116462,0.09434870630502701,-50.36893081665039,-8.094681739807129,16.98249053955078,1.6826273202896118,-1.0983994007110596,0.07969819009304047,,,,,,,,,
1739304120.6772678,-0.056480819616396984,1.059625731927127,-0.4207063318703773,-1.454969880931808,1.5670228885250563,1.1492149786558103,1.3435460431730053,0.0009550686969423051,-0.0006539609997779762,-0.0008488559755776747,0.0008064838843565838,0.0017405526355430841,-0.0007760978895970253,0.0025009623113388256,0.06657771021127701,-50.36893081665039,-8.043107032775879,16.93488311767578,1.6624857187271118,-1.0919907093048096,0.04673920199275017,,,,,,,,,
1739304120.6882336,-0.05648598241036914,1.0596276963757645,-0.4207024705664494,-1.4549695551143431,1.5670198953034045,1.1492149786558103,1.343545637633348,-0.001276984497958233,-0.0008676967870095303,0.0009015923219386037,-0.000580502731363348,0.0009620231845270986,0.00015263048959056132,0.0006669574014629933,0.11815241724252701,-50.39670181274414,-8.094681739807129,16.95868682861328,1.6826273202896118,-1.0919907093048096,0.04673920199275017,,,,,,,,,
1739304120.6992238,-0.056479132904879444,1.0596276528419137,-0.42070168026786153,-1.4549677351336416,1.5670179991083057,1.1492157363158888,1.343545990844507,0.0010683588755445671,0.001464692210940766,0.0015639385435354048,0.000763983494534822,0.00021645214707903497,-0.0001640511705737123,0.000946924997707218,0.04277399927377701,-50.39670181274414,-8.094681739807129,16.93488311767578,1.6826273202896118,-1.0983994007110596,0.04673920199275017,,,,,,,,,
1739304120.709236,-0.056482851796234745,1.0596284120504325,-0.42070164527267906,-1.454968738834242,1.567016529436129,1.149216493975967,1.3435399105528103,9.168634652765293e-05,0.0008028097146609473,0.0008307420882390285,0.0003955642705604159,0.00019370119398755354,-0.00024911357308669515,-0.001475496738170689,0.09434870630502701,-50.42050552368164,-8.094681739807129,16.93488311767578,1.6826273202896118,-1.1048080921173096,0.08610688149929047,,,,,,,,,
1739304120.7192929,-0.05648008728258164,1.0596298519369918,-0.42070277489563185,-1.454967760660376,1.5670179641743491,1.1492172647179977,1.3435389554055672,-0.00026832083808690636,0.0013510629614683323,-0.0002709530482800332,0.001419257483797274,0.0012891633976993206,0.0005153756333286886,-0.002099675893646509,0.04277399927377701,-50.39670181274414,-8.094681739807129,16.93488311767578,1.6826273202896118,-1.1112167835235596,0.10624848306179047,,,,,,,,,
1739304120.7312346,-0.05647914004102263,1.0596253872781534,-0.42070378007002485,-1.4549695178107345,1.567019774397434,1.149214978655884,1.3435415695800255,0.0012548664609489369,-0.0016077993228018929,0.0002732983470030312,0.0009136439953985029,0.0009480536767795592,-0.00036589399563347264,-0.000566739542119605,0.04277399927377701,-50.36893081665039,-8.094681739807129,16.95868682861328,1.6826273202896118,-1.0919907093048096,0.09343110024929047,,,,,,,,,
1739304120.7412434,-0.056481572075134254,1.0596265827568385,-0.420707535855616,-1.4549679647568257,1.5670159192683393,1.149216493975967,1.3435428119369868,0.000890824967887951,-0.0003265381163042554,-0.0011401831105092475,0.0018407076020028116,-0.00018067551077977537,-2.3131047613224228e-05,2.312713403839243e-05,0.06657771021127701,-50.42050552368164,-8.019303321838379,16.93488311767578,1.6890360116958618,-1.1048080921173096,0.04673920199275017,,,,,,,,,
1739304120.7512524,-0.05648156332852885,1.059627299383273,-0.42070343478494815,-1.4549718216027911,1.5670176363700157,1.1492161407632573,1.3435448156019376,0.00023753532578949841,-0.0005098146423465706,0.0008103725881245635,0.00040407533317414533,0.00016718166374676618,0.00013124210537498006,0.0005781429560292936,0.06657771021127701,-50.42050552368164,-8.070878028869629,16.95868682861328,1.6762186288833618,-1.1048080921173096,0.05955658480525017,,,,,,,,,
1739304120.761315,-0.05648274755363669,1.0596294451626211,-0.4207019868978958,-1.4549696227232556,1.5670197743954015,1.1492149786498285,1.3435459908509308,-0.0002119746770782501,-0.00014827780703902506,0.0006538182235498828,0.0002230782226930757,0.0004427782921830875,-0.000244838647837319,0.001388039126417152,0.09434870630502701,-50.42050552368164,-8.094681739807129,16.95868682861328,1.6826273202896118,-1.0919907093048096,0.04673920199275017,,,,,,,,,
1739304120.7723067,-0.056480853854936,1.0596255865839685,-0.42070621734595026,-1.454973343648591,1.567015758360327,1.1492157363158888,1.3435413366471074,0.00044904193308276,-0.0005059817844447563,-0.000674828590036173,-0.00045697491408312817,0.0002748044873897001,0.0002752245034383462,-0.0018017012485933874,0.06657771021127701,-50.39670181274414,-8.043107032775879,17.01026153564453,1.6890360116958618,-1.0983994007110596,0.08610688149929047,,,,,,,,,
1739304120.7832665,-0.05648261492522377,1.059625722915166,-0.42070197188883246,-1.4549678117677636,1.5670157583419333,1.1492164938144613,1.3435462263203117,-0.00026818131678299804,-0.00027298052878515475,0.0007887664096839907,0.0015264979802739776,-0.0011561251381152827,-2.25003817223824e-05,-5.729769480117042e-05,0.09434870630502701,-50.36893081665039,-8.094681739807129,16.93488311767578,1.6890360116958618,-1.1048080921173096,0.04673920199275017,,,,,,,,,
1739304120.79421,-0.05648077496926681,1.0596314343094293,-0.4207055116290517,-1.4549713261378203,1.5670182590691024,1.1492149786558095,1.3435411259419647,0.0016849740716865388,0.0016418565114759893,-0.00016904480292870045,0.0006634973328080711,0.0004506224729659145,-0.0004350692014802099,-0.0012722285451271258,0.06657771021127701,-50.44827651977539,-8.043107032775879,16.98249053955078,1.6954447031021118,-1.0919907093048096,0.09983979165554047,,,,,,,,,
1739304120.804234,-0.05648088013051596,1.0596277058600778,-0.4207055116272738,-1.4549733844770445,1.5670173141098174,1.1492157363158888,1.3435515640828277,0.00015723419006922188,0.0005378109024597737,-0.0005502980878199369,-0.00026488632771467895,-6.667908131164973e-05,0.00019421841540940202,0.0023119573736082445,0.06657771021127701,-50.39670181274414,-8.043107032775879,17.01026153564453,1.6762186288833618,-1.0983994007110596,0.026597600430250168,,,,,,,,,
1739304120.814272,-0.05648456420929446,1.0596294147829675,-0.42070385876471156,-1.454971596492492,1.5670164767568397,1.149216493975967,1.3435404519077787,-0.0013501000471839817,0.00026428036489385177,-0.0009914720353449852,0.0008695421431193162,-0.001073714385255035,0.0007621843822502198,-0.0015386924789626737,0.11815241724252701,-50.42050552368164,-8.094681739807129,16.95868682861328,1.6826273202896118,-1.1048080921173096,0.09343110024929047,,,,,,,,,
1739304120.8251936,-0.056480855512049594,1.0596294349512598,-0.42070196023258116,-1.4549695263255935,1.5670173140544146,1.149216493975967,1.3435444623891213,0.0004051112393906868,7.842462793496716e-05,-0.0007022611483320367,0.0014239928629326435,-5.006325337058887e-05,0.0008934915951892297,-0.0003097220502340872,0.06657771021127701,-50.42050552368164,-8.094681739807129,16.95868682861328,1.6762186288833618,-1.1048080921173096,0.05955658480525017,,,,,,,,,
1739304120.8352635,-0.05647914263241773,1.0596294362594532,-0.42069952812697886,-1.4549695206451576,1.5670150142570831,1.1492175536140963,1.3435433758497428,0.000606620034631493,0.0005365861346611974,0.000551650415280797,0.0012680762905459715,-0.002290205952792181,0.0006773589517047131,-0.001184103838320042,0.04277399927377701,-50.42050552368164,-8.094681739807129,16.95868682861328,1.6954447031021118,-1.1048080921173096,0.03300629183650017,,,,,,,,,
1739304120.8453076,-0.05648427280983171,1.0596250194814878,-0.42069988880487996,-1.4549740583812167,1.5670176557673279,1.1492157363338338,1.3435412992675373,-0.0007699246747732257,-0.0005537907142298845,0.0014480026919287425,-0.00016601583059239086,0.0018392251101955299,-0.00031919734715167396,-0.001133588857766278,0.09434870630502701,-50.36893081665039,-8.118485450744629,16.98249053955078,1.6826273202896118,-1.0983994007110596,0.08610688149929047,,,,,,,,,
1739304120.8562422,-0.05648085483674343,1.0596255898504192,-0.42070175025490086,-1.4549715414291309,1.5670165166706185,1.1492149786558103,1.3435476143484364,-0.0007144941541684925,0.00015846472285592565,-0.000637213129990576,-0.0002543309473027639,-0.0009593964797687876,-0.00027222437405664357,0.0011220396170729813,0.06657771021127701,-50.39670181274414,-8.094681739807129,16.98249053955078,1.6826273202896118,-1.0919907093048096,0.03300629183650017,,,,,,,,,
1739304120.8672082,-0.05647922001943555,1.059626581220476,-0.42070072870265873,-1.4549715844212388,1.5670221011231849,1.1492157363158888,1.343545233185093,0.00016688291204116273,0.0004561152633547153,0.00038076814708833616,0.0005465981391165366,0.0022386100170908685,0.00012863727703586584,0.0002317700724769673,0.04277399927377701,-50.42050552368164,-8.118485450744629,16.95868682861328,1.6762186288833618,-1.0983994007110596,0.05314789339900017,,,,,,,,,
1739304120.8772373,-0.056478904573231264,1.0596254961612794,-0.42070168028097615,-1.4549695188953748,1.567015763058897,1.149216441648158,1.3435459908451717,0.0006997994096307148,-0.001359586776893861,-0.0005372440605977997,-0.00019681399826282158,0.0005389980313823652,-0.0002690178665378276,0.0004417324659714642,0.04277399927377701,-50.36893081665039,-8.094681739807129,16.95868682861328,1.6890360116958618,-1.1048080921173096,0.04673920199275017,,,,,,,,,
1739304120.8872826,-0.05648085417591398,1.0596294451949204,-0.4207015382617011,-1.4549695178106088,1.5670168444710957,1.1492164896144301,1.3435484229368195,0.0005413229429389471,0.0001611227638055264,0.00034175176280848473,0.0010531880093449819,0.0002782273336601073,7.506615724503965e-05,0.0015894194305364755,0.06657771021127701,-50.42050552368164,-8.070878028869629,16.95868682861328,1.6890360116958618,-1.1048080921173096,0.026597600430250168,,,,,,,,,
1739304120.8972805,-0.05648285179638293,1.059629365726101,-0.4207055887023158,-1.4549733667819615,1.5670188425336027,1.1492157363158149,1.3435419722098263,-5.552722744463776e-05,0.00028453307813973753,-0.001268411581560474,-0.000843389416653687,0.001275023192546326,7.663434926599289e-05,-0.0015906299991664658,0.09434870630502701,-50.42050552368164,-8.070878028869629,16.98249053955078,1.6762186288833618,-1.0983994007110596,0.07969819009304047,,,,,,,,,
1739304120.9073262,-0.05648352618123442,1.059631169071569,-0.4207036643047045,-1.454973673039615,1.56701760662733,1.149216493975967,1.3435460446244631,-0.0005345572703214776,0.0006698652160563676,-0.0006735719360363258,3.9578804432551136e-05,-3.172216211999527e-05,0.00036960545313750913,0.0009418416037580953,0.09434870630502701,-50.44827651977539,-8.070878028869629,16.98249053955078,1.6826273202896118,-1.1048080921173096,0.04673920199275017,,,,,,,,,
1739304120.9182675,-0.056479088693962794,1.0596311782287342,-0.4207036654575217,-1.454967736126765,1.567016517498057,1.1492172516360455,1.3435429522625344,0.0005639582870330624,-0.00021492112029172826,0.00020650381862471676,0.0015717708437015586,-0.0004924499350639243,0.0005390777435915358,0.00045111462370063407,0.04277399927377701,-50.44827651977539,-8.070878028869629,16.93488311767578,1.6826273202896118,-1.1112167835235596,0.07328949868679047,,,,,,,,,
1739304120.9292748,-0.05647977409459143,1.0596257259055633,-0.4207034279864485,-1.454969517810596,1.56701651600202,1.1492157363158888,1.3435428461536292,0.00036574932732022004,0.00032262078146967713,-0.0006126948079586496,0.001126245161992688,0.0003987419903133454,-0.0001855493254377308,-0.000328112143823332,0.09434870630502701,-50.36893081665039,-8.070878028869629,16.95868682861328,1.6826273202896118,-1.0983994007110596,0.07328949868679047,,,,,,,,,
1739304120.941276,-0.056480880114478195,1.0596277326781796,-0.420699547647068,-1.4549713089908782,1.5670205855823,1.1492164939221319,1.3435468523817204,-0.00030690973072202945,-0.00018940036594701065,0.0018001681844492814,0.00020922592832910885,0.002396391345814488,0.0006983950724412573,0.0017579999099008822,0.06657771021127701,-50.39670181274414,-8.118485450744629,16.98249053955078,1.6890360116958618,-1.1048080921173096,0.03941498324275017,,,,,,,,,
1739304120.952208,-0.05647914425443461,1.0596254963187974,-0.42069989758869686,-1.4549713004992897,1.5670168785691456,1.1492157363158886,1.343544983534843,0.0009318181279076454,-0.0009072402726051969,0.00034312900333419345,-0.0009383153683080745,-0.0004187762410153144,0.0002996526416128108,0.0011185346361968886,0.04277399927377701,-50.36893081665039,-8.118485450744629,16.98249053955078,1.6826273202896118,-1.0983994007110596,0.04673920199275017,,,,,,,,,
1739304120.9623158,-0.056484800804105235,1.05962558690698,-0.4206998635677217,-1.4549698014279238,1.5670159326650865,1.149216493975967,1.3435420942901266,-0.001605717951389092,-0.0009936346310007705,0.0007684418555414516,0.0005087211471210619,-0.0006972239256442748,0.00025764866836022586,-0.00047894806019135053,0.11815241724252701,-50.39670181274414,-8.118485450744629,16.93488311767578,1.6890360116958618,-1.1048080921173096,0.07969819009304047,,,,,,,,,
1739304120.9732916,-0.05648082722509352,1.0596294441693626,-0.4206998742598136,-1.454971289156198,1.5670176535847695,1.149216493975967,1.3435452511122128,0.00020248969130918454,0.00037698299712904203,0.0006398455984356238,0.00035320993880983125,-4.4795826844489585e-05,-0.0001399369592722616,-0.00029558286270651654,0.06657771021127701,-50.42050552368164,-8.118485450744629,16.98249053955078,1.6762186288833618,-1.1048080921173096,0.05314789339900017,,,,,,,,,
1739304120.9842649,-0.05647573416095535,1.0596277326782237,-0.42070550784703376,-1.4549677354484432,1.5670166502597096,1.1492117992030704,1.3435413361626918,0.0030323210533231737,3.485053909114207e-05,-0.001081454543489204,0.0007710018022219684,0.0006632438020108948,-0.0007163805570304851,-0.0006523443046035494,-0.004833422601222992,-50.39670181274414,-8.043107032775879,16.93488311767578,1.6826273202896118,-1.0919907093048096,0.08610688149929047,,,,,,,,,
1739304120.9943378,-0.05648093657759866,1.0596314395422768,-0.42070164527208825,-1.4549695433204026,1.5670191374124636,1.1492157362620443,1.3435437309464404,0.0003410081241406603,0.00023215561406424114,0.0004037097495927035,-9.559344720332444e-05,0.0009065903236547587,-0.0005928621635201577,0.0014607886221216925,0.06657771021127701,-50.44827651977539,-8.094681739807129,16.95868682861328,1.6890360116958618,-1.0983994007110596,0.06596527993679047,,,,,,,,,
1739304121.0043628,-0.05648085774971461,1.0596257347373155,-0.42070198849406437,-1.4549733805928329,1.567017394400324,1.1492164934914493,1.3435438204959813,0.00028284901958236335,-0.0008759427619035942,0.0013467472633203529,-0.0013166837193266173,3.8811194086595514e-05,-0.00014320534703621843,-0.00014408915369866731,0.06657771021127701,-50.36893081665039,-8.118485450744629,17.01026153564453,1.6762186288833618,-1.1048080921173096,0.05314789339900017,,,,,,,,,
1739304121.015196,-0.05647914133481524,1.0596298784454414,-0.42070164528408716,-1.4549733815372103,1.5670162412321946,1.1492149786558077,1.3435476163325748,0.0001086142589852519,0.0006311298764174723,0.0008823662517382497,-0.0005471266358650441,8.636286879547167e-05,-0.0005409746167745336,0.0021597651665001805,0.04277399927377701,-50.39670181274414,-8.094681739807129,17.01026153564453,1.6890360116958618,-1.0919907093048096,0.03300629183650017,,,,,,,,,
1739304121.0252323,-0.05648156331636574,1.0596296565085288,-0.4207048209977488,-1.4549711739857623,1.5670150473732212,1.1492128048654426,1.3435428631111819,-0.0009010837212363652,-0.00031334571154574943,-0.0019074004317467194,0.0005443117958818061,-0.0005970095338433416,-0.0010455771825905067,-0.0011576891528656715,0.06657771021127701,-50.44827651977539,-8.094681739807129,16.95868682861328,1.6954447031021118,-1.1048080921173096,0.07328949868679047,,,,,,,,,
1739304121.035323,-0.05647914134680804,1.059629127277265,-0.4207034310270787,-1.4549737132977232,1.567016086811728,1.1492157343153464,1.3435459515995039,0.00091139555657975,0.00023083342733581686,-0.0008002424802804155,-0.0012312876670633566,-0.00039172842310676,-0.000699968454348984,-0.0008182019739454075,0.04277399927377701,-50.42050552368164,-8.070878028869629,17.01026153564453,1.6954447031021118,-1.0983994007110596,0.04673920199275017,,,,,,,,,
1739304121.0462334,-0.056480143566840946,1.0596292973344683,-0.42070165499272105,-1.4549697563239152,1.5670183732063048,1.149214978655799,1.3435459908449503,0.0009263281265299309,0.001117519687257006,0.0002027010225885349,0.0011400549012421449,0.0014225217317120147,0.00013095717376349295,0.0004762727366758626,0.06657771021127701,-50.44827651977539,-8.094681739807129,16.95868682861328,1.6762186288833618,-1.0919907093048096,0.04673920199275017,,,,,,,,,
1739304121.057265,-0.05648285211676701,1.0596294422434083,-0.42070168933893953,-1.4549696315037919,1.567016690545956,1.1492149786558103,1.3435448799723835,-0.0004982741266000709,0.001002630677827225,0.0002664364069598614,0.0005425947401246988,0.0013361633706176108,-0.0007537985769706491,-0.0007833281841170585,0.09434870630502701,-50.42050552368164,-8.094681739807129,16.95868682861328,1.6826273202896118,-1.0919907093048096,0.05314789339900017,,,,,,,,,
1739304121.0681999,-0.05648077493456142,1.0596257347373597,-0.42070166017728167,-1.4549713270478444,1.5670142430227618,1.1492157363158888,1.3435439530938702,0.0014563828471029822,-1.7994248865705622e-05,0.0003164108306217508,-0.0003414979802515813,-0.001330130038397824,-0.00028546091167023255,0.0007055656285495242,0.06657771021127701,-50.36893081665039,-8.094681739807129,16.98249053955078,1.7018533945083618,-1.0983994007110596,0.09983979165554047,,,,,,,,,
1739304121.0782804,-0.05647801269945362,1.059627810842894,-0.42070550773921345,-1.4549695187558478,1.567020103520436,1.1492157363158888,1.3435479672024804,0.0018349842396749563,0.0006713388898823534,-0.0011059980573241755,0.00013846421345447798,-0.0004566850655441538,0.0001552471039650152,0.001014101159902439,0.06657771021127701,-50.39670181274414,-8.043107032775879,16.95868682861328,1.6890360116958618,-1.0983994007110596,0.03300629183650017,,,,,,,,,
1739304121.0892425,-0.056480853514708405,1.0596277630942095,-0.420701723973084,-1.45496781169799,1.567015758532005,1.149216493975967,1.3435452331870847,0.0006812144682039206,0.001365253185848926,0.0003571193581858223,0.00046240071359282043,-0.00046320694018688936,0.0004976043621501473,-0.00051452920828365,0.06657771021127701,-50.39670181274414,-8.094681739807129,16.93488311767578,1.6890360116958618,-1.1048080921173096,0.05314789339900017,,,,,,,,,
1739304121.1002216,-0.05647914137083568,1.0596294451991324,-0.4207016452725307,-1.4549736727870217,1.56701977438926,1.1492140727216573,1.3435476144024827,0.0003329044173924932,-0.00010252254769109112,0.00015251850142242632,-0.0015856762263347663,0.0005495914057229222,-2.118852831998455e-05,0.0016996551352479372,0.04277399927377701,-50.42050552368164,-8.094681739807129,16.98249053955078,1.6826273202896118,-1.1112167835235596,0.03300629183650017,,,,,,,,,
1739304121.1102567,-0.05648287807270558,1.0596294465071558,-0.4207037953884383,-1.4549698099713677,1.5670157583971143,1.149211799687587,1.3435462928232227,-0.0004917285506570986,0.0007439115042563388,-0.00013029940284523957,0.0011168244972287675,-0.0011489302409506614,-0.0004220749818303358,0.0008327117346654065,0.09434870630502701,-50.42050552368164,-8.070878028869629,16.93488311767578,1.6890360116958618,-1.0919907093048096,0.05314789339900017,,,,,,,,,
1739304121.1202729,-0.05648299099726912,1.059629445198983,-0.42070164819449424,-1.4549698014630612,1.5670188827422131,1.149216493922131,1.3435415852764376,-0.0005382943002858036,0.0005428592786533985,0.0008338074253786817,0.0011893137982662298,0.0013266349637571107,0.0002685855837822655,-0.0007750845131174323,0.06657771021127701,-50.42050552368164,-8.094681739807129,16.93488311767578,1.6762186288833618,-1.1048080921173096,0.05314789339900017,,,,,,,,,
1739304121.1302805,-0.056482851832570194,1.0596257700586473,-0.4207034366977105,-1.454969517845584,1.5670183598184224,1.1492125574014997,1.3435473295689733,-0.0002343197026866326,-0.0008278773013125826,2.1619401923750125e-05,0.0006229400266953072,-0.0008504165062140198,-0.00046753757221954255,0.0006820412187552173,0.09434870630502701,-50.36893081665039,-8.070878028869629,16.95868682861328,1.6762186288833618,-1.0983994007110596,0.03941498324275017,,,,,,,,,
1739304121.141226,-0.056479150093569276,1.059627732678429,-0.42070343086534,-1.454973473159326,1.5670157583480646,1.1492164939580218,1.343540470752544,0.0008340220257224246,-0.0005452456080329917,-0.0008285914088005138,-0.0015191901484647664,-0.0012080070919500828,0.0003589864932528288,-0.0013600306274160292,0.04277399927377701,-50.39670181274414,-8.070878028869629,17.01026153564453,1.6890360116958618,-1.1048080921173096,0.09343110024929047,,,,,,,,,
1739304121.1512709,-0.056484695576251,1.0596294451989607,-0.4207027183440941,-1.4549715850513234,1.5670166769100238,1.1492131580781522,1.343541296610627,-0.0007859275203261536,0.00023478975631157465,-8.700382327037255e-05,-0.0005649638705968081,-0.0004719428988876053,-0.0003987952758815799,-0.0009053243532767515,0.11815241724252701,-50.42050552368164,-8.070878028869629,16.95868682861328,1.6826273202896118,-1.1048080921173096,0.05955658480525017,,,,,,,,,
1739304121.1633136,-0.05647734989383819,1.0596274952407967,-0.42069978371005257,-1.454967735145241,1.5670161206065933,1.1492164939571357,1.3435476100238868,0.0010899119868497966,-0.0004380136371699543,0.0010754527673750005,0.0006257005228980407,0.00029136873067269424,0.0010237810414908378,0.0016208469934888099,0.018970288336277008,-50.39670181274414,-8.118485450744629,16.93488311767578,1.6890360116958618,-1.1048080921173096,0.03300629183650017,,,,,,,,,
1739304121.1742275,-0.05648085385537595,1.0596257082459763,-0.4207025113789367,-1.4549677436368402,1.5670142623910153,1.1492157363158888,1.3435476144024743,0.00016047100630438803,-0.0013216828849705895,-0.0001782807009938508,0.0025379610600176667,-0.0013647219122803014,-0.0004930554047508437,0.0020279167759998393,0.06657771021127701,-50.36893081665039,-8.094681739807129,16.93488311767578,1.7018533945083618,-1.0983994007110596,0.03300629183650017,,,,,,,,,
1739304121.1842601,-0.05648285222890965,1.0596276532049211,-0.42070164528675397,-1.4549677351337154,1.5670157985692643,1.1492157363158888,1.3435451154475233,0.00036266078210582975,-0.00045482453621896576,0.0005596375133720208,0.0013728484955966753,-0.000495683138107837,0.0002795343596508526,-5.5985147419681754e-05,0.09434870630502701,-50.39670181274414,-8.094681739807129,16.93488311767578,1.6890360116958618,-1.0983994007110596,0.05314789339900017,,,,,,,,,
1739304121.1953127,-0.05648456431711602,1.0596277326768835,-0.42070341920055015,-1.454969521904757,1.567021980387672,1.1492163762383971,1.343541296608633,-0.0013957194042642084,-0.0006122713439826294,-0.00029650334372163594,-0.00024709700470836585,0.0012495150119497568,2.3485529419970336e-05,-0.0004984897910759355,0.11815241724252701,-50.39670181274414,-8.070878028869629,16.95868682861328,1.6762186288833618,-1.1048080921173096,0.05955658480525017,,,,,,,,,
1739304121.206264,-0.0564767185253785,1.0596270174224922,-0.42070550770294224,-1.4549677355158088,1.5670172877421205,1.1492149786555887,1.343545653615533,0.0007434891804148594,-0.0008054957087700483,-0.0011550945773428681,0.0009341925773714817,0.00037361916046629276,-0.00012121987144638456,0.0017488345742433724,0.018970288336277008,-50.39670181274414,-8.043107032775879,16.93488311767578,1.6762186288833618,-1.0919907093048096,0.04673920199275017,,,,,,,,,
1739304121.2172296,-0.05648285179236791,1.0596270174184546,-0.42070343086529044,-1.4549698014279258,1.5670186211122095,1.1492157319552379,1.3435452331831896,0.0002909762262781904,-0.0012324364763688094,-0.0008677382520064893,1.885411404645371e-05,-0.00021228731438463402,5.540414604090037e-05,0.00020512768330487247,0.09434870630502701,-50.39670181274414,-8.070878028869629,16.93488311767578,1.6954447031021118,-1.0983994007110596,0.05314789339900017,,,,,,,,,
1739304121.227249,-0.056480720930326724,1.0596270174103792,-0.42070164527213577,-1.4549707884691516,1.5670185157629495,1.1492149781712198,1.3435459908451717,-0.0005571117207643186,-0.0014075156804564128,0.0007383672346546609,1.7832864318563567e-05,0.00044656700864167183,5.869943271574941e-05,-0.0003743276936882003,0.09434870630502701,-50.39670181274414,-8.094681739807129,16.98249053955078,1.6698099374771118,-1.0919907093048096,0.04673920199275017,,,,,,,,,
1739304121.2381942,-0.0564772708320347,1.059631443135776,-0.4207016443000247,-1.4549733802745746,1.5670189919882098,1.1492157363158861,1.3435476129489323,0.0009827599694177634,0.00014994068029335587,0.0007394946874695035,-2.9303480918860887e-05,8.169761158048519e-06,-0.00033260047081343246,0.0014080631063446516,0.018970288336277008,-50.44827651977539,-8.094681739807129,17.01026153564453,1.6954447031021118,-1.0983994007110596,0.03300629183650017,,,,,,,,,
1739304121.2482631,-0.05648285179370207,1.0596240218895963,-0.42070366416008864,-1.4549695178105904,1.5670165579520399,1.1492157363158888,1.3435453509226385,-0.0009124170093755428,-0.0006186695353206829,-0.00011623445035699958,0.0005670355766331684,-0.00032134163111096226,0.0002744500007863994,-9.981727796657018e-06,0.09434870630502701,-50.34512710571289,-8.070878028869629,16.95868682861328,1.6826273202896118,-1.0983994007110596,0.05314789339900017,,,,,,,,,
1739304121.2592182,-0.056480853530746805,1.0596276620356857,-0.42069950220133234,-1.454970466421707,1.567016516498878,1.1492157363158888,1.3435474966655772,0.0014715695250051039,-0.0001217606235996513,-0.00042172147442660045,-0.0007245262226744213,-1.059365350513885e-05,-0.001340075939665516,0.001543309576259378,0.06657771021127701,-50.39670181274414,-8.094681739807129,16.95868682861328,1.6826273202896118,-1.0983994007110596,0.03300629183650017,,,,,,,,,
1739304121.2692695,-0.056480880131846406,1.0596256552633203,-0.42069986255877423,-1.454973410236665,1.5670165164986496,1.1492164808940146,1.3435420542687113,-0.00033528498172957625,-0.0017930157164875611,0.0004147038914547933,-0.0013475041165827337,0.0002654792988937514,2.5932454838854455e-05,0.0005037670682238791,0.06657771021127701,-50.36893081665039,-8.118485450744629,17.01026153564453,1.6826273202896118,-1.1048080921173096,0.05314789339900017,,,,,,,,,
1739304121.2803066,-0.05648286066373136,1.0596294491222005,-0.4206977828052112,-1.4549677606438856,1.5670143454911023,1.1492157363156672,1.3435444701414956,-0.001369805838655752,0.0008301456152849246,0.0021809445104985815,0.0014737393649834156,-0.001388408571711994,0.00019277755329027177,0.00010257270012019494,0.09434870630502701,-50.42050552368164,-8.146256446838379,16.93488311767578,1.6890360116958618,-1.0983994007110596,0.05955658480525017,,,,,,,,,
1739304121.2922611,-0.0564836663625453,1.0596240217805875,-0.42070341920054993,-1.4549696283881275,1.5670197758226543,1.1492146766777593,1.3435428519672539,-0.000485207133535451,-0.0010349929031930661,-0.001290627168445029,8.421107400239416e-05,-0.00021219461893381392,-3.1961391731072345e-05,-0.0009504091661262039,0.09434870630502701,-50.34512710571289,-8.070878028869629,16.95868682861328,1.6826273202896118,-1.0983994007110596,0.07328949868679047,,,,,,,,,
1739304121.3023553,-0.05648126583378026,1.0596230149995038,-0.42070164527193826,-1.4549713000372664,1.567015692738981,1.1492164933119995,1.3435428388853117,0.0003824892324609801,-0.0017536983885770518,0.0011374976752498009,-0.00011488355503644528,0.00011884120512543959,0.0004898825962464183,-0.0006184733306068234,0.04277399927377701,-50.36893081665039,-8.094681739807129,16.98249053955078,1.7018533945083618,-1.1048080921173096,0.07328949868679047,,,,,,,,,
1739304121.3131993,-0.05648198358577464,1.0596276531900166,-0.42070164559610695,-1.4549719920868138,1.5670183933733794,1.149215736315885,1.34354624049534,0.00017951473197154783,-0.0012164774637937925,-2.4411633178851805e-05,-0.0012052438641130718,0.0018022111871993374,-9.640039319900115e-05,0.001419254775503428,0.09434870630502701,-50.39670181274414,-8.094681739807129,16.98249053955078,1.6698099374771118,-1.0983994007110596,0.05314789339900017,730,716,765,40.088,0,0
1739304121.323215,-0.05648456431220763,1.059629445198512,-0.42070340170344067,-1.4549712730194138,1.567016878212626,1.1492142209957321,1.3435391236165692,-0.00023082896393450067,0.00025975900927570524,0.0006674239567337815,0.0003827017491556439,-0.0001165114031275694,0.00028443237170759444,0.00043249828225977476,0.11815241724252701,-50.42050552368164,-8.070878028869629,16.98249053955078,1.6826273202896118,-1.0855820178985596,0.07328949868679047,731,715,766,40.197,0,0
1739304121.3351889,-0.05648293062535985,1.05962947179893,-0.4207016451639314,-1.454969521589666,1.5670150006838994,1.1492125186401607,1.343539667379134,-0.00013912579146373725,0.0007617809958678137,0.001416073236059029,0.000279243661307095,-0.001223788554856527,-0.00048237175877444605,0.0005517872293081096,0.09434870630502701,-50.42050552368164,-8.094681739807129,16.95868682861328,1.6954447031021118,-1.0983994007110596,0.07328949868679047,730,716,765,40.088,0,0
1739304121.345226,-0.056480720930771784,1.0596294451991108,-0.4207016452720858,-1.4549695263138807,1.5670146575198802,1.1492156970518683,1.3435476274664577,-0.00011749312292355321,0.0015190612197724912,8.18799580555751e-05,0.00011807932689439327,-0.0015908553313270656,0.00012424885612659427,0.0022510595826519095,0.09434870630502701,-50.42050552368164,-8.094681739807129,16.95868682861328,1.6890360116958618,-1.0983994007110596,0.03300629183650017,731,716,765,39.979,0,0
1739304121.3552997,-0.05648285168811833,1.0596218764494334,-0.4207034279491054,-1.4549713259978483,1.5670180043451971,1.1492117997394273,1.3435476202173473,-0.0006404238233078449,-0.0016313180730805155,0.00022195370051783387,0.0002450309788029548,0.0002154785614173855,-0.0014469116092586574,0.0021349670811902743,0.09434870630502701,-50.34512710571289,-8.070878028869629,16.98249053955078,1.6826273202896118,-1.0919907093048096,0.03300629183650017,729,715,765,40.088,0,0
1739304121.3662815,-0.05648149743526791,1.0596323062178723,-0.42070353289576967,-1.4549695182179914,1.5670201424130368,1.1492157217744046,1.3435365297968236,0.0001762559740205549,0.0010279824048965774,-0.0002014235678810627,0.00021575061958476033,0.0007992018496723012,-6.549993058984549e-05,-0.0029584341874261118,0.04277399927377701,-50.42050552368164,-8.070878028869629,16.95868682861328,1.6826273202896118,-1.0983994007110596,0.09983979165554047,731,715,765,39.979,1,0
1739304121.3782847,-0.05648298225134857,1.0596294412905256,-0.4206991539626608,-1.454968810076978,1.5670165175123716,1.1492157358312898,1.3435468567244342,-0.00014321718972867947,0.0009437356965806291,0.0016376819891553017,0.0008264691704237045,-0.00021417094720513262,0.0005380571999703682,0.0015413787691549057,0.06657771021127701,-50.42050552368164,-8.118485450744629,16.95868682861328,1.6826273202896118,-1.0983994007110596,0.03941498324275017,731,715,765,40.088,0,0
1739304121.3883367,-0.05648109039053075,1.0596294569726956,-0.4207016452680861,-1.4549679648228162,1.56701651600202,1.1492164939759644,1.343546069336885,-0.000523680475997953,0.00031307412894124087,0.0009705487964905702,0.0003603058176723868,-0.0008903312187921144,0.000733911191758562,-0.0010035977663012665,0.06657771021127701,-50.42050552368164,-8.094681739807129,16.93488311767578,1.6826273202896118,-1.1048080921173096,0.04673920199275017,730,717,764,40.088,1,0
1739304121.399274,-0.05648285179771276,1.0596257877193493,-0.42070343183735237,-1.4549662944188615,1.5670205456238817,1.1492142208342264,1.343546870255481,-0.0011412952568712763,-0.0001852587388858182,-0.0005837614109969009,0.0002427886079599317,0.0010601844329358248,-0.0002515274841610331,0.00030642873304781627,0.09434870630502701,-50.36893081665039,-8.070878028869629,16.95868682861328,1.6762186288833618,-1.0855820178985596,0.03941498324275017,730,715,765,40.197,1,0
1739304121.411255,-0.056479141334793266,1.0596257363729196,-0.4206998625950893,-1.4549713003563594,1.567019016747651,1.149215736315888,1.3435468523818297,0.0007820900121201871,-0.0009840095700208082,0.0010093268651967077,-0.0008206023315480704,7.746012027675587e-05,0.00032742600949223097,0.00149175822479317,0.04277399927377701,-50.36893081665039,-8.118485450744629,16.98249053955078,1.6890360116958618,-1.0983994007110596,0.03941498324275017,730,713,765,40.088,0,0
1739304121.421271,-0.056483691698889595,1.0596285568412283,-0.42070387615374993,-1.4549712994701234,1.5670172743426567,1.149212400364239,1.3435468567423794,-0.0008009445544396756,0.000604832377254244,-0.0014568352991836879,-0.0003098294201349797,-0.00035773472403368507,-0.0006089563848569369,0.0010136935991233273,0.06657771021127701,-50.39670181274414,-8.094681739807129,16.98249053955078,1.6762186288833618,-1.0983994007110596,0.03941498324275017,727,716,765,40.088,1,0
1739304121.4323108,-0.05648085387154416,1.0596257702449936,-0.42070168305107797,-1.4549713341615176,1.5670150006818586,1.1492157362970572,1.3435481101214304,-0.0001029751625038458,0.000483187215022073,9.76025087343948e-05,-0.0002879505683201968,-0.0008331449519372695,-4.944133297794255e-05,0.0002381396224217629,0.06657771021127701,-50.36893081665039,-8.094681739807129,16.98249053955078,1.6954447031021118,-1.0983994007110596,0.04673920199275017,731,716,764,40.197,1,0
1739304121.4432333,-0.056480853855524545,1.0596280505698688,-0.4206998625952806,-1.4549712170540152,1.5670172758141518,1.1492172690786484,1.3435420536735772,0.0004086508847998557,0.0006568947356532967,6.841740036286648e-05,-0.00014672461926707286,0.0005643102570802788,0.001263897128066411,-0.0004165200109649245,0.06657771021127701,-50.39670181274414,-8.118485450744629,16.98249053955078,1.6762186288833618,-1.1112167835235596,0.07969819009304047,731,715,765,40.088,1,0
1739304121.4532912,-0.05648285179637751,1.0596313646534838,-0.4207016452720864,-1.454973380276052,1.5670157985689728,1.1492172516363408,1.343541337130936,-0.0014234129609622809,0.0008877488349966621,0.00012282648770903462,-0.0004776460305391573,-0.0005731034919352432,3.0442695080684624e-05,-0.0004825871259570997,0.09434870630502701,-50.44827651977539,-8.094681739807129,17.01026153564453,1.6890360116958618,-1.1112167835235596,0.08610688149929047,731,714,767,40.305,1,0
1739304121.464257,-0.056479220055516415,1.0596276443746089,-0.42070334921210556,-1.4549712180713104,1.5670165294664207,1.1492149786558103,1.3435420818712582,0.0007764499773476254,-0.0013978185427301368,-0.0008493269039763964,-0.0008351574190887251,0.0011590390018590094,-0.000607829363781433,-0.0011527318706202857,0.04277399927377701,-50.39670181274414,-8.070878028869629,16.98249053955078,1.6826273202896118,-1.0919907093048096,0.07969819009304047,730,714,768,40.197,1,0
1739304121.4762206,-0.05647916890916151,1.059623562478713,-0.42070550773851656,-1.4549690753520512,1.5670165160572687,1.1492188751933563,1.3435488430127704,0.0007191933928452907,-0.0011184811819491738,-0.0005427173181935474,-9.704276966189475e-05,-0.0001718800398516369,0.0002522844519976175,0.0019137383667107097,0.04277399927377701,-50.36893081665039,-8.043107032775879,16.98249053955078,1.6826273202896118,-1.1249496936798096,0.026597600430250168,730,715,767,40.088,1,0
1739304121.4862869,-0.05647742881421773,1.0596257317816746,-0.42070164527208637,-1.4549719892398325,1.5670142430217768,1.1492172516360455,1.3435459914938526,0.0017699724393118218,-0.0009256798809283855,-0.00011717480131090026,-0.0008226955311905642,-0.0011940834241194772,0.0007311175023492975,0.00011177905831661879,0.018970288336277008,-50.36893081665039,-8.094681739807129,16.98249053955078,1.7018533945083618,-1.1112167835235596,0.04673920199275017,730,715,766,39.979,1,0
1739304121.4971821,-0.05648277352383235,1.059627299431732,-0.4207034308652906,-1.4549695178144786,1.5670190167291809,1.1492142209957321,1.3435413322864602,-7.977150252281082e-05,-0.0006212690803657401,-0.0002964945270059375,0.0004529541551158899,-0.0006629227488478002,-0.0006565219268348326,-0.00010006151429452562,0.09434870630502701,-50.42050552368164,-8.070878028869629,16.95868682861328,1.6890360116958618,-1.0855820178985596,0.08610688149929047,731,715,764,40.197,1,0
1739304121.5072808,-0.056482903315757914,1.0596294460347522,-0.4207055067669487,-1.4549695178105906,1.5670158792436668,1.1492189152302767,1.3435404184219921,0.0007501557361850209,0.0002225387934343312,-4.9848046159784885e-05,0.001275653043509047,-0.00036355451129254366,0.0015636167608099015,-0.0019369267461918967,0.06657771021127701,-50.42050552368164,-8.043107032775879,16.95868682861328,1.6890360116958618,-1.0983994007110596,0.09343110024929047,729,716,765,40.088,1,0
1739304121.5182712,-0.05648085399836528,1.0596260173075585,-0.42070164527206994,-1.4549713004876095,1.567016690817702,1.1492157350776793,1.34354006630162,0.00029282764828979214,-0.0007441548698741208,0.0006763023503156578,0.00042717347871111663,0.00016337942346069772,0.0009717777107139708,-0.0008428071851177964,0.06657771021127701,-50.36893081665039,-8.094681739807129,16.98249053955078,1.6826273202896118,-1.0983994007110596,0.09983979165554047,731,722,764,40.197,1,0
1739304121.52921,-0.056479141767325665,1.0596284650342227,-0.42070164527208637,-1.4549713004876095,1.5670187759671628,1.1492157363158864,1.3435428519679284,0.0012592664909681001,-0.000772002287354995,0.0006718713452767324,-0.0011642014659783222,0.0006704251246432028,0.0010154610055169262,-6.461497553015504e-05,0.04277399927377701,-50.42050552368164,-8.094681739807129,16.98249053955078,1.6762186288833618,-1.0983994007110596,0.07328949868679047,731,716,765,40.088,2,0
1739304121.5392146,-0.05647737627756504,1.0596304894488981,-0.42070377117108343,-1.4549677436368402,1.5670165160274532,1.1492142209957321,1.3435413424613083,0.0009227919758353967,-0.000861977073257955,-0.00024957733956042856,0.00035656129583273855,0.00040842796973216566,-9.098881024189752e-05,-0.0008416876480154781,0.018970288336277008,-50.44827651977539,-8.094681739807129,16.93488311767578,1.6826273202896118,-1.0855820178985596,0.08610688149929047,732,716,765,40.197,1,0
1739304121.550213,-0.05648179980242312,1.059628686336395,-0.4207034542307744,-1.4549712913303867,1.567016522127111,1.149216493975967,1.343538184687786,-0.00042647082409981614,0.0005836021522941529,0.00011560610628938667,-0.00066900224454742,0.0005675403932006736,0.0006164307410262821,-0.0012859630495074747,0.06657771021127701,-50.39670181274414,-8.070878028869629,16.98249053955078,1.6826273202896118,-1.1048080921173096,0.11265717446804047,730,715,765,39.979,1,0
1739304121.56119,-0.056477420046845944,1.059631443141608,-0.4207041365821539,-1.4549726385307573,1.5670153671945608,1.149216493975967,1.343544880026194,0.001551813348849213,0.0016759480788712412,-0.0011463267412630052,0.00026425525114896547,0.00011346491233050088,0.0006535202759652909,0.0002757492404911522,0.018970288336277008,-50.44827651977539,-8.070878028869629,17.01026153564453,1.6954447031021118,-1.1048080921173096,0.05314789339900017,730,716,765,40.088,1,0
1739304121.571286,-0.05648085385537598,1.0596257347373765,-0.42070235391708616,-1.4549713004750477,1.567017436728371,1.1492157363158888,1.34354598502499,0.0006396695117137555,-0.000623218518854643,0.00016799821665331675,0.0006832481078298204,-0.0004043301418449762,-7.12274924016481e-05,-0.00021689128949790707,0.06657771021127701,-50.36893081665039,-8.094681739807129,16.98249053955078,1.6762186288833618,-1.0983994007110596,0.04673920199275017,729,716,760,39.871,1,0
1739304121.5822902,-0.056480853711178836,1.0596314429944587,-0.42070342892516754,-1.4549677352735426,1.5670161740218853,1.1492171338984756,1.3435471576272722,0.0004010355381070748,0.0009345737606448667,0.00038827522665196455,0.0015529289341897118,0.0005618109556559714,0.0004766316954343533,0.0015472054138103144,0.06657771021127701,-50.44827651977539,-8.070878028869629,16.93488311767578,1.6890360116958618,-1.1112167835235596,0.03941498324275017,730,715,765,40.088,1,0
1739304121.5932505,-0.056480853855523636,1.0596257346283593,-0.4207035062540834,-1.4549713004876101,1.5670150185628693,1.1492164939753022,1.343547223399165,0.0005806615570562027,-0.0017796332828386495,9.383400876715293e-05,-4.1033700042540536e-05,-0.0006209014994390912,-0.0003905602818829896,0.0012582243777056606,0.06657771021127701,-50.36893081665039,-8.070878028869629,16.98249053955078,1.6954447031021118,-1.1048080921173096,0.03300629183650017,729,715,765,39.979,1,0
1739304121.6033099,-0.056480853963657485,1.0596294442178125,-0.4207044681406678,-1.4549733680676429,1.5670165174922033,1.1492141643072724,1.3435476318384638,0.0016541495104136306,0.0003347173820967224,0.0001653060073786323,-0.0009370820004812786,0.001074066166733551,-0.0016077092471496024,0.0005903298252885375,0.06657771021127701,-50.42050552368164,-8.094681739807129,17.01026153564453,1.6826273202896118,-1.0855820178985596,0.03300629183650017,730,717,765,40.088,1,0
1739304121.6142402,-0.05647914133479386,1.0596257258707145,-0.42070164539602845,-1.4549695344778977,1.5670150012336739,1.1492172516357253,1.3435404707499732,0.0015849566774242241,6.245888323145997e-05,-5.4521750344183734e-05,0.0004904844133927294,-0.0011445964786726479,0.0006329500929314164,-0.0012517235083164362,0.04277399927377701,-50.36893081665039,-8.094681739807129,16.95868682861328,1.6954447031021118,-1.1112167835235596,0.09343110024929047,730,716,765,40.088,1,0
1739304121.6252198,-0.056478724287070146,1.0596277338410196,-0.42070165402064263,-1.454972665300419,1.567017602131097,1.1492149394099536,1.3435447622348136,1.3027987650492188e-05,0.0003493340092418817,-0.00025836798516958004,-0.0006914255250454514,0.00047882060317027287,-0.00018699884280248092,-0.0003889949770368857,0.06657771021127701,-50.39670181274414,-8.094681739807129,17.01026153564453,1.6826273202896118,-1.0919907093048096,0.05314789339900017,730,715,766,40.088,1,0
1739304121.6362114,-0.05648285178435604,1.059628449896266,-0.4206998625951167,-1.4549713004458886,1.5670182590213984,1.1492157363156672,1.3435424093645303,0.000754209368565582,0.00012693194867124475,0.0005483595183198243,-0.00043133553978919937,-0.0007019638579679356,0.0005048975982675643,-0.0003888312317748969,0.09434870630502701,-50.39670181274414,-8.118485450744629,16.98249053955078,1.6954447031021118,-1.0983994007110596,0.08610688149929047,730,716,767,39.979,0,0
1739304121.6462893,-0.05648345548746471,1.059630160466844,-0.4206998621630399,-1.45496465825841,1.5670183754074156,1.1492157363158888,1.3435420986860027,-0.00030495473665939464,0.0007240788125076228,0.0009391399139450426,0.0022974013941427555,0.0007754120571020276,0.00026991369326883035,-0.0009610896717404871,0.09434870630502701,-50.42050552368164,-8.118485450744629,16.93488311767578,1.6762186288833618,-1.0983994007110596,0.07969819009304047,730,716,767,40.088,1,0
1739304121.656296,-0.05647742979748294,1.0596264470617875,-0.4207036637280704,-1.4549655098413925,1.567017278150415,1.1492149786558103,1.3435444755250892,0.0014243036929867405,-0.0007149415487393508,-0.001091009712104778,0.0012973127373197776,-0.0006914763365116444,0.0002858714247887727,4.4930166315518064e-05,0.018970288336277008,-50.36893081665039,-8.070878028869629,16.93488311767578,1.6762186288833618,-1.0919907093048096,0.05955658480525017,732,717,766,40.088,1,0
1739304121.6682951,-0.056480888890633275,1.0596239780690775,-0.42070550788430117,-1.4549670273873947,1.5670157568884084,1.1492156839880798,1.34353784455693,-0.00025647904271039706,-0.001745095049123813,-0.0010807546376984736,0.0009010959081290846,-0.0010196804651925915,-6.31761908015167e-05,-0.002069591818025872,0.06657771021127701,-50.34512710571289,-8.043107032775879,16.93488311767578,1.6890360116958618,-1.0983994007110596,0.11265717446804047,728,715,766,40.088,2,0
1739304121.679321,-0.0564808626143662,1.0596277326781465,-0.4207024831051071,-1.4549713259960844,1.5670157985689335,1.1492142151814326,1.3435420943065208,0.0004152819059505088,-0.0010676472189184033,0.0005241103049837207,0.00017007850099421193,-0.0003191916410121128,-0.0008958593917117895,-0.0007572480221271043,0.06657771021127701,-50.39670181274414,-8.070878028869629,16.98249053955078,1.6890360116958618,-1.0855820178985596,0.07969819009304047,730,716,768,40.088,1,0
1739304121.6912265,-0.05648285179642695,1.0596277385287691,-0.42070413952895824,-1.4549715841050868,1.5670190167294078,1.1492152653655763,1.343542853905331,-0.0005117343823217359,-0.0005364098674062752,-0.0001659429349703475,-0.0005602683010254403,-0.0009462713287874075,-0.0002843554306227391,8.575476468601399e-05,0.09434870630502701,-50.39670181274414,-8.070878028869629,16.95868682861328,1.6890360116958618,-1.0983994007110596,0.07328949868679047,729,716,767,40.197,1,0
1739304121.7022185,-0.05648498017890137,1.059625654937479,-0.42070093664042635,-1.4549713033259204,1.5670158127014224,1.1492117997405362,1.3435420419973254,-0.00043557943988908855,-0.0020440825547141735,0.001152249244200592,-0.0009737373636244007,-0.001327117766190946,-0.0006961012866024646,-0.001391872694067219,0.09434870630502701,-50.36893081665039,-8.094681739807129,16.98249053955078,1.6890360116958618,-1.0919907093048096,0.07969819009304047,730,716,769,40.088,1,0
1739304121.7123077,-0.05648285194055489,1.0596323971398274,-0.4207035066741046,-1.4549740690422972,1.5670178634529723,1.149215618362978,1.3435420943062997,0.00031426628296016973,0.0014023128638719178,7.081015951848784e-05,-0.0011758408486916587,-0.0008903193509062336,-0.0001596444157558549,-0.001738079988289842,0.09434870630502701,-50.44827651977539,-8.070878028869629,17.01026153564453,1.7018533945083618,-1.0983994007110596,0.07969819009304047,730,717,768,40.197,1,0
1739304121.7241929,-0.05647801367398828,1.0596277327926311,-0.4207042824759963,-1.4549713004914975,1.567011519865034,1.149215736315223,1.3435397130897964,0.001410456818426947,-0.0004272267551459192,0.00014298609678516718,0.0002920538837295632,-0.0021182641298499475,6.18866445448205e-05,-0.0012060246328669982,0.06657771021127701,-50.39670181274414,-8.094681739807129,16.98249053955078,1.6890360116958618,-1.0983994007110596,0.09983979165554047,731,716,767,40.197,1,0
1739304121.7342305,-0.056480857732280794,1.0596304897198692,-0.4207016452869735,-1.45497130426684,1.5670157583180069,1.1492110420275088,1.3435468568500746,-0.00027524239468401884,0.0009205033653921666,0.001045771677754772,-0.00034767041962022367,-0.0005607225722691903,-0.0007394649213942593,0.0017010196543976112,0.06657771021127701,-50.44827651977539,-8.094681739807129,16.98249053955078,1.6890360116958618,-1.0855820178985596,0.03941498324275017,730,716,767,40.197,1,0
1739304121.744274,-0.0564836434336645,1.0596295246556742,-0.4206998891647548,-1.454968679416402,1.567015134452891,1.1492157231801003,1.3435474966649146,-0.0009291629241171399,0.0005110935521591529,0.00035080325370569595,-0.0001981895736461436,-0.0012338325272110997,0.001119278547891482,-0.00012338761878886637,0.11815241724252701,-50.42050552368164,-8.118485450744629,16.93488311767578,1.6954447031021118,-1.0983994007110596,0.03300629183650017,731,716,767,40.088,1,0
1739304121.7552507,-0.05648285471077104,1.0596277415089959,-0.4207009366752397,-1.4549695086585543,1.5670160889637543,1.1492157300170969,1.3435468566879043,0.00018718755336768447,0.00015938341746607592,0.0008640284748450133,2.6640620126422193e-05,-0.00030449064112364585,0.0006683216107423223,0.0011046375686236227,0.09434870630502701,-50.39670181274414,-8.094681739807129,16.95868682861328,1.6954447031021118,-1.0983994007110596,0.03941498324275017,730,717,767,40.088,1,0
1739304121.7661898,-0.05648001940043549,1.0596277351493146,-0.4207055165195188,-1.4549705587408672,1.5670165294171559,1.1492153831031435,1.3435445938712358,0.0008534137392150478,-0.0003194997202559375,-0.0005441780877805432,-3.067844516310244e-05,0.000704790908041836,-0.0003119747900420212,0.0015629474768715191,0.09434870630502701,-50.39670181274414,-8.043107032775879,16.98249053955078,1.6826273202896118,-1.0983994007110596,0.03300629183650017,730,716,767,40.088,0,0
1739304121.7762759,-0.056484572053584745,1.0596298696151654,-0.42070154126163034,-1.4549712974225923,1.5670187218344271,1.1492146210764682,1.3435468573372735,-0.0005820263424827126,0.0002516612882153583,0.00040577330516531306,-0.0005222907002275188,0.0006203985018875875,-4.933779895998665e-05,0.0017019631958799279,0.11815241724252701,-50.39670181274414,-8.094681739807129,16.98249053955078,1.6762186288833618,-1.0919907093048096,0.03941498324275017,731,717,766,40.197,1,0
1739304121.786285,-0.056484433092187154,1.0596271229864294,-0.42070342794734406,-1.4549729285569941,1.5670223773529122,1.1492157363098332,1.3435458251404537,-0.0011679218068914531,-0.00016163094127116914,-0.00017936476577326175,-0.0017673899337129998,0.0020744395883933327,-0.0003051798304009643,0.00026641556073661804,0.11815241724252701,-50.39670181274414,-8.070878028869629,17.03406524658203,1.6698099374771118,-1.0983994007110596,0.04673920199275017,731,716,766,40.088,1,0
1739304121.7972093,-0.056480143566100115,1.059625655261075,-0.4207018464888639,-1.454971300474996,1.5670165165231746,1.1492157317398972,1.3435373572443126,0.0008801994437130812,-0.002066423636238863,0.00048449149512875455,-0.0015148805442218593,-0.0003518091945151579,0.000151098047249381,-0.001516340532040156,0.06657771021127701,-50.36893081665039,-8.094681739807129,16.98249053955078,1.6826273202896118,-1.0983994007110596,0.09343110024929047,733,716,766,40.088,1,0
1739304121.8082745,-0.05647929900489894,1.059629445198512,-0.420701646245284,-1.454973380277465,1.567020860199371,1.1492153829416476,1.3435438355306553,0.0008398147843909667,-0.0003272482505935223,0.00022727086961220664,-0.001329814924039211,0.00154556843936891,-7.404519559935548e-05,0.0008838093830739469,0.04277399927377701,-50.42050552368164,-8.094681739807129,17.01026153564453,1.6826273202896118,-1.0983994007110596,0.06596527993679047,731,717,767,40.088,1,0
1739304121.8192337,-0.05647753392026194,1.0596279070318804,-0.42070342798511323,-1.4549713004876093,1.5670157584216375,1.1492149786538155,1.343545233347263,0.0019081877955583648,-0.0006184952362612614,-0.000345057644402817,0.0003050733380427599,-0.000810863102420673,0.0008914808002132835,0.002114338148579584,0.018970288336277008,-50.36893081665039,-8.070878028869629,16.98249053955078,1.6890360116958618,-1.0919907093048096,0.05314789339900017,730,717,766,40.088,1,0
1739304121.8302155,-0.056480146450939746,1.0596284567765473,-0.42069951937308964,-1.4549691867887478,1.567016516002012,1.1492146635958072,1.3435476143486482,0.0008349015776168492,0.00015422671533790836,0.001064591263928757,0.0010305810640600592,-0.00044443575191713074,-0.00017599325912917682,0.0012250052326243737,0.06657771021127701,-50.39670181274414,-8.094681739807129,16.95868682861328,1.6826273202896118,-1.0983994007110596,0.03300629183650017,731,716,765,40.197,1,0
1739304121.8402305,-0.05648085384354449,1.0596314519823942,-0.4207016452360841,-1.4549740718710662,1.5670183642608395,1.1492149786376435,1.3435457927436232,-0.0005659940869369268,0.0018540898355544398,0.0003149911878199107,-0.0008310271776657927,0.0009585758867923155,-0.0006083842706698783,0.0006140103290388237,0.06657771021127701,-50.44827651977539,-8.094681739807129,17.01026153564453,1.6762186288833618,-1.0919907093048096,0.03941498324275017,731,714,765,40.197,1,0
1739304121.8511906,-0.056477429246594144,1.0596294442178642,-0.42070626248110127,-1.4549712913341468,1.5670201356470657,1.1492164939759668,1.343549170453411,0.0008985258087851022,-9.006368314592333e-05,-0.0006169100344905671,-0.00020829078566433093,0.0014888807348506534,0.0007086940842615886,0.002122435732898564,0.018970288336277008,-50.42050552368164,-8.070878028869629,16.98249053955078,1.6826273202896118,-1.1048080921173096,0.04673920199275017,730,715,766,40.088,1,0
1739304121.8622565,-0.05648261503349031,1.059629339235131,-0.42070164532008947,-1.4549684328213839,1.567017288622279,1.1492117997414222,1.3435428520211108,-1.8616614751486098e-06,-1.2122299535036142e-05,-0.00022045770989944041,0.0008682610659114731,0.0006992685936705577,-0.00037371595382008004,-0.0009739948928728673,0.09434870630502701,-50.42050552368164,-8.094681739807129,16.93488311767578,1.6762186288833618,-1.0919907093048096,0.07328949868679047,730,716,767,40.088,2,0
1739304121.8732576,-0.05648369169844408,1.0596277337681927,-0.42070342794910554,-1.4549715302790656,1.5670178477567243,1.1492172341874607,1.3435444755250152,-0.0007166408611638725,-0.00027520082684988204,0.00012764660034154728,-0.000523881362437843,0.00038995693942027747,-0.0004465267831927631,-0.00019405130227132355,0.06657771021127701,-50.39670181274414,-8.070878028869629,16.98249053955078,1.7082620859146118,-1.1112167835235596,0.05955658480525017,730,716,766,39.979,1,0
1739304121.8842666,-0.056483061407449485,1.0596267789675804,-0.420701671517753,-1.454973297967442,1.5670188427053782,1.1492125974383227,1.34354128358251,-0.000852442014553555,-0.0004093400649975585,-0.00013814094854027004,-0.0013116113225871211,0.0021953337206561253,-0.0002229768945343645,0.00033808876481350274,0.06657771021127701,-50.39670181274414,-8.094681739807129,17.01026153564453,1.6762186288833618,-1.0718491077423096,0.05955658480525017,728,715,766,40.088,0,0
1739304121.8952723,-0.056482851808839205,1.0596260525144152,-0.42070555676443583,-1.454973686394682,1.5670176021951323,1.1492157363158888,1.3435468565628799,-9.483804572995224e-05,-0.0012171313488599997,0.000248610997428761,-0.0015920870851455979,0.000716140880425276,-0.0005171435509058653,0.0021419685528257255,0.09434870630502701,-50.36893081665039,-8.070878028869629,17.01026153564453,1.6826273202896118,-1.0983994007110596,0.03941498324275017,730,714,766,40.088,1,0
1739304121.90621,-0.05648285179637772,1.059627732683611,-0.42070342798515714,-1.4549733696215688,1.5670172736804846,1.1492117997414222,1.3435483720625578,0.0004970278953700471,-0.0005131629163171881,0.00011424076701337723,-0.0001837992272426005,0.0014971342537869249,-0.0009465897017209901,0.003473245235332287,0.09434870630502701,-50.39670181274414,-8.070878028869629,16.98249053955078,1.6762186288833618,-1.0919907093048096,0.026597600430250168,729,714,766,40.088,1,0
1739304121.9163184,-0.05648296566046315,1.0596277326782295,-0.42070140699677294,-1.4549733831235683,1.5670180357918353,1.1492172516181003,1.3435457992038473,-0.0012424293927472112,-0.0003525881644101904,-0.0001255766578206217,-0.001278186534865777,0.000165084914122068,0.0008151013479164158,0.00047486398407781783,0.09434870630502701,-50.39670181274414,-8.070878028869629,17.01026153564453,1.6698099374771118,-1.1112167835235596,0.03941498324275017,731,715,766,40.088,1,0
1739304121.9272096,-0.05648088889127049,1.0596257347373765,-0.420699862583659,-1.4549713004876255,1.5670169653727744,1.149216140763257,1.343545986478551,0.00027201115719283986,-0.0016190691524851292,0.0010463920950082167,-0.0002977499977187004,0.0011424382422330615,-0.0004090353565782054,0.0005974400907643239,0.06657771021127701,-50.36893081665039,-8.118485450744629,16.98249053955078,1.6890360116958618,-1.1048080921173096,0.04673920199275017,730,715,767,40.197,1,0
1739304121.9372354,-0.05647914133538659,1.0596295246718204,-0.42070342794910526,-1.4549713770170298,1.567017723329174,1.1492139146510485,1.3435429740654108,0.0008026836450418687,0.0007022220746570584,1.3796529610506046e-05,-0.0003146377453379286,5.7629463683786666e-05,-0.0008877124672178173,0.0005837150691747378,0.04277399927377701,-50.42050552368164,-8.070878028869629,16.98249053955078,1.6826273202896118,-1.0919907093048096,0.07328949868679047,729,716,767,40.197,1,0
1739304121.9472408,-0.05648085385552446,1.059629878773836,-0.42070335018416727,-1.4549713001497437,1.567016899617355,1.149216493957948,1.3435413371336917,0.0004880659059373592,0.0009654495964797614,-0.0009859056952215217,-0.0002613090463855167,0.0006849937457990843,0.00043721320214253095,-0.00047205506112784316,0.06657771021127701,-50.39670181274414,-8.070878028869629,16.98249053955078,1.6890360116958618,-1.1048080921173096,0.08610688149929047,730,716,766,40.197,2,0
