IITGN-Robotics/Franka_IITGN_ROBOTICS/franka_ros/franka_iitgn/data01/s_b_005.csv
time,fr3_joint1_pos,fr3_joint2_pos,fr3_joint3_pos,fr3_joint4_pos,fr3_joint5_pos,fr3_joint6_pos,fr3_joint7_pos,fr3_joint1_vel,fr3_joint2_vel,fr3_joint3_vel,fr3_joint4_vel,fr3_joint5_vel,fr3_joint6_vel,fr3_joint7_vel,fr3_joint1_eff,fr3_joint2_eff,fr3_joint3_eff,fr3_joint4_eff,fr3_joint5_eff,fr3_joint6_eff,fr3_joint7_eff,flexpin1,flexpin2,flexpin3,Force,ContactMic,ContactMic_gt
1739302780.208325,-0.08670799811432334,1.052458012723884,-0.3754753162632216,-1.4573885253518066,1.545880798207693,1.1661465174498602,1.347520600912764,-0.0009148178779745395,0.0017506207645192314,-0.003190481543219388,0.0004316522939672848,-0.0015167544572607032,-0.00048711960833074607,-0.0021238202386087753,2.637378454208374,-49.88492202758789,-5.123185157775879,16.71271514892578,1.5773416757583618,-1.4994003772735596,0.05314789339900017,,,,,,,,,
1739302780.2192574,-0.08676064441105882,1.0524724628593634,-0.3755460109528993,-1.4573294404343056,1.5458830440708176,1.1661366549468843,1.3475235526976375,-0.005388635578670431,-0.00041144910711693407,-0.003836599255440221,0.006963093222889608,-0.0008188708345582148,4.197493554195886e-05,0.0008837420307610288,1.316272497177124,-50.08725357055664,-6.241959571838379,16.73651885986328,1.5974832773208618,-1.3877060413360596,0.019273381680250168,,,,,,,,,
1739302780.2302477,-0.08679200379398522,1.0524798749520141,-0.37558527557642685,-1.4572823091893041,1.5458796849920065,1.166126281519308,1.3475255800595298,-0.0023437651687741937,0.0019895199024726885,-0.00494945749578371,0.005108521137041787,-0.0005213674077805044,-0.00020136272755809267,-0.00011204186503277361,1.014758825302124,-50.19040298461914,-6.214188575744629,16.66510772705078,1.6167093515396118,-1.3281967639923096,-0.0008682189509272575,,,,,,,,,
1739302780.240249,-0.08683068542866558,1.0524669247556186,-0.375593187826691,-1.4572549968815427,1.5458796849695255,1.1661232464617646,1.3475227399330945,-0.00290528845379927,-0.0006381466170450764,0.0007353734757744371,0.0020874205512857015,-9.106455323360657e-05,-0.0001452178640991675,-0.000378299662327079,1.090137243270874,-50.01187515258789,-6.341141700744629,16.66510772705078,1.6167093515396118,-1.3025619983673096,0.026597600430250168,,,,,,,,,
1739302780.2512758,-0.08683613977541367,1.0524754538114263,-0.37558710470967416,-1.457244905381114,1.545878565270507,1.1661270347621315,1.347529516634896,-0.0013457106818657596,0.0009614566581825769,0.002412590077617187,0.0012566472769428602,-0.001103588255229167,0.00045573540473927326,0.0015150085644604285,0.9393804669380188,-50.13882827758789,-6.468094825744629,16.73651885986328,1.6231180429458618,-1.3346054553985596,-0.0072769103571772575,,,,,,,,,
1739302780.2613518,-0.08683952973100258,1.0524851226236862,-0.37558111928598764,-1.457249128463873,1.5458793229244543,1.1661294159795206,1.3475191986375499,-0.0008609355007640695,0.001273028066864353,0.00044561134809320536,7.246662690652819e-05,-0.0005223656696721076,0.00018093675533501218,-0.0027616151001732606,0.8917730450630188,-50.29355239868164,-6.547440528869629,16.83570098876953,1.6167093515396118,-1.3547470569610596,0.05314789339900017,,,,,,,,,
1739302780.2722871,-0.08685125238130036,1.052489017177575,-0.375578219742791,-1.4572501934244175,1.545885544969512,1.1661270347621315,1.3475322676275108,-0.0016855334038402873,6.856365267349018e-05,-0.0014275300110859106,-0.0006769570560658394,0.0004752112799465726,-0.0003642496473909093,0.0011514484717861729,0.9671514630317688,-50.31735610961914,-6.547440528869629,16.85950469970703,1.6038919687271118,-1.3346054553985596,-0.020094294100999832,,,,,,,,,
1739302780.2823217,-0.08685398900537382,1.0524873136448343,-0.3755818083080925,-1.4572524537636762,1.545880094020103,1.1661223413186506,1.3475248510302889,0.0002023510257055074,-0.0010111828886170727,-0.0014097823297121856,-0.0002826572993924802,-0.0011203281730916652,-0.00023424666833912777,0.00117665875153302,0.9155767560005188,-50.29355239868164,-6.495865821838379,16.85950469970703,1.6103006601333618,-1.2952377796173096,0.0064559997990727425,,,,,,,,,
1739302780.2932785,-0.08685547664305798,1.0524776585424116,-0.37558002148785435,-1.457244858182495,1.545880093509244,1.1661122459598854,1.3475208578191726,-0.00039330764076869957,-0.00134391322337088,0.0005845970151404446,-1.888960705730611e-05,-0.0008812309440755118,-0.004213081817011629,-0.0011213153526266977,0.8917730450630188,-50.19040298461914,-6.519669532775879,16.78809356689453,1.6103006601333618,-1.2494614124298096,0.06596527993679047,,,,,,,,,
1739302780.3052557,-0.0868483801681163,1.0524768819061765,-0.3755777600756274,-1.4572320542950599,1.5458786253845578,1.1661153392666113,1.347522896906039,0.0015475354214174468,0.0008841691799541969,0.001427977147243042,-0.000879326299202376,-0.0003804420968900903,-0.00027604729789964226,-0.0013854770617386665,0.7925909161567688,-50.19040298461914,-6.547440528869629,16.68891143798828,1.6167093515396118,-1.2760117053985596,0.05314789339900017,,,,,,,,,
1739302780.3152568,-0.08685592411612447,1.0524870652888292,-0.37557394681786904,-1.4572437201494246,1.5458804848126226,1.1661222663905497,1.3475223889645185,-0.0014844427012977394,0.00010994179785387651,0.0018435750562831807,-0.0014339534454301057,3.9344218366945885e-05,0.00014115523099872635,-0.001462419249502958,0.8640020489692688,-50.29355239868164,-6.595047950744629,16.85950469970703,1.6038919687271118,-1.3346054553985596,0.06596527993679047,,,,,,,,,
1739302780.3263047,-0.08685863249466778,1.0524873841743054,-0.375580780712801,-1.4572447094653924,1.5458793273881357,1.1661304072948133,1.3475299375539316,-0.0010831352781241,-0.0012023936594823012,0.0008958793779290661,0.0009587645840598,-0.00023421493772028638,0.0010747673203545865,0.001576075336460542,0.8917730450630188,-50.29355239868164,-6.495865821838379,16.85950469970703,1.6167093515396118,-1.3675644397735596,-0.0008682189509272575,,,,,,,,,
1739302780.3363426,-0.08685872409489383,1.052479882801634,-0.37558172457625133,-1.4572386593755535,1.5458800805845576,1.1661289256456129,1.3475212108018912,0.00011911971405016808,-0.0006566637085375072,-3.903580480522117e-05,0.00019176320229786082,0.0008543925060673887,-4.592107625941516e-05,-0.0016018208058130323,0.8917730450630188,-50.19040298461914,-6.495865821838379,16.78809356689453,1.6103006601333618,-1.3547470569610596,0.03941498324275017,,,,,,,,,
1739302780.3483188,-0.08685550808537154,1.052485227291782,-0.3755760794376858,-1.4572345541254859,1.5458808387412404,1.166121527704609,1.3475264947530967,0.000490692569959435,0.0022467622128915375,-0.000780124695925003,-0.0011301695168064404,0.0012330015749864713,-0.0022658210611988723,0.00039972915393131044,0.8163946270942688,-50.26578140258789,-6.571244239807129,16.73651885986328,1.6038919687271118,-1.3281967639923096,-0.0072769103571772575,,,,,,,,,
1739302780.358366,-0.08685674208112029,1.0524865881411194,-0.37558025849991694,-1.457238044561463,1.5458801209770814,1.1661168981932966,1.3475263398679096,0.00034252201679607717,0.0013708434543911099,-0.001712671913186534,-0.0009829741936130997,0.00021500170078888779,0.0004999726319505247,0.00033714207053646807,0.8640020489692688,-50.29355239868164,-6.519669532775879,16.81189727783203,1.6103006601333618,-1.2888290882110596,-0.0072769103571772575,,,,,,,,,
1739302780.3693218,-0.08686190771020601,1.0524910147269746,-0.37557994190634764,-1.4572412578468097,1.5458808251090514,1.166113715655626,1.3475196536690703,9.059310235231891e-05,0.001302402240889492,-0.0005979508558669972,0.0006543508869383076,-0.0012785994190976447,1.2839869232632274e-05,-0.0018848335681495888,0.8917730450630188,-50.34512710571289,-6.519669532775879,16.83570098876953,1.6038919687271118,-1.2622787952423096,0.05955658480525017,,,,,,,,,
1739302780.3802624,-0.08685819531783764,1.052487340172124,-0.3755759997286242,-1.457233943780938,1.5458801344411865,1.16611533775914,1.3475299932542963,0.0013013446125487403,0.0011101219141113389,0.0005231391303929772,0.001386428596959401,0.0008159322168445624,0.00020891619101698962,0.0016844907226781945,0.8401983380317688,-50.29355239868164,-6.571244239807129,16.76032257080078,1.6103006601333618,-1.2760117053985596,-0.0008682189509272575,,,,,,,,,
1739302780.3903346,-0.08685827748653492,1.0524894494921666,-0.375572970782933,-1.457230662225927,1.545882581312614,1.16611908699162,1.3475254634016987,0.00016360120962749536,0.001959822797171482,0.000844882540198412,0.0015197277072832227,0.0005632199188286098,0.0003226524460929755,0.00010240728327330214,0.8401983380317688,-50.29355239868164,-6.571244239807129,16.68891143798828,1.6167093515396118,-1.3346054553985596,0.03941498324275017,,,,,,,,,
1739302780.4003682,-0.08686405126449781,1.0524812087660087,-0.3755746742423454,-1.4572401904214998,1.5458800812467053,1.166122108761076,1.3475227057684356,-0.00019600220007436926,-0.0011256618854826954,0.0003585637945904041,-0.0012040474136471924,0.0007943026998420896,-0.0003926748219750482,-0.0012667343064458208,0.8917730450630188,-50.19040298461914,-6.547440528869629,16.81189727783203,1.6103006601333618,-1.3346054553985596,0.026597600430250168,,,,,,,,,
1739302780.4112828,-0.08686477632455479,1.0524819602173914,-0.37558172349551233,-1.4572404543660273,1.5458743272084892,1.1661215087301744,1.3475260684471213,0.0003330676095949386,0.0002362662882437527,-0.0007104742400578587,-0.0005208389746837258,-0.0017195396962582704,-0.0005565690167336762,-0.000738499190441592,0.8917730450630188,-50.21817398071289,-6.495865821838379,16.81189727783203,1.6231180429458618,-1.3281967639923096,-0.0008682189509272575,,,,,,,,,
1739302780.4212875,-0.08686107841745565,1.0524873047068297,-0.3755777833776866,-1.4572381690194642,1.5458829090629118,1.16612498962291,1.3475271535239746,0.0012210642750118033,-0.00023225125509071385,-0.0003228303364127635,-0.0003463674626494873,0.001056894619046501,0.0011009011309560533,-0.0008647700440738818,0.8401983380317688,-50.29355239868164,-6.547440528869629,16.78809356689453,1.6231180429458618,-1.3217880725860596,-0.013685601763427258,,,,,,,,,
1739302780.43231,-0.08686308074830737,1.0524835932627699,-0.37557501591663484,-1.457231683285609,1.545880080658095,1.1661192358220163,1.3475227321279586,-0.0010130642093571216,0.0008568779365004462,-0.00043555820110762183,0.0003783321526720324,-0.0021174522769882927,6.954132585962583e-05,-0.001571610636664496,0.8640020489692688,-50.24197769165039,-6.547440528869629,16.73651885986328,1.6103006601333618,-1.3089706897735596,0.05955658480525017,,,,,,,,,
1739302780.4423141,-0.08686138587928496,1.0524853862375014,-0.3755799418884936,-1.457236324030025,1.5458769551160663,1.166116854694353,1.3475247534264108,0.0012758543016712538,7.36666410370293e-05,0.00039911036955891764,-0.0006368136534141613,2.1702721707814025e-05,-0.0002903056505344826,-0.0018638185961479176,0.8401983380317688,-50.26578140258789,-6.519669532775879,16.76032257080078,1.6368509531021118,-1.2888290882110596,0.0064559997990727425,,,,,,,,,
1739302780.4523408,-0.08686139064243976,1.05248730459783,-0.3755778621147046,-1.457241972787545,1.5458768827742182,1.1661184780901603,1.3475255796116457,0.0008009786117045955,-0.00023944979256279467,0.0006057845242328328,-0.0010741546039476314,-0.0020147379403300364,0.00025079093629511227,0.0005470156847519385,0.8401983380317688,-50.29355239868164,-6.547440528869629,16.83570098876953,1.6103006601333618,-1.3025619983673096,0.03941498324275017,,,,,,,,,
1739302780.463263,-0.0868631070606272,1.0524835942439155,-0.37557927206984226,-1.4572360099703099,1.5458793211338786,1.1661199934103144,1.3475255840523481,-0.0006956507121537936,-0.001944982587971003,-0.0005310994084733343,0.0013130176601615616,-0.0014584531922210934,0.0006423037445420207,0.00047522276892216387,0.8640020489692688,-50.24197769165039,-6.495865821838379,16.76032257080078,1.6167093515396118,-1.3153793811798096,0.03941498324275017,,,,,,,,,
1739302780.4732943,-0.08686381911352893,1.0524835942439161,-0.37557606632732243,-1.4572373294093068,1.5458800939935031,1.1661207510703928,1.3475207815806522,9.74771786305919e-05,-8.469791424893568e-05,5.639301963810111e-05,-7.457171998544545e-05,0.0007165244736512851,0.0004124658130995097,-0.0016787350779105068,0.8640020489692688,-50.24197769165039,-6.571244239807129,16.81189727783203,1.6103006601333618,-1.3217880725860596,0.05314789339900017,,,,,,,,,
1739302780.483346,-0.08686527806355891,1.0524835942439161,-0.3755768109917354,-1.4572391166219427,1.5458793229246812,1.1661192376883032,1.3475313949274283,-0.00011634515720451,-0.0005854220764183774,-0.00018965235893767958,-0.0008923184569511769,-0.0006235977038038491,-0.0004890476315734117,0.003815825734554153,0.8640020489692688,-50.24197769165039,-6.547440528869629,16.83570098876953,1.6167093515396118,-1.3089706897735596,-0.0008682189509272575,,,,,,,,,
1739302780.494278,-0.08686221196978128,1.052483699771664,-0.37557775611804073,-1.457240081514264,1.5458809320045765,1.166119235750247,1.3475269069295959,-0.0004907571375299958,0.000535910454249343,0.0006806182058333603,-0.0005974529579486768,0.00015085170458578655,-0.00044417715536482585,0.0004761608915161173,0.8401983380317688,-50.24197769165039,-6.547440528869629,16.81189727783203,1.6167093515396118,-1.3089706897735596,0.019273381680250168,,,,,,,,,
1739302780.504324,-0.08686139553036534,1.0524850529762628,-0.3755792303535812,-1.4572386373470392,1.5458812003148883,1.1661176121929253,1.3475288654839364,0.0008248116577026702,9.170008111815907e-05,-0.0008690923960935497,-0.0014408657733312974,0.0004498290804905086,-0.00044664673787979576,0.0006164379541538766,0.8401983380317688,-50.29355239868164,-6.519669532775879,16.78809356689453,1.6038919687271118,-1.2952377796173096,0.019273381680250168,,,,,,,,,
1739302780.5143356,-0.08686310706066598,1.052483346520821,-0.3755778621026547,-1.4572343068790568,1.545881758308722,1.1661184780901577,1.3475200107502352,-0.0006629448880805997,-0.00043641363054499444,0.00023042766429633263,0.000516917024541473,0.0011741385307196782,-0.0006501956188234785,-0.002973527840787929,0.8640020489692688,-50.24197769165039,-6.547440528869629,16.73651885986328,1.5974832773208618,-1.3025619983673096,0.07328949868679047,,,,,,,,,
1739302780.5263114,-0.08686147657466003,1.052481529074667,-0.3755780187360897,-1.4572384063057264,1.5458808382455276,1.1661207512857334,1.3475306869693444,4.337646406383886e-05,0.0003972535225812174,1.0186932948516429e-05,-0.00019126474880158586,-0.0007882480466364821,0.0004517903579575312,0.0017774682395676827,0.8401983380317688,-50.24197769165039,-6.547440528869629,16.78809356689453,1.6038919687271118,-1.3217880725860596,-0.0072769103571772575,,,,,,,,,
1739302780.537348,-0.08686689673582919,1.0524873043624527,-0.3755768910253343,-1.4572361823751931,1.5458785653195568,1.1661215085151306,1.3475308818653033,0.0002553673517537177,0.0015797137407252623,0.0011414665737065513,0.0003074664939480123,-0.0007352103191478922,0.00023553609712259065,0.0024128876026658047,0.9155767560005188,-50.29355239868164,-6.547440528869629,16.78809356689453,1.6231180429458618,-1.3281967639923096,0.0064559997990727425,,,,,,,,,
1739302780.5482643,-0.08686414551675911,1.0524853069100004,-0.3755753678830198,-1.4572437557791174,1.545878578673377,1.1661192357502348,1.347529286856822,0.0007367326817500616,0.00039667743094733447,0.00047672709998351363,-0.001530601329806285,-0.0016203737916182879,-0.00051098712152926,0.001507697491285063,0.8640020489692688,-50.26578140258789,-6.571244239807129,16.85950469970703,1.6231180429458618,-1.3089706897735596,-0.0008682189509272575,,,,,,,,,
1739302780.5582945,-0.08686312009962317,1.0524890200606571,-0.3755736284259944,-1.4572376910876734,1.5458799402555459,1.1661199934103144,1.3475232047550842,0.0014091165413602413,0.00022523931045698663,0.00012067704068996206,0.0006517152473440935,0.00014328748051052023,-1.8387207550773387e-05,-0.000872372271921613,0.8640020489692688,-50.31735610961914,-6.571244239807129,16.78809356689453,1.6167093515396118,-1.3153793811798096,0.05955658480525017,,,,,,,,,
1739302780.5683029,-0.08686426868592138,1.0524873047055485,-0.37557927937280056,-1.4572380633660935,1.5458833389822348,1.1661165525547958,1.347527953964382,0.0012706366747097268,-0.0003077770110948895,-0.0008551086584425272,0.0006255724945551404,0.0006507530773983946,-0.0007766917147064452,-0.0011726691971726128,0.8401983380317688,-50.29355239868164,-6.495865821838379,16.78809356689453,1.6103006601333618,-1.2952377796173096,0.019273381680250168,,,,,,,,,
1739302780.578357,-0.08686211532239674,1.0524835942439164,-0.37557888037174475,-1.4572334625813346,1.5458851828161224,1.1661168545149019,1.347527967207616,0.0006236480207145112,-1.577797685953095e-05,0.0001825924573950433,0.0013792953812543456,0.0012379559922392053,-0.0016554958687813792,-0.00024490366326351896,0.8401983380317688,-50.24197769165039,-6.519669532775879,16.76032257080078,1.6038919687271118,-1.2888290882110596,0.019273381680250168,,,,,,,,,
1739302780.5892913,-0.08686830772436795,1.0524851589382886,-0.37557786070462335,-1.457236327918253,1.5458800806090576,1.166118830656845,1.3475250220712696,-0.0025084192180454975,0.001502080909934885,-1.3879676581314256e-05,-0.0001267331105767356,-0.00015341693445645595,0.000595993901894586,-0.0017530616376077353,0.8917730450630188,-50.29355239868164,-6.547440528869629,16.76032257080078,1.6103006601333618,-1.3025619983673096,0.05314789339900017,,,,,,,,,
1739302780.5993004,-0.08686221635222684,1.0524843098993797,-0.375580779737557,-1.457239099336807,1.5458786253293528,1.1661207510763636,1.3475317067797945,0.00046207398963442293,0.0009984445341563231,-0.000410524709539105,-0.0009114736035986618,0.00043160471314029897,6.817736044453169e-05,0.0004526102460634488,0.8401983380317688,-50.24197769165039,-6.495865821838379,16.83570098876953,1.6167093515396118,-1.3217880725860596,-0.013685601763427258,,,,,,,,,
1739302780.609314,-0.08686382780837147,1.0524855006235223,-0.37557983258561856,-1.4572361461694658,1.5458793229126402,1.1661222670365718,1.3475241194139087,0.0003860922734071502,0.00045376968020532986,-0.0009860110086666114,0.0011779736937778135,-0.00043787809900394594,0.0005957650349871439,0.00020275991972617993,0.8640020489692688,-50.24197769165039,-6.519669532775879,16.78809356689453,1.6167093515396118,-1.3346054553985596,0.05314789339900017,,,,,,,,,
1739302780.620254,-0.08686764485463279,1.0524796483179535,-0.37557762590308813,-1.4572374540735393,1.5458790209464028,1.1661207525239465,1.3475247200941047,-0.0012961326523470004,-0.0005242178969019437,0.0011940955011642068,0.0006720912952686414,-0.0007598306150039645,-0.0006201243222082669,-0.0005563479658068525,0.9155767560005188,-50.19040298461914,-6.547440528869629,16.78809356689453,1.6103006601333618,-1.3217880725860596,0.04673920199275017,,,,,,,,,
1739302780.6303434,-0.08686376900396157,1.052485272420535,-0.3755791542065407,-1.4572339879204137,1.5458789272894582,1.1661192357502606,1.3475296419996998,0.0008630559711237846,0.0008241024767594561,-0.0001491030057487117,-4.219771832779905e-05,-0.00042711600460232997,-0.0009717471121643299,0.0018488292776104296,0.8401983380317688,-50.26578140258789,-6.519669532775879,16.76032257080078,1.6231180429458618,-1.3089706897735596,-0.0008682189509272575,,,,,,,,,
1739302780.6412768,-0.08686450746071471,1.0524835942437223,-0.3755797056891142,-1.4572362366746017,1.545880080586576,1.1661176121929253,1.347522862915608,-0.0004081690903048018,0.00022132402196562822,0.0001322691139837613,0.0005688943913989638,0.0003377856009505145,-0.0005335677591468373,-0.000727945539165898,0.8401983380317688,-50.24197769165039,-6.519669532775879,16.76032257080078,1.6103006601333618,-1.2952377796173096,0.026597600430250168,,,,,,,,,
1739302780.6523252,-0.08686628411594853,1.0524853067646471,-0.3755756574413723,-1.4572401109279276,1.545882286416721,1.1661174944553554,1.3475287771716915,-0.0003986674327341931,-0.00034094838022431133,0.0003755401963471071,0.00017315474438012093,0.0005588600567995066,0.00010420953173936257,0.0019517018564143345,0.8640020489692688,-50.26578140258789,-6.547440528869629,16.81189727783203,1.6038919687271118,-1.2952377796173096,0.012864691205322742,,,,,,,,,
1739302780.6623669,-0.08686631080985381,1.0524905818115877,-0.3755777369072067,-1.457236244244926,1.5458793229489791,1.1661184780881637,1.3475253694706641,0.000109407652381497,0.00147287007877081,-0.0003974964149206725,0.00045640245540865595,-0.0015422189659847864,-2.2076081805785294e-05,-0.0012363600513382658,0.8640020489692688,-50.36893081665039,-6.519669532775879,16.76032257080078,1.6167093515396118,-1.3025619983673096,0.05314789339900017,,,,,,,,,
1739302780.6723695,-0.08686631081030588,1.0524874523865022,-0.37557991173330507,-1.4572380093477406,1.5458815959046894,1.1661199934103144,1.347527101334436,-0.00030030482022387335,0.0006557577073005686,0.00015203465733462806,-0.001409203235352833,0.0007431490118344911,-0.0012252301135691648,-0.0010442148615208034,0.8640020489692688,-50.26578140258789,-6.519669532775879,16.81189727783203,1.5974832773208618,-1.3153793811798096,0.026597600430250168,,,,,,,,,
1739302780.6832545,-0.08686633705597252,1.0524853067767594,-0.3755837781255981,-1.4572356127027173,1.5458785786733766,1.1661222663905495,1.3475303484251193,-0.0013417557124594923,0.00035589277138032963,-0.002413213501192893,-0.0005951081080154263,-0.0008444898579558164,0.00046621932919298264,-0.0007162978739265399,0.8640020489692688,-50.26578140258789,-6.468094825744629,16.76032257080078,1.6231180429458618,-1.3346054553985596,-0.0008682189509272575,,,,,,,,,
1739302780.6942863,-0.08686675335086798,1.0524818817231851,-0.37558172155694297,-1.4572384077485092,1.5458812069408452,1.1661207510703928,1.3475303876709759,-0.0008121041927068233,-0.0017971307125791073,-0.0012828872747166326,0.0004717305991580407,-0.0006068128501036553,-0.0003084157086023809,-0.00012529756947452192,0.8401983380317688,-50.21817398071289,-6.495865821838379,16.78809356689453,1.6103006601333618,-1.3217880725860596,-0.0008682189509272575,,,,,,,,,
1739302780.7043116,-0.08686483451273976,1.052487544105226,-0.37557597445500224,-1.457233225149734,1.5458802408528804,1.1661199934103144,1.3475265006341777,0.00048228584903261737,0.0019112440543468496,0.0010325277293001787,0.0025708418788851313,-0.00010837327982365859,-0.0009169699504303777,-0.0008440552741230178,0.8401983380317688,-50.29355239868164,-6.571244239807129,16.76032257080078,1.6103006601333618,-1.3153793811798096,0.03300629183650017,,,,,,,,,
1739302780.7143204,-0.0868636031543985,1.0524831600203433,-0.37558138338613545,-1.4572352653366516,1.5458820897540868,1.1661184795437078,1.3475303658703808,0.0005985835107491841,0.0010246929437918181,-0.0005034321326263791,0.000701457589364685,0.001553963904533741,0.00037657478015789566,0.00033715958660045003,0.8163946270942688,-50.26578140258789,-6.495865821838379,16.76032257080078,1.6038919687271118,-1.3025619983673096,-0.0008682189509272575,,,,,,,,,
1739302780.7252789,-0.08686631419857045,1.0524873018952978,-0.37557782420237146,-1.4572381338694187,1.545881822205138,1.1661184780901657,1.3475311065698126,-0.00030297971572464837,0.0010139382776725276,0.0009454712975705595,-0.0002591437973325109,-0.00038451259940298476,0.00022141442171486566,0.0013654473272909497,0.8640020489692688,-50.29355239868164,-6.547440528869629,16.78809356689453,1.6231180429458618,-1.3025619983673096,-0.0072769103571772575,,,,,,,,,
1739302780.7353053,-0.08686909709327695,1.0524855451831787,-0.37558172166475223,-1.457238486901795,1.5458800808052322,1.1661184780901577,1.3475267216319158,-0.0005445067741379332,-9.423868976059311e-05,-0.0008294617352623981,5.829778377473957e-05,-0.0003914575155913696,-0.0004189471521844278,-0.0019062457327031275,0.8917730450630188,-50.26578140258789,-6.495865821838379,16.78809356689453,1.6103006601333618,-1.3025619983673096,0.04673920199275017,,,,,,,,,
1739302780.7463465,-0.0868667245259429,1.0524833175646644,-0.3755817242575095,-1.457243800664725,1.5458793229244578,1.1661192357502361,1.3475334874980984,-0.00010440781618754392,-0.0011974717259222167,-0.0009983078469190279,-0.0011175895684071057,-0.0011298575345619463,-5.3345463683271234e-05,0.002890762434916938,0.8401983380317688,-50.24197769165039,-6.495865821838379,16.83570098876953,1.6167093515396118,-1.3089706897735596,-0.027418512850999832,,,,,,,,,
1739302780.7563493,-0.0868700213198951,1.0524872782129853,-0.3755799289437356,-1.4572332285758938,1.5458844251008628,1.1661207510703928,1.347527022980401,-0.00025100115729563934,0.00036180190050361203,4.514275587184329e-05,0.001663506477514,0.0011930918299518744,0.00042492397829113,-0.0010952877428606286,0.9155767560005188,-50.29355239868164,-6.519669532775879,16.76032257080078,1.6103006601333618,-1.3217880725860596,0.026597600430250168,,,,,,,,,
1739302780.7673607,-0.08686459832557726,1.0524872693477412,-0.37558380037510813,-1.4572383949518841,1.5458810614194625,1.1661192357502361,1.3475240024691784,0.00015980389180585326,0.00015037273830783996,-0.0013627511522174046,8.454748407031088e-06,-9.090553954813258e-05,-0.00023380810195320077,-0.002431149690768973,0.8401983380317688,-50.29355239868164,-6.468094825744629,16.78809356689453,1.5910745859146118,-1.3089706897735596,0.07969819009304047,,,,,,,,,
1739302780.7783206,-0.08686491453365677,1.05248187867053,-0.3755778608186,-1.457238081002455,1.5458804090462426,1.1661192357502361,1.3475271693671707,0.000490016111550972,-0.0008901157158587855,0.0005039071912401096,0.0004546418859760679,-0.00013619214352235328,-0.0005743249467411689,-0.0006142901731372764,0.8401983380317688,-50.21817398071289,-6.547440528869629,16.78809356689453,1.6167093515396118,-1.3089706897735596,-0.0008682189509272575,,,,,,,,,
1739302780.7892623,-0.0868667241903569,1.052483594243899,-0.3755775807757029,-1.4572361559914142,1.5458820860051907,1.1661176121929253,1.347529523192994,0.0006905612984462457,0.00020744560127750533,-0.0004221437279067617,-0.0003958825226941824,0.0017304818521626944,-0.0007085708655394248,0.0010277262086946233,0.8401983380317688,-50.24197769165039,-6.519669532775879,16.78809356689453,1.6038919687271118,-1.2952377796173096,0.03300629183650017,,,,,,,,,
1739302780.7992964,-0.08686329918311161,1.0524812100581251,-0.3755779680385319,-1.457233219660787,1.5458776863063222,1.1661199934103144,1.3475303484789651,0.0016625309218902828,-0.0008652366853839249,-0.0010965795823635693,0.0012613167225282507,-0.0013504438599097409,-0.00030657385666669557,0.0009567374064891065,0.7925909161567688,-50.24197769165039,-6.547440528869629,16.76032257080078,1.6304422616958618,-1.3153793811798096,-0.0008682189509272575,,,,,,,,,
1739302780.81031,-0.08686631082230685,1.0524850696408046,-0.37558164537714783,-1.4572352695644335,1.5458785657609315,1.1661199934103144,1.347528371655099,0.0008870924943114943,0.0004374255046679985,-0.001525147074180958,0.00048258427371720085,-0.0003975306135292951,-0.00015456600734280838,-0.00035946491053036653,0.8640020489692688,-50.26578140258789,-6.495865821838379,16.78809356689453,1.6231180429458618,-1.3153793811798096,0.012864691205322742,,,,,,,,,
1739302780.8213134,-0.08686470424430302,1.052483593152415,-0.3755778358685911,-1.4572383154788053,1.5458800807500783,1.1661199759677114,1.3475279672058462,0.0009268768867551065,-0.00027873777751476767,-0.00010148538014682893,-0.0003815899096965855,0.000477662709903871,-0.0003479317684132288,-0.0011882910567583304,0.8401983380317688,-50.24197769165039,-6.547440528869629,16.78809356689453,1.6103006601333618,-1.3153793811798096,0.019273381680250168,,,,,,,,,
1739302780.8313146,-0.08687147000569644,1.0524818817231665,-0.37557605286755413,-1.4572401639451253,1.5458797675988285,1.1661222663902542,1.3475239793912264,-0.002204643789110426,-0.0005250467983268964,0.0012261247304709388,-0.00043020510428369547,5.660755873097351e-05,0.0005569140997152356,-6.69788709996102e-05,0.8917730450630188,-50.21817398071289,-6.571244239807129,16.81189727783203,1.6103006601333618,-1.3346054553985596,0.05314789339900017,,,,,,,,,
1739302780.8413532,-0.08687289517191878,1.0524835020161531,-0.3755797056931108,-1.4572355202462715,1.5458759646942426,1.1661207510703928,1.3475287074254927,-0.0016419011688535317,-0.0002029359983888582,-0.00036160894869305204,3.7623241283113066e-05,-0.0007703805754210619,-0.0002286373851219818,-0.0006380676265861395,0.9155767560005188,-50.24197769165039,-6.519669532775879,16.78809356689453,1.6103006601333618,-1.3217880725860596,0.012864691205322742,,,,,,,,,
1739302780.8523114,-0.08686928385330127,1.0524857400106074,-0.3755817245802461,-1.457239210219733,1.5458791083253436,1.1661184383597842,1.3475247200931202,-0.00039784722666352535,0.0006477520923549754,-0.0016086593500701813,-0.0007215152233861383,-0.00029939834729613064,0.00044620538734304563,-0.001286067238007337,0.8917730450630188,-50.24197769165039,-6.495865821838379,16.81189727783203,1.6304422616958618,-1.3025619983673096,0.04673920199275017,,,,,,,,,
1739302780.863272,-0.08686876462362994,1.0524849859418821,-0.37557962681255175,-1.4572373643603838,1.5458793229324077,1.16611999341009,1.347521581215311,-0.0003825163069154399,0.0005836706933149428,2.617805122448881e-05,-9.473229093968092e-05,-0.001715236307443334,0.0004427765339309511,-0.0009342643407758572,0.8640020489692688,-50.26578140258789,-6.519669532775879,16.78809356689453,1.6167093515396118,-1.3153793811798096,0.07328949868679047,,,,,,,,,
1739302780.8732777,-0.08686607168870593,1.0524819080996888,-0.3755778160002274,-1.4572320420445215,1.545875386515531,1.1661207510703928,1.3475322006085326,8.386581010681282e-05,-0.0006415916535895574,0.0006635754480885653,0.0017702276275059034,-0.0006633075934377717,0.00026725804046610755,0.001448153465253169,0.8163946270942688,-50.21817398071289,-6.519669532775879,16.73651885986328,1.6231180429458618,-1.3217880725860596,-0.0072769103571772575,,,,,,,,,
1739302780.8843212,-0.08687138430145269,1.0524843094998024,-0.3755801109175438,-1.4572352584707038,1.5458820809031109,1.1661192357502361,1.3475232004185898,-0.0004975542853501415,0.00022552805477643237,7.54483594749395e-05,0.0003083927706529019,0.0001450881781984846,-0.0008101488554286863,-0.00042740804767051017,0.8917730450630188,-50.24197769165039,-6.547440528869629,16.76032257080078,1.6038919687271118,-1.3089706897735596,0.05955658480525017,,,,,,,,,
1739302780.8943517,-0.08686531907142658,1.0524821197178118,-0.37557781604364715,-1.4572313266793258,1.5458804471182714,1.1661199934103144,1.3475309491016971,0.0017957257278187293,-0.00013588185500276024,0.0002569075272914799,0.001506057602272927,0.00022362236510940648,-0.00037949000178162824,-0.00010073770003894082,0.8401983380317688,-50.21817398071289,-6.519669532775879,16.73651885986328,1.6103006601333618,-1.3153793811798096,-0.0072769103571772575,,,,,,,,,
1739302780.9053533,-0.0868687898957992,1.0524880229060205,-0.37557686790935857,-1.4572333840409457,1.5458753863520567,1.1661204501854918,1.3475319158030226,0.0011331730167102765,0.001734581131444655,0.0001282907294237905,0.00015492695740047056,-0.0014192611088531424,0.0005145759512975942,0.002309842731309371,0.8640020489692688,-50.29355239868164,-6.519669532775879,16.76032257080078,1.6231180429458618,-1.3217880725860596,-0.013685601763427258,,,,,,,,,
1739302780.9163203,-0.08686658508971656,1.0524853057875552,-0.37557502655729214,-1.457233426268131,1.545878584399647,1.1661157548560983,1.347527139103208,0.001052789100717267,-0.00031847643572011997,0.0017862386296419578,0.0005348297710455897,0.0009631958656919554,-0.0006294321356796757,-0.0015693681789910327,0.8640020489692688,-50.26578140258789,-6.547440528869629,16.76032257080078,1.6231180429458618,-1.3153793811798096,0.026597600430250168,,,,,,,,,
1739302780.9272888,-0.0868694870055461,1.0524853067646416,-0.3755768385176996,-1.457235215602547,1.5458815959047971,1.1661192357263093,1.3475335273397206,-8.169934003605071e-07,0.00025255352476790923,0.0008160431360120333,-0.00022998394582491772,0.00085598052582609,0.00030830179865603196,0.0032611609779504913,0.8640020489692688,-50.26578140258789,-6.547440528869629,16.78809356689453,1.5974832773208618,-1.3089706897735596,-0.0008682189509272575,,,,,,,,,
1739302780.9373057,-0.08686505103612616,1.0524853420859182,-0.3755798539696429,-1.4572368952578516,1.5458793230899974,1.166119993410314,1.3475229933293615,0.0005496953173030109,-0.0005168045409679721,-0.000780215264242159,-0.0005332738663768992,0.00016558988890433014,0.00041320164930353133,-0.0019541042439041576,0.8163946270942688,-50.26578140258789,-6.519669532775879,16.81189727783203,1.6167093515396118,-1.3153793811798096,0.04673920199275017,,,,,,,,,
1739302780.9482481,-0.08686937169487931,1.0524835942441155,-0.3755785736609962,-1.4572351891093727,1.545880082626233,1.1661199934103144,1.3475292887772423,-0.0007410736068372764,0.00019278625209380055,-0.0004416163992511737,0.0011570423299086111,-8.418392687309427e-05,0.0002240336036989616,-0.0008743191583675833,0.8917730450630188,-50.24197769165039,-6.495865821838379,16.78809356689453,1.6103006601333618,-1.3153793811798096,-0.0008682189509272575,,,,,,,,,
1739302780.9582891,-0.08686566113106606,1.0524853064375983,-0.37557786195462156,-1.4572322704397633,1.5458785652644793,1.1661207510703928,1.3475288299541073,0.0005337081605576624,0.00030114422543413977,0.0003424600224684298,0.0013460751611170415,-0.0015545226264818152,0.0002879182343555241,0.0002489123520659345,0.8401983380317688,-50.26578140258789,-6.547440528869629,16.76032257080078,1.6231180429458618,-1.3217880725860596,0.012864691205322742,,,,,,,,,
1739302780.9683063,-0.0868694996468,1.052481157637128,-0.37557854885591646,-1.4572369717820879,1.5458785697340427,1.1661207510703928,1.3475281610031655,-0.00047573249103165976,-0.0011599755443022317,-8.80309775692763e-05,-0.0006641379634554061,-0.000323624499436019,0.00011062420958070918,0.0009260389182407548,0.8640020489692688,-50.21817398071289,-6.495865821838379,16.81189727783203,1.6231180429458618,-1.3217880725860596,0.026597600430250168,,,,,,,,,
1739302780.9783385,-0.08687149759965423,1.0524797594912245,-0.3755799156051126,-1.4572351891098045,1.5458772282554338,1.166121508730471,1.3475234893260157,-0.0006783437493997757,-0.0013710050582591022,0.0003008498609284062,0.0005641696111513984,-0.0026802468729276684,0.00034939779363304415,-0.00247825807949271,0.8917730450630188,-50.21817398071289,-6.519669532775879,16.78809356689453,1.6304422616958618,-1.3281967639923096,0.06596527993679047,,,,,,,,,
1739302780.988344,-0.08686949091024583,1.0524853155590248,-0.375575726279641,-1.4572351907935004,1.545880080576554,1.1661192357502361,1.3475308387737188,-0.0008696276459589468,0.0008215933746508399,0.0015804098255116365,0.0011570208065476834,-0.0003274930971332499,-0.00021065526097838668,0.0022679804493810187,0.8640020489692688,-50.26578140258789,-6.547440528869629,16.78809356689453,1.6103006601333618,-1.3089706897735596,-0.0008682189509272575,,,,,,,,,
1739302780.9983518,-0.08686568754591333,1.0524853067647961,-0.3755778504137936,-1.4572331106281726,1.5458793185638033,1.1661199934103144,1.347522451481498,0.000716510304322686,0.0003124069817411689,4.052030593645363e-05,0.0003024589163317685,0.000447545849158431,-0.0001516605831106204,-0.0031905360359428953,0.8401983380317688,-50.26578140258789,-6.547440528869629,16.76032257080078,1.6167093515396118,-1.3153793811798096,0.06596527993679047,,,,,,,,,
1739302781.0084152,-0.0868666913982369,1.0524853068736635,-0.3755799448478015,-1.4572358788557571,1.5458800805844586,1.1661199934103144,1.3475287248678824,0.0007736367750638281,0.0007427469187686274,-0.0017707119554552166,-0.00038863348752628734,0.00017354513493265735,5.683909250243712e-05,0.0006091851954396286,0.8640020489692688,-50.26578140258789,-6.519669532775879,16.78809356689453,1.6103006601333618,-1.3153793811798096,0.012864691205322742,,,,,,,,,
1739302781.0192366,-0.08686949960694637,1.0524837001713911,-0.3755788916458845,-1.457233108903928,1.545879322924454,1.1661184780901577,1.3475224471125433,-0.0002242555310058282,0.0005157624677689025,0.0004258209208331856,0.0013624259353263706,0.0003268365165807509,0.0002596862901166685,-0.0029298133692670265,0.8640020489692688,-50.24197769165039,-6.519669532775879,16.76032257080078,1.6167093515396118,-1.3025619983673096,0.06596527993679047,,,,,,,,,
1739302781.0292687,-0.08686713754880383,1.0524814484784981,-0.37557687114377863,-1.4572310430255897,1.5458808382446108,1.1661199934103144,1.3475318492097734,0.0011331349357624261,-0.0004494460442780756,0.0009715450695416621,0.0022207668016378836,0.0007017387001838243,0.0005199741407526707,0.0013086482924612667,0.8640020489692688,-50.24197769165039,-6.519669532775879,16.76032257080078,1.6038919687271118,-1.3153793811798096,-0.013685601763427258,,,,,,,,,
1739302781.0402915,-0.08686768503839984,1.0524818699130891,-0.37557888999757993,-1.457233118551339,1.5458791680930895,1.166118933772185,1.347527967207594,0.0007856344615486757,-0.0011188896703780797,-0.001102004572475836,0.0009182773045670103,-0.0003706702637965455,-0.00033354131423476215,-0.00011839538725283221,0.8401983380317688,-50.21817398071289,-6.495865821838379,16.76032257080078,1.6167093515396118,-1.3153793811798096,0.019273381680250168,,,,,,,,,
1739302781.0513048,-0.08687126138846266,1.0524821201417418,-0.37557994189922667,-1.457235189109822,1.5458793239295352,1.1661207510683989,1.3475318244994192,-0.0008460410226586057,-0.0002517516870495778,-0.0005719351288014015,-0.00011287721886737065,0.0013719467544440938,1.8417486159928724e-05,0.0004981904560734001,0.8917730450630188,-50.21817398071289,-6.519669532775879,16.78809356689453,1.6167093515396118,-1.3217880725860596,-0.013685601763427258,,,,,,,,,
1739302781.0613077,-0.0868694996468006,1.0524831930603311,-0.37557762590370497,-1.4572351560778753,1.5458794480751814,1.1661222663905493,1.3475272190461838,-0.00010390460024112681,-0.0003867530342226556,0.0005500922752141486,0.0003901009104750038,-0.0013326605650583869,0.0009292158674574955,0.0005036462670477758,0.8640020489692688,-50.26578140258789,-6.547440528869629,16.78809356689453,1.6167093515396118,-1.3346054553985596,0.026597600430250168,,,,,,,,,
1739302781.0723403,-0.08686608641759293,1.0524853741974467,-0.3755798631662271,-1.4572359971607138,1.5458781820918865,1.1661184780901577,1.3475239798764078,9.598112942211883e-05,-6.982007243482346e-05,0.0002668097547885613,0.0005410215706635024,-0.0005852478100055415,-0.0001665840128856966,0.000257409513742873,0.8163946270942688,-50.26578140258789,-6.519669532775879,16.76032257080078,1.6304422616958618,-1.3025619983673096,0.05314789339900017,,,,,,,,,
1739302781.0823743,-0.08686855481486933,1.0524862300238054,-0.37558168955091054,-1.457233109336251,1.5458793234238088,1.1661192357502361,1.3475303542394186,0.0003483536918429523,-0.0005399193989333753,-0.0008743581543375869,-8.741868011741992e-05,-0.00014279786106542394,-0.00027162490944958887,0.0007781132517914617,0.8640020489692688,-50.26578140258789,-6.495865821838379,16.76032257080078,1.6167093515396118,-1.3089706897735596,-0.0008682189509272575,,,,,,,,,
1739302781.0933115,-0.08687117389776568,1.052483594249128,-0.3755813833877156,-1.4572380656990587,1.5458859404762033,1.1661199934103144,1.3475239624331732,-0.0008147796129468834,9.396698750455091e-05,-7.210957184272822e-05,-0.0010967476230388648,0.002089435432504695,-7.901626616716232e-05,-0.0027532786155417535,0.8917730450630188,-50.24197769165039,-6.495865821838379,16.83570098876953,1.5974832773208618,-1.3153793811798096,0.05314789339900017,,,,,,,,,
1739302781.1042616,-0.08686778713624288,1.0524890172262318,-0.3755777561580506,-1.4572374380025184,1.5458789697362696,1.1661201503937408,1.347526345157915,0.001444511450219311,0.001971633003404199,0.0007324864649302465,-0.00023863044394488783,-0.0006713223014400483,0.0006558428886229487,-0.0011253043591164442,0.8401983380317688,-50.31735610961914,-6.547440528869629,16.78809356689453,1.6167093515396118,-1.3153793811798096,0.03300629183650017,,,,,,,,,
1739302781.1143758,-0.08686950842779743,1.0524814484767044,-0.3755778621129105,-1.457237335896248,1.545880080578551,1.1661199934129727,1.347529026845995,0.0007256367743651838,-0.0010823880382146386,0.00028041207695232343,-0.0005049393922764057,0.00025988034685580047,0.00082490071607356,0.00044890187986101725,0.8640020489692688,-50.24197769165039,-6.547440528869629,16.78809356689453,1.6103006601333618,-1.3153793811798096,0.019273381680250168,,,,,,,,,
1739302781.125264,-0.08686444101762214,1.0524852704501169,-0.37557778240564327,-1.4572383680363112,1.545879323205743,1.1661165525547958,1.3475271032546563,0.001969776262795986,-0.0003034709428187722,0.000721259643425396,-0.0017267800429547897,-0.001041483377565227,-0.000609254493717164,-0.001068303338415934,0.7925909161567688,-50.26578140258789,-6.547440528869629,16.78809356689453,1.6167093515396118,-1.2952377796173096,0.026597600430250168,,,,,,,,,
1739302781.1352706,-0.0868660746213486,1.0524828789863339,-0.37557762492759383,-1.4572328900317069,1.5458800805845467,1.1661199933564792,1.3475232047731607,0.001105882181596841,-0.0008078151223629721,0.00038822225093965493,0.0007960371046544421,-0.0005817477864000044,0.0004693577767013278,-0.0015111610156177775,0.8163946270942688,-50.24197769165039,-6.547440528869629,16.76032257080078,1.6103006601333618,-1.3153793811798096,0.05955658480525017,,,,,,,,,
1739302781.145304,-0.08686607494211665,1.052487543120042,-0.37557786114130426,-1.4572352550859229,1.5458797791031111,1.1661192357502357,1.347533531700158,0.0010415447824741373,0.0004357990469487443,0.0007241978560807642,0.0003933941989475282,0.000529510058743058,-0.00015166145020864398,0.0022330628130464592,0.8163946270942688,-50.29355239868164,-6.547440528869629,16.76032257080078,1.6038919687271118,-1.3089706897735596,-0.0008682189509272575,,,,,,,,,
1739302781.1563134,-0.08686786605903687,1.052485306765993,-0.37557986219549333,-1.4572331093684006,1.545878212045687,1.1661222659060326,1.3475295213610314,-0.0007901284352558207,0.0005596956853492058,4.3335241248067616e-06,-7.561086031518505e-05,-0.001600993762871073,0.0006647517520295736,3.68576671561456e-05,0.8401983380317688,-50.26578140258789,-6.519669532775879,16.76032257080078,1.6231180429458618,-1.3346054553985596,0.0064559997990727425,,,,,,,,,
1739302781.166342,-0.08686959038135675,1.0524787557907034,-0.3755816980105424,-1.4572354956635523,1.545878565258394,1.1661207510703846,1.3475232047737198,-0.00022267016815825813,-0.0015125941829150693,-0.0009140494862147197,-0.0011507182111182245,-0.00010497501895949889,-0.00013710605260946617,-0.0015533854253003785,0.8640020489692688,-50.21817398071289,-6.495865821838379,16.78809356689453,1.6231180429458618,-1.3217880725860596,0.05955658480525017,,,,,,,,,
1739302781.1772375,-0.08686937206203361,1.0524826140610006,-0.3755790058907295,-1.4572331633210711,1.5458793293806397,1.1661207515549095,1.3475224130517696,-0.0007024707989005093,-0.0004315616656242292,-0.0003807133958040872,0.00018597814054742876,-0.00034067360605555605,0.00019556793263250782,-0.0012934733876444934,0.8917730450630188,-50.24197769165039,-6.519669532775879,16.76032257080078,1.6167093515396118,-1.3217880725860596,0.03941498324275017,,,,,,,,,
1739302781.1873522,-0.08687149749166594,1.052488167737798,-0.37558172453402505,-1.4572351891125481,1.5458825565683243,1.1661206333328473,1.3475304834440902,0.0007850011914323895,0.0016828525002216188,-0.0011125867445709891,-3.7538458873192684e-05,-0.00019598482102076934,3.1254181102551124e-06,0.0007934792993007196,0.8917730450630188,-50.26578140258789,-6.495865821838379,16.78809356689453,1.6231180429458618,-1.3217880725860596,-0.0008682189509272575,,,,,,,,,
1739302781.198306,-0.08686981675003028,1.0524835942492996,-0.3755775736576585,-1.457235186384398,1.5458833369873883,1.1661189337719635,1.347523966794045,0.0004476138392143994,4.0795714613255226e-05,-0.0006113738727821289,1.9555434078610985e-05,-0.0004201092654111362,-0.0008336309492726414,-0.00016420814495295686,0.8640020489692688,-50.24197769165039,-6.547440528869629,16.78809356689453,1.6103006601333618,-1.3153793811798096,0.05314789339900017,,,,,,,,,
1739302781.2092454,-0.08687386912772127,1.0524835942439164,-0.37558345345552324,-1.4572351862753663,1.5458785652827582,1.1661184766306256,1.3475294825279112,-0.0018276539000610704,0.00037249175786484306,-0.0012737708939957188,-0.00024804273453963893,-0.000499601331206329,-0.00044025204038982205,0.0013362912186384805,0.8917730450630188,-50.24197769165039,-6.468094825744629,16.78809356689453,1.6231180429458618,-1.3025619983673096,0.0064559997990727425,,,,,,,,,
1739302781.2192686,-0.08686973786922768,1.0524853057835009,-0.37557573620976514,-1.457233109319901,1.545880409053537,1.1661192357502113,1.3475302787714454,-0.0008968266697265324,0.000484895049843513,0.0012467228198687619,0.0012098034672247716,-0.0006166333989641685,-0.0001718040200092873,0.00039438000764387485,0.8640020489692688,-50.26578140258789,-6.547440528869629,16.76032257080078,1.6167093515396118,-1.3089706897735596,0.026597600430250168,,,,,,,,,
1739302781.2292795,-0.08686826121978822,1.0524833558253204,-0.3755813746033554,-1.4572331093199489,1.5458808382630045,1.1661207510703928,1.3475313031594653,0.00023538969799365682,-9.863185856622784e-05,-0.0005133163331057367,0.00043572103030949767,0.0001493369479347413,0.0004908531654983084,0.0006054055607352483,0.8401983380317688,-50.24197769165039,-6.495865821838379,16.76032257080078,1.6038919687271118,-1.3217880725860596,0.019273381680250168,,,,,,,,,
1739302781.2402892,-0.08686782236107639,1.052485782473958,-0.37557707237636667,-1.4572373348770165,1.5458818238723477,1.1661192357502361,1.3475255860092827,0.000649846818673981,0.0011066897716771177,0.0003770176639365612,0.0002019677632397769,0.0001694126790533109,-0.0009214960876051739,-0.0024089980902249697,0.8401983380317688,-50.26578140258789,-6.519669532775879,16.78809356689453,1.6231180429458618,-1.3089706897735596,0.03941498324275017,,,,,,,,,
1739302781.2522333,-0.08686778713826902,1.0524824457443833,-0.3755828028753088,-1.457236972162324,1.5458836675143606,1.1661207510703928,1.347526867209669,0.0008289150071406228,-0.00012600904646936937,-0.0016131042706990476,-0.0011151765328153867,0.003002546007040571,0.0010392717888463017,-0.0016996708467315236,0.8401983380317688,-50.26578140258789,-6.519669532775879,16.81189727783203,1.6167093515396118,-1.3217880725860596,-0.0072769103571772575,,,,,,,,,
1739302781.26224,-0.08686874295864438,1.052486181277002,-0.3755799419207107,-1.457235180501559,1.5458785657855307,1.1661199934103144,1.3475256260030026,-0.00021013917799852074,0.0015208116455601834,-0.00030890896374252035,-0.0007868343750417662,-0.0002011198639148878,0.0006848293102219916,-0.0026142033699592154,0.8401983380317688,-50.26578140258789,-6.519669532775879,16.78809356689453,1.6231180429458618,-1.3153793811798096,0.06596527993679047,,,,,,,,,
1739302781.2723382,-0.08687149761584134,1.0524836207496793,-0.37557994190456073,-1.4572294673313662,1.545882286582273,1.1661184780901577,1.3475289356281148,0.00037630760039106996,6.98259153351456e-05,-0.00032816783802371464,0.001570664122119033,0.0021557923348041854,-1.5599844881744032e-05,0.0007838397874376504,0.8917730450630188,-50.24197769165039,-6.519669532775879,16.71271514892578,1.6038919687271118,-1.3025619983673096,-0.0008682189509272575,,,,,,,,,
1739302781.2832901,-0.08687149759965453,1.0524835646643185,-0.3755778621147049,-1.457231335472815,1.545877686293367,1.1661199934103144,1.3475255903431265,-0.001148441693241457,0.0005589664175632432,5.151530872732932e-06,0.0009158171161483312,-0.001239510961210746,2.148403825854111e-06,-0.0020152110461082074,0.8917730450630188,-50.24197769165039,-6.547440528869629,16.73651885986328,1.6304422616958618,-1.3153793811798096,0.03941498324275017,,,,,,,,,
1739302781.2942655,-0.08686949965880138,1.0524862715578234,-0.3755760531920192,-1.457235263917628,1.545880080584311,1.1661192357502361,1.3475294432821037,-0.0002735029527573753,-0.0010203501728517314,0.0006155606496872606,0.00037147016714726016,0.0004873810629194564,-7.188122669663915e-05,0.00022499073802865498,0.8640020489692688,-50.29355239868164,-6.571244239807129,16.76032257080078,1.6103006601333618,-1.3089706897735596,0.0064559997990727425,,,,,,,,,
1739302781.3043094,-0.0868660746534254,1.0524835942380841,-0.3755778620785544,-1.4572359048137697,1.545879321470904,1.1661192357502361,1.3475247200929972,0.0014008064215472204,-0.0003572844708281978,0.0005424449183670018,-0.00040485516866921523,-0.0010143406130520007,-4.4953395645988724e-05,-0.0010967403940827227,0.8163946270942688,-50.24197769165039,-6.547440528869629,16.78809356689453,1.6167093515396118,-1.3089706897735596,0.04673920199275017,,,,,,,,,
1739302781.3152764,-0.0868696048867551,1.0524872958751825,-0.37558148837057925,-1.4572391175661559,1.5458804984408774,1.166121508730471,1.3475267881348185,0.0007446644296696703,0.0008709779321303985,-0.0008967671227919608,-0.0015158796616049912,-0.000478779007483945,0.0005979804517342456,-0.0014499032174042,0.8640020489692688,-50.29355239868164,-6.495865821838379,16.81189727783203,1.6038919687271118,-1.3281967639923096,0.05314789339900017,,,,,,,,,
1739302781.326292,-0.08686615456094995,1.052485253782724,-0.3755816458441351,-1.4572359713280822,1.5458750850334704,1.166121508730471,1.3475279672849374,0.0007345196463563293,0.0006787168788086897,-0.0005539915852375743,-0.00011078834370886238,-0.0016595441652182395,0.00011353279138063463,0.0004408245236701447,0.8163946270942688,-50.26578140258789,-6.495865821838379,16.76032257080078,1.6167093515396118,-1.3281967639923096,0.019273381680250168,,,,,,,,,
1739302781.3372545,-0.08687000082286864,1.0524810074850903,-0.3755817115843097,-1.457233100832836,1.5458764205823914,1.1661192357502361,1.3475271616389182,-0.0005582437413960475,-0.0016130118892011428,-0.0010565431213895049,0.0005196771564954975,-0.0012920173938243652,-0.0007310971790040211,-0.0005128992322445565,0.8401983380317688,-50.21817398071289,-6.495865821838379,16.76032257080078,1.6304422616958618,-1.3089706897735596,0.03941498324275017,,,,,,,,,
1739302781.347264,-0.0868715106282487,1.0524852802588887,-0.3755778620064779,-1.457233118150123,1.5458808383884977,1.1661191180126662,1.3475320666065078,-0.0010732401301059382,0.00011938884901327592,0.0005720924947711457,0.0004414889420585637,0.0002810022306245475,-0.0014392222445130797,0.0029997421075059795,0.8917730450630188,-50.26578140258789,-6.547440528869629,16.76032257080078,1.6038919687271118,-1.3089706897735596,0.012864691205322742,,,,,,,,,
1739302781.3572974,-0.0868695260742695,1.0524818817227362,-0.3755798628435381,-1.457230408290034,1.5458793229244565,1.1661176121909314,1.347525586693066,0.00011622652248127256,-0.0011175194690535384,0.00014343224074025762,0.0019391681716226705,-0.00021272531017738,-0.0010606439867537694,-0.0023530560799372843,0.8640020489692688,-50.21817398071289,-6.519669532775879,16.73651885986328,1.6167093515396118,-1.2952377796173096,0.03941498324275017,,,,,,,,,
1739302781.3683977,-0.08687151559157137,1.0524853067646471,-0.3755817245802406,-1.45723700218681,1.5458840428928131,1.1661207510703928,1.3475294888266163,-0.0013466035848304805,0.0001854302173906162,-0.0006240147620360027,-0.0013235688398353087,0.0013732835502660834,-0.00011275012762108257,0.0009130398656360345,0.8917730450630188,-50.26578140258789,-6.495865821838379,16.81189727783203,1.6167093515396118,-1.3217880725860596,0.0064559997990727425,,,,,,,,,
1739302781.37929,-0.08687149759968829,1.0524853057956136,-0.37558077930555345,-1.4572331093200062,1.5458789272445044,1.1661199934103144,1.347526304259533,-0.0004012122473077347,0.000436226700156958,-0.000382380851802901,0.00045018024157281194,-0.0004244819524685962,-0.00034568518666737295,-6.0067634291341584e-05,0.8917730450630188,-50.26578140258789,-6.495865821838379,16.76032257080078,1.6231180429458618,-1.3153793811798096,0.0064559997990727425,,,,,,,,,
1739302781.3912258,-0.08686973642169589,1.0524853054564465,-0.37558057762893965,-1.4572351891098048,1.545874521729347,1.1661207539774932,1.3475263436325882,0.0011646383444579712,0.0001582022298792721,-0.0013209583008295003,0.0006550070937261858,-0.0024273221252455353,0.000604893602262143,-0.0011814488517910304,0.8640020489692688,-50.26578140258789,-6.519669532775879,16.78809356689453,1.6304422616958618,-1.3217880725860596,0.03300629183650017,,,,,,,,,
1739302781.4012773,-0.0868678251383898,1.0524880765409723,-0.3755750275862976,-1.45723132664293,1.5458836688589004,1.1661199934103308,1.3475239619486234,-4.5843906549849025e-05,0.0008696839328641436,0.0001448668552779985,0.0004963631636140505,0.0012866011802676052,0.0003305227331924309,-0.0015078484201996587,0.8401983380317688,-50.26578140258789,-6.547440528869629,16.73651885986328,1.6167093515396118,-1.3153793811798096,0.05314789339900017,,,,,,,,,
1739302781.4122887,-0.08687160817673158,1.0524835187112775,-0.3755816458285786,-1.4572369462420238,1.5458808516781448,1.166120737826935,1.3475271418320423,-0.000337516889514986,-0.000869176155187786,-0.0017920445525541292,-0.0004971799830463938,-5.687984075873417e-05,-0.00021065896064134389,-0.0007809453291446475,0.8640020489692688,-50.24197769165039,-6.495865821838379,16.81189727783203,1.6038919687271118,-1.3217880725860596,0.05314789339900017,,,,,,,,,
1739302781.4232843,-0.08686949969450931,1.052483594569686,-0.3755837256331015,-1.457235189109372,1.545878070981855,1.16611999341009,1.3475336451309206,0.00028050095182454815,-0.00016437522488898888,-0.0018884201549872427,0.0009733824728822381,-0.0004869717120384396,2.934392298710323e-05,-0.000320641391201684,0.8640020489692688,-50.24197769165039,-6.468094825744629,16.78809356689453,1.6167093515396118,-1.3153793811798096,-0.0008682189509272575,,,,,,,,,
1739302781.4352477,-0.08687186729977549,1.0524815373407936,-0.3755799418924115,-1.4572331093199489,1.5458817568287393,1.1661207510703928,1.3475294810805396,-0.0007207883535992246,-0.0012671342834410441,-0.0004053002268231602,0.00046103998712598436,0.0008381928033901523,-0.00014037977429133945,0.0003208505241099934,0.8640020489692688,-50.21817398071289,-6.519669532775879,16.76032257080078,1.5974832773208618,-1.3217880725860596,0.0064559997990727425,,,,,,,,,
1739302781.4453254,-0.08687321016048184,1.0524850693213823,-0.37557704849903917,-1.4572331093199489,1.5458805699642741,1.166120764152345,1.347521585575937,-0.001219023979964123,0.0005531917387491414,0.0011552362747105785,0.0011196807828056687,0.00042694660244201065,0.0006734295365177567,-0.002981490011829224,0.9155767560005188,-50.26578140258789,-6.547440528869629,16.76032257080078,1.6167093515396118,-1.3217880725860596,0.07328949868679047,,,,,,,,,
1739302781.4553347,-0.08687163149918567,1.0524864640931622,-0.37557922936953586,-1.4572330072807218,1.5458793378444629,1.1661207510706144,1.3475318637453497,-0.00047154169319763717,0.0007711296924897951,-9.453073571518463e-05,0.001075498327338616,0.0007976024360251641,0.00016246222862424033,-7.860610414054075e-05,0.8640020489692688,-50.24197769165039,-6.519669532775879,16.76032257080078,1.6167093515396118,-1.3217880725860596,-0.013685601763427258,,,,,,,,,
1739302781.465383,-0.0868676301848473,1.0524874201702277,-0.37558172133735146,-1.4572345003444445,1.545880838244695,1.1661184780901577,1.3475302802249958,0.000596468582815448,0.0013392843219432054,-0.0004495274793313134,0.00036195018577374945,0.000732944406114493,-0.0007048299873951675,-0.0006784651937990955,0.8401983380317688,-50.26578140258789,-6.495865821838379,16.78809356689453,1.6038919687271118,-1.3025619983673096,0.026597600430250168,,,,,,,,,
1739302781.4762383,-0.08687157651973328,1.0524835784848263,-0.3755817245815612,-1.4572313266390418,1.5458800805845325,1.1661234743027533,1.347532622930795,-0.0002307806821343145,0.0004327223814975861,0.00010223527276698988,0.0006002843018000963,-0.0010208009701976493,0.0014303798293288945,0.0014182209233242656,0.8917730450630188,-50.24197769165039,-6.495865821838379,16.73651885986328,1.6103006601333618,-1.3089706897735596,-0.020094294100999832,,,,,,,,,
1739302781.486305,-0.08687241973583702,1.0524852949906234,-0.3755760531920192,-1.457235188164997,1.545879322278432,1.1661184781619378,1.3475232044500767,-0.00113828871883876,0.0002808223115662623,0.0008508271188518983,-0.0007718634424018391,-0.0003990380448957199,-0.0003012557309915052,-0.0013786172901434951,0.8640020489692688,-50.26578140258789,-6.571244239807129,16.78809356689453,1.6167093515396118,-1.3025619983673096,0.05955658480525017,,,,,,,,,
1739302781.4972544,-0.08686952634313762,1.0524873840692774,-0.3755798631674124,-1.4572349849653257,1.5458793229244505,1.1661199934103148,1.3475269988412883,0.00029205080749057763,0.00031750955677407476,-0.0005012341025143056,-0.001292465730645518,-0.0001358549821060868,-0.000410251090648584,-0.001142008884261451,0.8640020489692688,-50.29355239868164,-6.519669532775879,16.81189727783203,1.6167093515396118,-1.3153793811798096,0.03941498324275017,,,,,,,,,
1739302781.5073175,-0.08686952607450077,1.0524835903206746,-0.37557573232612756,-1.4572349057858731,1.5458785599468043,1.1661199934103144,1.3475239282343474,-0.00014590774866497455,0.00035684950812857726,0.0008759172650629762,0.0004599968489543699,-0.00031409652165306404,-0.00028314325147544363,-0.002766980983906726,0.8640020489692688,-50.24197769165039,-6.547440528869629,16.81189727783203,1.6231180429458618,-1.3153793811798096,0.026597600430250168,,,,,,,,,
1739302781.5183702,-0.08686781474431812,1.0524873047054784,-0.3755799418565354,-1.457231679843977,1.5458785697340127,1.1661199934103144,1.347525599000656,0.0008176731714398376,0.0007444143011239638,-0.00026809060334057343,0.0006054276400859592,-0.0016477546011985742,-0.00032537868638012014,-0.0011438278267161355,0.8401983380317688,-50.29355239868164,-6.519669532775879,16.73651885986328,1.6231180429458618,-1.3153793811798096,0.03941498324275017,,,,,,,,,
1739302781.529311,-0.08687321012054147,1.0524854127284602,-0.37558017157458373,-1.4572351891117985,1.545880838244636,1.166120764152345,1.3475292908866359,-0.0009847035828040556,0.00034396906591508335,-0.00018514003516732034,-0.0003731735710168877,0.00030862842719944956,0.0013249875502066649,-0.0013464986036014314,0.9155767560005188,-50.26578140258789,-6.519669532775879,16.78809356689453,1.6038919687271118,-1.3217880725860596,-0.0008682189509272575,,,,,,,,,
1739302781.5412328,-0.08686950063313427,1.052481881723783,-0.37557758063299757,-1.4572329285484622,1.5458800805845325,1.166119993410388,1.3475247205717658,0.000600448845534806,-0.0005217045541330465,0.000406720845190245,0.0002747307734713916,-0.0011010158150275527,0.00013136167071519143,-0.0013146339585772442,0.8640020489692688,-50.21817398071289,-6.519669532775879,16.78809356689453,1.6103006601333618,-1.3153793811798096,0.04673920199275017,,,,,,,,,
1739302781.5512426,-0.0868677882206678,1.0524823780425954,-0.37557786206537314,-1.4572352685349104,1.5458793230899974,1.166118124877448,1.347530348425122,0.0010596064396379465,-0.0007313615631890864,0.00013851392852284243,-5.4575547714938506e-05,-0.0002774173729930131,-0.0007088269143353592,-0.0005596189015294194,0.8401983380317688,-50.26578140258789,-6.547440528869629,16.78809356689453,1.6167093515396118,-1.3025619983673096,-0.0008682189509272575,,,,,,,,,
1739302781.561332,-0.08686779883008332,1.0524852960314548,-0.37557786211470406,-1.4572331887941536,1.5458769617351238,1.1661207509029055,1.3475274937691741,0.001447638163847686,0.0003294029750221701,-0.0001070571046613122,-0.00026446391385246494,1.1175018568191676e-05,0.00036510033640846243,-0.002131589643160346,0.8401983380317688,-50.26578140258789,-6.547440528869629,16.76032257080078,1.6038919687271118,-1.3217880725860596,0.026597600430250168,,,,,,,,,
1739302781.5723248,-0.0868677871381362,1.0524797359559124,-0.3755760833622715,-1.4572342584747082,1.545880953089536,1.1661199934103135,1.347530354887558,0.0013216390910708532,-0.0012210741487891775,0.00044645363910721873,0.0014133593106287418,0.0004903757417486581,0.00024647883012711555,0.0010717455675804905,0.8401983380317688,-50.21817398071289,-6.571244239807129,16.78809356689453,1.6038919687271118,-1.3153793811798096,-0.0008682189509272575,,,,,,,,,
1739302781.5842974,-0.08687220799659721,1.0524836017539259,-0.37558025983236015,-1.4572331008114265,1.545878605492027,1.1661175723175103,1.3475319204337721,-0.0007015096691037007,-0.0001498193075719704,-0.00038251734178407275,0.0006365102499159205,0.00022040238586918916,-0.00017522710083396815,0.0012296549875658951,0.8917730450630188,-50.24197769165039,-6.519669532775879,16.76032257080078,1.6231180429458618,-1.3217880725860596,-0.013685601763427258,,,,,,,,,
1739302781.5943954,-0.08686992223826077,1.0524836030743612,-0.37558101595396465,-1.4572348801575556,1.5458800805852138,1.1661199933564819,1.347525585991411,0.0009922326212796055,-0.00045381010992714163,-0.0007628771285804192,0.00047234451085840384,-0.002004812500224222,5.7257976650350935e-05,1.8300783753873444e-05,0.8401983380317688,-50.24197769165039,-6.495865821838379,16.78809356689453,1.6103006601333618,-1.3153793811798096,0.03941498324275017,,,,,,,,,
1739302781.6052506,-0.08687086550078855,1.0524881683327276,-0.37558209704720885,-1.4572345003432765,1.5458815959046892,1.166119993410314,1.3475311104458483,-0.0010996052586398487,0.001814095740662344,-0.00047961644368716165,0.00030889347232794826,0.0005882144432066234,5.616605674984503e-05,0.0003755795165228137,0.8401983380317688,-50.26578140258789,-6.519669532775879,16.78809356689453,1.5974832773208618,-1.3153793811798096,-0.0072769103571772575,,,,,,,,,
1739302781.6162992,-0.08686961479180655,1.0524816431390658,-0.37558172459374534,-1.4572387544599545,1.545878067590451,1.1661199934103144,1.3475271941598785,-0.000834476034212107,-0.0013811686552929903,-0.0008269887042049265,-0.0012253083021342467,-0.00017407777594506354,-0.0003960452632287152,-0.0014531137171999108,0.8640020489692688,-50.21817398071289,-6.495865821838379,16.83570098876953,1.6304422616958618,-1.3153793811798096,0.05314789339900017,,,,,,,,,
1739302781.6272788,-0.08687150153328908,1.052484353089882,-0.37557994190456045,-1.4572313266429298,1.545879322925147,1.1661207510703928,1.3475342850236116,-0.00014751921755975074,-0.0012745030349907735,0.00042466568921340674,0.0007627380843698421,-0.0005269141034264616,0.0008497429122720703,0.002241782652132829,0.8917730450630188,-50.26578140258789,-6.519669532775879,16.73651885986328,1.6167093515396118,-1.3217880725860596,-0.0072769103571772575,,,,,,,,,
1739302781.6382718,-0.08686813042805058,1.0524851590419213,-0.37558136737403264,-1.4572358788557351,1.5458811666597798,1.1661207510703928,1.3475318657012882,0.0005494245922789316,0.0007290965052641632,-0.00017558569403997764,-0.0007459567702194733,0.0003060842920361032,-0.00038255259910471075,0.0019263325419897016,0.8401983380317688,-50.29355239868164,-6.519669532775879,16.78809356689453,1.6103006601333618,-1.3217880725860596,-0.013685601763427258,,,,,,,,,
1739302781.6493542,-0.08687149857592522,1.0524853067525348,-0.37557645147949204,-1.4572331093238426,1.5458808523219156,1.1661152991757695,1.3475298371941578,-0.0004294019259813727,0.0005220936948265222,0.00048155049463825437,0.00038807808903561745,0.0007662147915623859,-0.0014412878405689988,0.0005301590370251714,0.8917730450630188,-50.26578140258789,-6.547440528869629,16.76032257080078,1.6038919687271118,-1.3025619983673096,0.0064559997990727425,,,,,,,,,
1739302781.6603272,-0.08687395580983673,1.05248287866113,-0.3755796016180587,-1.4572352244310756,1.5458797791031906,1.1661199933923692,1.3475291304103292,-0.0015152681309676436,-0.00013922833940640018,-0.00015260071740177473,-0.0007578812288878461,-0.0004986813615301361,0.00018238513225021764,0.001488932861514705,0.9155767560005188,-50.24197769165039,-6.495865821838379,16.78809356689453,1.6038919687271118,-1.3153793811798096,0.012864691205322742,,,,,,,,,
1739302781.6713428,-0.08687070721797877,1.052486216517198,-0.37557994185657395,-1.4572303287512054,1.5458801209710997,1.1661242319628315,1.3475240021658028,0.00011063535379323601,-0.00043137733647335215,2.5240266293007118e-05,0.001185588359594347,0.00022248889269622663,0.001170454317971502,-0.0004292079223225516,0.8401983380317688,-50.24197769165039,-6.519669532775879,16.76032257080078,1.6103006601333618,-1.3153793811798096,0.05314789339900017,,,,,,,,,
1739302781.6813433,-0.08687153704610347,1.0524818815293615,-0.3755797056935583,-1.4572313265016623,1.545880785918854,1.1661207512857334,1.3475357479940622,9.458094401837414e-05,-0.0002640807400471005,0.0002983816016956612,0.0013214428031077898,-0.000637578778181423,0.0002326932936798976,0.001464769673853317,0.8917730450630188,-50.21817398071289,-6.519669532775879,16.73651885986328,1.6038919687271118,-1.3217880725860596,-0.020094294100999832,,,,,,,,,
1739302781.6923218,-0.08687157684547113,1.052483594243916,-0.3755817246901513,-1.4572331096469975,1.5458779100735167,1.1661192357502366,1.3475312235235846,-0.0006584109342900268,-0.00013491880131619,-0.0007443465320097922,0.0004601127237217984,-0.0013612357431626522,-0.00011093614326371286,0.0028538160218080887,0.8917730450630188,-50.24197769165039,-6.495865821838379,16.76032257080078,1.6167093515396118,-1.3089706897735596,-0.0072769103571772575,,,,,,,,,
1739302781.703226,-0.08687258634676832,1.0524852978253132,-0.37557993801631534,-1.45723518910981,1.5458800805606057,1.1661199934103144,1.3475255859924398,-0.0006409212813896921,0.00020000759028023304,-0.001099514069430165,0.0005121956399321752,-0.0011598651296433901,-0.00012781541080695734,-0.0010560363132201401,0.8640020489692688,-50.26578140258789,-6.519669532775879,16.78809356689453,1.6103006601333618,-1.3153793811798096,0.03941498324275017,,,,,,,,,
1739302781.7132738,-0.08687394708998766,1.0524835942438657,-0.37557991576788813,-1.4572369632485616,1.5458798458754937,1.1661219796807507,1.3475311104458483,-0.0009658286474118218,0.0004944334768638088,-0.0003078100430636571,-0.0010257318868784255,0.00010245034425952919,0.001861804856705324,0.0004462896792489493,0.8917730450630188,-50.24197769165039,-6.519669532775879,16.81189727783203,1.6167093515396118,-1.3281967639923096,-0.0072769103571772575,,,,,,,,,
1739302781.7242463,-0.08687245818034788,1.0524874515507128,-0.3755799419044129,-1.4572373348769683,1.545879923604058,1.1661207510730511,1.3475269075159002,0.00020595806970510658,0.0018463239176560978,6.6426512678841e-05,-0.0005338449749356598,-0.0011009755961280923,0.00024561503659254564,-0.0010662575415785048,0.8640020489692688,-50.26578140258789,-6.519669532775879,16.78809356689453,1.6103006601333618,-1.3217880725860596,0.019273381680250168,,,,,,,,,
1739302781.735272,-0.08687269497951777,1.052483160052611,-0.37557923035537627,-1.457234959557882,1.5458808382419522,1.1661199934103144,1.3475290780625722,-0.0003419277054234159,-0.0008237489228721853,0.0007639975920260561,0.0005765608113273246,0.00030065614361656585,-4.391906702149165e-05,0.0003622930650637714,0.8640020489692688,-50.26578140258789,-6.519669532775879,16.78809356689453,1.6038919687271118,-1.3153793811798096,0.012864691205322742,,,,,,,,,
1739302781.746316,-0.08687261411390838,1.0524880196220707,-0.3755816895833406,-1.4572330782490166,1.545878417486931,1.1661176119775845,1.3475236048617736,-0.0007723839578835032,0.0005707321451094271,-0.0021734323512749426,0.0011165433279301837,0.00020376940049438345,-0.00123571278773036,-0.0028399726046890155,0.8640020489692688,-50.29355239868164,-6.495865821838379,16.76032257080078,1.5974832773208618,-1.2952377796173096,0.05314789339900017,,,,,,,,,
1739302781.756341,-0.08687244717774849,1.0524824447645873,-0.37558172425736136,-1.4572380501325786,1.545882336050387,1.1661192357502348,1.3475215812132924,-0.000475188386535241,-0.0007579060770122354,-0.0008931673593157496,-0.0010097961984909432,-0.0006573185751796613,0.00010879410636797144,-0.004299539604364102,0.8640020489692688,-50.26578140258789,-6.495865821838379,16.78809356689453,1.5910745859146118,-1.3089706897735596,0.07328949868679047,,,,,,,,,
1739302781.767297,-0.08687269563169545,1.0524835143188354,-0.3755778617906825,-1.4572295440910776,1.5458822766624396,1.1661184780901577,1.3475271013106078,-0.001410323067153267,-0.0009841901995861339,0.0006450381080519425,0.0005295813901582208,0.0013638471620373235,-0.0010079282431640863,-0.0008625400573830308,0.8640020489692688,-50.24197769165039,-6.547440528869629,16.71271514892578,1.5910745859146118,-1.3025619983673096,0.026597600430250168,,,,,,,,,
1739302781.7773175,-0.0868709045161759,1.0524853067632938,-0.3755778621146994,-1.4572373348770187,1.5458815959033867,1.1661192357502361,1.3475263567324818,-0.00048607394353125926,0.0010240825895060754,0.00045748863404197917,3.142025783676097e-05,0.0013576350270465547,-0.00046441011311008825,0.00019728069740118935,0.8401983380317688,-50.26578140258789,-6.547440528869629,16.78809356689453,1.5974832773208618,-1.3089706897735596,0.03300629183650017,,,,,,,,,
1739302781.7882926,-0.08687090419006727,1.052484508672376,-0.375577858226458,-1.4572373345984195,1.5458803171438602,1.1661208688079627,1.347531863907003,0.0006708766425200068,-0.00041373834991076543,0.000796686910423935,-0.0011976906894609774,-0.0006584597478165167,0.00136500297350442,0.0008076273370683707,0.8401983380317688,-50.24197769165039,-6.547440528869629,16.78809356689453,1.5974832773208618,-1.3217880725860596,-0.013685601763427258,,,,,,,,,
1739302781.7992527,-0.08687097174500236,1.0524852012507329,-0.3755817231654822,-1.4572351891138418,1.5458804856378325,1.1661199948640861,1.3475345884311871,0.0003817960188519122,0.0006366739122483512,-0.0005999782832760127,1.6794545639324104e-05,-0.0006615828284176962,0.00032661711941234326,0.0008863016563761639,0.8401983380317688,-50.26578140258789,-6.495865821838379,16.78809356689453,1.6038919687271118,-1.3153793811798096,-0.0008682189509272575,,,,,,,,,
1739302781.8093033,-0.08686642846197623,1.0524790177514358,-0.3755821054140981,-1.45723132664293,1.5458793229065397,1.166119993410388,1.3475295271409828,0.0015228326627410274,-0.0014501560534263347,-0.001068418061148579,0.001101052631779883,-0.0007360950252821594,-0.000163363990249098,0.0012848924768517878,0.8163946270942688,-50.21817398071289,-6.519669532775879,16.73651885986328,1.6167093515396118,-1.3153793811798096,0.03300629183650017,,,,,,,,,
1739302781.820294,-0.08687269496749882,1.0524831609812682,-0.3755799448602128,-1.4572324205551648,1.5458822927426519,1.1661207510703928,1.3475287293002651,-0.0004797102123213668,0.0004762120154956716,-0.0003446063852247887,0.002245302513655453,-0.00025638684103252893,0.0004392536012178198,9.622801169315544e-05,0.8640020489692688,-50.26578140258789,-6.519669532775879,16.76032257080078,1.6103006601333618,-1.3217880725860596,0.012864691205322742,,,,,,,,,
1739302781.8303306,-0.08687185274397945,1.0524845885291316,-0.3755806542441626,-1.4572331093082846,1.5458789464417013,1.1661199934103144,1.3475294825279618,0.0001553615238180933,-0.00011348053002513593,-0.00015829224030906533,-0.00013423697892169526,-0.00014624520014748282,0.00019093460445049194,0.0007955276492468802,0.8917730450630188,-50.26578140258789,-6.519669532775879,16.76032257080078,1.6304422616958618,-1.3153793811798096,0.0064559997990727425,,,,,,,,,
1739302781.8403604,-0.08687198565315547,1.0524833556759277,-0.37557786211872607,-1.457232845718612,1.5458848542989765,1.1661192357502361,1.3475290312066202,-0.0005989447024590529,-0.0009964346461096547,0.0008368896734495222,0.0005809052839690802,0.001605772292484061,-0.0003627304821370766,-0.00039756192310447193,0.8640020489692688,-50.24197769165039,-6.547440528869629,16.76032257080078,1.5974832773208618,-1.3089706897735596,0.019273381680250168,,,,,,,,,
1739302781.8512259,-0.08687260534090813,1.0524872929303966,-0.37557607943768584,-1.4572369717853355,1.5458819580212915,1.1661192357502361,1.3475244335509318,0.0006626735988310583,0.0007406305299210811,0.000714190700892147,-0.0009517570079554236,0.0002194806957777989,-0.000319407900646681,-0.001797417331930526,0.8640020489692688,-50.29355239868164,-6.571244239807129,16.81189727783203,1.5974832773208618,-1.3089706897735596,0.05314789339900017,,,,,,,,,
1739302781.8612986,-0.08687074667271714,1.0524819078868901,-0.37557994190456045,-1.4572351891098045,1.5458800791371146,1.1661192357502361,1.3475288426133567,0.0006802632479140005,-6.491505314533809e-05,-0.00039904964265901927,-0.0009415761302144525,-0.0007847635726137975,-5.6304319202392866e-05,0.0001622787681218641,0.8401983380317688,-50.21817398071289,-6.519669532775879,16.78809356689453,1.6103006601333618,-1.3089706897735596,0.012864691205322742,,,,,,,,,
1739302781.872223,-0.08686946956805769,1.052485295318382,-0.3755778621147049,-1.4572369714718876,1.5458808384101297,1.1661192357502361,1.3475294826913862,7.422663424240625e-05,-8.595009000105397e-05,0.00011445893602971403,-0.0007358525421130634,0.00020103220828693406,-0.00068788195916399,0.0007706858013117929,0.8163946270942688,-50.26578140258789,-6.547440528869629,16.81189727783203,1.6038919687271118,-1.3089706897735596,0.0064559997990727425,,,,,,,,,
1739302781.882243,-0.08687266575467897,1.0524835941348354,-0.37557780336876107,-1.4572351890048243,1.5458769476666219,1.1661192357502361,1.347528731166527,-1.787940798173532e-05,0.0004905766575849068,0.0009658402266181455,0.00027443830715629595,-0.0013573681114347218,-0.000563945629562142,0.00036517198360987645,0.8640020489692688,-50.24197769165039,-6.519669532775879,16.78809356689453,1.6368509531021118,-1.3089706897735596,0.012864691205322742,,,,,,,,,
1739302781.892334,-0.08687469000088742,1.0524873311964518,-0.3755760707619302,-1.457236420448555,1.545879322924555,1.1661207510703928,1.3475303490712482,-0.001214999270859086,0.002014516642706855,0.001734447337319439,-0.0009831018387818533,-0.0003480438131411812,-3.5463863389312446e-05,-0.0002483425169963465,0.8917730450630188,-50.29355239868164,-6.571244239807129,16.78809356689453,1.6167093515396118,-1.3217880725860596,-0.0008682189509272575,,,,,,,,,
1739302781.9032912,-0.08686966552121728,1.0524818934970914,-0.3755817245815305,-1.457238754365815,1.545879638311506,1.1661207510703928,1.3475239625946493,-0.00018550017545344746,-0.0013926225606261068,-0.000526322714930485,-0.0019952420247928235,5.4065207797942324e-05,-0.00020347127529007152,-0.0005660884538761623,0.8163946270942688,-50.21817398071289,-6.495865821838379,16.83570098876953,1.6231180429458618,-1.3217880725860596,0.05314789339900017,,,,,,,,,
1739302781.9132962,-0.08687003608083854,1.0524863248678777,-0.3755799419045604,-1.4572321909668986,1.5458808442586833,1.1661199934103144,1.3475263436505376,-6.264108133157959e-05,0.0006990827321788377,-0.000157559821172633,0.0018499921136458312,0.00043385897225973596,-0.00010811003452812127,-0.0018822267678288843,0.8401983380317688,-50.29355239868164,-6.519669532775879,16.76032257080078,1.6038919687271118,-1.3153793811798096,0.03300629183650017,,,,,,,,,
1739302781.9243317,-0.08687098244900196,1.052482876042896,-0.37557994093249875,-1.4572331083734134,1.545879778661674,1.166119980328362,1.3475266325466282,-0.00025193799394211886,0.0002852272542846262,3.7528407365114396e-06,0.0003703962273067152,-0.0004917661798347165,-0.00015487270409623476,-0.000726983267692404,0.8401983380317688,-50.24197769165039,-6.519669532775879,16.76032257080078,1.6038919687271118,-1.3153793811798096,0.03941498324275017,,,,,,,,,
1739302781.9343388,-0.08687187751822532,1.0524835824579966,-0.3755838043714186,-1.4572351979401064,1.5458787988872829,1.1661207510701712,1.3475290780982419,-0.00018925132771685656,-0.00043608771730413996,-0.0018036407493840089,0.0002889782380499552,-0.0006482291045523845,0.0009923747812226951,0.0003208030046802315,0.8640020489692688,-50.24197769165039,-6.468094825744629,16.78809356689453,1.6304422616958618,-1.3217880725860596,0.012864691205322742,,,,,,,,,
1739302781.945299,-0.08687437821025104,1.0524873035789324,-0.37557990691033827,-1.4572352685827141,1.5458789692334345,1.1661191829379105,1.3475256260289252,-0.0008253850784310623,0.0013667973688935324,0.00025411946762729726,-0.00018538385056750283,-0.0010943743120341478,-0.0002293587651175174,-0.0011209519831989277,0.8917730450630188,-50.29355239868164,-6.519669532775879,16.78809356689453,1.6167093515396118,-1.3089706897735596,0.06596527993679047,,,,,,,,,
1739302781.9572628,-0.08687261703513054,1.0524833427433786,-0.37557786211450733,-1.4572351887953172,1.5458785652623792,1.1661199934100162,1.347531107610528,3.909625209238468e-05,-0.0003077869280016601,0.00046177199534903505,-0.00036324426240147287,-0.0006611863587531255,-4.064768805662538e-05,0.0008737517113154441,0.8640020489692688,-50.24197769165039,-6.547440528869629,16.78809356689453,1.6231180429458618,-1.3153793811798096,-0.0072769103571772575,,,,,,,,,
1739302781.9673016,-0.08686927091596955,1.0524831345050623,-0.37557786211470484,-1.4572321144374814,1.5458815964013186,1.1661199934103144,1.3475271013106163,0.0014114084465383946,-0.00040727469449080287,0.0009561758727230417,0.0006154093607523993,0.0004395394012824774,0.0002187279099504985,-0.0009279345664608867,0.8163946270942688,-50.26578140258789,-6.547440528869629,16.76032257080078,1.5974832773208618,-1.3153793811798096,0.026597600430250168,,,,,,,,,
1739302781.978294,-0.08687268715279496,1.0524865893284843,-0.3755817246179183,-1.4572320418930509,1.5458825789375725,1.1661183298160829,1.3475239624331403,0.0010740092856732384,0.0011108767628937185,-0.001346774126325342,0.0004257034257199131,-0.00016224930019626633,-0.0005442470409641842,-0.0017839818216586296,0.8640020489692688,-50.29355239868164,-6.495865821838379,16.73651885986328,1.6167093515396118,-1.3281967639923096,0.05314789339900017,761,755,778,41.826,0,0
1739302781.988297,-0.08687682476463213,1.052485309586955,-0.3755838043714357,-1.4572313225608762,1.5458800806396733,1.1661199933564792,1.3475294825278867,-0.0017937892848916884,0.0006948129095265909,-0.0014106197214043392,0.0008804121917534366,-0.00067181082841517,-0.00036583414854546856,0.0003491653223216776,0.8917730450630188,-50.26578140258789,-6.468094825744629,16.73651885986328,1.6103006601333618,-1.3153793811798096,0.0064559997990727425,761,755,778,41.826,0,0
1739302781.9983363,-0.08687099213396955,1.0524852861606202,-0.37557994190456045,-1.4572398483760085,1.5458793249109737,1.1661195224600338,1.3475239625946458,0.00018970919112397974,0.0012435770095409627,4.0648592756799056e-05,-0.0017107633832374037,-0.0008820038348306857,-0.0007532656251488689,-0.0013744089763093078,0.8401983380317688,-50.26578140258789,-6.519669532775879,16.85950469970703,1.6167093515396118,-1.3153793811798096,0.05314789339900017,761,752,777,41.608,0,0
1739302782.0093384,-0.08687027314851178,1.052485068345952,-0.37558171579702165,-1.4572333487157865,1.5458800805845436,1.1661192357475776,1.3475303484251202,0.0009085142160082399,1.7849388550635037e-05,-0.0009151121992558697,0.00019389971451181704,-0.0005655468503604235,-0.000475947482064955,0.0011358802091263479,0.8401983380317688,-50.26578140258789,-6.495865821838379,16.76032257080078,1.6103006601333618,-1.3089706897735596,-0.0008682189509272575,761,754,777,41.826,0,0
1739302782.0202591,-0.08687097953580508,1.0524842738499878,-0.37557607943763627,-1.4572349566884717,1.5458800805845325,1.1661206856606317,1.347527968876731,7.43142665893571e-05,0.00018755179810343945,0.0012921189362245858,-0.0006656221050702473,-0.00013994794222986221,0.0005377982297323123,-0.0004657545216234521,0.8401983380317688,-50.24197769165039,-6.571244239807129,16.78809356689453,1.6103006601333618,-1.3217880725860596,0.019273381680250168,761,755,779,41.934,1,0
1739302782.0312212,-0.08687098332886503,1.052481880745875,-0.37558172458157946,-1.4572331364758007,1.545880563970742,1.1661191965040103,1.3475271013106171,-6.921053692859377e-05,-0.00010412027387442533,-0.0011596191966071062,-0.00026869330543291564,1.80353347672867e-05,-0.00035726826442057674,-0.001705984751963286,0.8401983380317688,-50.21817398071289,-6.495865821838379,16.76032257080078,1.6103006601333618,-1.3089706897735596,0.026597600430250168,764,753,777,41.826,0,0
1739302782.0413086,-0.08687262872890557,1.0524818817231685,-0.3755799419045604,-1.4572331093204087,1.5458812002958244,1.1661165125172106,1.3475311060851975,-0.0002303211056329544,-0.0008562358538100653,0.0004589332168345488,0.0007984048464813299,0.0010678860034335962,-0.0009832697115908862,0.0009247159354914543,0.8640020489692688,-50.21817398071289,-6.519669532775879,16.76032257080078,1.6038919687271118,-1.3217880725860596,-0.0072769103571772575,760,757,777,41.717,0,0
1739302782.0523114,-0.08686753198005688,1.0524835903193306,-0.3755760793660177,-1.4572351125803842,1.5458808917796172,1.1661192357263093,1.347527912089559,0.0013250019381694483,0.0003989235875681146,0.0016704503731309384,-0.0007298576594903156,0.0006184601529399784,-0.000223927291307214,-0.000775082830830821,0.7925909161567688,-50.24197769165039,-6.571244239807129,16.78809356689453,1.6167093515396118,-1.3089706897735596,0.04673920199275017,762,755,778,41.717,1,0
1739302782.0632672,-0.08687398231078729,1.0524835971873334,-0.3755792303553759,-1.4572391090503345,1.5458825813205581,1.166121810708522,1.3475287248858274,-0.0008337843810632792,-0.00036879046470563527,0.0002740046950139971,-0.002722346183657883,0.001395838297658679,0.001275148623393869,-0.0011045682972770112,0.8917730450630188,-50.24197769165039,-6.519669532775879,16.81189727783203,1.6167093515396118,-1.3217880725860596,0.012864691205322742,762,754,777,41.717,2,0
1739302782.0733216,-0.08687269594582665,1.0524818773625841,-0.375579940596428,-1.457230752097371,1.5458790344105853,1.1661215479942726,1.3475207835187526,0.00013357114690732463,-0.0006517645866883641,0.0002658153316484511,0.0014928143998590726,-0.0014236512765752043,0.0009841379493275917,-0.0033045508109036956,0.8640020489692688,-50.21817398071289,-6.519669532775879,16.76032257080078,1.6103006601333618,-1.3281967639923096,0.05314789339900017,760,756,777,41.826,0,0
1739302782.0842595,-0.08687098343714607,1.052481878888688,-0.375579950734856,-1.4572351889649062,1.5458856119342983,1.1661199934109792,1.3475319029372974,0.001306649099524658,-2.433671844795577e-05,0.000589068724772351,0.00012599464661994947,0.001793596355864562,-0.0002927787917567431,0.0016899124599455888,0.8401983380317688,-50.21817398071289,-6.519669532775879,16.78809356689453,1.5910745859146118,-1.3153793811798096,-0.013685601763427258,762,755,777,41.717,0,0
1739302782.0943499,-0.08687121976700396,1.0524818787797299,-0.3755798369219438,-1.4572352465838911,1.5458793830078241,1.1661199934103144,1.3475293800589003,0.0008881648300543476,-0.0013210187473296593,0.00019276915700501318,-8.170244750344924e-05,-0.00058464876828161,0.00015557329993980687,0.00019509939887754515,0.8401983380317688,-50.21817398071289,-6.519669532775879,16.76032257080078,1.6103006601333618,-1.3153793811798096,0.019273381680250168,762,755,778,41.717,1,0
1739302782.1052203,-0.0868746968230633,1.0524853067646305,-0.3755807795929791,-1.4572354275404487,1.5458793810261875,1.1661210530484436,1.3475318681139024,-0.0009702559402775777,0.00032675788363284073,0.0001263933570515044,-0.00018721435697855,0.0008239413799322744,0.0010532173784872916,0.0013716856012159421,0.8917730450630188,-50.26578140258789,-6.495865821838379,16.78809356689453,1.6167093515396118,-1.3153793811798096,-0.013685601763427258,762,757,776,41.717,1,0
1739302782.1152449,-0.08687269595792697,1.052486101493244,-0.3755792303393728,-1.4572351551007667,1.545880936169417,1.1661207510883378,1.3475307544502286,-0.00044374579139179243,-0.0006337607107312229,-7.502488193218731e-06,-0.0002681943119761565,0.0008715539867497136,0.0004174273816570476,0.002143042621794186,0.8640020489692688,-50.26578140258789,-6.519669532775879,16.78809356689453,1.6103006601333618,-1.3217880725860596,-0.0008682189509272575,760,756,776,41.608,0,0
1739302782.1253355,-0.08687253811594776,1.052486533211126,-0.3755793624595325,-1.457236974729687,1.5458816003888454,1.1661215087304713,1.3475304661695653,7.710556259134145e-05,2.617289858317367e-06,0.0003162314817800443,-0.0011900788057670384,0.0008762593284318248,0.0010632117784315435,0.0011183017382804992,0.8640020489692688,-50.26578140258789,-6.495865821838379,16.81189727783203,1.5974832773208618,-1.3281967639923096,-0.0008682189509272575,761,756,778,41.717,0,0
1739302782.1363,-0.08687074667336073,1.0524836204510826,-0.375581724532243,-1.457235295073634,1.5458803248900153,1.1661207510703928,1.3475313398637898,0.0009774419792399215,-0.0011031384826884942,9.51170307392469e-05,-0.0003777424193042321,-0.0006950541826091178,7.81205727677989e-05,0.0006892562997080734,0.8401983380317688,-50.24197769165039,-6.495865821838379,16.78809356689453,1.6103006601333618,-1.3217880725860596,0.026597600430250168,762,758,777,41.826,1,0
1739302782.1472325,-0.08687100963453881,1.0524835903194785,-0.3755799419045602,-1.4572342972483106,1.5458800415055982,1.1661199934103144,1.3475288425216347,-0.00030975621795767974,-0.0007087123646197432,-0.0009435021079738776,0.00012968643152116825,-8.082654630264723e-05,-0.00018757313341949663,0.0005612525561940261,0.8401983380317688,-50.24197769165039,-6.519669532775879,16.78809356689453,1.6103006601333618,-1.3153793811798096,0.012864691205322742,760,756,777,41.826,2,0
1739302782.1573322,-0.0868700360612342,1.0524874574375247,-0.37557994158053987,-1.4572342707416555,1.5458833389711184,1.1661192357502361,1.347526343652522,0.0008273714432007924,0.00045754141002698166,0.0001526129841598694,-0.0005515403385161579,0.0007855293725792716,-1.1389161317551177e-05,-0.0014372840893985296,0.8401983380317688,-50.26578140258789,-6.519669532775879,16.78809356689453,1.6103006601333618,-1.3089706897735596,0.03300629183650017,759,756,777,41.826,0,0
1739302782.1682484,-0.08687027314311474,1.0524818817353256,-0.3755778173137569,-1.4572351891046205,1.5458825947390966,1.1661207903162494,1.3475287268058755,0.0005428026425337606,-0.00019897669813786763,0.0003771172306469428,-0.0017658361172613142,0.001302658115420095,0.00037766847299738795,-0.001108727120635726,0.8401983380317688,-50.21817398071289,-6.519669532775879,16.78809356689453,1.6167093515396118,-1.3217880725860596,0.012864691205322742,761,754,778,41.717,1,0
1739302782.1792505,-0.08687028191344916,1.0524831590351424,-0.37557994092050534,-1.45723697276797,1.5458811712017515,1.166119993410536,1.3475296409648745,0.0005418732899787651,-8.455742459596444e-05,4.822281314665277e-05,7.585434552808204e-05,0.00015434125469461046,0.00026392059172513044,0.00043729194160117846,0.8401983380317688,-50.26578140258789,-6.519669532775879,16.81189727783203,1.6103006601333618,-1.3153793811798096,0.0064559997990727425,760,755,776,41.826,3,0
1739302782.1892657,-0.0868746913968883,1.052489447492901,-0.3755777571320217,-1.4572331093199655,1.5458808382630806,1.1661184780901577,1.3475263442992351,-0.0006983760939848722,0.0015024223504650402,0.001708647679957853,-1.924679565776076e-05,-0.0005662652881421487,-0.0006284375539504702,-0.0010768320896501673,0.8917730450630188,-50.29355239868164,-6.547440528869629,16.76032257080078,1.6038919687271118,-1.3025619983673096,0.03300629183650017,761,754,778,41.826,1,0
1739302782.2003121,-0.0868746938987164,1.0524798836490727,-0.3755757332989301,-1.4572368943125953,1.54588013008061,1.1661192357502361,1.347526395978342,-0.0002875273218982188,-0.0006159304094390338,0.0013630639427535912,-0.0003171283913753287,0.0007786796814570126,-0.0005551501809888503,-0.000799646780573746,0.8917730450630188,-50.19040298461914,-6.547440528869629,16.81189727783203,1.6103006601333618,-1.3089706897735596,0.03300629183650017,761,755,778,41.826,0,0
1739302782.2103446,-0.086873114303197,1.0524828789881766,-0.37557786197064635,-1.4572351920519317,1.5458853034427886,1.1661207510703928,1.3475288426062646,4.900868611563904e-05,-0.0003494111953159811,0.0009455691500817249,-0.0005789445962253127,0.0016044096846173888,0.00010364435742844357,0.0008083793745828482,0.8401983380317688,-50.24197769165039,-6.547440528869629,16.78809356689453,1.6038919687271118,-1.3217880725860596,0.012864691205322742,761,755,778,41.717,1,0
1739302782.2212474,-0.0868747731925882,1.0524835932587322,-0.3755799417965528,-1.4572351125804008,1.5458793230048413,1.1661199934103144,1.347531903476314,-0.00047480374350277247,-0.0007749395460805864,-0.00025158536572687757,2.4906286432274385e-05,-0.0011471507329537094,-4.722435123486995e-05,0.0014239317579766294,0.8917730450630188,-50.24197769165039,-6.519669532775879,16.78809356689453,1.6167093515396118,-1.3153793811798096,-0.013685601763427258,761,756,778,41.826,1,0
1739302782.2312875,-0.08687098473759966,1.0524835942438995,-0.3755799419045586,-1.4572354020172809,1.545878566754266,1.1661207510703928,1.3475303660299005,-6.607283996564852e-05,0.0006700427611921313,0.000474804068157323,0.00036366836219819823,-0.0005982434601602019,0.0009268286596805938,-0.0007170166376901212,0.8401983380317688,-50.24197769165039,-6.519669532775879,16.78809356689453,1.6231180429458618,-1.3217880725860596,-0.0008682189509272575,761,752,777,41.717,1,0
1739302782.2422268,-0.08687682476478857,1.0524872252326407,-0.37557993801631356,-1.4572351887960706,1.5458793234762733,1.166121508730471,1.3475342719177328,-0.0013175612939066174,0.0018097291593545332,-0.0006188310750612027,-6.265571494801247e-05,-0.0003733825772296488,0.00045911108462427645,0.0011551951003167683,0.8917730450630188,-50.29355239868164,-6.519669532775879,16.78809356689453,1.6167093515396118,-1.3281967639923096,-0.0072769103571772575,760,754,777,41.826,0,0
1739302782.2522583,-0.08687469393481692,1.052484353088985,-0.3755817245815136,-1.4572295439659058,1.545880201265551,1.1661185799134528,1.3475239498893183,-0.00042923783246361243,-2.817138582999283e-05,-0.0013332895467891824,0.0017589878145852233,-0.0010443455812967429,-0.0012287762887310037,-0.001472166642137094,0.8917730450630188,-50.26578140258789,-6.495865821838379,16.71271514892578,1.6103006601333618,-1.3153793811798096,0.05314789339900017,761,752,778,41.826,1,0
1739302782.2623389,-0.08687106235811172,1.0524835674097637,-0.37558172458157946,-1.4572387204507669,1.5458793230920411,1.1661213909689634,1.3475271544292682,0.0005384696905039368,-0.001173383550593939,-0.00019271532399801024,-0.0020127861171902444,-0.00030736694156961166,0.00015615886654598286,-0.0014646015544680837,0.8401983380317688,-50.24197769165039,-6.495865821838379,16.83570098876953,1.6167093515396118,-1.3281967639923096,0.05314789339900017,761,756,778,41.717,2,0
1739302782.2733014,-0.08687269595832296,1.052484987528523,-0.3755799331560049,-1.4572369717866314,1.545880838410155,1.1661199934096496,1.347527445443171,0.0007003165225256075,-0.0005054198368031741,-7.071780749171353e-05,-0.0002619403245059348,0.00012084326700385179,-0.00045310477635214286,-0.0003068298309744145,0.8640020489692688,-50.26578140258789,-6.519669532775879,16.81189727783203,1.6038919687271118,-1.3153793811798096,0.05955658480525017,761,755,777,41.826,1,0
1739302782.2843065,-0.08686985577747607,1.0524853067628452,-0.37557994190451105,-1.4572329987774526,1.5458840981217485,1.1661222663905495,1.347526645652519,0.00047993899797390757,0.00044474340594021156,-0.00017926088010808273,0.00044192376111275,0.00035617828372200484,0.0006608032294449055,0.001108310721178608,0.8640020489692688,-50.26578140258789,-6.519669532775879,16.76032257080078,1.6038919687271118,-1.3346054553985596,0.03941498324275017,760,754,777,41.717,0,0
1739302782.295307,-0.08687098342111338,1.0524818812507812,-0.37557959771052085,-1.457233122674857,1.545876639747416,1.166121508730471,1.3475232612521626,0.00041852051325504407,-0.0013880925677777314,-0.00043594778343337027,0.00013140551618252247,-0.0025157693051100403,-9.27537981351799e-05,-0.0027992930110205144,0.8401983380317688,-50.21817398071289,-6.495865821838379,16.78809356689453,1.6304422616958618,-1.3281967639923096,0.05955658480525017,755,754,777,41.717,1,0
1739302782.3062873,-0.0868726953083221,1.052488911262416,-0.3755778619586895,-1.4572351891721629,1.5458793214649222,1.1661184780901577,1.347530466163008,-1.8295977590873243e-05,0.0003685584493013886,0.00024527092424263497,-0.0010064960606150683,-0.00031860745263066965,-0.00030903007431787885,0.000572926741599734,0.8640020489692688,-50.31735610961914,-6.547440528869629,16.78809356689453,1.6167093515396118,-1.3025619983673096,-0.0008682189509272575,761,755,776,41.717,3,0
1739302782.317234,-0.08687260826791285,1.0524836431552838,-0.37557607943768495,-1.4572331093199493,1.5458808382446025,1.1661191180126662,1.3475239625953106,3.5574564468694275e-05,9.893366644391421e-05,0.001764267736614113,9.204137803656143e-07,0.00033796035746509306,-5.903523406181251e-06,-0.0018698200702556608,0.8640020489692688,-50.24197769165039,-6.571244239807129,16.76032257080078,1.6038919687271118,-1.3089706897735596,0.05314789339900017,761,753,775,41.717,0,0
1739302782.327277,-0.08687270472538851,1.052478850635984,-0.37558172458157946,-1.4572352685826644,1.545879544903552,1.166121508728477,1.347533533153711,-0.0007195547220979496,-0.0019172928368097614,-0.0007931156151528783,-0.0004378131922616273,-0.0010915856227813195,0.0006584885292982658,0.0005915074834577962,0.8640020489692688,-50.19040298461914,-6.495865821838379,16.78809356689453,1.6304422616958618,-1.3281967639923096,-0.0008682189509272575,760,755,778,41.717,1,0
1739302782.3373375,-0.08686929722355183,1.0524853106717365,-0.37557786211470484,-1.4572292600349877,1.5458793224711918,1.1661199934103144,1.3475303877249094,0.0009257850604749588,0.0007705567953660559,-6.25648487877143e-05,0.0007537936492058722,-0.00013128867345088904,-3.8773383817077136e-05,0.00022379006750799867,0.8163946270942688,-50.26578140258789,-6.547440528869629,16.73651885986328,1.6167093515396118,-1.3153793811798096,-0.0008682189509272575,762,757,777,41.717,2,0
1739302782.3483155,-0.08687640512049968,1.0524835928994043,-0.3755799419045604,-1.4572338380595238,1.5458793785469742,1.1661199934103144,1.347531577035699,-0.0014967447231991927,0.0006488558334161382,-0.00026404867710797024,-0.0015190517058412843,4.1813310138562876e-05,9.581375677224278e-05,0.0008916410425945414,0.9155767560005188,-50.24197769165039,-6.519669532775879,16.78809356689453,1.6167093515396118,-1.3153793811798096,-0.0072769103571772575,760,755,777,41.826,2,0
1739302782.3592703,-0.08687540418740676,1.0524835942439086,-0.37558172458157946,-1.4572359820740357,1.5458774246214981,1.166116801413974,1.3475257560584883,-0.0011517103226918349,0.0003876918165062014,-0.0007637789484680105,-0.0008860214322007939,0.001463130352718103,-0.0008839706526813451,0.000644972111133839,0.8917730450630188,-50.24197769165039,-6.495865821838379,16.76032257080078,1.6103006601333618,-1.3153793811798096,0.03941498324275017,761,754,777,41.826,0,0
1739302782.3702621,-0.08687540322510999,1.052483591300477,-0.37557781600556345,-1.4572324206038152,1.5458761439650872,1.166120751016336,1.3475271027670381,-0.0010330355683184802,-0.00039445781354857456,0.0004819036819377292,0.000680424073991049,-0.00041057055126261137,0.0002077048943290478,-0.0013914308657690156,0.8917730450630188,-50.24197769165039,-6.519669532775879,16.76032257080078,1.6167093515396118,-1.3217880725860596,0.026597600430250168,759,755,777,41.826,1,0
1739302782.3803177,-0.08687261996391547,1.052485302512996,-0.3755799389763745,-1.457233122671593,1.5458800807873112,1.1661207510703924,1.347530280225004,-0.0005551743220283485,-0.0006789780476776153,-1.0942615539622099e-05,-7.2199560672742315e-06,0.000436612641065217,0.00011741145861895167,-0.0013788745600092837,0.8640020489692688,-50.26578140258789,-6.519669532775879,16.78809356689453,1.6103006601333618,-1.3217880725860596,0.026597600430250168,760,755,777,41.826,1,0
1739302782.3922172,-0.08687269584918926,1.0524798828011612,-0.3755817255627094,-1.4572351890631465,1.5458785261840635,1.1661199934103144,1.3475255860622313,-0.00023457968298526362,-0.00024255625503206675,-0.0005322656916358673,0.0005055374159234737,-0.000870220014767291,-9.367294437356475e-05,7.630455486999123e-05,0.8640020489692688,-50.19040298461914,-6.495865821838379,16.78809356689453,1.6231180429458618,-1.3153793811798096,0.03941498324275017,760,755,777,41.717,1,0
1739302782.402314,-0.08687268718888075,1.0524818816868406,-0.37557992959481235,-1.4572351806065353,1.5458769016699239,1.1661207510703928,1.347527967046335,7.845631349456415e-05,-0.00014200699648800417,-9.573599027208011e-05,-0.0005283507011213635,8.747191826298837e-05,0.0006049300165705023,-0.0001021709588890199,0.8640020489692688,-50.21817398071289,-6.519669532775879,16.78809356689453,1.6103006601333618,-1.3217880725860596,0.019273381680250168,760,755,777,41.717,0,0
1739302782.413245,-0.08687269595782796,1.052483570696402,-0.37557923327149195,-1.457233109319901,1.5458813343597035,1.1661207379884404,1.3475263437043639,0.0005437354154437986,0.0003027892104520203,-0.00032142466078458585,0.0006549214209097136,0.0018035643280191757,-4.2709860233749916e-05,-0.0004861175258389961,0.8640020489692688,-50.24197769165039,-6.519669532775879,16.76032257080078,1.6038919687271118,-1.3217880725860596,0.03300629183650017,759,755,777,41.826,1,0
1739302782.424281,-0.08687458823774055,1.052485306800853,-0.3755799418645579,-1.4572351891098045,1.545879165943828,1.1661207510703189,1.3475303658677225,-0.001158714532041171,0.0008413524390707113,-0.00019959173868503666,0.00012525116697808142,-0.00035164767166613587,0.00040403203660100274,0.00018359418811570198,0.8917730450630188,-50.26578140258789,-6.519669532775879,16.78809356689453,1.6167093515396118,-1.3217880725860596,-0.0008682189509272575,760,754,776,41.826,2,0
1739302782.4343314,-0.08687692999094498,1.052483488280104,-0.37557785336614863,-1.4572362820772318,1.545882353562109,1.166119992764292,1.3475288818515305,-0.0018088544507434308,-0.001102155997047956,0.0004050998847185044,-0.0003178483599598303,0.0002895948077364808,-0.00021907503968705497,0.0005638106826602847,0.8917730450630188,-50.24197769165039,-6.547440528869629,16.81189727783203,1.5910745859146118,-1.3153793811798096,0.012864691205322742,760,754,777,41.717,2,0
1739302782.4452696,-0.08687658801450952,1.0524828789875809,-0.3755777513268727,-1.4572331093160555,1.545879322924454,1.166120751070389,1.3475294830132896,-0.00021662085381968308,-0.0002583990990733423,0.0011082921776727097,0.00026788418944454824,-0.0002618581300347719,0.00012234517858529526,-0.00017806618712061083,0.8917730450630188,-50.24197769165039,-6.547440528869629,16.76032257080078,1.6167093515396118,-1.3217880725860596,0.0064559997990727425,760,754,777,41.717,0,0
1739302782.4552908,-0.0868746180411006,1.052481365067146,-0.37558251930830033,-1.4572330357339678,1.5458826354443358,1.1661192372037863,1.3475275457949052,0.00011789820228462825,-0.0017364677354299132,-0.0011035160165370143,9.056447677394523e-05,0.0009624707364219106,-0.000452859039216659,-0.0010436112308142742,0.8917730450630188,-50.24197769165039,-6.495865821838379,16.76032257080078,1.6167093515396118,-1.3089706897735596,0.04673920199275017,759,756,776,41.826,2,0
1739302782.4662378,-0.08687269595744923,1.0524798837334093,-0.37558172458606576,-1.4572351887944535,1.5458793231638777,1.1661207510704008,1.3475303664220253,0.0003033281459183775,-0.001906772859177135,-0.0003632486856190406,9.045063276345123e-05,5.9778507065325433e-05,0.0001437266106834876,0.0009509790328549785,0.8640020489692688,-50.19040298461914,-6.495865821838379,16.78809356689453,1.6167093515396118,-1.3217880725860596,-0.0008682189509272575,758,761,776,41.717,2,0
1739302782.4763293,-0.08687469389873051,1.052482483025261,-0.37557973218451407,-1.4572351891097992,1.5458819579477208,1.1661184606475548,1.3475305836569018,-0.0007278967096464647,-0.0006073295353867723,-0.0004960672052988167,-0.0005286804540854251,0.0006547156260682042,-0.0006947131504015124,0.00027762075532551157,0.8917730450630188,-50.26578140258789,-6.519669532775879,16.78809356689453,1.5974832773208618,-1.3025619983673096,0.03300629183650017,759,755,777,41.934,0,0
1739302782.4872985,-0.08687269595787746,1.0524873046532215,-0.3755777372673797,-1.4572351891098045,1.5458810051142229,1.1661207510702942,1.3475335279017941,0.00030652143531976486,0.001592338011642527,0.00015403982390130343,-0.0008517706425861648,0.0002958229816634088,0.000346506908518072,0.001167082386007418,0.8640020489692688,-50.29355239868164,-6.519669532775879,16.78809356689453,1.6038919687271118,-1.3217880725860596,-0.0008682189509272575,759,756,777,41.826,0,0
