IITGN-Robotics/Franka_IITGN_ROBOTICS/franka_ros/franka_iitgn/data01/s_b_001.csv
time,fr3_joint1_pos,fr3_joint2_pos,fr3_joint3_pos,fr3_joint4_pos,fr3_joint5_pos,fr3_joint6_pos,fr3_joint7_pos,fr3_joint1_vel,fr3_joint2_vel,fr3_joint3_vel,fr3_joint4_vel,fr3_joint5_vel,fr3_joint6_vel,fr3_joint7_vel,fr3_joint1_eff,fr3_joint2_eff,fr3_joint3_eff,fr3_joint4_eff,fr3_joint5_eff,fr3_joint6_eff,fr3_joint7_eff,flexpin1,flexpin2,flexpin3,Force,ContactMic,ContactMic_gt
1739302193.3731596,-0.09374734560097615,1.0307345639200365,-0.3585717441302039,-1.4706396834437134,1.5129736863603807,1.2039032786654715,1.360138503173261,0.0001534666925763801,-0.0003694200242776103,-0.0015599662680001515,-0.0008376437590253129,-7.888401807489313e-05,-9.43622021404865e-05,0.0008559308141020008,2.958728551864624,-49.65481948852539,-4.516190528869629,16.58972930908203,1.5517069101333618,-1.4728500843048096,0.03300629183650017,,,,,,,,,
1739302193.3841558,-0.09374734657758595,1.0307351683254,-0.3585717434861272,-1.4706396041978644,1.5129725608422167,1.2039017633453148,1.3601393244509121,-0.0008630514413463238,0.0008882242824833384,0.0005662247539192201,-0.0008157345270501493,0.0003404126729362559,-2.6953916045095977e-05,0.0016081051041270042,2.958728551864624,-49.65481948852539,-4.516190528869629,16.58972930908203,1.5581156015396118,-1.4600327014923096,0.026597600430250168,,,,,,,,,
1739302193.3941774,-0.09375369563949895,1.0307341758616242,-0.35857802717811316,-1.4706382015956092,1.512978658873086,1.203903973893153,1.3601393249357827,-0.0052916974744063325,-0.00032883176310115596,-0.0049773902639820115,0.0019383086728611755,0.0015385633775498782,0.0007401971866479927,0.001261206743640848,2.684985876083374,-49.67862319946289,-4.742325782775879,16.68891143798828,1.5452982187271118,-1.4398910999298096,0.026597600430250168,,,,,,,,,
1739302193.406121,-0.09379364023216184,1.0307565990247431,-0.3586387980555578,-1.4705879210866617,1.5129750939044713,1.2038893509627828,1.3601369437184019,-0.00600744320340532,0.0008752104832091324,-0.0033449830966778933,0.005395788504840001,0.0007497858286174776,-0.00017132865636929761,-0.000900194230116857,1.316272497177124,-50.03567886352539,-5.833329200744629,16.83570098876953,1.5517069101333618,-1.3419296741485596,0.04673920199275017,,,,,,,,,
1739302193.4161541,-0.09383155398301005,1.0307570059798743,-0.3586660350902056,-1.4705409837460122,1.512970929209647,1.2038768821059274,1.3601392856899341,-0.0026233440563869846,0.00028824981389218983,-0.000887130916494282,0.0034406046384902363,-0.000582630658806999,-0.0007497645076860051,-0.0003448964477379621,0.9671514630317688,-50.01187515258789,-6.011857032775879,16.83570098876953,1.5709329843521118,-1.2494614124298096,0.026597600430250168,,,,,,,,,
1739302193.4281952,-0.09385380867389626,1.0307514932369657,-0.3586731736926204,-1.4705079041415208,1.512972922936346,1.2038745958197237,1.3601393249355693,-0.0024567042013996982,-0.00012210688202734523,0.0002985689914183269,0.003157426716657222,0.000660814587386988,-0.00019217618143263602,0.001549376350607712,0.8917730450630188,-49.96030044555664,-6.063431739807129,16.76032257080078,1.5581156015396118,-1.2302353382110596,0.026597600430250168,,,,,,,,,
1739302193.4382365,-0.09386298884465871,1.0307607479489507,-0.3586667840909934,-1.4704897008323763,1.5129717607777646,1.2038768687998835,1.360132288066787,0.00042881256928622394,0.0011604449735117743,0.0009123143588615447,0.0012714529766074166,0.0006343834817861731,0.0007040782610861122,-0.0022638660979246786,0.7925909161567688,-50.06344985961914,-6.190384864807129,16.76032257080078,1.5709329843521118,-1.2494614124298096,0.08610688149929047,,,,,,,,,
1739302193.4491413,-0.09386952632635075,1.0307668887047294,-0.35865981962014004,-1.4704953539100556,1.5129706499069702,1.2038768687998835,1.3601322895203292,-0.0008734780495988311,0.0006310985069037749,0.00027739705556273104,-0.0007225818014041963,-0.00033183365145461125,0.00037290662594378747,-0.0013340219205055645,0.7925909161567688,-50.13882827758789,-6.241959571838379,16.88727569580078,1.5773416757583618,-1.2494614124298096,0.08610688149929047,,,,,,,,,
1739302193.4610868,-0.09387934400286957,1.0307746249069982,-0.35865666002954405,-1.4705010485682077,1.5129714139176076,1.2038761111398053,1.3601409099093078,-0.00027908331699862083,0.0005144954398223982,0.00034857130210059345,-0.0008121651733249581,0.00047922752977873725,-9.169760744186237e-05,0.0006002617323725026,0.8401983380317688,-50.24197769165039,-6.241959571838379,16.95868682861328,1.5709329843521118,-1.2430527210235596,0.012864691205322742,,,,,,,,,
1739302193.4711995,-0.09388128374090957,1.0307729929510234,-0.35865767934478254,-1.4704936299065148,1.512973798282967,1.2038745958196486,1.3601401645109974,0.0009622575987285305,0.0010520390395427222,-0.00042660134304142825,0.0009655965819582446,0.00019254157990797292,0.00040050625076948386,0.0010839022866403422,0.7925909161567688,-50.21817398071289,-6.241959571838379,16.85950469970703,1.5517069101333618,-1.2302353382110596,0.019273381680250168,,,,,,,,,
1739302193.4821122,-0.0938828030012933,1.0307663867998278,-0.3586553084276836,-1.4704851810168729,1.5129718367742953,1.2038706992282675,1.360143329710331,-0.0011444436895036777,0.0008165842912851973,0.00045965788688195463,-0.00029040020657606686,-0.0008741940914679802,0.0007686014085268736,0.0016228460136561945,0.7648199200630188,-50.13882827758789,-6.241959571838379,16.78809356689453,1.5581156015396118,-1.1972763538360596,-0.0072769103571772575,,,,,,,,,
1739302193.4921153,-0.09388170143118361,1.0307653895207824,-0.3586569710129146,-1.4704892646022212,1.5129697854429007,1.2038679248150823,1.3601425720503024,0.00013914322390929913,-9.081401033869357e-05,-0.000495921796602592,-0.001832177631295288,-0.0008595903070636338,1.8254032309802855e-05,0.0016861299454293316,0.7410162091255188,-50.11502456665039,-6.241959571838379,16.88727569580078,1.5846658945083618,-1.2036850452423096,-0.0008682189509272575,,,,,,,,,
1739302193.50219,-0.0938832824273199,1.0307707706526648,-0.3586589454162323,-1.4704917973540568,1.5129742696025257,1.203870196281951,1.360143943150011,-0.0004458516576129055,0.0024695541515745217,0.0005768799234367117,-0.0016453652588436546,0.00023393171040153436,0.00030204401693825463,0.002296248406417445,0.7648199200630188,-50.21817398071289,-6.214188575744629,16.93488311767578,1.5645242929458618,-1.2229111194610596,-0.013685601763427258,,,,,,,,,
1739302193.5131218,-0.09388252085598811,1.0307707140632019,-0.3586605268720222,-1.4704906521001144,1.5129714073562095,1.2038781901438549,1.3601370632269276,0.001029686554433894,0.00017262951439648498,-0.001736735439226418,0.00018874301950594913,-0.00020215800446107208,0.00041625167169161587,-0.001174649094467633,0.7410162091255188,-50.19040298461914,-6.190384864807129,16.93488311767578,1.5709329843521118,-1.2696030139923096,0.07328949868679047,,,,,,,,,
1739302193.5231771,-0.09388181058069185,1.0307647449180326,-0.3586566644044068,-1.4704840117640166,1.5129729228852078,1.203880309152936,1.3601335725295176,0.00019703364896373992,-0.0014432160958031631,-4.068722374260623e-05,0.0016710427635008235,0.0012366689113011003,0.0011170330693696608,-0.0015784813460555604,0.7410162091255188,-50.11502456665039,-6.241959571838379,16.85950469970703,1.5581156015396118,-1.2696030139923096,0.07328949868679047,,,,,,,,,
1739302193.5340858,-0.09388465172339744,1.0307626228025382,-0.3586567081467894,-1.4704834050053954,1.5129725358804456,1.2038737299283948,1.3601353100133415,7.41146287780054e-05,8.671231643974585e-05,0.0009569285686880808,-6.589678863076049e-05,0.0016832422694664465,-0.00023314878088280696,-0.0011913027966610388,0.7410162091255188,-50.11502456665039,-6.241959571838379,16.81189727783203,1.5645242929458618,-1.2229111194610596,0.05955658480525017,,,,,,,,,
1739302193.5460818,-0.09388860773291063,1.0307687461700978,-0.35866058325071337,-1.4704890425025507,1.5129729169277475,1.2038713387200943,1.3601385672750443,-0.0007528959684783241,0.0009144178912832455,-0.0008104670273841361,-0.0017998917034773843,-2.4008274738495034e-05,-0.0002584199047197699,0.0005751314925939392,0.7925909161567688,-50.19040298461914,-6.190384864807129,16.88727569580078,1.5581156015396118,-1.2036850452423096,0.03300629183650017,,,,,,,,,
1739302193.5561156,-0.09388867803061113,1.03077291637307,-0.358654846769091,-1.470487840567122,1.5129713941560199,1.2038659372354885,1.3601298639053767,-5.8888593738357656e-05,0.000711452296092947,0.001224615813759342,0.0001247416450591057,-0.0001572258612737653,0.00014375927248780633,-0.002875302407784147,0.7925909161567688,-50.21817398071289,-6.265763282775879,16.91107940673828,1.5709329843521118,-1.1972763538360596,0.07969819009304047,,,,,,,,,
1739302193.566153,-0.09388455311966105,1.0307719627473524,-0.3586566332978407,-1.470487912950722,1.51297518342091,1.2038722717695822,1.3601393247740639,-0.00035472075182767064,-0.0006286388242399716,-0.0008410286854684102,-0.0016241956542344133,0.0010921395101736004,0.0008801012584668572,0.00036215445753749395,0.7648199200630188,-50.21817398071289,-6.241959571838379,16.91107940673828,1.5379739999771118,-1.2229111194610596,0.026597600430250168,,,,,,,,,
1739302193.5761602,-0.09388287588120058,1.030769180723494,-0.358654846876604,-1.4704839753193706,1.5129739825226594,1.2038768642156608,1.360134120227545,0.0010069127776853452,2.7703326921873974e-05,0.0003863138367302154,0.0019316742175044214,0.0013840892247824312,0.003274988528235429,-0.0017482097498538855,0.7410162091255188,-50.16659927368164,-6.265763282775879,16.85950469970703,1.5581156015396118,-1.2494614124298096,0.07969819009304047,,,,,,,,,
1739302193.5871127,-0.09388971954934155,1.0307654955333532,-0.3586625020159306,-1.4704839834023005,1.5129715645544628,1.203871714903978,1.3601393234344628,-0.0003106179609157916,-0.00037774036267926417,-0.0010725564068198579,0.00015549367931860181,0.0007932000078356926,-0.0013866057765754807,0.0004812460256762496,0.8163946270942688,-50.11502456665039,-6.166581153869629,16.85950469970703,1.5709329843521118,-1.2430527210235596,0.026597600430250168,,,,,,,,,
1739302193.597193,-0.09388575349543063,1.0307667423014382,-0.35866049188802285,-1.4704860792543586,1.5129714075730305,1.2038768230319572,1.3601361749628136,0.0012760535350006751,-0.0005060743625909458,0.0003691076252726819,0.00021487376316212836,-1.2094234455647859e-05,0.0013478424200387763,6.960602436404203e-05,0.7410162091255188,-50.16659927368164,-6.190384864807129,16.88727569580078,1.5709329843521118,-1.2494614124298096,0.05314789339900017,,,,,,,,,
1739302193.608116,-0.09389092810410558,1.030768252281135,-0.35865670555442725,-1.4704862833440455,1.512972164728503,1.2038761048410014,1.3601389704722893,-0.0006685536627160701,-0.0006973049231440207,0.00040363252770693264,-0.00019889463344826012,0.0002489772998472048,0.0023223246267668426,0.0010112214001208922,0.7925909161567688,-50.16659927368164,-6.241959571838379,16.88727569580078,1.5645242929458618,-1.2430527210235596,0.026597600430250168,,,,,,,,,
1739302193.6190932,-0.09388421663867955,1.0307652305835868,-0.35865655099704247,-1.4704842035437737,1.51297064973943,1.203870316406183,1.360139307491187,0.0009687794207948852,-0.0004886143909074062,0.0005197200116102921,-0.0006389212327162645,-0.0009217127734622052,0.0007710520580644634,0.00013120615942295545,0.6894415020942688,-50.11502456665039,-6.241959571838379,16.85950469970703,1.5773416757583618,-1.2302353382110596,0.026597600430250168,,,,,,,,,
1739302193.6291146,-0.09388792699289268,1.030766942883145,-0.3586568656192637,-1.4704804084950498,1.5129748482304874,1.2038705852779308,1.3601402310597308,-0.0004930903621390595,-0.0015842054886280495,-0.00023108495734935682,0.0012303878021105222,-0.0006061364304917114,-0.0021823789873750376,0.0017666185886820035,0.7410162091255188,-50.13882827758789,-6.241959571838379,16.81189727783203,1.5773416757583618,-1.2366440296173096,0.019273381680250168,,,,,,,,,
1739302193.640136,-0.09388606825752831,1.030767181526784,-0.35865485548246184,-1.470483986127699,1.5129727051299906,1.2038682045906142,1.3601346707379534,0.001266505047082451,-0.00027816471121018863,0.0014653129656722694,0.0002588030073805888,0.0005912132829694892,-0.0007514387934688131,-0.0022788198845086673,0.7410162091255188,-50.13882827758789,-6.265763282775879,16.85950469970703,1.5709329843521118,-1.2165024280548096,0.06596527993679047,,,,,,,,,
1739302193.6511219,-0.09389365244406733,1.0307698682337685,-0.3586566264934562,-1.4704878363848208,1.5129718367634535,1.2038698817139464,1.3601385672757127,-0.0011402750663451757,-5.554343581628818e-05,0.0010518429869071462,-0.0014607130612754827,0.00028168661561086476,0.0003229851141526453,0.0005755272844838419,0.8163946270942688,-50.16659927368164,-6.241959571838379,16.91107940673828,1.5581156015396118,-1.2302353382110596,0.03300629183650017,,,,,,,,,
1739302193.6621292,-0.09389362907227781,1.0307709155411175,-0.3586548496487416,-1.4704858153254925,1.5129745817736622,1.2038737118071794,1.3601346707929074,-0.0015611554522454896,0.0024344771815203643,0.00038109641421913754,0.0007196477577613539,0.0026710419210669483,0.0014225356386218103,-0.0013744540146523757,0.8163946270942688,-50.19040298461914,-6.265763282775879,16.88727569580078,1.5452982187271118,-1.2229111194610596,0.06596527993679047,,,,,,,,,
1739302193.6721354,-0.0938920548896059,1.0307709145561827,-0.3586587091994969,-1.4704860537400342,1.512971407567486,1.2038701934343605,1.3601338041944726,0.0009929689647326199,0.0011260815075965769,-0.00033615681126286786,-0.0006775900396678247,-0.00033463902800960865,-0.000770123099372369,-0.001467615945111488,0.7648199200630188,-50.19040298461914,-6.214188575744629,16.88727569580078,1.5709329843521118,-1.2229111194610596,0.07328949868679047,,,,,,,,,
1739302193.682189,-0.09389025771462166,1.030768763883222,-0.3586548506208198,-1.4704860622473406,1.512972165225133,1.203872493698794,1.360135428398234,-0.00037481729044110736,0.001181063521165148,-0.0001491805629447228,-0.0009312053930305549,0.0011186868526691606,-0.00015480411396203374,-0.00044637737131467993,0.7648199200630188,-50.19040298461914,-6.265763282775879,16.88727569580078,1.5645242929458618,-1.2229111194610596,0.05955658480525017,,,,,,,,,
1739302193.6931837,-0.09388828208971084,1.0307684079488393,-0.3586566294096139,-1.4704860082843358,1.5129686978786612,1.2038693731408334,1.3601393308953469,0.0002764340992317282,-0.0009073968964856867,-0.00020782365418406455,-0.00036294361618378174,-0.0009975419551366974,-0.0020327996890826274,0.001108278251113697,0.7410162091255188,-50.16659927368164,-6.241959571838379,16.88727569580078,1.5846658945083618,-1.2229111194610596,0.026597600430250168,,,,,,,,,
1739302193.7041502,-0.09389107062898334,1.0307699630738654,-0.35866057028944587,-1.470485815325236,1.5129721652190016,1.2038707595364977,1.3601416887105005,0.00020955159507875302,0.0015940339039636207,-0.00028356707657307875,-0.00027914760565760435,0.0010613810908079592,-0.001727940925075784,0.000800794926560155,0.7410162091255188,-50.13882827758789,-6.190384864807129,16.88727569580078,1.5645242929458618,-1.2366440296173096,0.0064559997990727425,,,,,,,,,
1739302193.7150953,-0.09388918043890013,1.03076926142888,-0.358659556141489,-1.4704839078664977,1.5129692070504372,1.2038723110699374,1.3601393248293678,0.00033922992523709487,0.000295300161033803,-0.000659931531192287,-0.0010478362100747175,-0.0011653111144412653,0.00013645289213332296,-0.0004450209846750669,0.7410162091255188,-50.13882827758789,-6.190384864807129,16.88727569580078,1.5773416757583618,-1.2229111194610596,0.026597600430250168,,,,,,,,,
1739302193.7251575,-0.09389300239072153,1.0307633192415104,-0.3586566297177658,-1.4704850959998128,1.5129683358111987,1.2038698465624496,1.3601378096156325,0.0005571388022490456,-0.0009717847484040447,0.0005503224391930832,0.00016853334034557134,-0.0011589389633078883,-0.0017400735742089727,-0.0008625203620453064,0.7648199200630188,-50.11502456665039,-6.241959571838379,16.88727569580078,1.5846658945083618,-1.2302353382110596,0.03941498324275017,,,,,,,,,
1739302193.7361698,-0.09389278320277994,1.0307681609905301,-0.358656630705676,-1.4704832586930725,1.512968919911662,1.2038745521324963,1.3601409484929916,-0.00015961377962074857,-0.001447439383586486,0.0005689094263422317,0.0013685701062979246,0.0012329419577566125,0.0010054221726739812,0.0005947332780911129,0.7648199200630188,-50.16659927368164,-6.241959571838379,16.85950469970703,1.5645242929458618,-1.2302353382110596,0.012864691205322742,,,,,,,,,
1739302193.747103,-0.09389204700282121,1.030769964800603,-0.35865450351060224,-1.470485709357642,1.5129706498866562,1.203870598270603,1.3601412769621057,0.0001414124292470103,-0.0006461378489677273,0.0007686612536201645,0.0001871795849168111,-0.000957780843430395,-0.0009970500082074408,0.00013530479034768068,0.7648199200630188,-50.19040298461914,-6.241959571838379,16.88727569580078,1.5773416757583618,-1.2366440296173096,0.019273381680250168,,,,,,,,,
1739302193.7571614,-0.09389829721367494,1.0307692147220855,-0.35865640191114556,-1.4704815887814466,1.5129724672031835,1.2038685577497106,1.36013916427228,-0.00286885884869588,-1.5395923761595182e-05,0.0005709196025520732,0.001318772043775386,-0.0003054066052657427,-0.0016197345446456667,-0.0008341651196560922,0.8401983380317688,-50.19040298461914,-6.241959571838379,16.85950469970703,1.5709329843521118,-1.2165024280548096,0.026597600430250168,,,,,,,,,
1739302193.7681258,-0.0938929790600827,1.030767205066177,-0.35865661829338846,-1.4704775474184095,1.512972922609904,1.2038714605077907,1.3601361858420755,-0.0013983641642201115,0.00015117139996363786,-0.0007900109484130749,0.0009081122119518001,0.0014938822057516308,0.00011049842267148115,-0.00164260983768727,0.7925909161567688,-50.13882827758789,-6.214188575744629,16.81189727783203,1.5581156015396118,-1.2430527210235596,0.05314789339900017,,,,,,,,,
1739302193.7791667,-0.09389138675144841,1.0307709173906388,-0.3586519334157715,-1.4704839461025776,1.5129713901709019,1.2038686769412725,1.3601337873978898,0.0006377178655417112,0.000929635336940964,0.002200827913273839,-0.001023928577186497,0.0011602959985128497,0.00018512402783891075,-0.0007619156382430827,0.7410162091255188,-50.19040298461914,-6.265763282775879,16.85950469970703,1.5709329843521118,-1.2165024280548096,0.07328949868679047,,,,,,,,,
1739302193.7900884,-0.09388968694508835,1.0307698814090502,-0.3586566293931462,-1.4704830162461409,1.5129753440842415,1.203873764025203,1.3601395351575372,0.0006053529821661591,0.0006977802097039784,0.0012825034199007742,0.0014678136771732555,0.0014141804755563737,0.00034020128582162,0.0006791120443998828,0.7172124981880188,-50.19040298461914,-6.241959571838379,16.85950469970703,1.5645242929458618,-1.2366440296173096,0.012864691205322742,,,,,,,,,
1739302193.8011997,-0.09389511014323693,1.0307692056154754,-0.3586548467325726,-1.470487827574554,1.5129721911158227,1.2038759536449444,1.3601409484690565,-0.0009917229766237318,0.00020831378134612347,0.0010037823988305276,-0.0022328181035134956,-0.0006734735127561806,0.00011981189209031284,0.0019185402342260073,0.7925909161567688,-50.16659927368164,-6.265763282775879,16.91107940673828,1.5645242929458618,-1.2430527210235596,0.012864691205322742,,,,,,,,,
1739302193.8121421,-0.09388926903186844,1.030765386143072,-0.3586573366385018,-1.4704831916915078,1.5129710469756261,1.2038749864669658,1.3601330071439353,0.0009379873163841629,-0.0004556682476130127,0.00021536395560009942,-0.0008283251866143658,0.0006717187259715051,0.0010645673918505327,-0.00114133541667532,0.7410162091255188,-50.11502456665039,-6.241959571838379,16.88727569580078,1.5709329843521118,-1.2366440296173096,0.05314789339900017,,,,,,,,,
1739302193.8231392,-0.09389780227440123,1.0307654150438794,-0.3586587879404397,-1.4704859709845677,1.512971407563019,1.2038692681297223,1.360137807928798,-0.0017241094919282867,-0.00046295988751941336,1.6205934279940886e-05,-0.0007506664050958608,0.0008188709430882773,-7.742536801650952e-05,0.0005022782941548978,0.8163946270942688,-50.11502456665039,-6.214188575744629,16.88727569580078,1.5709329843521118,-1.2165024280548096,0.03941498324275017,,,,,,,,,
1739302193.8341773,-0.09389682288576534,1.0307672089635875,-0.3586584729888923,-1.4704875587561879,1.5129686975600012,1.2038675029251444,1.3601393249357814,-0.00035381500377103204,-0.0004526740112976088,0.00017742862574268579,-0.0005894643387141188,-0.0017144165705214958,0.0006580112245823165,0.0012052023424606114,0.8163946270942688,-50.13882827758789,-6.214188575744629,16.91107940673828,1.5581156015396118,-1.2100937366485596,0.026597600430250168,,,,,,,,,
1739302193.84516,-0.09389613739672349,1.0307708389339403,-0.3586586304971165,-1.4704850114379617,1.5129673914938762,1.2038707429367903,1.3601354283982452,-0.0007815282397682533,0.00013254743758229188,-0.0011191785641215665,-0.0003726536996744815,-0.0019706963846955958,0.0006715960438988202,-0.0014351939588102213,0.7925909161567688,-50.19040298461914,-6.214188575744629,16.88727569580078,1.5773416757583618,-1.2100937366485596,0.05955658480525017,,,,,,,,,
1739302193.8561313,-0.0938931119924226,1.0307684894306985,-0.35865662940914766,-1.4704815000421525,1.5129722045064309,1.2038708890428729,1.3601401908330233,-3.325514974264265e-05,-0.0011766821018146468,6.0172611267209205e-06,0.0010400455569959499,0.0008300651103156133,0.0003302756692647342,0.00165840585568518,0.7648199200630188,-50.16659927368164,-6.241959571838379,16.85950469970703,1.5645242929458618,-1.2302353382110596,0.019273381680250168,,,,,,,,,
1739302193.866141,-0.09389182159271274,1.030766733349968,-0.35865870930745436,-1.4704829023914179,1.5129721652257981,1.20387058706419,1.3601433277723136,0.0007164417544772752,0.00016150596330101843,-0.001686691407960127,0.00167176472490798,0.0009155291106149036,-0.0009967535562983188,0.0016087702964335576,0.7172124981880188,-50.16659927368164,-6.214188575744629,16.85950469970703,1.5645242929458618,-1.2366440296173096,-0.0072769103571772575,,,,,,,,,
1739302193.876323,-0.09389726210828962,1.0307671991470424,-0.35865662940959375,-1.4704835899582578,1.512972467203184,1.2038761047603679,1.360135389317899,-0.0009989263625721314,0.000847862776653138,-0.00033653545855786735,-4.1616457843322055e-05,0.00021446563297010694,0.0023865261560668365,-0.0004905240030185635,0.7925909161567688,-50.13882827758789,-6.241959571838379,16.88727569580078,1.5709329843521118,-1.2430527210235596,0.05955658480525017,,,,,,,,,
1739302193.8870757,-0.09389581857262369,1.030769204506487,-0.3586587082633881,-1.470483619310387,1.5129721614074698,1.203871344248655,1.3601361846597335,-0.0006201878002534772,0.0005314198135019424,-3.445146100787631e-05,0.00034656012553993553,0.0006595500962605727,0.0006995436745182773,-0.00014931389305820756,0.7925909161567688,-50.16659927368164,-6.214188575744629,16.85950469970703,1.5645242929458618,-1.2430527210235596,0.05314789339900017,,,,,,,,,
1739302193.8971221,-0.09388992316816076,1.0307683300873218,-0.3586587553085731,-1.470482082363939,1.5129714075649898,1.2038698289016416,1.3601420352842233,0.0012230653789980998,-0.00011799050969189123,-0.0002071940922267903,-0.0002630763430545359,0.00029299028978801707,-0.00025265387425140904,0.002194226181877542,0.7172124981880188,-50.13882827758789,-6.241959571838379,16.83570098876953,1.5709329843521118,-1.2302353382110596,0.012864691205322742,,,,,,,,,
1739302193.9071367,-0.09389510993147603,1.030765256662861,-0.35865662609738164,-1.470483074545643,1.5129745715805525,1.2038701850214517,1.3601393249541958,-0.0007630926340161316,-0.00029870944676812367,0.0006370645184683026,-5.369141882033846e-05,8.074186615454115e-05,-0.00039807193552384644,0.0013687889494312208,0.7925909161567688,-50.11502456665039,-6.241959571838379,16.88727569580078,1.5709329843521118,-1.2302353382110596,0.026597600430250168,,,,,,,,,
1739302193.9171617,-0.09388998598139521,1.0307648238293983,-0.3586550829435165,-1.4704832493816433,1.5129695638294764,1.2038700218410412,1.360135388361325,0.00024373975437978423,-0.00011063734171234063,0.0008959272382155966,0.00065921742089953,-0.0013581741499279127,-0.0009893292974361414,-0.00016586437499164429,0.7410162091255188,-50.13882827758789,-6.265763282775879,16.85950469970703,1.5773416757583618,-1.2229111194610596,0.03300629183650017,,,,,,,,,
1739302193.9271684,-0.09389140041401557,1.0307692029762714,-0.35865881710229947,-1.4704829099431656,1.5129706498865834,1.203872140483178,1.3601369291290641,0.0017095158295736689,-0.00020378983786660998,-0.0011795114099701616,0.0005999433747271914,0.0008778414330713954,-0.00010342811459669989,-0.00025861892027793416,0.7410162091255188,-50.16659927368164,-6.214188575744629,16.85950469970703,1.5773416757583618,-1.2229111194610596,0.04673920199275017,,,,,,,,,
1739302193.9381487,-0.09389542779166565,1.0307708821783839,-0.3586548470572026,-1.4704856972548674,1.5129704055995186,1.203871382823089,1.3601402430153946,0.0004642553400740951,0.00034743884290758394,0.0004366307137757279,-0.0007967008977792719,-0.0002889343382414872,-3.120142482629444e-05,0.002026261992402837,0.7925909161567688,-50.19040298461914,-6.265763282775879,16.88727569580078,1.5773416757583618,-1.2165024280548096,0.019273381680250168,,,,,,,,,
1739302193.9490867,-0.09389513617493656,1.0307706682882771,-0.3586566294095938,-1.4704857767317212,1.5129748884561143,1.2038748431131125,1.3601401908333177,0.00040637881103567535,-0.0004200051757088849,6.990598823896773e-05,-0.000585636706242061,0.0011504523166814878,0.0012776899905808194,0.0012379570752136912,0.7925909161567688,-50.19040298461914,-6.241959571838379,16.88727569580078,1.5773416757583618,-1.2366440296173096,0.019273381680250168,,,,,,,,,
1739302193.959158,-0.09389447150541376,1.0307673581303987,-0.358656629409592,-1.4704790643588779,1.5129714076368348,1.2038752161913382,1.3601409470394414,0.0007934225988574757,-0.0002655289900878339,-0.0009967428496655034,0.0013972020243561644,-3.7083171284345394e-05,0.0028187650896915844,0.0017085285144094247,0.7410162091255188,-50.13882827758789,-6.241959571838379,16.83570098876953,1.5709329843521118,-1.2366440296173096,0.012864691205322742,,,,,,,,,
1739302193.9701526,-0.09389406574052762,1.0307654912477155,-0.3586587354451142,-1.4704808352128411,1.5129706499049766,1.2038703804035222,1.3601347109647213,0.000695690357030892,-0.001501839965391653,-0.00011006064947717542,0.0013952086877453054,-0.00015431314474453472,0.001404828875724956,0.00015743446771775116,0.7648199200630188,-50.11502456665039,-6.214188575744629,16.85950469970703,1.5773416757583618,-1.2229111194610596,0.06596527993679047,,,,,,,,,
1739302193.980209,-0.09389734957384652,1.030767207692113,-0.35865579546526294,-1.4704817181364347,1.5129696644979636,1.2038744193988276,1.3601338048411753,-0.0020192199112573144,-0.0002333583033557881,0.0006730285592942946,0.00023821701996829773,-0.00040394495642644937,0.0035400407296492303,-0.0004443807648126792,0.7925909161567688,-50.13882827758789,-6.265763282775879,16.85950469970703,1.5581156015396118,-1.2302353382110596,0.07328949868679047,,,,,,,,,
1739302193.9911532,-0.09389312207990552,1.0307692030166462,-0.35865453168192213,-1.4704874365433427,1.5129721653682446,1.2038724218129442,1.3601409484929916,0.0004693025947222096,0.00013349182293895481,0.001473425897647884,-0.001962805025777879,0.0005193068974312296,0.0004554002579836691,0.001909587083105607,0.7648199200630188,-50.16659927368164,-6.265763282775879,16.93488311767578,1.5645242929458618,-1.2430527210235596,0.012864691205322742,,,,,,,,,
1739302194.0011997,-0.09389585355486767,1.0307709439905752,-0.35865484802331976,-1.470477216566876,1.5129753441395233,1.2038698276278457,1.3601378096156342,-0.00047728890202937185,0.0003932745153409483,0.00032309007409081855,0.0019385316579541576,-7.423239107571672e-05,-0.001299773022789312,-0.0003962991126372341,0.7925909161567688,-50.19040298461914,-6.265763282775879,16.81189727783203,1.5645242929458618,-1.2302353382110596,0.03941498324275017,,,,,,,,,
1739302194.012151,-0.09389335158603489,1.0307685249924496,-0.35865870923545706,-1.4704770682576749,1.5129706549295943,1.2038721542470328,1.3601369437184019,0.00011520214411893625,0.00029877825202576097,-0.0008276849515147363,0.0015319160975440843,-0.0006564734423124765,-0.0023571962510834776,-0.00159017993627585,0.7648199200630188,-50.19040298461914,-6.214188575744629,16.83570098876953,1.5773416757583618,-1.2229111194610596,0.04673920199275017,,,,,,,,,
1739302194.0221796,-0.09389558340361766,1.0307672059800683,-0.3586589424942626,-1.4704809277123705,1.5129729228852964,1.20387266961158,1.3601361860583234,-6.955511571640699e-05,-0.00023535970832484104,-0.0009595263911954103,0.0011521100514594064,0.00013874168399850774,0.0015274611628067424,-0.0022463461433438643,0.7648199200630188,-50.13882827758789,-6.214188575744629,16.88727569580078,1.5581156015396118,-1.2229111194610596,0.05314789339900017,,,,,,,,,
1739302194.0330982,-0.09389382160563446,1.0307674458722111,-0.35865725819083716,-1.4704790520884718,1.5129706503894929,1.203872495152414,1.3601378096156342,0.0012398781201279907,-0.0011992838098476137,0.0003455062968313211,0.0007467515581950602,-0.000670682733904526,0.00019221629429563868,0.00028827381440914166,0.7648199200630188,-50.11502456665039,-6.241959571838379,16.83570098876953,1.5773416757583618,-1.2229111194610596,0.03941498324275017,,,,,,,,,
1739302194.0431008,-0.0938941359036591,1.030767207176096,-0.35865642820346294,-1.470478972627725,1.5129703214359802,1.2038698320300645,1.360139324935791,-2.727784125074168e-05,7.30506165200126e-05,-7.379458081235797e-05,-1.9660675366656925e-05,-5.163576999505623e-05,-9.2118877900408e-05,0.001125136127189761,0.7648199200630188,-50.13882827758789,-6.241959571838379,16.83570098876953,1.5709329843521118,-1.2302353382110596,0.026597600430250168,,,,,,,,,
1739302194.0532007,-0.09389342630164987,1.0307672083341555,-0.35865696971197725,-1.4704829145661136,1.5129729228668176,1.203873006362532,1.3601410016444788,-0.0002059101959571747,-0.001005832122753856,0.0005945677619352781,-0.0012294219034325352,-0.00010637522709843816,-0.00042712153062018346,0.0012707252045062512,0.7648199200630188,-50.13882827758789,-6.265763282775879,16.88727569580078,1.5581156015396118,-1.2302353382110596,0.012864691205322742,,,,,,,,,
1739302194.0642183,-0.09389456093642247,1.0307689674324936,-0.35865662945757854,-1.4704807562849935,1.512972166678683,1.2038698688652758,1.3601401908333233,2.2918819165299693e-05,0.0011844298482106602,0.00023077997052928053,0.0004460651871585912,7.300731639855554e-05,-0.0005515449899508247,-0.0013405593986460357,0.7410162091255188,-50.16659927368164,-6.241959571838379,16.85950469970703,1.5645242929458618,-1.2302353382110596,0.019273381680250168,,,,,,,,,
1739302194.0751567,-0.09389629197840103,1.0307692314685475,-0.35865870919944776,-1.4704866840646307,1.5129736805452976,1.2038738034301288,1.3601377965336818,-0.0011181749415206,0.0013116923298739699,-0.0006998759231039281,-0.0016778485395678518,3.2219862308145486e-05,0.0006822858248532519,-0.0007372297397926747,0.7648199200630188,-50.16659927368164,-6.214188575744629,16.91107940673828,1.5517069101333618,-1.2366440296173096,0.03941498324275017,,,,,,,,,
1739302194.086144,-0.09389140967248946,1.0307684788217206,-0.358658700450892,-1.470480758258502,1.5129736761294577,1.2038706419762772,1.3601338183611291,0.0010257586242314921,0.00023838267787308967,0.0001473907839080444,-7.522039987688582e-05,0.00019575873270042212,0.0004043252713207405,-0.0015628691408610738,0.7410162091255188,-50.16659927368164,-6.214188575744629,16.85950469970703,1.5517069101333618,-1.2366440296173096,0.07328949868679047,,,,,,,,,
1739302194.097085,-0.09389276508459557,1.0307671697422096,-0.3586562869196953,-1.4704811197018364,1.512970649739358,1.2038742873015844,1.360137927187136,0.0009041119625516896,-0.000372257627883605,0.0004807003370692964,-4.5678658015882944e-05,-2.5475321958050236e-05,0.0011085223159622644,0.0004742045455018997,0.7410162091255188,-50.13882827758789,-6.241959571838379,16.83570098876953,1.5773416757583618,-1.2366440296173096,0.06596527993679047,,,,,,,,,
1739302194.1071115,-0.09389393482658225,1.0307653885169885,-0.3586566294076586,-1.4704807553155186,1.5129706364959743,1.2038737786327693,1.360136186076706,0.0006839021966868642,-0.0015788356385826015,-4.4043690701840135e-05,0.00019593320180268873,-0.0005150855315421349,0.001609534476408629,-0.0009738358730910543,0.7648199200630188,-50.11502456665039,-6.241959571838379,16.85950469970703,1.5773416757583618,-1.2366440296173096,0.05314789339900017,,,,,,,,,
1739302194.118197,-0.09389250632877628,1.0307672050751908,-0.35865484381638774,-1.4704835513301375,1.512972044544048,1.203870182132354,1.3601357884480425,0.00028989777418203706,-0.00026453317299527355,0.0009440056476759406,-0.0012020007311122894,-0.0005388901423340539,5.325211485322708e-05,-0.0008203902339409057,0.7410162091255188,-50.13882827758789,-6.265763282775879,16.88727569580078,1.5645242929458618,-1.2302353382110596,0.026597600430250168,,,,,,,,,
1739302194.1291714,-0.09389458826663163,1.030769204978924,-0.3586594639415715,-1.4704804374160028,1.5129763007000683,1.203874066002586,1.3601355490054556,-0.00024937994591751574,0.0007518970951065449,-0.0004683823597522248,0.0009741921255846772,0.0018935834578726871,0.0016904528162225046,-0.0007303740770291022,0.7410162091255188,-50.16659927368164,-6.241959571838379,16.85950469970703,1.5645242929458618,-1.2302353382110596,0.05955658480525017,,,,,,,,,
1739302194.1401882,-0.09389829899274155,1.0307672080192285,-0.3586587092154485,-1.4704836639851457,1.512975338257145,1.2038703745871053,1.3601354153169738,-0.0009225234860877544,-0.00011721620873528048,-0.0002677927718183009,-0.0002490820938272145,0.0006977002168168182,-0.00027915733913320094,-0.001205866390520315,0.7925909161567688,-50.13882827758789,-6.214188575744629,16.91107940673828,1.5645242929458618,-1.2229111194610596,0.05955658480525017,,,,,,,,,
1739302194.1511085,-0.09389630083511921,1.0307672067110387,-0.35865594713026655,-1.4704814970447049,1.5129714075829666,1.2038698276175488,1.3601377703697037,-0.0008987644287065176,0.0004627265949758914,-6.329206625213806e-05,0.0001373595762122361,-0.000264776552188496,0.00022177249004248046,0.000802413108491225,0.7648199200630188,-50.13882827758789,-6.241959571838379,16.85950469970703,1.5709329843521118,-1.2302353382110596,0.03941498324275017,,,,,,,,,
1739302194.1621087,-0.093890869104247,1.030770918480796,-0.35865665564370414,-1.470482834996799,1.5129724399956317,1.2038718137185056,1.3601327452017,0.00260238571383671,0.0007115157349814971,-4.3403265480862355e-05,-0.0005147501372973309,0.00022063040252192945,-0.0009046977770375104,-0.0021791711748532813,0.6894415020942688,-50.19040298461914,-6.241959571838379,16.88727569580078,1.5581156015396118,-1.2430527210235596,0.07328949868679047,,,,,,,,,
1739302194.1731472,-0.09389458734227568,1.0307704328133422,-0.3586578955839301,-1.4704807553033978,1.5129721652224069,1.2038705981927555,1.360139324929809,0.0009308363321565193,-0.00013393219526666792,0.0007354082342196488,8.325011608199058e-05,0.00010168296883994687,-0.0003255703086184131,4.2529013420310245e-05,0.7410162091255188,-50.19040298461914,-6.214188575744629,16.85950469970703,1.5645242929458618,-1.2366440296173096,0.026597600430250168,,,,,,,,,
1739302194.1850731,-0.09389458799036439,1.0307669686652516,-0.3586565508870748,-1.4704808344492093,1.5129722044709895,1.2038698841365507,1.3601361860583234,0.0001351382139620519,-0.0004520363478995533,0.0006397799983746755,5.7008037889255746e-05,0.0006537844740991434,-0.0010112366270963017,-0.00019437016329895208,0.7410162091255188,-50.13882827758789,-6.241959571838379,16.85950469970703,1.5645242929458618,-1.2302353382110596,0.05314789339900017,,,,,,,,,
1739302194.1951485,-0.09389829881205561,1.0307655036733716,-0.35865662940914866,-1.4704806755039368,1.5129721657098711,1.203872153547494,1.3601409484929916,-0.0008098741559259616,-0.0002202540374229619,0.0007240409681164119,-0.0005293292845220954,0.0003522888226817287,0.0015612556552651517,0.0011266016770817135,0.7925909161567688,-50.11502456665039,-6.241959571838379,16.85950469970703,1.5645242929458618,-1.2229111194610596,0.012864691205322742,,,,,,,,,
1739302194.206161,-0.09390074532588133,1.0307671991889624,-0.35865870919944753,-1.470482093346113,1.5129717095431081,1.203871644764293,1.3601402403945855,-0.0015770907412734768,7.361734635586044e-05,-0.00022278833792708608,0.0004673241725173729,0.0006194108609144834,0.0005901333480548848,0.0001776622597440072,0.7925909161567688,-50.13882827758789,-6.214188575744629,16.88727569580078,1.5773416757583618,-1.2366440296173096,0.04673920199275017,,,,,,,,,
1739302194.2171168,-0.09389830171278057,1.0307690999962245,-0.3586567343922585,-1.4704807523194332,1.512972321552368,1.203872141117226,1.3601361475299016,-0.0009986764326414181,-0.0002486327920606265,-0.00044973448579578893,-0.0002492645819747701,-9.159348338667433e-05,-0.0013310828613395881,-0.00030955304375687937,0.7925909161567688,-50.16659927368164,-6.241959571838379,16.85950469970703,1.5645242929458618,-1.2229111194610596,0.026597600430250168,,,,,,,,,
1739302194.2271924,-0.09389641483211693,1.0307709150995195,-0.3586589454122251,-1.4704825966746242,1.512972168098542,1.2038698275019126,1.3601393118000291,0.00037558867641126597,0.001282219938152309,-0.00014804348157885052,-0.00012723181939063336,-0.0006189645552445089,-0.0009022261382426559,-0.00012921497358571994,0.7648199200630188,-50.19040298461914,-6.214188575744629,16.88727569580078,1.5645242929458618,-1.2302353382110596,0.026597600430250168,,,,,,,,,
1739302194.2381845,-0.09389637975672634,1.0307692049789217,-0.358662617776797,-1.4704775417865101,1.5129714062905226,1.2038744194286348,1.3601361848254232,-0.0004982669604686553,0.001009028071989113,-0.001525484568494816,0.0008869917226673341,-0.0003289685830299766,0.0008725259777802899,5.160461980372247e-05,0.7648199200630188,-50.16659927368164,-6.190384864807129,16.83570098876953,1.5709329843521118,-1.2302353382110596,0.05314789339900017,,,,,,,,,
1739302194.2490716,-0.09389829877641656,1.0307709174996662,-0.3586563932465954,-1.470482835048838,1.5129689739859244,1.203870180902039,1.3601409484929845,-0.00023099306514561886,0.0007526081498966447,6.28796078409867e-05,-2.595916187350753e-05,0.0003013946135388481,-0.0003320458752496627,-0.00018191355826376206,0.7925909161567688,-50.19040298461914,-6.241959571838379,16.88727569580078,1.5517069101333618,-1.2302353382110596,0.012864691205322742,,,,,,,,,
1739302194.25908,-0.09389461494615271,1.0307709181537528,-0.3586566555432523,-1.470480675830538,1.5129737182215512,1.2038693322121323,1.3601394456168001,0.00044815035972096474,-0.0006335814192180763,0.00031615752533409135,0.0006723594857485054,0.00012014489150312255,0.0007792653511025016,0.0011834534171774088,0.7410162091255188,-50.19040298461914,-6.241959571838379,16.85950469970703,1.5517069101333618,-1.2229111194610596,0.026597600430250168,,,,,,,,,
1739302194.2691126,-0.09389788539905829,1.030766257179324,-0.35865870920077525,-1.4704802418327365,1.5129710405576444,1.2038703027778284,1.3601361860644545,-0.0007294407252206288,-0.0009439532545400879,2.380528291870636e-05,0.0001678868920049491,-0.0014391207407687767,0.0005422067056742278,8.221689075164646e-05,0.8163946270942688,-50.13882827758789,-6.214188575744629,16.85950469970703,1.5709329843521118,-1.2302353382110596,0.05314789339900017,,,,,,,,,
1739302194.280152,-0.09389630081911697,1.030767207690396,-0.3586587091634452,-1.4704786056106347,1.512970717052332,1.2038720435044525,1.3601361860583234,0.0012418966321379298,-0.00044811722743763095,-5.159363007968372e-05,-0.0007033855150452055,-0.0015655346289705008,0.0020003651238441034,-0.00010766989344200907,0.7648199200630188,-50.13882827758789,-6.214188575744629,16.85950469970703,1.5645242929458618,-1.2366440296173096,0.05314789339900017,,,,,,,,,
1739302194.290154,-0.09389630083511771,1.030763497557644,-0.35865276694271675,-1.4704828350568486,1.512972929159404,1.2038707028704128,1.3601401908330233,-0.0003780103631747135,-0.001748506075978969,0.0010626957615026906,-0.000573652343415984,-0.00012136882874462979,0.0015341277219647034,0.00031265997516484684,0.7648199200630188,-50.08725357055664,-6.293534278869629,16.88727569580078,1.5581156015396118,-1.2366440296173096,0.019273381680250168,,,,,,,,,
1739302194.3011131,-0.09389832515521625,1.030770203188742,-0.3586548467685752,-1.4704832324212134,1.5129703214360075,1.2038709001688128,1.3601385672757127,-0.0005320074449364419,0.0007550320184494476,0.00013962598976978115,-0.0005628250141892637,-0.001034722060489204,0.0001573451658117454,0.0006409076741778082,0.7925909161567688,-50.19040298461914,-6.265763282775879,16.88727569580078,1.5709329843521118,-1.2302353382110596,0.03300629183650017,,,,,,,,,
1739302194.312125,-0.09389630224263663,1.030768490700312,-0.3586565248229508,-1.470476719916451,1.5129714090124737,1.2038698295536947,1.3601354283982452,0.0008820241613677359,0.00011968707441184276,0.00048466531367516983,0.000635867908634328,0.0014282385622130533,-0.0010268412802598532,-0.0014687720303375989,0.7648199200630188,-50.16659927368164,-6.241959571838379,16.83570098876953,1.5709329843521118,-1.2302353382110596,0.05955658480525017,,,,,,,,,
1739302194.3230925,-0.09389458539820955,1.0307674819889088,-0.35865662908498097,-1.4704768255382556,1.5129740761623485,1.2038710048237777,1.3601375076375832,0.0007818338250588442,-0.0005940687314349036,0.00022749735559688777,0.0011694307909816514,-0.00035189600552538265,0.0006431243940288907,0.0003147987283924813,0.7410162091255188,-50.11502456665039,-6.241959571838379,16.83570098876953,1.5452982187271118,-1.2302353382110596,0.03300629183650017,,,,,,,,,
1739302194.333111,-0.09389672210338683,1.0307632703970513,-0.35865662552133953,-1.470480755158021,1.5129709248348866,1.2038710571715137,1.3601365475988891,0.0005645657123469432,-0.0010302910320455513,0.00014584170755918552,0.00029224563042429583,-0.000991546341261292,0.001278511020129348,-0.0014907908566844095,0.7410162091255188,-50.11502456665039,-6.241959571838379,16.85950469970703,1.5709329843521118,-1.2302353382110596,0.05314789339900017,,,,,,,,,
1739302194.3431277,-0.0938945884587819,1.0307673216855198,-0.3586587091993817,-1.470478893153517,1.5129718352580646,1.2038724547549868,1.3601380338387574,0.0007857150167590823,-0.0011302429077720806,-1.999624388320545e-05,0.0006477600731980716,0.00032819537364804283,0.00010386806733314662,-5.0325752058352215e-05,0.7410162091255188,-50.13882827758789,-6.214188575744629,16.83570098876953,1.5581156015396118,-1.2430527210235596,0.04673920199275017,,,,,,,,,
1739302194.3541715,-0.09389246241539226,1.0307644623532517,-0.35865555633763363,-1.4704807543209062,1.5129728021857831,1.2038721928118623,1.3601398888733236,0.0018505669411278255,-0.001458398486560107,5.756027099652872e-05,-0.0007914248774880954,-0.0002193446753065651,-0.00028312456134361953,0.00178721354140469,0.7410162091255188,-50.11502456665039,-6.265763282775879,16.85950469970703,1.5581156015396118,-1.2229111194610596,0.012864691205322742,,,,,,,,,
1739302194.3651469,-0.09389482502927828,1.0307654686746686,-0.3586589454144529,-1.4704790517721846,1.512971304325967,1.2038733762165124,1.3601346529701683,5.700403109712405e-05,-0.00023121857012173026,-0.0007732459913091631,0.0002179807121790693,-0.00028744187956645216,0.0013335655140756272,-0.0013538774918415962,0.7410162091255188,-50.11502456665039,-6.214188575744629,16.83570098876953,1.5709329843521118,-1.2229111194610596,0.06596527993679047,,,,,,,,,
1739302194.3751838,-0.0938992458288854,1.0307671285462228,-0.35865968029044626,-1.4704828350937007,1.512973451434824,1.2038690013061282,1.3601401907790878,-0.0011067132775295745,-0.00027308649780300115,-0.0011228289636936728,-0.0018548187985752242,0.001690262630383163,-0.0005165243811380428,0.0011913778402200003,0.7925909161567688,-50.13882827758789,-6.214188575744629,16.88727569580078,1.5645242929458618,-1.2229111194610596,0.019273381680250168,,,,,,,,,
1739302194.3861732,-0.09389844339850964,1.0307687714049625,-0.3586527669481992,-1.4704828349842376,1.5129714075171343,1.2038734903949109,1.3601385716915442,0.0005337310691612053,-0.00045838607866501886,0.0007318664490386851,0.00013162639826067154,-0.0002644849728792412,0.0013387665791753747,1.4646543913631767e-05,0.7648199200630188,-50.19040298461914,-6.293534278869629,16.88727569580078,1.5709329843521118,-1.2302353382110596,0.03300629183650017,,,,,,,,,
1739302194.3971035,-0.09390042720705466,1.0307688605844285,-0.3586568656205916,-1.470482726186001,1.5129718483481915,1.2038708871068733,1.3601393242897934,-0.0010997538291897561,-0.0005588813587284053,-0.00035777704923777953,-0.0008542211652345374,-0.000529318679359888,-0.0003821823889396702,0.0007727919678634093,0.7925909161567688,-50.16659927368164,-6.241959571838379,16.88727569580078,1.5581156015396118,-1.2302353382110596,0.026597600430250168,,,,,,,,,
1739302194.4080718,-0.09389458541021667,1.0307669695987052,-0.3586594188058416,-1.4704820864779238,1.5129720443173336,1.2038698289075986,1.3601330471804118,0.000921117961236786,-0.0009333380297522208,-0.0007534587018064532,-0.0006154504970086452,-0.0006227854070325594,-0.0001759975695107703,-0.002024777394261492,0.7410162091255188,-50.13882827758789,-6.214188575744629,16.88727569580078,1.5645242929458618,-1.2302353382110596,0.07969819009304047,,,,,,,,,
1739302194.4181273,-0.09389709036949485,1.030763350042189,-0.35865870921146475,-1.4704827556077162,1.5129717607757167,1.2038690138786674,1.3601339255215033,-1.3355412878843314e-05,-0.001134169126143364,0.00027576226840522,-0.0007900678425569322,0.00035565462125487394,0.0002936653080473754,-0.0007639242037986213,0.7648199200630188,-50.11502456665039,-6.214188575744629,16.88727569580078,1.5709329843521118,-1.2229111194610596,0.07328949868679047,,,,,,,,,
1739302194.4281588,-0.09389613789612272,1.0307662178971504,-0.35865662940959214,-1.470482835091908,1.512971407571036,1.20386896155172,1.3601361860603671,0.00028597606780514265,-0.000984114430183338,-5.666602058490718e-06,-0.001482721447176474,0.0007862362201352391,-0.001318423910020745,-7.47455748297092e-05,0.7925909161567688,-50.13882827758789,-6.241959571838379,16.88727569580078,1.5709329843521118,-1.2229111194610596,0.05314789339900017,,,,,,,,,
1739302194.4381716,-0.09389806242036983,1.03076920299988,-0.3586626187475253,-1.4704799605748013,1.5129721695857836,1.2038705851081448,1.3601393205751402,-0.0007503371847259138,-0.0002525287832535398,-0.0013855322519025401,0.00010314617861031646,-0.0008928136575675504,-0.0005555466974764762,0.0009191988436243882,0.7925909161567688,-50.16659927368164,-6.190384864807129,16.85950469970703,1.5645242929458618,-1.2366440296173096,0.026597600430250168,,,,,,,,,
1739302194.4501107,-0.09389287579232136,1.0307662654642615,-0.35865768493422806,-1.4704825688710401,1.5129697820212498,1.2038707028457147,1.3601393428144344,0.0008999026304436951,0.0004502108456512086,-0.0004254428678971482,-0.0010212856060735427,-0.0002019663392020199,-0.0004998402398110052,0.0009234550278798004,0.7172124981880188,-50.16659927368164,-6.190384864807129,16.88727569580078,1.5846658945083618,-1.2366440296173096,0.026597600430250168,,,,,,,,,
1739302194.4602349,-0.09389458831438678,1.0307654601606326,-0.3586587091836022,-1.4704807549385082,1.5129729170319686,1.2038699317772998,1.3601361995226064,0.0012863712818261316,-0.0007529987781383137,0.0008282730995698515,0.00014423765622839028,0.00017696457691331638,-0.00045118691713197324,-0.0007954860649137476,0.7410162091255188,-50.11502456665039,-6.214188575744629,16.85950469970703,1.5581156015396118,-1.2302353382110596,0.05314789339900017,,,,,,,,,
1739302194.4711456,-0.09389701404680026,1.0307672439012165,-0.35865485548112835,-1.4704807551943802,1.5129723012501897,1.203868974633375,1.3601354283983211,0.00016027235916467347,-0.0005530927030989969,0.002133540833974298,-0.0002501349639076534,0.0007423788660843689,-0.0011953760297002797,-0.0003195997007660058,0.7648199200630188,-50.11502456665039,-6.265763282775879,16.85950469970703,1.5581156015396118,-1.2229111194610596,0.05955658480525017,,,,,,,,,
1739302194.4821033,-0.09389630084719629,1.0307668901574045,-0.3586566294097401,-1.4704800371042202,1.5129729228746838,1.2038730194446283,1.3601330516500825,-0.0005567868619793918,-0.0009475412223561204,-1.0757354740321975e-05,0.0005616784580074548,0.0009807461508456257,0.0006639632523431358,-0.0007910361225304902,0.7648199200630188,-50.13882827758789,-6.241959571838379,16.85950469970703,1.5581156015396118,-1.2302353382110596,0.07969819009304047,,,,,,,,,
1739302194.4921162,-0.09390001086467487,1.0307662455128055,-0.3586582367774482,-1.4704807552993442,1.5129713941560536,1.2038705894868142,1.3601420682513035,-0.0010603368757632166,0.00025374035056416084,-0.001462851923934296,-0.00010532209454565698,-0.0007945981059897892,-0.0009079116288228209,0.003077050313300444,0.8163946270942688,-50.13882827758789,-6.214188575744629,16.85950469970703,1.5709329843521118,-1.2366440296173096,0.0064559997990727425,,,,,,,,,
1739302194.5031304,-0.09389843267549917,1.0307671252704529,-0.3586527669400505,-1.4704820048980307,1.5129721652250572,1.2038713427682477,1.360133611101641,-0.0008456714670776798,-0.00083232892643524,0.001383445644212453,0.0010426817114351419,0.000252602286231343,0.0002607756615975663,-0.0022323238981184594,0.7648199200630188,-50.13882827758789,-6.293534278869629,16.88727569580078,1.5645242929458618,-1.2430527210235596,0.06596527993679047,,,,,,,,,
1739302194.5131593,-0.09389458845874891,1.030768956420746,-0.35865484673257286,-1.4704825966606154,1.5129714060751656,1.2038721004283015,1.3601386853139976,0.0005364218296362304,-0.001188171324216797,0.00047419744789977845,-5.9845293242863254e-05,-0.00022481301363507362,0.0007712029963846468,-0.0003127487310406903,0.7410162091255188,-50.13882827758789,-6.265763282775879,16.88727569580078,1.5709329843521118,-1.2494614124298096,0.05955658480525017,,,,,,,,,
1739302194.5241532,-0.09389632714210708,1.0307706809428931,-0.3586604918764666,-1.4704806492292233,1.5129721249981214,1.2038713821755853,1.3601393075667545,0.0004349132530156592,0.0017038252709959704,-0.0004913382741712828,-0.000403237262204733,0.000513583198240065,5.1974041560919244e-05,0.0013016598674249723,0.7648199200630188,-50.19040298461914,-6.190384864807129,16.85950469970703,1.5645242929458618,-1.2430527210235596,0.026597600430250168,,,,,,,,,
1739302194.534199,-0.0938945883148323,1.0307729164176487,-0.3586604918764666,-1.470478972624583,1.5129774989484268,1.203870585108812,1.3601375078272613,0.0002769400184259041,0.0019180611618712542,-0.0013895021004526236,0.0004128368174611231,0.0014202180129000669,-0.0010142028743414053,0.0003072214729623844,0.7410162091255188,-50.21817398071289,-6.190384864807129,16.83570098876953,1.5517069101333618,-1.2366440296173096,0.0064559997990727425,,,,,,,,,
1739302194.544212,-0.09389606494889596,1.0307689400694084,-0.35865773597346357,-1.47048437946071,1.512972166743348,1.2038698279325832,1.3601393248646918,5.623309332450497e-05,0.0009897918413673012,-0.0003670897755950146,-0.0009985993793306665,0.0003654936231173129,0.00014586986868003068,0.00030294568166402334,0.7648199200630188,-50.16659927368164,-6.190384864807129,16.91107940673828,1.5645242929458618,-1.2302353382110596,0.026597600430250168,,,,,,,,,
1739302194.555106,-0.09389829888289866,1.0307670333733723,-0.35865777341246785,-1.4704828261525746,1.5129721652251413,1.2038721797110812,1.3601354283982448,-0.0004259252858231158,-0.00033371352279163596,0.0002972514062159351,-0.000648857489959115,0.0002087499150680782,-0.0005936965057142498,-0.0005397508174764092,0.7925909161567688,-50.16659927368164,-6.214188575744629,16.88727569580078,1.5645242929458618,-1.2229111194610596,0.05955658480525017,,,,,,,,,
1739302194.5651166,-0.0938945970833847,1.03076824341866,-0.35866049196862576,-1.4704789637959101,1.5129680284967977,1.2038746394746809,1.3601354283982452,0.0006042057282872338,-0.00013350056487561627,-0.0022768567549114856,0.00026450710816581754,-0.00012559609150734763,0.0019020736228241323,-0.0002499649659305388,0.7410162091255188,-50.16659927368164,-6.190384864807129,16.83570098876953,1.5709329843521118,-1.2430527210235596,0.05955658480525017,,,,,,,,,
1739302194.5770733,-0.09389632714215577,1.0307647771848765,-0.3586604918764671,-1.4704806892896534,1.512971682316478,1.2038713427868333,1.3601369417264997,0.0005598933666122324,-0.0019598203668199734,-0.0018233656318062392,-0.0006567244924235182,-0.000890613762346834,0.00011958309663185598,-0.0005331444834315126,0.7648199200630188,-50.11502456665039,-6.190384864807129,16.88727569580078,1.5645242929458618,-1.2430527210235596,0.04673920199275017,,,,,,,,,
1739302194.5871286,-0.09389671918058602,1.0307633827594642,-0.3586576812645689,-1.470480752347846,1.5129706492400772,1.203871649106925,1.3601388147396434,0.0004249277191094535,-0.0019746733110257274,0.0007167532269305207,-0.001030170174151924,-0.0005117850600298882,0.0007110132710633866,-0.0005500752281780771,0.7410162091255188,-50.08725357055664,-6.265763282775879,16.85950469970703,1.5773416757583618,-1.2366440296173096,0.026597600430250168,,,,,,,,,
1739302194.5971544,-0.0939001934671085,1.0307632099704906,-0.3586563942186571,-1.4704843793516438,1.5129706492427921,1.2038718529823784,1.3601357904326326,-0.0006569217380961152,-0.0008898633684700547,0.00072960509527605,-0.001556501658477447,-0.002036139316702827,0.0013906618605073636,-0.00010465137195005139,0.7925909161567688,-50.11502456665039,-6.241959571838379,16.91107940673828,1.5773416757583618,-1.2430527210235596,0.05955658480525017,,,,,,,,,
1739302194.6081476,-0.09389654055309797,1.0307726681529226,-0.358654960459812,-1.4704778913329724,1.5129672200321396,1.2038718148202934,1.360133006504044,0.0005368936734234209,0.0006234535773368961,7.825158192266711e-05,0.00013281112582661707,-0.0008522754969959557,0.0013546259238176271,-0.0012771925048185857,0.7648199200630188,-50.21817398071289,-6.265763282775879,16.85950469970703,1.5709329843521118,-1.2366440296173096,0.05314789339900017,,,,,,,,,
1739302194.6181834,-0.09389701209948767,1.0307664927620952,-0.3586604889609234,-1.4704804479478564,1.51297211156549,1.2038705851150864,1.3601361865370043,6.926530882883565e-05,0.0004445225209600547,-0.0014399812633243945,-0.00025814539956436504,-0.000627897456111785,-0.0008724134659620739,-0.00038361214601414487,0.7648199200630188,-50.13882827758789,-6.190384864807129,16.88727569580078,1.5645242929458618,-1.2366440296173096,0.05314789339900017,,,,,,,,,
1739302194.6291883,-0.09389633894637538,1.0307691941822925,-0.35866153239070686,-1.4704807553626005,1.5129737982825566,1.2038705851081448,1.360133933106147,0.0003471059196190778,0.0002973711385860856,-0.0011663873956293152,0.0011148581641671634,-0.000591924802990023,-0.000552812033237917,-0.0027243014612670655,0.7648199200630188,-50.16659927368164,-6.214188575744629,16.85950469970703,1.5517069101333618,-1.2366440296173096,0.03941498324275017,,,,,,,,,
1739302194.6400995,-0.0938982988844454,1.030766254344851,-0.35865485549706544,-1.4704827199720747,1.5129721652257975,1.2038705851081448,1.3601409426569075,-0.00027668037888140917,0.00034634884779752957,0.0009073481612690611,-0.0009531437442417755,-0.00034414570841758844,-5.1473204464344964e-05,0.0003876105452956032,0.7925909161567688,-50.13882827758789,-6.265763282775879,16.88727569580078,1.5645242929458618,-1.2366440296173096,0.012864691205322742,,,,,,,,,
1739302194.6501393,-0.09390043873579731,1.0307662451714006,-0.35865662066118487,-1.470476236164078,1.5129681490122635,1.203868974632786,1.3601363072358634,-0.0012006803840828347,-0.0002028434792536119,-0.00020305013263400754,0.0018903544034048398,-0.0007518567903603314,-0.000696940894969477,0.0008496588102313768,0.7925909161567688,-50.13882827758789,-6.241959571838379,16.81189727783203,1.5709329843521118,-1.2229111194610596,0.05314789339900017,,,,,,,,,
1739302194.6611085,-0.09389530002252024,1.0307709184753828,-0.3586580005663991,-1.470480728807061,1.51297140754666,1.2038713471289477,1.3601369350004762,0.0018569342697614382,0.001158021888374964,-5.658627317478641e-05,0.0006330244269281642,0.00034654329701834876,-8.683404005234446e-05,-0.0012653737476673648,0.7410162091255188,-50.19040298461914,-6.214188575744629,16.85950469970703,1.5709329843521118,-1.2430527210235596,0.04673920199275017,,,,,,,,,
1739302194.6711411,-0.09389633984459247,1.0307729075913534,-0.3586565901671,-1.4704767473849616,1.5129706891508319,1.203868962035572,1.3601378096151913,0.0006222539363668599,0.002157610629411555,0.001007677773034778,0.0005792919054419619,0.00025876621530663787,-0.0009833608726574415,8.543524700080944e-05,0.7648199200630188,-50.21817398071289,-6.241959571838379,16.83570098876953,1.5773416757583618,-1.2229111194610596,0.03941498324275017,,,,,,,,,
1739302194.6821551,-0.09389482511344112,1.0307687727135897,-0.358658650757876,-1.4704806405050805,1.512971164919304,1.2038699850954613,1.3601379120849517,0.0003668505763051318,0.0004991796318896748,0.0007597888886768104,0.0005845396163383857,0.0009223444304868248,6.851011645318971e-05,-0.0010204286638704609,0.7410162091255188,-50.19040298461914,-6.241959571838379,16.85950469970703,1.5452982187271118,-1.2302353382110596,0.026597600430250168,,,,,,,,,
1739302194.6931856,-0.0938945912413957,1.0307672050394558,-0.35865484676680465,-1.4704825844629086,1.5129697883129611,1.2038705894714652,1.3601330071200086,0.0007686967597161015,0.00027675751177506523,0.00046846103834452936,-0.00018581649049340988,-0.0007646069564342648,-0.0005667431639858316,-0.0003948280875613079,0.7410162091255188,-50.13882827758789,-6.265763282775879,16.88727569580078,1.5846658945083618,-1.2366440296173096,0.05314789339900017,,,,,,,,,
1739302194.7051473,-0.09389857353785414,1.030767181528275,-0.35865487297823956,-1.4704807553029269,1.5129728022042102,1.203871383952155,1.3601401340683184,-0.0013177713918988275,-0.0006283039530542711,0.0008502943925922681,-0.00038444253156739663,0.0005842192753863331,-2.0607388867163392e-05,0.0002444305537067186,0.7925909161567688,-50.13882827758789,-6.265763282775879,16.85950469970703,1.5581156015396118,-1.2430527210235596,-0.020094294100999832,,,,,,,,,
1739302194.7161365,-0.09389843180994493,1.030772886987229,-0.35866017822459867,-1.4704821184081922,1.5129732248630352,1.2038713447063676,1.3601393249269265,0.0004820422513574591,0.0016900179304415864,8.230083699849037e-05,-0.0005694058947618035,0.0005071741833302941,-0.00020813582995936206,0.0013293968991841742,0.7648199200630188,-50.21817398071289,-6.190384864807129,16.88727569580078,1.5645242929458618,-1.2430527210235596,0.026597600430250168,,,,,,,,,
1739302194.7261457,-0.09389290213673213,1.0307699032276416,-0.3586566294042802,-1.470482826250799,1.5129706499229212,1.2038698424681185,1.3601366689724426,0.0019401882442872376,0.0016669104896434085,3.604162558474921e-05,-0.00044224239313736947,-0.0016343323149172846,-0.00021987981086222608,0.0021771181427842484,0.7172124981880188,-50.16659927368164,-6.241959571838379,16.88727569580078,1.5773416757583618,-1.2302353382110596,0.026597600430250168,,,,,,,,,
1739302194.736151,-0.09389830007552769,1.0307650328294378,-0.3586587079033651,-1.4704864004471423,1.5129714055785362,1.2038698274483208,1.360135873026901,6.703706777356859e-05,-0.000964085674807609,-0.00028473567928362196,-0.0027965623757360636,0.0004736836294878809,-0.001058055448695768,0.0014429599480782482,0.7925909161567688,-50.13882827758789,-6.214188575744629,16.93488311767578,1.5709329843521118,-1.2302353382110596,0.03300629183650017,,,,,,,,,
1739302194.746156,-0.09389630094339921,1.0307675787467259,-0.35865484673255094,-1.470480371325587,1.5129703214359382,1.2038710560584245,1.3601322494382297,0.000743490519201223,-0.00015995535033637713,0.0009263306508518768,0.0007406332606038228,8.623708083562614e-05,0.0011219164228237094,-0.0005131955969444075,0.7648199200630188,-50.13882827758789,-6.265763282775879,16.88727569580078,1.5709329843521118,-1.2366440296173096,0.05955658480525017,,,,,,,,,
1739302194.7561798,-0.09390003760369235,1.0307684805721153,-0.35865875530858893,-1.4704828350515298,1.5129716356339704,1.203869827456042,1.3601354283444091,-0.0012943834547427039,0.00114383663090275,-0.0012323344232569463,-0.0005869752967814792,-0.0011537249760439849,0.00019155843204023102,-0.00031128156577123287,0.8163946270942688,-50.16659927368164,-6.241959571838379,16.88727569580078,1.5645242929458618,-1.2302353382110596,0.05955658480525017,,,,,,,,,
1739302194.767115,-0.09389935105565075,1.0307705312143003,-0.3586602566495294,-1.4704786194136692,1.512968425612843,1.203869831808717,1.3601378081620836,-0.00018517766716121198,0.0010097213775096421,-0.001305964683042048,0.0010371330006478728,-0.001313691617844768,-0.0006504200462217435,5.779557317579315e-05,0.7925909161567688,-50.21817398071289,-6.190384864807129,16.83570098876953,1.5974832773208618,-1.2302353382110596,0.03941498324275017,,,,,,,,,
1739302194.7771237,-0.09389914200767273,1.030770872653293,-0.3586587189160812,-1.4704804020847069,1.5129704918703832,1.2038705851082185,1.3601369437183772,0.0004347933046426665,0.0025250984479098055,-0.0014007451213115527,0.001449445922177699,-0.001465026715177141,-0.00031812479575527193,0.0005803243206451874,0.7648199200630188,-50.21817398071289,-6.214188575744629,16.85950469970703,1.5773416757583618,-1.2366440296173096,0.04673920199275017,,,,,,,,,
1739302194.7871256,-0.09389914247100463,1.0307692049443293,-0.3586505360612184,-1.4704807543162703,1.5129696636514205,1.2038724024063525,1.3601378096156342,0.0006773201725302463,0.0005930014334152121,0.002899934991668512,0.000131902401709124,0.0006107742140075828,0.0008331975565788354,0.0008988433250377253,0.7648199200630188,-50.16659927368164,-6.293534278869629,16.85950469970703,1.5581156015396118,-1.2430527210235596,0.03941498324275017,,,,,,,,,
1739302194.797171,-0.09389901203577666,1.0307671962454596,-0.358658945372667,-1.4704789726263625,1.5129729049513478,1.2038698274660116,1.3601452930093219,-0.00027726595697587805,0.0009198430916288431,-0.0006048039838179044,0.0004920885347332261,0.0011875437293405997,-0.00121100180797692,0.0020608506280080123,0.7925909161567688,-50.13882827758789,-6.214188575744629,16.83570098876953,1.5581156015396118,-1.2302353382110596,0.012864691205322742,,,,,,,,,
1739302194.8081448,-0.09390004637671298,1.0307649817979494,-0.35865413518472194,-1.4704828321498147,1.5129673915176272,1.2038713427682233,1.3601393249603158,-0.0011824662884946722,0.00020022666676164177,0.0015516299091410056,-0.000960786288079505,-0.0011593080478577295,-0.00038423443959673126,0.000930906838039858,0.8163946270942688,-50.13882827758789,-6.265763282775879,16.88727569580078,1.5773416757583618,-1.2430527210235596,0.026597600430250168,,,,,,,,,
1739302194.818166,-0.0938984671025248,1.0307708359178018,-0.35865663036960355,-1.4704799592665563,1.5129722822453486,1.2038714605057932,1.3601326939677063,-0.0005102700726269062,0.0012257936589825961,9.322096098944783e-05,0.0007122777181387306,0.0009189446150053111,-0.0004709150762028563,-0.000762526948318621,0.7648199200630188,-50.19040298461914,-6.241959571838379,16.85950469970703,1.5645242929458618,-1.2430527210235596,0.07969819009304047,,,,,,,,,
1739302194.828205,-0.09389458878410957,1.0307654598487848,-0.3586567081466081,-1.4704785742014346,1.5129714030973693,1.2038698274500603,1.3601346707317445,0.0011929132414642883,-0.0003865232161514801,0.0014308675411693291,-0.00011598508719358789,-0.0005896452333806849,-0.00011196873100696625,-0.000617325726331352,0.7410162091255188,-50.11502456665039,-6.241959571838379,16.85950469970703,1.5709329843521118,-1.2302353382110596,0.06596527993679047,,,,,,,,,
1739302194.8391223,-0.09389829975030659,1.030767168773176,-0.3586566294100364,-1.4704771624286093,1.5129730391328668,1.203871695980933,1.3601378096156342,-0.001325042454401902,-0.0005872819077604985,0.0006351499953738978,0.0016373732924234335,-0.0008194836117965338,-0.00024961195074127364,0.00037832752487433483,0.7925909161567688,-50.13882827758789,-6.241959571838379,16.81189727783203,1.5581156015396118,-1.2430527210235596,0.03941498324275017,,,,,,,,,
1739302194.8501084,-0.0938973630257516,1.0307650493878808,-0.35865662944559423,-1.470478972480869,1.512972165225789,1.2038721004302952,1.360139324935791,-0.0003386542442652617,-0.001080233190743933,-6.351491088644838e-05,2.8119317340451612e-05,-0.00036565156789104185,8.876304439175465e-05,-0.0005577026088717566,0.7925909161567688,-50.13882827758789,-6.241959571838379,16.83570098876953,1.5645242929458618,-1.2494614124298096,0.026597600430250168,,,,,,,,,
1739302194.8610814,-0.09389832511376339,1.0307691957730498,-0.3586555816112387,-1.4704800387031263,1.5129713804200038,1.2038705851081448,1.360139365162794,-0.0010153313623782773,0.0008424030079754582,0.0013090507698724262,0.0010844086010250741,-0.0001544045423117628,-0.0004237707922438656,0.0006333865201554351,0.7925909161567688,-50.16659927368164,-6.265763282775879,16.85950469970703,1.5709329843521118,-1.2366440296173096,0.026597600430250168,,,,,,,,,
1739302194.871094,-0.093901149999258,1.0307647714122752,-0.3586566294220372,-1.4704796943449383,1.512971405578076,1.2038737640225328,1.360139131195575,-0.0010042475903108158,-0.00031845424886126083,0.0007037365667308178,0.0019638814363140264,-0.0005763562390786063,0.0003809487383325576,0.0002206171650939919,0.7925909161567688,-50.11502456665039,-6.241959571838379,16.85950469970703,1.5709329843521118,-1.2366440296173096,0.019273381680250168,,,,,,,,,
1739302194.8811862,-0.09389832523950425,1.0307671962332146,-0.35866332640846277,-1.4704827997540155,1.5129721518160981,1.2038689616046692,1.3601370119006901,-0.0013475686008114784,0.0006115108039342759,-0.0004066613617761333,-0.0013826324251770882,0.0008532059187658031,-0.0008863650915820213,0.00014076982343334224,0.7925909161567688,-50.13882827758789,-6.190384864807129,16.88727569580078,1.5645242929458618,-1.2229111194610596,0.019273381680250168,,,,,,,,,
1739302194.8921504,-0.0938975346972236,1.0307689641619373,-0.358654503526596,-1.470478863682589,1.5129721518160562,1.2038709383208548,1.360135410937697,0.0005072279511907922,0.0014063697272625973,0.0011337426358991917,0.0011497400752729012,0.0005767530882854939,0.0003070833024247836,-0.000662992550472696,0.7410162091255188,-50.16659927368164,-6.241959571838379,16.83570098876953,1.5645242929458618,-1.2366440296173096,0.05955658480525017,,,,,,,,,
1739302194.902183,-0.0939004335892506,1.0307669662170558,-0.35865662937358994,-1.47048074254665,1.5129721652249057,1.2038752808022213,1.3601361860580277,-0.00046592458305616427,0.0006048834549780285,0.0004624710350061773,0.0015955624851208287,-0.0007951477365384357,0.0008797436571483595,-0.0013432021147603986,0.7925909161567688,-50.13882827758789,-6.241959571838379,16.85950469970703,1.5645242929458618,-1.2494614124298096,0.05314789339900017,,,,,,,,,
1739302194.9131596,-0.09389634014526267,1.0307671275638628,-0.35865650456345044,-1.4704843764081827,1.5129736851697326,1.2038737640404862,1.3601409484929916,0.0004505379653556177,-0.0003379729005340857,-0.0002430354049618522,-0.001387024026617657,0.0003827880470265388,-6.971617021538177e-05,0.0013359107379090074,0.7648199200630188,-50.13882827758789,-6.214188575744629,16.91107940673828,1.5517069101333618,-1.2366440296173096,0.012864691205322742,,,,,,,,,
1739302194.9240792,-0.09389295568917524,1.0307690885369991,-0.3586633535777434,-1.4704789721889517,1.5129721249981558,1.2038705851799252,1.3601385478950427,0.00020796617589038436,0.0008768433989564863,-0.0006484409438538097,-0.0006498962282472097,-0.00023113148449631295,-0.0002879517612615759,-0.0004172142298885209,0.7172124981880188,-50.16659927368164,-6.190384864807129,16.83570098876953,1.5645242929458618,-1.2366440296173096,0.03300629183650017,,,,,,,,,
1739302194.934099,-0.09390024806094979,1.0307693560735003,-0.3586604919249297,-1.470480728485389,1.5129714075643734,1.203870585108146,1.3601338048401659,-0.0009409542997354356,-0.00018168809913041766,0.00019879833206797308,-0.00047060368381062433,0.00020532117242336428,-0.0011092124121687677,-0.0002877017064242507,0.8163946270942688,-50.16659927368164,-6.190384864807129,16.85950469970703,1.5709329843521118,-1.2366440296173096,0.07328949868679047,,,,,,,,,
1739302194.944159,-0.09389482508129095,1.030766015165468,-0.35865662843753104,-1.4704805316015614,1.512972165225133,1.2038705851081448,1.3601352932180724,0.0004704905040016926,-0.0005808951858570255,-0.0005010645436776905,-0.000289246636028624,0.00023876635758693333,-0.000582513165155621,-0.0006144031529448449,0.7410162091255188,-50.16659927368164,-6.241959571838379,16.85950469970703,1.5645242929458618,-1.2366440296173096,0.05955658480525017,,,,,,,,,
1739302194.954178,-0.09389837780920476,1.030765505801012,-0.3586587890164995,-1.470477813495606,1.5129706499049762,1.2038705851081448,1.3601297713452882,-0.0011824291467887674,0.0005065063230253048,7.260789587392046e-05,0.00044581490109229415,-0.0006694973915999589,-0.0005651269239474223,-0.0014461280326461957,0.7925909161567688,-50.11502456665039,-6.214188575744629,16.85950469970703,1.5773416757583618,-1.2366440296173096,0.07328949868679047,,,,,,,,,
1739302194.965088,-0.09390001129714838,1.0307654158803463,-0.35865870919989806,-1.4704758692436588,1.512970529223967,1.2038698274480666,1.360137809592865,-0.00085342161578615,-0.0006634554709777697,-0.0013068221510609108,0.0019452114291682633,-0.0002028188713885394,7.809739873965269e-05,-0.0004600564484719679,0.8163946270942688,-50.11502456665039,-6.214188575744629,16.83570098876953,1.5773416757583618,-1.2302353382110596,0.03941498324275017,,,,,,,,,
1739302194.9751475,-0.09390137669359987,1.0307670205096053,-0.3586548467325729,-1.4704828085497446,1.5129714073974676,1.2038698274480666,1.3601361855738061,-0.001531338622578856,-9.277437001033352e-05,0.0007815422300294771,-0.00046377483683140725,0.0015422501775298639,-9.686359942395624e-05,-0.00032947847666628415,0.7925909161567688,-50.16659927368164,-6.265763282775879,16.88727569580078,1.5709329843521118,-1.2302353382110596,0.05314789339900017,,,,,,,,,
1739302194.986148,-0.09389864074819133,1.030763349718954,-0.35865873548111643,-1.4704806627986,1.5129718785153334,1.203869827609572,1.3601425740368183,-0.0005247952067582673,-0.0005465828521123772,-0.0010593792342409945,1.41805691728932e-05,0.0002965863961472336,-0.0007287270695500617,0.0018620811139555367,0.7925909161567688,-50.11502456665039,-6.214188575744629,16.88727569580078,1.5709329843521118,-1.2302353382110596,-0.0008682189509272575,,,,,,,,,
1739302194.9971366,-0.09389829877790148,1.0307672070259746,-0.35865870919959586,-1.4704749382060727,1.5129706499076345,1.203873160712454,1.360136145967579,0.00023710511709665392,0.0008037767515943776,-0.0006534534617505371,0.0011992708060840746,-0.00024241292028135032,0.00046680497570700133,-0.0011431442077951873,0.7925909161567688,-50.13882827758789,-6.214188575744629,16.81189727783203,1.5773416757583618,-1.2494614124298096,0.026597600430250168,,,,,,,,,
1739302195.0080667,-0.09389806353930429,1.030766410347192,-0.35865886699746785,-1.4704780189393518,1.512970321435972,1.2038713427742085,1.3601351264022485,2.3301248020618026e-05,-0.00035430374493920785,-0.0010332167656997664,0.0010146913601507546,-0.0022242322180531966,0.0001181527206615191,-0.0008833513514883325,0.7925909161567688,-50.13882827758789,-6.214188575744629,16.83570098876953,1.5709329843521118,-1.2430527210235596,0.05314789339900017,,,,,,,,,
1739302195.0181358,-0.09389829974632019,1.0307672080057253,-0.35865484381906004,-1.470478219089781,1.5129677871163856,1.2038707028457147,1.3601338028844816,0.00047487521671682063,-0.0001822688813361452,0.0018422418153703156,0.0009142604960937149,-0.0005978839863906905,-0.00031969166697375356,-0.00223269415709485,0.7925909161567688,-50.13882827758789,-6.265763282775879,16.83570098876953,1.5709329843521118,-1.2366440296173096,0.07328949868679047,,,,,,,,,
1739302195.0281484,-0.09389937875276323,1.0307672080192336,-0.3586605709374377,-1.4704782563107155,1.5129706496781203,1.2038707551755174,1.3601323431563082,-0.0012392587545076502,0.00010311426741850749,-0.0001289615607324882,-8.206705299413141e-05,-0.0009637406431039111,0.0010463930301725709,-0.0022648750273656444,0.7648199200630188,-50.13882827758789,-6.190384864807129,16.85950469970703,1.5773416757583618,-1.2366440296173096,0.08610688149929047,,,,,,,,,
1739302195.038176,-0.09389466837006855,1.030768928949749,-0.35865450351193384,-1.4704742139809432,1.5129706499049722,1.2038705851110247,1.3601354283991534,0.0012793565084447066,-7.213460144152967e-05,0.0011797033910214648,0.0018564798500493758,0.0006115381916915012,-0.0002929143939348945,-0.0016892091052345955,0.7410162091255188,-50.16659927368164,-6.241959571838379,16.81189727783203,1.5773416757583618,-1.2366440296173096,0.05955658480525017,,,,,,,,,
1739302195.0491776,-0.09389832519167045,1.0307692059585234,-0.35865662936158893,-1.470477882453554,1.512971045356484,1.2038698289016168,1.3601346709032696,-0.00044271125165656823,0.001271654599389647,-0.0002535451475100284,0.0007352005847047834,-0.0001047628910805338,-0.0008664917687973225,-6.652071471364865e-05,0.7925909161567688,-50.16659927368164,-6.241959571838379,16.85950469970703,1.5709329843521118,-1.2302353382110596,0.06596527993679047,,,,,,,,,
1739302195.060065,-0.09389937875289592,1.0307709184808183,-0.358660413463487,-1.4704789722467744,1.5129699592253567,1.2038706243540096,1.3601401908330242,-3.1038321201949746e-06,0.001471445759914042,-0.00019194822653871327,-0.0005626990001104163,-0.0021144898432168885,-0.0005790870945161666,0.0009715201183048558,0.7648199200630188,-50.19040298461914,-6.190384864807129,16.83570098876953,1.5709329843521118,-1.2366440296173096,0.019273381680250168,,,,,,,,,
1739302195.0701869,-0.09389924620445157,1.030767181201232,-0.3586565506712641,-1.4704779309759277,1.5129729094516824,1.2038712402995702,1.360134015547406,-0.00028488981265066283,0.00033884139436182324,-5.892008005327465e-05,0.0005316785477300717,-0.0004931978764578188,2.7158514537321983e-05,-0.002712415454288158,0.7925909161567688,-50.13882827758789,-6.241959571838379,16.83570098876953,1.5581156015396118,-1.2302353382110596,0.05955658480525017,,,,,,,,,
1739302195.0811949,-0.09390072159073407,1.0307668871842044,-0.3586587121151882,-1.4704817900574243,1.5129697705986669,1.2038721005977826,1.360140151579191,-0.0008103485453641215,-0.0010386819478009823,-0.0002639400700830301,-0.000853302865391351,-0.0013093478445949575,0.00027387168840028385,0.00026912830141789844,0.8163946270942688,-50.13882827758789,-6.214188575744629,16.88727569580078,1.5846658945083618,-1.2494614124298096,0.019273381680250168,715,708,735,43.780,0,0
1739302195.0921743,-0.09389630379821272,1.0307687638814775,-0.3586552121436104,-1.4704830636581308,1.5129706499049005,1.2038721004283024,1.3601378096154126,0.0010559968008380838,0.0007857192650369497,0.001053407379350405,-0.001590333500608156,-0.00019479899140370738,1.3711269906791597e-06,0.0008755624431470056,0.7648199200630188,-50.19040298461914,-6.241959571838379,16.88727569580078,1.5773416757583618,-1.2494614124298096,0.03941498324275017,715,706,734,43.889,0,0
1739302195.1031914,-0.09389287593801794,1.0307647440213716,-0.3586586767075977,-1.4704800397219027,1.5129695681365443,1.2038713473442146,1.3601323919896549,0.0012134447251929642,-0.0010912983754221195,-0.00025296499901587474,-0.0006803013843920728,0.00015310029994300292,0.00014853521592314396,-0.0024506404263258995,0.7172124981880188,-50.13882827758789,-6.241959571838379,16.85950469970703,1.5773416757583618,-1.2430527210235596,0.07328949868679047,715,708,736,43.672,0,0
1739302195.114186,-0.0939014034336258,1.0307691007818176,-0.3586563931381448,-1.4704806637256935,1.512971407558948,1.2038698276095978,1.36013304717244,-0.0005805523422672564,0.0016802875961121988,0.001504731284256528,-0.0009025399357506737,-0.0009079075162220967,-0.0009675806208795598,-0.001152665120975949,0.7925909161567688,-50.16659927368164,-6.241959571838379,16.85950469970703,1.5709329843521118,-1.2302353382110596,0.07969819009304047,714,709,734,43.780,0,0
1739302195.125154,-0.09389556169047905,1.030765495497909,-0.35866050062368837,-1.4704767876127938,1.5129680285506328,1.2038705851081457,1.3601337376924474,0.001673635756196245,-0.0005915380557790011,-0.00015036560513470234,0.00037407040206290424,-0.0004928100598466721,-0.0004887546652267278,-0.001314326218304383,0.7410162091255188,-50.11502456665039,-6.190384864807129,16.83570098876953,1.5709329843521118,-1.2366440296173096,0.08610688149929047,714,707,735,43.780,0,0
1739302195.136107,-0.0938987767648554,1.0307671991525775,-0.3586566282215659,-1.4704785787449255,1.5129729228661366,1.2038705851081448,1.3601396534129702,0.0009790490497781715,0.0005341713920453207,0.0004841709741715831,0.0002013962871311516,-6.050289571659436e-05,-0.00033784122190453773,0.0003935204156448376,0.7648199200630188,-50.13882827758789,-6.241959571838379,16.85950469970703,1.5581156015396118,-1.2366440296173096,0.03300629183650017,713,707,734,43.780,1,0
1739302195.1481135,-0.09390043066641776,1.030768481873982,-0.3586587091994408,-1.47048057114012,1.5129713382550969,1.2038705981900968,1.360136749983636,0.0004722687788608269,0.0013764408521100577,-0.000416859809161378,-0.0003038884357008578,0.0020666454609353188,-0.00046080582603136446,-0.001904372882504608,0.7925909161567688,-50.16659927368164,-6.214188575744629,16.88727569580078,1.5452982187271118,-1.2366440296173096,0.03941498324275017,714,707,735,43.780,0,0
1739302195.1581385,-0.09389825654115155,1.0307671717127291,-0.358656629409592,-1.4704807198239924,1.5129725084215062,1.2038705851082185,1.3601322895143557,-0.0005111807140194672,-0.0002481504021773266,0.0005265265774323166,-0.001173409574447317,-0.0015651480203815891,-0.00012182541975927578,-0.0010816179308566919,0.7410162091255188,-50.13882827758789,-6.241959571838379,16.85950469970703,1.5581156015396118,-1.2366440296173096,0.08610688149929047,716,708,734,43.672,0,0
1739302195.1691098,-0.09390035366912117,1.0307700936632276,-0.35866057061346646,-1.4704796168237928,1.512969725899733,1.2038698274480666,1.3601330466958987,0.00066344464660941,4.470637470149123e-05,-0.00044994165644334454,0.0005414451621634305,-0.0007309483106205607,-0.0008554968253093634,-0.0005488860223738786,0.8163946270942688,-50.21817398071289,-6.190384864807129,16.88727569580078,1.5846658945083618,-1.2302353382110596,0.07969819009304047,714,706,735,43.672,1,0
1739302195.1801884,-0.09389630505915993,1.0307653852671208,-0.35865870909188513,-1.47047762495576,1.5129707140062139,1.2038727556190623,1.360140948492989,0.0012318270055648253,-0.0008249986045863784,8.274064512401409e-05,0.0016387664764089048,-0.002377814941096116,-0.00020723528176045227,0.0021536489510610205,0.7648199200630188,-50.11502456665039,-6.214188575744629,16.85950469970703,1.5773416757583618,-1.2430527210235596,0.012864691205322742,713,706,735,43.672,1,0
1739302195.191156,-0.0938987854922942,1.0307688867598308,-0.358660491876466,-1.4704760850584673,1.512972922885573,1.2038698667018988,1.3601378123127774,-0.0008317326231433157,6.500239599562408e-05,-0.001114009794727699,0.0004015016655852059,0.000985793577979678,-0.000530518564000326,-0.000675305429239477,0.7648199200630188,-50.16659927368164,-6.190384864807129,16.83570098876953,1.5581156015396118,-1.2302353382110596,0.03941498324275017,714,707,735,43.780,0,0
1739302195.2011702,-0.09389665293615014,1.0307671815228752,-0.358656629409592,-1.4704739979041188,1.5129701354482432,1.2038713427688879,1.360139049999795,0.0005363123248400232,-0.0006103832996719962,0.0008529759792282053,0.0015375074268129806,0.0006838271367781614,0.0002275942926774236,0.0014001686509028293,0.7648199200630188,-50.13882827758789,-6.241959571838379,16.81189727783203,1.5581156015396118,-1.2430527210235596,0.03300629183650017,714,707,736,43.780,0,0
1739302195.2121549,-0.09389483680735013,1.0307692030164983,-0.35865870876742006,-1.4704798578046046,1.5129726768039031,1.2038713427682233,1.3601401908357482,0.0017501533874408272,0.0004759481986848891,-0.0003880475358634192,0.000724189121403873,0.0008073290073549696,-0.0006248011035211691,0.001619052426989681,0.7410162091255188,-50.16659927368164,-6.214188575744629,16.88727569580078,1.5645242929458618,-1.2430527210235596,0.019273381680250168,714,707,736,43.889,1,0
1739302195.223178,-0.09390072191156619,1.0307633487501278,-0.3586574527458723,-1.4704796547085086,1.5129723821036922,1.2038698274480666,1.360139324935791,0.0005846291148044942,-0.0020141463183966308,-0.0003998059629522195,-6.99580586043647e-05,0.00041454974875763234,-0.000499540249655929,0.00020533061910667352,0.8163946270942688,-50.11502456665039,-6.241959571838379,16.88727569580078,1.5773416757583618,-1.2302353382110596,0.026597600430250168,715,707,734,43.780,1,0
1739302195.2341602,-0.09389949578496537,1.03076920591163,-0.35865869753935453,-1.4704786418167286,1.5129714076286682,1.203871344383279,1.3601409315470183,-0.001205683066190046,0.0007832796528203785,0.0004348566488857029,0.0018025772165088975,-0.0007171003491382132,-0.00011592059125871388,-0.00020530616838507632,0.7648199200630188,-50.16659927368164,-6.214188575744629,16.83570098876953,1.5709329843521118,-1.2430527210235596,0.012864691205322742,714,709,735,43.672,0,0
1739302195.2441742,-0.09390141474668968,1.0307680564767219,-0.3586549147766963,-1.4704759924430464,1.5129729228852122,1.203870585108172,1.3601409484927045,-0.0003383615419494466,0.00015835512486488102,0.0006735500262159834,0.0003510276057240939,0.00022510611165089077,0.00023430028664827768,-0.00017064710653490298,0.7925909161567688,-50.19040298461914,-6.265763282775879,16.83570098876953,1.5581156015396118,-1.2366440296173096,0.012864691205322742,713,708,736,43.780,1,0
1739302195.2551177,-0.09389634029514694,1.0307691709375961,-0.35865871794838716,-1.4704776162358026,1.5129695438169544,1.20387134325274,1.3601376918780643,-0.00012936502421276945,-0.0009736361847816873,-0.0013082823891947665,0.001386786558435579,-0.000970962262420644,8.645404467649514e-05,-0.0008328071467193663,0.7648199200630188,-50.16659927368164,-6.214188575744629,16.85950469970703,1.5581156015396118,-1.2430527210235596,0.03941498324275017,714,705,734,43.672,2,0
1739302195.2651386,-0.09389927213520567,1.03076334090038,-0.35865276726688605,-1.4704775459203112,1.5129706364387503,1.2038721062425106,1.360136943716408,0.0005512240708098622,-0.0010069043590313822,0.000416303741011324,-3.3247851172889416e-05,0.0002340814419987292,0.0004096579809899331,-0.00041700615336385383,0.7925909161567688,-50.11502456665039,-6.293534278869629,16.85950469970703,1.5773416757583618,-1.2494614124298096,0.04673920199275017,713,708,736,43.780,1,0
1739302195.2770927,-0.09389733861340957,1.0307664838846773,-0.3586570231305955,-1.4704775366526328,1.5129721587688711,1.203871355850208,1.3601361860583234,-0.0002384585522106297,-0.00045417817331152373,0.0009043760736596611,-0.00042749007114394337,-9.715790915275347e-05,8.181651938745328e-05,0.0001277643728267429,0.7648199200630188,-50.13882827758789,-6.241959571838379,16.85950469970703,1.5645242929458618,-1.2430527210235596,0.05314789339900017,714,708,736,43.780,1,0
1739302195.2870948,-0.09389949611158985,1.0307671991848284,-0.35865871798622795,-1.470477434649692,1.5129714075650182,1.2038698274481403,1.3601393242897686,-0.0005472887319679469,0.00022576469080918475,-0.00024149901932575654,0.0001756275304774116,0.0001973027109668747,-0.00042639130783626145,0.0010653298916645996,0.7648199200630188,-50.13882827758789,-6.214188575744629,16.85950469970703,1.5709329843521118,-1.2302353382110596,0.026597600430250168,713,709,734,43.672,1,0
1739302195.2971172,-0.09389641921654793,1.0307654954983532,-0.3586573394468289,-1.4704775366508531,1.5129710069546571,1.203871695980933,1.360139485843792,0.001761004605965796,-0.0008486941960788804,-6.576724008456496e-05,0.00026419703619504846,-0.0008072483756521943,0.000570190022920605,0.0006191935936923946,0.7648199200630188,-50.11502456665039,-6.241959571838379,16.85950469970703,1.5452982187271118,-1.2430527210235596,0.026597600430250168,716,707,735,43.672,1,0
1739302195.307183,-0.09390149166688677,1.030766863200777,-0.35865662942161647,-1.4704758580860977,1.5129738197129052,1.2038701850274087,1.3601337692764057,-9.385757225544939e-05,-0.00012335409266629486,0.001093305559263045,0.0009568809441704496,-0.00013383140542237574,-0.00032208320117744626,-0.00020357996435823057,0.7925909161567688,-50.13882827758789,-6.241959571838379,16.83570098876953,1.5773416757583618,-1.2302353382110596,0.04673920199275017,715,707,735,43.672,0,0
1739302195.3181207,-0.09389612762975601,1.030766489818111,-0.3586551290527141,-1.4704775367985232,1.512971803199999,1.2038689659135031,1.3601361860404035,0.0016416265773003158,-0.00045836604977156787,0.0004579692692537193,0.0002658269901271619,-0.0003697839729350754,-0.0010584872632588235,0.00014664427976205822,0.7410162091255188,-50.13882827758789,-6.293534278869629,16.85950469970703,1.5645242929458618,-1.2229111194610596,0.05314789339900017,714,709,736,43.672,0,0
1739302195.3290925,-0.09389940647579431,1.0307671962414227,-0.3586594636669038,-1.4704824774653862,1.512969743778697,1.2038706025507722,1.3601346314918696,-8.373296063107099e-05,0.0008452856402092545,-0.0007945931309292522,5.329590635533846e-05,-0.00024337150509748528,-0.000286712068183046,7.193117322035843e-05,0.7648199200630188,-50.13882827758789,-6.241959571838379,16.88727569580078,1.5846658945083618,-1.2366440296173096,0.06596527993679047,714,709,736,43.672,1,0
1739302195.339123,-0.09389841683110536,1.0307662271993687,-0.3586596888598659,-1.4704804773058575,1.5129721652244517,1.2038721004285968,1.3601330874067539,0.0008823016483798366,-0.0005714080267631422,-0.001061525706843186,-7.662088358068017e-05,0.0006311083204674503,-0.00014220075250368538,-0.0002048399181502242,0.7925909161567688,-50.16659927368164,-6.241959571838379,16.85950469970703,1.5645242929458618,-1.2494614124298096,0.07969819009304047,716,711,734,43.780,2,0
1739302195.3491464,-0.09389778445307333,1.0307634183492804,-0.3586548995997388,-1.4704860442864351,1.512972182171106,1.2038705851081448,1.3601338033876251,0.0003978086699769406,-0.0019483069520072234,1.940295899666069e-05,-0.0016654181506502385,-0.0016084131768592804,-0.00036349868436440794,-0.0005733696498906543,0.7410162091255188,-50.08725357055664,-6.265763282775879,16.93488311767578,1.5645242929458618,-1.2366440296173096,0.07328949868679047,713,710,735,43.889,1,0
1739302195.3601375,-0.0938978109817719,1.0307650622152362,-0.35866048345223006,-1.4704775458624446,1.512972192146272,1.203870624188458,1.360135428398237,-0.0005520992193824841,7.805630061196117e-05,-0.0004731267609124639,-0.00046649200977858115,-0.0007742706431236273,-0.0004599019508950279,-0.0014879343737344674,0.7410162091255188,-50.13882827758789,-6.190384864807129,16.85950469970703,1.5517069101333618,-1.2366440296173096,0.05955658480525017,713,711,735,43.780,0,0
1739302195.3711731,-0.09389865392046168,1.030763031827739,-0.35865515876433973,-1.4704796912501623,1.5129714073665699,1.2038713427684438,1.3601377684317104,-0.000626088458083242,-0.0007586197806191462,0.0005657639568036609,0.0002493892244143586,-0.0015280007296383808,0.0011837263653354485,-0.0004107962243383348,0.7925909161567688,-50.11502456665039,-6.265763282775879,16.85950469970703,1.5974832773208618,-1.2430527210235596,0.03941498324275017,715,713,735,43.672,1,0
1739302195.3821425,-0.09390115014516237,1.0307683817468514,-0.3586566284392917,-1.4704789276898147,1.5129705692446807,1.2038713427682233,1.3601378096154015,-0.001163675201478546,-0.0010457787822576814,0.0004959330869987395,-7.839109582042953e-05,-0.001589535509665914,-1.2766983907538457e-05,-0.00046336949226626783,0.7925909161567688,-50.16659927368164,-6.241959571838379,16.88727569580078,1.5645242929458618,-1.2430527210235596,0.03941498324275017,714,708,734,43.780,1,0
1739302195.3931367,-0.0939014158273575,1.0307650615811588,-0.3586567082905955,-1.4704818421510233,1.5129714025897485,1.2038699509998374,1.360139324935791,6.773282767850818e-05,-0.00045883741569858105,0.00024390328068170852,-0.0007317504493710429,-0.0007077020504827598,-0.00020238764857452771,0.0005496721471255476,0.7925909161567688,-50.13882827758789,-6.241959571838379,16.88727569580078,1.5709329843521118,-1.2302353382110596,0.026597600430250168,715,709,735,43.672,0,0
1739302195.4041374,-0.09389775830602724,1.0307652812330796,-0.35866049284897356,-1.4704778555740687,1.512972143086727,1.203870602551445,1.3601350863832735,0.0007043922222125434,-0.0010559459225263918,0.00017747018206991372,-0.0005023000683876078,0.0005110623177604003,0.0008967134734402959,-0.0007182888049038023,0.7410162091255188,-50.11502456665039,-6.190384864807129,16.85950469970703,1.5645242929458618,-1.2366440296173096,0.026597600430250168,715,707,736,43.672,0,0
1739302195.415117,-0.09389770525931268,1.0307632703622003,-0.3586566294095974,-1.4704767079787269,1.5129736745856084,1.2038705852697487,1.3601402932783038,0.0009772783080402884,-0.0010339103080239053,-6.180299759187382e-05,0.0011125557335866136,0.0006904072929644031,-4.7491252325279604e-05,-0.0001565537687470501,0.7410162091255188,-50.11502456665039,-6.241959571838379,16.83570098876953,1.5517069101333618,-1.2366440296173096,0.0064559997990727425,716,709,736,43.780,2,0
1739302195.426109,-0.09390320759533036,1.0307684540259838,-0.35865870919944753,-1.4704778558939386,1.512975344139487,1.2038705851081457,1.3601353891444128,-0.0003835388989181077,4.593511754442275e-05,-0.0008586667375712325,0.00016790132769369643,0.00013520561229411635,-0.0004695212532490888,-0.0008192400594789114,0.8163946270942688,-50.16659927368164,-6.214188575744629,16.85950469970703,1.5645242929458618,-1.2366440296173096,0.05955658480525017,712,708,735,43.780,1,0
1739302195.4361813,-0.09389949713419406,1.030764743039654,-0.3586590212312619,-1.4704778997481798,1.512972162747368,1.2038698274480666,1.3601325718688202,-0.00046415897638610147,-0.0008308423636642311,-0.00020342389686987437,0.0008392424527140423,-0.00036557125693194694,0.0004726904506325579,-0.003351857758220239,0.7648199200630188,-50.13882827758789,-6.214188575744629,16.83570098876953,1.5645242929458618,-1.2302353382110596,0.07969819009304047,716,706,736,43.672,0,0
1739302195.4481454,-0.09390148630605102,1.030767208005319,-0.35865658431027597,-1.4704773100198714,1.5129695637758795,1.2038698289016168,1.360140343126067,-0.001307843306075097,0.00011124122162142763,-0.0009591366246050927,-0.00036192937133808646,-0.000620468115713522,-0.0007558606051633167,0.001215418428543937,0.7925909161567688,-50.13882827758789,-6.214188575744629,16.85950469970703,1.5773416757583618,-1.2302353382110596,0.019273381680250168,719,707,736,43.889,1,0
1739302195.4590642,-0.09389665587118406,1.0307655592730198,-0.3586594400174913,-1.4704796164420095,1.5129698406941596,1.2038698666939258,1.3601372663543536,0.0014607353448002896,-0.0009159681413715773,-0.0004362388798379792,5.8465663696229326e-05,0.00027639363472445225,-0.0005212968561200586,-0.000944736166595114,0.7648199200630188,-50.11502456665039,-6.166581153869629,16.88727569580078,1.5846658945083618,-1.2302353382110596,0.04673920199275017,717,709,735,43.672,2,0
1739302195.469188,-0.09389897029191496,1.0307643455801532,-0.35866049182846343,-1.4704775367615968,1.512976345672939,1.203869827448731,1.360139445622264,0.0007727021376864863,-0.0013247654385145865,-0.0011214038329796525,0.0012479265617254863,0.00018885531692896246,-0.0003053900020324336,0.0013074187059127073,0.7925909161567688,-50.13882827758789,-6.190384864807129,16.85950469970703,1.5645242929458618,-1.2302353382110596,0.026597600430250168,716,705,735,43.672,1,0
1739302195.4800992,-0.0938994971199416,1.030765058311278,-0.3586566556552583,-1.470477536652581,1.5129730664832355,1.2038737640225328,1.3601346707384077,0.0006263032329677879,-0.0001298057442234771,0.0008508311941066773,0.000698551932386399,-0.0005455483805010835,0.0002857591200682725,-0.0006903799761695933,0.7648199200630188,-50.13882827758789,-6.241959571838379,16.85950469970703,1.5581156015396118,-1.2366440296173096,0.06596527993679047,714,706,734,43.780,0,0
1739302195.4901867,-0.09390244411793834,1.0307662450421293,-0.35865697263201435,-1.4704775281493117,1.512970766982805,1.2038698275019017,1.3601347973782916,-0.0015244554278915014,-0.00046708853460800576,0.0005804965756579261,0.00017710511276544219,0.0007036010921801675,-0.0007758460887725945,0.0003836086804886042,0.7925909161567688,-50.13882827758789,-6.265763282775879,16.85950469970703,1.5773416757583618,-1.2302353382110596,0.06596527993679047,715,708,736,43.780,1,0
1739302195.5011244,-0.0938960721088038,1.0307671774783707,-0.3586557916125738,-1.4704778997426293,1.5129713011891346,1.2038721004283024,1.3601369437205464,0.0012175238330377135,-0.0011285461046708105,0.0006389500151612187,0.0002266389837628116,0.0005520799624848188,-8.592822978455687e-05,0.00013654057252801994,0.7172124981880188,-50.13882827758789,-6.265763282775879,16.83570098876953,1.5846658945083618,-1.2494614124298096,0.04673920199275017,716,706,735,43.672,1,0
1739302195.5111356,-0.09389909449623367,1.0307695031382627,-0.3586587104648614,-1.4704775366646936,1.5129718785238988,1.203869827609572,1.3601401908330233,-9.382083131350701e-05,0.0015368743822087778,0.000277148927865921,0.00042977063935980967,0.0008621846656836133,-0.00035509067744124667,0.0006332429427308438,0.7648199200630188,-50.16659927368164,-6.214188575744629,16.85950469970703,1.5709329843521118,-1.2302353382110596,0.019273381680250168,715,706,735,43.672,0,0
1739302195.522058,-0.09390534342660987,1.0307672070034264,-0.35865875822478127,-1.470479616442436,1.5129721723501877,1.2038698274480675,1.3601393369464228,-0.001984215559463636,0.0012661104010563654,0.0003986543631199494,2.729208111505743e-05,0.00037457825761285876,-0.000415884927648718,0.00040142277484170915,0.8163946270942688,-50.13882827758789,-6.241959571838379,16.88727569580078,1.5645242929458618,-1.2302353382110596,0.026597600430250168,716,705,735,43.780,0,0
1739302195.5321343,-0.09389605011643239,1.0307728811003487,-0.35865663243393214,-1.4704775366525806,1.5129729228855733,1.2038698274480666,1.3601378096162444,0.0015552103710877742,0.0011563806564357639,-2.3750981733643037e-05,-0.0005595153908711515,0.0013954051461830897,-0.0008464294541646553,0.0011018558554750065,0.7410162091255188,-50.21817398071289,-6.241959571838379,16.85950469970703,1.5581156015396118,-1.2302353382110596,0.03941498324275017,716,707,735,43.672,1,0
1739302195.5430899,-0.09390149507178336,1.0307668901277287,-0.3586587442056761,-1.4704803680005907,1.5129704179037156,1.2038705851081448,1.3601378232146075,-0.00014044572319127702,-0.0010818517073918248,-0.0007922616585552755,-5.6875433857095825e-05,0.00043070181345296836,-0.0004554516479563846,0.0010893206842076011,0.7925909161567688,-50.13882827758789,-6.214188575744629,16.88727569580078,1.5517069101333618,-1.2366440296173096,0.012864691205322742,717,706,734,43.672,2,0
1739302195.5531209,-0.09389878684551044,1.030767092892671,-0.35865870920004034,-1.4704796167822125,1.512972922664415,1.2038724024063525,1.3601378094012018,0.0008007688928065369,-0.0005322847465059323,0.0005857007438457055,-0.0001579915779313643,0.0005959875902580414,0.00031507045051316093,-0.0002831884322230081,0.7648199200630188,-50.13882827758789,-6.214188575744629,16.88727569580078,1.5581156015396118,-1.2430527210235596,0.03941498324275017,716,706,734,43.889,1,0
1739302195.5641737,-0.0939034419755402,1.0307651776051143,-0.35865875530858893,-1.470474006619819,1.512974169310518,1.203871395113977,1.3601409470394377,-0.0014439335663940425,-0.0005489520478228764,-0.0004516847960725472,0.0018264196883859736,-0.0007710168553942997,0.0004735151267402251,0.0004670300941212617,0.8163946270942688,-50.11502456665039,-6.241959571838379,16.81189727783203,1.5709329843521118,-1.2430527210235596,0.012864691205322742,716,705,735,43.780,1,0
1739302195.5761306,-0.0939015038649248,1.0307671726973648,-0.35865662946159527,-1.4704767076499443,1.5129728022273439,1.2038713427683216,1.3601378096708125,-0.0005148070981899613,-0.000430943810730521,0.00085237286867612,0.0008192133917563327,0.0005441466873793558,-0.0005694421767166827,-0.0005712169023442185,0.7925909161567688,-50.13882827758789,-6.241959571838379,16.83570098876953,1.5581156015396118,-1.2430527210235596,0.03941498324275017,716,707,736,43.672,2,0
1739302195.5870569,-0.09389949670117377,1.030770918444413,-0.35865946394158804,-1.47047961743749,1.5129718367559017,1.2038737640225328,1.360138895744717,-0.0005448185521462457,0.0019840850625274815,-0.00010937975834548531,2.3762556546997e-06,-0.0001468428794807475,0.000767657595040751,1.3196130414419024e-05,0.7648199200630188,-50.19040298461914,-6.241959571838379,16.88727569580078,1.5581156015396118,-1.2366440296173096,0.03941498324275017,712,707,736,43.672,1,0
1739302195.5971255,-0.09390125831214527,1.0307710195388984,-0.358656629457595,-1.4704775366525975,1.51297216371685,1.2038713428220584,1.360137507655977,-7.621042749889013e-05,0.0009752609789245959,0.001256299779003163,0.0009566203639121799,0.0012764290757849015,-0.0002608839886572268,0.00019145213651658232,0.7925909161567688,-50.19040298461914,-6.241959571838379,16.85950469970703,1.5645242929458618,-1.2430527210235596,0.03300629183650017,716,703,735,43.672,0,0
1739302195.6080685,-0.09389778851854262,1.0307664926187121,-0.35865870919944776,-1.4704795400583706,1.5129705292239586,1.2038721006436426,1.3601337692676991,0.0007237597429130322,-7.564059867990234e-05,-0.0011397734821925818,-0.00024825751283358164,-0.001634644149094561,0.0006776815967390243,-0.0007451302658101756,0.7410162091255188,-50.13882827758789,-6.214188575744629,16.88727569580078,1.5773416757583618,-1.2494614124298096,0.04673920199275017,715,706,735,43.672,1,0
1739302195.6181633,-0.09390149507511325,1.0307684906922345,-0.35865870919944753,-1.4704796161262066,1.5129714090165611,1.2038741172352463,1.3601361858430583,0.0006380240204275965,0.00010947489638997412,-0.000868083999528119,-0.0005913521631011882,-0.0002522225596456653,0.0006840304931062836,-0.00035950514748325443,0.7925909161567688,-50.16659927368164,-6.214188575744629,16.88727569580078,1.5709329843521118,-1.2366440296173096,0.05314789339900017,715,707,736,43.780,2,0
1739302195.629159,-0.09390173238983651,1.03076720703405,-0.35865661482866606,-1.4704813991194534,1.5129713673380596,1.2038706244277755,1.360134670737725,-0.0003243460598100495,3.7276828725917466e-05,6.087005595666724e-05,-0.0009041108397483364,-0.0001620474574849429,-0.0007768803837816129,-0.002632774424655101,0.7925909161567688,-50.13882827758789,-6.241959571838379,16.91107940673828,1.5709329843521118,-1.2366440296173096,0.06596527993679047,716,707,735,43.780,1,0
1739302195.6400793,-0.09389778465097304,1.0307691137323185,-0.3586587091993652,-1.4704796432967768,1.5129714075648275,1.203871342768445,1.3601407338620444,3.647788102345171e-05,0.00030828082605179963,-0.0009211502692999689,-0.000986187743979672,0.0006270671405216679,-0.0005692899321812375,0.0012753696511973323,0.7410162091255188,-50.16659927368164,-6.214188575744629,16.88727569580078,1.5709329843521118,-1.2430527210235596,0.026597600430250168,716,706,735,43.672,0,0
1739302195.6521206,-0.09389949713419428,1.0307692059595666,-0.35865870919944753,-1.4704796164075946,1.5129728672626885,1.2038706001281638,1.3601338048484475,-0.00018772987996193533,0.00038816179620735486,-2.0483296972962023e-05,-0.0006449456135590318,9.183547648626355e-05,0.0005561122584025383,-0.001160322150086477,0.7648199200630188,-50.16659927368164,-6.214188575744629,16.88727569580078,1.5581156015396118,-1.2366440296173096,0.07328949868679047,717,707,735,43.889,2,0
1739302195.6630905,-0.09389736560731633,1.0307647830771884,-0.358656629409592,-1.4704798539162074,1.512972922388477,1.2038698274480946,1.3601329294428457,-0.0001589886780165532,-0.0006925554812667312,0.0011194361017036179,-0.0012146445270923955,-0.0005013820141431307,-0.0003109893005426373,-0.0017263509809864572,0.7648199200630188,-50.11502456665039,-6.241959571838379,16.88727569580078,1.5581156015396118,-1.2302353382110596,0.07969819009304047,716,710,735,43.780,1,0
