IITGN-Robotics/Franka_IITGN_ROBOTICS/franka_ros/franka_iitgn/data01/s_b_010.csv
time,fr3_joint1_pos,fr3_joint2_pos,fr3_joint3_pos,fr3_joint4_pos,fr3_joint5_pos,fr3_joint6_pos,fr3_joint7_pos,fr3_joint1_vel,fr3_joint2_vel,fr3_joint3_vel,fr3_joint4_vel,fr3_joint5_vel,fr3_joint6_vel,fr3_joint7_vel,fr3_joint1_eff,fr3_joint2_eff,fr3_joint3_eff,fr3_joint4_eff,fr3_joint5_eff,fr3_joint6_eff,fr3_joint7_eff,flexpin1,flexpin2,flexpin3,Force,ContactMic,ContactMic_gt
1739303212.6184893,-0.07219193797398428,1.0422690577591,-0.39027748645030425,-1.4626092577506535,1.5334770446426647,1.1816384425684705,1.351862631381731,-0.0006506804615787369,-0.00011378482035035494,-0.00027041982592591657,-0.00010609567245082057,0.0007093289724234053,6.147270423401841e-05,-0.00039500171160582165,2.562000036239624,-50.06344985961914,-5.579422950744629,17.10944366455078,1.7476297616958618,-1.1643173694610596,0.04673920199275017,,,,,,,,,
1739303212.6285248,-0.07219151958233232,1.042272168960428,-0.39027748942974455,-1.4626110414843199,1.533476165720022,1.1816395534412587,1.3518621868555707,-0.0009991357915906142,0.0007022573206132731,-0.0003132407520986234,-0.0005713344734781811,-0.0003880964507954591,0.0006850204967725776,-0.0011272456453788578,2.585803747177124,-50.06344985961914,-5.579422950744629,17.13324737548828,1.7549539804458618,-1.1707260608673096,0.026597600430250168,,,,,,,,,
1739303212.6404762,-0.07219536588008334,1.0422697733535666,-0.3902774864863225,-1.4626153479039399,1.5334778038127788,1.1816376849103862,1.3518658261147083,-0.0009296498321118074,-0.0004761701881533337,-1.7315878377314954e-06,-0.0021287456702007803,0.001105948173623095,-0.0002713560788409053,0.0008073333302158772,2.609607458114624,-50.06344985961914,-5.579422950744629,17.18085479736328,1.7412210702896118,-1.1579086780548096,0.019273381680250168,,,,,,,,,
1739303212.650504,-0.07219365044843155,1.0422660625514142,-0.39027433927516864,-1.462609013945104,1.5334758164492743,1.1816384425684705,1.351868894139581,-0.000794772225471286,-0.0008209087957122537,0.0014156997345758145,-5.721893976712094e-05,0.0001870172415262552,0.0004334368655347299,-0.00038815181989452444,2.585803747177124,-50.01187515258789,-5.630997657775879,17.10944366455078,1.7476297616958618,-1.1643173694610596,-0.013685601763427258,,,,,,,,,
1739303212.6614575,-0.07219193792765106,1.0422689671286964,-0.3902792692736871,-1.4626122522444973,1.533478548388673,1.1816376849083923,1.3518717060596266,-2.904847163013517e-05,-0.0004467599156162518,-0.0009065737744447702,-0.0005976363996843267,0.0007972832531436908,-0.0009433284796552489,0.0011512373342502536,2.562000036239624,-50.03567886352539,-5.555619239807129,17.10944366455078,1.7348123788833618,-1.1579086780548096,-0.027418512850999832,,,,,,,,,
1739303212.6745813,-0.07219365044437265,1.042267775076925,-0.39027748648630595,-1.4626092608526795,1.5334726898626871,1.181639200228549,1.3518642563849945,-0.0009082661827368207,-0.000314221619469282,0.0004229679959341277,0.0007337062936932789,-0.0006350142362450434,0.00031633144691689617,6.43482288095846e-05,2.585803747177124,-50.03567886352539,-5.579422950744629,17.10944366455078,1.7476297616958618,-1.1707260608673096,-0.0008682189509272575,,,,,,,,,
1739303212.6855621,-0.07221402309631275,1.04228066499802,-0.39032098395897563,-1.462604569258366,1.5334756675419925,1.1816314056999069,1.3518693515759486,-0.004016728227959605,0.0011241462299341745,-0.004550262990268843,0.0009925155288588348,-0.0009435563335221168,0.0006981502017444999,0.00041357603959403066,1.387683629989624,-50.21817398071289,-6.468094825744629,17.13324737548828,1.6826273202896118,-1.1048080921173096,-0.0072769103571772575,,,,,,,,,
1739303212.6964977,-0.07225689929979012,1.0422771851044923,-0.3903477119405924,-1.462588970371689,1.5334807603577112,1.1816071736130507,1.3518653599616317,-0.0036744838113816104,0.0014684295423082958,-0.0021775261537182126,0.0011237839585935964,0.0007080362513956626,-0.002244799544038954,-0.000896322695879587,0.9671514630317688,-50.16659927368164,-6.801346778869629,17.08167266845703,1.6624857187271118,-1.0196640491485596,0.026597600430250168,,,,,,,,,
1739303212.7074862,-0.07228558425868951,1.042273483474527,-0.39036031435667434,-1.4625806138279418,1.5334813639986562,1.1815910492333512,1.351870430188626,-0.0016967555812506397,-0.0004343246264548426,-0.00023568951350773425,0.0016258485659557543,0.0012194537843458109,-0.0026078329763085375,0.000491967262689803,0.8640020489692688,-50.11502456665039,-6.848954200744629,17.10944366455078,1.6304422616958618,-1.0059311389923096,-0.0072769103571772575,,,,,,,,,
1739303212.7175298,-0.07229872788973017,1.0422775118276,-0.3903561516044344,-1.4625806410522821,1.533478031146976,1.1815870173223515,1.351868939025557,-0.0008141231608622333,0.00038347686410199227,0.0008445945404700794,-7.019433630537935e-05,-0.0010116331639939413,-0.00051038745796037,0.00011135730133610773,0.7648199200630188,-50.16659927368164,-6.952103614807129,17.15705108642578,1.6496683359146118,-1.0526230335235596,-0.0072769103571772575,,,,,,,,,
1739303212.7284558,-0.07230317848535228,1.0422826169202712,-0.3903423595707056,-1.4625721255589883,1.5334770627206054,1.181587729114068,1.3518618736833263,0.00016159294638167713,0.0008810306572458888,0.0010287142181891766,0.0007086881129554966,-0.0006047770358615221,0.0008752297886195789,-0.00247038872809856,0.6894415020942688,-50.24197769165039,-7.102860450744629,17.08167266845703,1.6698099374771118,-1.0590317249298096,0.05314789339900017,,,,,,,,,
1739303212.73849,-0.07231538697827605,1.0422850437137987,-0.3903416963163563,-1.462574428922218,1.5334822761656934,1.1815806272658882,1.351864602941701,-0.0021250786242725853,0.0006602244024460372,0.0011918187651787833,-0.0010505631338812243,0.00105367938847938,-0.0014194658272554583,-0.001653371766222675,0.8163946270942688,-50.26578140258789,-7.079056739807129,17.15705108642578,1.6496683359146118,-1.0388901233673096,0.03300629183650017,,,,,,,,,
1739303212.7494652,-0.07232040053174134,1.0422870426398303,-0.39034666140361635,-1.4625774580471362,1.533480201891212,1.1815733910448374,1.3518694217851592,-0.0010897650728799234,0.0005490358333344804,-0.0015354064507779874,0.00027234163216684345,-7.292454662098573e-05,-0.0016437041242765734,0.0019248640769861213,0.7648199200630188,-50.29355239868164,-7.003678321838379,17.20862579345703,1.6432596445083618,-1.0059311389923096,-0.013685601763427258,,,,,,,,,
1739303212.759521,-0.07231978915221669,1.0422826169305899,-0.39034662687834887,-1.4625743096967307,1.5334830801778794,1.1815677056395169,1.351869370538566,-0.0005312855961444693,-0.0007638917861924871,-0.00022213326243138065,0.00019235211932499568,4.01361770256105e-05,-0.0004824264487738752,0.0015501345019096923,0.7410162091255188,-50.24197769165039,-7.003678321838379,17.15705108642578,1.6432596445083618,-0.9802963733673096,-0.0072769103571772575,,,,,,,,,
1739303212.7705142,-0.07231439665561219,1.0422790134018518,-0.39033990338794033,-1.4625619732784112,1.5334790923107302,1.1815655138890284,1.3518693313046728,-4.190849452200389e-05,0.0006171374532668891,0.0014853565751074562,0.0010072906536124353,-0.0001320758978723251,0.00014111432727216642,-2.73430816611481e-06,0.6656377911567688,-50.19040298461914,-7.055253028869629,17.03406524658203,1.6496683359146118,-0.9931137561798096,-0.0072769103571772575,,,,,,,,,
1739303212.7805362,-0.07231549209766183,1.0422862999097724,-0.39034276436243787,-1.4625644385989993,1.5334825716775666,1.181571523764556,1.3518701282099432,-0.0008261044745828366,0.0011847401465228586,0.00016399616348036322,-0.00010813493062907604,0.0009416917921186978,0.0018079062688912007,0.00026779198927358273,0.6418340802192688,-50.29355239868164,-7.055253028869629,17.10944366455078,1.6560770273208618,-1.0452988147735596,-0.013685601763427258,,,,,,,,,
1739303212.7905762,-0.07231600373371651,1.0422844363837018,-0.39034662687776334,-1.4625718654212538,1.5334748523043644,1.1815754031798067,1.3518669500872837,-0.000371684755789802,0.0009046147211199821,0.0007519943279972102,-0.000996370859841844,-0.00115469187291488,0.0006907670796240564,-0.0006204770814508903,0.6894415020942688,-50.26578140258789,-7.003678321838379,17.20862579345703,1.6496683359146118,-1.0782577991485596,0.012864691205322742,,,,,,,,,
1739303212.801529,-0.07232248056646069,1.0422826434100336,-0.39034756674335325,-1.4625697827968305,1.533478346183049,1.1815755777690229,1.3518614692381725,-0.001698514598818427,-0.0009355942371422293,0.0006619011572181739,0.0001860855000694548,-0.001015026648959721,0.00023678696109058578,-0.0006718786978944298,0.7648199200630188,-50.24197769165039,-7.003678321838379,17.18085479736328,1.6560770273208618,-1.0782577991485596,0.05955658480525017,,,,,,,,,
1739303212.8125284,-0.07231755889695048,1.042284408912516,-0.3903448528834552,-1.4625662089396032,1.5334752972016112,1.1815702683816236,1.3518653659374453,0.0011411082356221998,0.0004428997259773164,-0.0001752704376260226,0.0006902645908388101,-0.0015677752512973165,-0.0018399960294016074,0.0007180382130836997,0.6656377911567688,-50.26578140258789,-7.027482032775879,17.13324737548828,1.6698099374771118,-1.0452988147735596,0.026597600430250168,,,,,,,,,
1739303212.8234646,-0.07232138339297596,1.0422864752065693,-0.3903408758057398,-1.4625639841309663,1.5334806054565782,1.1815670270321799,1.3518662316731724,-9.095401539852189e-05,4.9912201622618604e-05,0.0010134198069588595,-0.001080664067656347,-0.0003339680993547954,-0.0009776081616764284,0.00011710208632977043,0.7172124981880188,-50.26578140258789,-7.079056739807129,17.13324737548828,1.6368509531021118,-1.0059311389923096,0.019273381680250168,,,,,,,,,
1739303212.8334773,-0.07232299166201756,1.0422865746652965,-0.39034483633161055,-1.4625654671550914,1.533480606105247,1.1815615751402153,1.3518684683429545,-0.00034820753044314276,0.00037720504659909983,0.00011194111756907538,-0.0007912166474924478,0.00039231335720580187,-0.001965541610996065,0.0001029827467469053,0.7410162091255188,-50.29355239868164,-7.027482032775879,17.13324737548828,1.6368509531021118,-0.9867050647735596,-0.0008682189509272575,,,,,,,,,
1739303212.8445036,-0.07232322203585312,1.0422880432844843,-0.390344481110419,-1.4625675490408636,1.5334798484451797,1.1815629203411582,1.3518693705480815,-7.594872239895633e-05,0.00010469032641177494,0.0003405822013406698,-0.0012595782356500107,-0.00020417913593598515,-0.0003799965317879949,0.0010803228043269897,0.7410162091255188,-50.31735610961914,-7.003678321838379,17.18085479736328,1.6432596445083618,-0.9995224475860596,-0.0072769103571772575,,,,,,,,,
1739303212.8545609,-0.07232233448758683,1.0422837664018603,-0.39033883301110645,-1.462566172146693,1.5334790907851013,1.1815632994790473,1.3518646604436704,-0.00045718631020142086,-0.0013356765826561764,0.001598822784580926,0.00011759225425655008,0.0004300055705048311,-0.0008514132665307837,-0.000255072843602912,0.7172124981880188,-50.21817398071289,-7.079056739807129,17.13324737548828,1.6496683359146118,-1.0132553577423096,0.03300629183650017,,,,,,,,,
1739303212.8655286,-0.0723226255480624,1.0422829358435568,-0.3903448057785503,-1.4625605627778726,1.533478333125023,1.1815711514143854,1.3518622268987677,-4.389915430256817e-05,-3.517537355857996e-05,0.0006007623215207358,0.0004626753238120414,6.883314803515802e-05,0.0003109078016332352,-0.0014191140169077761,0.6894415020942688,-50.24197769165039,-7.027482032775879,17.05786895751953,1.6560770273208618,-1.0452988147735596,0.05314789339900017,,,,,,,,,
1739303212.876537,-0.07232438645025117,1.0422827095841054,-0.39034661379559504,-1.4625661814673538,1.5334782938791665,1.1815731345060627,1.3518684021839795,-5.514845284480756e-05,0.00025880622391395117,0.0002300288486426201,-2.6642130611035625e-05,-0.0001365192781990749,0.0023569526425389806,0.00024355365636312843,0.7172124981880188,-50.24197769165039,-7.003678321838379,17.13324737548828,1.6560770273208618,-1.0590317249298096,0.012864691205322742,,,,,,,,,
1739303212.8874838,-0.07232444317584498,1.0422847714085595,-0.39034662719853497,-1.4625644169915546,1.5334775754642802,1.1815701127905494,1.3518669893570672,0.00033324231945618837,0.0008468783217510926,9.678584800669536e-05,0.0008983818816868292,-2.3547985015266655e-05,0.00017307454218112078,0.0009253267233280113,0.7172124981880188,-50.24197769165039,-7.003678321838379,17.10944366455078,1.6624857187271118,-1.0590317249298096,0.012864691205322742,,,,,,,,,
1739303212.8975053,-0.07232036319506029,1.042282616930639,-0.3903441318339408,-1.4625614318035263,1.533480591085239,1.1815708823166065,1.3518693836324818,0.0008557965230140674,0.0002038341287389412,0.0009218815836370945,0.0004945118874726268,0.0003178409994400697,-0.0015975848499963244,0.0006680733569467366,0.6894415020942688,-50.24197769165039,-7.027482032775879,17.10944366455078,1.6368509531021118,-1.0388901233673096,-0.0072769103571772575,,,,,,,,,
1739303212.9075243,-0.07232317800729253,1.0422873870181906,-0.39034487042960764,-1.4625651373638076,1.5334790864241963,1.1815627821829047,1.3518693836327031,-0.0003153847862530013,0.0012665091309442726,0.0009085289950472827,-0.0016295309346019437,-0.0002865976929842762,-0.0007416056793689227,0.0012542395145410882,0.6894415020942688,-50.29355239868164,-7.055253028869629,17.13324737548828,1.6496683359146118,-1.0059311389923096,-0.0072769103571772575,,,,,,,,,
1739303212.918533,-0.0723261869888396,1.0422865841196536,-0.3903449482141538,-1.462559370322407,1.5334789338016501,1.181563883677073,1.351868611436975,-0.001192141855684944,0.0004140815498710768,0.00025621397281298743,0.0005486410716447947,-0.0010579276489616708,0.001028095462355049,8.028033237590941e-06,0.7410162091255188,-50.26578140258789,-7.027482032775879,17.08167266845703,1.6496683359146118,-1.0196640491485596,-0.0008682189509272575,,,,,,,,,
1739303212.928578,-0.07232789073671386,1.0422833424599265,-0.39034293243871493,-1.4625619441134883,1.5334790864217922,1.1815631434566667,1.3518704864299662,-0.00012518867242966767,8.333193288455418e-05,0.0004514106296135955,-0.00028100978638980823,-7.506779141507367e-05,0.0003475741805690782,0.0025118361144776816,0.7648199200630188,-50.24197769165039,-7.027482032775879,17.10944366455078,1.6496683359146118,-1.0132553577423096,-0.013685601763427258,,,,,,,,,
1739303212.9395127,-0.07232789398434163,1.0422845688430291,-0.3903391987190107,-1.4625651833003939,1.533479848714331,1.1815662772991296,1.3518653657779618,-0.0002755972313148501,-0.0005620333816449207,0.001557301247217703,-0.0005298800131078398,0.00036936374336779917,0.0006102820262519706,-0.0007332614291793863,0.7648199200630188,-50.26578140258789,-7.102860450744629,17.13324737548828,1.6432596445083618,-1.0388901233673096,0.026597600430250168,,,,,,,,,
1739303212.9504802,-0.07232542723632013,1.042285557415637,-0.3903427644108876,-1.462564667486631,1.5334798484451815,1.1815661944473481,1.3518638897016397,-0.00014421466637536633,-3.2080673946721866e-06,-0.0004144834186142894,0.0009427277240713956,0.0005759699315960265,-0.0003800691874260789,-0.0015641897278015349,0.6894415020942688,-50.24197769165039,-7.055253028869629,17.15705108642578,1.6432596445083618,-1.0388901233673096,0.03941498324275017,,,,,,,,,
1739303212.9605262,-0.07232926830861364,1.04228742991168,-0.39034452630930633,-1.4625629670623521,1.5334783331250232,1.1815654149839916,1.3518638504564475,0.00036747707467111874,0.0003364400230006559,-0.000873112409790623,0.0014319355796541884,0.0003389646164623,-0.0010193310151329021,-0.0008437554857857334,0.7410162091255188,-50.26578140258789,-7.027482032775879,17.13324737548828,1.6560770273208618,-1.0324814319610596,0.03941498324275017,,,,,,,,,
1739303212.971455,-0.0723297939293523,1.0422800568137605,-0.3903467048771097,-1.4625621184370308,1.5334783331250232,1.18156389584097,1.3518675821379789,-0.001385982094009387,-0.0021693355433387066,-0.00038807380476562877,0.0005509043999074524,-0.00037191527177904134,-0.001797973815694213,0.00022859062639503055,0.7172124981880188,-50.21817398071289,-7.003678321838379,17.10944366455078,1.6560770273208618,-1.0196640491485596,0.04673920199275017,,,,,,,,,
1739303212.9814663,-0.07232352889301127,1.0422864717035452,-0.39034662687908506,-1.4625590455985489,1.5334798486066854,1.1815661552010328,1.3518614693162545,-0.0002517229249921741,0.0006135559225314817,-0.0003247874425548162,0.0006380630011727405,-0.0008291788159981376,0.0009203986163149715,-0.00016761592359969876,0.6894415020942688,-50.26578140258789,-7.003678321838379,17.08167266845703,1.6432596445083618,-1.0388901233673096,0.05955658480525017,,,,,,,,,
1739303212.991488,-0.07232395138817639,1.042284793137507,-0.39034484420074517,-1.462561036402199,1.533478333125026,1.181568576455112,1.3518628820892344,-0.001546059150706396,0.0005230388374649872,0.0008821891897584134,-0.00035317492906005474,-0.000357725252746864,-0.0016902120393231374,-0.00032926102465716104,0.6656377911567688,-50.24197769165039,-7.027482032775879,17.10944366455078,1.6560770273208618,-1.0324814319610596,0.05955658480525017,,,,,,,,,
1739303213.0014937,-0.07232553112812581,1.0422847592340225,-0.3903448445217375,-1.4625646498309046,1.5334797459758625,1.181566058599521,1.351862271820951,0.0003105561664513659,2.147700361045224e-05,-0.0008328030496183867,-0.00018570402284791895,0.0022091340189239516,-0.0015059777900384753,-0.0018939934453330136,0.7172124981880188,-50.24197769165039,-7.027482032775879,17.15705108642578,1.6560770273208618,-1.0260727405548096,0.05314789339900017,,,,,,,,,
1739303213.01157,-0.07232574312216933,1.0422874293530815,-0.3903447558975731,-1.4625610884022664,1.5334775890553405,1.1815661558708508,1.3518643974101505,0.0006981379773046635,0.0007467681138171692,0.0004470955452792445,0.0005161850078974071,0.0005077272857877458,-0.0017986120479333342,0.0020456530813729033,0.6894415020942688,-50.26578140258789,-7.027482032775879,17.10944366455078,1.6624857187271118,-1.0388901233673096,0.04673920199275017,,,,,,,,,
1739303213.0224836,-0.07232766199462533,1.0422843590364543,-0.390346635544059,-1.4625628710793517,1.5334790515393215,1.1815656995187787,1.3518622269064478,0.00044284920195565987,-0.000484586219143628,-0.0015937967465691212,0.00014420127941013798,-0.0004849425821201944,0.0010214126208051896,-0.0002978388701699321,0.7172124981880188,-50.26578140258789,-7.003678321838379,17.13324737548828,1.6496683359146118,-1.0260727405548096,0.05314789339900017,,,,,,,,,
1739303213.0325174,-0.07232498306276451,1.042284765629629,-0.39034029909291573,-1.4625610795720152,1.53347905153858,1.181563882400018,1.351862997640503,0.0010552776643917546,-0.00099271299882788,0.0005039866086614965,-0.00012393128233874947,0.0006045092829024016,-0.0007052878275714124,-0.0007309497066798962,0.6894415020942688,-50.24197769165039,-7.055253028869629,17.10944366455078,1.6496683359146118,-1.0196640491485596,0.04673920199275017,,,,,,,,,
1739303213.0425391,-0.07232766198264635,1.0422850547608302,-0.39034098169212017,-1.4625590086123277,1.5334775754642802,1.1815631264985589,1.3518677731573445,0.00035516649222426,0.0007223417754859102,0.0008349174923139079,0.0006683698327392663,-0.00018274600240230922,-8.581530202101203e-05,-0.00021992259952728573,0.7172124981880188,-50.26578140258789,-7.079056739807129,17.08167266845703,1.6624857187271118,-1.0132553577423096,0.0064559997990727425,,,,,,,,,
1739303213.0534856,-0.07232837733857606,1.042288043865811,-0.3903444722802343,-1.462562871043013,1.533478333125023,1.1815661552008132,1.3518644587068986,0.00040757738154861996,0.0004959710317962735,-0.00029162392132413344,-0.0002525153184945807,-0.0004515257177879889,0.0007303549954360546,-0.0016761724205372713,0.7172124981880188,-50.31735610961914,-7.003678321838379,17.13324737548828,1.6560770273208618,-1.0388901233673096,0.026597600430250168,,,,,,,,,
1739303213.0634959,-0.07232395154470915,1.042285159489143,-0.3903448445922466,-1.462562871079351,1.5334798621731545,1.1815669128608808,1.3518614837585352,0.0012537705798870411,0.00031382649787463514,-0.0002627868917157555,-0.0008762043805321121,0.00023838765332784832,0.0005373583010918416,-0.0021435210912722357,0.6656377911567688,-50.26578140258789,-7.027482032775879,17.13324737548828,1.6432596445083618,-1.0452988147735596,0.05955658480525017,,,,,,,,,
1739303213.0745006,-0.07232937451491024,1.0422809439753367,-0.39034662687776633,-1.4625610884023328,1.5334798484452574,1.181566914314431,1.3518684938161512,-0.001799447730176278,-0.0011683438744982942,-0.0009096013198121018,0.000566549773513459,0.0007510816915827951,-6.086342135296779e-05,-0.0010098705925318295,0.7410162091255188,-50.21817398071289,-7.003678321838379,17.10944366455078,1.6432596445083618,-1.0452988147735596,0.026597600430250168,,,,,,,,,
1739303213.0854585,-0.07233154680789997,1.0422810551682138,-0.3903448412573059,-1.4625628707523028,1.5334789730475313,1.1815669128609052,1.351862984288513,-0.001957389416759816,-0.0006101512025791818,-0.00012402518151133742,-0.00036556397481312395,-0.0007764301936684281,-0.0007389709152034777,-0.0017916156283922999,0.7410162091255188,-50.19040298461914,-7.027482032775879,17.13324737548828,1.6496683359146118,-1.0452988147735596,0.04673920199275017,,,,,,,,,
1739303213.0954797,-0.07232859011834017,1.042278907486507,-0.3903448451637056,-1.4625602573052976,1.5334767095670478,1.1815669147989478,1.3518638112099248,-0.001062454175171826,-0.0011387370707292793,0.0005811232915864813,0.001484031831987193,0.0012327844986178918,0.0007445178798117445,-0.00083522735244148,0.6894415020942688,-50.19040298461914,-7.027482032775879,17.13324737548828,1.6698099374771118,-1.0452988147735596,0.03941498324275017,,,,,,,,,
1739303213.1054952,-0.07232574353334359,1.0422855162061535,-0.39034484420076143,-1.4625628592613302,1.533478333125023,1.1815638822206003,1.351865365775275,0.0012680979218923113,0.001840609228219174,0.0006557354872597189,-0.0008366677844067893,0.0008015921776616541,-0.0010435455600941105,-0.00039753392383881685,0.6894415020942688,-50.24197769165039,-7.027482032775879,17.13324737548828,1.6560770273208618,-1.0196640491485596,0.026597600430250168,,,,,,,,,
1739303213.1165128,-0.0723276655762663,1.0422835706091598,-0.39034098173387055,-1.4625610880752173,1.5334807231968057,1.1815631247219944,1.3518733071788311,-0.0003314140546906083,-0.0007600867832808939,0.0012786868120120685,0.00029775210734760474,0.0009556779673722279,-0.0004743520736689903,0.0013461712559575708,0.7172124981880188,-50.24197769165039,-7.079056739807129,17.10944366455078,1.6368509531021118,-1.0132553577423096,-0.013685601763427258,,,,,,,,,
1739303213.1275158,-0.07232766203036972,1.0422853625917674,-0.3903448441644064,-1.4625621558236126,1.5334783331256843,1.1815638822205683,1.3518611673859586,7.092136523639662e-05,-0.0004453031997507542,-0.00022671944684454851,6.417514138776996e-05,-0.0001129982723779505,-0.0005228173825458147,-0.0020630820728878264,0.7172124981880188,-50.26578140258789,-7.027482032775879,17.13324737548828,1.6560770273208618,-1.0196640491485596,0.05314789339900017,,,,,,,,,
1739303213.13754,-0.07232779707194387,1.0422826434269266,-0.390345885131073,-1.46256108839022,1.53347984844518,1.181565397540724,1.3518659427590203,-0.00013256684762241657,-0.00013945774216392271,0.0008882475186895405,0.000356446691232203,0.00014937313217146402,7.36922306654514e-05,-0.0008061783481161742,0.6894415020942688,-50.24197769165039,-7.003678321838379,17.10944366455078,1.6432596445083618,-1.0324814319610596,0.012864691205322742,,,,,,,,,
1739303213.148494,-0.07232804990911365,1.042282612049233,-0.39034599655302366,-1.4625636128260422,1.5334794498120121,1.1815677787581131,1.3518671063275738,-0.00021543046872852124,-0.0011182467321724614,2.0415687531685745e-05,-0.0004519763532732059,9.792326319304779e-06,0.0004952490540288971,0.0016201828795577447,0.6894415020942688,-50.24197769165039,-7.027482032775879,17.13324737548828,1.6496683359146118,-1.0526230335235596,-0.013685601763427258,,,,,,,,,
1739303213.158548,-0.0723256640937306,1.0422857261713867,-0.39034484422026033,-1.4625628710919134,1.53347984845126,1.1815669128608808,1.351867695707384,0.0002927475696851056,0.00112090817023845,-0.0013781662204999864,0.0005342995831434261,0.0006241161464414286,-0.00046382049069601956,0.00031088262129024013,0.6894415020942688,-50.24197769165039,-7.027482032775879,17.13324737548828,1.6432596445083618,-1.0452988147735596,0.012864691205322742,,,,,,,,,
1739303213.1685915,-0.07232766297078373,1.0422809073938402,-0.39034269843353353,-1.462562871079352,1.5334759104171634,1.1815677918400653,1.3518693749231427,-0.00017434233505612886,-0.0016145378967068057,8.82133785139684e-05,-0.00040806755942935583,-0.00140232633664565,0.00034515939736779036,0.000695778684755952,0.7172124981880188,-50.21817398071289,-7.027482032775879,17.13324737548828,1.6496683359146118,-1.0526230335235596,-0.0072769103571772575,,,,,,,,,
1739303213.1795485,-0.07232569935576011,1.0422829382257754,-0.39034487591236633,-1.462561088402333,1.533479090767148,1.181566207528685,1.3518677469932432,0.00102227041879135,-0.0007104663961958232,-0.00011485779744285226,-0.0002234021399204662,0.00029933916697643303,6.133730179193022e-05,-0.0003080615618462532,0.6894415020942688,-50.24197769165039,-7.027482032775879,17.10944366455078,1.6496683359146118,-1.0388901233673096,0.0064559997990727425,,,,,,,,,
1739303213.1905115,-0.07232766199437826,1.0422840041681365,-0.3903466269849406,-1.4625610879662678,1.5334790903005846,1.1815638996634656,1.3518686148285182,-0.0002465216982079451,0.0006942227221504459,-0.0009028215225691072,2.868143053155842e-05,0.0008100210421103591,0.0001299509854764223,0.0009335806303318184,0.7172124981880188,-50.21817398071289,-7.003678321838379,17.10944366455078,1.6496683359146118,-1.0196640491485596,-0.0008682189509272575,,,,,,,,,
1739303213.2005205,-0.07232937549151425,1.0422857173936464,-0.390344844200747,-1.4625628710793444,1.533478350083101,1.1815638822208627,1.351870127726124,-0.0009995556675210602,0.0003311261428856764,0.00021927698038861683,-0.0003670662543706132,-5.4331213812553314e-05,-0.0008164343633848154,0.0009537782510229663,0.7410162091255188,-50.24197769165039,-7.027482032775879,17.13324737548828,1.6560770273208618,-1.0196640491485596,-0.013685601763427258,,,,,,,,,
1739303213.2115614,-0.07233161582125987,1.0422835975373137,-0.39034276441088955,-1.4625664276030723,1.5334775754650405,1.1815638419935643,1.3518701283721108,0.0004130797946871255,0.00021587678916878603,-0.00024659951738864345,0.0002493780931077259,-0.00018060393040950442,-0.0004957350519173779,0.0021103924012932755,0.7410162091255188,-50.24197769165039,-7.055253028869629,17.18085479736328,1.6624857187271118,-1.0196640491485596,-0.013685601763427258,,,,,,,,,
1739303213.2225828,-0.07233012438740079,1.0422829732255163,-0.39034484420074517,-1.4625636128259925,1.5334782938791665,1.1815638822203403,1.3518646080620271,-0.0007236230789330546,-0.000718930390428615,-0.0006090879217142231,-0.0006694941364757203,-0.0007919018620312757,-0.000560050204129303,-0.0006794778653151747,0.7172124981880188,-50.24197769165039,-7.027482032775879,17.13324737548828,1.6560770273208618,-1.0196640491485596,0.03300629183650017,,,,,,,,,
1739303213.2334638,-0.07233075885576064,1.0422829613028801,-0.3903487066676198,-1.462562623834642,1.5334801504230093,1.1815661552008023,1.351868612944286,-0.0013221241345789812,-0.0011776101107484585,-0.001440147469600653,0.0007604396426636599,7.625224200112721e-06,0.0002243127621409163,0.0011664386791006027,0.7172124981880188,-50.24197769165039,-6.975907325744629,17.13324737548828,1.6496683359146118,-1.0388901233673096,-0.0008682189509272575,,,,,,,,,
1739303213.243513,-0.07233185362253562,1.0422841229998874,-0.3903448432195987,-1.4625607440157538,1.533477018400796,1.1815661552008023,1.3518638548164346,-0.0016374528567733645,-0.000189162315953728,4.349583318025591e-06,0.001320454192174353,-0.00046364927715826856,0.00040145206221753533,-0.0005917679560526026,0.7410162091255188,-50.21817398071289,-7.027482032775879,17.10944366455078,1.6432596445083618,-1.0388901233673096,0.03941498324275017,,,,,,,,,
1739303213.2555096,-0.07232803851735317,1.0422809850152757,-0.3903487095565453,-1.4625568628433212,1.5334783331090474,1.181565397540724,1.3518685726383244,3.8093044933855494e-05,-0.00156668774831744,-0.0005348132996067261,0.0010480611728026406,-0.00124249423098552,0.00029133112087214783,0.0011676335848116385,0.6894415020942688,-50.21817398071289,-6.975907325744629,17.08167266845703,1.6560770273208618,-1.0324814319610596,-0.027418512850999832,,,,,,,,,
1739303213.2655787,-0.0723296246836385,1.0422809319793165,-0.39034484420076143,-1.4625608106894454,1.5334798469916295,1.1815646398806456,1.3518693706402536,-4.532718631286949e-05,-0.0015878165706213379,0.0008092867340428629,0.0004091668714882731,0.0006036000288244598,-0.0004244564306590624,0.0005326438197523261,0.7410162091255188,-50.21817398071289,-7.027482032775879,17.10944366455078,1.6432596445083618,-1.0260727405548096,-0.0072769103571772575,,,,,,,,,
1739303213.2765222,-0.0723288402995379,1.0422840164856282,-0.3903428424120296,-1.4625628706385836,1.5334833291760888,1.181565397540724,1.3518681394517866,-0.0006827125251429979,1.7961183234060018e-05,0.00044719839138479393,-0.001370339684147283,0.0016420673333700818,-3.432319916615264e-05,0.002355280840344556,0.6894415020942688,-50.21817398071289,-7.055253028869629,17.13324737548828,1.6496683359146118,-1.0324814319610596,0.0064559997990727425,,,,,,,,,
1739303213.2884665,-0.07233083054986682,1.0422843384207365,-0.39034276147948566,-1.4625618336805404,1.5334772715747473,1.1815677787581131,1.3518687673862297,-0.0012743957956781226,0.000791176418431818,0.0003315089926009126,-0.0006056785099573729,-0.0007149169196413063,0.0007090268441409622,0.000831606607587421,0.7172124981880188,-50.26578140258789,-7.055253028869629,17.13324737548828,1.6560770273208618,-1.0526230335235596,0.0064559997990727425,,,,,,,,,
1739303213.2985692,-0.07233223547633907,1.042283570592844,-0.39034276441087296,-1.462562739127472,1.5334766826067516,1.1815661552008023,1.3518693705562896,-0.0001513533560267174,-0.0004606499385873382,0.000759341897876942,-0.0006130736405679158,-0.0004253028326696886,-0.0001725064581051692,0.0002480080202097155,0.7410162091255188,-50.24197769165039,-7.055253028869629,17.13324737548828,1.6432596445083618,-1.0388901233673096,-0.0072769103571772575,,,,,,,,,
1739303213.309498,-0.0723325782626318,1.0422850045254943,-0.3903465915564932,-1.4625620762046547,1.5334790907672302,1.1815646413341958,1.3518653645377303,-0.0005222705419367078,-0.0010375394506512443,-0.0010453810015442497,0.00048625903382119217,0.00045470857791576875,8.020779904476946e-05,0.00019517246486528637,0.7410162091255188,-50.24197769165039,-7.003678321838379,17.13324737548828,1.6496683359146118,-1.0260727405548096,0.026597600430250168,,,,,,,,,
1739303213.3195152,-0.07232715625658429,1.0422851170289955,-0.39034276015865693,-1.4625627886495915,1.5334797957569706,1.181564692208479,1.3518701286951036,0.0018231015366916565,0.0005106971073396965,-3.14373499804552e-05,-0.00022659778887204558,0.0006746986130453989,0.00021700764089766146,0.0009388028133839031,0.6656377911567688,-50.24197769165039,-7.055253028869629,17.13324737548828,1.6496683359146118,-1.0260727405548096,-0.013685601763427258,,,,,,,,,
1739303213.3295314,-0.07233062549925057,1.0422811812323907,-0.39034484387362434,-1.4625663569591343,1.5334792041739593,1.181563124561375,1.3518725617559242,1.1153946140280454e-05,-0.001519726815935558,0.00020349064537812054,-0.0020617150228128597,6.778146317506266e-05,-0.00023984853907815597,0.0018460521447297795,0.7172124981880188,-50.21817398071289,-7.027482032775879,17.18085479736328,1.6496683359146118,-1.0132553577423096,-0.03382720425724983,,,,,,,,,
1739303213.3405018,-0.07233078631201499,1.0422828821566206,-0.3903409809646983,-1.4625580835864769,1.533476367553381,1.1815646398806456,1.3518686124062298,-0.0004399021654160069,0.00012382067764716502,0.0010025214411539167,0.0011971489252683785,-0.00182978138649279,-6.560245583229959e-05,-0.00034656274319821046,0.7172124981880188,-50.24197769165039,-7.079056739807129,17.10944366455078,1.6368509531021118,-1.0260727405548096,-0.0008682189509272575,,,,,,,,,
1739303213.3505316,-0.07232801796501788,1.042281794084303,-0.3903427644108765,-1.4625628700473186,1.5334775753931644,1.181565397540724,1.3518704716792316,0.0012756746192567384,-0.0007638461770175674,0.0013188289506209866,-0.000593564545306329,-0.0003977230257348118,-4.1690673094227614e-05,0.0010815240610190127,0.7172124981880188,-50.19040298461914,-7.055253028869629,17.13324737548828,1.6624857187271118,-1.0324814319610596,0.019273381680250168,,,,,,,,,
1739303213.361541,-0.07233086569158935,1.0422864840893769,-0.39034578021442606,-1.4625579131218145,1.5334775754649443,1.1815677787581131,1.3518653716140756,-0.0003438985644585216,0.0004189324065312943,-0.000258240385866361,0.0006351918835903838,7.844011351301262e-05,0.00010398415922158898,-0.00014495779604023316,0.7172124981880188,-50.26578140258789,-7.027482032775879,17.10944366455078,1.6624857187271118,-1.0526230335235596,0.026597600430250168,,,,,,,,,
1739303213.372452,-0.07233256947512992,1.0422836513860112,-0.3903427644161734,-1.4625621469390335,1.5334779899630484,1.1815654106226763,1.3518740401780547,-0.0007520607926664342,5.758234138638946e-06,0.0006802115266079242,-2.20545068005479e-05,-0.0005899966401025395,8.670606260431462e-05,0.003136452377826881,0.7410162091255188,-50.24197769165039,-7.055253028869629,17.13324737548828,1.6496683359146118,-1.0324814319610596,-0.03382720425724983,,,,,,,,,
1739303213.3824914,-0.0723308628138746,1.0422863275065959,-0.3903466281617336,-1.4625606988089233,1.5334790515206023,1.1815653975409457,1.3518686129163746,-0.00025629485297569735,0.00042158319267522767,-0.0010334167436065996,-0.0009396445858872092,-0.0013739749223978697,-0.0003881373778442483,0.001045057526416885,0.7172124981880188,-50.29355239868164,-7.003678321838379,17.13324737548828,1.6496683359146118,-1.0324814319610596,-0.0008682189509272575,,,,,,,,,
1739303213.3925767,-0.07232887657192909,1.042288801286243,-0.39034413750280667,-1.4625586129331376,1.5334778579749333,1.1815638822205674,1.3518708989527488,0.000406750301558005,0.0010505929752775084,1.1883775497900997e-06,0.0011154343587988795,-0.00038211787187096785,0.00010529302078627465,0.0010783070688159533,0.6894415020942688,-50.29355239868164,-7.027482032775879,17.10944366455078,1.6560770273208618,-1.0196640491485596,-0.020094294100999832,,,,,,,,,
1739303213.4045062,-0.0723308647672811,1.042288287199993,-0.3903448432512752,-1.4625571189765245,1.5334780311442897,1.1815646398806456,1.3518613166695272,-0.0007055373374843455,4.6952718180600555e-05,0.00040608529320864523,0.0009491033219591127,-0.0011672803720073597,0.00029656498933314576,-0.0023437319020170426,0.7172124981880188,-50.31735610961914,-7.027482032775879,17.05786895751953,1.6496683359146118,-1.0260727405548096,0.05955658480525017,,,,,,,,,
1739303213.4145205,-0.0723287857682351,1.0422846478044465,-0.3903448442007398,-1.4625597686937803,1.5334775740054127,1.1815630709244849,1.3518736203000339,0.000328145470613318,0.0008707491618614819,-0.000434956164562189,0.0008684551139560922,-0.0013993141546477783,-0.0006041806924408082,0.0029298314326971007,0.6894415020942688,-50.26578140258789,-7.027482032775879,17.13324737548828,1.6624857187271118,-1.0132553577423096,-0.04023589566349983,,,,,,,,,
1739303213.4245582,-0.07233257826317759,1.0422834159041,-0.3903427644108895,-1.4625568623566612,1.5334798484451553,1.181566155199894,1.35186770696239,-0.0006299677488309644,-0.001293340020882522,0.0005835771403734913,0.0014838515009252772,0.0008500935662741366,0.00038612474155504844,0.0004206207890379436,0.7410162091255188,-50.24197769165039,-7.055253028869629,17.08167266845703,1.6432596445083618,-1.0388901233673096,-0.020094294100999832,,,,,,,,,
1739303213.435523,-0.0723288678029826,1.042282947896378,-0.3903466268777641,-1.4625587318807334,1.533475570646806,1.181565397540724,1.3518693704787492,0.0001816093518143678,-0.0009393967134644781,-0.0010741541789350624,0.0010962016529750963,-0.0018890844938786765,-3.403120471462547e-05,0.0016712152103674183,0.6894415020942688,-50.24197769165039,-7.003678321838379,17.08167266845703,1.6432596445083618,-1.0324814319610596,-0.0072769103571772575,,,,,,,,,
1739303213.4464633,-0.07232887170031421,1.042284851354122,-0.390344831409503,-1.4625614656830541,1.5334769202500358,1.181566912914716,1.35186698933314,-0.00011995166111970366,0.00047767975710517755,0.0012327594220120182,-0.0001237644850591716,-0.0005000560472398958,0.0002325006258456911,-0.0007584273704941876,0.6894415020942688,-50.24197769165039,-7.027482032775879,17.15705108642578,1.6560770273208618,-1.0452988147735596,0.012864691205322742,,,,,,,,,
1739303213.4565105,-0.07232715560709504,1.0422821158246596,-0.3903466180472298,-1.4625628666647108,1.5334766693453592,1.1815638822205683,1.3518693705505294,0.0012486379670194276,-1.2538171186229777e-05,-0.0006119444571871619,-0.0009674442166755432,-0.000457142747398003,-0.0007406346210847529,0.0008071236361329245,0.6656377911567688,-50.19040298461914,-7.003678321838379,17.13324737548828,1.6432596445083618,-1.0196640491485596,-0.0072769103571772575,,,,,,,,,
1739303213.4665487,-0.07232789217552064,1.0422858051535986,-0.3903487329083967,-1.4625579751381774,1.533479090731263,1.181564707028692,1.351866231673172,0.0019135210507196456,0.00030266249561506373,-0.0014559556480277297,0.001759103292422508,0.0005522385121558654,-0.00039894150982693456,-0.000645106862742628,0.6894415020942688,-50.24197769165039,-7.003678321838379,17.08167266845703,1.6496683359146118,-1.0388901233673096,0.019273381680250168,,,,,,,,,
1739303213.477513,-0.07233086573832821,1.042282647715401,-0.39034695313234696,-1.462557900651793,1.5334798484451795,1.181565397532549,1.3518669893331403,-0.0007446794718323014,-0.0008394642101482722,-0.0008953855554309706,0.0011271977629983155,-0.0009137851388670782,-7.338758797747635e-05,0.00026125459264956597,0.7172124981880188,-50.24197769165039,-7.027482032775879,17.10944366455078,1.6432596445083618,-1.0324814319610596,0.012864691205322742,,,,,,,,,
1739303213.4875627,-0.07233086574383557,1.0422867945155914,-0.3903427644466045,-1.4625618261044337,1.5334780464152244,1.1815646398806454,1.351870921546956,0.00062114369014566,-0.0004094630233671453,0.0005979745093344127,0.00018794759118861975,-0.00014151146749022593,4.3337213270202315e-05,0.0009388544684016001,0.7172124981880188,-50.26578140258789,-7.055253028869629,17.13324737548828,1.6624857187271118,-1.0260727405548096,0.0064559997990727425,,,,,,,,,
1739303213.4984841,-0.07233085695439902,1.0422843413637273,-0.39034276441089016,-1.4625628415182463,1.5334822697074653,1.181565397540724,1.35186774704698,0.0001538301507281403,-0.0010918442222551928,0.00027900549542211943,-0.0009763271502086738,0.0011561804486231331,-8.618783455089911e-05,7.827567692306127e-05,0.7172124981880188,-50.26578140258789,-7.055253028869629,17.13324737548828,1.6496683359146118,-1.0324814319610596,0.0064559997990727425,,,,,,,,,
1739303213.508568,-0.07233099703344084,1.0422875352806815,-0.39034484420074517,-1.4625600056592463,1.5334775754828898,1.1815646398806456,1.3518629860121012,0.0004190811415865789,0.0006947004254548559,0.0005121901042415987,0.0009970749337234028,-0.0016051595293737736,-0.0004630919039751764,-0.0015135337850998422,0.7172124981880188,-50.26578140258789,-7.027482032775879,17.13324737548828,1.6624857187271118,-1.0260727405548096,0.04673920199275017,,,,,,,,,
1739303213.5194912,-0.0723308657445768,1.042281019537022,-0.3903440494721482,-1.4625620370887227,1.5334767095677124,1.181565397540724,1.3518686085298086,0.0004735148126866203,-0.0014492151408923614,0.0007530976572548647,-0.0002328885994469858,-0.000553977742074529,-6.130924057071788e-05,-0.0011837867881448962,0.7172124981880188,-50.21817398071289,-7.027482032775879,17.13324737548828,1.6698099374771118,-1.0324814319610596,-0.0008682189509272575,,,,,,,,,
1739303213.5305347,-0.07233089205082395,1.0422843426308261,-0.39034460577767977,-1.4625646140697413,1.533475205445294,1.1815669128608808,1.351869005348993,0.001476097946896607,1.1768301014934224e-05,0.00010883145739531017,-0.001101335411424967,-0.001134331719625835,0.0002977830247550109,0.0006618852142871485,0.7172124981880188,-50.26578140258789,-7.027482032775879,17.15705108642578,1.6496683359146118,-1.0452988147735596,-0.0008682189509272575,,,,,,,,,
1739303213.54149,-0.07233086585224338,1.0422835971201596,-0.39034665287679826,-1.4625596652377215,1.5334798482617416,1.1815661552008023,1.3518662316753876,-0.0010406467564381646,-0.0006561150848142562,3.4259993325061445e-05,0.001039932810442628,0.0007467797672390945,0.00016810232155729124,-0.00017814400425338376,0.7172124981880188,-50.24197769165039,-7.003678321838379,17.13324737548828,1.6432596445083618,-1.0388901233673096,0.019273381680250168,,,,,,,,,
1739303213.5514948,-0.07233086563532594,1.0422853012268245,-0.39034476515631555,-1.462560712393929,1.5334804820689674,1.181565397540724,1.3518653657759399,0.0005502790148120143,0.0006110220209504063,-0.0005589042044142398,7.587905444313725e-05,0.00034475288502756256,-0.0010311054868039897,-0.0011016414985143075,0.7172124981880188,-50.26578140258789,-7.027482032775879,17.13324737548828,1.6368509531021118,-1.0324814319610596,0.026597600430250168,,,,,,,,,
1739303213.5615046,-0.07232991680945393,1.0422858226673242,-0.3903487064162544,-1.4625588273683676,1.5334798484430792,1.1815669128608808,1.3518614692383941,0.0009665458190451676,-0.0001903176846390891,-0.0017164191489527892,-0.0004410135328426927,-0.0001747725047176983,0.00030976799961906186,-0.0018428394873076764,0.7172124981880188,-50.24197769165039,-7.003678321838379,17.10944366455078,1.6432596445083618,-1.0452988147735596,0.05955658480525017,,,,,,,,,
1739303213.5715637,-0.07233078662283558,1.0422902782771055,-0.3903448445569547,-1.4625646267910617,1.5334790777031493,1.1815646398806456,1.351863811048421,0.0008128410399268763,0.0012951224040288608,-3.849044160747728e-05,-0.002759259978332763,0.0005907172207986139,-0.0002693033306375655,-0.0012682533150124567,0.7172124981880188,-50.31735610961914,-7.027482032775879,17.15705108642578,1.6496683359146118,-1.0260727405548096,0.03941498324275017,,,,,,,,,
1739303213.5825238,-0.07233289687097828,1.042285507533809,-0.39034664404782843,-1.4625599822571018,1.533479848445106,1.181565397540724,1.3518638699977361,-0.0010718199814290655,0.00010688076066100481,-0.00016153809156518108,0.0004527662831048085,-0.0002655074358960831,-0.00012447059954982911,-0.0003997339305116797,0.7410162091255188,-50.24197769165039,-7.003678321838379,17.13324737548828,1.6432596445083618,-1.0324814319610596,0.03941498324275017,,,,,,,,,
1739303213.5934849,-0.07233299704472178,1.0422827238797536,-0.3903401605144172,-1.4625587658169399,1.533478333125023,1.1815646399344808,1.3518677476393512,-0.00046792592637021914,-0.0013032973724973183,0.001768561762129221,0.0006962629547770543,0.00044627650568482204,7.46250012962521e-05,0.0015595428549596449,0.7172124981880188,-50.24197769165039,-7.079056739807129,17.08167266845703,1.6560770273208618,-1.0260727405548096,0.0064559997990727425,,,,,,,,,
1739303213.603518,-0.07233086577992943,1.0422826202997926,-0.3903427643969821,-1.4625639452985277,1.5334790907851013,1.1815646398806465,1.3518686135364844,0.000280651781126216,-0.0005838372141426758,0.0005591218757652878,-0.0012707268535158437,0.0001036217878949217,8.091554580418376e-05,0.0012786882880593368,0.7172124981880188,-50.24197769165039,-7.055253028869629,17.18085479736328,1.6496683359146118,-1.0260727405548096,-0.0008682189509272575,,,,,,,,,
1739303213.6145453,-0.07233158480151594,1.0422886327474459,-0.3903491702593011,-1.4625621524019226,1.5334815120394112,1.1815654106226763,1.3518669893331512,-0.00025523100376255057,0.0010665129748920078,-0.0015205987741015727,-0.0008327626061433206,0.000691938126835612,5.71513154442559e-05,0.0007026620102896649,0.7172124981880188,-50.26578140258789,-6.975907325744629,17.13324737548828,1.6560770273208618,-1.0324814319610596,0.012864691205322742,,,,,,,,,
1739303213.6254458,-0.07233257859069753,1.0422875474985336,-0.390346535304971,-1.46256073082762,1.5334798484511616,1.1815661552008268,1.3518678647307887,-0.0001713550148324383,0.0009162737711427525,-0.0005545347692587641,0.00015830851869061416,0.0005893473844690314,3.632300149590412e-05,0.0009455860552388237,0.7410162091255188,-50.26578140258789,-7.003678321838379,17.10944366455078,1.6432596445083618,-1.0388901233673096,0.0064559997990727425,,,,,,,,,
1739303213.6355708,-0.07233541941930667,1.0422826553467015,-0.39034484419919435,-1.4625628313913746,1.533479130030958,1.181565397540724,1.3518673817937006,-0.001747673716804668,-0.0007490936059024074,-6.79215602170326e-05,-0.0011368736802440725,0.0019000544989880906,-0.0003435444498970915,0.0003874844586518167,0.7410162091255188,-50.24197769165039,-7.027482032775879,17.13324737548828,1.6496683359146118,-1.0324814319610596,0.012864691205322742,,,,,,,,,
1739303213.6465728,-0.07232886785510742,1.0422830770195153,-0.3903466268777641,-1.462560099043134,1.5334790907853229,1.1815661552008023,1.3518647923539868,0.0009221710888894748,-0.0013800692982697611,-0.0008809395537576639,0.00038982260571506915,-0.0006729508257070595,-0.000582892233638133,-0.00014536867622898567,0.6894415020942688,-50.21817398071289,-7.003678321838379,17.10944366455078,1.6496683359146118,-1.0388901233673096,-0.0072769103571772575,,,,,,,,,
1739303213.6574821,-0.0723288707259816,1.0422850565173052,-0.3903422951460175,-1.4625610517672816,1.53347833506309,1.1815669128608808,1.3518669912453634,0.0015198656670963296,-0.00031040569786053366,0.000547128830359601,0.00011644179244351262,0.0003613262373654769,0.000509227873900981,-0.0011602441795897818,0.6894415020942688,-50.26578140258789,-7.027482032775879,17.10944366455078,1.6560770273208618,-1.0452988147735596,0.012864691205322742,,,,,,,,,
1739303213.668519,-0.07233257923891626,1.042282749413686,-0.39034507818977593,-1.4625654705127058,1.533480606105269,1.1815646398806456,1.351870928814718,-0.00016193864636440493,-0.0006497395145441282,-0.0004783112114756915,-0.00228756247902473,0.0007511302844563885,-0.00029197883637950496,0.0005373375833972263,0.7410162091255188,-50.24197769165039,-7.027482032775879,17.18085479736328,1.6368509531021118,-1.0260727405548096,0.0064559997990727425,,,,,,,,,
1739303213.6785324,-0.07233086617688901,1.042284438784769,-0.3903406377834309,-1.4625565170293038,1.5334806061052582,1.181563124560489,1.3518721025462366,0.0003800536923627512,-0.0017042714476670682,0.0019164215821705387,0.00028950269360585945,0.0007151625015725928,-0.00042946181882354625,0.0012324183192867545,0.7172124981880188,-50.26578140258789,-7.079056739807129,17.08167266845703,1.6368509531021118,-1.0132553577423096,-0.020094294100999832,,,,,,,,,
1739303213.6894782,-0.07233258086203331,1.0422829712583053,-0.3903409464106579,-1.4625603680154242,1.533481310953011,1.1815649418586966,1.3518662304418307,-0.0006222851498007124,-0.00022594494874206403,0.0015195425220640468,0.00062711471413242,-0.00022982890117573756,0.00020913681067380945,-0.001198882441801519,0.7410162091255188,-50.24197769165039,-7.079056739807129,17.13324737548828,1.6304422616958618,-1.0196640491485596,0.019273381680250168,,,,,,,,,
1739303213.699547,-0.07233086574387966,1.0422872267705752,-0.3903473288874266,-1.462561798534913,1.5334786351021799,1.181565397558669,1.3518715810983468,-0.0001999798878635794,0.0007358024120385652,-0.0006523723029673894,0.00014911640232487592,2.2757321547928894e-06,0.00010507488692675444,0.0010346853190375664,0.7172124981880188,-50.26578140258789,-7.003678321838379,17.13324737548828,1.6624857187271118,-1.0324814319610596,0.012864691205322742,,,,,,,,,
1739303213.710474,-0.07232886780298262,1.04228094271515,-0.39034277597057687,-1.4625588905418039,1.533478331515949,1.1815669128608808,1.3518677485265247,0.00037513750650516577,-0.00016510141767914042,-0.0008275062509999078,-0.00025078094934184486,0.0009627430853180626,0.0005007058532113456,-0.0012777466479744494,0.6894415020942688,-50.21817398071289,-7.055253028869629,17.08167266845703,1.6560770273208618,-1.0452988147735596,0.0064559997990727425,,,,,,,,,
1739303213.720517,-0.0723311026149894,1.0422835458306203,-0.3903515147088583,-1.4625610075102622,1.5334798091992958,1.1815677792426298,1.3518677862391013,0.0005650832674267275,-0.0013944453669841597,-0.0014219034469044535,-0.0006531070728858835,-0.00035831399134717196,-7.013830766853033e-05,0.0006200076057927188,0.7172124981880188,-50.29355239868164,-6.975907325744629,17.10944366455078,1.6432596445083618,-1.0526230335235596,0.0064559997990727425,,,,,,,,,
1739303213.731441,-0.07232887173773775,1.0422847587817399,-0.39034484421659665,-1.46256063308392,1.5334798484987935,1.181566149241249,1.351869370550751,0.0013684439203887275,-0.00021168475858401203,0.0005755247554210651,6.188206589480752e-05,0.0003572678225831084,-0.00043917515275015945,0.0006368799077760873,0.6894415020942688,-50.24197769165039,-7.027482032775879,17.13324737548828,1.6432596445083618,-1.0388901233673096,-0.0072769103571772575,,,,,,,,,
1739303213.7415757,-0.07233191834821115,1.042282696754658,-0.39034484409172915,-1.4625609732432527,1.5334776779342632,1.1815661552007013,1.3518725094281072,-0.00020369047193941666,-0.0017125701333207336,-0.00023750126767386543,0.00026885947378120327,-0.0008682983324735814,-0.00012350666714369717,0.002102680810817691,0.7172124981880188,-50.24197769165039,-7.027482032775879,17.10944366455078,1.6496683359146118,-1.0388901233673096,-0.03382720425724983,,,,,,,,,
1739303213.7524743,-0.07233303183615836,1.042278947302105,-0.39034484420074456,-1.4625625429397338,1.5334766695228164,1.1815638821653862,1.3518686259724033,-0.00031374269372366103,-0.0009528247021307656,0.00017806580976533908,-0.0002148541872703384,-0.0004842731151128278,-0.0008646436292113371,0.0008947047021040028,0.7172124981880188,-50.19040298461914,-7.027482032775879,17.13324737548828,1.6432596445083618,-1.0196640491485596,-0.0008682189509272575,,,,,,,,,
1739303213.7625291,-0.07233573524810269,1.042281629901704,-0.3903444380061289,-1.4625596567291195,1.533479090731266,1.1815653975407232,1.3518701301488965,-0.0006842114346702698,-0.0010472163206953968,0.00048598342017365086,0.0005638522217765299,-0.0006705950686911484,-0.00025532516743498654,0.0015938266313099332,0.7410162091255188,-50.21817398071289,-7.027482032775879,17.13324737548828,1.6496683359146118,-1.0324814319610596,-0.013685601763427258,,,,,,,,,
1739303213.7735105,-0.07233121987753621,1.042280916611663,-0.3903487062292617,-1.4625585879870546,1.5334789338016745,1.181565397540724,1.3518669936938021,0.00021960224236946844,-0.0019399796739058988,-0.0010895571270171395,0.0011364072493922207,-0.0006973198164960608,-0.00021771580293340108,-9.377415806749039e-05,0.7172124981880188,-50.21817398071289,-6.975907325744629,17.10944366455078,1.6496683359146118,-1.0324814319610596,0.012864691205322742,,,,,,,,,
1739303213.784511,-0.07233479195091312,1.0422846043056282,-0.39033883692963317,-1.462560447488234,1.5334802016570035,1.1815638822205674,1.3518638504558076,-0.000698306001496299,0.0003618014643629472,0.0014544158851349813,-0.00010752029910437934,0.0008636974974441319,-0.00013896579155868417,-0.00016298270247544207,0.7410162091255188,-50.26578140258789,-7.079056739807129,17.13324737548828,1.6432596445083618,-1.0196640491485596,0.03941498324275017,,,,,,,,,
1739303213.795504,-0.07233328967333151,1.0422867149378487,-0.3903449220565465,-1.4625638575695186,1.533478333131005,1.181565276859715,1.3518722222337916,0.0006538254395479564,0.0005437184740932009,0.0004195339541842301,-0.0011034666981082084,0.00038986777773220656,1.7876252934293115e-05,0.0019096412592042602,0.7410162091255188,-50.26578140258789,-7.027482032775879,17.15705108642578,1.6560770273208618,-1.0324814319610596,-0.027418512850999832,,,,,,,,,
1739303213.8064892,-0.07233181312153003,1.0422884734909235,-0.39034566044869085,-1.462557905089457,1.5334830278440847,1.1815669128606536,1.3518655764831866,0.0008571352847105327,0.0008242069486241129,0.00022257952217216367,0.0006275021792025101,0.0014596787809232697,0.0006078051106236911,-0.0008790658398445477,0.7172124981880188,-50.29355239868164,-7.003678321838379,17.10944366455078,1.6432596445083618,-1.0452988147735596,0.012864691205322742,,,,,,,,,
1739303213.8165908,-0.07232990645789716,1.0422848019678899,-0.3903448441843786,-1.4625596790291018,1.5334783336633833,1.181565397540724,1.3518676293932275,0.0004934550872421848,0.00014679917009442864,0.0005228375657659542,-7.4507853870167115e-06,-0.000349810941440996,6.152905872749032e-05,2.9892291018995616e-05,0.6894415020942688,-50.24197769165039,-7.027482032775879,17.13324737548828,1.6560770273208618,-1.0324814319610596,0.0064559997990727425,,,,,,,,,
1739303213.827549,-0.07233503373368189,1.0422850712345717,-0.3903448441644063,-1.4625557899618096,1.5334783331250261,1.181565397540724,1.3518641123962496,-0.0018381291134602876,0.0005254587885409605,-0.00026463079018118943,0.0017914993117336426,0.00011484418849085407,-0.0008426968910424208,-0.0013202322368937678,0.7410162091255188,-50.26578140258789,-7.027482032775879,17.08167266845703,1.6560770273208618,-1.0324814319610596,0.019273381680250168,,,,,,,,,
1739303213.8385465,-0.0723292112150612,1.0422867146466714,-0.39034484708967604,-1.4625578697515151,1.5334790908389366,1.181565397540724,1.351865718976686,2.621299859956942e-05,0.0005802684588464668,0.0011679252589555926,0.00026423086344928685,0.00011766151876004466,5.3897093850272256e-05,-0.0007476396807570962,0.6894415020942688,-50.26578140258789,-7.027482032775879,17.10944366455078,1.6496683359146118,-1.0324814319610596,0.026597600430250168,,,,,,,,,
1739303213.8495483,-0.07233123687732257,1.0422828563316668,-0.39034659155650947,-1.462559652428534,1.5334790903005848,1.1815661552008023,1.351863850457777,0.0003179681442005115,-0.0009715318251882586,-0.0009280613180548575,-0.0004719069785741773,-0.0003205271969891877,0.00018635649778041106,-0.0014447308443630616,0.6894415020942688,-50.24197769165039,-7.003678321838379,17.13324737548828,1.6496683359146118,-1.0388901233673096,0.03941498324275017,,,,,,,,,
1739303213.8604662,-0.0723373690771644,1.0422872032184118,-0.39034484420054577,-1.4625597315864578,1.5334783331250204,1.181565397540724,1.3518646253969588,-0.0021698925223074695,2.1941461418941737e-05,-0.0004155191333522926,-0.00033862483899552474,-0.0004023599114595801,6.542538042052866e-05,-0.0007012222311024608,0.7648199200630188,-50.26578140258789,-7.027482032775879,17.13324737548828,1.6560770273208618,-1.0324814319610596,0.03300629183650017,,,,,,,,,
1739303213.8705106,-0.07233087857055372,1.0422864196564918,-0.3903455724519323,-1.4625643079035997,1.5334798482836742,1.1815653973751807,1.351870128049395,-0.00032620265415657607,0.00011747636891820267,-0.0005163600211361978,-0.0015023209330215761,0.0010460586550001972,0.0001716640991197229,0.00039350092280887816,0.7172124981880188,-50.29355239868164,-7.055253028869629,17.15705108642578,1.6432596445083618,-1.0324814319610596,-0.013685601763427258,,,,,,,,,
1739303213.8814397,-0.07233353812689067,1.0422872853065328,-0.3903406183324803,-1.4625549913907125,1.533478333071187,1.1815613814933967,1.3518671128849105,-0.0004807465797733501,0.0016330379869643704,0.0018467653381951414,0.0012496281500875648,3.133395491015467e-05,-0.0012698272380909982,0.0002623332093080298,0.7410162091255188,-50.29355239868164,-7.055253028869629,17.05786895751953,1.6560770273208618,-1.0260727405548096,0.012864691205322742,,,,,,,,,
1739303213.8914666,-0.07233198113762879,1.0422790163615134,-0.39034578884487536,-1.462560606446565,1.5334798484451788,1.1815653969889133,1.3518677469953109,0.0003891984979659314,-0.0024902965711810793,0.00018962974169937843,-0.0006659524565230488,0.0003547352150842329,0.000365611967141885,0.0004027914394425518,0.6894415020942688,-50.19040298461914,-7.027482032775879,17.13324737548828,1.6432596445083618,-1.0324814319610596,0.0064559997990727425,,,,,,,,,
1739303213.902506,-0.07233373744524234,1.0422891898571809,-0.3903448353757599,-1.462562174023206,1.5334813463227335,1.1815669128608777,1.351861182528155,0.0003848563391089876,0.001856393230342352,-0.0003245024004825995,-0.0010532507987341634,0.0004913652182259699,0.0009035993088069878,-0.0016612519941948487,0.7172124981880188,-50.29355239868164,-7.027482032775879,17.15705108642578,1.6304422616958618,-1.0452988147735596,0.06596527993679047,,,,,,,,,
1739303213.913454,-0.07233748369041983,1.042283679552543,-0.39034732931596483,-1.4625596520491293,1.5334798448381233,1.1815661552008023,1.3518653657785982,-0.0015746575996129293,-0.0003314379346369115,-0.0014650556602541793,9.036728940225007e-05,0.0007248009756488226,8.076573770310575e-05,0.0012195267732051519,0.7648199200630188,-50.24197769165039,-7.003678321838379,17.13324737548828,1.6432596445083618,-1.0388901233673096,0.026597600430250168,,,,,,,,,
1739303213.9234936,-0.07233332414795693,1.0422867974034804,-0.3903448442364327,-1.4625617981957264,1.533480601744424,1.1815669128608808,1.3518670293701713,-0.0004520127184709779,0.0018381909903071795,0.0005075134644276564,-0.00027687172149143613,-7.545598970959411e-05,0.0003771026697747523,0.0008547646644859725,0.7172124981880188,-50.26578140258789,-7.027482032775879,17.13324737548828,1.6368509531021118,-1.0452988147735596,0.03941498324275017,,,,,,,,,
1739303213.9345133,-0.07233323759951606,1.042282696880497,-0.3903448441886323,-1.462559653413718,1.5334751531174768,1.181565397540724,1.351869826023308,0.00021492821837539847,-0.0005513531008510938,0.00035631276498497333,-0.0004790300011587725,-0.0008768889616426475,0.00025763431077266706,0.001964695717686665,0.7172124981880188,-50.24197769165039,-7.027482032775879,17.13324737548828,1.6496683359146118,-1.0324814319610596,-0.020094294100999832,,,,,,,,,
1739303213.9445217,-0.07233481772684978,1.0422851168836074,-0.39034204621171237,-1.4625596505753073,1.533477272802323,1.1815646398806456,1.3518646080620156,-0.0010617569717643663,0.00101097257209521,0.0010535483302620474,0.0006801188735703019,-0.0005638347679808642,-0.0003461700318788672,-0.0009012410630653068,0.7410162091255188,-50.24197769165039,-7.055253028869629,17.13324737548828,1.6560770273208618,-1.0260727405548096,0.03300629183650017,,,,,,,,,
1739303213.9554708,-0.07233466703661305,1.0422843680356708,-0.39034276440953813,-1.462555789961656,1.5334767207634554,1.1815646398806456,1.351869369096979,-0.0011504423606169285,8.962619508106641e-05,0.0005515699498303269,0.00042843307381759156,-0.0007530018147559867,0.00010453006280971758,-0.0005643040727557296,0.6894415020942688,-50.26578140258789,-7.055253028869629,17.08167266845703,1.6368509531021118,-1.0260727405548096,-0.0072769103571772575,,,,,,,,,
1739303213.9655278,-0.07233282822503645,1.042281170725143,-0.39034507820416536,-1.462561435105553,1.5334740945067074,1.1815638822205674,1.351869372004055,-0.000712867723155491,7.752957291379828e-05,0.0003182625765479224,-0.0004101528624804509,-0.0012122971618031648,-0.00012045029211389448,0.0008459152317922407,0.7410162091255188,-50.21817398071289,-7.027482032775879,17.15705108642578,1.6560770273208618,-1.0196640491485596,-0.0072769103571772575,,,,,,,,,
1739303213.9765134,-0.07233034766736374,1.0422790166738432,-0.39034272909093953,-1.4625632178189107,1.5334797458981,1.1815646398806456,1.3518693574685854,0.0014697874199600931,-0.001857641479243471,0.0006320974837313177,-0.0017290811564165704,0.001077945095101366,-7.525249798297382e-05,-0.0005150693779177058,0.6656377911567688,-50.19040298461914,-7.055253028869629,17.18085479736328,1.6560770273208618,-1.0260727405548096,-0.0072769103571772575,,,,,,,,,
1739303213.98655,-0.07233102936045338,1.0422840961779196,-0.39034448506885966,-1.4625558829300231,1.5334815120633367,1.181565384131723,1.3518680754370387,0.0012080119881268069,0.0006592669668458887,-0.00010671302813982883,0.0006446814511503042,0.001231736016369979,-0.000378913518022461,-1.3420814269450142e-05,0.6894415020942688,-50.21817398071289,-7.003678321838379,17.10944366455078,1.6560770273208618,-1.0324814319610596,-0.0072769103571772575,,,,,,,,,
1739303213.996556,-0.07233361336748968,1.0422830541435961,-0.39034400110301676,-1.4625633233978022,1.5334775755187802,1.181565397540497,1.3518677527854868,9.792561450483841e-05,-0.0017859107109360684,0.000770460872037084,-0.0016156447824460776,-0.001272101322839111,2.4364805350159065e-05,-0.00041142631335334544,0.7410162091255188,-50.21817398071289,-7.079056739807129,17.18085479736328,1.6624857187271118,-1.0324814319610596,0.0064559997990727425,,,,,,,,,
1739303214.007513,-0.07233398265231002,1.0422836502110753,-0.39034272448504653,-1.4625587344043258,1.533478450862594,1.1815669128608808,1.3518638506173868,-0.0011188993682231104,-0.0011659649453650083,0.001300629821903077,0.00041254648487509327,-0.001265920861484039,0.0002193354839041546,-0.0019493485095866182,0.7172124981880188,-50.24197769165039,-7.027482032775879,17.13324737548828,1.6560770273208618,-1.0452988147735596,0.03941498324275017,,,,,,,,,
1739303214.018521,-0.07232821191004489,1.0422894282528579,-0.3903448442086451,-1.4625613330645983,1.5334809081014757,1.181565393071057,1.3518621869153873,0.0005681576844857299,0.001363796782650875,-0.00013861532896674146,-0.00012212873293110832,0.0009842979245069101,0.0003876011841070977,-0.0018864089829268304,0.6656377911567688,-50.29355239868164,-7.027482032775879,17.15705108642578,1.6432596445083618,-1.0324814319610596,0.026597600430250168,,,,,,,,,
1739303214.0294356,-0.0723296402820755,1.0422868284716431,-0.39034662976669543,-1.4625600155169989,1.5334751411466285,1.1815653975406484,1.351866227258687,0.0013908473076304345,0.0006691964513714161,-0.0013804548817476635,0.0004173423487225564,-0.0014431884265901445,0.00040515594527779466,-0.0007090975535600623,0.6656377911567688,-50.26578140258789,-7.003678321838379,17.10944366455078,1.6560770273208618,-1.0324814319610596,0.019273381680250168,,,,,,,,,
1739303214.0394654,-0.07233171333819965,1.0422811462462749,-0.39034484387371265,-1.4625596524406468,1.5334775754469259,1.1815661552008023,1.3518686128904263,0.0012477521819590064,-0.0006316552368526616,0.0005454640120300582,-0.0005374624225106142,-0.0009087548328956145,0.0007262848069160159,0.0006400662062270402,0.6894415020942688,-50.21817398071289,-7.027482032775879,17.13324737548828,1.6624857187271118,-1.0388901233673096,-0.0008682189509272575,,,,,,,,,
1739303214.0494838,-0.07233360471833604,1.042279262617137,-0.3903427672998151,-1.462559652428534,1.5334790903005844,1.181565397540724,1.3518686143440015,0.000635181686313721,-0.001755770454220627,0.0008193060761542705,-0.0006521808762687501,0.00042680191852173055,-0.00010416249153211308,-0.00012614658516330924,0.7410162091255188,-50.19040298461914,-7.055253028869629,17.13324737548828,1.6496683359146118,-1.0324814319610596,-0.0008682189509272575,,,,,,,,,
1739303214.0595386,-0.07232922182798576,1.0422894621488918,-0.390346794903877,-1.4625618335170167,1.5334790907850933,1.1815657931577748,1.3518704814233422,0.00011246193141378909,0.0013893560238340615,-0.0007966634407732458,-0.0007168262949502786,0.00024291930169694675,0.0004020367376677588,0.0012395172624520851,0.6894415020942688,-50.29355239868164,-6.975907325744629,17.13324737548828,1.6496683359146118,-1.0388901233673096,-0.013685601763427258,,,,,,,,,
1739303214.070545,-0.07233203666034718,1.0422826556732867,-0.39034489566380126,-1.4625581072739375,1.53347984989873,1.1815661537088695,1.3518693705525233,-0.00014820930808120167,-0.0002953776855054449,0.000125002755109088,-0.0005802440774691471,0.0014626995422701156,0.00019305298115527831,-0.0001954676187879516,0.6894415020942688,-50.24197769165039,-7.027482032775879,17.10944366455078,1.6432596445083618,-1.0388901233673096,-0.0072769103571772575,,,,,,,,,
1739303214.081505,-0.07233405814542523,1.0422875476360098,-0.39034662687805466,-1.4625596524298747,1.5334790849170734,1.1815646398806372,1.3518701361243814,-0.0005780541750595331,0.0014618336553862648,9.849071659521748e-06,-0.0011925651924269373,-0.0012780899336733605,0.00027874594333187583,0.000687912043375122,0.7172124981880188,-50.26578140258789,-7.003678321838379,17.13324737548828,1.6496683359146118,-1.0260727405548096,-0.013685601763427258,,,,,,,,,
1739303214.0915089,-0.0723338252798192,1.0422857433415085,-0.39034276441088955,-1.4625557899616595,1.5334798484448817,1.1815661552008023,1.3518662316735741,-0.00020504457756762235,0.0002530791922907744,0.0011614821316282345,0.0007901323187088926,0.0002857084536874865,0.0003251564583044594,0.0010917430379651985,0.7172124981880188,-50.24197769165039,-7.055253028869629,17.08167266845703,1.6432596445083618,-1.0388901233673096,0.019273381680250168,,,,,,,,,
1739303214.102447,-0.07233121796473324,1.0422846504010979,-0.3903470097953883,-1.4625578710597102,1.5334806017804974,1.181565397540724,1.3518637711728958,0.0002684437674374483,0.00020398054795018597,-0.0003023099956695109,-0.00011707564123987886,0.0015741645162191393,6.705028673948974e-05,-0.00023190010714082773,0.7172124981880188,-50.26578140258789,-7.003678321838379,17.10944366455078,1.6368509531021118,-1.0324814319610596,0.012864691205322742,,,,,,,,,
1739303214.1124828,-0.07233406188648782,1.042283485908418,-0.390344481117037,-1.4625596537367511,1.5334790949841735,1.181565397540724,1.351869366135379,-0.0006383807428722054,-0.0012038226766815817,-7.654344331449648e-05,-2.3836941756093363e-07,0.0007552792235782432,0.0002995324904230502,0.0013045131543506356,0.7172124981880188,-50.21817398071289,-7.003678321838379,17.13324737548828,1.6496683359146118,-1.0324814319610596,-0.0072769103571772575,,,,,,,,,
1739303214.122513,-0.07233577326452977,1.0422853979513729,-0.39034485283119985,-1.462559652428556,1.5334783331250943,1.181565397540724,1.3518693705504545,-0.0016054905317843418,0.00010135256600545683,0.0011335485622513102,0.00017032167431780488,6.951749049559656e-05,-0.00022200417694016736,-6.191455940973039e-05,0.7410162091255188,-50.26578140258789,-7.027482032775879,17.13324737548828,1.6560770273208618,-1.0324814319610596,-0.0072769103571772575,,,,,,,,,
1739303214.1325438,-0.07233206410203669,1.0422863670800782,-0.3903448442008913,-1.462561870629583,1.5334766651701413,1.1815661552008023,1.3518654320379961,-4.45668855048538e-05,-0.00040157656287827096,0.00016664376642559937,-0.000435543636314942,-0.000286380091723934,8.487784526590681e-05,0.00040353615967009086,0.6894415020942688,-50.29355239868164,-7.027482032775879,17.15705108642578,1.6432596445083618,-1.0388901233673096,-0.0008682189509272575,,,,,,,,,
1739303214.1434462,-0.07233206117905999,1.0422875358259196,-0.39034484420074517,-1.4625575861366402,1.5334783331070534,1.1815650690717197,1.3518686128724953,0.0006628258551630406,0.0019348204935382702,-3.811772187133224e-05,0.0011490794028272667,-0.00022605854443161718,-0.00015951905326503035,0.0010640599559110385,0.6894415020942688,-50.26578140258789,-7.027482032775879,17.13324737548828,1.6560770273208618,-1.0388901233673096,-0.0008682189509272575,,,,,,,,,
1739303214.1545181,-0.07233406204289525,1.0422855942072071,-0.3903427634297431,-1.4625596524168696,1.5334781848509484,1.1815669128547495,1.351862279226281,-0.00046502353272281525,0.0007982183101457553,0.00026720486816809807,0.0006050320076596123,4.406356315668513e-05,0.0007881227880096812,-0.0014148802202035415,0.7172124981880188,-50.24197769165039,-7.055253028869629,17.13324737548828,1.6304422616958618,-1.0452988147735596,0.05314789339900017,,,,,,,,,
1739303214.1654673,-0.07233011481843298,1.0422866725787125,-0.3903426849380243,-1.4625577827605705,1.5334790907133211,1.1815638822205674,1.3518643743382293,0.0011421117859193263,0.0010185598333643893,0.00025125423557609803,0.0006728570597663622,0.0008480734451072209,-0.0003944098919368157,-0.0002457800982653361,0.6656377911567688,-50.29355239868164,-7.055253028869629,17.10944366455078,1.6496683359146118,-1.0196640491485596,-0.0008682189509272575,,,,,,,,,
1739303214.1754794,-0.07233577455963335,1.0422838579813527,-0.3903427379185904,-1.4625557261856692,1.5334744990198732,1.181565397540724,1.351871199765869,-0.0006941872268846564,0.00047465451005995426,1.300216170051628e-05,0.0008715474297206591,-0.0004519654126484972,-5.443604952195309e-05,0.0012109161261931979,0.7410162091255188,-50.21817398071289,-7.055253028869629,17.08167266845703,1.6496683359146118,-1.0324814319610596,-0.020094294100999832,,,,,,,,,
1739303214.18652,-0.07233406204291168,1.0422790255526768,-0.3903448446282863,-1.4625596524274538,1.5334790892537893,1.181565397540724,1.3518717516118388,-0.0003868345270885611,-0.0015738644304776734,-0.0002726610299526954,-0.0006933743145415454,-0.00031443687933071205,-6.013920493503085e-05,0.001706452779193672,0.7172124981880188,-50.19040298461914,-7.027482032775879,17.13324737548828,1.6496683359146118,-1.0324814319610596,-0.027418512850999832,,,,,,,,,
1739303214.1975276,-0.07233373759005628,1.0422895077482233,-0.3903455463180041,-1.4625611277402406,1.5334790888470315,1.1815649148166874,1.3518654056513544,4.4301125192572084e-05,0.0013603359932518027,-0.0001607975982812617,-0.0002397172791360632,-0.00034804593895026146,-0.0007348144317980558,-0.0003229751012768568,0.7172124981880188,-50.29355239868164,-7.027482032775879,17.15705108642578,1.6496683359146118,-1.0324814319610596,0.05314789339900017,,,,,,,,,
1739303214.2094972,-0.07233196764127012,1.042281737409006,-0.390342764414853,-1.4625596524267988,1.533479844084518,1.1815653975379992,1.3518640442146241,0.0004892709603239759,-0.0008032151610948329,0.0014686433119938823,-0.0008573938322680935,-0.00036104345737585596,-0.0001916064763680536,0.00018808579376585984,0.6894415020942688,-50.21817398071289,-7.055253028869629,17.13324737548828,1.6432596445083618,-1.0324814319610596,0.04673920199275017,,,,,,,,,
1739303214.2204795,-0.07233748708419262,1.0422829476754027,-0.39034484409172887,-1.4625614344877942,1.5334789904901263,1.1815661552008023,1.3518717517700225,-0.001373428912252872,-0.0013481316859805911,0.0007419712623165148,-0.0008296902407637771,-0.0010193753871948837,-0.0013365376847291814,0.0023201843817496353,0.7648199200630188,-50.24197769165039,-7.027482032775879,17.15705108642578,1.6496683359146118,-1.0388901233673096,-0.027418512850999832,,,,,,,,,
1739303214.2305229,-0.07233406236768937,1.042287271030781,-0.3903426975637269,-1.4625614347906066,1.5334744472990005,1.181565397540724,1.3518694097963861,-0.0009014757204832591,0.00026338672257665314,0.0005574012784378881,-0.0005164515551387223,-0.0015657973600193876,0.00013011712421477384,-7.454338779105843e-05,0.7172124981880188,-50.26578140258789,-7.055253028869629,17.15705108642578,1.6560770273208618,-1.0324814319610596,-0.0072769103571772575,,,,,,,,,
1739303214.2414362,-0.07233406594024518,1.0422857163766104,-0.3903427644105122,-1.462559652428532,1.533479090763166,1.181565397540724,1.3518669492964415,4.390587178642496e-05,-0.0012293977810721747,-1.2722807835386534e-05,0.00031844026621842363,0.00019956796436826384,0.0002282710551707005,3.7956962967464626e-05,0.7172124981880188,-50.24197769165039,-7.055253028869629,17.13324737548828,1.6496683359146118,-1.0324814319610596,-0.013685601763427258,,,,,,,,,
1739303214.2515056,-0.07233948145273922,1.0422865061105133,-0.3903448177097919,-1.4625596524285338,1.533480605620741,1.1815661552008023,1.35187082259339,-0.0011175138934769592,-0.0002329172406709024,0.0003902483520165318,0.00013557553896261106,0.000679063742719767,0.0006739171798671698,0.0013222172891671085,0.7925909161567688,-50.26578140258789,-7.027482032775879,17.13324737548828,1.6368509531021118,-1.0388901233673096,-0.0072769103571772575,,,,,,,,,
1739303214.2624621,-0.0723350613519405,1.042285473520385,-0.39034276441074,-1.4625611289878713,1.533474398488621,1.1815649148166874,1.351865760731089,0.00020502977522614057,-0.0005385062863065656,0.0012123390554299883,-0.00027482960216437504,-0.0007178517410322758,-0.0004776918087285578,-0.0022986781751822413,0.7410162091255188,-50.24197769165039,-7.055253028869629,17.15705108642578,1.6624857187271118,-1.0324814319610596,0.019273381680250168,,,,,,,,,
1739303214.2725072,-0.07233648484024821,1.0422888206304972,-0.3903448411482896,-1.4625550756818844,1.5334771044608626,1.1815646398724706,1.3518669894866706,-0.0009867080276499541,0.0016172323387391033,5.8123062808295165e-06,0.0014551476922871124,-0.0011358170322968628,-0.00015942244857782305,0.0008386653592225103,0.7410162091255188,-50.29355239868164,-7.027482032775879,17.08167266845703,1.6624857187271118,-1.0260727405548096,0.012864691205322742,,,,,,,,,
1739303214.2825394,-0.0723320641140873,1.042286485387156,-0.3903466268777125,-1.4625596524164375,1.5334775775565408,1.1815646398806454,1.351864608115864,0.0012753163247997883,0.00035273373331073075,-0.0010717595149378795,-0.0004673186224688769,0.00019128554333973488,-0.0005001760554313149,-0.0003246229422332381,0.6894415020942688,-50.26578140258789,-7.003678321838379,17.13324737548828,1.6624857187271118,-1.0260727405548096,0.03300629183650017,,,,,,,,,
1739303214.293437,-0.07233790153236212,1.0422852929734976,-0.3903448412573059,-1.4625604824784018,1.533478333125035,1.181565397540724,1.351865366421962,-0.001042364755251693,-0.0003399868010072048,0.0009355480256687017,-0.0005759455475891512,-0.0008408781199649372,-5.927205214619941e-05,0.00015811575148068027,0.7410162091255188,-50.26578140258789,-7.027482032775879,17.13324737548828,1.6560770273208618,-1.0324814319610596,0.026597600430250168,,,,,,,,,
1739303214.3034847,-0.07233748712039453,1.0422865756264217,-0.39034661804739657,-1.462558108184151,1.5334790864244507,1.181565397540724,1.3518662331267333,-0.0021579156325995203,0.0001643513353487818,-0.0008258140977834931,-0.0005046086991040566,0.00035096658817123305,-5.414994537945405e-07,0.0009445257802637627,0.7648199200630188,-50.29355239868164,-7.003678321838379,17.10944366455078,1.6496683359146118,-1.0324814319610596,0.019273381680250168,726,736,746,41.717,0,0
1739303214.3134942,-0.07233405327391626,1.0422848818446742,-0.3903456819361105,-1.4625596524325717,1.5334813681259134,1.1815669128608808,1.351869370550554,-8.529887084411149e-06,0.0008448864362442412,0.00014612659985014677,-0.0004528121123300345,0.0011816260212145799,0.001014743329376391,0.00048325432611843664,0.7172124981880188,-50.24197769165039,-7.027482032775879,17.13324737548828,1.6304422616958618,-1.0452988147735596,-0.0072769103571772575,727,736,746,41.826,0,0
1739303214.3235443,-0.07233576579449834,1.0422884771102152,-0.39034554622519296,-1.4625578693316006,1.5334798484452536,1.1815646398806456,1.3518717517680288,-0.0012546896147872457,0.0007706361467531844,-0.0003053453957391431,0.0004558154999518493,0.0002338479351210153,-0.0006383286646792817,0.0012314074543337558,0.7410162091255188,-50.29355239868164,-7.027482032775879,17.10944366455078,1.6432596445083618,-1.0260727405548096,-0.027418512850999832,726,735,745,41.717,0,0
1739303214.3345306,-0.07233601392470902,1.0422853637250205,-0.3903427644148525,-1.4625578697515125,1.5334784465019424,1.1815669128608808,1.3518638499712663,-0.001583595463957625,-0.00013187323073849059,0.00038849542245176106,0.0005883488466289612,-0.00023991362848324444,0.0007275848818699638,-0.002027678628187333,0.7410162091255188,-50.26578140258789,-7.055253028869629,17.10944366455078,1.6560770273208618,-1.0452988147735596,0.03941498324275017,753,736,745,41.717,0,0
1739303214.3455007,-0.07233406204426295,1.0422817944126985,-0.39034484420074517,-1.4625596524285338,1.5334782153880933,1.1815646398806456,1.3518645296241454,-0.0006627401125967439,-0.0014685217049466308,-0.0006716556083210097,0.0004520622887109482,5.4618477436693815e-05,1.8523988031511694e-06,0.0010763092643361616,0.7172124981880188,-50.19040298461914,-7.027482032775879,17.13324737548828,1.6560770273208618,-1.0260727405548096,0.03300629183650017,757,737,746,41.717,0,0
1739303214.3565526,-0.07233407081190785,1.0422843425738013,-0.3903437004245705,-1.4625596524285338,1.53347909029992,1.1815661552008023,1.351871792288913,-0.0006371903378871524,0.0010924533688005586,-0.00047145592867752054,-0.0006752612422219363,-0.00016657125234939804,-0.00030261348279257694,0.0020701802641236704,0.7172124981880188,-50.26578140258789,-7.055253028869629,17.13324737548828,1.6496683359146118,-1.0388901233673096,-0.0008682189509272575,754,736,746,41.717,0,0
1739303214.3674808,-0.07233206410210818,1.0422830514732269,-0.390344844206029,-1.4625603676842711,1.5334790907850986,1.181563553751563,1.3518677467958256,0.00012952436293257657,-0.00020035682859549864,-0.0005695521561927569,-0.0013868501819163557,-5.038655760248991e-05,-0.0005370443831885878,-0.000457152094911764,0.6894415020942688,-50.21817398071289,-7.027482032775879,17.13324737548828,1.6496683359146118,-1.0260727405548096,0.0064559997990727425,756,736,744,41.717,1,0
1739303214.3784394,-0.07233382481089397,1.0422835710409786,-0.39034663072967235,-1.4625571814268337,1.5334798484451797,1.1815669068951935,1.3518684559070235,-0.00035592406360503387,5.3145999217075096e-05,-0.0005415187910852556,0.0007221428009292584,0.00016441043073225103,0.0003545702229542806,-0.0001719589845302847,0.7172124981880188,-50.24197769165039,-7.003678321838379,17.10944366455078,1.6432596445083618,-1.0452988147735596,-0.0008682189509272575,757,738,744,41.717,0,0
1739303214.3884892,-0.0723340620388942,1.0422892006289903,-0.3903448437647453,-1.4625596519969626,1.5334763544707886,1.1815669128607798,1.3518693705478708,0.00044399157239323754,0.0013160536039150432,0.00023555945673484549,-0.0008204530132747885,-0.0010433918743383511,0.00045749354556929206,1.0788233335092966e-05,0.7172124981880188,-50.29355239868164,-7.027482032775879,17.13324737548828,1.6368509531021118,-1.0452988147735596,-0.0072769103571772575,760,737,746,41.717,1,0
1739303214.3995175,-0.07233035241131476,1.0422872732217243,-0.39034269843353075,-1.4625607431914076,1.5334780316074883,1.1815646398806456,1.3518632821759509,0.0016162178959848838,0.0005812663967918888,0.00038852971400057436,-0.0008352201025678223,-0.0007438220041618775,-0.0003063574309888626,-0.0014174343860826552,0.6656377911567688,-50.26578140258789,-7.027482032775879,17.15705108642578,1.6496683359146118,-1.0260727405548096,0.05314789339900017,761,737,745,41.717,1,0
1739303214.4105148,-0.07233861571838192,1.0422828672727857,-0.3903466268293125,-1.4625578697476092,1.533479847954684,1.1815646398806456,1.3518646473676752,-0.0006499618650063882,-0.000731559051968077,-8.66612848723485e-05,-0.0003698138614661035,0.00016830144349487964,-6.0129411844088285e-05,-0.0006101421791378779,0.7410162091255188,-50.24197769165039,-7.003678321838379,17.10944366455078,1.6432596445083618,-1.0260727405548096,0.03300629183650017,761,737,745,41.717,0,0
1739303214.4205153,-0.07233406230754537,1.0422893072349826,-0.39034484420074433,-1.462553034902523,1.5334783484680452,1.1815661537109132,1.3518622270606426,0.0002972605911988553,0.0008680122427686225,9.92417431545602e-05,0.0014862766513377207,-0.0008836156827546452,0.00023892604123359893,-0.0008378622327714304,0.7172124981880188,-50.29355239868164,-7.027482032775879,17.08167266845703,1.6560770273208618,-1.0388901233673096,0.05314789339900017,761,736,746,41.717,0,0
1739303214.4315357,-0.07233480120507806,1.0422819732100628,-0.39034662698476164,-1.4625578697359627,1.5334799661828364,1.1815653975407157,1.3518686130519577,-0.00013700619927850132,-0.00010859596640858257,-0.0007829430100085032,0.0003136565583143862,-0.0009056291674526887,6.690241545769012e-05,0.00029962233580037724,0.7410162091255188,-50.21817398071289,-7.003678321838379,17.10944366455078,1.6432596445083618,-1.0324814319610596,-0.0008682189509272575,767,735,746,41.717,0,0
1739303214.442489,-0.0723340620013307,1.0422826536993315,-0.3903466268777648,-1.462557563633833,1.5334783331256878,1.1815646398806456,1.351870168409035,-1.6603000243001708e-05,-0.0007485253468232566,-0.00038098615769673733,0.0003701631871217018,0.0001822230669492219,-0.0007087331959431968,0.0004912338689862831,0.7172124981880188,-50.24197769165039,-7.003678321838379,17.10944366455078,1.6560770273208618,-1.0260727405548096,0.012864691205322742,761,738,744,41.826,1,0
1739303214.4534824,-0.07233206702505715,1.042283580404465,-0.39034662687776417,-1.4625556875007895,1.5334790893853862,1.1815661507849704,1.3518704858019144,0.001199260528779756,0.0003773680979739783,-0.001266743180341678,0.0005996945623835818,-0.0004470942354327695,0.0008860070845498478,0.0010095018595040477,0.6894415020942688,-50.24197769165039,-7.003678321838379,17.08167266845703,1.6496683359146118,-1.0388901233673096,-0.013685601763427258,759,738,747,41.608,0,0
1739303214.4645274,-0.07232860398462843,1.042287432156663,-0.3903507332255422,-1.4625594218948865,1.533475439827276,1.1815653975406992,1.3518662158027661,0.0021964989703744005,0.0006774608599358759,-0.0007093433061467943,-0.0003753017546393386,-0.0024386944772279966,0.00016600531288815115,-0.0002304153074703314,0.6418340802192688,-50.26578140258789,-6.975907325744629,17.13324737548828,1.6432596445083618,-1.0324814319610596,0.04673920199275017,759,736,747,41.826,1,0
1739303214.4755068,-0.07233114196701461,1.0422829617907876,-0.3903419833318992,-1.4625568972631178,1.5334800663989947,1.181565397540724,1.351863850043342,0.001468599715064007,-4.710881895931741e-05,0.0015138959318240395,0.001036724384654401,0.00017041160382057625,9.891626120841151e-05,-0.0010324510104231938,0.7172124981880188,-50.24197769165039,-7.027482032775879,17.13324737548828,1.6432596445083618,-1.0324814319610596,0.03941498324275017,762,739,747,41.826,1,0
1739303214.4864998,-0.07233206401340198,1.0422872899229807,-0.39034673086313454,-1.46256143509,1.5334783331262536,1.1815668726338777,1.351863850294275,0.000930614913709991,0.0015007765287974332,-0.0005976165357046025,-0.0020222016195786193,4.509514529899265e-06,0.00020187051824189465,-0.0010454833916091746,0.6894415020942688,-50.29355239868164,-7.003678321838379,17.15705108642578,1.6560770273208618,-1.0452988147735596,0.03941498324275017,761,739,747,41.717,1,0
1739303214.497469,-0.07233032516607951,1.0422833453706162,-0.39034591162261384,-1.4625557899616592,1.533477221159085,1.1815669128606536,1.3518664254140682,0.0018329834264893751,-0.0006388196080765258,-0.000491881345180583,0.001381822473466611,-0.0009602236973646519,0.00039998871845216147,-0.0005088077900741202,0.6656377911567688,-50.24197769165039,-7.003678321838379,17.08167266845703,1.6560770273208618,-1.0452988147735596,0.026597600430250168,763,739,747,41.717,1,0
1739303214.5074914,-0.07233408834945268,1.042287045591574,-0.3903466180353335,-1.4625599703199725,1.5334822252830869,1.1815677787581131,1.351863852411795,-0.00046535138681227137,0.0015401930537188148,-0.0006394399845532442,-0.0010592175049059785,0.001344963932974797,0.0005316783153542526,-0.002165842505077517,0.7172124981880188,-50.29355239868164,-7.003678321838379,17.13324737548828,1.6231180429458618,-1.0526230335235596,0.03941498324275017,762,739,745,41.717,1,0
1739303214.5174932,-0.07233748708481964,1.042287202248077,-0.3903427644107398,-1.4625578697568984,1.5334786178966806,1.1815646398806456,1.3518626708938168,-0.0010209633132828885,0.00042748062386836067,0.0007042697119301038,4.456397918471298e-05,0.0002825062696307941,-0.00021203475671675403,-0.0015340416824389273,0.7648199200630188,-50.26578140258789,-7.055253028869629,17.10944366455078,1.6496683359146118,-1.0260727405548096,0.026597600430250168,761,737,747,41.717,1,0
1739303214.5275023,-0.07233445664773595,1.042285053573914,-0.3903427644108895,-1.4625593463108522,1.5334801220650178,1.1815669128608808,1.3518653657303017,8.51704220226036e-05,0.00026597646533879627,0.0007989434940299978,0.0010505200720869626,0.00013617947537426464,0.0004697552175586111,-0.0010079962569517036,0.7172124981880188,-50.26578140258789,-7.055253028869629,17.13324737548828,1.6368509531021118,-1.0452988147735596,0.026597600430250168,761,738,746,41.717,0,0
1739303214.539496,-0.0723401953161383,1.0422835823706378,-0.39034662546055265,-1.4625560283785104,1.5334837806562631,1.1815661552008023,1.351863851909333,-0.0022610455667441856,-0.0012614033091907153,0.00029413374786592026,-7.854183374997694e-05,0.0015013728572535873,0.0002631807627293402,-0.0018244400122863786,0.7925909161567688,-50.24197769165039,-7.003678321838379,17.08167266845703,1.6368509531021118,-1.0388901233673096,0.03941498324275017,762,739,747,41.717,1,0
1739303214.5504317,-0.07233564303003807,1.0422855970374596,-0.39034484420074245,-1.4625578584142715,1.5334790907192946,1.1815661552008023,1.3518622258576611,-0.000635001931921719,0.0005765534843578969,0.0005717126455817222,0.0007544751754096884,0.0002887413774336149,-1.395441372855884e-05,-0.0011931371069804882,0.7410162091255188,-50.24197769165039,-7.027482032775879,17.10944366455078,1.6496683359146118,-1.0388901233673096,0.05314789339900017,763,739,746,41.717,0,0
1739303214.561445,-0.07233577456290043,1.0422841101469584,-0.3903448703081226,-1.4625546688382907,1.5334798484451795,1.1815661552008023,1.3518676445240054,-0.0008921617433051079,0.0003915802479572131,0.0002587952181878452,0.000751118211080818,-0.000504142014365437,0.00047995800735914146,0.0006403405811405068,0.7410162091255188,-50.21817398071289,-7.027482032775879,17.08167266845703,1.6432596445083618,-1.0388901233673096,0.019273381680250168,762,738,748,41.717,1,0
1739303214.5714521,-0.07233578333263903,1.0422857167413435,-0.3903457714915479,-1.4625596524095474,1.5334749972272086,1.181565384131723,1.3518652633305488,-0.0006166020611658414,-0.00032029969772136036,-0.0001420916860974169,-8.318672882324171e-05,-0.0014396508842557203,-0.00032975808555094294,-5.830798556748966e-05,0.7410162091255188,-50.24197769165039,-7.027482032775879,17.13324737548828,1.6560770273208618,-1.0324814319610596,0.03941498324275017,763,740,746,41.717,1,0
1739303214.5814848,-0.07233193117700952,1.0422858227033625,-0.39034578023012984,-1.4625578697515147,1.5334766302284415,1.181565397540497,1.3518646139539896,0.000579357135135849,-7.61570200487749e-05,-0.00014089291422658906,-0.0004614305660269404,-0.001160649757309986,6.839756730385093e-05,-0.000289217838484046,0.7172124981880188,-50.24197769165039,-7.027482032775879,17.10944366455078,1.6432596445083618,-1.0324814319610596,0.03300629183650017,764,738,746,41.717,1,0
1739303214.5925107,-0.07233577585072466,1.0422836632020407,-0.39034555616705247,-1.4625596523235553,1.5334806060870911,1.181565397540724,1.3518663732477987,-0.0006187948013299296,-0.0008879891970380652,4.379840568444898e-05,0.0008187359746221266,0.0014007234172405255,-1.3743309773584707e-05,0.000949529178549133,0.7410162091255188,-50.24197769165039,-7.027482032775879,17.13324737548828,1.6368509531021118,-1.0324814319610596,0.026597600430250168,762,740,746,41.717,1,0
1739303214.60256,-0.07233406334204408,1.042285117333329,-0.39034484421280236,-1.4625596599991062,1.5334798484451795,1.1815661552008023,1.351867028434553,0.0006220669127802742,-0.000290099694241524,0.0004748463488767193,-9.886104192895236e-05,-7.56000050003392e-05,0.00017488740501888863,5.564294205217315e-05,0.7172124981880188,-50.24197769165039,-7.027482032775879,17.13324737548828,1.6432596445083618,-1.0388901233673096,0.012864691205322742,763,740,746,41.717,1,0
1739303214.614457,-0.07233405327392299,1.042282962332469,-0.390347652241788,-1.4625578669171349,1.5334798353632277,1.181565393071057,1.3518665848861027,0.0004879352794929769,-0.00047535329536276916,-0.000565268953439933,0.00038141822704894064,0.000298284689977098,-0.00020218787980793857,2.9639773150320613e-05,0.7172124981880188,-50.24197769165039,-7.027482032775879,17.10944366455078,1.6432596445083618,-1.0324814319610596,0.019273381680250168,760,739,748,41.826,0,0
1739303214.6244617,-0.07233027233553552,1.042286749929366,-0.39034765225763945,-1.4625575851893582,1.533479090569687,1.1815653975406988,1.3518702278990455,0.0015733131283548827,0.0009320235186224936,-0.0008297149742631681,0.0005719724766361329,-3.612921752505651e-05,0.00044156957545022236,0.0024254072562504914,0.6656377911567688,-50.26578140258789,-7.027482032775879,17.13324737548828,1.6496683359146118,-1.0324814319610596,-0.020094294100999832,760,736,747,41.608,1,0
1739303214.6344774,-0.0723357745623009,1.0422845709512336,-0.3903448090340263,-1.4625596876098172,1.5334790922386479,1.1815661552008023,1.3518702464215517,2.6308723053033347e-05,-0.0010814519796403688,0.000736220343512017,-0.000535933117689659,0.0010713841034588852,0.00034752090787795525,0.0024898027666639825,0.7410162091255188,-50.26578140258789,-7.027482032775879,17.13324737548828,1.6496683359146118,-1.0388901233673096,-0.013685601763427258,760,736,744,41.717,1,0
1739303214.6444938,-0.07233206410205867,1.0422803319735388,-0.3903487066670242,-1.4625596524291296,1.5334790907851261,1.1815661000749091,1.351870482394353,9.598152886686651e-05,-0.0019449986689660944,-0.0008783476826796127,-9.28929170276354e-05,0.00043118620786492044,-0.00017194969946078732,0.0026023405956692083,0.6894415020942688,-50.16659927368164,-6.975907325744629,17.13324737548828,1.6496683359146118,-1.0388901233673096,-0.013685601763427258,762,738,746,41.717,1,0
1739303214.65454,-0.0723339831219469,1.0422827322018153,-0.39034659155649315,-1.4625587331306809,1.5334802002043393,1.1815653975397904,1.3518719455149237,0.0008076001935237318,-0.0009368255790723944,0.00038224610814495955,5.409889999221282e-05,-1.860870264929897e-05,-7.115036120721572e-05,0.001986240288584606,0.7172124981880188,-50.24197769165039,-7.003678321838379,17.13324737548828,1.6432596445083618,-1.0324814319610596,-0.020094294100999832,762,737,746,41.608,1,0
1739303214.6654267,-0.07233406204246623,1.0422855843419547,-0.3903466268775648,-1.4625613584659645,1.533478333127009,1.1815669128608808,1.3518701282165895,0.0002945115053481364,0.0010084644310234794,-0.00023909796685182057,-0.0010448565179447008,0.0002810928142115319,0.0004325642844546894,0.0005708686694847403,0.7172124981880188,-50.24197769165039,-7.003678321838379,17.15705108642578,1.6560770273208618,-1.0452988147735596,-0.013685601763427258,761,736,745,41.717,2,0
1739303214.6754732,-0.07233406204291173,1.0422855165834386,-0.39034533414035066,-1.4625595758978156,1.5334792083611657,1.181565397540724,1.3518686128904513,0.0006024940699699637,0.0007335025907230063,0.00029866834118645017,5.6609110218134844e-05,0.0007920708948006647,-0.00018445442564031612,-0.00042649366398166664,0.7172124981880188,-50.24197769165039,-7.055253028869629,17.13324737548828,1.6496683359146118,-1.0324814319610596,-0.0008682189509272575,761,736,748,41.717,1,0
1739303214.686426,-0.07233406204291175,1.0422810144478678,-0.39034484421525134,-1.462559758076979,1.533479084971564,1.1815638822205674,1.351868612836616,0.0005692750226457055,-0.0010695818683835838,-1.8706718323266815e-05,-0.000682520229140039,0.00034475777623850924,-0.0005750445989077495,-1.5562116197653005e-05,0.7172124981880188,-50.21817398071289,-7.027482032775879,17.13324737548828,1.6496683359146118,-1.0196640491485596,-0.0008682189509272575,761,737,747,41.826,1,0
1739303214.69651,-0.07233410101622771,1.04228294757041,-0.39034662719875723,-1.4625578442470757,1.5334798479603677,1.1815661552008023,1.3518697237632364,-0.00023394211435682629,-0.0003854881109150529,-0.0005021378839898375,2.2401289108160715e-05,-0.0006525428444365646,0.0001782204392206928,0.0007139013070765095,0.7172124981880188,-50.24197769165039,-7.003678321838379,17.10944366455078,1.6432596445083618,-1.0388901233673096,-0.0072769103571772575,761,737,746,41.826,1,0
1739303214.7074647,-0.07233406204298508,1.042287082330455,-0.3903466384334892,-1.4625614350938407,1.5334751542106344,1.181565397540724,1.351864608116526,0.0015183031511839958,0.0012907625901299627,-0.0010585460421705007,-0.0004338722073573618,-0.0010891330928036011,-0.00022931524053272496,-0.001450638592653083,0.7172124981880188,-50.29355239868164,-7.003678321838379,17.15705108642578,1.6560770273208618,-1.0324814319610596,0.03300629183650017,757,737,745,41.717,0,0
1739303214.7185237,-0.07233406204291175,1.042284868690102,-0.3903468613092394,-1.4625614341607454,1.5334775638185976,1.181565397540724,1.3518629839125285,0.000738973695605941,-0.00023222023395425484,-0.0006087075224050808,-0.0017934519974010083,-2.9152607145078416e-05,-6.810462406801405e-05,-0.0018393281288576057,0.7172124981880188,-50.24197769165039,-7.003678321838379,17.15705108642578,1.6624857187271118,-1.0324814319610596,0.04673920199275017,759,735,746,41.826,1,0
1739303214.7294958,-0.0723347840235901,1.042287547092505,-0.39034508206004365,-1.46255786124823,1.5334786351028769,1.181565393071057,1.3518695268879228,-0.00018041236871672728,0.0006740944339931312,-0.0003578937570937232,0.00020302666694168437,9.781500177042626e-06,-0.00023839783704359774,0.0013737656640008529,0.7172124981880188,-50.26578140258789,-7.027482032775879,17.10944366455078,1.6624857187271118,-1.0324814319610596,-0.0072769103571772575,758,745,746,41.826,1,0
1739303214.7405603,-0.07233429913194243,1.0422844210673796,-0.39034515620575305,-1.4625596524285178,1.533477576435972,1.1815653975407157,1.3518690565839706,-0.0005023931398473069,-0.0013143656314833795,-2.7667827701926656e-05,0.0006184170863752021,-0.000801023957635206,4.8824350897437746e-05,0.000528299761338867,0.7172124981880188,-50.26578140258789,-7.027482032775879,17.13324737548828,1.6624857187271118,-1.0324814319610596,-0.0072769103571772575,758,737,748,41.717,1,0
1739303214.7515154,-0.07233585363029177,1.042286581606815,-0.39034670484432676,-1.4625614350705602,1.5334804883676936,1.181565397540724,1.3518710037680994,-0.0008979346201953119,-0.0015086063050261018,-0.0005327790106458515,-0.0010030896801678589,-0.0002444172740615837,0.00012401844909750088,0.002189047239220048,0.7410162091255188,-50.26578140258789,-7.003678321838379,17.15705108642578,1.6368509531021118,-1.0324814319610596,-0.020094294100999832,755,738,748,41.717,1,0
1739303214.7624502,-0.07233621925248349,1.0422853728466266,-0.39034307641589,-1.4625578459254036,1.533479090784437,1.181565397540724,1.3518686128911166,-0.0004474023379208023,-0.00030517347910322687,-9.895678764459276e-05,0.0003450032845528462,3.914022899658261e-06,-8.850965505882846e-05,0.0006102931361701829,0.7172124981880188,-50.26578140258789,-7.055253028869629,17.10944366455078,1.6496683359146118,-1.0324814319610596,-0.0008682189509272575,754,737,747,41.717,1,0
1739303214.7724586,-0.07233408838643256,1.0422864871068631,-0.3903466267740317,-1.4625530349021196,1.5334790777031493,1.1815661552008023,1.351864649299785,-0.00043910826535378984,-0.0002747928208387798,-0.0011041060133507145,0.001817065434812378,0.0003507828313260115,4.390781078811984e-05,-0.000996544775647271,0.7172124981880188,-50.26578140258789,-7.003678321838379,17.08167266845703,1.6496683359146118,-1.0388901233673096,0.03300629183650017,755,738,746,41.934,0,0
1739303214.7834914,-0.07233206410250483,1.042281968433066,-0.3903466528781424,-1.4625596523818767,1.5334786198346002,1.1815646398806456,1.3518686128911486,0.0007378611491153822,-0.0006349424593869828,-0.0004706681245765627,0.0003169778251688302,-0.0004068015450019149,-0.00012768363424412046,0.0008553719608943333,0.6894415020942688,-50.21817398071289,-7.003678321838379,17.13324737548828,1.6496683359146118,-1.0260727405548096,-0.0008682189509272575,757,739,746,41.717,1,0
1739303214.79452,-0.0723320641020587,1.0422854018342427,-0.39034870665555577,-1.4625577932220946,1.5334787888061645,1.1815642776168938,1.3518685607959282,0.0010957466021292244,5.690736825339691e-05,-0.001451363426127197,-0.0001591356510132794,-0.00026702080220406834,-0.0007426169371100985,-0.0010435408282878451,0.6894415020942688,-50.26578140258789,-6.975907325744629,17.10944366455078,1.6432596445083618,-1.0260727405548096,-0.0008682189509272575,755,740,749,41.826,1,0
1739303214.8045354,-0.07233193117686103,1.0422850839589628,-0.39034098173387033,-1.4625596514824302,1.5334770227255565,1.181565397534589,1.3518682596768592,0.0012209925366944234,0.0002287032611357426,0.001707333090375251,-0.00020311879366719318,0.0002742540461095417,0.00014913813368255357,0.00017679520626472025,0.7172124981880188,-50.26578140258789,-7.079056739807129,17.13324737548828,1.6432596445083618,-1.0324814319610596,-0.0008682189509272575,751,740,746,41.826,0,0
1739303214.8155205,-0.07233713991242535,1.0422843413262404,-0.3903448442007451,-1.4625578697515096,1.5334740945027194,1.1815646398806456,1.3518646255564706,-0.00049125252470606,0.0004506621937133147,0.00038511795364957704,-0.0005254721266751263,-0.0011205045671476071,-0.00023431528094347532,-0.0005749886071893609,0.7172124981880188,-50.26578140258789,-7.027482032775879,17.10944366455078,1.6560770273208618,-1.0260727405548096,0.03300629183650017,747,738,747,41.717,1,0
1739303214.826513,-0.0723340620602864,1.0422844443787604,-0.3903406186436776,-1.46255962244906,1.5334806060813309,1.1815661552008023,1.351870025741389,-7.32946825758038e-05,-0.0017168068451477478,0.0021521238831871395,-0.00029055646370724516,0.000899413134749774,0.0002396556529663568,0.0006441214085133655,0.7172124981880188,-50.26578140258789,-7.055253028869629,17.13324737548828,1.6368509531021118,-1.0388901233673096,-0.0008682189509272575,753,739,745,41.717,1,0
1739303214.837433,-0.07233577456364323,1.0422847757695874,-0.39034370424013987,-1.4625593684957572,1.533478327310822,1.181565397540724,1.3518677470171454,0.00011006453610920943,0.0001324193315034388,0.0009351831592376543,-0.0016541388755907979,0.000362257652429106,7.114610261763855e-05,0.0003337595208872115,0.7410162091255188,-50.24197769165039,-7.055253028869629,17.15705108642578,1.6560770273208618,-1.0324814319610596,0.0064559997990727425,752,739,747,41.826,1,0
1739303214.8484657,-0.0723303515813275,1.0422873635918792,-0.3903427644161949,-1.462557869739849,1.5334802801495702,1.1815669128608808,1.3518653659374453,0.0021311017975753654,0.00022895093269773378,0.0010761097553572713,0.0002648718590984773,0.0008235145517168908,0.00033802319865807427,-0.0005928013158559444,0.6656377911567688,-50.29355239868164,-7.055253028869629,17.10944366455078,1.6432596445083618,-1.0452988147735596,0.026597600430250168,750,742,747,41.717,1,0
1739303214.858531,-0.07233406345028148,1.0422865826296324,-0.39034299547087054,-1.4625555594285904,1.5334790907875384,1.1815661552008023,1.3518622268984732,0.000490238215631929,0.00018412762805246436,0.0009976528423468758,0.0008612951749851818,0.0009034294284332851,2.2873107501968288e-06,-0.0021913662133623874,0.7172124981880188,-50.26578140258789,-7.055253028869629,17.08167266845703,1.6496683359146118,-1.0388901233673096,0.05314789339900017,753,738,747,41.717,1,0
1739303214.8695257,-0.0723347284866228,1.0422846061352165,-0.3903427644121939,-1.462555787125935,1.53347984844518,1.1815661552008023,1.3518622317436397,-0.00012068866556158018,1.828308528256076e-05,0.0020689787626267985,0.0011349693766328623,-0.0001399785039910201,0.00015590944267905758,-0.001458970924996248,0.7172124981880188,-50.26578140258789,-7.055253028869629,17.08167266845703,1.6432596445083618,-1.0388901233673096,0.05314789339900017,752,737,746,41.826,1,0
1739303214.880493,-0.07233577467566425,1.0422840955235175,-0.3903466267687479,-1.4625604755714015,1.5334798087148065,1.181565397540724,1.3518686130519841,-0.0008223853177916013,-0.0012991995367740857,-0.0003221450079341915,-6.140823551672843e-05,-0.00154729138277201,-0.0002491710927408151,0.0007667177008944029,0.7410162091255188,-50.21817398071289,-7.003678321838379,17.10944366455078,1.6432596445083618,-1.0324814319610596,-0.0008682189509272575,750,738,747,41.826,1,0
1739303214.8905087,-0.07233577445538562,1.0422873096709804,-0.3903437658548131,-1.462557881254466,1.533479090622923,1.1815653977022296,1.3518646081158643,-0.00012911762180555598,-2.4429386540653536e-05,0.0008048551929621917,-0.0005481715918750553,0.00027891708797545917,3.6823436392704914e-07,3.3998524066057405e-05,0.7410162091255188,-50.26578140258789,-7.003678321838379,17.10944366455078,1.6496683359146118,-1.0324814319610596,0.03300629183650017,751,739,746,41.717,1,0
1739303214.900531,-0.07233406204290992,1.0422863666763882,-0.3903504892961871,-1.4625576401634484,1.5334843740305044,1.1815653975407268,1.3518684951528812,-2.8604913505722183e-05,-0.0006346352455152124,-0.0016453006275713332,0.0007941695206425379,0.0012228982020279157,-0.00012231104544818184,0.0008040389851946005,0.7172124981880188,-50.29355239868164,-6.952103614807129,17.10944366455078,1.6368509531021118,-1.0324814319610596,-0.0008682189509272575,750,738,746,41.717,0,0
