IITGN-Robotics/Franka_IITGN_ROBOTICS/franka_ros/franka_iitgn/data01/s_b_020.csv
time,fr3_joint1_pos,fr3_joint2_pos,fr3_joint3_pos,fr3_joint4_pos,fr3_joint5_pos,fr3_joint6_pos,fr3_joint7_pos,fr3_joint1_vel,fr3_joint2_vel,fr3_joint3_vel,fr3_joint4_vel,fr3_joint5_vel,fr3_joint6_vel,fr3_joint7_vel,fr3_joint1_eff,fr3_joint2_eff,fr3_joint3_eff,fr3_joint4_eff,fr3_joint5_eff,fr3_joint6_eff,fr3_joint7_eff,flexpin1,flexpin2,flexpin3,Force,ContactMic,ContactMic_gt
1739304229.5087695,-0.05547490820304102,1.0629765331968997,-0.4228978261788971,-1.4436214096291768,1.5585852822301511,1.1471800826951712,1.3482686567380777,-0.0014677017155732778,0.0008861360336958378,0.0006986036601966263,0.00034642626393517314,-0.0002946791461595164,-0.001584081902187715,-0.0003462298743037087,0.018970288336277008,-50.59903335571289,-8.043107032775879,17.30384063720703,1.6762186288833618,-1.1112167835235596,0.03941498324275017,,,,,,,,,
1739304229.519054,-0.05547394867241398,1.0629755132463747,-0.422896455129595,-1.443627134245482,1.5585876661768925,1.1471789643302588,1.3482686131317918,0.00019304529489105806,0.0006430440980036865,-0.00014435410858152462,-0.001309837601144684,-0.0008679880670460371,-8.722436183985677e-05,0.0007398836770855667,0.018970288336277008,-50.59903335571289,-8.070878028869629,17.37921905517578,1.6826273202896118,-1.0983994007110596,0.03941498324275017,,,,,,,,,
1739304229.5298018,-0.05547619484576314,1.0629775451948447,-0.42289574639259,-1.4436229664019742,1.5585852436482728,1.1471784626961592,1.3482686174921963,-0.0007745921460085624,-0.00030062252709735086,0.00042796234432097727,-8.602784368701101e-05,0.00041110459281038804,0.00038369818322330743,0.0011817617653059665,0.018970288336277008,-50.59903335571289,-8.070878028869629,17.35541534423828,1.6762186288833618,-1.0983994007110596,0.03941498324275017,,,,,,,,,
1739304229.5417984,-0.05547519345423752,1.0629777253011905,-0.42289782617844474,-1.4436197034681144,1.558586354341603,1.1471776921128023,1.3482710001631604,-0.0003162148870846093,-0.00010503928139805153,-0.00024383788509691514,0.0008503792529748284,0.0008600960252677704,-0.0006129863556318918,0.00046871613526683277,-0.004833422601222992,-50.59903335571289,-8.043107032775879,17.28003692626953,1.6698099374771118,-1.0919907093048096,0.019273381680250168,,,,,,,,,
1739304229.5518034,-0.05547850873871981,1.0629796805338063,-0.42289372626505267,-1.4436249874975224,1.558588775117382,1.147176785963238,1.3482671131260549,-0.0007743358738918105,0.0001843187468339219,8.46519480827643e-05,-0.0017359341725656716,-0.00012463932154825892,-0.00020964506923665726,0.0005860212599759847,0.04277399927377701,-50.62680435180664,-8.094681739807129,17.37921905517578,1.6762186288833618,-1.1112167835235596,0.05314789339900017,,,,,,,,,
1739304229.5627265,-0.05547576962664039,1.0629775373615198,-0.42289782628600475,-1.4436253973395918,1.5585830223564596,1.1471793255772096,1.3482663540126263,-0.0006537557235523703,-0.0012093571805717686,-0.0010356750892255558,-0.000994558624979088,-0.0016916890838509723,0.00034832052833486414,-0.00041717559565118104,0.04277399927377701,-50.62680435180664,-8.043107032775879,17.35541534423828,1.6954447031021118,-1.1048080921173096,0.05955658480525017,,,,,,,,,
1739304229.5737877,-0.055474455989233916,1.0629774813116049,-0.4228978261784465,-1.4436235688926677,1.5585837741786321,1.1471784495594701,1.3482690468717573,0.0002649887071861074,-0.00043037248596184134,-0.00031763232514308643,0.0013812241589412526,-0.000676822734359215,-0.000273673408635602,0.00101869505230235,-0.004833422601222992,-50.62680435180664,-8.043107032775879,17.33161163330078,1.6890360116958618,-1.0983994007110596,0.04673920199275017,,,,,,,,,
1739304229.5848372,-0.05547589694216082,1.0629798861128852,-0.4229017308658774,-1.4436235688918928,1.5585852488524181,1.1471788540048342,1.348266538900902,0.00040295882852021915,0.0008367137439746919,-0.0011718434324810114,0.0003914208446716928,-0.0006266182529162616,-0.0005262283705705543,-0.00028908080695548436,0.04277399927377701,-50.62680435180664,-8.019303321838379,17.33161163330078,1.6762186288833618,-1.1048080921173096,0.06596527993679047,,,,,,,,,
1739304229.5957417,-0.05547874236884865,1.0629746216621325,-0.4228988172875728,-1.4436253515689117,1.558584537652058,1.1471803693229972,1.3482654829809493,-0.0014207209586516705,-0.000547132107811476,-0.0005235360266072061,-0.0011648640387728355,-8.764665643571187e-05,7.057181820265142e-05,-0.0012359617988905447,0.04277399927377701,-50.57522964477539,-8.070878028869629,17.35541534423828,1.6826273202896118,-1.1176254749298096,0.06596527993679047,,,,,,,,,
1739304229.6057436,-0.055473948827577516,1.0629701931837106,-0.4228939641956035,-1.4436228536361555,1.5585869837955444,1.1471799648716408,1.348270998709684,0.0006304330024574942,-0.0020196223576851944,0.0012434969282840152,0.00043350499080180386,0.0002633505182955695,0.0006847573602560825,0.0017125833915696382,0.018970288336277008,-50.52365493774414,-8.094681739807129,17.33161163330078,1.6624857187271118,-1.1112167835235596,0.019273381680250168,,,,,,,,,
1739304229.616804,-0.055476829875748014,1.062980372095984,-0.42289574638859184,-1.4436235688878551,1.5585853621760763,1.1471807225377006,1.3482682642795112,-0.0009498087797521229,0.0016870491440722517,0.0012893300884752265,-0.00015490522108888553,-0.0008399703939144899,0.000644013592305398,0.0002565816510886192,0.018970288336277008,-50.62680435180664,-8.070878028869629,17.33161163330078,1.6762186288833618,-1.1176254749298096,0.03941498324275017,,,,,,,,,
1739304229.6277962,-0.055477041568672954,1.0629787144468126,-0.4228939899572367,-1.4436235422555845,1.5585837276648107,1.1471785520267834,1.3482662362728381,0.0005164700106798591,-0.00016855745926443134,0.000542506193205293,0.0008807092052399255,-0.000508035272394973,0.0003421450982133659,-0.0007474319998132605,0.018970288336277008,-50.59903335571289,-8.094681739807129,17.33161163330078,1.6890360116958618,-1.1112167835235596,0.05955658480525017,,,,,,,,,
1739304229.6387177,-0.05547740280813679,1.0629796743366304,-0.4228978260698729,-1.4436214231242297,1.5585878270362314,1.147178436451587,1.3482671108814164,-0.00033893052190161446,0.0019685933269484824,-0.0008911768946158649,-0.0002611695560807628,0.001137753290213928,0.0012683033593554514,0.000547222613368916,0.06657771021127701,-50.62680435180664,-8.043107032775879,17.33161163330078,1.6826273202896118,-1.0983994007110596,0.026597600430250168,,,,,,,,,
1739304229.6498258,-0.05547682709401977,1.0629803855529538,-0.42289782617844407,-1.4436253514477824,1.5585860006632368,1.1471787362671904,1.3482689087071171,-0.00020856296329017573,0.00040402871101036014,-0.0008209399044735266,0.0003065391929596781,0.0005380229559314581,-0.0012905466757674156,-0.0015089740978709114,0.018970288336277008,-50.62680435180664,-8.043107032775879,17.35541534423828,1.6698099374771118,-1.1048080921173096,0.03300629183650017,,,,,,,,,
1739304229.661833,-0.055472511233790434,1.0629755809935304,-0.4228970314498477,-1.4436235688918924,1.5585860534746434,1.147179154888849,1.3482638550561246,0.0006448195258441042,-0.0005559735858913004,0.00018758010870373548,0.00010844143704912428,0.00043144888366330596,-0.0006039224775444148,-0.000803845998760272,-0.004833422601222992,-50.59903335571289,-8.043107032775879,17.33161163330078,1.6698099374771118,-1.1048080921173096,0.07969819009304047,,,,,,,,,
1739304229.6727934,-0.05547531678464122,1.0629775862937567,-0.42289396371007465,-1.4436225795692565,1.558586000644472,1.147177794205101,1.3482653351973555,-0.00046618072299659864,-0.00012119301310582796,0.0008670034753866739,0.0015970275833552985,-2.074981344740007e-05,0.0001589549916746763,-0.0005303268763422974,-0.004833422601222992,-50.62680435180664,-8.094681739807129,17.33161163330078,1.6698099374771118,-1.1048080921173096,0.06596527993679047,,,,,,,,,
1739304229.6837335,-0.05547445647310992,1.062977005690583,-0.42289782090932504,-1.4436235688751384,1.5585852429842946,1.147179964853693,1.348270343354805,0.00021457404692132065,0.000838110900890103,-0.0012351185599349171,0.0003268136988799766,-0.0008660623298765017,-0.0003938408592324696,-0.0002526435434840582,-0.004833422601222992,-50.57522964477539,-8.043107032775879,17.33161163330078,1.6762186288833618,-1.1112167835235596,0.012864691205322742,,,,,,,,,
1739304229.6947458,-0.0554763998511927,1.0629799970975315,-0.42289503109648335,-1.4436253220255026,1.5585852865369667,1.147179205279477,1.348269991391313,0.0005977183228535874,0.0024810046161298635,0.00046335535268899605,-0.000268919819251278,0.00042987864758409276,0.0015401463502126192,0.0013007100921386895,0.018970288336277008,-50.62680435180664,-8.070878028869629,17.35541534423828,1.6762186288833618,-1.1048080921173096,0.019273381680250168,,,,,,,,,
1739304229.7057986,-0.05547874433229178,1.062974041769187,-0.42289586011577335,-1.4436253511326798,1.5585872198083959,1.1471779343008104,1.3482669829468443,-0.0007891488583845716,-0.0008518470802020389,0.0002750723350092408,-0.0011377444520990101,0.000939231071308364,-0.0003098406265593061,-0.0005311780411341264,0.04277399927377701,-50.54745864868164,-8.070878028869629,17.35541534423828,1.6624857187271118,-1.0983994007110596,0.05314789339900017,,,,,,,,,
1739304229.7167213,-0.05547679183827277,1.0629806249567446,-0.4228979308342764,-1.4436253515689108,1.5585852429849592,1.1471787362662949,1.3482693751522787,-0.0005413557430871248,-0.0008321089458535673,-0.000891755706500834,-0.0008285457563966357,-0.0006287008335154243,0.0019106035431057352,-4.177095973280202e-05,0.018970288336277008,-50.62680435180664,-8.043107032775879,17.35541534423828,1.6762186288833618,-1.1048080921173096,0.03300629183650017,,,,,,,,,
1739304229.7267709,-0.05547232702138474,1.0629755011926922,-0.4228959826013612,-1.4436214891020371,1.5585852444378447,1.1471753338585633,1.3482635149805384,0.00024702164338260863,-0.001729469193238505,-0.0007152801468691941,-2.1665854708085262e-05,-0.0008791460787949298,-0.0010651176339092833,-0.0007470398871510416,-0.004833422601222992,-50.59903335571289,-8.070878028869629,17.30384063720703,1.6762186288833618,-1.1112167835235596,0.04673920199275017,,,,,,,,,
1739304229.7368124,-0.0554751069515724,1.0629805457582635,-0.4228957463925894,-1.4436204576766074,1.5585852444378692,1.1471752378537958,1.348264611191783,8.898280114976896e-05,0.0012066757469979678,-0.000600160427941179,0.0011019076110187096,0.0006293797103131209,-0.0015181222155392965,-0.001962170384905107,-0.004833422601222992,-50.62680435180664,-8.070878028869629,17.33161163330078,1.6762186288833618,-1.1112167835235596,0.07328949868679047,,,,,,,,,
1739304229.7468314,-0.05547255235507286,1.0629767408311694,-0.4228956669157295,-1.443627028229429,1.5585852431458247,1.1471788141944084,1.3482693969555273,0.0007082176030164496,0.0009188062163517333,0.0005507893873075224,-0.0005760895870938437,-0.0005154839726056052,0.0004349294987487687,0.0015463062034580515,-0.004833422601222992,-50.57522964477539,-8.070878028869629,17.37921905517578,1.6762186288833618,-1.1048080921173096,0.03300629183650017,,,,,,,,,
1739304229.7588334,-0.055474394968194785,1.062973970729483,-0.42289574638814054,-1.4436204559542625,1.5585852429842955,1.1471744976586933,1.348268611678143,0.00047342841370254934,-0.0009599689145514843,0.0004911980359669965,0.0008919088205693735,0.00015418271341365665,-0.0002575098928368019,0.000794596979775679,-0.004833422601222992,-50.54745864868164,-8.070878028869629,17.30384063720703,1.6762186288833618,-1.1048080921173096,0.03941498324275017,,,,,,,,,
1739304229.769732,-0.0554722613399911,1.0629766603742006,-0.42289753288531556,-1.4436263895849617,1.5585844853242161,1.1471747975128048,1.3482701328661801,0.0009251338704401924,-0.00021345895021158864,-0.0005827114774086871,-0.0018071693336850617,-0.0006366975175355035,-0.0010927524648606795,0.0015976429998403841,-0.004833422601222992,-50.57522964477539,-8.043107032775879,17.37921905517578,1.6826273202896118,-1.0983994007110596,0.026597600430250168,,,,,,,,,
1739304229.7797637,-0.05547419571457505,1.0629833547078444,-0.4228957463869335,-1.4436268943695978,1.5585852422844368,1.147175094742882,1.3482614338026933,0.000922173747685915,0.002465291289475869,-9.60574965360511e-05,-0.00034304347438934065,-0.001109861377332345,-0.0001369437556783635,-0.0022735589819600447,0.018970288336277008,-50.67837905883789,-8.070878028869629,17.37921905517578,1.6762186288833618,-1.0983994007110596,0.07328949868679047,,,,,,,,,
1739304229.7907398,-0.05547247300586041,1.062974026940684,-0.42289641970031716,-1.4436207414082614,1.558585247344941,1.1471744388539415,1.348271760712284,7.073056375093894e-05,-0.0013673861472801043,0.0008291383997987063,0.0004772153003642116,-0.0005607664313655062,-0.0016159364339547358,0.0015061929777978184,-0.004833422601222992,-50.57522964477539,-8.070878028869629,17.33161163330078,1.6762186288833618,-1.1048080921173096,0.012864691205322742,,,,,,,,,
1739304229.800781,-0.05547702985081254,1.0629721470563884,-0.4228921810459536,-1.4436243967565487,1.5585860006444465,1.147174793996739,1.3482671116725535,-7.263943835272472e-05,-0.0008267500242553744,0.0012663861463136838,0.0005487273686342593,0.0007031703305166591,-0.0012019956442959998,0.00030099179583199906,0.018970288336277008,-50.54745864868164,-8.118485450744629,17.35541534423828,1.6698099374771118,-1.1048080921173096,0.05314789339900017,,,,,,,,,
1739304229.8108392,-0.0554764092074809,1.0629804427439242,-0.4228954419926539,-1.4436231263126702,1.5585856997594718,1.1471759757391033,1.3482669553535338,2.1775109678123545e-05,0.0009574746783523252,-0.00011272598127675369,0.0002963945750236054,-0.00030401701033064537,0.000967983320684877,-0.0003114386979445541,0.04277399927377701,-50.62680435180664,-8.043107032775879,17.35541534423828,1.6698099374771118,-1.1048080921173096,0.026597600430250168,,,,,,,,,
1739304229.820854,-0.05547637199178073,1.062977887664739,-0.42289645192875625,-1.4436270546263699,1.5585845376469294,1.1471729763641583,1.348269775023701,-0.0007944168500133725,0.0011584668425767123,0.0005062744517346551,-0.0006958746817712244,0.00022485228467184032,-0.0011955874353947807,-6.46616630620143e-05,0.04277399927377701,-50.59903335571289,-8.070878028869629,17.37921905517578,1.6826273202896118,-1.0919907093048096,0.026597600430250168,,,,,,,,,
1739304229.8318212,-0.05547540815702246,1.0629795559245137,-0.42289782530928793,-1.4436271342454814,1.5585860020982183,1.1471779610841286,1.3482658337630702,0.0006712571133656088,0.00048326182274468685,-0.0006014455683805788,-0.00159019659880051,-0.0011996483570369566,-0.0007526060983868621,-0.0014222544747049999,-0.004833422601222992,-50.65060806274414,-8.043107032775879,17.37921905517578,1.6698099374771118,-1.0983994007110596,0.06596527993679047,,,,,,,,,
1739304229.8428469,-0.055476687217838994,1.0629754232435065,-0.422899600133148,-1.443621423124681,1.5585860398902376,1.1471730413413708,1.3482693751543042,-0.00022175940842802694,-0.0003724371165124588,-0.0012308208695436809,0.0009175078790618563,0.0009699646870126685,-0.0008723445067863941,8.678470913064671e-05,0.04277399927377701,-50.59903335571289,-8.019303321838379,17.33161163330078,1.6698099374771118,-1.0919907093048096,0.03300629183650017,,,,,,,,,
1739304229.8528643,-0.05547498376483637,1.0629775813865718,-0.4228947132412653,-1.4436253474989709,1.5585852431464646,1.1471737204337358,1.3482717563695785,-0.0012789204324307802,0.0012272266458287118,0.00014021338622530936,-0.00045300441977334885,5.5191665645366254e-05,-0.0015232339343360616,0.0017941225539850542,0.018970288336277008,-50.62680435180664,-8.070878028869629,17.35541534423828,1.6762186288833618,-1.0983994007110596,0.012864691205322742,,,,,,,,,
1739304229.8637807,-0.05547850435905052,1.0629778248216706,-0.4228936093641006,-1.4436225344001596,1.5585844873161192,1.1471770138044697,1.3482690776425694,-0.0002559714751875114,0.0003709340674205369,0.0006944845228367874,0.0016450067181547124,0.0004172796130635124,0.0008315082628705892,0.0019304977098113074,0.04277399927377701,-50.62680435180664,-8.070878028869629,17.33161163330078,1.6826273202896118,-1.1176254749298096,0.026597600430250168,,,,,,,,,
1739304229.874725,-0.05547497750925735,1.0629765332022851,-0.42289574635239846,-1.44362501272883,1.5585884281974338,1.1471752357698421,1.3482649539231188,0.0007086692036027906,0.0007148975133352801,0.0005338607874730572,-0.0005171968389598412,0.000899638834307263,0.00026328564056810137,-0.00028719774953597636,0.018970288336277008,-50.59903335571289,-8.070878028869629,17.35541534423828,1.6762186288833618,-1.1112167835235596,0.07969819009304047,,,,,,,,,
1739304229.8847644,-0.055476186505896134,1.0629774057684962,-0.42289782323500524,-1.4436252455668472,1.558585243002275,1.1471744388461838,1.3482632406585793,0.0008068328464207431,0.00015556721876264115,-0.0006085486169038898,-0.0009901121836820147,-0.0006415800890184387,-0.0012245287201116813,-0.0008582773050179305,0.018970288336277008,-50.62680435180664,-8.043107032775879,17.35541534423828,1.6762186288833618,-1.1048080921173096,0.08610688149929047,,,,,,,,,
1739304229.8948038,-0.055473330586809935,1.0629813572579547,-0.42289395488120246,-1.4436248825131106,1.558586000644373,1.1471744402995123,1.3482686174946472,0.0012124556470999477,0.001197166371344568,0.00013106514593123626,-0.0005713986312371949,-0.0006439004225813833,-3.4743669644114955e-06,-0.0006228523095800837,-0.03260441869497299,-50.65060806274414,-8.094681739807129,17.37921905517578,1.6698099374771118,-1.1048080921173096,0.03941498324275017,,,,,,,,,
1739304229.905802,-0.05547405569575904,1.0629783611088788,-0.42289574638843963,-1.443625350549632,1.5585841978816675,1.1471736855465593,1.3482709899883087,0.00026271070428210484,0.0004152024735899153,-0.00016867180382405063,-0.0005264362562343107,-0.0010646221757754045,-0.0007307149100178564,0.0025608489711342755,0.018970288336277008,-50.59903335571289,-8.070878028869629,17.35541534423828,1.6762186288833618,-1.0983994007110596,0.019273381680250168,,,,,,,,,
1739304229.9158344,-0.05547402782506272,1.0629759333122055,-0.4228957463885891,-1.443628916777589,1.558586048336455,1.14717292352583,1.34826547473813,0.0010424942194571562,-0.000953909196401746,0.00034072912576327746,-0.0015634049629399173,-0.0009402129922946146,5.917713290793877e-05,-0.00011401073528064388,0.018970288336277008,-50.57522964477539,-8.070878028869629,17.40302276611328,1.6698099374771118,-1.0919907093048096,0.06596527993679047,,,,,,,,,
1739304229.9268577,-0.05547885942418291,1.0629784570552914,-0.422897746705585,-1.4436214773282792,1.5585860008061474,1.1471729254638725,1.3482705034676685,-0.0004992930195185752,0.0002057731359350135,-2.5240235423945254e-05,0.0004696831704902238,-0.0002390149106436531,0.00044953032791104225,0.0006191612872518431,0.04277399927377701,-50.59903335571289,-8.043107032775879,17.30384063720703,1.6698099374771118,-1.0919907093048096,0.026597600430250168,,,,,,,,,
1739304229.9378011,-0.05547616888745276,1.062973818433478,-0.42289687217663086,-1.443627954309233,1.5585900459943458,1.1471735603393423,1.3482709987117023,0.0009797438269298544,-0.001806360603419529,5.140333270074537e-05,-0.0013967267553574546,0.0017634595655345565,-0.00039782824085990627,0.0014644626887331375,0.018970288336277008,-50.57522964477539,-8.043107032775879,17.40302276611328,1.6624857187271118,-1.0983994007110596,0.019273381680250168,,,,,,,,,
1739304229.9487295,-0.05547637408708229,1.0629800000229788,-0.4228978274328029,-1.4436253515634776,1.558584487280231,1.14717443884528,1.3482667031007445,-0.0008115300143290516,0.0005975090899251907,-0.0014240379599937832,0.00010969436751814581,-0.0001584273161784931,-0.0005753962074442928,-0.0007119362307275828,0.04277399927377701,-50.62680435180664,-8.043107032775879,17.35541534423828,1.6826273202896118,-1.1048080921173096,0.04673920199275017,,,,,,,,,
1739304229.958766,-0.055475407189629164,1.0629782398885061,-0.42289573755829263,-1.4436214231246807,1.5585860006444057,1.1471711804587144,1.3482638593998968,0.00020566783157324498,0.0011871415671940127,0.000840036523469282,0.0004504613903539802,-0.0007922553349031688,-0.0010795828371833833,-0.000496758434504923,-0.004833422601222992,-50.62680435180664,-8.070878028869629,17.33161163330078,1.6698099374771118,-1.1048080921173096,0.07969819009304047,,,,,,,,,
1739304229.968789,-0.055476827111443625,1.06298069588621,-0.4228957450802444,-1.443621423088342,1.5585852429842946,1.147174438790781,1.3482645734712977,9.832836283528022e-05,0.0011357295735314927,0.00038043165129509704,0.00049949958908982,0.00024539001037058434,-3.9133730886330997e-05,-0.0008530276680016788,0.018970288336277008,-50.62680435180664,-8.070878028869629,17.33161163330078,1.6762186288833618,-1.1048080921173096,0.07328949868679047,,,,,,,,,
1739304229.979818,-0.05547542597697486,1.06297797695335,-0.4228939637115479,-1.4436235600252356,1.5585852410462275,1.1471744779262745,1.3482638594169885,0.00020368043293101247,0.000745044300233021,0.0011178570287655857,0.000276067380926307,-0.0011851946029097428,0.00018492552380764776,-0.0015390865254030375,-0.004833422601222992,-50.59903335571289,-8.094681739807129,17.33161163330078,1.6762186288833618,-1.1048080921173096,0.07969819009304047,,,,,,,,,
1739304229.9898405,-0.05547690059715476,1.0629777452533062,-0.4228958425409379,-1.4436235678743574,1.5585860006443617,1.1471744388461826,1.3482669808529826,-0.0007109246542219304,-7.806231880111664e-05,-0.0002866888547177345,0.0002061386675710035,-0.0010177475862229704,5.011096877903878e-05,-1.2582263438293663e-05,0.018970288336277008,-50.62680435180664,-8.070878028869629,17.33161163330078,1.6698099374771118,-1.1048080921173096,0.05314789339900017,,,,,,,,,
1739304230.0007603,-0.05547642749081007,1.0629730572491765,-0.4228970049605228,-1.4436251216535843,1.5585855470619179,1.1471751965060406,1.348271756369357,-0.0012874823234647536,6.80305283019912e-05,-0.00014954408620731097,0.00024231591207197074,0.0004569180498396105,0.0001102019822911771,-0.00028367535676227266,0.018970288336277008,-50.52365493774414,-8.043107032775879,17.35541534423828,1.6826273202896118,-1.1112167835235596,0.012864691205322742,,,,,,,,,
1739304230.0107956,-0.055475740034026604,1.0629777650247294,-0.42289574638395333,-1.4436253162463428,1.5585855962029977,1.1471721658657272,1.3482726317672267,-0.0001711166473266206,0.0008859810795771915,-0.00021651815749323115,0.0003208301751625979,0.0001557523031462101,-0.0007534207873714877,0.002915265953103857,0.04277399927377701,-50.59903335571289,-8.070878028869629,17.35541534423828,1.6762186288833618,-1.0855820178985596,0.0064559997990727425,,,,,,,,,
1739304230.022733,-0.05547531635103203,1.0629823100018112,-0.42289396392657436,-1.4436271342457314,1.5585860009693777,1.1471744388459622,1.3482693363916243,-0.0006498765729322077,-0.00034384691826828983,-0.00011683247460947719,-0.0006629808252848958,-0.00026180147443994294,0.0006956262528950326,-0.00046909989877217913,-0.004833422601222992,-50.65060806274414,-8.094681739807129,17.37921905517578,1.6698099374771118,-1.1048080921173096,0.03300629183650017,,,,,,,,,
1739304230.032825,-0.055475765291216644,1.0629755839369202,-0.42289960917948555,-1.4436235335706218,1.558587663447542,1.147173681185884,1.3482677575704765,-0.00031061054010440045,-0.00014070696770153543,-0.001580849741805545,1.2967905178736558e-05,0.0005268104918888771,-0.00028492326863560434,-3.428199135566785e-05,0.04277399927377701,-50.59903335571289,-8.019303321838379,17.33161163330078,1.6560770273208618,-1.0983994007110596,0.04673920199275017,,,,,,,,,
1739304230.0448468,-0.055473565663530205,1.062976571607289,-0.42289571993364006,-1.4436246332605194,1.5585868684798936,1.1471744388459622,1.3482760878910311,0.001032789934612766,2.4722924452660877e-05,0.00015570225563608226,-0.00026550056566557986,0.000339256949662998,6.929330493323226e-05,0.004221762107229772,0.018970288336277008,-50.59903335571289,-8.070878028869629,17.35541534423828,1.6624857187271118,-1.1048080921173096,-0.0008682189509272575,,,,,,,,,
1739304230.0557954,-0.05547130356078745,1.062977775814347,-0.4228978281134337,-1.4436235658017469,1.5585855961790627,1.147173681185884,1.3482686174973166,0.001454209154322203,0.0007053876123735036,-0.0013482853642233106,-0.00013844150208019567,-0.00029880356868701793,-0.00019515548297238672,-0.0012840673010492425,-0.03260441869497299,-50.62680435180664,-8.043107032775879,17.33161163330078,1.6762186288833618,-1.0983994007110596,0.03941498324275017,,,,,,,,,
1739304230.0667999,-0.05547249855330272,1.062978625983624,-0.42289600884526635,-1.443623542400922,1.5585863935894497,1.1471744388459622,1.3482638550570025,0.0014031616430356356,0.00037548443488491344,-0.0006764755035595755,0.000692077571704751,0.0009851840528543715,-4.807406348200161e-07,-0.0002675482614926128,-0.004833422601222992,-50.59903335571289,-8.070878028869629,17.33161163330078,1.6698099374771118,-1.1048080921173096,0.07969819009304047,,,,,,,,,
1739304230.0768027,-0.055476908893153,1.0629769148224577,-0.42289574639303384,-1.4436252720956033,1.5585868665482596,1.147173681185884,1.3482677520795054,-0.0009036735473819512,-0.00040870452904240935,0.0010754278385408694,-0.0005696395340394425,1.2756071676963299e-05,7.187843143417646e-05,8.592282573096477e-05,0.018970288336277008,-50.57522964477539,-8.070878028869629,17.35541534423828,1.6624857187271118,-1.0983994007110596,0.04673920199275017,,,,,,,,,
1739304230.0887237,-0.055474460050481164,1.0629785619341834,-0.4228978523877726,-1.4436236450938158,1.5585860398902294,1.147173680634073,1.3482701326508748,0.0007545023402693381,-0.0013150492423340122,-0.00033304441125166955,-0.0001390714933057653,0.001313250461444481,-0.0005071551562132992,-0.00045269661908921077,-0.004833422601222992,-50.62680435180664,-8.043107032775879,17.33161163330078,1.6698099374771118,-1.0983994007110596,0.026597600430250168,,,,,,,,,
1739304230.0987747,-0.055472271420199504,1.0629769959199682,-0.42289502967944953,-1.4436232510008842,1.5585852560664681,1.1471736811858808,1.3482705258212624,0.001406527472323694,0.0002705199802663226,-0.0002005175568363419,0.0004619790056679936,-0.0014742684741215436,0.00017009786710772397,0.00022852848014960343,-0.004833422601222992,-50.57522964477539,-8.070878028869629,17.33161163330078,1.6762186288833618,-1.0983994007110596,0.019273381680250168,,,,,,,,,
1739304230.109787,-0.05547804339035444,1.062976890949407,-0.4228939632714592,-1.4436275831731298,1.5585855456084414,1.147174434376295,1.3482676192026186,0.00017235385078496438,0.00024667656781889025,0.0006095988250273031,-0.0012097341937108682,0.00026472869363974947,6.480620187639e-05,0.0008729317499272853,0.04277399927377701,-50.57522964477539,-8.094681739807129,17.37921905517578,1.6826273202896118,-1.1048080921173096,0.019273381680250168,,,,,,,,,
1739304230.1207788,-0.055475014027326325,1.0629785674925774,-0.4228957463885817,-1.4436250071941221,1.558583728328116,1.1471736677768072,1.348266542555861,-0.0010094716546833003,0.0009736241430371122,-0.0005334581049258656,-0.00015197755788881346,-0.0009400176236600959,-0.00011481049656057579,-0.0001464772703903285,0.018970288336277008,-50.62680435180664,-8.070878028869629,17.35541534423828,1.6890360116958618,-1.0983994007110596,0.06596527993679047,,,,,,,,,
1739304230.1307929,-0.055477873375625146,1.0629785698807546,-0.4228899557944794,-1.4436191045872533,1.5585856528854676,1.1471768601001961,1.3482725140356626,-0.0005178998672452449,0.0013127067360823338,0.0020080963492136775,0.001234209158547683,0.00011342004042967039,0.0005014751137318061,0.0016831793015811346,0.04277399927377701,-50.62680435180664,-8.118485450744629,17.30384063720703,1.6762186288833618,-1.0983994007110596,0.0064559997990727425,,,,,,,,,
1739304230.141786,-0.055477041926180935,1.0629786115979591,-0.4228977996385912,-1.4436251013267762,1.5585860176047728,1.1471744796171492,1.3482705135886894,0.0004958918158105681,8.058443579226157e-05,-0.0005408892816942215,0.00100661460648062,-0.0011118556964692624,0.0007047923829799697,0.001656909078830031,0.018970288336277008,-50.59903335571289,-8.043107032775879,17.35541534423828,1.6698099374771118,-1.1048080921173096,0.05955658480525017,,,,,,,,,
1739304230.1517897,-0.0554743025976861,1.0629778425345298,-0.4228941999221203,-1.443618548492974,1.5585852429845817,1.1471729235264958,1.3482725141020933,0.0001696671554405373,-0.0010381818853740076,6.563847741330965e-05,0.0018966075774957507,-0.0009315410292368362,-8.742540615141252e-05,0.0012224123917418655,0.018970288336277008,-50.62680435180664,-8.094681739807129,17.30384063720703,1.6762186288833618,-1.0919907093048096,0.0064559997990727425,,,,,,,,,
1739304230.1617982,-0.05547248467996771,1.06297214673112,-0.422895745411443,-1.4436224110233034,1.5585852444378447,1.1471729235258055,1.348269492405354,0.0012641975058209143,-0.0013527826360439465,-0.00013491351015145598,0.0008228217790222165,-0.0003241739962265585,-0.0009036508493592399,0.000558914807044511,-0.004833422601222992,-50.54745864868164,-8.070878028869629,17.35541534423828,1.6762186288833618,-1.0919907093048096,0.03300629183650017,,,,,,,,,
1739304230.172736,-0.0554788218182303,1.0629718824758987,-0.42289782617842814,-1.4436235688420944,1.558585242984319,1.1471751960094108,1.3482686179787235,-0.0009442738621566023,-0.0010864681092471878,-0.0005614373559173923,0.0006825585243539662,-0.000372534785189671,0.0003767036150001885,-0.000779788169312737,0.04277399927377701,-50.54745864868164,-8.043107032775879,17.33161163330078,1.6762186288833618,-1.1112167835235596,0.03941498324275017,,,,,,,,,
1739304230.1828356,-0.05547861008250019,1.062978680055698,-0.4228939899572367,-1.443623568891892,1.5585861765239524,1.1471736230802043,1.3482717563695865,-0.0011277666201955725,0.00012551172461789788,0.0009127643670273347,-0.0003084691689320111,0.0006690682003270941,-0.0008038422863371037,0.0015061192421529845,0.04277399927377701,-50.59903335571289,-8.094681739807129,17.33161163330078,1.6698099374771118,-1.0983994007110596,0.012864691205322742,,,,,,,,,
1739304230.1937916,-0.05547469303176873,1.0629748250547664,-0.4228960897186233,-1.4436228448058377,1.5585849410065744,1.1471739561218162,1.3482678178751002,0.0005859926886667753,-0.0002664665646833918,0.00051840991571321,0.0001822489514003811,-0.00043849189310793846,-0.0006322302034019243,0.001898508900477408,-0.004833422601222992,-50.57522964477539,-8.094681739807129,17.33161163330078,1.6698099374771118,-1.1048080921173096,0.019273381680250168,,,,,,,,,
1739304230.2047482,-0.055473947516380365,1.062978222203069,-0.42289503116885596,-1.4436250071742571,1.5585837276461927,1.1471729235176304,1.3482646147627857,0.0012042737118322382,-0.0005006791364167266,0.0006353280529381133,0.00044635309735635315,-0.0005124672162875967,-0.0002819589094444822,-0.001549972707818458,0.018970288336277008,-50.62680435180664,-8.070878028869629,17.35541534423828,1.6890360116958618,-1.0919907093048096,0.07328949868679047,,,,,,,,,
1739304230.214788,-0.055476011055752165,1.06297665295287,-0.4228940686538604,-1.4436253515669675,1.5585852430381295,1.147174834463013,1.348270132758554,-0.0007444187038391616,-0.000427081959818466,6.909842853544776e-05,-0.0009457254331422199,-0.0011838275680010597,-0.0005564327240382825,5.550333550072555e-05,0.04277399927377701,-50.57522964477539,-8.094681739807129,17.35541534423828,1.6762186288833618,-1.1112167835235596,0.026597600430250168,,,,,,,,,
1739304230.224828,-0.0554771469089446,1.0629799980000214,-0.42289396371334725,-1.4436235659484535,1.5585860006443737,1.1471748344568817,1.3482734687101914,0.00012044589564396825,0.0006247837855214162,0.0008254320935472143,0.00047866728530507276,-0.0005881863490637535,8.854409085985222e-05,0.002085994355368832,0.018970288336277008,-50.62680435180664,-8.094681739807129,17.33161163330078,1.6698099374771118,-1.1112167835235596,0.026597600430250168,,,,,,,,,
1739304230.235765,-0.05547791128642241,1.0629742565312412,-0.42289582512558904,-1.443625351568895,1.5585844853242161,1.1471725950547575,1.3482709987284414,-0.00016811694316515823,-0.0006990604755066772,-0.0003313294297147579,-0.0007239324919740913,-0.002046283862284507,-0.00011851906030575823,0.0002457266364111251,0.04277399927377701,-50.54745864868164,-8.070878028869629,17.35541534423828,1.6826273202896118,-1.0983994007110596,0.019273381680250168,,,,,,,,,
1739304230.2458618,-0.0554757783904525,1.0629800000645822,-0.4228939637129035,-1.4436214891020371,1.5585860006443728,1.147173679677601,1.3482662362748323,-0.0012522826996361762,0.0011144278690495978,0.0004966760499723543,0.00029816618650942465,-6.557719214090072e-05,4.9256302098137546e-05,-0.001020452275610516,0.04277399927377701,-50.62680435180664,-8.094681739807129,17.30384063720703,1.6698099374771118,-1.0983994007110596,0.05955658480525017,,,,,,,,,
1739304230.2567675,-0.05547247221030126,1.0629860590564928,-0.42289574606154035,-1.4436271351907384,1.5585902391968898,1.1471743986189507,1.3482709987096102,0.0014207765628926636,0.0018984436653187151,-0.000325060583273726,-0.0013259134913170345,0.001887567527005522,0.0002905391462882183,0.0008024824953475284,-0.004833422601222992,-50.70218276977539,-8.070878028869629,17.37921905517578,1.6698099374771118,-1.1048080921173096,0.019273381680250168,,,,,,,,,
1739304230.2667713,-0.05547858337016714,1.0629749169908265,-0.4228955079700045,-1.4436186166202827,1.5585898348213016,1.1471744373553918,1.3482673983822788,-0.0008853792494416807,-0.0014242766521159024,-0.0010844131202827718,0.0015853289169864347,0.0016756015158488422,0.00024382001352565914,0.00041433951916985745,0.04277399927377701,-50.54745864868164,-8.070878028869629,17.30384063720703,1.6762186288833618,-1.1048080921173096,0.04673920199275017,,,,,,,,,
1739304230.2777872,-0.05547406588422528,1.0629797364754603,-0.42289264694571493,-1.4436235687303225,1.5585831572897288,1.1471744386804106,1.3482693751503056,0.0005191923685404087,0.0003426102602141353,0.0018326886932369868,0.000265298621035446,-0.0004971266843345235,0.0002622513121505822,0.0012804756064186678,0.018970288336277008,-50.62680435180664,-8.070878028869629,17.33161163330078,1.6826273202896118,-1.1048080921173096,0.03300629183650017,,,,,,,,,
1739304230.2888203,-0.055472725795226455,1.0629758444809412,-0.42289359306964536,-1.4436221713099888,1.5585837801459554,1.147170409389634,1.3482662362748319,0.00035708156891149103,-0.0008051312710141491,0.0008917774395464308,0.00013009302015278554,-0.0005791583611874298,-0.000998748219898462,-0.00010115226341705832,-0.03260441869497299,-50.59903335571289,-8.070878028869629,17.35541534423828,1.6890360116958618,-1.0983994007110596,0.05955658480525017,,,,,,,,,
1739304230.2994373,-0.055476829917889346,1.0629779637140577,-0.4228921543981149,-1.4436232043306303,1.5585863026233124,1.1471719380633845,1.3482701328123776,-0.0008724333913856307,0.0005791587762419763,0.0008008050520081151,0.00040447232009340633,-0.0001885943875381531,-0.00012993503287442619,0.00039715682140531287,0.018970288336277008,-50.59903335571289,-8.118485450744629,17.35541534423828,1.6762186288833618,-1.1112167835235596,0.026597600430250168,,,,,,,,,
1739304230.3098214,-0.05547790882789754,1.062978371370299,-0.4228975877597152,-1.4436246348475028,1.5585900454619748,1.1471733191244622,1.3482638557030246,-0.00044952066443535474,0.00012939481206130282,-0.00035644253164551955,-0.00024907526189290143,0.000524386181258396,-0.0007193679122823708,-0.0021083391017228965,0.04277399927377701,-50.59903335571289,-8.043107032775879,17.35541534423828,1.6624857187271118,-1.0983994007110596,0.07969819009304047,,,,,,,,,
1739304230.3207922,-0.05547643482369852,1.0629778516917494,-0.4228921457119342,-1.4436253484760715,1.5585863538750275,1.14717368118384,1.3482688126866718,-0.00032740733372594753,-0.00012303525906485005,0.0010463460207578114,-0.0004344829425146201,0.0003858186919020333,4.126439157142377e-05,0.0002475431013698509,0.018970288336277008,-50.62680435180664,-8.118485450744629,17.35541534423828,1.6698099374771118,-1.0983994007110596,0.04673920199275017,,,,,,,,,
1739304230.3308547,-0.05547444865929444,1.0629763310865785,-0.4228957434445517,-1.4436233304732613,1.5585873671117025,1.14717610292471,1.3482733117447354,0.0012383834644675968,0.00012033589606503191,-0.0004917362855187754,6.644607034818678e-06,-6.973451243164053e-05,0.0008738217288013176,0.0021105344605338878,-0.004833422601222992,-50.59903335571289,-8.070878028869629,17.33161163330078,1.6762186288833618,-1.0919907093048096,0.026597600430250168,,,,,,,,,
1739304230.3417172,-0.05547257739208346,1.0629775903318976,-0.4228977989213327,-1.4436224905446164,1.5585821731639504,1.147174318236736,1.3482669941681962,-0.0001308207540389634,-0.0011153323002848206,-0.0013955373786482873,-0.00024105821196963566,-0.0019328891050638302,0.00036647547132330054,0.0006675841020034809,-0.004833422601222992,-50.62680435180664,-8.043107032775879,17.35541534423828,1.7018533945083618,-1.1048080921173096,0.05314789339900017,,,,,,,,,
1739304230.3517394,-0.05547883320026605,1.0629803982607968,-0.4228957346143706,-1.4436233304248618,1.5585837276634742,1.1471732767364726,1.34826709390687,-0.0012889526685150976,0.0016322613985765924,-0.00037062382400744566,-3.750151443555707e-05,-0.002099695299194615,1.5126958851811553e-05,-0.001180478103444773,0.04277399927377701,-50.62680435180664,-8.070878028869629,17.33161163330078,1.6890360116958618,-1.0919907093048096,0.05314789339900017,,,,,,,,,
1739304230.3617988,-0.05547256265678562,1.0629787186950002,-0.4228937243116452,-1.443625033564418,1.5585846030617858,1.1471744388519436,1.3482690219412827,0.0006523397446704458,0.0017859539894969686,0.0006507461243229148,-0.00025891724795259026,0.0009729677512235205,4.2288847221553735e-05,0.0005046785560472763,-0.004833422601222992,-50.59903335571289,-8.094681739807129,17.35541534423828,1.6826273202896118,-1.1048080921173096,0.03300629183650017,,,,,,,,,
1739304230.372805,-0.05547672643728625,1.0629749194632263,-0.4228939636012024,-1.4436253515307778,1.5585852431464646,1.1471721658657272,1.3482677326430064,-0.0003780823926203093,-0.0007337209383507057,0.0012926067961203807,-0.00031824352984349005,0.00014282425282258386,-8.126762613428894e-05,-0.0010096770103406388,0.04277399927377701,-50.54745864868164,-8.094681739807129,17.35541534423828,1.6762186288833618,-1.0855820178985596,0.04673920199275017,,,,,,,,,
1739304230.3828332,-0.05547575203273787,1.0629755835000243,-0.4228957463885873,-1.4436253431585078,1.5585860011288921,1.1471711804587144,1.34827100452349,0.0004390239577115718,-0.0010476290791543398,6.164879742139894e-05,-0.0006342998369485225,0.0009347796104422375,6.436177240493125e-05,0.0004915892528247013,0.04277399927377701,-50.59903335571289,-8.070878028869629,17.35541534423828,1.6698099374771118,-1.1048080921173096,0.019273381680250168,,,,,,,,,
1739304230.3937953,-0.05547543481736837,1.0629760521252005,-0.4228939368935681,-1.4436214889928782,1.5585852948275947,1.1471751562238564,1.3482631998663401,0.00046403732037920785,-0.0004022421605657943,-1.2497025032704248e-05,0.000662303766093089,0.0005740692081087608,0.0007327210214750755,-0.0007872037377633672,-0.004833422601222992,-50.57522964477539,-8.094681739807129,17.30384063720703,1.6762186288833618,-1.1112167835235596,0.07328949868679047,,,,,,,,,
1739304230.404795,-0.055476900163663315,1.062976218689077,-0.4228939637115196,-1.4436264164545556,1.5585860137264225,1.1471721643757624,1.3482662362721733,-0.000693677363568187,-0.00011803143254112655,-0.0003148998690937364,-0.0011052393317778507,-0.0006102450412491692,-0.0010579410273053559,-0.00012369221351302942,0.018970288336277008,-50.59903335571289,-8.094681739807129,17.37921905517578,1.6698099374771118,-1.0855820178985596,0.05955658480525017,,,,,,,,,
1739304230.4157326,-0.05547535553050149,1.0629784769972122,-0.42289758645167036,-1.4436234863261868,1.5585859962837958,1.1471721658657188,1.348267296397478,-9.076740462232713e-05,0.00029934606858476604,-0.0005579636598121041,0.0010108523676643781,-0.0004889612680398349,0.0003852472871798808,-0.0002485478707218937,-0.004833422601222992,-50.59903335571289,-8.043107032775879,17.33161163330078,1.6698099374771118,-1.0855820178985596,0.05955658480525017,,,,,,,,,
1739304230.4260337,-0.055476910350546194,1.0629764542103703,-0.42289403917402213,-1.4436235688904944,1.5585860006442989,1.1471744388459622,1.3482709987275634,-0.0006973646154291683,-0.00032523334802943196,-0.0008149822178773025,0.0003252333935506297,0.0001701166526575818,0.0005637454488915571,0.0008540282530649274,0.018970288336277008,-50.59903335571289,-8.094681739807129,17.33161163330078,1.6698099374771118,-1.1048080921173096,0.019273381680250168,,,,,,,,,
1739304230.436767,-0.05547430292329021,1.0629793283631308,-0.42289577252566546,-1.4436251003954292,1.5585860006443726,1.1471693186253422,1.348267033180767,-0.0005145676894668939,0.0011427261336089383,-0.001340405661300061,0.0003384980810103562,-0.0011920586929185146,-0.0010860478086381264,-0.00030799274931200653,0.018970288336277008,-50.65060806274414,-8.070878028869629,17.35541534423828,1.6698099374771118,-1.0983994007110596,0.05314789339900017,,,,,,,,,
1739304230.446822,-0.0554788594297501,1.0629718958808474,-0.42289395063006047,-1.443626055895747,1.5585852429842944,1.1471736811120035,1.3482669546897181,-0.0017426980031932042,-0.0005195643925594911,0.0008690598586936617,-0.0005140654312281226,-0.0007828548017823286,-0.0004516086373656375,-0.0012825378794495401,0.04277399927377701,-50.54745864868164,-8.094681739807129,17.40302276611328,1.6762186288833618,-1.0983994007110596,0.05314789339900017,,,,,,,,,
1739304230.4578195,-0.05547567269463378,1.0629738936386108,-0.42289215443450767,-1.4436225887104726,1.5585861183819427,1.147172923525805,1.3482701328121562,-0.000644584515117049,-0.0018088546450042414,0.0007884393006970599,0.00025200555785144025,-0.0006115365849961474,0.00013577310912100024,0.001277048207095015,0.04277399927377701,-50.57522964477539,-8.118485450744629,17.33161163330078,1.6698099374771118,-1.0919907093048096,0.026597600430250168,,,,,,,,,
1739304230.4688807,-0.05547746410208229,1.062984426614053,-0.42289566691527897,-1.4436226150919607,1.5585860006463665,1.147173681185884,1.348268617492221,-0.00035363628540699887,0.0032440184723513234,-0.0001747070124464408,0.0005018437744605713,0.0003159129042514632,0.0004350816939013163,0.001005129139281628,0.06657771021127701,-50.67837905883789,-8.070878028869629,17.33161163330078,1.6698099374771118,-1.0983994007110596,0.03941498324275017,,,,,,,,,
1739304230.4798717,-0.05547780592997983,1.0629784714030426,-0.4228958513711061,-1.443625351567117,1.5585852444378447,1.147174438790781,1.3482669982955608,-0.0011392413567963026,-3.0670177147991916e-05,-0.0008106071800585886,-0.0002475223854722026,-0.0004473464052092381,0.000803850257546165,0.0015933966055345587,0.04277399927377701,-50.59903335571289,-8.070878028869629,17.35541534423828,1.6762186288833618,-1.1048080921173096,0.05314789339900017,,,,,,,,,
1739304230.4907148,-0.05547539960267149,1.0629756179492724,-0.42289288536623254,-1.4436235688918928,1.5585844853242241,1.1471729230291754,1.3482709987096346,0.0001417650965407977,0.0006073637739141375,-0.0005943138044882155,0.001040637497887475,-0.0011524166799962707,-0.00023928213925984715,0.0013285688427098488,-0.004833422601222992,-50.59903335571289,-8.070878028869629,17.33161163330078,1.6826273202896118,-1.0919907093048096,0.019273381680250168,,,,,,,,,
1739304230.500788,-0.055476401156743176,1.0629704342065505,-0.4228955078125421,-1.4436234890919843,1.558590045455993,1.1471736811858755,1.348266236274832,0.00010939325335446734,-0.0020381104460969013,0.00046128962742024497,0.0004610785157861515,0.0006525048923085761,0.00043487635736245295,-0.0009117676501095234,0.018970288336277008,-50.52365493774414,-8.070878028869629,17.33161163330078,1.6624857187271118,-1.0983994007110596,0.05955658480525017,,,,,,,,,
1739304230.510818,-0.05547643626156837,1.0629783322979778,-0.4228978585492079,-1.4436232058003484,1.558585545177686,1.1471736796959948,1.3482717563695785,0.0003951898828044113,0.0007102704010561432,-0.0014828807736934134,0.0004193089118115462,-2.8724829188308014e-05,-0.00025141834868897754,0.0015371314933027866,0.018970288336277008,-50.62680435180664,-8.043107032775879,17.35541534423828,1.6826273202896118,-1.0983994007110596,0.012864691205322742,,,,,,,,,
1739304230.5227735,-0.05547531780976798,1.0629767677112834,-0.4228937252931737,-1.4436204694019128,1.5585852434747942,1.147172923360254,1.348267789387295,2.7507732741577977e-05,-0.00040785983831770833,0.0006058643194441293,0.0012005222242259905,9.513975579449207e-05,-0.00011650022905510085,0.0011791101994569938,-0.004833422601222992,-50.57522964477539,-8.094681739807129,17.33161163330078,1.6762186288833618,-1.0919907093048096,0.04673920199275017,,,,,,,,,
1739304230.5327992,-0.055475355820263986,1.0629807161674951,-0.42289676653896946,-1.4436260971566723,1.5585860006443755,1.1471728828021717,1.3482614338029062,0.0010627713180349422,0.0005047764971753648,0.00046122970694278156,0.0002829016594747298,-0.00041690465648368,-0.00045828945056445095,-0.0015838621500641316,-0.004833422601222992,-50.62680435180664,-8.043107032775879,17.37921905517578,1.6698099374771118,-1.0919907093048096,0.07328949868679047,,,,,,,,,
1739304230.543826,-0.05547311079707099,1.0629780034083132,-0.42289215442859984,-1.4436214861527434,1.5585849955203523,1.1471744388457321,1.3482709987455002,0.000709970409926021,0.0003366204281341225,0.0006217306973913142,0.0005126015381465301,-0.0006039898663407002,0.0008399246551337558,0.0003698898443634118,-0.03260441869497299,-50.59903335571289,-8.118485450744629,17.30384063720703,1.6826273202896118,-1.1048080921173096,0.019273381680250168,,,,,,,,,
1739304230.5547945,-0.05547223912133391,1.0629783713624472,-0.42289502230208353,-1.443619316843822,1.5585852429929348,1.1471751965060406,1.3482683528219603,0.002063621393532348,-0.000905486293796997,0.0008956231030824745,0.0020382172982783718,-0.0014267662446913187,0.0011326702341792796,0.0006633471143976234,-0.004833422601222992,-50.59903335571289,-8.070878028869629,17.30384063720703,1.6762186288833618,-1.1112167835235596,0.03300629183650017,,,,,,,,,
1739304230.5657341,-0.05547853948211637,1.0629755823434175,-0.42289574638722666,-1.4436224875984358,1.558586000446977,1.1471736767162168,1.3482677279175468,-0.0016283810240774153,-0.0016703986564869154,0.0002616241312272894,-0.00013359633924635886,2.8359761977591284e-05,-0.00017372781885314,0.0006928208555992808,0.04277399927377701,-50.59903335571289,-8.070878028869629,17.35541534423828,1.6698099374771118,-1.0983994007110596,0.03941498324275017,,,,,,,,,
1739304230.5777228,-0.055480560616378106,1.0629823904071574,-0.4228926469470608,-1.4436240229781394,1.5585848273391865,1.1471736407933124,1.3482668761923187,-0.0013525128952173921,0.0007744719240354101,0.0008028708040369922,0.0008449930467312858,-0.0007256514912792957,0.00013516569761836157,-0.0006472080599898022,0.06657771021127701,-50.65060806274414,-8.070878028869629,17.37921905517578,1.7155863046646118,-1.0983994007110596,0.05314789339900017,,,,,,,,,
1739304230.587794,-0.05547951892616321,1.0629786261090226,-0.4228978524066149,-1.443625268153903,1.5585852430082212,1.147175182600182,1.3482687352291263,-0.0002739588063100319,-0.0006452147882717334,-0.0014193432335872585,-0.0004577323473775667,0.0007240044705223701,0.0019993901972892502,0.0005168771961501686,0.06657771021127701,-50.59903335571289,-8.043107032775879,17.35541534423828,1.6762186288833618,-1.1112167835235596,0.03941498324275017,,,,,,,,,
1739304230.5978,-0.05547248875593848,1.0629802833931963,-0.42289780843649116,-1.443626180243153,1.558586000644373,1.1471744388457266,1.3482645996371225,0.001775847637539093,0.002068329923657978,-0.0017009115707405562,1.3592686143704884e-05,-0.0005874925979683164,0.0006225205449633357,-0.002822167548792033,-0.03260441869497299,-50.65060806274414,-8.043107032775879,17.37921905517578,1.6698099374771118,-1.1048080921173096,0.07328949868679047,,,,,,,,,
1739304230.6087523,-0.05547255528167918,1.0629779424924477,-0.4228939343850843,-1.443625325072573,1.5585870210366453,1.1471744254369611,1.3482669545274741,-3.527119581698984e-05,-3.240571881027107e-05,-0.00015881755954973598,-0.0007581610744681274,0.00048120075189745656,-0.00027032417887129577,-0.0006341831543830959,-0.004833422601222992,-50.59903335571289,-8.094681739807129,17.35541534423828,1.6698099374771118,-1.1048080921173096,0.05314789339900017,,,,,,,,,
1739304230.6188245,-0.055478567091490544,1.062975829865149,-0.42289574638809246,-1.4436231969709332,1.5585860005001475,1.147173942547154,1.3482701308736433,-0.0005749934341722174,0.0006868535767639706,-0.00031706121163319,0.0006212005172956681,0.00034564072093568065,-0.00133049432366713,0.0010588162442611575,0.018970288336277008,-50.59903335571289,-8.070878028869629,17.35541534423828,1.6698099374771118,-1.1048080921173096,0.026597600430250168,,,,,,,,,
1739304230.6297739,-0.05547497753932143,1.0629758298293717,-0.4228975082870059,-1.4436235675472093,1.5585860006443701,1.147174438672014,1.348267751594956,-0.0004292733010456035,0.0006464241499063114,0.000528576642271016,0.00019660338757813102,0.0003166305464536093,0.0005829165817559898,-0.0005287379453090182,0.018970288336277008,-50.59903335571289,-8.043107032775879,17.33161163330078,1.6698099374771118,-1.1048080921173096,0.04673920199275017,,,,,,,,,
1739304230.6407762,-0.055472553825767365,1.0629778875185867,-0.4228956669030184,-1.4436235688918901,1.5585847873022671,1.1471736826394336,1.3482669413917605,0.0009500412844904271,0.0005953956974640638,-4.315373133286811e-05,0.00036461517797195753,-6.194998170230869e-05,0.00039441745963806794,-0.00124023186975825,-0.004833422601222992,-50.59903335571289,-8.070878028869629,17.33161163330078,1.6890360116958618,-1.0983994007110596,0.05314789339900017,,,,,,,,,
1739304230.6517088,-0.055477144307150186,1.062978635942968,-0.422893963710224,-1.4436270959812205,1.5585844897028118,1.1471744388459866,1.3482697018981287,-0.0009422316204608738,0.0002735402090231087,0.00028545709811078266,-0.0003668835382499672,6.303925042649159e-05,0.0008959610049721323,-0.0006728348422271965,0.018970288336277008,-50.59903335571289,-8.094681739807129,17.37921905517578,1.6826273202896118,-1.1048080921173096,0.05314789339900017,,,,,,,,,
1739304230.6617117,-0.05547874177137343,1.0629756178411849,-0.42289542849715034,-1.4436250856780168,1.558585596197029,1.1471744388459622,1.3482686177228482,-0.0005275342926603925,-0.0003947705059171056,0.0006122657797658251,7.120549180286347e-05,-0.0010843250961877458,0.0010301251359595006,-0.0003929394725992628,0.04277399927377701,-50.59903335571289,-8.070878028869629,17.35541534423828,1.6762186288833618,-1.1048080921173096,0.03941498324275017,,,,,,,,,
1739304230.6717749,-0.0554742765849785,1.0629721192551802,-0.4228957463832056,-1.4436214514505827,1.5585880243646466,1.1471733191428564,1.348270093566525,-0.000981997223813298,-0.0017172138374812074,0.000243765427910238,0.0005277467757788238,0.0008920860024875743,0.0006001086239207815,-0.0003615469811845962,0.018970288336277008,-50.54745864868164,-8.070878028869629,17.30384063720703,1.6890360116958618,-1.0983994007110596,0.026597600430250168,,,,,,,,,
1739304230.6817825,-0.05547519637353124,1.062975778155658,-0.42289110138042557,-1.443625351568274,1.5585852430570595,1.1471720436886979,1.3482669939342455,6.624143819218293e-05,-5.100245520359858e-05,0.0006862399297720321,-0.0010835913274983818,-0.0017646310342348207,-0.00030765248405049234,0.0009488904466003781,-0.004833422601222992,-50.59903335571289,-8.094681739807129,17.35541534423828,1.6762186288833618,-1.0855820178985596,0.05314789339900017,,,,,,,,,
1739304230.692813,-0.055475430966780315,1.0629748978977445,-0.42289396358639586,-1.4436235689968715,1.5585852880443525,1.1471744388452725,1.348262846653532,-0.0005857700526341153,-0.001733558776725221,-0.0006018718817091535,-0.0010090805552767667,-0.00021479301123322208,8.582960419523572e-05,-0.001248135602927441,-0.004833422601222992,-50.54745864868164,-8.094681739807129,17.33161163330078,1.6762186288833618,-1.1048080921173096,0.07328949868679047,,,,,,,,,
1739304230.703795,-0.05547791143087288,1.0629760132576191,-0.42289396371156796,-1.4436256351862466,1.5585852037392007,1.1471751965060406,1.3482676410952616,-0.0005306622569366036,-0.0011981887031200192,0.0005718335338963108,0.0002695075243337178,-0.0009496750647988203,0.0011843904981132356,-0.0006836623595891846,0.04277399927377701,-50.57522964477539,-8.094681739807129,17.33161163330078,1.6762186288833618,-1.1112167835235596,0.04673920199275017,,,,,,,,,
1739304230.7147365,-0.055475005260153074,1.0629783324535855,-0.4228957463764762,-1.4436242542689477,1.5585852429842206,1.1471740768029346,1.3482701328121698,1.2448203190708278e-05,0.0010193107306927006,0.0007673314552640296,-0.0008523520173600139,-0.00022749695632422466,0.00142560714355773,0.0018346901623051506,0.018970288336277008,-50.62680435180664,-8.070878028869629,17.33161163330078,1.6762186288833618,-1.1048080921173096,0.026597600430250168,,,,,,,,,
1739304230.7258554,-0.05547440656961071,1.0629770051850556,-0.42289503098749676,-1.4436271332686534,1.5585863538570826,1.1471740753110018,1.3482677515949886,0.0009620205889562022,0.00048005019199978,0.0005714710026070112,-0.0008229041492338843,-0.00025527766505784597,0.0002641245177051648,0.0009642490982601697,-0.004833422601222992,-50.57522964477539,-8.070878028869629,17.37921905517578,1.6698099374771118,-1.1048080921173096,0.04673920199275017,,,,,,,,,
1739304230.7367525,-0.05547418586260528,1.0629821907433914,-0.42289396370753163,-1.4436194415154802,1.5585852429862883,1.1471751960073586,1.348270132327861,0.00018394666350079176,0.0016319342501821116,0.0006000767966730025,0.0014778852142328768,0.0002627969719951618,0.001314380301691032,0.0003279966332136248,0.018970288336277008,-50.65060806274414,-8.094681739807129,17.28003692626953,1.6762186288833618,-1.1112167835235596,0.026597600430250168,,,,,,,,,
1739304230.7477188,-0.05547711713449081,1.0629807125699584,-0.422895675664285,-1.4436214626095885,1.5585861183819427,1.1471744388459593,1.3482701327585398,-0.0009691908868167747,0.0009263345297548162,0.0004026722624726726,0.0008686048609584779,0.0006573945232121612,-0.0006667699840270814,0.0005068448328834862,0.018970288336277008,-50.62680435180664,-8.070878028869629,17.30384063720703,1.6698099374771118,-1.1048080921173096,0.026597600430250168,,,,,,,,,
1739304230.757843,-0.05547612022190424,1.0629727473503472,-0.422899582036264,-1.4436187527502529,1.558587453227579,1.1471759482065629,1.34826861749222,-0.0006405393969290885,-0.0023365741852669764,-0.00171796013369622,0.0014342267778913488,0.0018800730048917082,0.0008974843221437991,-4.793700643195107e-05,0.018970288336277008,-50.54745864868164,-8.019303321838379,17.28003692626953,1.6698099374771118,-1.1176254749298096,0.03941498324275017,,,,,,,,,
1739304230.768739,-0.05547543485260538,1.0629760432006732,-0.42289687250367414,-1.443625324734759,1.5585852488230951,1.1471729235257044,1.348266269221971,-0.0007980334658204823,-0.0003958886539249598,0.0006774837378610724,-0.0008070040820417259,0.0011468792676880468,0.0005931260154487428,0.00021930225242417325,-0.004833422601222992,-50.57522964477539,-8.043107032775879,17.35541534423828,1.6762186288833618,-1.0919907093048096,0.05955658480525017,,,,,,,,,
1739304230.77971,-0.055474273552188265,1.0629738154860797,-0.4228936019480783,-1.4436271342457794,1.5585877078451442,1.1471736811307027,1.3482677498186133,7.81928473413518e-05,-0.0014891844493841989,-0.00114843312986628,-0.0014168742538946887,-0.000425114486996463,-0.0004376519728390167,-0.0003896940186985716,0.018970288336277008,-50.57522964477539,-8.070878028869629,17.37921905517578,1.6826273202896118,-1.0983994007110596,0.04673920199275017,,,,,,,,,
1739304230.7898235,-0.0554729591147617,1.062980167565137,-0.42289782616633925,-1.4436253515689117,1.558584838555117,1.1471739488067725,1.348268617492211,0.0007895557977927944,0.0006056614100319447,-0.0010982469328714107,0.00042768195903445896,-0.0007337217657001027,-0.00039458153779784095,0.00027931298580657335,-0.004833422601222992,-50.65060806274414,-8.043107032775879,17.35541534423828,1.6826273202896118,-1.1112167835235596,0.03941498324275017,,,,,,,,,
1739304230.8007927,-0.05547493176266953,1.0629767677483148,-0.42289574638858907,-1.4436232500193076,1.5585860011308834,1.147174438838919,1.3482706973401923,0.0009538763302658327,-0.0006481416556613901,-0.0003364581387104374,-0.0001153548094426603,-0.0003637436070373957,-0.00010899302494544837,0.0009361582335386226,0.018970288336277008,-50.57522964477539,-8.070878028869629,17.33161163330078,1.6698099374771118,-1.1048080921173096,0.019273381680250168,,,,,,,,,
1739304230.8117151,-0.055475079425679974,1.0629737886721677,-0.4228957463885891,-1.443624193421273,1.558589638520241,1.1471744388459622,1.3482733624825851,-0.0006515154733017906,-0.0018264488485940343,-0.0002508833679997996,-0.00016337341699073705,0.00184054078372895,0.0011007006605566274,0.0009110661552682955,-0.004833422601222992,-50.57522964477539,-8.070878028869629,17.37921905517578,1.6762186288833618,-1.1048080921173096,-0.0008682189509272575,,,,,,,,,
1739304230.8217475,-0.05547396042078507,1.0629787186459032,-0.42289573461483215,-1.443623568515041,1.5585859992652613,1.1471721657001839,1.3482676338571233,-0.0001089848594864607,-0.000634368072371606,0.0007345965924771239,-3.110890779434966e-05,0.0006187861918357877,-0.0004248002115801436,-0.001944234646893315,0.018970288336277008,-50.59903335571289,-8.070878028869629,17.33161163330078,1.6698099374771118,-1.0855820178985596,0.04673920199275017,,,,,,,,,
1739304230.8317757,-0.055472510036353534,1.0629758311864885,-0.4228949651552961,-1.4436254163245688,1.5585848385369023,1.1471708504998184,1.3482701328103839,0.00030858856347768215,8.801262520354375e-05,-0.0007046361840442662,-0.0003540847265036653,-0.000448309017905381,0.00037643675890997605,0.000660460043803913,-0.004833422601222992,-50.59903335571289,-8.043107032775879,17.35541534423828,1.6826273202896118,-1.1112167835235596,0.026597600430250168,,,,,,,,,
1739304230.8417861,-0.05547850565848505,1.0629740656349516,-0.42289782612999305,-1.443625271116002,1.558586039896211,1.1471728832252024,1.348263855541519,-0.0018110947235009944,-0.0008026264811363838,-0.0013273484786723037,0.00048668933755749617,0.00035808053625558566,0.0008401377891643785,-0.0015910032732513342,0.04277399927377701,-50.57522964477539,-8.043107032775879,17.35541534423828,1.6698099374771118,-1.0919907093048096,0.07969819009304047,,,,,,,,,
1739304230.852813,-0.05547576962530141,1.0629806900973535,-0.4228979049154443,-1.4436235688914385,1.5585868665418265,1.1471704227984085,1.348270172849301,-0.0005813912435060406,0.0003829297566679985,-0.0001395682635820085,0.0009408674700603168,-8.185847227303061e-05,-0.0010334377507434597,-0.0008894949900249036,0.04277399927377701,-50.62680435180664,-8.043107032775879,17.33161163330078,1.6624857187271118,-1.0983994007110596,0.05314789339900017,,,,,,,,,
1739304230.8638487,-0.055474710585269635,1.0629762907784186,-0.4228921810349955,-1.4436235659484535,1.5585852429842946,1.1471739561035317,1.3482669939528553,0.0006031778295511813,-0.0012933558302066432,0.0013961457493607745,-5.603683804078842e-05,-0.0010645995255633314,-5.294343359863742e-08,-0.0021689240226220098,-0.004833422601222992,-50.57522964477539,-8.118485450744629,17.33161163330078,1.6762186288833618,-1.1048080921173096,0.05314789339900017,,,,,,,,,
1739304230.8747852,-0.05547518608531972,1.0629721442683806,-0.4228939597869844,-1.443625245605082,1.5585860006443728,1.14717443437357,1.3482638550570025,0.0004378171916751797,-0.0017169660934738392,-0.00014607520445586068,0.00023279200093794986,0.0003468352735476898,0.0009171684914423473,-0.0013084683153696639,-0.004833422601222992,-50.54745864868164,-8.094681739807129,17.35541534423828,1.6698099374771118,-1.1048080921173096,0.07969819009304047,,,,,,,,,
1739304230.8857458,-0.05547885586367077,1.0629766965414613,-0.4228957460615182,-1.4436235688912946,1.5585863555259734,1.1471736796959695,1.3482678154345713,-0.0015305794548827441,0.0006294427962448991,-0.000817757428734382,0.0003159588176061281,0.0017227661949251907,0.00033673073830848405,-0.0004879064015831323,0.04277399927377701,-50.59903335571289,-8.070878028869629,17.33161163330078,1.6698099374771118,-1.0983994007110596,0.019273381680250168,,,,,,,,,
1739304230.897781,-0.055472563741069,1.0629841607283315,-0.4228939251198092,-1.4436253515689117,1.5585855961990076,1.1471735605048663,1.3482717577513237,0.0008819941573749692,0.0012568649227362556,0.0006507251913004157,-0.00032541614764357627,-0.00026692545965262,-0.0003008637474840656,0.0006598411646185919,-0.004833422601222992,-50.67837905883789,-8.094681739807129,17.35541534423828,1.6762186288833618,-1.0983994007110596,0.012864691205322742,,,,,,,,,
1739304230.908857,-0.05547612009658589,1.0629755355338684,-0.42289393722054425,-1.4436253162476407,1.558585242984959,1.1471736811856568,1.348269073174251,4.8485131833019945e-05,-0.001211517313980932,0.0004887553102049419,-0.0012200490115386018,-0.00015434084172264253,-0.0005555886934225199,0.0005411146366175329,0.018970288336277008,-50.59903335571289,-8.094681739807129,17.35541534423828,1.6762186288833618,-1.0983994007110596,0.026597600430250168,,,,,,,,,
1739304230.9197807,-0.05547476525476283,1.0629783314563386,-0.4228939637114206,-1.4436271342457314,1.5585868796773923,1.1471711670497133,1.3482725271594624,0.0002660987545028336,0.0008069995421456396,-1.1444855070812218e-05,-0.0013512795925189258,0.0004893026415475144,4.2803692526437105e-05,0.0018564989372187464,0.018970288336277008,-50.62680435180664,-8.094681739807129,17.37921905517578,1.6624857187271118,-1.1048080921173096,0.0064559997990727425,,,,,,,,,
1739304230.930752,-0.05547664721033466,1.0629763314123422,-0.4228957081238789,-1.4436233275298744,1.5585852429843685,1.1471731982226534,1.3482627954189472,-0.0006451243757546252,-0.0007028700430185191,0.0008476501255217407,9.443507920434672e-05,0.0004636675448966253,-0.001238956023355927,-0.0019237259386085431,0.04277399927377701,-50.59903335571289,-8.070878028869629,17.33161163330078,1.6762186288833618,-1.0983994007110596,0.07969819009304047,,,,,,,,,
1739304230.9417758,-0.055472247640683356,1.062976926656986,-0.42289758765063334,-1.4436271342445683,1.5585837276641379,1.147172923523079,1.3482709987036283,0.0012334547789440709,0.0003070187430092153,-0.0008331041855401695,-0.00022999359322084544,-0.0006177729731918913,2.28265543499282e-05,0.0005230303763076696,-0.004833422601222992,-50.57522964477539,-8.043107032775879,17.37921905517578,1.6890360116958618,-1.0919907093048096,0.019273381680250168,,,,,,,,,
1739304230.953781,-0.05547402648777032,1.0629775376173918,-0.42289479271292624,-1.4436243184217354,1.5585860006443728,1.1471744388459622,1.3482701386265785,-0.00048302042712822083,0.0002590495468764184,0.00022090455861509636,0.0005548865157149237,-0.00023174821079370247,0.001198471100732036,0.001996349739912003,0.018970288336277008,-50.62680435180664,-8.070878028869629,17.35541534423828,1.6698099374771118,-1.1048080921173096,0.026597600430250168,,,,,,,,,
1739304230.9647152,-0.055479755489529325,1.0629785674885468,-0.4228957463867946,-1.4436253417555034,1.5585848391829482,1.147174437356073,1.3482644189761948,-0.0015266823166007759,0.001773941668820399,-0.00032198449159733726,4.934484439452722e-06,8.093988454186272e-05,0.0011836036952199297,-0.0014965228460514304,0.06657771021127701,-50.62680435180664,-8.070878028869629,17.35541534423828,1.6826273202896118,-1.1048080921173096,0.06596527993679047,,,,,,,,,
1739304230.97479,-0.05547631779514263,1.0629804748067655,-0.4228996078743173,-1.4436233275297081,1.5585850903675114,1.1471736618173016,1.3482701327944326,-0.0004762759494086975,0.0011769000874117836,-0.0016971430682692571,0.0010732526178068463,-0.0010879619002233392,0.0006209366202108744,0.0014597261223473902,0.018970288336277008,-50.62680435180664,-8.019303321838379,17.33161163330078,1.6762186288833618,-1.0983994007110596,0.026597600430250168,,,,,,,,,
1739304230.984819,-0.05547235291746434,1.0629748430747668,-0.42289852598110933,-1.4436214890979495,1.5585848385343413,1.1471736811855557,1.3482654655323607,0.0016928759736985393,-0.0003177055159261868,-0.0009492402039976414,0.0009534635287767751,-0.0008490516372055373,-0.00013491778994090996,-0.002096364490730062,-0.004833422601222992,-50.57522964477539,-8.043107032775879,17.30384063720703,1.6826273202896118,-1.0983994007110596,0.06596527993679047,,,,,,,,,
1739304230.9957192,-0.055474658483557766,1.0629775334630116,-0.4228971109266578,-1.4436264150656077,1.5585844853262099,1.1471711268227103,1.348264672527908,0.0006225605077425332,-0.0014997220150687611,-0.0009847399764832086,-0.0005668758648718975,-0.0011504442385142483,0.0006463260219374804,-0.0011381006304016926,0.018970288336277008,-50.62680435180664,-8.043107032775879,17.37921905517578,1.6826273202896118,-1.1048080921173096,0.07328949868679047,,,,,,,,,
1739304231.0068107,-0.05547394737037966,1.062980704377115,-0.42289550752990734,-1.4436214622799752,1.5585852445993502,1.1471736806153767,1.3482709987099477,0.0003705325901455367,-0.0005506189627627756,0.001093220317189776,0.0011198241636065324,-0.0003557798375216502,0.0007756723455530864,0.0013382704609737513,0.018970288336277008,-50.62680435180664,-8.070878028869629,17.30384063720703,1.6762186288833618,-1.0983994007110596,0.019273381680250168,,,,,,,,,
1739304231.0177612,-0.05547440725007968,1.0629814754875906,-0.4228956669143811,-1.4436271342094404,1.5585860008058874,1.1471735544901345,1.3482654844285142,0.001375289978048698,0.001257422651929223,-3.785914812211016e-05,-0.0003535550872064712,-0.0005138667875008731,0.0005738448724952845,-0.0011586992368795585,-0.004833422601222992,-50.65060806274414,-8.070878028869629,17.37921905517578,1.6698099374771118,-1.0983994007110596,0.06596527993679047,,,,,,,,,
1739304231.02878,-0.055469166075270714,1.0629739067219819,-0.4228939637102242,-1.4436249881516694,1.5585876242016863,1.147173554543173,1.3482709987097086,0.001452862782708458,-0.0007363672231889126,0.0007995955388746161,-0.0002621184575315821,0.0005265974144239752,0.0007028916541959773,0.00032357415176765435,-0.03260441869497299,-50.57522964477539,-8.094681739807129,17.37921905517578,1.6560770273208618,-1.0983994007110596,0.019273381680250168,,,,,,,,,
1739304231.0387905,-0.05547669001190076,1.0629765450075188,-0.42289573755827137,-1.4436250247987017,1.558588892848962,1.147173310502643,1.3482686174922212,-0.0008385609541200673,-0.0005844059817244178,-0.0005596061240003457,-0.00021222615529850814,0.0014188794815245087,0.0004237323284700857,8.698798098461468e-05,0.04277399927377701,-50.59903335571289,-8.070878028869629,17.35541534423828,1.6762186288833618,-1.1048080921173096,0.03941498324275017,,,,,,,,,
1739304231.049706,-0.055472718729914425,1.0629762879682136,-0.42289348539113164,-1.4436213180674922,1.5585844852909845,1.1471698983513379,1.3482654786143133,0.0011140293883733045,-0.0011069133987581504,0.0005739752919287535,0.000274881839900026,-0.001001927479926135,-3.3863787905328462e-06,-0.0011348266646850052,-0.004833422601222992,-50.57522964477539,-8.070878028869629,17.33161163330078,1.6826273202896118,-1.0983994007110596,0.06596527993679047,,,,,,,,,
1739304231.059725,-0.05547565989529119,1.0629799921069618,-0.4228957365388348,-1.4436271327906014,1.5585850860008674,1.1471711752628118,1.3482654829749638,0.00101518176006822,5.0781479768715655e-05,0.0003419454196634902,-0.001396912235671311,-0.00046619534662826497,-0.0013837173314352235,-0.00026711397844644873,0.04277399927377701,-50.62680435180664,-8.070878028869629,17.37921905517578,1.6762186288833618,-1.1048080921173096,0.06596527993679047,,,,,,,,,
1739304231.0697749,-0.055473957121050375,1.0629798944282782,-0.4228938577475903,-1.4436274178632391,1.5585844853215574,1.1471725943393594,1.3482701321664292,0.001153332989511617,-3.264031214378197e-06,0.0012928793694059304,-0.0008044084389082614,-0.001115061788680817,0.000672350372736046,0.0005609070778803156,0.018970288336277008,-50.62680435180664,-8.094681739807129,17.35541534423828,1.6826273202896118,-1.0983994007110596,0.026597600430250168,,,,,,,,,
1739304231.079784,-0.05547632209036561,1.0629786127226548,-0.4228957434433554,-1.4436246353670208,1.5585860006443726,1.1471725935485064,1.3482638506963407,-0.001294772325265938,0.0007519181874630604,6.642118493925439e-05,-0.00016758529398642384,-0.0007769162598949514,0.0004727126996399649,-0.00215678680684313,0.018970288336277008,-50.59903335571289,-8.070878028869629,17.35541534423828,1.6698099374771118,-1.0983994007110596,0.07969819009304047,,,,,,,,,
1739304231.0908043,-0.05547611974808778,1.0629784448145887,-0.42289590214556605,-1.4436235688878498,1.5585846406058592,1.1471732983573817,1.348268564949047,-0.000505782836431573,-4.239291592623637e-05,0.00042696191384813,-9.193977368789248e-05,-0.0005574709467572627,-4.399756112194103e-05,-0.0004170060756615924,0.018970288336277008,-50.59903335571289,-8.070878028869629,17.33161163330078,1.6698099374771118,-1.1048080921173096,0.03941498324275017,,,,,,,,,
1739304231.1018245,-0.05547738416184121,1.0629767676505193,-0.4228939627313029,-1.443623568564844,1.5585848897639072,1.1471688524491896,1.3482690408354463,-0.001621134178026304,-0.0002620878967182083,0.0005659123634934435,0.0006960685020288471,-0.0011628843668434327,9.092793441435224e-05,0.0009887303054958347,0.06657771021127701,-50.57522964477539,-8.094681739807129,17.33161163330078,1.6762186288833618,-1.0983994007110596,0.03300629183650017,,,,,,,,,
1739304231.1127903,-0.055472454153799505,1.0629770022537286,-0.42289783039070666,-1.443623568891891,1.5585830855533351,1.1471743181376945,1.3482662362191096,0.0012886526234670243,-0.0008689202521457789,-0.001335390530423978,0.0006082085484745102,-0.0020302579638001366,-0.0002440248837005655,-0.0007967868065482371,-0.03260441869497299,-50.57522964477539,-8.043107032775879,17.33161163330078,1.6826273202896118,-1.1048080921173096,0.05955658480525017,,,,,,,,,
1739304231.124299,-0.05547294597467649,1.0629759729961237,-0.42289710961453597,-1.4436228522916215,1.5585884221061213,1.1471689053257361,1.3482665229846302,0.0005134739282410818,-0.001302936025983149,-0.000529595891094153,0.0016386867774086378,0.00031835907938638467,-0.00010890297370678243,-0.001404679789068819,-0.004833422601222992,-50.57522964477539,-8.043107032775879,17.33161163330078,1.6762186288833618,-1.0855820178985596,0.05314789339900017,,,,,,,,,
1739304231.1347988,-0.055476713830616704,1.062979654053844,-0.422895745948479,-1.443627133260739,1.5585874135131579,1.1471708049330989,1.3482669538953311,-0.0009038904379338991,0.0009804522674597706,0.00045384294339251334,-0.0009189634417937866,0.0005535522821856066,0.000534266695655896,0.00028560380954723995,0.04277399927377701,-50.62680435180664,-8.070878028869629,17.37921905517578,1.6698099374771118,-1.1048080921173096,0.026597600430250168,,,,,,,,,
1739304231.1457448,-0.055474185386625366,1.0629766853387843,-0.4228957463885866,-1.4436253162476351,1.558585247352921,1.147175196485527,1.348267698764718,0.0003675606616697079,-4.9290583234358715e-05,-0.00039092070169454275,-0.0003806751321895176,0.0017955569264524376,0.0022388538364828256,-0.0009095713350338133,0.018970288336277008,-50.57522964477539,-8.070878028869629,17.35541534423828,1.6762186288833618,-1.1112167835235596,0.04673920199275017,,,,,,,,,
1739304231.1557503,-0.05547118636480449,1.0629787154244705,-0.4228978261784447,-1.4436235688912946,1.5585844896849408,1.1471718369000927,1.3482686174913263,0.00011885187787276071,0.0012078644687108886,-0.000707007725805575,0.0007212692300261153,-0.0006477447705663938,0.000897940939870629,0.0009787767654956033,-0.03260441869497299,-50.59903335571289,-8.043107032775879,17.33161163330078,1.6826273202896118,-1.0919907093048096,0.03941498324275017,,,,,,,,,
1739304231.1657887,-0.055476794774953486,1.06297628765338,-0.42289568041123277,-1.4436214891020371,1.5585872720821974,1.147170092324711,1.3482637387729828,0.00022778907091134987,-0.0010937069374544997,-0.0008715445592780049,0.002062510145583941,0.0006191074400404237,0.00020075532298502577,-0.0020463253858817557,0.018970288336277008,-50.57522964477539,-8.043107032775879,17.30384063720703,1.6624857187271118,-1.1048080921173096,0.07969819009304047,718,704,748,39.979,0,0
1739304231.1768174,-0.05547419627141672,1.0629769002117917,-0.4228957473121992,-1.4436253515689117,1.5585863538593718,1.1471689565025975,1.3482686363877179,0.0010755130162217119,0.0006315928669000195,0.00011002507799946056,-0.0010129782440458429,0.0007013038607340667,-0.0019458543409830115,0.00023630795313668058,0.018970288336277008,-50.57522964477539,-8.070878028869629,17.35541534423828,1.6698099374771118,-1.0983994007110596,0.03941498324275017,716,704,747,39.979,0,0
1739304231.1887054,-0.05547500492012249,1.0629748334848323,-0.4228995787639506,-1.4436235688555539,1.5585844853262099,1.1471704222753354,1.3482708809721469,-0.0002465517248649941,-0.000876141309342519,-0.0009578727326771331,-0.0004938034330489374,-0.0004056878749187849,-0.00016963186809145002,0.0013331790312245643,0.018970288336277008,-50.57522964477539,-8.019303321838379,17.33161163330078,1.6826273202896118,-1.0983994007110596,0.019273381680250168,717,705,746,39.979,0,0
1739304231.1988244,-0.05547237170546714,1.0629762536849423,-0.4228954284606417,-1.4436253515689115,1.5585899524870914,1.1471708517505892,1.3482686176530618,0.0009784037651800522,-7.7377241084422e-05,-0.00022145565525562674,6.179187520841177e-05,0.0010439544919632715,-0.00021407598399046928,0.0007054869948578401,-0.03260441869497299,-50.59903335571289,-8.070878028869629,17.35541534423828,1.6762186288833618,-1.1112167835235596,0.03941498324275017,717,705,748,39.979,0,0
1739304231.2097666,-0.05547437702260762,1.0629783640565555,-0.42289396370977533,-1.4436251131503326,1.558586870928841,1.1471731574929638,1.348267661358246,-0.00011641306320542456,0.0008143760039536212,0.00040262157955127457,-0.0002995610614064505,0.00112635514365329,-0.00028645617176829456,-0.00013428265144727514,-0.004833422601222992,-50.59903335571289,-8.094681739807129,17.35541534423828,1.6624857187271118,-1.0983994007110596,0.019273381680250168,717,704,747,39.979,0,0
1739304231.2207453,-0.055474953834423406,1.0629786037589042,-0.4228957463885891,-1.4436214201798956,1.5585858872674783,1.1471687956161651,1.3482686174733816,0.0004146277233542035,-0.00046009101784997186,-0.00040238795576054285,0.0006632921707407449,-0.0005000316903417105,-0.0013081900006636673,9.9270189294009e-05,0.04277399927377701,-50.59903335571289,-8.070878028869629,17.33161163330078,1.6698099374771118,-1.0983994007110596,0.03941498324275017,716,703,747,39.871,0,0
1739304231.230761,-0.055477688447659976,1.062977003234275,-0.4228970756014364,-1.4436253474989211,1.5585848390195225,1.1471696734360226,1.3482699390714805,-0.0008161195652308487,-0.0010148474024704287,0.00010874569852534736,-0.0007515515402250269,-0.00045099248770426,-0.0015058404842967854,0.0009557100635265095,0.06657771021127701,-50.57522964477539,-8.043107032775879,17.35541534423828,1.6826273202896118,-1.1048080921173096,0.019273381680250168,717,704,746,39.871,1,0
1739304231.241752,-0.05547508224349526,1.0629784004818545,-0.4228957110546071,-1.4436253540762167,1.5585868670321117,1.1471697315437286,1.348265477142818,0.0008537488425932871,-0.00013933558275843865,0.0007627368842888914,-0.0007512448622569236,0.000900294976270991,-0.00028881371837901693,-0.0010466350219127804,-0.004833422601222992,-50.59903335571289,-8.070878028869629,17.35541534423828,1.6624857187271118,-1.1048080921173096,0.06596527993679047,717,703,745,39.871,1,0
1739304231.2527523,-0.0554740263967134,1.0629769177305295,-0.42289472281226426,-1.4436235688918975,1.558586000482868,1.147169811321406,1.3482638419750475,0.000845759230789943,0.0009981026104160728,0.002258236591867459,0.0006675250851305523,-0.0003321595648355088,-4.95432099219818e-05,-0.0019052627991268407,0.018970288336277008,-50.57522964477539,-8.043107032775879,17.33161163330078,1.6698099374771118,-1.0782577991485596,0.07969819009304047,717,704,746,39.979,0,0
1739304231.2627678,-0.055473186904214336,1.0629760484702446,-0.42289568024966073,-1.4436253515689117,1.5585874133337034,1.1471721927615603,1.3482677515947672,-0.0010762141989549918,-0.0007877806607648785,-1.7874029851319847e-05,-0.0009136686681365468,0.0009197674901607626,0.0003211929473392093,0.0007135861285664587,-0.004833422601222992,-50.57522964477539,-8.043107032775879,17.35541534423828,1.6698099374771118,-1.0983994007110596,0.04673920199275017,717,703,749,40.088,1,0
1739304231.2727847,-0.05547035495259106,1.0629738802309603,-0.4228939548449108,-1.4436235597345262,1.5585852430082185,1.1471697186868532,1.3482638550570023,0.0017367291923446803,-0.00028979854342092996,-9.003404641536256e-05,0.0007725325551174885,-0.0009138683596964756,-7.033110791964658e-05,-0.0006887645109895746,-0.03260441869497299,-50.57522964477539,-8.094681739807129,17.33161163330078,1.6762186288833618,-1.1048080921173096,0.07969819009304047,717,705,747,39.871,1,0
1739304231.2827911,-0.055475690237004154,1.0629786390655778,-0.42289396338437113,-1.44361934333467,1.5585876648846266,1.1471710188085928,1.3482677515949886,0.0003901612432725603,0.0009211992986765386,0.0003081688811706535,0.000537533500733011,-0.0005435737653362923,0.0010974157759365067,0.00020531430311403578,0.04277399927377701,-50.59903335571289,-8.094681739807129,17.30384063720703,1.6826273202896118,-1.1048080921173096,0.04673920199275017,717,704,748,39.979,1,0
1739304231.2938342,-0.055478086487058875,1.0629762549322754,-0.4228978722875843,-1.4436260138306296,1.5585868665595537,1.1471733462413876,1.348270132866213,-3.6165918584519976e-05,-0.000136554032948406,-0.0004081487130433767,-0.0017471712002146169,-0.0002505853577000474,-0.0001902598298943874,0.001569833827793506,0.06657771021127701,-50.59903335571289,-8.070878028869629,17.35541534423828,1.6624857187271118,-1.1048080921173096,0.026597600430250168,717,704,747,39.979,0,0
1739304231.3047767,-0.0554748994637666,1.062976289928869,-0.4228978290702919,-1.4436235688592924,1.5585863026224238,1.147170244005788,1.3482658830621224,0.0005891151922680198,-0.0003917655898154808,-0.0005257691287942557,-5.75118218864328e-05,-0.0003670806606759298,-0.0014980304680703958,-0.0007328749148629266,0.018970288336277008,-50.57522964477539,-8.043107032775879,17.33161163330078,1.6762186288833618,-1.0983994007110596,0.05955658480525017,716,704,746,39.871,0,0
1739304231.3157353,-0.055474693749645185,1.0629807166372016,-0.4228950311328682,-1.4436233275298742,1.5585851065016123,1.1471699199932155,1.3482717561522437,0.00045032241539122897,0.001316810939124241,-0.00011296837506609108,1.7027120829448943e-05,-0.0013442503800698492,-0.0020645994616166137,0.0012473209830560598,0.018970288336277008,-50.62680435180664,-8.070878028869629,17.33161163330078,1.6698099374771118,-1.1048080921173096,0.012864691205322742,717,704,747,39.979,1,0
1739304231.3257973,-0.05547593530700568,1.062973021978226,-0.42289550860291003,-1.4436235688878052,1.5585869597361088,1.1471710794945742,1.3482674406010349,-0.0001465803728205702,-0.0023507819366803493,0.00026218942391536735,-0.00029399286972217446,0.0003516150314639702,-0.0002683604041351171,8.725198485486953e-05,0.04277399927377701,-50.52365493774414,-8.070878028869629,17.33161163330078,1.6826273202896118,-1.0855820178985596,0.03941498324275017,722,705,751,40.197,1,0
1739304231.3358765,-0.05547418538534008,1.0629786833744852,-0.42289499580755396,-1.4436194689512465,1.5585891797621705,1.1471711248177938,1.3482662362549012,0.0006445033367283832,0.00035874441250495926,0.0007042905857629148,0.0012649701098278517,0.0005882627179920456,-0.0003241840939838738,0.0004396011248872346,0.018970288336277008,-50.59903335571289,-8.070878028869629,17.28003692626953,1.6698099374771118,-1.1048080921173096,0.05955658480525017,721,705,750,40.088,0,0
1739304231.346741,-0.05547680353943429,1.0629786274535757,-0.4228957463843521,-1.443625313302861,1.5585852430560758,1.14717079381015,1.3482701328123776,0.0006286309962175733,0.00031771912017745864,0.00023586145158815361,-0.0006836527689505377,-5.756725918772463e-05,-0.0004248789436934813,0.000376232936456474,0.018970288336277008,-50.59903335571289,-8.070878028869629,17.35541534423828,1.6762186288833618,-1.1112167835235596,0.026597600430250168,718,704,749,39.979,1,0
1739304231.3567867,-0.055475924720967205,1.0629787177177004,-0.4228978261784446,-1.4436222521267352,1.5585852431458012,1.1471699535433326,1.3482711164471801,-0.0006687502275305334,-0.00020823195847073287,-0.0005580361779465123,5.96174621532538e-05,7.038884465405138e-05,-0.000593138427016801,0.0016997333640238084,0.04277399927377701,-50.59903335571289,-8.043107032775879,17.35541534423828,1.6762186288833618,-1.1048080921173096,0.019273381680250168,717,704,746,39.871,1,0
1739304231.3677797,-0.05547584426853822,1.0629750082024634,-0.4228978261784447,-1.443623485476951,1.5585869057874626,1.1471703684751395,1.348267830824155,0.0008032268694891133,1.2220108571651196e-05,-0.0012977159522477234,0.00021913734245027435,0.00036726898909684937,0.0013642106437929424,-0.0008539275427079091,0.04277399927377701,-50.54745864868164,-8.043107032775879,17.33161163330078,1.6624857187271118,-1.0983994007110596,0.07328949868679047,716,703,747,39.979,0,0
1739304231.3787818,-0.05547739907375555,1.0629747416937319,-0.4228939368935681,-1.4436235597331135,1.5585876243638537,1.1471702477633487,1.3482724363836165,-0.0005017872645945705,-0.001912164960519055,0.00040461589624600475,6.788939561350199e-05,0.001028517167755663,0.0015421936874910128,0.0004260221693698292,0.06657771021127701,-50.57522964477539,-8.094681739807129,17.33161163330078,1.6560770273208618,-1.0983994007110596,0.03300629183650017,717,703,748,40.088,0,0
1739304231.3897493,-0.055475003798785255,1.0629727496354968,-0.4228938488810502,-1.4436253515688944,1.5585854000215564,1.1471681984007522,1.3482701196823506,0.0006300641809818007,-0.0022814933590079743,0.0004169988871103946,-0.00018309154934677063,0.00019087142677620117,-0.0014058611630905623,0.0009279153308326425,0.018970288336277008,-50.54745864868164,-8.094681739807129,17.35541534423828,1.6762186288833618,-1.0919907093048096,0.026597600430250168,717,704,748,39.871,0,0
1739304231.3997812,-0.05547680355598144,1.0629777466727939,-0.4228959792181398,-1.4436252480034566,1.558586655837793,1.1471733145931688,1.3482654385776107,0.0005350522896803765,0.0006111903737137149,0.0001033288725748214,0.00016607550532512063,-0.0002747738666098339,0.0011293711053959278,-0.00040493825255991025,0.018970288336277008,-50.62680435180664,-8.070878028869629,17.35541534423828,1.6762186288833618,-1.0983994007110596,0.03941498324275017,716,706,746,39.979,1,0
1739304231.4107404,-0.055476355958692984,1.0629741420511518,-0.4228977084421891,-1.4436213426700901,1.558585595989639,1.1471702462723103,1.348266236256887,-0.00041713897603145954,-0.001123476892928982,-0.0001228630237517271,0.00036479683054517617,-0.0008432379573881507,-0.000902851678149155,0.0005013808210744576,0.018970288336277008,-50.57522964477539,-8.043107032775879,17.33161163330078,1.6762186288833618,-1.0983994007110596,0.05955658480525017,718,704,747,39.871,1,0
1739304231.4207516,-0.05547402685364397,1.0629725803048184,-0.4228957463865953,-1.4436273636874746,1.5585852942249312,1.147172107142754,1.3482733131803157,0.0015061380891896307,-0.0016066132314072848,5.958047932725548e-05,-0.0021261066795429393,-0.0012385859096078356,-0.001536945227304398,0.0010538054217936264,0.018970288336277008,-50.52365493774414,-8.070878028869629,17.37921905517578,1.6698099374771118,-1.0983994007110596,0.026597600430250168,718,704,746,39.871,0,0
1739304231.4307852,-0.05547429073531062,1.0629763315348149,-0.4228975867787191,-1.4436232058133567,1.5585900454201032,1.1471693231805828,1.3482654792604094,-0.00021617988221380566,-0.00040543513673752186,-0.00037599657175485925,0.00031345105617319366,0.001626802952791251,-0.00019772235099402104,-0.00134473617300269,0.018970288336277008,-50.59903335571289,-8.043107032775879,17.35541534423828,1.6624857187271118,-1.0983994007110596,0.06596527993679047,721,706,745,39.979,1,0
1739304231.4407923,-0.05547748751504737,1.0629786359435687,-0.42289496515414404,-1.4436253855698746,1.5585856685320612,1.1471748123899124,1.3482622314996955,-0.0003809659533622914,-2.364204391232705e-06,-0.0002597667589267249,-0.00035871358038887767,-0.0003498843344112636,0.0004488733338429009,-0.0014983233284918472,0.06657771021127701,-50.59903335571289,-8.043107032775879,17.35541534423828,1.6826273202896118,-1.1176254749298096,0.09343110024929047,718,704,745,39.871,1,0
1739304231.451792,-0.05547258894134417,1.0629767677606146,-0.4228975877073763,-1.4436253250781503,1.5585869842858542,1.1471704877881754,1.3482686174922212,-4.8162486187436696e-05,-8.209420685005925e-05,-0.00041423795616257004,-0.000309547327356982,-0.0006600336207738895,-4.8278168754578956e-05,-4.831973750489031e-05,-0.004833422601222992,-50.57522964477539,-8.043107032775879,17.35541534423828,1.6624857187271118,-1.1112167835235596,0.03941498324275017,718,707,746,39.871,1,0
1739304231.4628356,-0.05547782871682314,1.0629749022736488,-0.42289574645891104,-1.4436235384762042,1.5585884611452037,1.1471703285154597,1.3482701328123778,-0.0008268017721504194,-0.0016326567507990442,0.0002787996819915274,0.0005475251058308552,0.00029709462840247104,-0.0007396962101298683,-0.0007329180784016211,0.04277399927377701,-50.54745864868164,-8.070878028869629,17.33161163330078,1.6762186288833618,-1.1112167835235596,0.026597600430250168,718,709,746,39.979,0,0
1739304231.473706,-0.05547567164108997,1.062978708524942,-0.422892182294295,-1.443621421816314,1.5585868665059364,1.14717067778683,1.3482686087709195,-0.0010797808137019173,5.442335752137351e-05,0.0013887393474888766,-0.0003391863590064918,0.00010388254896823227,-0.001735843200795962,-0.0001405724453641305,0.04277399927377701,-50.59903335571289,-8.118485450744629,17.33161163330078,1.6624857187271118,-1.1048080921173096,0.03941498324275017,720,705,747,39.871,0,0
1739304231.4838345,-0.05547395744640545,1.0629803709504855,-0.4228957462795942,-1.4436214200358644,1.558586000644372,1.1471706797923156,1.3482701478322492,0.00042242335272029265,0.0005552252895896185,-0.00035424500800702765,-0.00031267682974249255,-0.0015330932696929513,-0.0009576120506148154,3.421391473290645e-05,0.018970288336277008,-50.62680435180664,-8.070878028869629,17.33161163330078,1.6698099374771118,-1.1048080921173096,0.026597600430250168,721,705,748,39.871,1,0
1739304231.4947698,-0.05547406192977663,1.0629764659499306,-0.4228978251972977,-1.4436233177062798,1.5585898347495213,1.1471694856133035,1.3482706967315339,0.0008975173526154457,-0.0009207677789366166,-0.0009968173265889639,-8.241718225444867e-05,0.0010938635652310755,0.0004476047442126958,0.0010847310502424933,0.018970288336277008,-50.59903335571289,-8.043107032775879,17.33161163330078,1.6762186288833618,-1.0919907093048096,0.012864691205322742,717,707,747,39.979,1,0
1739304231.5048382,-0.055474187333552936,1.0629798939663329,-0.4228957463885725,-1.4436251033346146,1.5585844897626286,1.1471724191916777,1.3482654785963681,-0.000208172925933597,-0.00029448013859808024,-0.000375542182031651,-0.00033742994977195334,-0.0010853326396182215,-0.0006588320495285148,-0.0010567418427186825,0.018970288336277008,-50.62680435180664,-8.070878028869629,17.35541534423828,1.6826273202896118,-1.0983994007110596,0.06596527993679047,719,705,748,39.762,1,0
1739304231.5157175,-0.05547519441837354,1.0629767285105811,-0.4228947927142727,-1.4436214096277762,1.55858686654163,1.1471683997190412,1.3482706450123834,-0.0003502366407545508,-0.0008675397415185235,6.600839758431957e-05,0.00036192458367664566,0.0007319949758640574,-0.0009359871199016623,0.0005435021700335896,-0.004833422601222992,-50.57522964477539,-8.070878028869629,17.30384063720703,1.6624857187271118,-1.0919907093048096,0.019273381680250168,718,705,747,39.871,1,0
1739304231.5257313,-0.055474776673083995,1.062980637163683,-0.42289590311057856,-1.443623486147199,1.5585868679951553,1.1471718107394437,1.3482653608707533,-0.0005144199427078015,0.001609974819097357,-0.000699900159538624,0.0005759673380172136,0.0006415167301964736,0.0014288357830804556,-0.0014257858226335018,0.018970288336277008,-50.62680435180664,-8.070878028869629,17.33161163330078,1.6624857187271118,-1.1112167835235596,0.06596527993679047,718,704,748,39.979,1,0
1739304231.5366983,-0.05547877954837976,1.0629749954834555,-0.42289574638947386,-1.443625553684606,1.5585855961970123,1.1471727603914375,1.3482693751516348,-0.000903243578803733,4.012536525731898e-06,-0.0006825815620956109,-0.00018043194119442556,0.00031452503808106756,0.0006984101397001059,-0.000423594876693261,0.04277399927377701,-50.54745864868164,-8.070878028869629,17.35541534423828,1.6762186288833618,-1.0919907093048096,0.03300629183650017,717,704,747,39.979,1,0
1739304231.5467832,-0.055472246929243914,1.0629767412699125,-0.4228957463885892,-1.4436253518872704,1.558585242990276,1.1471732996059933,1.3482644370817136,0.0016952925370287493,-0.00042723905660151324,0.0001403417403862016,-0.00024157943162277936,0.0007644083285252082,0.0016215887284615964,0.0005562778989926765,-0.004833422601222992,-50.57522964477539,-8.070878028869629,17.35541534423828,1.6762186288833618,-1.0983994007110596,0.03941498324275017,717,705,746,39.871,0,0
1739304231.5568366,-0.05547862184316446,1.0629783743135137,-0.4228957463885892,-1.4436263239510343,1.5585860006443728,1.1471695528312889,1.3482717562987827,-0.001736338700104604,-6.557636786902482e-05,0.00017045525373451085,0.00010658587894122888,0.0009543634407607809,0.00011479804520597107,0.0009747495949946161,0.04277399927377701,-50.59903335571289,-8.070878028869629,17.33161163330078,1.6698099374771118,-1.1048080921173096,0.012864691205322742,716,706,746,39.871,1,0
1739304231.5677135,-0.05547577804388902,1.0629765726041873,-0.42289782617844474,-1.4436235689074453,1.5585852429842946,1.147175029114261,1.3482693753676398,-0.0006232326220443378,0.0010220497221302425,-0.001221636678734479,-0.00019314951959793287,-0.0006708425259323395,0.0002303529407196598,0.0011361957789276214,0.04277399927377701,-50.59903335571289,-8.043107032775879,17.33161163330078,1.6762186288833618,-1.1112167835235596,0.03300629183650017,718,702,746,39.979,1,0
1739304231.5777798,-0.05547577412729575,1.0629769973129988,-0.42289574246400347,-1.4436252720960523,1.558584367586646,1.1471757871301724,1.348263855057006,-0.0003217780184352323,0.0005952020368113206,0.00017385402335192682,-0.00034017507539119813,1.4779584927898572e-05,0.001506387985478289,-0.0015717491707892895,0.04277399927377701,-50.57522964477539,-8.070878028869629,17.35541534423828,1.6826273202896118,-1.1176254749298096,0.07969819009304047,720,704,747,39.979,0,0
1739304231.5888004,-0.05547395744685129,1.0629776577540173,-0.4228915000528972,-1.4436232230555017,1.558588135188219,1.1471739092170694,1.348270093566521,0.0001897477565277792,-0.001377634748614264,0.0019319960691776843,0.0014504161862318884,0.00025451773060301456,0.00013772876918006976,0.0004380976963731871,0.018970288336277008,-50.59903335571289,-8.094681739807129,17.33161163330078,1.6826273202896118,-1.1048080921173096,0.026597600430250168,718,705,746,39.871,1,0
1739304231.5996988,-0.055476905998467,1.0629779921009737,-0.42289574637468175,-1.4436235684538754,1.5585860006649763,1.147170243291612,1.3482699772822797,-0.0014785164744519248,0.0005232413658998043,2.5928265755800978e-05,-0.0001541268235510918,-0.0001971808099690767,0.0006987678012456463,0.002121144599789976,0.018970288336277008,-50.59903335571289,-8.070878028869629,17.33161163330078,1.6698099374771118,-1.0983994007110596,0.026597600430250168,718,703,745,39.979,1,0
1739304231.6097183,-0.055477793720320405,1.0629777393946487,-0.4228978173481267,-1.4436252456050913,1.558586000644373,1.1471706769523031,1.348266998292927,0.00045383248878166785,-7.586885971631288e-05,-0.0013365517668811012,-0.0004434265803274566,-0.0007513123234419924,-0.00029819308759424017,0.0003447718182444422,0.04277399927377701,-50.62680435180664,-8.043107032775879,17.35541534423828,1.6698099374771118,-1.1112167835235596,0.05314789339900017,717,704,746,39.871,1,0
1739304231.6207952,-0.0554787805673408,1.0629758219191299,-0.4228947564118055,-1.4436235659478553,1.5585860006443728,1.147172472143036,1.3482659357503557,-0.0009003415164141568,-0.0010763335121955972,0.00029807329228641007,-0.00034526690685335445,-5.092186133619164e-05,-0.0004337734623566377,-0.0015077687745193096,0.04277399927377701,-50.57522964477539,-8.070878028869629,17.33161163330078,1.6698099374771118,-1.0983994007110596,0.05314789339900017,717,705,747,39.979,0,0
1739304231.6317036,-0.05547681930771661,1.0629769265910995,-0.42289393590683316,-1.4436288374500736,1.558588723876733,1.1471689148585975,1.3482669952209814,0.0002854343947104518,-0.0014893081025520903,0.0005892777700892978,-0.0018810484241989426,0.0007695946446977815,0.0011057949775285711,-0.0005333456443655808,0.018970288336277008,-50.57522964477539,-8.094681739807129,17.40302276611328,1.6826273202896118,-1.0983994007110596,0.05314789339900017,719,704,747,39.979,2,0
1739304231.6417997,-0.05547632082710012,1.0629804778915735,-0.4228947917317137,-1.443624635982088,1.5585866106300164,1.1471696589368472,1.3482638150205875,0.00045101818597656436,0.000561545161330927,0.0002580974869619714,0.0004150318620327661,-0.000280853432874677,0.0018703926158743665,-0.0011925141130865026,0.018970288336277008,-50.62680435180664,-8.070878028869629,17.35541534423828,1.6826273202896118,-1.0919907093048096,0.05314789339900017,716,704,745,39.979,1,0
1739304231.6527627,-0.055477146955634896,1.0629787186999426,-0.4228968424108136,-1.4436231263274935,1.55858282756613,1.1471706709307106,1.3482671174627543,-0.0009729621452780306,0.0007697695732196534,0.0004520435807999051,-0.0006024891873775295,-0.0005129884503290393,-0.0012557639975609121,-0.0022945799927685225,0.018970288336277008,-50.59903335571289,-8.043107032775879,17.35541534423828,1.6698099374771118,-1.0855820178985596,0.05314789339900017,717,705,750,40.197,0,0
1739304231.662804,-0.05547610710777741,1.0629760521782956,-0.4228917875121591,-1.4436243978569105,1.5585876239864416,1.1471688338894699,1.348268499433732,-0.0003587843912761022,0.0004802336696698088,0.0017388904471428751,1.626517609698184e-05,0.00037042920169732337,-0.0012287991343487832,-0.00024374105568062895,0.018970288336277008,-50.57522964477539,-8.094681739807129,17.35541534423828,1.6560770273208618,-1.0983994007110596,0.03941498324275017,716,704,747,39.979,1,0
1739304231.673837,-0.05547642734460326,1.0629824189090615,-0.42289782612982124,-1.4436253250362359,1.5585844853242148,1.1471695557349848,1.3482669408153711,0.0005034447383978958,0.002152341904266951,-0.0005957973663307597,0.00048114558884347267,-0.0006636907243279674,-0.0003366815015066249,0.0014627269690288241,0.018970288336277008,-50.65060806274414,-8.043107032775879,17.35541534423828,1.6826273202896118,-1.1048080921173096,0.026597600430250168,716,708,746,39.871,2,0
1739304231.6848047,-0.0554771464111986,1.0629786009627642,-0.42289781440468743,-1.443623462491865,1.558590045455993,1.1471717881788903,1.3482654756891936,3.47856826162362e-05,0.00035290562591982344,-0.001116983025803131,0.0002487925152762497,0.0006943360331438154,2.2533456767552854e-05,0.0005455667894083909,0.018970288336277008,-50.59903335571289,-8.043107032775879,17.33161163330078,1.6624857187271118,-1.0855820178985596,0.06596527993679047,714,704,746,40.088,1,0
1739304231.6948428,-0.05547466774982527,1.0629784639270798,-0.42289782574218027,-1.443627125413811,1.5585870603363372,1.1471695573010219,1.3482630973968746,0.0006606695067173044,0.0004315085956917285,-0.00023678876967513248,-0.0018449248592385089,-0.00037406178104401264,-3.706664836218668e-05,-0.0013614186071936021,0.018970288336277008,-50.62680435180664,-8.043107032775879,17.37921905517578,1.6698099374771118,-1.1048080921173096,0.08610688149929047,720,704,747,39.979,1,0
1739304231.706788,-0.055474302585474505,1.0629747456056016,-0.4228954729727572,-1.4436271313024416,1.5585837276701198,1.1471685387309853,1.3482662362748319,-9.672376871607403e-05,-0.0010630638935817847,0.0014697808396638972,-0.0006432509581349607,-0.0010819306470315495,0.00045950652158184167,-0.00019682733295460172,0.018970288336277008,-50.57522964477539,-8.070878028869629,17.37921905517578,1.6890360116958618,-1.0855820178985596,0.05955658480525017,719,705,746,39.979,1,0
1739304231.7177718,-0.055474921860050715,1.0629718782563575,-0.42289571989712144,-1.443626176647023,1.5585860064585737,1.1471689279181183,1.3482707880031386,0.000440986472641461,-0.002224724361188428,0.0005258298387232799,-0.00016559292155453613,0.00040106487638666286,-0.0017093379407047064,0.001187563523755414,0.018970288336277008,-50.54745864868164,-8.070878028869629,17.37921905517578,1.6698099374771118,-1.0983994007110596,0.03300629183650017,718,705,745,39.979,1,0
1739304231.7297425,-0.05547398378935655,1.0629792223217547,-0.4228956804110833,-1.4436271342405251,1.5585860529722144,1.1471740922507334,1.3482701349199258,-0.00021961581697602258,0.0005089690074059723,0.0005526583375446017,-0.0016983888330747827,1.2322698061039414e-05,0.001819214959784502,0.001989110125641899,0.018970288336277008,-50.65060806274414,-8.043107032775879,17.37921905517578,1.6698099374771118,-1.1112167835235596,0.026597600430250168,717,703,746,39.979,1,0
1739304231.7397718,-0.05547543485214195,1.0629765714978658,-0.42289564041266325,-1.4436223757518318,1.5585861576280946,1.1471691242474353,1.3482693759598392,-0.0004088830426630339,-0.00023004788059258327,0.0007806792902257091,0.0002957510467940988,0.0010715648571180069,0.0003390113973858171,0.0007952127077968925,-0.004833422601222992,-50.59903335571289,-8.070878028869629,17.35541534423828,1.6698099374771118,-1.0919907093048096,0.03300629183650017,718,703,747,39.871,1,0
1739304231.7507265,-0.05547616314302989,1.0629766840244665,-0.4228996088548655,-1.443625316400423,1.5585863026233098,1.1471729365197711,1.3482649659297952,1.7240630784723626e-05,-0.0005641069794120846,-0.0002343915903259263,-0.00017366118934899496,0.0016228651262044438,0.001586492559897288,-0.0008486473903688029,0.018970288336277008,-50.57522964477539,-8.019303321838379,17.35541534423828,1.6762186288833618,-1.1048080921173096,0.07328949868679047,719,703,745,39.979,1,0
1739304231.7607799,-0.0554717201647179,1.0629763335279987,-0.4228957493047743,-1.4436231233848051,1.5585851917675806,1.1471689726145653,1.3482704362499607,0.0008276226145184938,-0.00010745168393420289,2.341244791903178e-05,-0.0005016386938069657,0.00011954934001967728,-0.0012731825431933933,0.000675202587198459,-0.05640812963247299,-50.59903335571289,-8.070878028869629,17.35541534423828,1.6826273202896118,-1.0983994007110596,0.03300629183650017,716,703,747,39.871,2,0
1739304231.7707891,-0.055474482487530785,1.0629748602630396,-0.4228950311329012,-1.4436233293454164,1.5585869193658943,1.1471722307819718,1.348263853621422,0.0003008398520111643,0.00012121590167071754,0.00016749901174088988,-1.4724848047128645e-05,0.0003392131394076582,0.0009198364637247421,-0.0025511938105158343,-0.004833422601222992,-50.57522964477539,-8.070878028869629,17.33161163330078,1.6624857187271118,-1.0983994007110596,0.07969819009304047,716,702,746,39.871,1,0
1739304231.781694,-0.055473986000253536,1.062978399670338,-0.42289396370753246,-1.4436212505730894,1.5585844460786575,1.147172421259481,1.3482706454968922,0.0010118183189302696,0.0007387475013183216,-9.651213435557055e-05,9.749463652839298e-05,-0.0011848387459228319,0.0006785583300259968,0.00035755021831184385,0.018970288336277008,-50.59903335571289,-8.094681739807129,17.30384063720703,1.6826273202896118,-1.0919907093048096,0.019273381680250168,716,702,745,39.871,0,0
1739304231.7918165,-0.05547712067438808,1.0629776170852976,-0.4228938842387103,-1.4436252720920124,1.558589598466189,1.1471695697146538,1.348266954683072,-0.0009068819754585789,0.0004197757130834669,0.000490979903879133,-0.00018553205568024557,0.0024732744360651967,0.00033274442678775054,0.0003714876025408782,0.018970288336277008,-50.62680435180664,-8.094681739807129,17.35541534423828,1.6762186288833618,-1.1048080921173096,0.05314789339900017,721,704,745,39.979,1,0
