IITGN-Robotics/Franka_IITGN_ROBOTICS/franka_ros/franka_iitgn/data01/s_b_009.csv
time,fr3_joint1_pos,fr3_joint2_pos,fr3_joint3_pos,fr3_joint4_pos,fr3_joint5_pos,fr3_joint6_pos,fr3_joint7_pos,fr3_joint1_vel,fr3_joint2_vel,fr3_joint3_vel,fr3_joint4_vel,fr3_joint5_vel,fr3_joint6_vel,fr3_joint7_vel,fr3_joint1_eff,fr3_joint2_eff,fr3_joint3_eff,fr3_joint4_eff,fr3_joint5_eff,fr3_joint6_eff,fr3_joint7_eff,flexpin1,flexpin2,flexpin3,Force,ContactMic,ContactMic_gt
1739303142.1254804,-0.07456640728908458,1.0441410300361431,-0.3891519481870903,-1.4587947772732943,1.5320132100547672,1.1798799093180177,1.352720231124084,0.00016323055988774586,-0.00027544276430848356,0.0011157666921767576,0.002569069840459441,0.0004383660466829045,0.0004643080309163274,-0.0038215727842082813,1.764575719833374,-50.47208023071289,-6.138810157775879,17.25623321533203,1.6826273202896118,-1.1707260608673096,0.08610688149929047,,,,,,,,,
1739303142.1374178,-0.0745665656233068,1.0441450605732034,-0.38915219330572215,-1.4587967179153403,1.5320115769917235,1.1798797917957873,1.3527299279316385,-0.00018226575704738675,-0.0002671538309763154,-0.0002131335020940713,0.00024583121648735556,-0.0016311966205660403,-4.335343184482752e-05,0.0018054068499016615,1.764575719833374,-50.49985122680664,-6.138810157775879,17.28003692626953,1.6954447031021118,-1.1707260608673096,0.012864691205322742,,,,,,,,,
1739303142.1494212,-0.07456828009359392,1.044145432626133,-0.38915221955287127,-1.4587982622101134,1.5320139982453684,1.179879905172486,1.352726810845514,0.0005411530734279404,0.0012081921624826557,-0.0006091457753243768,7.129494725855839e-05,-0.0003884883256280513,0.00014080809277000137,-0.000381855194544326,1.788379430770874,-50.54745864868164,-6.138810157775879,17.30384063720703,1.7018533945083618,-1.1707260608673096,0.03941498324275017,,,,,,,,,
1739303142.1594331,-0.07456526822874612,1.0441464666556526,-0.38915219330725404,-1.4587982974945977,1.5320126497649755,1.1798813725256323,1.3527288857421427,0.0004443549734032868,0.001075366385589728,5.2385189565852986e-06,1.4014185565123976e-05,-0.0008853703735196469,0.0010048275306899046,-0.00014766191103285668,1.736804723739624,-50.52365493774414,-6.138810157775879,17.30384063720703,1.6954447031021118,-1.1835434436798096,0.012864691205322742,,,,,,,,,
1739303142.1713867,-0.07456664357214708,1.0441467313584731,-0.38915113237965154,-1.4587986607302112,1.5320134499045397,1.1798758508426277,1.3527323265955937,0.00037877796014013933,-8.177227224739501e-05,-0.0001349276467274379,0.0008916115185709208,-0.0009054081116824811,-0.0010727114990497838,0.0007419839218355004,1.764575719833374,-50.52365493774414,-6.115006446838379,17.28003692626953,1.6826273202896118,-1.1643173694610596,-0.0072769103571772575,,,,,,,,,
1739303142.181422,-0.07456464952864214,1.0441407665851112,-0.3891510875082535,-1.4588005844523022,1.5320118794596824,1.1798806669760278,1.35272918772023,0.00024484503391099927,-0.0014506678083191454,0.00040406142864042783,-0.00019090793575175249,-0.0011131919974196173,-9.853179640313141e-05,-0.00017259442801038113,1.736804723739624,-50.47208023071289,-6.115006446838379,17.33161163330078,1.7018533945083618,-1.1771347522735596,0.019273381680250168,,,,,,,,,
1739303142.1914313,-0.07456656573292184,1.0441454623336455,-0.3891510885844673,-1.458795041203049,1.532015177242108,1.1798799090488403,1.3527252018416835,0.0008509687309389092,0.0010503236277362485,0.0001608412989714871,0.00073758733968908,0.0017744698457960195,3.992865140276486e-05,-0.0004820835696291696,1.764575719833374,-50.54745864868164,-6.115006446838379,17.25623321533203,1.7018533945083618,-1.1707260608673096,0.05314789339900017,,,,,,,,,
1739303142.2024612,-0.07456664389562302,1.0441455010670857,-0.3891536869085767,-1.4588013616206867,1.532013133084424,1.179875670980833,1.3527283218233177,-7.043797324418106e-05,-0.0007143041491466757,4.826722211197026e-05,-0.0002820855042337793,0.0006681450503242766,-0.0012849265988721188,2.9117977308578357e-05,1.764575719833374,-50.54745864868164,-6.115006446838379,17.30384063720703,1.6826273202896118,-1.1707260608673096,0.026597600430250168,,,,,,,,,
1739303142.2133832,-0.0745683562002648,1.04414673025728,-0.3891539672339375,-1.4587982625542102,1.5320140379759721,1.179877488255122,1.3527259798514655,-0.0014124237589454441,0.0010096320534395426,-0.00010254503460072428,-0.00027283090338486746,0.0011523307100305595,-5.2484872209086674e-05,-0.0015061443504765998,1.788379430770874,-50.52365493774414,-6.115006446838379,17.30384063720703,1.7018533945083618,-1.1771347522735596,0.04673920199275017,,,,,,,,,
1739303142.224462,-0.07456986936122219,1.0441468385095443,-0.3891675615267054,-1.458800341963184,1.5320127903513339,1.1798759565256915,1.3527307030404983,0.00016934929026600487,0.0007435218062832914,-0.0016262208327280508,0.0002639671589265173,-0.00015866934826475705,-0.0008382369897622719,0.00048078025695446485,1.264697790145874,-50.52365493774414,-6.519669532775879,17.33161163330078,1.6762186288833618,-1.1505844593048096,0.0064559997990727425,,,,,,,,,
1739303142.2354221,-0.07459485316646468,1.0441492667751782,-0.38919573209653474,-1.4587890944732524,1.5320177319135204,1.1798688634248862,1.3527315689375095,-0.0015025054478115573,0.00015209749349730117,-0.0008850218923530909,0.0015750191590144713,0.0005825977673068834,-0.0001691857116857716,0.0006135485749111853,0.7648199200630188,-50.54745864868164,-6.848954200744629,17.25623321533203,1.6432596445083618,-1.1176254749298096,-0.0008682189509272575,,,,,,,,,
1739303142.2464688,-0.07462112923874438,1.0441524447659747,-0.38921178436564446,-1.4587882781774646,1.5320130304919017,1.179860592378434,1.3527299977080074,-0.001138810600422484,0.0003236276973273063,-0.0015976797634008482,-0.0024930463124257047,-0.00037427973155428605,-0.00011380522303401457,0.0013057998453970443,0.7172124981880188,-50.52365493774414,-6.876725196838379,17.30384063720703,1.6432596445083618,-1.0983994007110596,0.012864691205322742,,,,,,,,,
1739303142.258469,-0.07463768887794178,1.0441569209723094,-0.3892134954264485,-1.4587855072690756,1.5320105159938704,1.1798536607341585,1.3527315558556556,-0.002188342210488118,0.0008253939186007845,-0.0008308285925507935,0.0003265485233267274,-0.0010382853753468254,0.0010244921656463908,-0.0002720374981623713,0.6656377911567688,-50.57522964477539,-6.928299903869629,17.30384063720703,1.6368509531021118,-1.0983994007110596,-0.0008682189509272575,,,,,,,,,
1739303142.2684722,-0.07464400967959063,1.0441549592288475,-0.38920005958337006,-1.4587872686777636,1.5320158302867506,1.1798529237710864,1.3527326329362155,-0.0004722700766128441,-0.0004463865595555578,0.0020215362344305834,-0.0011420256153057305,0.000892485642338496,-0.0002498922954171141,0.0006629641956577871,0.5902593731880188,-50.54745864868164,-7.079056739807129,17.33161163330078,1.6231180429458618,-1.1048080921173096,-0.0008682189509272575,,,,,,,,,
1739303142.2794192,-0.07464826500623865,1.0441577888873181,-0.3891993720580717,-1.4587847885783731,1.5320136333306766,1.179852166102571,1.3527283218828394,-0.0008333574783370237,7.838461263676047e-05,-0.000112258867827958,-0.0017218346159786767,0.0004169101487630523,0.0001601097132132952,-0.0010072651309342856,0.5902593731880188,-50.57522964477539,-7.055253028869629,17.30384063720703,1.6496683359146118,-1.0983994007110596,0.026597600430250168,,,,,,,,,
1739303142.2904124,-0.07465134341591309,1.044160176975423,-0.3892016808166384,-1.4587831137510725,1.5320112350940935,1.1798464064156957,1.3527313582310385,-0.00015054537195881507,-4.711552528220079e-06,-0.0011610560762417548,0.0008757894967908748,-0.00015773559106187278,-0.0007364809067226975,0.001029878039864189,0.5902593731880188,-50.57522964477539,-7.027482032775879,17.30384063720703,1.6304422616958618,-1.0855820178985596,0.012864691205322742,,,,,,,,,
1739303142.3015182,-0.07465465371127845,1.0441618101727586,-0.38920215031562977,-1.4587826447617398,1.5320122727865946,1.1798371838890624,1.3527334374783513,-0.001008709382317344,-0.0007803654153085882,-0.0013762759414594368,-0.000977962291765633,-0.0005655819611046603,-0.002051404356840688,0.0009306534980701068,0.5902593731880188,-50.59903335571289,-7.027482032775879,17.30384063720703,1.6496683359146118,-1.0388901233673096,-0.013685601763427258,,,,,,,,,
1739303142.3124795,-0.07465291926870053,1.044161981218836,-0.3891986795440954,-1.4587805319444735,1.5320143707901819,1.1798363709941173,1.352724442730049,-0.00014688643309691016,-0.00017108803064267716,0.00040064355918680884,-0.0003969966633667455,-0.0006012062104447562,-0.0007901162348142607,-0.0011334881506052843,0.5664556622505188,-50.59903335571289,-7.055253028869629,17.28003692626953,1.6304422616958618,-1.0452988147735596,0.05955658480525017,,,,,,,,,
1739303142.323468,-0.07465024103533749,1.0441602039794022,-0.389198629924994,-1.4587741836619963,1.532015359354416,1.1798411138777811,1.352727570407835,-0.000268240552209524,-0.0015493424759010811,-0.00014958128661341543,0.0006922463553313394,0.0006164042481946747,-0.0003966317838532006,0.0001644502311459626,0.5188482403755188,-50.57522964477539,-7.055253028869629,17.23242950439453,1.6231180429458618,-1.0855820178985596,0.03300629183650017,,,,,,,,,
1739303142.3334768,-0.0746561066486182,1.0441581896500476,-0.3891986071448895,-1.4587791899525504,1.5320104774100882,1.1798418716993258,1.3527317646165788,-0.0022472877775796883,-0.00060149144752588,0.00029969373908367476,-0.00017501246378440302,0.00013517800363543742,-0.0003811975627890851,0.0008544063677085337,0.5664556622505188,-50.54745864868164,-7.027482032775879,17.30384063720703,1.6368509531021118,-1.0919907093048096,0.0064559997990727425,,,,,,,,,
1739303142.3454373,-0.07465590467865943,1.0441632798369633,-0.3891986532424252,-1.4587832772374698,1.5320148466517305,1.179843387019485,1.3527276168571212,0.0008496168452322815,-0.00032656852397665526,0.000426474818418163,-0.0017495606187221176,0.00044923224309466683,0.000264571942717058,0.00010799847077060028,0.5664556622505188,-50.57522964477539,-7.055253028869629,17.35541534423828,1.6304422616958618,-1.1048080921173096,0.026597600430250168,,,,,,,,,
1739303142.3574188,-0.07465356378949183,1.0441548735696775,-0.3892007340643463,-1.4587756233333855,1.5320129942521419,1.1798418716993284,1.3527250666601842,0.0011158106605722931,-0.0009621238202101592,0.0007203478781421287,0.0011635974078061523,0.000751030466004985,-0.0005939741074449535,-0.0007447858201487849,0.5664556622505188,-50.49985122680664,-7.027482032775879,17.25623321533203,1.6432596445083618,-1.0919907093048096,0.05314789339900017,,,,,,,,,
1739303142.3684278,-0.07465616831157017,1.0441650953786834,-0.38919865325443176,-1.4587774063249148,1.5320130045617626,1.1798387328218611,1.3527315684523362,0.0015579220708364949,0.000892895326450145,7.306966442232625e-05,-0.0005449340305536329,-0.0007330603370022077,-0.00022301799749400696,0.000265730736562906,0.5664556622505188,-50.59903335571289,-7.055253028869629,17.28003692626953,1.6304422616958618,-1.0654404163360596,-0.0008682189509272575,,,,,,,,,
1739303142.3784287,-0.07466073369373306,1.0441613981618283,-0.3892045996874214,-1.4587774030665415,1.5320126931008127,1.1798372131410535,1.35272009376359,-0.0010208083406911819,0.0006969329559008061,-0.0018713656628900907,0.0003166449073149301,-0.0005713308325944524,0.0006285889622564424,-0.002718311005165067,0.5902593731880188,-50.54745864868164,-6.975907325744629,17.28003692626953,1.6368509531021118,-1.0526230335235596,0.07328949868679047,,,,,,,,,
1739303142.3884983,-0.07465862787981371,1.0441636768038178,-0.3891997074014362,-1.458775596841957,1.5320129647105984,1.1798340342265918,1.3527291519979907,0.0008267902854640474,-5.847915722220336e-05,-0.0004536746245138507,0.0006754225688711373,0.0004236136196299218,-0.00020108824062906402,0.0010235403579907435,0.5664556622505188,-50.59903335571289,-7.055253028869629,17.25623321533203,1.6432596445083618,-1.0526230335235596,-0.0072769103571772575,,,,,,,,,
1739303142.3994622,-0.07466094546263417,1.0441633956586087,-0.38920072430167674,-1.4587756233328104,1.53201373579726,1.1798376731119269,1.352736615720821,0.00036796875511640466,-0.0011427864828345707,-1.6635493329311842e-05,0.00044166748723608034,0.00012869415586401142,0.0006191128245107131,0.002315312745079865,0.5902593731880188,-50.57522964477539,-7.027482032775879,17.25623321533203,1.6368509531021118,-1.0654404163360596,-0.013685601763427258,,,,,,,,,
1739303142.4094822,-0.07465933719775071,1.0441596826977253,-0.38919865282225047,-1.4587771675913999,1.5320153993915673,1.1798408120432526,1.3527284788662302,0.00041942052469977836,-0.001973349849006942,0.0009717779428303533,0.00025980593013846256,0.0002416779211509946,6.04812734213623e-05,7.954891572249588e-05,0.5664556622505188,-50.52365493774414,-7.055253028869629,17.28003692626953,1.6496683359146118,-1.0919907093048096,0.026597600430250168,,,,,,,,,
1739303142.4203968,-0.07466097177362657,1.0441633961027397,-0.389198854471201,-1.4587793898866863,1.5320132471316883,1.1798433342011776,1.35273070352568,-0.0004412773298976749,0.000771961527976317,0.0006814285619869554,0.0008463933792714236,-0.0006615561581585542,0.0007980534969601489,0.00047240976525345216,0.5902593731880188,-50.57522964477539,-7.055253028869629,17.28003692626953,1.6368509531021118,-1.1048080921173096,0.0064559997990727425,,,,,,,,,
1739303142.4304554,-0.07466128787632179,1.0441614305397349,-0.3892025157247082,-1.4587752606962785,1.5320137357890604,1.179841518485724,1.3527290034796473,-0.0008561861862293377,-0.0011679594281891867,-0.0008484855996657176,0.0007884305084659822,-0.00010473651843235506,2.57799765630292e-05,-0.0008529343039414017,0.5902593731880188,-50.54745864868164,-7.003678321838379,17.28003692626953,1.6368509531021118,-1.0919907093048096,0.012864691205322742,,,,,,,,,
1739303142.4404671,-0.0746598302931481,1.0441626013747078,-0.38920073304428165,-1.4587745448416825,1.5320128564508761,1.1798402437753854,1.3527248297168695,0.00013123705960051157,-0.0007045449490545926,-0.0011261310380180582,0.0003981592354216478,-0.00036299128090740515,-0.0006631984133339496,-0.00139042977142874,0.5426519513130188,-50.57522964477539,-7.027482032775879,17.28003692626953,1.6432596445083618,-1.0782577991485596,0.05314789339900017,,,,,,,,,
1739303142.4515793,-0.07465935085911572,1.0441633843245133,-0.38920075928994824,-1.4587790973878911,1.532011462816414,1.179840248141993,1.3527257068256873,0.0007487363471146576,-0.0008167610689639152,0.00014499257380542438,-0.000977448856595113,-0.0001793373698377674,0.0008155885681163796,-0.0011310959941176952,0.5664556622505188,-50.57522964477539,-7.027482032775879,17.30384063720703,1.6560770273208618,-1.0782577991485596,0.012864691205322742,,,,,,,,,
1739303142.4624765,-0.07466415646788864,1.0441633964297388,-0.38920073300842745,-1.458772488460629,1.5320144934574145,1.1798355537459675,1.3527236676010066,-0.0019274833459657264,-0.0008213069296374095,0.0005025118740317136,0.0012583362132704582,-0.0007087517262219171,0.0004798022125867932,-0.002163006038830982,0.5902593731880188,-50.57522964477539,-7.027482032775879,17.25623321533203,1.6304422616958618,-1.0654404163360596,0.06596527993679047,,,,,,,,,
1739303142.4724777,-0.07466623359429167,1.0441660711281273,-0.38919959777440344,-1.4587752471077255,1.5320129781372578,1.1798402479266743,1.3527266146925223,-0.001986787109002909,0.00024187700336812006,0.0004975420785837906,-0.0002530166423019588,0.0006993946685096444,0.0008682380218241314,-0.0012604824527817074,0.6180303692817688,-50.59903335571289,-7.055253028869629,17.28003692626953,1.6432596445083618,-1.0782577991485596,0.05314789339900017,,,,,,,,,
1739303142.4834716,-0.0746608143936012,1.0441644292553658,-0.3891968618341833,-1.4587745054019372,1.532016625650082,1.1798370692276285,1.3527291877283123,0.0004215803234686933,0.0011118228133229556,0.0004401839915209801,0.0006785974128978199,0.0008319001379422773,-7.290089741758923e-05,0.00015659848263087004,0.5426519513130188,-50.57522964477539,-7.079056739807129,17.28003692626953,1.6304422616958618,-1.0782577991485596,0.019273381680250168,,,,,,,,,
1739303142.4943995,-0.07466411028886434,1.044165825313933,-0.3891968676610737,-1.458775229342041,1.5320129377808203,1.1798401957603737,1.3527275641629197,5.977221838403691e-05,0.00017878637683969108,-1.5150024594890485e-05,-0.00018685034286505705,-0.0006303227494921527,0.001121350247038892,0.0004439136182514264,0.6180303692817688,-50.59903335571289,-7.079056739807129,17.28003692626953,1.6432596445083618,-1.0782577991485596,0.03300629183650017,,,,,,,,,
1739303142.5044658,-0.07466228788316828,1.0441633965428672,-0.3892007330442651,-1.4587746666665782,1.532014126944492,1.1798405994821675,1.3527319221502192,-0.00010297108406772873,-0.00015289930639964094,-0.0010657479621024358,0.0004381183902463521,5.0238882293039656e-05,-0.0005125561582369088,0.0013776212740187286,0.5664556622505188,-50.57522964477539,-7.027482032775879,17.25623321533203,1.6304422616958618,-1.0855820178985596,-0.0008682189509272575,,,,,,,,,
1739303142.514477,-0.07466252701831137,1.0441636349574082,-0.3891988923816108,-1.4587788409089004,1.5320169102358498,1.1798402474872813,1.3527244252914337,-0.00020252914618227132,-6.498537689404922e-05,0.0007006291355933817,-0.0015247664522603326,-0.0011780983387140384,0.0005586435400669023,-0.0023530111746450913,0.5664556622505188,-50.57522964477539,-7.055253028869629,17.30384063720703,1.6368509531021118,-1.0782577991485596,0.05955658480525017,,,,,,,,,
1739303142.5244968,-0.07466081158544477,1.04415979160903,-0.3892000244153322,-1.4587724076742,1.5320158152273997,1.179839683745797,1.3527267664658107,3.4539289101432697e-05,-0.0011461821805008577,0.0008022086517616989,0.0004690809961974743,0.00021590885188155822,0.00037729293437042423,0.00033803391833030216,0.5426519513130188,-50.52365493774414,-7.027482032775879,17.25623321533203,1.6368509531021118,-1.0855820178985596,0.012864691205322742,,,,,,,,,
1739303142.5354564,-0.07466081158542838,1.0441675292576493,-0.38920005940150454,-1.4587724841550187,1.5320169147234624,1.1798394376615398,1.3527322049659385,-0.00026922006914265604,0.0017768137448533248,-0.0002787783448401679,0.00014212861485955465,0.0002639853730808357,-0.0009302672688767742,0.002000791460727281,0.5426519513130188,-50.59903335571289,-7.027482032775879,17.25623321533203,1.6368509531021118,-1.0718491077423096,-0.0072769103571772575,,,,,,,,,
1739303142.545495,-0.07466420163263567,1.044167608080468,-0.3892003898108954,-1.458774187360507,1.5320095992843417,1.1798378779509913,1.3527251829434703,-0.00012313721751549948,-0.0004182547945296993,-0.000495460780199478,7.456200112381775e-05,-0.0009311764112326339,-0.0006503560216969061,-0.0006300344528916259,0.5902593731880188,-50.59903335571289,-7.003678321838379,17.28003692626953,1.6432596445083618,-1.0855820178985596,0.05314789339900017,,,,,,,,,
1739303142.5564332,-0.07466421329721178,1.044164297500011,-0.38920243704430446,-1.4587752931771911,1.5320110525200292,1.1798406430168673,1.3527283392656009,0.00038942679245608335,-0.0006611597523802264,-0.0006525594410672613,0.0002970356730426362,-0.0004623538882920217,-0.00014655956544814064,-1.0626947644994661e-05,0.5902593731880188,-50.54745864868164,-7.003678321838379,17.25623321533203,1.6231180429458618,-1.0855820178985596,0.026597600430250168,,,,,,,,,
1739303142.5674295,-0.07466423957911476,1.0441702982499987,-0.3892028586188138,-1.45877728725306,1.532014480508618,1.179836951487401,1.3527362239262959,0.0004188593481222379,0.002190378524512573,-0.0012113478444882694,-0.00034710081627758386,-0.00012573612949718272,0.00024240273252306577,0.0017773531841252404,0.5902593731880188,-50.62680435180664,-7.027482032775879,17.28003692626953,1.6304422616958618,-1.0782577991485596,-0.013685601763427258,,,,,,,,,
1739303142.5775108,-0.07466423954309302,1.044168318334515,-0.38919897026673406,-1.458774187411658,1.5320153593544275,1.1798363113502166,1.35272756421609,0.00045986780823707816,0.0016666875851281382,9.576355925482714e-05,0.0005700554377849538,0.001011010445995578,-0.0001968722259310268,-0.0011432717695199132,0.5902593731880188,-50.59903335571289,-7.079056739807129,17.28003692626953,1.6231180429458618,-1.0718491077423096,0.03300629183650017,,,,,,,,,
1739303142.588464,-0.07466249202813904,1.0441679975727205,-0.3891986532662788,-1.4587759700361804,1.5320142732255642,1.1798394773820409,1.352732040049295,0.0009290197625810593,0.0005586156398857864,0.00039821841674349484,-0.0002759413178350949,0.0002449295265877535,0.001583239159209993,0.002036914788163679,0.5664556622505188,-50.59903335571289,-7.055253028869629,17.30384063720703,1.6231180429458618,-1.0718491077423096,-0.0008682189509272575,,,,,,,,,
1739303142.5994728,-0.07466081450143247,1.0441673642954064,-0.3892009721714665,-1.4587741843067055,1.5320121009612677,1.1798391884499793,1.3527276042024996,0.0006694219493585769,-0.00047627792252180883,-0.0008756431424894885,0.0013442994926702906,-0.0014237782461673171,0.0003802401787504874,-0.00073715083431939,0.5426519513130188,-50.59903335571289,-7.027482032775879,17.28003692626953,1.6231180429458618,-1.0782577991485596,0.05955658480525017,,,,,,,,,
1739303142.609475,-0.0746649006043013,1.0441641128139052,-0.3891986561746608,-1.4587703747561744,1.5320129780820766,1.1798406413318518,1.3527283262374838,-0.0012173574187368107,-0.00029362428463388583,-0.0006158754568515419,0.0015933213005852886,0.00042375801242266006,0.0004692834230334671,5.711532917684431e-05,0.5664556622505188,-50.57522964477539,-7.055253028869629,17.23242950439453,1.6432596445083618,-1.0919907093048096,0.026597600430250168,,,,,,,,,
1739303142.6214182,-0.07466400334549168,1.0441606407730843,-0.38919865033825723,-1.4587724043415846,1.5320129781372573,1.179838071325437,1.352725942059184,0.0003243045297274797,-0.001144705398497699,0.001180600125951978,0.00020329950087488296,-0.0006344839172009664,-0.0009634391159819383,-0.0013791017817613759,0.5902593731880188,-50.52365493774414,-7.055253028869629,17.25623321533203,1.6432596445083618,-1.0718491077423096,0.04673920199275017,,,,,,,,,
1739303142.6314385,-0.07466837234098817,1.0441643769385975,-0.3892007333682528,-1.4587759700361744,1.5320144319025486,1.179842627881823,1.3527296326890608,-0.0010188141225184499,0.0005472938226940249,-0.00014503324916840683,-0.0008202233436762351,0.0013600426031070195,0.000760984439017122,-0.000496339829923877,0.6180303692817688,-50.54745864868164,-7.027482032775879,17.30384063720703,1.6368509531021118,-1.0983994007110596,0.03941498324275017,,,,,,,,,
1739303142.6435106,-0.07466081484323865,1.0441656342608043,-0.3892028589432791,-1.458774187359161,1.5320137357986459,1.1798369122442003,1.3527283610921175,0.0007162575051594787,0.0004896038563828547,-0.0013654469359365134,-0.0004342820875468588,-0.0003540622771512053,-0.000672408611240391,0.00036701999518434325,0.5426519513130188,-50.57522964477539,-7.027482032775879,17.28003692626953,1.6368509531021118,-1.0782577991485596,0.026597600430250168,,,,,,,,,
1739303142.6551898,-0.0746625358117985,1.044164378392297,-0.38919865325842623,-1.4587759700361802,1.532012978191093,1.1798337359569657,1.352725187306255,0.0002888120366314293,0.00022528024400289722,0.00021382342061563122,-0.001065410595151862,-0.0012004821115615713,-0.001741381990044563,-0.0019864558989604333,0.5664556622505188,-50.54745864868164,-7.055253028869629,17.30384063720703,1.6432596445083618,-1.0590317249298096,0.05314789339900017,,,,,,,,,
1739303142.6654627,-0.0746671867431526,1.0441681765031614,-0.38919888946542563,-1.458772322592892,1.5320133311292434,1.1798375496080304,1.3527319744780526,-0.0010694080931447879,-0.0001541179037857696,-7.556549975333383e-05,0.0006512263414306619,-0.0007206667296484139,0.0010761079354940956,0.0013034745683069599,0.6180303692817688,-50.62680435180664,-7.055253028869629,17.25623321533203,1.6432596445083618,-1.0654404163360596,-0.0008682189509272575,,,,,,,,,
1739303142.6754851,-0.0746624483014371,1.0441646153591209,-0.3891994364161576,-1.4587752279489377,1.532013735803314,1.1798376712256269,1.3527303909646158,0.0009749166010082594,-0.0007714968265769212,-6.559144580629806e-05,-4.4865177480099896e-05,-0.001519035375695711,0.0008684368507665002,0.000928516733374323,0.5664556622505188,-50.54745864868164,-7.055253028869629,17.30384063720703,1.6368509531021118,-1.0654404163360596,0.03941498324275017,,,,,,,,,
1739303142.6855109,-0.07466252995084029,1.0441678406256585,-0.3892007327335239,-1.4587731983510062,1.5320129781372578,1.1798350770008974,1.352723667847142,0.0012552122957314225,0.0004314576028673299,-0.0004341317995493572,0.0009767732251689267,1.4323438428182327e-05,-0.00042163671426058414,-0.0008488530620415656,0.5664556622505188,-50.59903335571289,-7.027482032775879,17.28003692626953,1.6432596445083618,-1.0718491077423096,0.06596527993679047,,,,,,,,,
1739303142.6965075,-0.07466164461514042,1.0441648454115946,-0.38920076803849846,-1.4587759669669758,1.532013731327669,1.179838712472193,1.3527291877202339,0.0001933542009351397,-0.0005401127938679388,-0.0006302147171218178,-0.0005775594717422166,-0.0007225163406661719,-0.0002681439117901746,-0.00010672604833159997,0.5426519513130188,-50.54745864868164,-7.027482032775879,17.30384063720703,1.6368509531021118,-1.0782577991485596,0.019273381680250168,,,,,,,,,
1739303142.707451,-0.07466082365433388,1.044166664756133,-0.38920073304434744,-1.4587741873591553,1.532014439821402,1.179840951238733,1.3527243067568184,0.0014735056121366885,0.0005708153824827688,-0.0009125534139803045,-1.7675275535915816e-05,-0.00010096785543285664,0.0006200018114469731,-0.002499322012216691,0.5426519513130188,-50.57522964477539,-7.027482032775879,17.28003692626953,1.6304422616958618,-1.0855820178985596,0.03300629183650017,,,,,,,,,
1739303142.7175157,-0.07466518912793964,1.044167373600836,-0.38919689693108045,-1.458774187359161,1.5320144798819617,1.179838796042565,1.352727681845325,-0.00030100008870870954,0.0005361469640928321,0.0006224777933412693,-0.00042030358536526805,0.001084154949965302,-0.0006257116555401476,-0.0006278802442454211,0.5902593731880188,-50.59903335571289,-7.079056739807129,17.28003692626953,1.6304422616958618,-1.0782577991485596,0.03300629183650017,,,,,,,,,
1739303142.7284944,-0.07466085273923133,1.044166296856752,-0.3891986795002414,-1.4587724046821422,1.5320136162874791,1.179839733415528,1.3527338462791694,0.0019409116046159402,-0.00048426056933827127,0.0009534316248942093,0.00035433958964564173,0.0017346198772844423,-0.0012865827312121315,0.0026696941950381135,0.5426519513130188,-50.57522964477539,-7.055253028869629,17.25623321533203,1.6103006601333618,-1.0782577991485596,-0.020094294100999832,,,,,,,,,
1739303142.739513,-0.07466115728987498,1.0441643769751359,-0.3892007330444297,-1.458774187359161,1.5320109363531722,1.1798375818554114,1.3527236676249579,0.0005939878964534932,-0.0008137459729070839,-0.0002496184348635145,-0.0008030144853347782,0.0004060673652886399,0.0005056635855056016,-0.0020976175710503125,0.5426519513130188,-50.54745864868164,-7.027482032775879,17.28003692626953,1.6432596445083618,-1.0855820178985596,0.06596527993679047,,,,,,,,,
1739303142.750505,-0.07466736272484824,1.0441646168113672,-0.3891986533984351,-1.458774187359161,1.5320144919559995,1.179835781755465,1.3527299453801986,-0.0010598238164955037,8.653625064780786e-05,0.000364614850027917,-3.507142394407821e-05,-1.834907851007379e-05,0.00014036681730127777,0.0016253714198125584,0.5902593731880188,-50.54745864868164,-7.055253028869629,17.28003692626953,1.6304422616958618,-1.0718491077423096,0.012864691205322742,,,,,,,,,
1739303142.761438,-0.07466391245205747,1.044166588262621,-0.3891987319914267,-1.4587724046821422,1.5320131138019388,1.1798398769274172,1.3527365656346217,0.0008198272228994601,0.00011446030802710668,-0.00013936429288937714,0.00028117555651910537,0.0010092006630374746,0.0009486119848765925,0.001750413527143155,0.5426519513130188,-50.57522964477539,-7.055253028869629,17.25623321533203,1.6432596445083618,-1.0782577991485596,-0.0072769103571772575,,,,,,,,,
1739303142.7714646,-0.07466449004024504,1.0441628248186816,-0.3891987319927593,-1.4587741863416759,1.5320145709702788,1.179841753955472,1.3527323268308815,0.00013478947093581287,-0.0002021556769142048,-0.0004550317713234329,-0.00033830879504018175,0.0008244592939134495,0.000879958102389796,0.000440224695301307,0.5902593731880188,-50.52365493774414,-7.055253028869629,17.28003692626953,1.6304422616958618,-1.0919907093048096,-0.0072769103571772575,,,,,,,,,
1739303142.7824202,-0.07466478149618916,1.0441683272738569,-0.38919865325487046,-1.458774981040587,1.5320144870016663,1.1798369512740543,1.352728321822999,0.00030944463341936294,0.00015908784506695622,-0.000252266157899915,-0.0009598110107610266,0.0004902313317965441,0.0008673538754233735,-0.0012080284498326129,0.5664556622505188,-50.59903335571289,-7.055253028869629,17.30384063720703,1.6304422616958618,-1.0782577991485596,0.026597600430250168,,,,,,,,,
1739303142.7924547,-0.07466744327667302,1.0441629298017967,-0.3891986535784466,-1.4587741873424123,1.5320122876251165,1.1798354802798725,1.352731500737386,-0.0013539213724648301,-0.00036993577918523484,0.0004081397992301165,1.1371242117070462e-05,-0.000569230494459054,-0.0017718720670200324,0.0016825909699281025,0.5902593731880188,-50.52365493774414,-7.055253028869629,17.28003692626953,1.6368509531021118,-1.0782577991485596,0.026597600430250168,,,,,,,,,
1739303142.802778,-0.07466132120513956,1.044164616813153,-0.38919687932596797,-1.4587741873591606,1.5320144874733335,1.179835655650024,1.352730703094112,0.0024347075096902166,0.0005799878883090397,0.0006560881054354521,0.00015446125885429303,-0.0006291431011394832,-0.0010558751699111725,0.00029613688875439897,0.5188482403755188,-50.54745864868164,-7.079056739807129,17.28003692626953,1.6304422616958618,-1.0782577991485596,0.0064559997990727425,,,,,,,,,
1739303142.8134959,-0.07466401527974628,1.044163901556984,-0.38919865455055763,-1.4587724046821422,1.532013735631759,1.1798407664368646,1.3527299585159862,0.0006685418683287504,-0.0010102574293757959,0.00027361557747081596,0.000827396889141015,-0.00024687429564682154,0.00045821666701440986,-0.000822453663705412,0.5426519513130188,-50.54745864868164,-7.055253028869629,17.25623321533203,1.6368509531021118,-1.0919907093048096,0.012864691205322742,,,,,,,,,
1739303142.8244827,-0.07466638856033504,1.0441700872124562,-0.3892007359604741,-1.4587723924723202,1.532015359354646,1.1798379293044219,1.3527257068277554,-0.0004257853320659633,0.0008074342884997403,0.000920158106418762,-0.00018238422483163173,0.00023915602172225965,0.0007303173075914759,-0.0004414030208493139,0.5902593731880188,-50.62680435180664,-7.027482032775879,17.25623321533203,1.6231180429458618,-1.0855820178985596,0.012864691205322742,,,,,,,,,
1739303142.8354285,-0.07466786162020662,1.044166716788771,-0.3892015500082091,-1.4587759700359733,1.5320144800484135,1.1798402329065591,1.3527347083893289,-0.0006648834262349636,-0.0001336266207681085,-0.0007509838083219198,-0.0012420378667355328,-0.0005331708419641572,0.00037864557414809174,0.0014406682941156667,0.5664556622505188,-50.57522964477539,-7.027482032775879,17.30384063720703,1.6304422616958618,-1.0782577991485596,-0.027418512850999832,,,,,,,,,
1739303142.845464,-0.07466530649506926,1.0441683611426023,-0.3892028589478903,-1.4587773080793451,1.5320144934573388,1.1798364694616112,1.3527253530109122,-0.00034456222727278493,-0.00011242430604006527,-0.001574710362356054,-0.0007189376219485881,1.0009957905941852e-05,-5.135652545660175e-05,-0.0011786111573490743,0.5902593731880188,-50.59903335571289,-7.027482032775879,17.33161163330078,1.6304422616958618,-1.0855820178985596,0.05314789339900017,,,,,,,,,
1739303142.8564904,-0.07466744324451628,1.0441700869017492,-0.3892009693032843,-1.4587712202551577,1.5320129604200954,1.1798383795290972,1.3527268065038012,-0.0003019801960259192,0.0006633129618389948,-0.00017747708438505154,0.0013138523003892886,-0.0017108484521599617,0.0010532144907452639,-0.0007802529073358247,0.5902593731880188,-50.62680435180664,-7.027482032775879,17.28003692626953,1.6432596445083618,-1.0654404163360596,0.03941498324275017,,,,,,,,,
1739303142.8683934,-0.0746684743751305,1.0441646168113758,-0.38919652739276495,-1.4587719529449734,1.5320131630227742,1.1798361349861195,1.3527315689375095,0.0001675707880188017,-0.0014545737815788184,0.0004579545457692816,0.00035831015148767806,-0.00013378354090138076,0.0005091174739909129,6.159422872565354e-05,0.6180303692817688,-50.54745864868164,-7.055253028869629,17.28003692626953,1.6304422616958618,-1.0718491077423096,-0.0008682189509272575,,,,,,,,,
1739303142.8784368,-0.07466741691898121,1.0441666831070733,-0.3891986268887519,-1.4587734364424905,1.5320153548774695,1.179834479068877,1.3527215330808626,-0.0009746763826047587,-0.0012092050379584238,0.0008480820260629784,-2.4661048847588775e-05,-0.000268666005365206,0.0009078420552431398,-0.003708443104043373,0.5902593731880188,-50.54745864868164,-7.055253028869629,17.28003692626953,1.6231180429458618,-1.0654404163360596,0.05314789339900017,,,,,,,,,
1739303142.888499,-0.0746640169487013,1.0441683358125673,-0.38920278175153394,-1.458768088298276,1.532015359354571,1.1798374072525795,1.3527256536724936,0.0016510100537663413,9.175079986514139e-05,-0.0015765876722285735,0.0015561799413748225,0.00038834047250961595,0.0005764534656275964,-0.0013299637652121768,0.5426519513130188,-50.59903335571289,-6.975907325744629,17.20862579345703,1.6231180429458618,-1.0855820178985596,0.05314789339900017,,,,,,,,,
1739303142.8994555,-0.0746674461795699,1.0441666831071215,-0.38919860713504584,-1.4587734425180907,1.5320144934574145,1.179839878446781,1.3527283131043535,-0.0007806384616379873,-8.521092457272172e-05,-0.0002342159743229298,4.605329660268306e-05,-1.3082887425677032e-05,0.0003199559431413315,-0.000754671624805639,0.5902593731880188,-50.54745864868164,-7.027482032775879,17.28003692626953,1.6304422616958618,-1.0855820178985596,0.026597600430250168,,,,,,,,,
1739303142.9094987,-0.07466401825133558,1.0441646168477139,-0.3891979445854245,-1.4587741868943316,1.5320129781372578,1.179838520599064,1.3527299453800508,0.0006807810732665426,-0.00010270601684468487,7.257558839687237e-05,-0.0008692872920041134,0.000784026042027808,-0.001014379642330349,-0.001030808021783266,0.5426519513130188,-50.54745864868164,-7.055253028869629,17.28003692626953,1.6432596445083618,-1.0919907093048096,0.012864691205322742,,,,,,,,,
1739303142.920502,-0.07466744426708198,1.044168327274306,-0.38919947560664564,-1.4587797226146482,1.5320144934574145,1.1798391689049617,1.352733998901281,-0.000426995493542855,0.00042270866361588684,-0.0005231054768019556,-0.002352225099610917,0.0002545596123348428,-0.00111621619777384,0.0023159411858609687,0.5902593731880188,-50.59903335571289,-7.055253028869629,17.35541534423828,1.6304422616958618,-1.0782577991485596,-0.020094294100999832,,,,,,,,,
1739303142.9314122,-0.0746658096325882,1.0441629156296817,-0.3891986531479665,-1.4587724056630818,1.5320122204771793,1.1798394714222498,1.3527247784984573,-0.0004276697031588131,-0.001177054122575958,-0.00018229485248689314,0.00032572312704887813,-0.0013085028356696138,0.0003780320681089378,-0.0006517685378725198,0.5664556622505188,-50.52365493774414,-7.055253028869629,17.25623321533203,1.6496683359146118,-1.0718491077423096,0.05955658480525017,,,,,,,,,
1739303142.9414713,-0.07466736743960216,1.044167532780147,-0.38920073304427616,-1.4587688393281537,1.532010356729079,1.1798369471284407,1.352726858848595,0.0006555721554467257,0.0002442458082448985,-0.00023107240047357368,0.0009262818079346758,-0.0013018964590899517,-0.00028945433027201,-0.00017622647760381284,0.5902593731880188,-50.57522964477539,-7.027482032775879,17.20862579345703,1.6368509531021118,-1.0782577991485596,0.03941498324275017,,,,,,,,,
1739303142.952461,-0.07466739060292406,1.0441694487142736,-0.389198653254426,-1.4587724046821422,1.5320144933774813,1.1798354225254424,1.3527291877203287,-0.0005254949508588222,0.0012528472538836087,0.0013771604776331545,-0.0005725721157904894,-0.0002474102438278831,1.610436372782863e-05,-0.00039597484777715143,0.5902593731880188,-50.59903335571289,-7.055253028869629,17.25623321533203,1.6304422616958618,-1.0654404163360596,0.019273381680250168,,,,,,,,,
1739303142.9644175,-0.07466744329245165,1.0441699187445588,-0.3892004223085495,-1.4587676550183608,1.532016130096677,1.1798354841931527,1.3527283900231213,-0.0010732140136258128,0.0018525440458317356,0.0006718309403089193,0.0008945079465085338,0.0010483760345086411,-5.299886100391103e-05,-0.0003774405070069857,0.5902593731880188,-50.65060806274414,-7.027482032775879,17.23242950439453,1.6167093515396118,-1.0782577991485596,-0.0008682189509272575,,,,,,,,,
1739303142.9754908,-0.07466609666929304,1.0441675331026326,-0.38920073304369684,-1.458772404676559,1.5320118920081998,1.1798366988983313,1.352728321817016,-0.0007691181929735932,0.0007858847047927887,-0.0002087117571116883,-0.00022838206109285317,-0.0007778379189758426,-7.757193703909277e-05,-0.0006223132853508229,0.5902593731880188,-50.57522964477539,-7.027482032775879,17.25623321533203,1.6432596445083618,-1.0855820178985596,0.026597600430250168,,,,,,,,,
1739303142.9864664,-0.07466400648826559,1.0441666262014289,-0.389198653254426,-1.458774175149339,1.5320137515783754,1.1798372603131668,1.3527299453801984,0.0010017840843262386,-0.0002439438530033093,0.0007391429680051624,-0.00042068530560980695,0.0002945911183411791,-0.0012893679683947242,0.00028096659008209815,0.5426519513130188,-50.57522964477539,-7.055253028869629,17.28003692626953,1.6368509531021118,-1.0919907093048096,0.012864691205322742,,,,,,,,,
1739303142.9964697,-0.07466573077181868,1.0441648581587828,-0.389198653254426,-1.4587694376951732,1.5320120992998076,1.179839893236158,1.35272918772023,0.0007418720860306628,0.0003559306591571412,0.0003743970479372408,0.0009553100896340311,-0.0011828202222187085,0.0014882788957256213,7.480805598731531e-05,0.5664556622505188,-50.54745864868164,-7.055253028869629,17.25623321533203,1.6496683359146118,-1.0782577991485596,0.019273381680250168,,,,,,,,,
1739303143.0073977,-0.07466576584800226,1.0441646212837505,-0.3891986795000926,-1.4587713881977065,1.5320144934567304,1.1798409505397616,1.3527252222452222,0.0002552339461027973,-0.0002786786728323043,-0.00041052179920493645,0.0009485806950189975,-0.001065416957423228,0.00044544292695538435,-0.0014352857064400077,0.5664556622505188,-50.54745864868164,-7.055253028869629,17.25623321533203,1.6304422616958618,-1.0855820178985596,0.05314789339900017,,,,,,,,,
1739303143.0174143,-0.07466409749762319,1.0441683310536118,-0.3891968704698446,-1.4587731983463592,1.5320122876252258,1.1798348457401122,1.352727570462303,0.0010005967997454488,0.00014693201992320524,0.0010321783476873183,-0.0009194195541495091,-0.0006160643976986738,0.0010866546549864742,9.739977089788765e-05,0.5426519513130188,-50.59903335571289,-7.079056739807129,17.28003692626953,1.6368509531021118,-1.0718491077423096,0.03300629183650017,,,,,,,,,
1739303143.027492,-0.07466839034566923,1.0441687065577974,-0.3892007680385019,-1.4587700970090225,1.5320153591645786,1.1798400905954154,1.352731568937616,-0.001368505222486198,-0.000694239665352392,-0.00037177842368993987,0.0008164774553516371,0.0014039700004321023,0.0012493842928677924,0.0005466605702831409,0.5902593731880188,-50.57522964477539,-7.027482032775879,17.25623321533203,1.6231180429458618,-1.0782577991485596,-0.0008682189509272575,,,,,,,,,
1739303143.0384464,-0.0746674432619247,1.0441666147653825,-0.38919866329926134,-1.4587738055241273,1.532013733645273,1.1798363587756486,1.3527291857821633,-0.0006848187912068652,0.00045168693287834345,1.7527426862927692e-05,-0.0001614303217679763,-0.00030298971722271696,0.0020420263974747473,-0.0004070704782627492,0.5902593731880188,-50.57522964477539,-7.055253028869629,17.25623321533203,1.6368509531021118,-1.0855820178985596,0.019273381680250168,,,,,,,,,
1739303143.048473,-0.07466580969298116,1.0441666147535749,-0.3891986532549363,-1.4587700970969417,1.532008962089822,1.1798361349618625,1.3527320824593616,0.00029967165975469434,-0.0011375592540339768,0.0013768853617541123,-0.00027041060107250276,-0.00032817199189623966,0.0007247996307823388,0.0021161948349218947,0.5664556622505188,-50.57522964477539,-7.055253028869629,17.25623321533203,1.6496683359146118,-1.0718491077423096,0.0064559997990727425,,,,,,,,,
1739303143.0584815,-0.07466741692488467,1.0441690160740824,-0.3892007330442816,-1.4587723940420485,1.532012978118864,1.1798403258566172,1.3527287734003943,-0.00044951906621426807,0.0008637322542521497,-0.0003207103810989431,0.0006788651974852435,-0.0007099965416999246,-0.0002790546528145274,0.0013189337160694346,0.5902593731880188,-50.59903335571289,-7.027482032775879,17.25623321533203,1.6432596445083618,-1.0919907093048096,0.026597600430250168,,,,,,,,,
1739303143.0694602,-0.07466573080795545,1.0441683272781936,-0.3892007330442816,-1.4587734354375588,1.5320126496682533,1.1798395383282219,1.3527273679361855,0.00033434311112960104,0.0006058805934580118,0.0002229241141205613,0.00010075138923012903,-0.0009272423499600321,0.0006112383649542672,-0.00023553589113801547,0.5664556622505188,-50.59903335571289,-7.027482032775879,17.28003692626953,1.6368509531021118,-1.0855820178985596,0.03300629183650017,,,,,,,,,
1739303143.0804086,-0.07466786163806881,1.0441666147535744,-0.38919869260492473,-1.4587757226323002,1.532012220471048,1.1798358330011682,1.3527283223064068,6.26813857139898e-05,-0.0007449396367845782,-0.0004891907058626999,-0.0014378328114637848,0.00010824051590208061,-0.0010954721981362916,-0.0009991083367189148,0.5664556622505188,-50.57522964477539,-7.055253028869629,17.30384063720703,1.6496683359146118,-1.0782577991485596,0.026597600430250168,,,,,,,,,
1739303143.0905073,-0.07466744372578593,1.0441666147535744,-0.3892045984293406,-1.458773829191811,1.5320118920081747,1.179839524600002,1.3527268195848179,3.734443569050768e-06,0.0006528701282060849,-0.001864764306048934,0.0007442739443298585,-0.0008142381131248479,8.375500009887054e-05,0.0004934348089163806,0.5902593731880188,-50.57522964477539,-6.975907325744629,17.28003692626953,1.6432596445083618,-1.0855820178985596,0.03941498324275017,,,,,,,,,
1739303143.1015468,-0.0746657307720187,1.0441666147535744,-0.3892025157693091,-1.4587712204304948,1.5320138356541941,1.1798407586521966,1.3527323265976121,0.0009160042622385151,-0.0003522586798712903,0.0004125289088346886,0.0008674941858264193,-0.0010900105535473817,0.00047920736404484944,0.0005793236418587288,0.5664556622505188,-50.57522964477539,-7.003678321838379,17.28003692626953,1.6368509531021118,-1.0855820178985596,-0.0072769103571772575,,,,,,,,,
1739303143.11243,-0.07466786145687954,1.0441646168127212,-0.38919508800839503,-1.4587780456262929,1.5320153593552104,1.1798377984352975,1.3527329817883484,0.00025200925464682796,-0.0016624769521653986,0.001935454317496724,-0.0016676079413704198,0.00037706802278657155,0.00042986321918527025,0.0011861117603336453,0.5664556622505188,-50.54745864868164,-7.102860450744629,17.33161163330078,1.6231180429458618,-1.0855820178985596,-0.0008682189509272575,,,,,,,,,
1739303143.1224914,-0.07466744722616402,1.0441646168127212,-0.38920074157682527,-1.4587759604265267,1.5320144934574145,1.1798363849381275,1.3527283900470481,0.00023164310583333956,-0.0008943220659608823,-2.0177057020114616e-05,-0.00046322253853576275,0.0006040029255457291,-0.0009427933498983387,-0.000691958975621382,0.5902593731880188,-50.54745864868164,-7.027482032775879,17.30384063720703,1.6304422616958618,-1.0855820178985596,-0.0008682189509272575,,,,,,,,,
1739303143.1334553,-0.07466957419490841,1.044170428841477,-0.38919688224219584,-1.458774187359107,1.5320129781372578,1.1798379012403077,1.3527259405876637,0.0004368244399243056,0.0009474416146393609,0.00038225762921212137,-0.0006579304784541418,-0.00041748413266658006,-0.0005604027757783888,-0.001593963505438568,0.5902593731880188,-50.59903335571289,-7.079056739807129,17.28003692626953,1.6432596445083618,-1.0718491077423096,0.04673920199275017,,,,,,,,,
1739303143.1434708,-0.07466975695354852,1.0441611930665926,-0.3891986532546235,-1.458770151856917,1.5320089620899315,1.1798397577841542,1.352726819584793,-9.383542497779423e-05,-0.0016978478206170192,0.0005655949609411382,0.0009618946705076266,-0.0003525620654565603,-0.00018619082843820568,-0.00035276182899770695,0.6180303692817688,-50.49985122680664,-7.055253028869629,17.25623321533203,1.6496683359146118,-1.0782577991485596,0.03941498324275017,,,,,,,,,
1739303143.1543944,-0.07466720695407485,1.044165900442652,-0.389198653254426,-1.4587724042172092,1.5320146130108792,1.1798357949084235,1.3527299453802724,-1.3007974559028352e-05,2.813042401922486e-05,-4.658173818853511e-06,-0.0004179468152904827,0.000348290997761646,3.278242027346997e-05,0.000371734602110195,0.5902593731880188,-50.57522964477539,-7.055253028869629,17.25623321533203,1.6231180429458618,-1.0718491077423096,0.012864691205322742,,,,,,,,,
1739303143.1644154,-0.07466767961759493,1.0441666147414774,-0.38920049683328195,-1.4587733347065788,1.5320107121064874,1.179833964468447,1.3527291877202303,0.00025835056043002093,-2.816295864241982e-06,-0.00033902746331712896,-0.00010287665655178311,-0.0007502265435933135,-0.0016219959510603546,-0.0005861467396019217,0.5902593731880188,-50.57522964477539,-7.027482032775879,17.28003692626953,1.6304422616958618,-1.0654404163360596,0.019273381680250168,,,,,,,,,
1739303143.1744385,-0.07466401696115448,1.0441666147535735,-0.38919864741005483,-1.4587708770974148,1.5320137356052235,1.1798354797704367,1.3527267135339394,0.0011816641502904706,0.00039003219471541166,0.0006417059273250182,0.002117904730054599,0.00043984774208971926,-0.0015535548902760137,-0.0002568665442492582,0.5426519513130188,-50.57522964477539,-7.055253028869629,17.28003692626953,1.6368509531021118,-1.0782577991485596,0.05314789339900017,,,,,,,,,
1739303143.184546,-0.074665730808097,1.0441650671939189,-0.38919888946539266,-1.4587722917226014,1.5320131351206832,1.1798374711297939,1.3527333862443571,0.00032705200914412717,-0.0011259475334298463,6.704557718282156e-06,0.00035963342372686543,0.00020348225690791625,-0.0002954338157600368,0.001261427730239011,0.5664556622505188,-50.54745864868164,-7.055253028869629,17.25623321533203,1.6432596445083618,-1.0919907093048096,-0.0072769103571772575,,,,,,,,,
1739303143.1954007,-0.07467028444748398,1.0441666831147005,-0.38919865325842623,-1.4587759568069598,1.5320126490087391,1.1798405856799645,1.3527283618778636,-0.000379480432569124,-0.00032388214833699227,-4.3818929189429114e-05,-0.0003192783649048216,-0.0005438167597484609,0.00043056685510545103,-0.000785082072173918,0.5902593731880188,-50.54745864868164,-7.055253028869629,17.30384063720703,1.6368509531021118,-1.0855820178985596,0.05314789339900017,,,,,,,,,
1739303143.2054913,-0.07466573371105499,1.044168557189167,-0.38919687090142757,-1.4587717106494384,1.5320134260759823,1.1798365408860503,1.3527269959010324,0.0004398736991328439,0.0007143894470993759,0.0009050266349155522,-0.00013495905608759077,0.0005123461655023192,-0.00034628479274173015,-0.0002811616149859734,0.5664556622505188,-50.59903335571289,-7.079056739807129,17.28003692626953,1.6368509531021118,-1.0782577991485596,0.04673920199275017,,,,,,,,,
1739303143.216395,-0.0746728935564023,1.044164871912087,-0.3891968968230754,-1.458771125581558,1.5320128172274972,1.179836346158175,1.352729929397103,-0.0018140990697108712,0.00022409570386507617,5.7753349993503594e-05,0.0002517195323620689,-0.0011839816754611206,-0.00014628086341991585,-0.0005100615265453493,0.6656377911567688,-50.54745864868164,-7.079056739807129,17.28003692626953,1.6432596445083618,-1.0855820178985596,0.012864691205322742,,,,,,,,,
1739303143.2264378,-0.07466667814975965,1.0441666490945463,-0.38920002441261603,-1.4587700592232657,1.5320122219225545,1.1798386630454993,1.3527323265967754,-0.001248473571694721,-0.0003067732791689294,-0.00020445188862387508,0.0010659396196189422,0.0009009003393052635,-0.0005524130360074511,0.00023652369093246411,0.5664556622505188,-50.57522964477539,-7.027482032775879,17.25623321533203,1.6496683359146118,-1.0782577991485596,-0.0072769103571772575,,,,,,,,,
1739303143.2364566,-0.07466573077736587,1.0441668446569654,-0.3891984173634466,-1.4587740648708538,1.5320136325589377,1.179834761428019,1.352736565150105,-5.5913516730269553e-05,0.0003795229302089581,0.0006561971649249693,-9.258773784302988e-06,0.0011556335660799257,-0.0012358840732808643,0.0017589988721020315,0.5664556622505188,-50.57522964477539,-7.055253028869629,17.28003692626953,1.6368509531021118,-1.0718491077423096,-0.0072769103571772575,,,,,,,,,
1739303143.2474546,-0.07466573499412715,1.0441665607918191,-0.38920073304295,-1.4587759698847502,1.532013911181954,1.17983634566789,1.3527307030642035,0.0008707139730493626,-0.00032702113689913324,-0.00040813550686336704,-0.0008956694910838628,-0.00035086711696557355,-0.0010204390585584545,0.0015641372532095511,0.5664556622505188,-50.57522964477539,-7.027482032775879,17.30384063720703,1.6231180429458618,-1.0855820178985596,0.0064559997990727425,,,,,,,,,
1739303143.257469,-0.07466753098278152,1.0441647227352437,-0.38920072948005524,-1.4587741961894762,1.5320112350456416,1.179835492852388,1.3527315689375097,7.560683780838011e-05,-0.0010729875590814002,0.00023687991439031895,-0.0018284441329537934,-0.0005167173729219315,-0.0010932778520630793,0.001444831821145203,0.5902593731880188,-50.54745864868164,-7.027482032775879,17.28003692626953,1.6304422616958618,-1.0782577991485596,-0.0008682189509272575,,,,,,,,,
1739303143.268423,-0.07466604645637227,1.0441646196477419,-0.38920251572128045,-1.4587719346470396,1.532013367082935,1.1798368340606245,1.3527291920808808,0.0005792259613399097,-0.0008299495323255057,-0.0005152346201027309,-0.0001792830929302568,-0.00031780588343080724,0.0002804955952919622,0.0006782069703226939,0.5664556622505188,-50.54745864868164,-7.003678321838379,17.28003692626953,1.6304422616958618,-1.0855820178985596,0.019273381680250168,,,,,,,,,
1739303143.2794144,-0.07466597045969316,1.0441611927160825,-0.38920285691496675,-1.458771548926711,1.5320137357909775,1.1798361524603915,1.352729945380223,-0.0007619756592868723,-0.0017856041698659758,-0.0008660270842656,-0.0004469343654739188,0.0005308698127899777,-0.00042985805940356033,0.0004150086094889933,0.5664556622505188,-50.49985122680664,-7.003678321838379,17.25623321533203,1.6368509531021118,-1.0718491077423096,0.012864691205322742,,,,,,,,,
1739303143.2913842,-0.07466576877235401,1.0441683275892466,-0.3892007680404298,-1.4587715953296962,1.5320129781372578,1.1798354812320604,1.3527283618599184,0.000172116520244696,0.0007211440407934482,-0.0010824541936784958,-0.0006193300208821305,-0.0008761159301731403,-0.0012430214409222423,-0.0008661358419683946,0.5664556622505188,-50.59903335571289,-7.027482032775879,17.28003692626953,1.6432596445083618,-1.0782577991485596,0.05314789339900017,,,,,,,,,
1739303143.3014984,-0.07466597922712172,1.044166845601581,-0.3891986535786441,-1.4587738561719477,1.5320097266150472,1.179834722271871,1.352729421569828,-0.0004009230841962937,0.0009802433200551157,-0.0003363620488272018,-0.0016147282245089517,-0.0018911524099701625,-0.0008197262645020274,-0.0003448255579325719,0.5664556622505188,-50.57522964477539,-7.055253028869629,17.28003692626953,1.6368509531021118,-1.0718491077423096,0.05314789339900017,,,,,,,,,
1739303143.3124537,-0.07466960923618672,1.0441683361987921,-0.38919868835665683,-1.4587748574331172,1.5320137352780743,1.1798356367538632,1.3527330842815932,-0.0008122142736934674,-0.0007489466221432064,0.00031362401967892784,-0.0009726432172785034,0.0005061070180447023,0.0004929492262071556,0.000556508980215403,0.5902593731880188,-50.59903335571289,-7.055253028869629,17.30384063720703,1.6368509531021118,-1.0782577991485596,-0.013685601763427258,,,,,,,,,
1739303143.3234673,-0.07466644107292827,1.0441673120216777,-0.3891986531466173,-1.4587738166114312,1.5320129781372547,1.179836552652909,1.3527268063413358,0.00024125638643508944,-0.0005829497770200135,0.0004659787249913453,-0.00024192020513948186,-0.0004419096101385673,0.0006379468023237753,-0.0011180330726474979,0.5664556622505188,-50.57522964477539,-7.055253028869629,17.28003692626953,1.6432596445083618,-1.0782577991485596,0.03941498324275017,,,,,,,,,
1739303143.3335178,-0.07466975822860104,1.0441686896679823,-0.38919865325442415,-1.4587690669853368,1.5320084793658948,1.1798363587677896,1.3527236787688157,-0.00021921842603683353,0.0005905930902846525,-9.596201537078518e-05,0.0013197011256343549,-0.0025397695099971555,-0.0001982583970540706,-0.001780024216418929,0.6180303692817688,-50.57522964477539,-7.055253028869629,17.25623321533203,1.6496683359146118,-1.0855820178985596,0.06596527993679047,,,,,,,,,
1739303143.3454328,-0.07466778528538617,1.0441646257476176,-0.3891995980984246,-1.4587726326659738,1.5320137358300525,1.1798386607844702,1.3527243859484521,-0.0009336373186437119,-0.0008387201459113515,-0.0002927200275098939,-1.4081407445019445e-05,-0.0005632353161496398,-0.00034164525464289326,-0.0016876427851703147,0.5902593731880188,-50.54745864868164,-7.055253028869629,17.30384063720703,1.6368509531021118,-1.0782577991485596,0.03300629183650017,,,,,,,,,
1739303143.357392,-0.0746674550335026,1.0441683275892581,-0.3891986420234906,-1.4587747943822282,1.532013597164084,1.1798350753290527,1.3527307030342963,0.0001927698731271381,3.8010862741908076e-06,0.0010050451667915088,-0.0014090348971004848,-0.001977029369325058,-0.0006209440904508051,-9.808668477880982e-05,0.5902593731880188,-50.59903335571289,-7.055253028869629,17.33161163330078,1.6368509531021118,-1.0718491077423096,0.0064559997990727425,,,,,,,,,
1739303143.3674233,-0.07466576112074966,1.044170419113459,-0.3892007330442182,-1.4587708586568853,1.5320137357965533,1.1798387954820464,1.352727529455573,0.0008474006459600792,0.0018273720784282496,0.00023105587418130452,0.0003805582317780998,1.6048103601591478e-05,0.0011050665729778787,2.6496495346920368e-05,0.5664556622505188,-50.59903335571289,-7.027482032775879,17.28003692626953,1.6368509531021118,-1.0782577991485596,0.0064559997990727425,,,,,,,,,
1739303143.3783872,-0.0746657307721892,1.0441686702512947,-0.3892025157213006,-1.4587672813106443,1.5320153993915673,1.1798359551000834,1.3527251436817587,-0.00025119871547895267,0.001054183674816201,-5.059118898284706e-05,0.001694637942834652,0.0006555526170339246,0.00010322363233626702,-0.0020433631487242086,0.5664556622505188,-50.59903335571289,-7.003678321838379,17.23242950439453,1.6496683359146118,-1.0782577991485596,0.05314789339900017,,,,,,,,,
1739303143.3884466,-0.07466816235042875,1.044168716326554,-0.3892024982241895,-1.4587690668219866,1.532011147483884,1.1798347371384263,1.3527338419171895,-3.058642023412851e-05,0.0011788967521931299,-0.0001205406341777402,-8.254365110935998e-05,-0.00044670863168511413,-0.0017681526600231323,0.0012390381697948297,0.5902593731880188,-50.57522964477539,-7.003678321838379,17.25623321533203,1.6496683359146118,-1.0718491077423096,-0.020094294100999832,,,,,,,,,
1739303143.3994913,-0.074665730776077,1.044164979521389,-0.38920275396051324,-1.45877085865642,1.5320160509289544,1.1798366989342979,1.3527308650303764,0.0005244620451058553,-0.00023249403286544124,9.781611490595836e-05,0.000470606678300382,0.0008247706289223242,8.506537748873569e-05,0.00041103326097936073,0.5664556622505188,-50.52365493774414,-7.027482032775879,17.28003692626953,1.6231180429458618,-1.0855820178985596,0.0064559997990727425,,,,,,,,,
1739303143.4104576,-0.07466944155837979,1.0441685910273288,-0.3892007680499119,-1.4587747129834652,1.5320125261772268,1.179838658686818,1.3527251873070953,-0.0008898569680736728,0.00014786407806336918,-0.0009088937339749824,-0.0005300272386051732,5.776376813041459e-05,-0.00055065809977395,-0.0006400221493198628,0.6180303692817688,-50.59903335571289,-7.027482032775879,17.33161163330078,1.6103006601333618,-1.0782577991485596,0.05314789339900017,,,,,,,,,
1739303143.4204862,-0.07466744426709848,1.044164619660544,-0.38919865325620445,-1.4587726321761243,1.5320144927398582,1.1798347227563797,1.352727564163141,-4.580670936678473e-05,-0.0020052740607006134,0.00016468099979766464,4.6108687345913476e-05,0.00044792414607339073,-0.0004922564578846466,9.709377272477211e-05,0.5902593731880188,-50.54745864868164,-7.055253028869629,17.30384063720703,1.6304422616958618,-1.0718491077423096,0.03300629183650017,,,,,,,,,
1739303143.4314954,-0.0746658109920951,1.0441646168127265,-0.38920148875848365,-1.4587710959161966,1.5320137179186666,1.1798363456676693,1.3527312143430295,0.0006410032618043467,1.8063741539393603e-05,0.00022086307519887617,0.0005421859497392672,0.0005575335110821761,0.00030979125454738796,0.00039227049618331656,0.5664556622505188,-50.54745864868164,-7.055253028869629,17.28003692626953,1.6368509531021118,-1.0855820178985596,-0.0008682189509272575,,,,,,,,,
1739303143.4423943,-0.07467054762607823,1.0441684293135327,-0.38919865327043246,-1.4587709155643034,1.5320113528076356,1.1798347221103573,1.3527275641609178,-0.0008839180399622028,0.0008193759703632531,7.252783201981834e-05,0.0008229818342829831,-0.001320330462717529,0.00019592892426222578,0.0004075663421819176,0.5902593731880188,-50.59903335571289,-7.055253028869629,17.28003692626953,1.6304422616958618,-1.0718491077423096,0.03300629183650017,,,,,,,,,
1739303143.4524033,-0.07466744735091205,1.0441666915996586,-0.38919864450587066,-1.4587726321771914,1.5320137357441488,1.1798363456676682,1.3527258379747857,0.0016891213721278258,0.0003501892175099555,0.0005525751291006074,-0.0011306669451057565,-0.0009929407929505773,0.0004950419442337638,-0.0005450474143527684,0.5902593731880188,-50.57522964477539,-7.055253028869629,17.30384063720703,1.6368509531021118,-1.0855820178985596,0.05955658480525017,,,,,,,,,
1739303143.4624188,-0.07466947663443287,1.0441703252164598,-0.38919902272192236,-1.4587727187753663,1.5320137356317918,1.1798371033277464,1.352726799259014,-0.0009610343621211582,0.0013118945044770967,0.001282818510632403,-0.0010688425906143892,-0.00028007432703661784,-0.0009940881395783226,0.002151944243596786,0.6180303692817688,-50.62680435180664,-7.079056739807129,17.30384063720703,1.6368509531021118,-1.0919907093048096,0.03941498324275017,,,,,,,,,
1739303143.4734824,-0.07467060016762898,1.0441666832470449,-0.3892025157334495,-1.4587708494995424,1.5320144934574136,1.1798354799319413,1.352731569098974,-0.0006291257280422878,0.0006460973695342808,-0.000173158813124316,0.0001708734586853484,0.0005394133333807213,-0.0011284172483675408,0.0024843222259450628,0.5902593731880188,-50.54745864868164,-7.003678321838379,17.28003692626953,1.6304422616958618,-1.0782577991485596,-0.0008682189509272575,,,,,,,,,
1739303143.4834952,-0.07467157356048455,1.0441666389901811,-0.3891968705774072,-1.4587708494990537,1.532013735797336,1.179840284180204,1.3527330842576688,-0.0004901044557972907,0.00010106696737229471,0.0014959152288788235,-0.00010013724335930215,-0.0004358604708970188,0.0006378633867457307,0.002847540958375891,0.6180303692817688,-50.57522964477539,-7.079056739807129,17.28003692626953,1.6368509531021118,-1.0919907093048096,-0.013685601763427258,,,,,,,,,
1739303143.4935226,-0.0746660301917851,1.0441666147539848,-0.3891968780298802,-1.458770568934176,1.5320144889877474,1.1798363502436924,1.3527315689375095,0.00017992637554200847,-0.0006242039713734293,0.0019652925981491686,-0.00041049520955066684,-0.00013838474874845914,-0.0005651279401428649,0.0016839615826231824,0.5664556622505188,-50.57522964477539,-7.079056739807129,17.30384063720703,1.6304422616958618,-1.0855820178985596,-0.0008682189509272575,,,,,,,,,
1739303143.504455,-0.07466401825297693,1.0441673120566202,-0.3892013367306584,-1.4587688372221264,1.5320164233534017,1.179835938731939,1.3527315689375095,0.0008603618239362661,-0.0007689512454800117,0.00020434096250730643,4.665123803031381e-06,0.0012562612169590166,-0.0005998846539407852,0.0006505151350176517,0.5426519513130188,-50.57522964477539,-7.027482032775879,17.25623321533203,1.6231180429458618,-1.0718491077423096,-0.0008682189509272575,,,,,,,,,
1739303143.5153954,-0.07466967799649667,1.0441706244205988,-0.3891968705808148,-1.4587708494977574,1.5320153593606531,1.179834839854795,1.3527310050183279,0.0003227743335738185,-1.3574446404954644e-05,0.0013022161042299954,0.00012004740088806393,0.00102378848476982,0.00018201660172755137,0.0007684725392100198,0.6180303692817688,-50.59903335571289,-7.079056739807129,17.28003692626953,1.6231180429458618,-1.0718491077423096,0.012864691205322742,,,,,,,,,
1739303143.5254622,-0.0746664452868203,1.0441685910195238,-0.3891986882486482,-1.4587748574161443,1.532013735797336,1.1798357817504805,1.3527243852664768,0.0008058537079580015,0.000588747094378275,0.0006330854913355988,-0.00026880913125763416,0.0005690721077143552,-0.00047979671833431466,-0.0002703712120227128,0.5664556622505188,-50.59903335571289,-7.055253028869629,17.30384063720703,1.6368509531021118,-1.0718491077423096,0.03300629183650017,,,,,,,,,
1739303143.5364482,-0.07466753488407507,1.0441673832110383,-0.3891985493520256,-1.4587708617591217,1.532015358858017,1.1798347613621956,1.3527252222811124,-0.00038056178895140607,-0.0002664872658552324,0.00028183785514173087,-0.000261892334881951,0.0021353973794295614,-9.456510299827529e-05,-0.0012925293709479383,0.5902593731880188,-50.54745864868164,-7.055253028869629,17.28003692626953,1.6231180429458618,-1.0718491077423096,0.05314789339900017,,,,,,,,,
1739303143.54741,-0.07466768005719472,1.0441673728635141,-0.3891986532526664,-1.458770849499261,1.5320115805546626,1.1798413418809284,1.3527298281278115,0.00044702582859169036,-0.00024498577291147725,-0.0003829656151223657,0.0001819265982049461,-0.0014138533003243974,0.0019148394726808196,-0.0006548281519608523,0.5902593731880188,-50.54745864868164,-7.055253028869629,17.28003692626953,1.6560770273208618,-1.0919907093048096,0.012864691205322742,,,,,,,,,
1739303143.557465,-0.07466581359165088,1.0441650471313204,-0.3892007369325285,-1.4587718388714874,1.5320137162639003,1.1798332072986442,1.352733881469486,-0.00026870891675705557,-0.0009274720367434713,0.00022355227249007943,-0.0008230051528049176,-2.57772415611444e-06,-0.002063635685454036,0.0010933678031601912,0.5664556622505188,-50.52365493774414,-7.027482032775879,17.28003692626953,1.6368509531021118,-1.0590317249298096,0.0064559997990727425,,,,,,,,,
1739303143.567469,-0.07466668215536698,1.044166691319284,-0.3892028589433444,-1.4587730748689343,1.5320153588576864,1.179835524830502,1.3527305605878657,0.00018973563304698756,1.2917740826584524e-05,-0.0010568330730317595,0.0005903793903453083,0.000479119393950388,-0.0005487380964532307,0.0009301774348105499,0.5664556622505188,-50.57522964477539,-7.027482032775879,17.28003692626953,1.6231180429458618,-1.0782577991485596,-0.0072769103571772575,,,,,,,,,
1739303143.5783942,-0.07466607709860457,1.0441649747859194,-0.3891986532664267,-1.458769066834597,1.5320144844090613,1.1798397183232074,1.352731569142881,-0.00039969032362632394,-0.0005432438063723502,0.0006406007790304932,0.000614498231847877,0.0006251541373058416,0.0009568798111857702,0.0014345204871153946,0.5664556622505188,-50.52365493774414,-7.055253028869629,17.25623321533203,1.6304422616958618,-1.0782577991485596,-0.0008682189509272575,,,,,,,,,
1739303143.5884163,-0.07466817439798083,1.0441683315085146,-0.38920251863748595,-1.458769041312228,1.5320126496681001,1.179838164975723,1.3527283237610683,-0.001174014301039987,4.511804298683981e-06,8.962198241311138e-05,0.0005245318068504857,-0.000361366211200026,0.0012581816515000374,-0.0001988902880540296,0.5664556622505188,-50.59903335571289,-7.003678321838379,17.25623321533203,1.6368509531021118,-1.0919907093048096,0.026597600430250168,,,,,,,,,
1739303143.5993795,-0.07466839956015446,1.0441705557482515,-0.3891990003646673,-1.4587726321759287,1.5320151850315022,1.1798379016767606,1.3527330842576768,-0.0002210999730528623,0.00013083614929853779,0.0007581131071402239,-0.0006233895426752715,4.5545716375723145e-05,0.0004199736964004192,0.0019440358777653981,0.5902593731880188,-50.62680435180664,-7.079056739807129,17.30384063720703,1.6231180429458618,-1.0718491077423096,-0.013685601763427258,,,,,,,,,
1739303143.6094987,-0.07466817737051139,1.0441666916220544,-0.38920072440393044,-1.4587708494990534,1.5320153548761233,1.179834735353848,1.3527292269660869,0.0005015799692647167,-0.0018002246488896124,-0.0012925253258404565,-5.3447557823382875e-05,0.0003148307982600988,-0.0017291165291684588,0.0006194188486141495,0.5664556622505188,-50.54745864868164,-7.027482032775879,17.28003692626953,1.6231180429458618,-1.0718491077423096,0.019273381680250168,,,,,,,,,
1739303143.6204977,-0.07466580970961524,1.044168757878242,-0.3892046306493712,-1.4587726321760726,1.5320144934390123,1.1798347746535318,1.3527255405189647,0.0006722654924519771,-0.000766267015793362,-0.0017997621741528982,-0.000988919283565812,0.0004305346420900483,0.00024338097266287843,-0.0010830911821714286,0.5664556622505188,-50.57522964477539,-6.975907325744629,17.30384063720703,1.6304422616958618,-1.0718491077423096,0.05314789339900017,,,,,,,,,
1739303143.631534,-0.07466946851536892,1.0441646285124397,-0.3892007071228339,-1.4587672728073235,1.5320129766473687,1.1798347240487208,1.3527279231375555,0.0006724812998257175,-0.0010520218045922173,0.00045377700010762413,0.0016247432057477876,-0.0002848395443319658,0.0006398511091307601,0.001176504375689339,0.6180303692817688,-50.54745864868164,-7.027482032775879,17.23242950439453,1.6432596445083618,-1.0718491077423096,0.06596527993679047,,,,,,,,,
1739303143.642404,-0.07466668172108158,1.0441667035655604,-0.38919687057726066,-1.4587690668219706,1.5320136960548412,1.1798356110744856,1.3527307030642992,0.0013956056676293765,-0.0005286605104203565,0.001411717488010718,0.0006780535871686935,-0.00020970774895040324,-0.0002723886113416418,0.00037210214852830285,0.5664556622505188,-50.57522964477539,-7.079056739807129,17.25623321533203,1.6368509531021118,-1.0782577991485596,0.0064559997990727425,,,,,,,,,
1739303143.652462,-0.0746705564107259,1.0441687834035938,-0.3891987582370925,-1.4587726321760726,1.5320122199798767,1.1798396428063664,1.3527251831070364,-0.0018696044243023497,0.0010788273760577514,0.0011767731785622135,-0.00029714859243491705,-0.0010396172261073998,0.0012388275246400487,-0.002342413380595698,0.5902593731880188,-50.57522964477539,-7.055253028869629,17.30384063720703,1.6496683359146118,-1.0855820178985596,0.05314789339900017,,,,,,,,,
1739303143.6624873,-0.07466771918712235,1.0441666148637532,-0.38919873199675953,-1.4587691492383335,1.5320144750820914,1.1798389797265398,1.3527290699826684,0.00010967851028155688,-0.0011407191193294785,0.0009094984012800498,0.0009502169592869931,0.00027401330569642594,0.0018363629229136912,-0.0006609928445412319,0.5902593731880188,-50.57522964477539,-7.055253028869629,17.25623321533203,1.6304422616958618,-1.0718491077423096,0.019273381680250168,,,,,,,,,
1739303143.6733944,-0.07466978464436747,1.044167312033292,-0.38920073304442976,-1.4587690791450658,1.5320129781372231,1.1798386586928353,1.3527347478516758,-0.0007968906188419452,-0.0010047861902258645,-0.0002811054359213905,0.0005759027837479887,-0.0002215237349634316,-0.0011588291839792135,0.0023176131428052885,0.6180303692817688,-50.57522964477539,-7.027482032775879,17.25623321533203,1.6432596445083618,-1.0782577991485596,-0.0008682189509272575,,,,,,,,,
1739303143.683458,-0.07466777078267815,1.044171388567911,-0.389196870577407,-1.4587726322893353,1.5320104774100882,1.1798395703419713,1.3527275661548217,0.0007781349681232987,0.001175912158087221,0.001037861244441282,-0.0005819896476005659,-0.0021847523966733555,0.0014547078179756728,0.0003229283938584647,0.5902593731880188,-50.59903335571289,-7.079056739807129,17.30384063720703,1.6368509531021118,-1.0855820178985596,0.03300629183650017,,,,,,,,,
1739303143.694409,-0.07466890060726294,1.0441693478234002,-0.3891989682024255,-1.4587687923620698,1.5320129780820766,1.1798363651029482,1.3527220569881029,-0.0009315739273593584,0.0009176926930869583,0.0006008275047570165,-0.0002072028557783716,-5.001591987097723e-05,0.00010109590896960888,-0.0023286689344212065,0.5664556622505188,-50.59903335571289,-7.055253028869629,17.28003692626953,1.6432596445083618,-1.0855820178985596,0.07969819009304047,,,,,,,,,
1739303143.704521,-0.07466644447071723,1.0441675359817966,-0.3892014907403873,-1.458770849487441,1.5320161570516455,1.179834722110467,1.3527259406056817,0.00027961492429205383,0.0003695094662920529,-0.0003824324475273879,-0.0004830923618430336,-0.0002554128903554131,-0.00022903015744128372,-0.0013335311809175888,0.5664556622505188,-50.57522964477539,-7.055253028869629,17.28003692626953,1.6432596445083618,-1.0718491077423096,0.04673920199275017,,,,,,,,,
1739303143.715489,-0.07466818024895552,1.0441631379796181,-0.3892025157373183,-1.4587707024778296,1.5320165862606647,1.1798354799857764,1.352729403147643,0.0005561696487744239,-0.0014587410502306226,-0.000853990904106562,6.380301220703323e-05,0.0014048023078593558,-0.0003722562577210761,-0.0004863780457098573,0.5664556622505188,-50.52365493774414,-7.003678321838379,17.28003692626953,1.6304422616958618,-1.0782577991485596,-0.0008682189509272575,,,,,,,,,
1739303143.726405,-0.07467036482573174,1.0441683386133167,-0.38919580705768936,-1.4587663117620684,1.532013735862985,1.1798355975080068,1.352731568871448,-0.0006524344228839372,-0.0005592557762991604,0.0012952235315129004,0.0014893344403558648,0.0006396032349593106,5.1594429722158676e-05,0.0003794235734492014,0.5902593731880188,-50.59903335571289,-7.055253028869629,17.25623321533203,1.6368509531021118,-1.0782577991485596,-0.0008682189509272575,,,,,,,,,
1739303143.7364125,-0.07466582284182369,1.0441646426376558,-0.3891986532062254,-1.4587708494523963,1.5320094687915735,1.1798347221123513,1.3527299453801973,0.0016217433431817444,-0.0019300378695771565,0.0007317761681654469,5.135858564028821e-05,-0.001925612463275933,-0.00045228218204706555,0.00029879033504304886,0.5664556622505188,-50.54745864868164,-7.055253028869629,17.28003692626953,1.6368509531021118,-1.0718491077423096,0.012864691205322742,,,,,,,,,
1739303143.747391,-0.07466721449779239,1.044170413397644,-0.38920250405655904,-1.4587709319153517,1.5320144928885226,1.1798358329831455,1.3527262941413296,-0.00015894852930192934,0.0009268368115682079,0.00043222311606439326,-0.0006529644187475592,0.0004307953157602272,-0.0006904093875341039,-0.0017506546958967178,0.5426519513130188,-50.62680435180664,-7.003678321838379,17.28003692626953,1.6304422616958618,-1.0782577991485596,0.04673920199275017,,,,,,,,,
1739303143.7574165,-0.0746716774539081,1.0441718598053444,-0.3891995682884658,-1.4587712920625715,1.5320112216611623,1.1798354797724298,1.3527254517960074,0.0002537115543801839,0.001418144198026308,0.00047393909375850594,-0.0005776145811893905,-0.0007925677341147877,-0.001032883159648959,-0.0006790846004869402,0.6180303692817688,-50.57522964477539,-7.055253028869629,17.25623321533203,1.6304422616958618,-1.0782577991485596,0.03941498324275017,,,,,,,,,
1739303143.7674496,-0.07466508366805304,1.0441704277755377,-0.3891967918559032,-1.4587690668597193,1.5320121800292248,1.179835492852388,1.3527291933499834,0.0003568952235620661,-0.00019597812707836874,0.0014264466887531264,0.00038273016343146006,-0.0002967662334438567,-0.0009023710832534258,-0.001430789525118117,0.5426519513130188,-50.59903335571289,-7.079056739807129,17.25623321533203,1.6496683359146118,-1.0782577991485596,0.019273381680250168,,,,,,,,,
1739303143.7774544,-0.07466884822230166,1.0441686900066822,-0.38920073304294844,-1.4587699314851705,1.5320129781365728,1.1798363456678898,1.3527307481004298,-0.0005747971796374661,-0.001962179755692855,-0.00047933147930163684,0.000624127783314039,-0.0006977135177739347,0.0007241372088092187,0.0007439608087285756,0.5664556622505188,-50.57522964477539,-7.027482032775879,17.28003692626953,1.6432596445083618,-1.0855820178985596,0.0064559997990727425,,,,,,,,,
1739303143.7884822,-0.07466979507838828,1.0441669294212328,-0.3892007778573406,-1.4587726321708905,1.5320129805113898,1.1798395376640083,1.3527268089256792,-0.0005230368419029466,0.0006531117816855859,0.000745316877011556,-0.0012216715812631788,0.0003250600400857925,0.0012348994578470752,-0.0017129759731820105,0.6180303692817688,-50.57522964477539,-7.055253028869629,17.30384063720703,1.6432596445083618,-1.0855820178985596,0.03941498324275017,,,,,,,,,
1739303143.7995155,-0.07467063914274258,1.0441666270378502,-0.3891986532664194,-1.458771307628411,1.5320144934574278,1.1798347221283763,1.3527330843115148,-0.0001885987193894156,-0.0003123229683486467,0.00025457226322515484,-0.0005778336440587285,0.0006993408673168579,-0.0004897516833165769,0.001035542291905941,0.5902593731880188,-50.57522964477539,-7.055253028869629,17.30384063720703,1.6304422616958618,-1.0718491077423096,-0.013685601763427258,,,,,,,,,
1739303143.81147,-0.07467042742088248,1.0441682297085315,-0.38919936188742504,-1.4587708494915765,1.5320131994372952,1.1798358329831455,1.3527315703910598,-0.0001657038050191038,-0.0005469682589707382,0.0008008992913012776,0.00043234251250850477,-0.001956691647367401,0.0005344361086634359,6.873581810376648e-05,0.6180303692817688,-50.57522964477539,-7.055253028869629,17.28003692626953,1.6368509531021118,-1.0782577991485596,-0.0008682189509272575,,,,,,,,,
1739303143.8218882,-0.0746686785676421,1.0441646433114449,-0.3892024893716274,-1.4587706473828916,1.5320144934543867,1.1798354797724298,1.3527251829455385,0.0010289691144657292,-0.0007118888506969217,-0.0005428574251095696,0.000282993597227442,5.205323807677925e-06,8.637954984795011e-05,-0.0018026517444579137,0.5664556622505188,-50.54745864868164,-7.003678321838379,17.28003692626953,1.6304422616958618,-1.0782577991485596,0.05314789339900017,,,,,,,,,
1739303143.832489,-0.07466769320492932,1.0441666912834435,-0.38920073304383535,-1.458772689079142,1.5320149794329512,1.1798354799319413,1.352725940605609,-0.00019715410998326927,-0.0005524097064811567,-0.00026556016087062495,-0.0007658432953265252,-0.0003476180593608395,5.170684640071933e-06,-0.002056360137042691,0.5902593731880188,-50.57522964477539,-7.027482032775879,17.30384063720703,1.6231180429458618,-1.0782577991485596,0.04673920199275017,,,,,,,,,
1739303143.8434408,-0.07466778950617621,1.0441690502039451,-0.3892025157213006,-1.4587726322138643,1.5320137357230463,1.1798371033277466,1.352730456119276,-0.0003595873159202385,0.001592952354384095,-0.0008013416625757562,-0.0017523152742686713,0.00012095000055973822,-0.0002519221151564195,0.0001745088810284379,0.5902593731880188,-50.59903335571289,-7.003678321838379,17.30384063720703,1.6368509531021118,-1.0919907093048096,0.026597600430250168,,,,,,,,,
1739303143.8534586,-0.07466437193999229,1.0441666403806025,-0.389198653254426,-1.4587701607342702,1.5320149597724826,1.179835193060637,1.3527291195561413,0.0010138636753481366,-0.0005776230787647023,0.0003176793034975506,0.000704973139378859,0.0011331692341981147,-1.9410986486432884e-05,-0.0005064484243910968,0.5426519513130188,-50.57522964477539,-7.055253028869629,17.28003692626953,1.6304422616958618,-1.0718491077423096,0.04673920199275017,,,,,,,,,
1739303143.8634832,-0.07467434697401165,1.0441683272747395,-0.3891975821265911,-1.45877084676602,1.5320142109506203,1.1798365394165407,1.3527330841499963,-0.001226079851339877,-0.001141155291179483,-0.00019391922609105373,-0.0006092886682335838,-0.0001315175738120262,-0.0003543966929787683,0.0015507813159522424,0.6418340802192688,-50.59903335571289,-7.079056739807129,17.28003692626953,1.6368509531021118,-1.0782577991485596,-0.013685601763427258,,,,,,,,,
1739303143.8743963,-0.07466892707107659,1.0441675462800917,-0.3891985541081465,-1.4587708494990381,1.5320134066688411,1.1798396815714645,1.3527275641629188,0.0005405516885164571,-0.00027969880188780956,0.000353878993298532,0.0004988878625689945,-0.00012116034842395786,0.0010166214677344368,0.0002273566571699792,0.5664556622505188,-50.57522964477539,-7.055253028869629,17.28003692626953,1.6304422616958618,-1.0855820178985596,0.03300629183650017,,,,,,,,,
1739303143.8844874,-0.07467134944747189,1.0441684420317223,-0.3891950878987088,-1.4587708494990534,1.532012978118853,1.1798354798269295,1.3527315689375092,-0.0013779898090362202,0.0001925596686064594,0.0015248506138136866,4.996343445169758e-05,0.0004250981882505241,-0.0003126144728321632,0.002227406076162398,0.5902593731880188,-50.59903335571289,-7.102860450744629,17.28003692626953,1.6432596445083618,-1.0782577991485596,-0.0008682189509272575,725,751,743,41.826,0,0
1739303143.895408,-0.07466889199911675,1.0441694066608571,-0.3891968715494687,-1.4587726331935578,1.5320152895115573,1.1798339644502793,1.3527316864597385,-7.815221061658429e-05,-0.0002249511359965839,0.0017852573090421458,-0.0006590134295387283,0.000374073224897839,-0.0013569469048533554,0.00025891427302998676,0.5664556622505188,-50.57522964477539,-7.079056739807129,17.30384063720703,1.6231180429458618,-1.0654404163360596,-0.0008682189509272575,725,752,740,41.826,0,0
1739303143.9054291,-0.07466892707050002,1.0441684071053448,-0.3891986532544424,-1.4587690668220519,1.5320137357961532,1.1798347221103573,1.352728374152797,-0.00010686838046355455,0.0004965043875337965,0.0007955656679668696,0.0001557629379860076,-5.262644504597694e-05,-0.0008562223823982905,0.00015703772781923398,0.5664556622505188,-50.59903335571289,-7.055253028869629,17.25623321533203,1.6368509531021118,-1.0718491077423096,0.026597600430250168,725,750,741,41.934,0,0
1739303143.9154465,-0.07466842980480959,1.0441689455954233,-0.389201601517644,-1.4587693955424228,1.5320129736675907,1.1798387110126327,1.3527244252863382,-0.00019766453265714616,-0.00013965016773907673,7.430533477578358e-06,-0.0007359365346775147,-0.0003180045080240921,0.00013952527582768978,-0.001333897986143623,0.5902593731880188,-50.57522964477539,-7.055253028869629,17.25623321533203,1.6432596445083618,-1.0782577991485596,0.05955658480525017,725,751,742,41.934,0,0
1739303143.9255002,-0.07466900584637666,1.0441712474918863,-0.3891965278373855,-1.4587708495046203,1.5320111007739978,1.179836345883895,1.352730822231397,9.003067324507986e-05,0.0014081515251371,0.0011820281798721583,-2.6165810264939268e-05,-0.0007239174116378373,0.0004394078089513555,0.0005515226737783216,0.5664556622505188,-50.62680435180664,-7.055253028869629,17.28003692626953,1.6560770273208618,-1.0855820178985596,0.0064559997990727425,727,753,742,41.826,0,0
1739303143.93554,-0.07467060451717486,1.044170736864393,-0.389200970083342,-1.4587683780572507,1.5320128529804502,1.1798371047813,1.352730513662049,-0.0006399811586708503,0.001523948924478082,-0.0008511461982047991,0.001574760826663521,-0.00036429857604555434,0.001034283288484732,0.0009320544949082484,0.5902593731880188,-50.59903335571289,-7.027482032775879,17.25623321533203,1.6432596445083618,-1.0919907093048096,-0.0008682189509272575,728,751,741,41.934,1,0
1739303143.9464304,-0.07466721455016477,1.0441666265597758,-0.3892007331536265,-1.458772631227377,1.532014493456708,1.1798358329831538,1.3527307030343196,0.0006925937266408021,-0.0013206591986397007,-0.0005565111008864948,7.107230603468418e-05,-0.0002378816857672459,-0.00013400102590450664,-0.0002590486146733381,0.5426519513130188,-50.57522964477539,-7.027482032775879,17.30384063720703,1.6304422616958618,-1.0782577991485596,0.0064559997990727425,727,750,742,41.826,1,0
1739303143.956457,-0.07467063959182517,1.044163223007307,-0.38920073293627655,-1.45877265976121,1.5320129781372578,1.1798397183289346,1.3527326798102972,-0.0005442388781828709,0.00028889372626941107,-0.0004244762237107352,-0.00040599407822701223,2.0247723467313412e-05,-9.982356904513322e-05,-0.00010594412642688596,0.5902593731880188,-50.52365493774414,-7.027482032775879,17.30384063720703,1.6432596445083618,-1.0782577991485596,-0.0072769103571772575,726,750,742,41.826,0,0
1739303143.9665084,-0.07467071851279,1.044166933474089,-0.3891988894654238,-1.4587690667175233,1.5320161170147253,1.1798347221821377,1.3527349415987757,0.00030551653912537296,9.793922457648736e-05,-0.0006373029668391286,-0.0008131986248230854,0.0007327711540553971,0.0006873183617672892,0.0008493399891504262,0.5902593731880188,-50.57522964477539,-7.055253028869629,17.25623321533203,1.6167093515396118,-1.0718491077423096,0.0064559997990727425,726,750,742,41.826,1,0
1739303143.9773777,-0.07467063071501537,1.0441666274577877,-0.3891968443330737,-1.4587708495367375,1.5320161570516457,1.1798354797704362,1.35272362761238,-0.00046854548366527255,-0.0010211324849792494,0.0012486718672684951,0.0012339120282248489,0.000665468529078256,-0.0007319971619963921,-0.0023668419052030407,0.5902593731880188,-50.57522964477539,-7.079056739807129,17.28003692626953,1.6432596445083618,-1.0782577991485596,0.03941498324275017,727,750,742,41.826,1,0
1739303143.9874501,-0.07467062205368265,1.0441693221569865,-0.38919978819983847,-1.4587687794254713,1.532012978191093,1.179834082187849,1.3527283348511152,-0.00019007607114537395,0.0012905160847495431,-0.0005233565375590222,0.0003986642022592078,-0.0001637563654232063,-0.0007961215238637318,-7.049272904605645e-05,0.5902593731880188,-50.59903335571289,-7.027482032775879,17.28003692626953,1.6432596445083618,-1.0654404163360596,0.026597600430250168,727,749,741,41.826,0,0
1739303143.9974546,-0.07466850872547744,1.0441692800771898,-0.38920081176528043,-1.4587717137879703,1.5320129781372587,1.1798363456696621,1.352728390023342,0.00010149426602700992,0.00025895492961156615,-0.0003866257751230405,0.0002565925749845496,-0.0004056759786028774,-0.00027907596346610317,6.884230967692901e-05,0.5902593731880188,-50.59903335571289,-7.027482032775879,17.30384063720703,1.6432596445083618,-1.0855820178985596,-0.0008682189509272575,727,750,742,41.934,1,0
1739303144.007467,-0.0746706045880136,1.0441704106838983,-0.38919865325575914,-1.4587735446266865,1.5320146111949844,1.179836351481869,1.3527315695296964,-0.0009228066399035672,0.00024208709909516641,0.001270623296011698,-0.0007621190127264756,0.00024418019133863047,0.00031440816715616024,0.000882973935697032,0.5902593731880188,-50.62680435180664,-7.055253028869629,17.30384063720703,1.6304422616958618,-1.0855820178985596,-0.0008682189509272575,728,750,743,41.826,0,0
1739303144.01844,-0.07467263753248062,1.044165302249306,-0.3891962124074294,-1.4587687832098521,1.532013449088202,1.1798371164097312,1.3527307030941151,-0.0017611516433382601,-0.0009542747158849407,0.001108148046245024,0.0003576534322652145,0.0004633814789292883,0.00048100993615222124,0.00015435029186309027,0.6180303692817688,-50.52365493774414,-7.055253028869629,17.28003692626953,1.6432596445083618,-1.0919907093048096,0.0064559997990727425,729,750,741,41.826,2,0
1739303144.028486,-0.07466892707109397,1.0441699966968638,-0.3892007213382049,-1.4587708482043171,1.5320124595548443,1.179834722110579,1.352729147521695,0.0007659784697213687,0.0011228442801047359,7.661922848261458e-05,0.00041723034141551504,-0.0008896271669053713,-0.00160768438711337,0.0010722309621726527,0.5664556622505188,-50.57522964477539,-7.027482032775879,17.28003692626953,1.6432596445083618,-1.0718491077423096,-0.0072769103571772575,728,750,741,41.934,1,0
1739303144.0394619,-0.07466719116637319,1.0441673065150334,-0.38919860714508636,-1.4587708494990315,1.5320124755392521,1.1798354797704358,1.352732326382244,0.0006411648759791231,-0.00037343106358560436,-0.0003209532523426389,-3.7411001875938747e-06,-0.001335962495611027,-0.0004838737598158072,0.0005122618691524585,0.5426519513130188,-50.57522964477539,-7.027482032775879,17.28003692626953,1.6432596445083618,-1.0782577991485596,-0.0072769103571772575,728,751,741,41.826,0,0
1739303144.0504181,-0.07467056067081633,1.0441694068014824,-0.38919865325042574,-1.4587705857577449,1.532013682160386,1.1798347758917163,1.3527338296268554,-1.932161143730183e-05,0.00034944296203805647,0.0004077022247121736,0.0009801824585623327,-0.0006635785656209956,-0.0015647097408381374,-7.946625676966747e-05,0.5902593731880188,-50.57522964477539,-7.055253028869629,17.28003692626953,1.6368509531021118,-1.0718491077423096,0.0064559997990727425,728,750,743,41.826,1,0
1739303144.0604796,-0.07466892706975743,1.0441667285976917,-0.3891965273554289,-1.458769314066465,1.532014488986839,1.1798332072756281,1.352725183159985,0.000888380395913963,0.00036010442814676986,0.000950337206105799,0.00022054586059854105,0.0005600354314011674,-0.0017316515112924874,-0.001659630041262434,0.5664556622505188,-50.57522964477539,-7.055253028869629,17.25623321533203,1.6304422616958618,-1.0590317249298096,0.05314789339900017,726,749,741,41.934,1,0
1739303144.07145,-0.07466721455036276,1.0441683283247345,-0.38920073299627855,-1.4587690668234303,1.5320122203116109,1.1798363853980443,1.3527275249170643,0.00112081764621239,-0.0013335486312758588,3.335502678184795e-05,0.0004787335976989158,0.0005491559965513431,-9.224872013751875e-06,-0.0020026997199300046,0.5426519513130188,-50.59903335571289,-7.027482032775879,17.25623321533203,1.6496683359146118,-1.0855820178985596,0.03300629183650017,729,752,742,41.826,0,0
1739303144.081474,-0.07466756134941871,1.0441693708625146,-0.3892007591819405,-1.4587708494990537,1.5320143548977343,1.1798354797711086,1.3527323265969229,0.0008212126310398385,-0.0020815574724329013,1.7882872429147062e-05,-7.935686273008086e-05,0.001315896739167638,-8.689225539217042e-05,0.0005025336187177307,0.5902593731880188,-50.57522964477539,-7.027482032775879,17.28003692626953,1.6304422616958618,-1.0782577991485596,-0.0072769103571772575,727,751,742,41.826,1,0
1739303144.0915353,-0.07467063953969486,1.0441676794009362,-0.3891940360458536,-1.4587708769711532,1.532014493455068,1.1798371033277464,1.3527330857112163,3.2014429910515955e-07,-0.0013685467628542247,0.0015461969091795564,-0.0002948033973886067,-0.00048344155012826654,2.3981281930738832e-05,0.0007606480268592416,0.5902593731880188,-50.54745864868164,-7.079056739807129,17.28003692626953,1.6304422616958618,-1.0919907093048096,-0.013685601763427258,727,750,742,41.826,1,0
1739303144.1024475,-0.07466969221546914,1.0441656376771895,-0.38920073302828057,-1.45877084939423,1.5320137353007062,1.1798354797704358,1.3527323664894748,0.0012180676958180564,0.00028443161520589407,-0.0011585726110085238,0.00028168585484567867,0.0003807572692849646,-0.0004953078447801215,0.0009893828850593431,0.5902593731880188,-50.54745864868164,-7.027482032775879,17.28003692626953,1.6368509531021118,-1.0782577991485596,-0.0072769103571772575,728,750,743,42.043,1,0
1739303144.1124594,-0.07467063567844966,1.0441676311863592,-0.3892007369325282,-1.4587709065185979,1.5320082308542586,1.1798363456676682,1.3527315747523858,5.28616024738968e-05,-0.0001997756060708963,8.359530079356996e-05,-0.0010500375173564595,-0.0017285207206516834,-3.361113503935733e-05,-0.00030895893822514934,0.5902593731880188,-50.54745864868164,-7.027482032775879,17.28003692626953,1.6432596445083618,-1.0855820178985596,-0.0008682189509272575,728,752,740,41.934,1,0
1739303144.1234848,-0.07467063962788947,1.0441667213713033,-0.3892028589433005,-1.4587726321763945,1.532012647434212,1.1798371033815815,1.352729187720263,-0.0014581140742684151,-0.0007169256788544781,0.0005393206583852981,-0.0004999688403590792,-0.0007394253235821016,0.0005287813516971141,0.0002600933441689144,0.5902593731880188,-50.54745864868164,-7.027482032775879,17.30384063720703,1.6368509531021118,-1.0919907093048096,0.019273381680250168,728,750,740,41.934,1,0
1739303144.1343813,-0.07467263460968013,1.044169701580819,-0.38920251586530974,-1.4587712920621063,1.532014495813115,1.179836345667669,1.3527347470609434,-0.001524804231090306,0.0015202692341559235,-0.0007537089915572929,-0.0006003462716298648,0.0013053521512714982,0.0002210120772722464,0.0026772635102689317,0.6180303692817688,-50.57522964477539,-7.003678321838379,17.25623321533203,1.6304422616958618,-1.0855820178985596,-0.027418512850999832,727,751,741,41.826,1,0
1739303144.144399,-0.07466426524466016,1.0441696111760037,-0.38919865325442676,-1.458767000540244,1.5320137357973493,1.1798363456676682,1.3527317259211573,0.0013004037802224924,0.0001397385026839514,0.0008102824896796908,0.0008253128003960678,-0.00028205292965139783,-4.753389569229443e-05,0.001175613860131769,0.5426519513130188,-50.57522964477539,-7.055253028869629,17.25623321533203,1.6368509531021118,-1.0855820178985596,-0.0008682189509272575,728,752,740,41.717,1,0
1739303144.155404,-0.0746726336186977,1.0441693264078242,-0.38920046855930346,-1.4587726307646933,1.5320144934574145,1.1798371033277464,1.3527236676258194,-0.0010412609097892479,0.0004822884805981717,-0.00034349224182136153,-0.00021962439847726849,0.0005111389528617314,9.759102714204597e-05,-0.0016158128022447976,0.6180303692817688,-50.59903335571289,-7.003678321838379,17.30384063720703,1.6304422616958618,-1.0919907093048096,0.06596527993679047,728,750,741,41.826,0,0
1739303144.1654963,-0.07466827098848074,1.0441674181719414,-0.3891986531117502,-1.4587690668220108,1.5320137353007062,1.1798354797704358,1.3527330842576661,0.0006592475361296045,-5.169758854805075e-05,0.0002800169896346946,0.0011572241321674399,0.0003204852316609653,-0.0006235862839530275,0.0007649907149382434,0.5902593731880188,-50.57522964477539,-7.055253028869629,17.25623321533203,1.6368509531021118,-1.0782577991485596,-0.013685601763427258,728,754,739,41.826,1,0
1739303144.1764145,-0.07467466471347864,1.0441648580581455,-0.38919865325442515,-1.4587690542245992,1.5320093912810027,1.1798327588114161,1.352733859521963,-0.00153606328691051,-0.002257033032124684,0.0007370833830100713,8.505846162315615e-05,-0.0013320792279892905,-0.0007635504464586045,0.0014855423127694283,0.6418340802192688,-50.54745864868164,-7.055253028869629,17.25623321533203,1.6368509531021118,-1.0919907093048096,-0.020094294100999832,727,751,742,41.826,1,0
1739303144.1865177,-0.07467261014842662,1.0441686448387435,-0.389196870577407,-1.4587726207331888,1.5320093912074308,1.179836345755599,1.3527348647988116,-0.0005580871787034782,-0.00021902926907071743,0.0015243084949519213,-0.001065843339903631,-0.0009489202499760064,-2.609857215600647e-05,0.0018732631035268212,0.6180303692817688,-50.59903335571289,-7.079056739807129,17.30384063720703,1.6368509531021118,-1.0855820178985596,-0.027418512850999832,728,750,741,41.934,1,0
1739303144.1974535,-0.07466798001936129,1.0441683399085264,-0.3892007330442816,-1.458772632176008,1.5320138535103807,1.1798363456676686,1.3527236676258194,0.0016710285345833385,0.0005340797930187026,-7.804609653946784e-05,-0.0002283601509438946,0.0004268851240631934,0.0007649807545520716,-0.0018825903460446768,0.5664556622505188,-50.59903335571289,-7.027482032775879,17.30384063720703,1.6368509531021118,-1.0855820178985596,0.06596527993679047,727,753,740,41.934,0,0
1739303144.2074614,-0.07467063957578676,1.0441705079955772,-0.3892007330442816,-1.458773785109614,1.5320135748913173,1.1798347221103573,1.352728321822998,-0.001086509135437367,0.0003054657898174084,-0.0006174749251815976,-0.0007252831259978723,0.0007423567586505495,-0.0005177225618715046,0.0009508254446341773,0.5902593731880188,-50.59903335571289,-7.027482032775879,17.33161163330078,1.6368509531021118,-1.0718491077423096,0.026597600430250168,729,752,738,41.826,1,0
1739303144.2184045,-0.07466721444210347,1.0441670246498562,-0.38919899356021875,-1.458776937200768,1.5320120875574896,1.1798371033277464,1.352728319884931,0.0015836056020028725,-0.0005559238283668679,0.0005721461798959533,-0.0022894544119962516,-0.00019601910823197175,0.0002592373738750884,0.00013687955413433124,0.5426519513130188,-50.54745864868164,-7.079056739807129,17.33161163330078,1.6231180429458618,-1.0919907093048096,0.026597600430250168,728,751,741,41.826,2,0
1739303144.2284455,-0.07466505737732194,1.0441677134081142,-0.3892025157572535,-1.4587708495367382,1.5320115325231423,1.1798371033277464,1.352726793420856,0.0009199486241125885,0.00103833412901834,-0.0008447665833421907,-3.140427184191756e-05,-0.0012339341383115945,-4.989140301569448e-05,-0.002163720567769634,0.5426519513130188,-50.54745864868164,-7.003678321838379,17.28003692626953,1.6368509531021118,-1.0919907093048096,0.03941498324275017,728,753,742,41.826,1,0
1739303144.2384925,-0.07466924271842142,1.044169399469125,-0.3891968793259631,-1.4587690613712219,1.5320144934201017,1.1798363456676682,1.3527220083915716,-0.0008326584151413833,-0.00013008605916868575,0.00031863273649750763,0.0003909786100140246,0.0011876061230105914,-6.681887425532141e-05,-0.002869698480690982,0.5664556622505188,-50.57522964477539,-7.079056739807129,17.25623321533203,1.6304422616958618,-1.0855820178985596,0.05314789339900017,728,751,738,41.934,0,0
1739303144.2484949,-0.07467063959717067,1.0441653408974838,-0.3892063782963302,-1.458767330192786,1.532013407162788,1.1798363456676682,1.3527326285218773,-0.00012123613117465847,-0.0012234745037601501,-0.0025488276441603874,-0.00039784940493454665,-0.0006129809077988831,5.089685311022627e-05,0.0026206559176929736,0.5902593731880188,-50.54745864868164,-6.952103614807129,17.25623321533203,1.6304422616958618,-1.0855820178985596,-0.0008682189509272575,728,749,738,41.934,1,0
1739303144.2595317,-0.07467263749659184,1.044169246051353,-0.38919865325442654,-1.4587736915638523,1.5320129736614585,1.1798354804164581,1.3527285880768152,-0.0013312834563679668,0.00026058337391144846,-0.00029445801738870635,-0.0005052889734475846,-2.4663348260842762e-05,-4.539181032270466e-05,0.00017275860995231138,0.6180303692817688,-50.59903335571289,-7.055253028869629,17.33161163330078,1.6432596445083618,-1.0782577991485596,0.0064559997990727425,729,752,741,41.826,1,0
1739303144.2705715,-0.0746692159471135,1.0441694494966764,-0.38920096925528125,-1.458770849832455,1.5320129781372325,1.1798354797704393,1.3527259412935273,0.0007609588390348192,0.0002004893096788682,-0.001122886601198954,-0.00022476386595836432,0.000381224265310634,9.603348457993937e-05,-0.0009649279386865716,0.5902593731880188,-50.57522964477539,-7.027482032775879,17.28003692626953,1.6432596445083618,-1.0782577991485596,0.04673920199275017,729,750,739,41.934,0,0
1739303144.2814233,-0.07467263447731076,1.0441639364898756,-0.3891989682064258,-1.4587726352285337,1.5320123377181194,1.1798371033277464,1.352728481779339,-0.0008583843788143978,-0.0006500642639204694,-0.0007386371891434866,-0.00014270526095765373,-0.0009613177277556311,0.00047865233876461205,0.0003160227681296388,0.6180303692817688,-50.52365493774414,-7.055253028869629,17.30384063720703,1.6496683359146118,-1.0919907093048096,0.019273381680250168,728,754,740,41.934,1,0
1739303144.29248,-0.07466722916533901,1.0441676906977801,-0.3892007340181212,-1.4587744568678773,1.532016117015387,1.179837142573603,1.3527349808346658,0.0010248465670483799,-0.0009258624484905715,-0.00020606691272096226,-0.0006303527694635319,0.0018254542869630967,-0.0005784316801328651,0.0011502235236850865,0.5426519513130188,-50.54745864868164,-7.027482032775879,17.33161163330078,1.6167093515396118,-1.0919907093048096,0.0064559997990727425,730,750,739,41.934,1,0
1739303144.3033934,-0.07466892707112147,1.0441710836106337,-0.3892028320733911,-1.4587690584690243,1.5320132530732993,1.179834722110431,1.3527299473263148,0.000695854048863463,0.0012033807158993463,-0.0008415245756129352,0.0003625609235092575,-0.00036525223779501165,-0.00034223855263781574,0.0004521150486029691,0.5664556622505188,-50.59903335571289,-7.003678321838379,17.25623321533203,1.6368509531021118,-1.0718491077423096,0.012864691205322742,730,750,739,41.934,1,0
1739303144.3134453,-0.07467238462204777,1.0441669295261824,-0.38919936048869325,-1.458770849498912,1.5320137356236176,1.1798363456676682,1.3527278661410034,-0.0006851905264933925,0.0012454171319077967,0.00034971359985809416,-0.0001102781070076702,-0.000323626805025889,0.000258173498579448,-0.00017646352972760067,0.5902593731880188,-50.57522964477539,-7.055253028869629,17.28003692626953,1.6368509531021118,-1.0855820178985596,0.03941498324275017,730,752,738,41.826,1,0
1739303144.3235316,-0.07466679623459549,1.0441656401497261,-0.38920286035934476,-1.4587690668220346,1.532013735797333,1.1798371033277464,1.3527302473763045,0.0006287030468340196,-0.00020905752636511752,-0.0003453720087364202,0.0002262839253868293,-0.00032260649801504356,3.397409772220325e-05,0.00025444260815697976,0.5664556622505188,-50.54745864868164,-7.027482032775879,17.25623321533203,1.6368509531021118,-1.0919907093048096,0.019273381680250168,728,751,739,41.934,1,0
1739303144.3344557,-0.0746705372748421,1.0441632458282393,-0.38919888947743436,-1.4587724025878113,1.5320104780561106,1.1798354797704358,1.3527231037117338,0.0006107669044362446,-0.00199596977096469,-0.0003397939865005462,0.0004610265957094151,-7.09817584808108e-05,-0.00021492409084357864,-0.0021604160682306066,0.5902593731880188,-50.52365493774414,-7.055253028869629,17.30384063720703,1.6368509531021118,-1.0782577991485596,0.07969819009304047,727,751,739,42.043,1,0
1739303144.3444593,-0.07467064792605167,1.04416702744276,-0.3891971067924071,-1.4587701607303813,1.5320129780820877,1.1798354797704358,1.3527303000644038,-0.00040499053891112925,-0.00124246746427145,0.0004822281347314877,1.9812060948523293e-05,-0.0006677125520066663,0.0001054488909202672,0.00016009706753864188,0.5902593731880188,-50.54745864868164,-7.079056739807129,17.28003692626953,1.6432596445083618,-1.0782577991485596,0.012864691205322742,729,751,739,41.826,1,0
1739303144.3554187,-0.07466865523226211,1.0441710522407646,-0.3891986532557594,-1.4587669976893713,1.5320137311069444,1.1798354797704358,1.35273005875912,0.0003074370210488312,0.00039740265615047297,0.0003845799798444607,0.0009401039116984616,-0.00021991816920053533,-0.0002325315857781812,-0.0006386538768618068,0.5664556622505188,-50.62680435180664,-7.055253028869629,17.25623321533203,1.6368509531021118,-1.0782577991485596,0.012864691205322742,729,751,739,41.826,1,0
1739303144.3663688,-0.07466892706955942,1.0441659923474411,-0.389198653254426,-1.4587708494523803,1.5320129781372311,1.1798363456676682,1.3527248282799103,0.00014906027789372432,-0.0005691541094458418,-1.757956655516372e-05,-0.0005770131644982465,-6.906523807253531e-05,0.0002668514803844639,-0.001627585620599187,0.5664556622505188,-50.52365493774414,-7.055253028869629,17.28003692626953,1.6432596445083618,-1.0855820178985596,0.05314789339900017,727,753,739,41.826,0,0
1739303144.3764231,-0.07467064056615803,1.0441693966345575,-0.3891986531464191,-1.4587727139867248,1.532013735797336,1.1798353590894266,1.352729984620049,-0.000836075821754538,-0.00039166933829577495,-0.00012928035388560716,-0.000793700360255227,-0.0001563990135012041,-0.00022028105339050248,-0.00020840748890857294,0.5902593731880188,-50.57522964477539,-7.055253028869629,17.30384063720703,1.6368509531021118,-1.0782577991485596,0.012864691205322742,729,754,739,41.826,1,0
1739303144.3864408,-0.07466892717936968,1.0441669581857806,-0.3891986531464173,-1.4587726318625223,1.5320164575398076,1.1798347221083136,1.3527315689381738,0.0006890674806072686,-0.0005572159394498742,-0.0003704182203510541,9.33133801734289e-05,0.0007182499144489165,-0.0005482355122917306,0.00020988397142899726,0.5664556622505188,-50.57522964477539,-7.055253028869629,17.30384063720703,1.6496683359146118,-1.0718491077423096,-0.0008682189509272575,728,754,739,41.934,1,0
1739303144.3984077,-0.07466892707109458,1.044163899281373,-0.3891986532544254,-1.4587726283968403,1.5320144938003064,1.1798363456676682,1.3527315689375095,0.0011989536871304328,-0.0013766527986022695,-1.3196383423720495e-06,-0.0003121538964264823,0.00010627203263464962,2.4876315213060484e-05,-0.0005784024201244714,0.5664556622505188,-50.52365493774414,-7.055253028869629,17.30384063720703,1.6304422616958618,-1.0855820178985596,-0.0008682189509272575,726,753,739,41.826,1,0
1739303144.408441,-0.0746710579371447,1.0441713927272172,-0.389198653254426,-1.4587708494990321,1.5320137357973378,1.1798363456676682,1.352728321822998,-0.00013684242550148255,0.0011593908988896345,0.0006438167388578319,0.0003586398701014625,-0.00011864838121212775,0.00014026843876403957,-0.0010396635276024896,0.5664556622505188,-50.59903335571289,-7.055253028869629,17.28003692626953,1.6368509531021118,-1.0855820178985596,0.026597600430250168,728,752,739,41.826,1,0
