IITGN-Robotics/Franka_IITGN_ROBOTICS/franka_ros/franka_iitgn/data01/s_b_015.csv
time,fr3_joint1_pos,fr3_joint2_pos,fr3_joint3_pos,fr3_joint4_pos,fr3_joint5_pos,fr3_joint6_pos,fr3_joint7_pos,fr3_joint1_vel,fr3_joint2_vel,fr3_joint3_vel,fr3_joint4_vel,fr3_joint5_vel,fr3_joint6_vel,fr3_joint7_vel,fr3_joint1_eff,fr3_joint2_eff,fr3_joint3_eff,fr3_joint4_eff,fr3_joint5_eff,fr3_joint6_eff,fr3_joint7_eff,flexpin1,flexpin2,flexpin3,Force,ContactMic,ContactMic_gt
1739303584.7124093,-0.06645628500132034,1.0416341244636618,-0.39782325168137617,-1.470116876711065,1.545006629112527,1.178426011340647,1.346879275850165,-0.0005265883857614326,-0.00012946702462822635,-0.00042530321823998097,-0.0009309262048858495,0.0007720942160985873,-0.0006096218450116017,0.0005273909355565943,1.689197301864624,-49.80557632446289,-6.341141700744629,16.56592559814453,1.4921976327896118,-1.3611557483673096,0.03300629183650017,,,,,,,,,
1739303584.7225084,-0.06645218961040444,1.041632719314999,-0.39782325168137633,-1.4701144790297707,1.5450045620665613,1.1784265532384666,1.3468819631829423,0.0005143421551531481,0.00020979565196487145,-0.00033289996240756727,0.0008887396030947761,-0.0003483223619467397,0.000542377862163677,0.0006758534420674759,1.637622594833374,-49.78177261352539,-6.341141700744629,16.53815460205078,1.5059305429458618,-1.3748886585235596,0.019273381680250168,,,,,,,,,
1739303584.7335045,-0.06645394838955214,1.041632707037705,-0.3978250343583954,-1.4701204416272438,1.5450048634030433,1.178426015804183,1.3468832165679712,-0.00013546488526320458,-0.0002305464388664761,-0.0008356605844176512,-0.0013972219594930375,-0.0006110588401550959,-0.00014610284657156267,-0.0007070525163113189,1.665393590927124,-49.78177261352539,-6.317337989807129,16.61353302001953,1.5123392343521118,-1.3611557483673096,0.026597600430250168,,,,,,,,,
1739303584.7435048,-0.0664546599626878,1.041635987845779,-0.39782325168137633,-1.4701189425693448,1.5450048693685698,1.1784227567608936,1.3468832790017964,0.00021626019480873313,0.001127718872163616,7.4330310961813e-05,-0.0005216986382943306,-0.00018036531693926515,-0.0011139372188185242,6.612793575081573e-05,1.665393590927124,-49.83334732055664,-6.341141700744629,16.56592559814453,1.5123392343521118,-1.3611557483673096,-0.0008682189509272575,,,,,,,,,
1739303584.7554886,-0.06645589618789031,1.0416344346419086,-0.39782041812144203,-1.470112299000115,1.5450059443699589,1.1784276393492275,1.3468868665252274,-0.0007850969683286505,0.00020110096291822412,0.0012143081810491129,0.0018802681891270836,-0.0007811294757091186,0.00011916248209528448,0.0015961967728987303,1.689197301864624,-49.80557632446289,-6.341141700744629,16.51435089111328,1.5123392343521118,-1.3748886585235596,-0.0008682189509272575,,,,,,,,,
1739303584.7674236,-0.06645481323913044,1.0416300583579432,-0.3978250343410628,-1.4701147969198636,1.5450072452744692,1.1784283970277034,1.34687765209423,-0.0003369045877411167,-3.23515883412596e-05,-0.0010352229899563393,0.0014057571366428733,0.0009181790447112983,0.0012046029931186933,-0.0011712588023691669,1.665393590927124,-49.75796890258789,-6.317337989807129,16.53815460205078,1.4921976327896118,-1.3812973499298096,0.04673920199275017,,,,,,,,,
1739303584.7774944,-0.06645076068467952,1.0416310067941195,-0.39782046325852166,-1.470114090168741,1.5450058951814665,1.1784227574230666,1.3468750921312702,0.0018887395612215017,-0.00016938132736166373,0.0009909361915003082,0.0016690519026200997,-0.00016533527429319172,-0.0005448798909678203,-0.0030277435662753897,1.637622594833374,-49.75796890258789,-6.368912696838379,16.53815460205078,1.4995218515396118,-1.3611557483673096,0.05955658480525017,,,,,,,,,
1739303584.7884831,-0.06645445652960627,1.041634434784375,-0.3978250301341272,-1.4701165136089032,1.5450063682715707,1.1784260157551332,1.346878755296483,0.00047544958931592806,0.0014181501656063498,-0.001908872849805105,-0.0006173652639988825,9.428998372107119e-05,-0.0003838305257408718,-0.0009075959316954898,1.689197301864624,-49.80557632446289,-6.317337989807129,16.58972930908203,1.4995218515396118,-1.3611557483673096,0.04673920199275017,,,,,,,,,
1739303584.7995386,-0.06645486086744609,1.0416323655465891,-0.39782301547036875,-1.4701168767070276,1.5450048640550262,1.1784267734703924,1.3468800861013275,0.00014485116271438197,0.0006491912042028623,0.0007149005052411196,-3.946749191886509e-05,0.0003341100394982027,-0.00017831487880185017,-0.0003001401391479417,1.665393590927124,-49.80557632446289,-6.341141700744629,16.56592559814453,1.5123392343521118,-1.3675644397735596,0.026597600430250168,,,,,,,,,
1739303584.8114326,-0.0664627978394125,1.041645345049591,-0.39785460967293346,-1.4700976853459324,1.5450061958097323,1.1784238548237116,1.3468776535233853,-0.001073178822529195,0.0020290372249192664,-0.0039853656003723545,0.002561529778616314,-0.0005804078936920707,0.0018726332319767601,-0.0016681576955843308,0.9909551739692688,-49.96030044555664,-6.848954200744629,16.68891143798828,1.5379739999771118,-1.3025619983673096,0.04673920199275017,,,,,,,,,
1739303584.8214703,-0.06648518865638516,1.0416465063419422,-0.3978740617183577,-1.470061647791731,1.5450021976837007,1.1784157107161988,1.3468797368325238,-0.0018842998742587696,2.8710100986050327e-05,-0.0018068808451176812,0.0034844884777561667,0.0007914118070998379,0.0005540013890056317,-0.00152651812071422,0.7172124981880188,-50.01187515258789,-7.102860450744629,16.71271514892578,1.5379739999771118,-1.2366440296173096,0.06596527993679047,,,,,,,,,
1739303584.833465,-0.06649668930365353,1.0416492736704013,-0.39788519857134946,-1.4700349004431004,1.545005634839618,1.178411295745122,1.3468824054023822,0.00011904968997991498,-0.0011446064136649177,-0.0015503966210371326,0.000738668583783744,0.00207033352281127,0.0002476445201233474,0.002436150802662805,0.5188482403755188,-50.01187515258789,-7.130631446838379,16.73651885986328,1.5379739999771118,-1.2366440296173096,0.04673920199275017,,,,,,,,,
1739303584.8444457,-0.06650984877989924,1.0416437546616248,-0.39788712696176187,-1.4700188120951907,1.5449998336303885,1.1784096720000536,1.3468826246872825,0.0008098268460203609,-0.0001391559012850562,0.0006473701838795248,0.0008602561504619135,-0.0014374241739583242,0.0002890518777353327,0.0005592465724869097,0.4910772144794464,-49.93649673461914,-7.182206153869629,16.73651885986328,1.5581156015396118,-1.2229111194610596,0.03300629183650017,,,,,,,,,
1739303584.8545425,-0.06651855747217461,1.0416539735762502,-0.39788622014504843,-1.470011432874854,1.5450017851688813,1.1784112955573636,1.3468850109033075,-0.0007386205863163294,0.0002599090242148964,-0.0002477272113974383,-0.00015194272122846168,0.00012935673014235295,0.0007894872031255344,0.001939571371922644,0.5188482403755188,-50.08725357055664,-7.206009864807129,16.73651885986328,1.5517069101333618,-1.2366440296173096,0.012864691205322742,,,,,,,,,
1739303584.8654838,-0.066517494379543,1.0416641950023877,-0.39787743139447607,-1.4700156193635747,1.5450010257976086,1.1784128108775203,1.3468859148500831,0.00010589998311042061,0.002001283751183366,0.001410093969560427,0.0007951506049269391,0.0002530673809425656,0.00014476627734742102,-4.251248844810385e-05,0.4910772144794464,-50.21817398071289,-7.281388282775879,16.83570098876953,1.5452982187271118,-1.2494614124298096,0.012864691205322742,,,,,,,,,
1739303584.8755054,-0.06652724602721478,1.0416567747508574,-0.3978839297145584,-1.4700170037727,1.545000613783873,1.178412053217442,1.3468805624513251,-0.0007206180446389157,-4.2798981048393434e-05,-0.0012445567949546993,0.0011100375872763995,0.00048714103440129243,-2.381939341107246e-05,-0.0003038957222821422,0.5426519513130188,-50.11502456665039,-7.229813575744629,16.81189727783203,1.5517069101333618,-1.2430527210235596,0.026597600430250168,,,,,,,,,
1739303584.8864322,-0.06652588888608787,1.041655138468242,-0.39788135145235515,-1.4700082710151026,1.5450010211557859,1.1784073990198178,1.3468864114099686,-0.0008448252728568101,-0.0006199822803639585,0.00039623233130857926,0.0009092753080111211,-0.0011743745016346311,-0.0008631381703580137,0.00346400961590247,0.5188482403755188,-50.06344985961914,-7.257584571838379,16.73651885986328,1.5452982187271118,-1.2036850452423096,0.012864691205322742,,,,,,,,,
1739303584.8964822,-0.06652389094598996,1.0416546028427658,-0.39788395193979825,-1.4700081822231386,1.545002751474677,1.1784066413597394,1.346888669799141,-0.00010877795560067062,0.0009619159436050388,-0.0006034319954865025,0.0009006885210249276,-0.00021039960798449145,0.0002863486271603898,0.002548135322139416,0.4910772144794464,-50.11502456665039,-7.182206153869629,16.73651885986328,1.5581156015396118,-1.1972763538360596,-0.0072769103571772575,,,,,,,,,
1739303584.907468,-0.06652581857349397,1.0416547231251172,-0.3978813317022178,-1.4700120633302916,1.5450057282653666,1.1784073990198178,1.3468823811929487,-7.460491872881956e-06,4.187197183745965e-05,-6.464372470453637e-05,-0.0012941001033327543,0.0021061669005128943,1.9411004987335707e-05,0.0003914954717932446,0.5188482403755188,-50.08725357055664,-7.229813575744629,16.78809356689453,1.5452982187271118,-1.2036850452423096,0.04673920199275017,,,,,,,,,
1739303584.9175436,-0.06652595950063504,1.0416560058108137,-0.3978831143952427,-1.4700098920533338,1.5450007507140056,1.178410537731742,1.3468834936035354,1.1202238031458156e-05,-0.0015715512146190673,-0.00010605167634671888,-0.0010037636564198772,0.00033374101607591005,0.0010498186291612735,0.0015822301383690283,0.4910772144794464,-50.11502456665039,-7.206009864807129,16.78809356689453,1.5517069101333618,-1.2302353382110596,0.0064559997990727425,,,,,,,,,
1739303584.9284844,-0.06652291967853304,1.0416566946065529,-0.3978835625998873,-1.4700098545619942,1.5449998283697806,1.1784120532174411,1.346881151918056,0.0011131352727232699,0.0008014428263507015,-0.0012490665548272808,0.0013269740107754726,-0.001317988048006077,0.00012579128641110782,-0.0004716171506857905,0.4672735035419464,-50.11502456665039,-7.229813575744629,16.76032257080078,1.5581156015396118,-1.2430527210235596,0.05314789339900017,,,,,,,,,
1739303584.938547,-0.06652629438116324,1.0416528601044939,-0.397880988534026,-1.4700110782574212,1.5450002120158555,1.178412053217442,1.3468848016498567,0.0009848302874306148,-0.0007744665916926054,-0.0008897627342805571,5.021544611943677e-05,-1.3500619150499075e-05,6.108992865358243e-06,-7.563953868410303e-05,0.4910772144794464,-50.06344985961914,-7.206009864807129,16.78809356689453,1.5517069101333618,-1.2430527210235596,0.026597600430250168,,,,,,,,,
1739303584.9494677,-0.06652530208797071,1.0416554116096894,-0.39788531610305394,-1.4700080631703698,1.5450053122545684,1.1784073990198178,1.346884799989617,0.000806510696526971,0.0007199682424265804,-0.00210769402576981,-0.0002608150055141478,0.0009260527179258875,-0.0010916500639734249,9.462418227915094e-06,0.4672735035419464,-50.08725357055664,-7.206009864807129,16.73651885986328,1.5452982187271118,-1.2036850452423096,0.026597600430250168,,,,,,,,,
1739303584.961514,-0.06652685603497811,1.041653928217649,-0.3978828782326741,-1.4700117637528693,1.545003564261682,1.178408116452893,1.346887182391261,-0.0007646665054118669,-0.00023938175161441325,-0.0007399839745108818,-0.0007862662023160418,-1.750821467960185e-06,-0.0006689141035148797,0.0006901430319361016,0.4910772144794464,-50.11502456665039,-7.206009864807129,16.78809356689453,1.5581156015396118,-1.2100937366485596,0.0064559997990727425,,,,,,,,,
1739303584.9724376,-0.06652903966922918,1.041654654766844,-0.397882802362984,-1.4700116933284886,1.5450050550025896,1.1784073990197421,1.3468816627810398,-0.00019664780061624657,-0.0005746962300454568,0.00034166018226656537,-0.0003738782101365754,0.002232395671844587,0.00031571453481163316,-0.001351965871185118,0.5188482403755188,-50.11502456665039,-7.206009864807129,16.78809356689453,1.5517069101333618,-1.2036850452423096,0.05314789339900017,,,,,,,,,
1739303584.9825585,-0.06652699926614776,1.0416566945758963,-0.39788133171293943,-1.470012705516157,1.5450010232220772,1.178408116452893,1.3468880466734472,0.0005656160823196397,-0.00023658726723570643,-0.0005158627303418544,-0.0017355391806237147,0.0005557297324313212,-0.000229300437167009,0.0014286969936220279,0.4910772144794464,-50.11502456665039,-7.229813575744629,16.83570098876953,1.5452982187271118,-1.2100937366485596,-0.0008682189509272575,,,,,,,,,
1739303584.9925811,-0.06652746687777393,1.0416546979777828,-0.39787924026362737,-1.4700105962921757,1.5450017853332145,1.1784089143392933,1.3468864252156734,0.00024310254972450824,-0.0009019102056448544,0.0004956346879608602,-0.00023944479965653902,0.00017977086304952464,0.00019552665716623293,0.0008824800947371308,0.4672735035419464,-50.08725357055664,-7.257584571838379,16.81189727783203,1.5517069101333618,-1.2165024280548096,0.012864691205322742,,,,,,,,,
1739303585.0034978,-0.06652772423459098,1.0416545946303684,-0.3978821695511783,-1.4700074575788733,1.5450027165530422,1.1784096720000528,1.3468848002587932,-0.0005122702746227887,-0.00016741947613573005,-1.3922519797511762e-05,-0.0004936332466448862,-0.0009665015839420206,0.0004934732195628829,0.0011285683549776277,0.4910772144794464,-50.08725357055664,-7.206009864807129,16.76032257080078,1.5581156015396118,-1.2229111194610596,0.026597600430250168,,,,,,,,,
1739303585.0145023,-0.06653146982833617,1.0416604050714497,-0.3978767593169341,-1.4700141701481344,1.5450028374643097,1.1784096720000528,1.3468860207684423,-0.001656558617849762,0.0013336312682463833,0.0013222846173053674,-0.001850714156455186,9.922620483497933e-05,0.00020455497630345138,0.0005057027429592451,0.5426519513130188,-50.16659927368164,-7.281388282775879,16.85950469970703,1.5581156015396118,-1.2229111194610596,0.019273381680250168,,,,,,,,,
1739303585.025489,-0.0665291415009701,1.0416568434179465,-0.39788133170620094,-1.4700061327163236,1.5450044064041917,1.178408156679896,1.3468880487790014,0.0008805077499497708,0.0006754842898485338,0.00023055600095774485,0.0014883114344451005,0.00019987766835699496,-0.0008973396616491667,0.000747063882568535,0.4910772144794464,-50.08725357055664,-7.229813575744629,16.76032257080078,1.5452982187271118,-1.2100937366485596,-0.0008682189509272575,,,,,,,,,
1739303585.0364866,-0.06652701571338511,1.0416566692258031,-0.39788481801124137,-1.4700066535464555,1.5450028775322067,1.178406413612805,1.3468840440522651,0.001701128108563365,0.0004910085014388514,-0.0012997539262385022,0.000854119582689341,-0.0006085160878981883,4.427024470619206e-05,-0.0009895445117600091,0.4910772144794464,-50.11502456665039,-7.182206153869629,16.76032257080078,1.5581156015396118,-1.2229111194610596,0.03300629183650017,,,,,,,,,
1739303585.0474393,-0.06653359979159189,1.0416584336219825,-0.3978767593578238,-1.4700100150195494,1.545005808241387,1.1784081566615023,1.3468864252157091,-0.0011959761762447316,0.0010211366749332703,0.0018079763658833425,-0.0005427293403824031,0.0030359507770848955,7.151857783623294e-05,0.0011898138710100383,0.5426519513130188,-50.13882827758789,-7.281388282775879,16.83570098876953,1.5452982187271118,-1.2100937366485596,0.012864691205322742,,,,,,,,,
1739303585.0574462,-0.06652804937168748,1.041650987516648,-0.397884885395499,-1.4700067422830063,1.5450013563262166,1.1784089123534556,1.346888504455047,0.0009121430810099546,-0.0013810562695332099,-0.00214321462775034,0.0007806349897907381,-0.00017733625799665865,-0.00064101670431856,0.0013635632135914591,0.4910772144794464,-50.03567886352539,-7.182206153869629,16.76032257080078,1.5517069101333618,-1.2165024280548096,-0.013685601763427258,,,,,,,,,
1739303585.0674717,-0.0665280667296319,1.0416529841488793,-0.39788067354804846,-1.4700046759238523,1.5450002678794683,1.178407399019784,1.3468880881624368,0.0006845037293571495,-0.0012968641112831877,-0.0004647495289993106,0.0006459342688821803,-0.0005087179829877452,-0.0008188174005859781,0.000977386877910354,0.4910772144794464,-50.06344985961914,-7.206009864807129,16.76032257080078,1.5645242929458618,-1.2036850452423096,-0.0008682189509272575,,,,,,,,,
1739303585.077561,-0.06652985899573675,1.0416600763879764,-0.39788062304388877,-1.4700081166337717,1.5450039511608955,1.1784092163180253,1.3468825235272253,0.0007317162080650539,0.0001563386347417313,-0.0010692963076866008,-0.00024269235883475778,0.0006548259262566453,0.000533741870657663,-0.00012719907442344195,0.4910772144794464,-50.16659927368164,-7.229813575744629,16.78809356689453,1.5517069101333618,-1.2100937366485596,0.019273381680250168,,,,,,,,,
1739303585.0885024,-0.06653391489965099,1.0416586107875363,-0.3978809880602179,-1.4700078952177498,1.5449999758868582,1.1784112955633452,1.3468855993377589,-0.0005482333150641661,0.0009446339045368355,-0.000846717280372786,0.00012045653504820766,5.213687445439051e-05,0.0005347533237669646,0.00041145985184169503,0.5426519513130188,-50.11502456665039,-7.206009864807129,16.78809356689453,1.5581156015396118,-1.2366440296173096,0.04673920199275017,,,,,,,,,
1739303585.098543,-0.06652849191714147,1.0416569321166633,-0.39788311144304794,-1.4700067529685672,1.5450024765465955,1.1784096720000528,1.3468848432028138,0.0011399452167140296,0.0003920602477392352,-0.0009104891749600302,0.0007342181959951778,0.0012777682246141518,-0.0004574403449674043,0.0005551727978316607,0.4672735035419464,-50.11502456665039,-7.206009864807129,16.78809356689453,1.5645242929458618,-1.2229111194610596,0.05314789339900017,,,,,,,,,
1739303585.1095731,-0.06653220238086982,1.041656694611782,-0.3978792490121663,-1.47000851552877,1.545003917416034,1.178408552296947,1.3468855993734608,-0.0006642555223796969,-0.0001216161813081109,0.00015805062738166167,0.0003158277313112559,0.0001161377292791546,-0.000300876514457202,0.000632547944985737,0.5188482403755188,-50.11502456665039,-7.257584571838379,16.78809356689453,1.5581156015396118,-1.2165024280548096,0.04673920199275017,,,,,,,,,
1739303585.1204412,-0.06653020454613191,1.0416546966695883,-0.3978763905026479,-1.4700067155519028,1.5449992177342369,1.178407358790771,1.3468926013641704,0.0005664815031337175,0.0006019111598079349,0.0004907681005645453,0.00024080225673288344,0.00033653055791607513,-0.000508946360027902,0.003715136232308302,0.4910772144794464,-50.08725357055664,-7.257584571838379,16.76032257080078,1.5645242929458618,-1.2036850452423096,-0.0008682189509272575,,,,,,,,,
1739303585.1314857,-0.06653228130183528,1.0416526300603002,-0.39788098455584375,-1.47000573161204,1.544999512292488,1.1784105378970582,1.3468880487987192,-0.0011168042138442425,0.00034586348322526787,-0.0004231562842571115,-0.00012412065826735395,-0.0027302656304017464,0.0009893027161261242,0.00099869210389417,0.5188482403755188,-50.08725357055664,-7.206009864807129,16.78809356689453,1.5581156015396118,-1.2302353382110596,-0.0008682189509272575,,,,,,,,,
1739303585.1415546,-0.06653219849395946,1.0416604050370275,-0.39787909691224427,-1.4700036773147973,1.545001081309215,1.1784112821483625,1.3468848016585087,-9.21501554713098e-05,0.0011300427356258388,-0.00057362102632202,0.0022370815196572423,0.0003276470414533043,-0.0007462029558327836,-0.0003350737788289724,0.5188482403755188,-50.16659927368164,-7.229813575744629,16.76032257080078,1.5581156015396118,-1.2366440296173096,0.026597600430250168,,,,,,,,,
1739303585.152466,-0.06653221114984398,1.0416591312172272,-0.39787746790664896,-1.470006742270889,1.5450024490667482,1.1784076739557836,1.346880944366819,-0.0012204291491449614,0.0011532199608179164,0.0007697957383824949,0.0005986526788616443,-0.0010257384666961045,-0.0009586879570844151,-2.2061465560987525e-05,0.5188482403755188,-50.13882827758789,-7.281388282775879,16.76032257080078,1.5645242929458618,-1.2100937366485596,0.05955658480525017,,,,,,,,,
1739303585.1624982,-0.06653251806487769,1.0416566946227037,-0.3978813021481402,-1.470006740958461,1.5450010278388178,1.1784064091349629,1.3468856675564052,0.00022344078877643803,-0.000424845524723955,-0.0004118028262754999,-0.0002510472886474614,-0.0003262697119417146,-0.0003535010668676242,-0.00016567887699609754,0.5188482403755188,-50.11502456665039,-7.206009864807129,16.76032257080078,1.5452982187271118,-1.2229111194610596,0.019273381680250168,,,,,,,,,
1739303585.1725826,-0.06653391620605768,1.0416546966695883,-0.3978803081065346,-1.470006424867787,1.5450010768395517,1.1784081566246392,1.3468801474604437,-0.0007799994290880224,-0.0005478444703542848,0.00011632942321738657,0.0011260407401189878,0.0003162020057213826,0.00013170997448615684,-0.00032598618017599533,0.5426519513130188,-50.08725357055664,-7.229813575744629,16.76032257080078,1.5581156015396118,-1.2100937366485596,0.06596527993679047,,,,,,,,,
1739303585.184511,-0.06653021320687615,1.0416584070961796,-0.39788465988342214,-1.470010502749039,1.5450038018546863,1.178407556003244,1.3468809051209625,0.0005127168502145264,0.0013448372629691419,-0.0010673763998553967,-0.001454387318192851,0.000576899294310052,0.0007413814433375723,-0.0005526793245224254,0.4910772144794464,-50.13882827758789,-7.182206153869629,16.81189727783203,1.5581156015396118,-1.2036850452423096,0.05955658480525017,,,,,,,,,
1739303585.1945357,-0.06653000330290691,1.041651021529275,-0.39788240576090483,-1.4700065249701064,1.5450006985655698,1.1784096720009387,1.3468856675557406,0.0006565943319329113,-0.0004564639760634092,-0.0006787650573059731,1.2324934915596952e-05,-0.0004909895270402983,0.00039266527098267206,0.0006105203063883841,0.4910772144794464,-50.03567886352539,-7.206009864807129,16.78809356689453,1.5517069101333618,-1.2229111194610596,0.019273381680250168,,,,,,,,,
1739303585.205519,-0.06653023009644148,1.0416581775431106,-0.39788133074216175,-1.4700067422752237,1.5450013898210209,1.1784089143399745,1.3468824204411192,0.00028984916811410533,-3.634664653866617e-05,-0.0008596543045815694,-0.00031224250848481183,0.0005216538303240186,-0.00025998088081581985,8.62557543641943e-05,0.4910772144794464,-50.13882827758789,-7.229813575744629,16.76032257080078,1.5452982187271118,-1.2165024280548096,0.04673920199275017,,,,,,,,,
1739303585.21647,-0.06653029212797847,1.0416547319895633,-0.39787920578321895,-1.4700067423231835,1.544999592304476,1.1784137164765491,1.3468816627810407,0.0008988564118279682,-0.0008740861191053089,-0.0001771243933643653,0.0005462992357547329,-2.3238483289631957e-05,0.00048128958163429236,-0.0005078805235450745,0.4910772144794464,-50.08725357055664,-7.229813575744629,16.76032257080078,1.5581156015396118,-1.2302353382110596,0.05314789339900017,,,,,,,,,
1739303585.2264943,-0.06653023074931609,1.0416566832745437,-0.39788300930456755,-1.4700078242211154,1.5450003707725535,1.1784089145014631,1.3468816627810407,0.0008735376784926941,0.0005498256816462118,-0.0002694443324375665,0.0008616903256674805,9.261849655593381e-05,-0.0010137974348893393,0.00032441420282299026,0.4910772144794464,-50.11502456665039,-7.206009864807129,16.81189727783203,1.5517069101333618,-1.2165024280548096,0.05314789339900017,,,,,,,,,
1739303585.2365155,-0.06653488815230907,1.04165469696158,-0.3978792519277749,-1.4700019746681348,1.5450003506252517,1.1784096720000536,1.346885667717246,-0.0006989476074135108,-0.0008949322846851811,0.0008695565236739881,0.002071553177827724,0.0006361984122645074,-0.00042480615142173784,0.0010186504319838596,0.5426519513130188,-50.08725357055664,-7.257584571838379,16.73651885986328,1.5517069101333618,-1.2229111194610596,0.019273381680250168,,,,,,,,,
1739303585.247535,-0.06653118181851196,1.0416566861071772,-0.39787925192836815,-1.470008504012165,1.545004212560634,1.1784089143399745,1.3468888463086257,-0.0013240761219382156,0.00026100706852927877,-0.0007809207462089335,-0.0004709507541968513,0.0007717147944985979,4.393470743740899e-05,0.0003790326991875495,0.4910772144794464,-50.11502456665039,-7.257584571838379,16.81189727783203,1.5581156015396118,-1.2165024280548096,0.019273381680250168,,,,,,,,,
1739303585.2584958,-0.06653103016880074,1.0416584071311565,-0.39788133073416126,-1.470004570696321,1.5450053299214574,1.1784073990198178,1.3468834800852298,0.0006216786263148217,-0.000507538336363326,-0.0008464472704370956,0.0013661091120502472,0.0014633119064157989,-0.0002834713256283249,-1.555178844669488e-05,0.4910772144794464,-50.13882827758789,-7.229813575744629,16.76032257080078,1.5452982187271118,-1.2036850452423096,0.04673920199275017,,,,,,,,,
1739303585.2694309,-0.06653164876039644,1.0416553437171814,-0.3978812954279137,-1.4700058336741522,1.5450013518543786,1.1784073990198178,1.3468896041360785,-7.503589307115619e-05,-0.0006939273049683279,-0.000900840679706218,0.00018453839905467723,-0.00020163009678831695,-0.000454658779373431,0.0009325046324841732,0.4672735035419464,-50.11502456665039,-7.229813575744629,16.78809356689453,1.5517069101333618,-1.2036850452423096,0.012864691205322742,,,,,,,,,
1739303585.2794387,-0.06653028319653759,1.0416508765184993,-0.39788062016842496,-1.4700085155248337,1.5450006255557946,1.1784097243278615,1.3468904186939756,0.0007965821364022697,-0.0010697369305213802,2.6796861293616335e-05,-0.0006706188010547371,-0.0001883181887544093,0.0010611030242393211,0.0028625159845529144,0.4910772144794464,-50.06344985961914,-7.229813575744629,16.78809356689453,1.5517069101333618,-1.2229111194610596,0.0064559997990727425,,,,,,,,,
1739303585.2895594,-0.06653402889988402,1.0416559291755652,-0.3978773875861139,-1.4700104942423702,1.545002286366855,1.1784096720009387,1.3468857840560646,0.00018772375598622142,0.0004208155236424018,0.0009306002088106626,-0.0014494307312776082,-0.002034702850415165,0.000279238539317369,0.0005796074427205029,0.5426519513130188,-50.11502456665039,-7.281388282775879,16.81189727783203,1.5709329843521118,-1.2229111194610596,0.019273381680250168,,,,,,,,,
1739303585.3004436,-0.06653313620621014,1.0416546966652673,-0.3978812938073554,-1.4700037462324915,1.5450047160236728,1.1784104172162762,1.346886020769108,-0.00013579917142988215,0.00019049684332259428,-0.0010115076653711055,0.00014219768184604197,-0.0007701114131168714,0.00028492193672503005,-0.0005667795434971147,0.4910772144794464,-50.08725357055664,-7.229813575744629,16.76032257080078,1.5517069101333618,-1.2302353382110596,0.019273381680250168,,,,,,,,,
1739303585.3105764,-0.06653052147049235,1.0416566691006344,-0.39788133160957484,-1.4700057604655679,1.5450047347266351,1.1784089143379308,1.3468882825569288,0.0005897340137373168,9.301887797292274e-05,-0.0007972563322104482,0.0006438098902661728,0.0012331350106591077,-0.00016060148935133223,0.0012821374009896202,0.4910772144794464,-50.11502456665039,-7.229813575744629,16.78809356689453,1.5517069101333618,-1.2165024280548096,0.03300629183650017,,,,,,,,,
1739303585.3215365,-0.06653531938186348,1.0416546928902137,-0.3978812441246608,-1.4700087197415932,1.5450017049589893,1.1784096720000528,1.3468816686191685,-0.0025337077836130803,-0.000906298009061582,-0.0011307812439187083,-0.0006940645906590641,8.284281353259878e-05,0.0005984058008340558,-0.0003687053942987065,0.5188482403755188,-50.08725357055664,-7.229813575744629,16.78809356689453,1.5517069101333618,-1.2229111194610596,0.05314789339900017,,,,,,,,,
1739303585.3324723,-0.06653435957150439,1.0416543650420784,-0.3978848928594999,-1.4700043402716056,1.5450027707404033,1.1784128509144407,1.3468888064331308,0.00043391133084388683,-0.0011397965081489947,-0.000540132731647248,-6.529518656498706e-05,-2.1025954321062396e-05,0.0014372048939628444,0.0013954298356977598,0.5188482403755188,-50.08725357055664,-7.182206153869629,16.76032257080078,1.5581156015396118,-1.2229111194610596,-0.0072769103571772575,,,,,,,,,
1739303585.3435044,-0.0665310229257719,1.0416583387758014,-0.3978831114790338,-1.4700105924590063,1.5450010563651924,1.1784096720179977,1.346881062104389,0.00033640052961609614,5.910293296478746e-05,-0.0011098901445934497,-0.0010853859894363364,-0.00016770343165600467,0.0007336434787455675,-0.0018779547788716545,0.4910772144794464,-50.16659927368164,-7.206009864807129,16.81189727783203,1.5645242929458618,-1.2229111194610596,0.05955658480525017,,,,,,,,,
1739303585.3536472,-0.066532344114503,1.0416566945054626,-0.39787711306839996,-1.470007821386066,1.5450047221577805,1.1784056559527276,1.3468864271617513,5.70156346269356e-05,0.0005164028779798418,0.00015681797779674734,-0.00031453807589253233,0.00039521527662114155,-0.0007752169288291086,0.00011988990689487353,0.4910772144794464,-50.11502456665039,-7.257584571838379,16.81189727783203,1.5452982187271118,-1.2165024280548096,0.012864691205322742,,,,,,,,,
1739303585.3644295,-0.06653426678414946,1.0416592842760684,-0.39788133157018996,-1.470004596508115,1.5450017807225198,1.1784073990136865,1.3468899063236022,-0.0005410243735094616,0.0010513609525196477,-0.001139956487330344,-0.00048574563279093574,-0.0006989828402596896,-0.0003752924920742333,0.0019937865951355697,0.5426519513130188,-50.13882827758789,-7.229813575744629,16.76032257080078,1.5517069101333618,-1.2036850452423096,0.019273381680250168,,,,,,,,,
1739303585.3744917,-0.06653444822416182,1.0416546629984158,-0.39787735552012454,-1.4700057236324686,1.5450017832068121,1.1784073990198176,1.3468793594975903,0.0002175547564397314,-0.000248203410880515,0.00112961996646723,-0.0002490619989093175,-0.00022684016225906888,-0.0007968856101005451,-0.0011478826535731468,0.5188482403755188,-50.08725357055664,-7.281388282775879,16.78809356689453,1.5517069101333618,-1.2036850452423096,0.04673920199275017,,,,,,,,,
1739303585.3855839,-0.06653711022097884,1.0416547761422579,-0.3978794764739851,-1.470007517631035,1.5450046945977445,1.1784096720000528,1.346880905049848,0.0003466422107837186,0.00039952880097254796,0.00033767306942057213,0.00027731434941100563,0.0001832383368570744,0.000228874267545988,-0.0009958113595263391,0.5426519513130188,-50.08725357055664,-7.257584571838379,16.81189727783203,1.5517069101333618,-1.2229111194610596,0.05955658480525017,,,,,,,,,
1739303585.3964462,-0.06653168789143442,1.0416546966700369,-0.39787923929283325,-1.4700077927801563,1.5450043262013984,1.1784087936037841,1.3468792817247164,0.00015948918452157783,-0.0004379047455754236,0.0002989785834136548,-0.00042644175223963723,0.0007290292203668573,-0.000408129087966545,-0.0009007775465123771,0.4672735035419464,-50.08725357055664,-7.257584571838379,16.78809356689453,1.5581156015396118,-1.2165024280548096,0.07328949868679047,,,,,,,,,
1739303585.406493,-0.06652953071839544,1.0416529802646477,-0.39788132296945417,-1.470006666569421,1.545003461271356,1.1784090320754996,1.346883325584211,0.0005178364294109205,-0.0006314468625974172,0.0004003741572221434,-0.00028118312766385606,0.0022089977521580926,0.000512201584875652,-0.001914131278843796,0.4672735035419464,-50.06344985961914,-7.229813575744629,16.78809356689453,1.5645242929458618,-1.2165024280548096,0.03941498324275017,,,,,,,,,
1739303585.418455,-0.06653539866776677,1.0416576928565597,-0.39787893698031923,-1.4700060544442997,1.545003971026346,1.178408914340639,1.3468871828760087,-0.0002601545504168943,0.00012647010030352888,0.0013055380578133077,-0.0005993143873440777,0.001493406327183653,7.341876382404142e-05,0.0003395014996118237,0.5188482403755188,-50.13882827758789,-7.257584571838379,16.78809356689453,1.5517069101333618,-1.2165024280548096,0.0064559997990727425,,,,,,,,,
1739303585.430455,-0.0665334354881555,1.0416546966682443,-0.3978791703563822,-1.4700075053491544,1.5450006657098176,1.1784096720000528,1.3468865429532788,0.000998711860193961,-0.0005943309857275351,0.0010002377756776742,-0.0009985931632038969,-0.0008124778807329403,0.0004667332510539068,0.0006712654832120203,0.4910772144794464,-50.08725357055664,-7.229813575744629,16.81189727783203,1.5581156015396118,-1.2229111194610596,0.012864691205322742,,,,,,,,,
1739303585.4404602,-0.06653995235560757,1.0416566946104413,-0.3978792509081032,-1.470006423870513,1.545004339536752,1.1784089143399745,1.3468864643007246,-0.0016159774831887093,0.00045320818409165433,-0.0002266693778244437,-0.00028954326224824847,0.001705240974331577,-0.000280851442419547,0.0005403182320362451,0.5426519513130188,-50.11502456665039,-7.257584571838379,16.76032257080078,1.5581156015396118,-1.2165024280548096,0.012864691205322742,,,,,,,,,
1739303585.4505138,-0.06653537242107284,1.0416612426443148,-0.3978782609752108,-1.470003872517013,1.545000712529414,1.1784073990198178,1.3468885195624556,-0.0007453437149916065,0.0010756856950300052,-0.00023515653160051628,0.0002532127976190861,-0.00011657225160626084,0.0008519638326129858,0.0016303270901541825,0.5188482403755188,-50.13882827758789,-7.229813575744629,16.76032257080078,1.5517069101333618,-1.2036850452423096,-0.0008682189509272575,,,,,,,,,
1739303585.4605355,-0.06653342704349237,1.0416549616271402,-0.3978813198934728,-1.470003642990523,1.5450007126207024,1.178408156679896,1.3468864237701315,0.0005573389258589584,-2.9463961958883073e-05,-0.0009186712176174407,0.0008090444533754824,0.0007363086785832397,-0.00016548196273221468,-0.00013489989246629944,0.4910772144794464,-50.08725357055664,-7.229813575744629,16.76032257080078,1.5517069101333618,-1.2100937366485596,0.012864691205322742,,,,,,,,,
1739303585.4705567,-0.06653337410562836,1.0416512511220235,-0.39787618010510367,-1.4700059635974663,1.5450003901425067,1.178403450120538,1.3468871828757627,0.000718392596706644,-0.0010367112466555606,0.0010879149887380287,-0.00018220677680389917,0.0011904163786001089,-0.0036855240357301067,0.0008030685678478082,0.4910772144794464,-50.03567886352539,-7.257584571838379,16.78809356689453,1.5517069101333618,-1.2100937366485596,0.0064559997990727425,,,,,,,,,
1739303585.48155,-0.06653340052028002,1.0416566946119366,-0.3978770122808086,-1.470005799164607,1.5450034743707879,1.1784089143134058,1.3468856670712237,-1.4953468015949458e-05,-0.0002081257386983625,0.001293135907716957,-0.0005222650330976664,-2.1008865042422716e-07,6.014978802917641e-05,0.0012652300703424432,0.4910772144794464,-50.11502456665039,-7.257584571838379,16.78809356689453,1.5517069101333618,-1.2165024280548096,0.019273381680250168,,,,,,,,,
1739303585.492442,-0.06653542498693296,1.0416563884927594,-0.39788240445351863,-1.4700075053489619,1.5450024512832232,1.1784089143399743,1.3468820980550478,0.00012217700419358516,-5.124900723637183e-05,-0.001608312685723083,-0.0015622699303609296,0.0016783471524126031,-0.00044469163683529635,0.0018358178589629559,0.5188482403755188,-50.11502456665039,-7.206009864807129,16.81189727783203,1.5645242929458618,-1.2165024280548096,0.026597600430250168,,,,,,,,,
1739303585.5025833,-0.06653266414172243,1.041654693829981,-0.39788240283403564,-1.4700092880255493,1.5450017853958922,1.1784105378972853,1.3468856676714605,0.0011338036223332362,-0.00029114318607125476,-0.0016698175116381696,-0.0012714251694739755,0.0005557966051471046,0.0007247983090102675,0.0012157213314749414,0.4910772144794464,-50.08725357055664,-7.206009864807129,16.83570098876953,1.5517069101333618,-1.2302353382110596,0.019273381680250168,,,,,,,,,
1739303585.5134919,-0.06653340072447447,1.0416546711597332,-0.397882401537926,-1.4700042326166705,1.5450027663993406,1.178408156679896,1.3468880487730215,0.0004745114082344152,0.00021422265814727653,-0.00029534965548226166,-0.0005119965132240216,0.00023945257507968317,-0.0006614417555733415,0.0007391402300673426,0.4910772144794464,-50.08725357055664,-7.206009864807129,16.73651885986328,1.5581156015396118,-1.2100937366485596,-0.0008682189509272575,,,,,,,,,
1739303585.5244358,-0.06653540062861163,1.0416584067111139,-0.3978792519243441,-1.4700037418818197,1.5450015767499103,1.1784064804517271,1.3468821860591291,0.0005325848848360601,-0.0002376133135646614,0.00024891678244499363,0.00038488755653593815,-0.001028970102201419,-0.00100529287882658,-0.0001684631598086678,0.5188482403755188,-50.13882827758789,-7.257584571838379,16.76032257080078,1.5709329843521118,-1.1972763538360596,0.05314789339900017,,,,,,,,,
1739303585.5344834,-0.06653145145333406,1.0416583378328634,-0.39787675626207347,-1.4700044421894947,1.544998426298682,1.1784081566789877,1.3468880489913144,0.0016948144277943436,0.001035499062633351,0.0013728460970546688,0.0005445293572597417,-0.0020689782420354585,5.810943047806226e-05,0.001510753328286889,0.4672735035419464,-50.16659927368164,-7.281388282775879,16.76032257080078,1.5709329843521118,-1.2100937366485596,-0.0008682189509272575,,,,,,,,,
1739303585.5445414,-0.06653359852251774,1.041658406991185,-0.3978810945230878,-1.4700075053620665,1.5450050390925973,1.1784096720000528,1.3468824727689317,0.0005051223963147482,-0.00013240359924442823,-0.0012830634654728943,-0.0007285075095169428,0.001204350169734507,0.00042189349803215654,0.0004541218643379659,0.4910772144794464,-50.13882827758789,-7.229813575744629,16.81189727783203,1.5517069101333618,-1.2229111194610596,0.04673920199275017,,,,,,,,,
1739303585.5555122,-0.06653340073806528,1.0416546966695874,-0.3978830880402303,-1.4700033956327587,1.5449996315630972,1.178408156679896,1.3468848016588035,0.00047199664698118794,-0.00036036907582571293,-0.001181692685496489,0.00016865519472918195,-0.0001525708168839492,-0.0009233724737232052,0.0010576245831566671,0.4910772144794464,-50.08725357055664,-7.206009864807129,16.76032257080078,1.5581156015396118,-1.2100937366485596,0.026597600430250168,,,,,,,,,
1739303585.5665257,-0.06653711098415868,1.0416529840438784,-0.3978791267220552,-1.4700057227051084,1.5450021203449056,1.178408156679896,1.3468824329847193,-0.0008828230576729319,-0.001540758855983249,0.0002609709993027654,-0.0005465965725831095,0.0001393895999755539,-8.749099746205692e-05,-0.0020957661399152996,0.5426519513130188,-50.06344985961914,-7.229813575744629,16.78809356689453,1.5645242929458618,-1.2100937366485596,0.04673920199275017,,,,,,,,,
1739303585.577425,-0.06653823994293818,1.0416547054999055,-0.3978813315977696,-1.4700036428816556,1.5449994721370515,1.1784088741129715,1.3468866898861511,-0.0026144087870195736,-0.0008401182695438933,-0.0011201137073391986,-0.0005463426518558641,-0.0011596110614919197,-0.00048795620700841757,0.00012049452885652299,0.5188482403755188,-50.08725357055664,-7.229813575744629,16.76032257080078,1.5581156015396118,-1.2165024280548096,0.019273381680250168,,,,,,,,,
1739303585.5874996,-0.06653542633416175,1.0416566946105907,-0.39787891073469994,-1.470003595477146,1.544999561518711,1.1784096675297044,1.3468871959750526,-0.0013848863772022105,0.00031777883622695856,0.0007647352390649665,0.0009235016302668349,-0.00036983207340372733,0.00027570718382120477,0.00034844116213699584,0.5188482403755188,-50.11502456665039,-7.257584571838379,16.73651885986328,1.5709329843521118,-1.2229111194610596,0.0064559997990727425,,,,,,,,,
1739303585.5975032,-0.0665378715373126,1.0416563408368202,-0.3978782283415915,-1.4700039490287242,1.5450061979893077,1.1784066411941203,1.3468867170775543,-0.0012610450243357024,0.0005418652613080869,0.00048213203671020505,-0.0007578790109220513,0.0016189758088814275,-0.0009426161184717298,-0.00014087777159750646,0.5188482403755188,-50.13882827758789,-7.257584571838379,16.76032257080078,1.5379739999771118,-1.1972763538360596,0.03300629183650017,,,,,,,,,
1739303585.6084337,-0.06653151833974673,1.0416565792437351,-0.39788109452938414,-1.470001860661272,1.5450021332257216,1.1784063128907343,1.346884801727433,0.0004719237639835393,0.0011244262006638302,-0.0006242350175875777,0.0011362985844191856,-0.0002945945145430624,-0.0007117573930115928,0.0006508265363501302,0.4910772144794464,-50.13882827758789,-7.229813575744629,16.73651885986328,1.5645242929458618,-1.2036850452423096,0.026597600430250168,,,,,,,,,
1739303585.6185033,-0.06653340070507022,1.0416613587153867,-0.39788132879802174,-1.470001860204644,1.5450049358435725,1.1784089143215808,1.3468871843293384,0.0008494384281452197,0.0022157727599418724,0.0002578041638240273,0.0008661567400388056,0.0005669604404453698,0.0002641445276951313,0.0008507448245789904,0.4910772144794464,-50.16659927368164,-7.229813575744629,16.73651885986328,1.5517069101333618,-1.2165024280548096,0.0064559997990727425,,,,,,,,,
1739303585.63054,-0.0665354337559301,1.0416566946158246,-0.39788141013118655,-1.4700094893665547,1.5450013718153706,1.1784052402736949,1.3468851038519083,-0.0010939483733747697,0.00020568407390196927,0.0002255472294457583,-0.001007299973967684,-0.00014399296052720922,-0.001094753059805576,-0.0015412042193909145,0.5188482403755188,-50.11502456665039,-7.229813575744629,16.81189727783203,1.5709329843521118,-1.2165024280548096,0.03300629183650017,,,,,,,,,
1739303585.6415372,-0.06653340106192442,1.041656773768365,-0.39787901571781115,-1.4700037194572686,1.5450038376774227,1.1784073989438963,1.34688718288177,0.00016017811897389809,0.0006426077159914108,3.5189735431744994e-05,-0.0006548138889742873,0.0007927431253908561,-0.0005283473641423017,0.0013984947422578846,0.4910772144794464,-50.11502456665039,-7.257584571838379,16.76032257080078,1.5581156015396118,-1.2036850452423096,0.0064559997990727425,,,,,,,,,
1739303585.6524324,-0.06653556083298709,1.041654696669737,-0.3978813229692237,-1.4700070727291237,1.5450039664460542,1.1784081566798958,1.3468819778948793,-1.1417142806956476e-06,-0.0006494492999003486,0.00013790427020840302,1.2187903467485107e-05,-0.0009830345699499818,-0.00027335425323341174,-0.00029195257593994987,0.4910772144794464,-50.08725357055664,-7.229813575744629,16.78809356689453,1.5517069101333618,-1.2100937366485596,0.05955658480525017,,,,,,,,,
1739303585.6625,-0.06653126990747947,1.04165701250188,-0.39788067225201573,-1.4700053056411286,1.5450020112593468,1.1784070705508134,1.3468837973432788,-0.0004914140458545219,0.0008045943783159527,0.0004280177098245297,-0.0001456974422617128,-0.00043490023097950776,-0.0009629089134737126,-0.0013991968838978673,0.4910772144794464,-50.11502456665039,-7.206009864807129,16.81189727783203,1.5645242929458618,-1.2100937366485596,0.06596527993679047,,,,,,,,,
1739303585.6734812,-0.06653168863722583,1.0416546966713829,-0.39787825221288653,-1.470001860192219,1.5450030771711913,1.1784073990136865,1.3468843860335646,0.0007795146251063248,-0.0008299415174562951,0.000281859941283511,0.0007874018288483678,-0.00018679250971148886,-0.000245533192705176,-0.00019671234538400637,0.4672735035419464,-50.08725357055664,-7.229813575744629,16.73651885986328,1.5581156015396118,-1.2036850452423096,0.06596527993679047,,,,,,,,,
1739303585.6835191,-0.06653553203604347,1.0416586534352616,-0.3978810954550724,-1.4700036428816552,1.5450049209478371,1.1784077946368683,1.3468833264466122,-7.785282579540732e-05,0.0015226826086242084,0.00021061725388764172,0.00012276039130841498,0.0010486251943676234,-0.0007239240988730571,1.9905178060541863e-05,0.4910772144794464,-50.13882827758789,-7.229813575744629,16.76032257080078,1.5517069101333618,-1.2100937366485596,0.06596527993679047,,,,,,,,,
1739303585.6935272,-0.06653168922664422,1.0416581775470823,-0.3978848970682607,-1.4700057230914256,1.5449999796978342,1.1784089143338432,1.3468832849386376,0.000696346985164416,0.0005046557040495523,-0.0012124603850985384,-0.000267014877581803,-0.0016973835024311167,4.711826877787785e-05,0.00038215970094863033,0.4672735035419464,-50.13882827758789,-7.182206153869629,16.78809356689453,1.5581156015396118,-1.2165024280548096,0.03941498324275017,,,,,,,,,
1739303585.7035391,-0.06653539867996301,1.0416540167312338,-0.39788133171822365,-1.4700071567145108,1.5450030777683934,1.1784081566798958,1.3468848016584845,-0.0007953378117561896,8.455486118439499e-05,0.0001366300708669294,-0.0010762294834451799,-0.0005884907971886247,-0.0004404860066137995,-0.0010000607414168469,0.5188482403755188,-50.08725357055664,-7.229813575744629,16.81189727783203,1.5581156015396118,-1.2100937366485596,0.026597600430250168,,,,,,,,,
1739303585.7144723,-0.06653610896862948,1.0416611203239248,-0.39788098752418405,-1.4700036438244952,1.5450028915989824,1.178408155190007,1.3468835872232525,-0.00043944794593513885,0.0036520574340225837,0.00011916975980543886,0.0005903084380673473,-0.00019959740378702165,-0.00044516274808043346,-6.273986530573261e-05,0.5188482403755188,-50.16659927368164,-7.206009864807129,16.76032257080078,1.5581156015396118,-1.2100937366485596,0.03941498324275017,,,,,,,,,
1739303585.724478,-0.06652994063153081,1.0416525198448527,-0.39788129657997595,-1.4700050149379125,1.5450035806037241,1.1784081566798708,1.3468824248068654,0.0021044716337484896,-0.0026118108824527693,2.31768426393326e-05,0.0001534194324254089,0.0007189641631657189,-0.0001598334333105735,-0.000589461255519482,0.4434697926044464,-50.08725357055664,-7.229813575744629,16.78809356689453,1.5645242929458618,-1.2100937366485596,0.04673920199275017,,,,,,,,,
1739303585.735428,-0.0665373745951396,1.04165669456316,-0.39787640475937136,-1.469998893213879,1.5449996153401822,1.1784073990198178,1.3468848016585326,-0.00034353325812749055,-0.0006822775301655755,0.0007303369271397432,0.0026334019878145863,0.00010782546087793372,1.6174260291928404e-05,0.00035377608998548725,0.5426519513130188,-50.11502456665039,-7.257584571838379,16.73651885986328,1.5581156015396118,-1.2036850452423096,0.026597600430250168,,,,,,,,,
1739303585.7454925,-0.06653168822067819,1.0416546965646087,-0.39787746823107034,-1.4700036428314092,1.5450049571431765,1.1784038121635656,1.3468781823731184,0.000662693580307288,0.00033844987612906865,-0.0007886241295703655,4.210508995071305e-05,0.0017883750367336543,-0.0013066752987589715,-0.0029269127475748903,0.4672735035419464,-50.08725357055664,-7.281388282775879,16.76032257080078,1.5517069101333618,-1.2100937366485596,0.04673920199275017,,,,,,,,,
1739303585.7555099,-0.06653192497911219,1.041660188238666,-0.3978800174065632,-1.4700056951994107,1.5450041604925309,1.1784105378237104,1.3468864818323962,0.0008045271947266042,0.001055812308884659,0.0007091763477313287,-9.663320362727926e-05,0.0012971103419123664,0.0005378071303424472,0.0027250494108521325,0.4672735035419464,-50.16659927368164,-7.206009864807129,16.78809356689453,1.5581156015396118,-1.2302353382110596,0.012864691205322742,,,,,,,,,
1739303585.7664728,-0.0665336375038529,1.0416566948288393,-0.3978792518759204,-1.470005722557992,1.5450043397751805,1.1784096720000514,1.3468864252166677,-0.0006732093120452848,0.0014617867816335455,-0.0004971467186098112,0.0003655846436652157,0.0005212809311328974,4.352942012121304e-08,0.0007274902077223447,0.4910772144794464,-50.11502456665039,-7.257584571838379,16.78809356689453,1.5581156015396118,-1.2229111194610596,0.012864691205322742,,,,,,,,,
1739303585.7765296,-0.0665375649480952,1.0416584071311736,-0.3978782807306957,-1.4700057226715104,1.5450041654612032,1.1784089143399745,1.3468903217533648,-0.002079671550755194,0.0016163817456123467,0.00011318026749586752,-0.0011632402079494765,-0.00034301434652864675,4.470735891956305e-05,0.0003623928272404953,0.5188482403755188,-50.13882827758789,-7.257584571838379,16.78809356689453,1.5581156015396118,-1.2165024280548096,-0.020094294100999832,,,,,,,,,
1739303585.7874649,-0.06653563686763857,1.041655104406262,-0.3978753433359048,-1.470001863983867,1.5450020743475157,1.1784089143399745,1.3468888456789545,-7.946772169942215e-05,-0.000527482347961386,0.0017499478938400237,0.0009988091201935546,0.0010615739229749657,-0.0001250171474373474,0.0006932877959140298,0.4910772144794464,-50.06344985961914,-7.281388282775879,16.73651885986328,1.5645242929458618,-1.2165024280548096,-0.0072769103571772575,,,,,,,,,
1739303585.7974994,-0.06653712131749316,1.0416529929911436,-0.3978813228136582,-1.4700075053485515,1.5450045990895027,1.1784066413597394,1.3468832863385731,-0.0010761944257410621,-0.00036568885656844516,0.00012273025939152452,-0.0018139638777684153,0.00019130730548518418,-0.0006316545340914358,-0.0005968349538462831,0.5426519513130188,-50.06344985961914,-7.229813575744629,16.81189727783203,1.5517069101333618,-1.1972763538360596,0.03941498324275017,,,,,,,,,
1739303585.808513,-0.06653411106177586,1.0416605500640113,-0.3978831143951925,-1.4700057230914256,1.5450017338564972,1.178409672646075,1.3468891596458077,0.0006598148867433903,0.0017943996446573459,-0.00068238865893322,9.722515131654392e-05,0.0002938386641544961,-0.00033878931939453397,0.0018349974410118673,0.4910772144794464,-50.13882827758789,-7.206009864807129,16.78809356689453,1.5709329843521118,-1.2229111194610596,-0.0072769103571772575,,,,,,,,,
1739303585.8195202,-0.06653411102964216,1.0416546963667492,-0.3978805871189408,-1.4700057226715135,1.5449999890754493,1.1784092163180289,1.3468824204431131,-0.00027253001894392086,-0.0005156941252214941,-0.0002370900163684336,-0.0002342333359227218,-0.00033622667405408817,0.0001787481998333595,0.0013163326697994521,0.4910772144794464,-50.08725357055664,-7.229813575744629,16.78809356689453,1.5581156015396118,-1.2100937366485596,0.04673920199275017,,,,,,,,,
1739303585.8304791,-0.06653833142598235,1.0416566936656317,-0.3978782346173513,-1.4700006758948934,1.5450042994714726,1.1784089143459562,1.3468880487730197,-0.0011457816100920327,0.00019384154963344,0.0008857608771153723,0.0010625882321830564,0.002109004593119719,-7.065811010131503e-05,0.001099044615772539,0.5188482403755188,-50.11502456665039,-7.229813575744629,16.76032257080078,1.5581156015396118,-1.2165024280548096,-0.0008682189509272575,,,,,,,,,
1739303585.8414948,-0.06653761241693491,1.0416547077889433,-0.39788488816221396,-1.4700057226170777,1.5450034420131633,1.1784074527588633,1.3468865487674797,-0.001159335745985945,-0.000536073109218639,-0.0014171952902389865,-0.0009964816711980392,-6.732740138745352e-05,-0.0015730971827441927,-0.000255277734870295,0.5188482403755188,-50.11502456665039,-7.182206153869629,16.78809356689453,1.5645242929458618,-1.2165024280548096,0.012864691205322742,,,,,,,,,
1739303585.8525019,-0.06653624190417969,1.041652992967959,-0.39788130536449995,-1.4699993357809267,1.5450015282850877,1.1784089143317238,1.3468816628355733,-0.0005051311475908433,-0.0011336561160293285,-0.00045901462693979386,0.0016395591991677674,-2.957247146536475e-05,0.0001644648074218318,-0.0007407136552415454,0.4910772144794464,-50.06344985961914,-7.229813575744629,16.71271514892578,1.5773416757583618,-1.2165024280548096,0.05314789339900017,,,,,,,,,
1739303585.8644938,-0.06653612071274914,1.0416549350882172,-0.3978810955070753,-1.4700036428774683,1.5450024617498195,1.1784089143399745,1.3468874848538386,-0.001150456654108574,-0.0002472185221364024,0.0005823352699329743,0.0007169308434801344,-0.00031931053511124037,0.00014207104384926546,0.0014943964954358601,0.5188482403755188,-50.08725357055664,-7.229813575744629,16.76032257080078,1.5709329843521118,-1.2165024280548096,0.012864691205322742,,,,,,,,,
1739303585.875429,-0.06653719012571783,1.0416546936965396,-0.3978813317168903,-1.4700036428816554,1.5450006928277271,1.178408156679896,1.346888053139652,-0.0007600746027869183,-0.00040582956827291345,0.00036410479874641,0.00048746882957598924,-0.0008303022360838129,-0.00022658156359457726,0.0009770153977686938,0.5426519513130188,-50.08725357055664,-7.229813575744629,16.76032257080078,1.5517069101333618,-1.2100937366485596,-0.0008682189509272575,,,,,,,,,
1739303585.8856077,-0.06653735965601194,1.041654935197167,-0.39788311309916047,-1.4700036428816554,1.545004958633029,1.1784089143399745,1.3468871830373172,-0.0015502350648811487,-0.0009847783708581447,-0.001245262524395383,-0.0003679672846678092,-0.00021266884514585223,-0.0006924313564959007,0.0005014097404959506,0.5426519513130188,-50.08725357055664,-7.206009864807129,16.76032257080078,1.5517069101333618,-1.2165024280548096,0.0064559997990727425,,,,,,,,,
1739303585.8964744,-0.06653539864526205,1.0416547800683802,-0.3978792519283609,-1.4700075012785894,1.5450021139145145,1.1784105380587908,1.3468871960115754,-0.0010204750771453058,-0.0006169068925782923,0.00030374352033978307,-0.0005611213258517506,-0.0009077365759972734,0.00017000439586638733,0.002059888799085686,0.5188482403755188,-50.08725357055664,-7.257584571838379,16.81189727783203,1.5645242929458618,-1.2302353382110596,0.0064559997990727425,,,,,,,,,
1739303585.9065325,-0.06653350607316053,1.0416605528997966,-0.39788307940102063,-1.4700036428815866,1.54500211984999,1.178410537897288,1.3468862145095697,0.0009630174025443865,0.0017085472853538548,-0.0011537744695335412,0.0009164829914038514,-0.0007338195018475226,0.0010948126769697976,0.0011411724084738296,0.4910772144794464,-50.13882827758789,-7.206009864807129,16.76032257080078,1.5645242929458618,-1.2302353382110596,0.026597600430250168,,,,,,,,,
1739303585.9175017,-0.06653414472656971,1.041656842594268,-0.39787744300548494,-1.4700075021830206,1.5450030993858468,1.1784089143399745,1.3468831933774252,0.00013521604292591712,0.000329312285785675,0.000699226670738404,-0.0006014296535949968,0.0007236903118288206,0.00021620593052775212,0.0009900959067344786,0.4672735035419464,-50.08725357055664,-7.281388282775879,16.81189727783203,1.5645242929458618,-1.2165024280548096,0.05314789339900017,,,,,,,,,
1739303585.9284873,-0.06653574374365268,1.0416567198779925,-0.3978809855796161,-1.4700057226714576,1.5450024423448763,1.178411335594284,1.3468816628069613,-0.0008631089846464443,0.0002135269520822366,-3.313480726406591e-05,-0.000870595644190711,-0.0007335320124616736,0.0005345024160237082,-0.0001716250237243683,0.5188482403755188,-50.11502456665039,-7.206009864807129,16.78809356689453,1.5645242929458618,-1.2100937366485596,0.05314789339900017,,,,,,,,,
1739303585.9404325,-0.06653411102628165,1.0416537439079538,-0.39788133171421797,-1.4700005944234023,1.5450026987902157,1.1784096720060344,1.3468832848848014,0.0010598989538929077,-0.0011749373958995302,-0.0004070073829138588,0.0018787560417600833,-0.00011617214004161697,0.0003955876710638346,0.0010941630442584337,0.4910772144794464,-50.06344985961914,-7.229813575744629,16.76032257080078,1.5709329843521118,-1.2229111194610596,0.03941498324275017,,,,,,,,,
1739303585.9504638,-0.06653347966192323,1.0416529727104753,-0.39788017488058025,-1.4700036428267622,1.5450034192228979,1.1784096894426557,1.3468820568546547,0.0014884644476508505,-0.0013240406326069862,0.0002701033147400492,0.0011053851754819737,0.0006925085584554768,6.606359147478166e-06,0.0002661300946920406,0.4910772144794464,-50.06344985961914,-7.206009864807129,16.76032257080078,1.5645242929458618,-1.2229111194610596,0.05314789339900017,,,,,,,,,
1739303585.96142,-0.06653484516351599,1.041658406816172,-0.397884826959217,-1.4700026538860678,1.5450025430190208,1.1784096719449701,1.3468902440548298,1.2725653421944696e-05,0.00023065951719739746,-0.00043496750859026113,0.000812626943744579,0.000322172966661108,-7.525933802735644e-05,0.0011486810015644026,0.4672735035419464,-50.13882827758789,-7.182206153869629,16.76032257080078,1.5452982187271118,-1.2229111194610596,0.0064559997990727425,,,,,,,,,
1739303585.9714904,-0.06653347981963602,1.04165846109422,-0.3978813317170364,-1.4700057226547625,1.5450058086901806,1.1784089143399736,1.3468809051728037,-0.0005624690835602279,0.0008485727481850277,-0.0005542431954269419,-0.0005276156660531391,0.0009926334046417864,5.301712792778684e-05,-0.002377057328272036,0.4910772144794464,-50.13882827758789,-7.229813575744629,16.78809356689453,1.5452982187271118,-1.2165024280548096,0.05955658480525017,,,,,,,,,
1739303585.982585,-0.06653553463470384,1.0416566917763228,-0.39788279199476995,-1.4700057226338263,1.5450038032523705,1.1784089143399745,1.3468840876049377,0.0007414021230773154,-2.830007006060582e-05,0.00042533519201179394,-6.796399423893092e-05,0.0004868031462366031,0.0003603598256394457,-0.0004393543360977282,0.4910772144794464,-50.11502456665039,-7.206009864807129,16.78809356689453,1.5581156015396118,-1.2165024280548096,0.03300629183650017,,,,,,,,,
1739303585.993548,-0.0665356368622561,1.0416509767599116,-0.39787746784544,-1.4700049809248206,1.545003633702093,1.178408156679896,1.3468853118548907,0.00026072320181837384,-0.0018809255206592634,0.0007857682246108141,0.0003310675924466668,-0.001245818931736952,-0.0006625840083928527,0.001600965426438162,0.5188482403755188,-50.03567886352539,-7.281388282775879,16.78809356689453,1.5517069101333618,-1.2100937366485596,0.026597600430250168,,,,,,,,,
1739303586.0055296,-0.06653422827170244,1.0416530194700746,-0.39788315813801256,-1.4700036428774683,1.5450041594933843,1.1784089143399745,1.3468864252185888,0.0004433586497719568,0.0003645492095838926,-0.0008308035596196132,0.0005204493500639397,-3.0328214279374665e-05,0.00045546068430423565,0.0010103433702668614,0.4910772144794464,-50.06344985961914,-7.206009864807129,16.76032257080078,1.5581156015396118,-1.2165024280548096,0.012864691205322742,,,,,,,,,
1739303586.01645,-0.06653752958364019,1.0416583606674286,-0.3978813015843925,-1.470005648793474,1.5450042930946886,1.1784089143399745,1.3468817078410982,-0.0003718923762682639,0.0013728139162938742,0.0006797005839368916,-0.0017489505669287934,0.002559449656632464,4.5684549668006605e-05,-0.0018810405405980698,0.5188482403755188,-50.13882827758789,-7.229813575744629,16.78809356689453,1.5581156015396118,-1.2165024280548096,0.05314789339900017,,,,,,,,,
1739303586.0264628,-0.06653384542534362,1.0416583986271166,-0.39787917319085797,-1.470006558711985,1.5450043338178698,1.178408156679896,1.3468880487737827,0.0016163411403992648,0.00011182265790654806,0.001018788162720693,-0.001166677615090731,0.0016082129411635554,-0.0005046451514761125,0.0009068763905550384,0.4672735035419464,-50.13882827758789,-7.257584571838379,16.78809356689453,1.5581156015396118,-1.2100937366485596,-0.0008682189509272575,,,,,,,,,
1739303586.036465,-0.06653805828878773,1.0416546928902137,-0.3978813014749699,-1.4700000860450448,1.5450028717408189,1.178408143270895,1.346886425215709,-0.0014500768973194833,-0.001264084662061681,0.0008257717768258136,0.0016490143817989517,-7.761444894816786e-05,-0.0005768163362872538,-0.00027993665643965003,0.5426519513130188,-50.08725357055664,-7.229813575744629,16.71271514892578,1.5581156015396118,-1.2100937366485596,0.012864691205322742,,,,,,,,,
1739303586.0474808,-0.06653242520982791,1.0416529841488358,-0.3978785053847911,-1.4700039488863315,1.5450017988157567,1.1784081566798204,1.3468871828757871,0.0007296022776101146,-0.0018007876926692458,0.001680258135871139,0.00016606757640208545,0.00041687958166913375,-0.00016297682457913024,0.0002763649772478991,0.4434697926044464,-50.06344985961914,-7.257584571838379,16.76032257080078,1.5517069101333618,-1.2100937366485596,0.0064559997990727425,,,,,,,,,
1739303586.0574932,-0.06653342719367901,1.0416587250226113,-0.3978784945693074,-1.4700036428868377,1.5450005385188799,1.1784089143399745,1.3468832882764186,0.0010401756249801182,0.0008581160394254293,0.0006796202350685429,0.0011374567792559946,-0.0007705736632262005,-4.398403638957735e-05,-0.00010633280678818275,0.4910772144794464,-50.13882827758789,-7.229813575744629,16.76032257080078,1.5581156015396118,-1.2165024280548096,0.03941498324275017,,,,,,,,,
1739303586.0684202,-0.06653540160339265,1.0416563237424794,-0.3978792517723139,-1.47000572277649,1.5450013362319057,1.1784073990198178,1.3468816647191404,0.00038715800454532415,-0.00044071046022924846,0.0005064635157916342,-0.0011232840803912414,-0.0015132722951707494,-0.0005596150155799592,-0.0009533926348377526,0.5188482403755188,-50.11502456665039,-7.257584571838379,16.78809356689453,1.5517069101333618,-1.2036850452423096,0.05314789339900017,,,,,,,,,
1739303586.0785296,-0.0665362180939307,1.0416567977377376,-0.3978808718128354,-1.4700038724699174,1.5450043346251445,1.1784096720000528,1.3468851555172512,-0.00018432965370291518,0.00023301207238227763,0.0009332819753499644,-0.00018360811600402267,0.0011382977692927,0.0004960518347474885,-0.00038052250540415256,0.5188482403755188,-50.11502456665039,-7.206009864807129,16.76032257080078,1.5581156015396118,-1.2229111194610596,0.026597600430250168,,,,,,,,,
1739303586.0894792,-0.06653580669428034,1.0416584424530255,-0.3978830006513613,-1.4700057226728072,1.545004730704847,1.1784089143399745,1.3468881665125871,0.00021836395803351112,0.001154567133252051,-0.0009899592373374285,-0.0003207157644236876,0.00032809854506629166,0.0006747266937856519,0.00037992073349502417,0.4910772144794464,-50.13882827758789,-7.206009864807129,16.78809356689453,1.5517069101333618,-1.2165024280548096,-0.0008682189509272575,,,,,,,,,
1739303586.100542,-0.066536223114583,1.0416549350887656,-0.3978828781823168,-1.470007504331045,1.5450032521530344,1.1784078282108919,1.3468880996492723,-0.0006124105113020626,-0.000771391130809444,-0.001106298359612124,-0.0004884029787669629,0.0009794670685811901,-0.0006700000970284179,0.0008732779486249085,0.5188482403755188,-50.08725357055664,-7.206009864807129,16.81189727783203,1.5581156015396118,-1.2165024280548096,-0.0008682189509272575,,,,,,,,,
1739303586.1114895,-0.06653848962631777,1.0416529841493056,-0.39787822802290457,-1.4700036428816536,1.5449988556363659,1.1784103271887698,1.3468855993556028,2.4942692009847394e-06,-0.0008776325151879087,0.0005598144991461254,-0.00016402009175673808,-0.0007633727077167752,0.0008285142454777674,-0.0007453570305350632,0.5188482403755188,-50.06344985961914,-7.257584571838379,16.76032257080078,1.5645242929458618,-1.2165024280548096,0.04673920199275017,,,,,,,,,
1739303586.1215289,-0.0665317233445474,1.0416584072401887,-0.3978809841586315,-1.47000750534853,1.5450026975719082,1.1784081432948217,1.3468824263091552,0.0011449541158752386,0.0022439665012487647,0.0007426358713936955,-0.0002896572279944169,0.00014227975161604895,4.280941377176727e-05,7.880851401732299e-05,0.4672735035419464,-50.13882827758789,-7.206009864807129,16.81189727783203,1.5709329843521118,-1.2100937366485596,0.04673920199275017,,,,,,,,,
1739303586.132479,-0.0665358516174256,1.041654697977784,-0.3978774662151318,-1.470005722671511,1.5450005448646684,1.178408914339899,1.346889108411182,-0.0007426604996365512,0.00020846185458096476,-9.595086119293492e-05,-0.00016945560220630234,0.0005139491658033029,8.584637866741325e-05,0.0021322138761797303,0.4910772144794464,-50.08725357055664,-7.281388282775879,16.78809356689453,1.5581156015396118,-1.2165024280548096,-0.0008682189509272575,,,,,,,,,
1739303586.143448,-0.06653554377795283,1.0416566946104486,-0.3978774688193045,-1.4700036509327088,1.545002876685794,1.1784105378972853,1.3468871828817688,0.00017331760974574585,0.00021655948550936861,0.0009566177230664015,9.79597273638059e-05,0.00036959340649711406,0.00042781216013721216,0.00010823829781265255,0.4910772144794464,-50.11502456665039,-7.281388282775879,16.76032257080078,1.5581156015396118,-1.2302353382110596,0.0064559997990727425,,,,,,,,,
1739303586.1534657,-0.06653856731941211,1.0416566933506977,-0.3978810167702022,-1.4700057226719203,1.5450035755876197,1.1784070705508134,1.346885861296638,-0.0005291696134068836,-0.0010563306105959315,0.0002555525471006712,0.00014417750676728802,0.0006152871523509606,-0.0014508332575210187,-9.542818934873151e-05,0.5188482403755188,-50.11502456665039,-7.229813575744629,16.78809356689453,1.5645242929458618,-1.2100937366485596,0.026597600430250168,,,,,,,,,
1739303586.1635058,-0.06653858227645175,1.0416546371827384,-0.39788051518459516,-1.4700036428816556,1.545000214409825,1.1784081566737648,1.34688677698085,-0.0006861540515631506,-0.0006153123586941912,0.00039388434891858895,1.1313908088411695e-05,-0.0015759655250875354,-0.00015537222343654723,0.0015073849562311815,0.5188482403755188,-50.11502456665039,-7.229813575744629,16.76032257080078,1.5517069101333618,-1.2100937366485596,0.012864691205322742,,,,,,,,,
1739303586.1735327,-0.06653649137481978,1.0416564649873372,-0.3978792519145401,-1.4700036361064963,1.5450034055663684,1.1784089009309733,1.3468824204470762,-0.0005002616124954581,1.4793099484244985e-05,0.00021075053099476346,0.000595306609398002,-0.0008187134880183753,-0.0001927457618935241,0.00010739223976521115,0.4910772144794464,-50.11502456665039,-7.257584571838379,16.76032257080078,1.5645242929458618,-1.2165024280548096,0.04673920199275017,,,,,,,,,
1739303586.1844287,-0.06653540013965588,1.0416559038025412,-0.3978806230852245,-1.4700036418640556,1.5450016736703778,1.1784089143397474,1.3468834418682278,0.0012721933787421364,-0.0003331533685564396,0.00012039809917954741,0.0009704228164748643,-4.234736127407636e-05,-0.00012076806606274488,-0.00013517650573226713,0.5188482403755188,-50.11502456665039,-7.229813575744629,16.76032257080078,1.5517069101333618,-1.2165024280548096,0.03941498324275017,,,,,,,,,
1739303586.195537,-0.06653577143324657,1.0416547761379837,-0.3978814104512233,-1.4700075061425935,1.5450043397588893,1.1784089157935247,1.346887695561188,0.0005119867145334824,-0.0005211330110877106,-0.00021026192553026484,-0.0008658643114074633,0.0012960833438169545,0.00016020016053013697,0.00023869624933093659,0.4910772144794464,-50.08725357055664,-7.229813575744629,16.81189727783203,1.5581156015396118,-1.2165024280548096,-0.0008682189509272575,,,,,,,,,
1739303586.206494,-0.06653485427333386,1.04166046744593,-0.39787743879356313,-1.4700057229864485,1.5450035413393242,1.178410537897288,1.3468840439977652,0.00024687988361311744,0.0009897351854306067,0.0015344996657202475,-2.059696333876277e-05,0.0011365899951304617,0.0006399338734706202,-1.8715140634522785e-05,0.4672735035419464,-50.13882827758789,-7.281388282775879,16.78809356689453,1.5645242929458618,-1.2302353382110596,0.03300629183650017,,,,,,,,,
1739303586.2174535,-0.06653659699976773,1.0416533020519263,-0.39788311439507085,-1.470006411436297,1.5450050436365173,1.1784096720000528,1.3468803412551758,0.0005049826502527636,-0.0004133253347746764,-0.00037209216935074884,-0.0014814090749720268,0.0013138173279097164,-0.00029397361045646034,-0.0016391579690644498,0.4910772144794464,-50.06344985961914,-7.206009864807129,16.78809356689453,1.5517069101333618,-1.2229111194610596,0.07328949868679047,,,,,,,,,
1739303586.2284856,-0.0665327444111234,1.0416584066242245,-0.3978813317182237,-1.4700018602085245,1.545005493055042,1.1784073990198178,1.3468801474664256,0.0008723950159977453,0.0011977606314196847,2.4597446687958468e-05,0.0010409400883964694,-0.00033525433145827294,-0.001114390766539862,-0.0007836883021951402,0.4672735035419464,-50.13882827758789,-7.229813575744629,16.73651885986328,1.5452982187271118,-1.2036850452423096,0.06596527993679047,,,,,,,,,
1739303586.238551,-0.06653275354051438,1.0416584172696597,-0.39787922568270156,-1.4700064114362954,1.5450027242235147,1.1784096720000528,1.346880341201341,-0.00022657565070623886,0.001454486128041082,-0.00021032976621833274,-0.00018929824507345962,-0.0019637917289241236,6.10612066611661e-06,-0.0011148537807209996,0.4672735035419464,-50.13882827758789,-7.257584571838379,16.78809356689453,1.5581156015396118,-1.2229111194610596,0.07328949868679047,,,,,,,,,
1739303586.2494283,-0.06653834604298,1.0416597158523915,-0.39787901571722034,-1.4700036457199666,1.545004556599467,1.1784096720000528,1.3468815202807842,-0.0009818491945302733,0.0020856843481850324,0.0017078402062712693,0.00044754104474007013,4.914337706787828e-05,0.00060560255176013,0.00018626133603795545,0.5188482403755188,-50.16659927368164,-7.257584571838379,16.76032257080078,1.5517069101333618,-1.2229111194610596,0.03941498324275017,,,,,,,,,
1739303586.2604227,-0.06653858328655878,1.041656774082004,-0.39788133171777923,-1.470005799200937,1.5450030585039076,1.1784084696656028,1.346884801655185,-1.3194981589034646e-05,0.00021003118673577388,0.00022460342648287357,-0.0007372234004611277,0.0006348642123055661,4.265933787670979e-05,0.00098864560779946,0.5188482403755188,-50.11502456665039,-7.229813575744629,16.78809356689453,1.5645242929458618,-1.2100937366485596,0.026597600430250168,,,,,,,,,
1739303586.270556,-0.06653634760660464,1.0416604845462312,-0.3978812934837958,-1.4700018602059324,1.5449996327133615,1.1784097112512097,1.346886072002999,-0.0009660957058727804,0.00013916070512086387,0.0003920359301711563,0.0005499211140822956,-0.0013084382666573523,0.0002269608902959192,-0.00016362601411388443,0.4910772144794464,-50.16659927368164,-7.229813575744629,16.73651885986328,1.5581156015396118,-1.2229111194610596,0.012864691205322742,,,,,,,,,
1739303586.2815661,-0.06653385435531986,1.041656699661977,-0.39788311439502694,-1.4700036428816556,1.5450001433725684,1.1784089143401961,1.3468865821971416,0.0004238911991396306,0.0001017541715922806,-0.0004493271408616122,0.00015012255523402926,-0.000285543296042802,-0.000258876492398386,0.0013258332965321883,0.4672735035419464,-50.11502456665039,-7.206009864807129,16.76032257080078,1.5645242929458618,-1.2165024280548096,0.012864691205322742,,,,,,,,,
1739303586.2925053,-0.06653856736710789,1.0416566946468084,-0.39787709690352163,-1.4700013901694842,1.5450010768467088,1.1784089143399745,1.3468817020277835,-7.792851230155426e-05,-0.00033979585865948916,0.0015464050359903876,0.0006328070365754913,0.0008023169286207708,0.0006115310508367508,-0.0007934196463814803,0.5188482403755188,-50.11502456665039,-7.257584571838379,16.76032257080078,1.5581156015396118,-1.2165024280548096,0.05314789339900017,,,,,,,,,
1739303586.3025234,-0.06653722958072153,1.0416584030370077,-0.3978813014748236,-1.4700000774131678,1.545006586053109,1.1784096720000528,1.3468830756338737,-0.0012834676614595464,0.00042449962403679614,0.0006433753874872289,0.0014892983030957633,0.0022506703125418333,0.0007339522713284581,0.0021100828300538344,0.5426519513130188,-50.13882827758789,-7.229813575744629,16.71271514892578,1.5645242929458618,-1.2229111194610596,0.05314789339900017,,,,,,,,,
1739303586.3134692,-0.06653478761750814,1.0416546966579163,-0.39787747022335396,-1.4700056127831125,1.5449984314744685,1.178408156679896,1.3468839903318786,0.0011391991689142923,-0.00040949955104723987,0.001737963340412546,0.0003782753748981445,-0.000807435835302299,-0.00011384361335344315,0.000988613129977445,0.4672735035419464,-50.08725357055664,-7.281388282775879,16.78809356689453,1.5773416757583618,-1.2100937366485596,0.04673920199275017,,,,,,,,,
1739303586.324492,-0.06653446616942714,1.0416545517866684,-0.3978792061432528,-1.470001777787717,1.5450015058711302,1.178408156679896,1.3468876581955795,0.0001790049131009841,0.0010386607400789157,-4.677242920318286e-05,0.0010959117568691583,0.0008525481287393192,7.553300390313684e-05,0.002232437895039584,0.4910772144794464,-50.11502456665039,-7.229813575744629,16.73651885986328,1.5452982187271118,-1.2100937366485596,0.0064559997990727425,,,,,,,,,
1739303586.3344932,-0.06653776762604487,1.0416591575669132,-0.397884894012073,-1.4700057223309537,1.5449979383761943,1.1784105378972853,1.3468874853464046,0.00023857404500016968,0.0009506535232431132,-0.0013885136698494984,-0.0008276842603924688,-0.0015594400191759283,0.000842521249161356,0.0013313647923479939,0.5188482403755188,-50.13882827758789,-7.182206153869629,16.78809356689453,1.5709329843521118,-1.2302353382110596,0.012864691205322742,,,,,,,,,
1739303586.3444955,-0.06653659702201356,1.041657409878887,-0.397879127082175,-1.470007506293332,1.5450038859102466,1.178408156679896,1.3468848540042704,0.00015231810831859208,0.0014485642236112442,-0.0009225967114908217,-0.00020513273327582397,0.0009047452389870378,4.130123187569729e-05,0.0003214521715398624,0.4910772144794464,-50.11502456665039,-7.229813575744629,16.81189727783203,1.5517069101333618,-1.2100937366485596,0.026597600430250168,,,,,,,,,
1739303586.3545237,-0.06653464742762126,1.0416565445071528,-0.3978792517830256,-1.4700049809248366,1.5450020802895066,1.178408155190007,1.3468840439993164,0.00046904511424501565,0.0002918251486911269,0.0003830965571066499,1.9725995785974516e-05,-0.0007217250345914733,5.6849357458850427e-05,-0.0006078744107106305,0.4672735035419464,-50.11502456665039,-7.257584571838379,16.78809356689453,1.5645242929458618,-1.2100937366485596,0.03300629183650017,,,,,,,,,
1739303586.3654885,-0.06653856769636245,1.0416546853310489,-0.39788448119821845,-1.4700056951952243,1.544999196869697,1.178408914339966,1.3468774431246764,0.0008465906237653928,-0.0009448468258787749,-0.0007102098473032671,0.00016030192010615718,-0.0005645547403750483,0.00019381884448554183,-0.0024063749898722902,0.5188482403755188,-50.08725357055664,-7.229813575744629,16.78809356689453,1.5645242929458618,-1.2165024280548096,0.05314789339900017,,,,,,,,,
1739303586.375622,-0.06653788176595361,1.0416584071305965,-0.3978831148792735,-1.4700018602032403,1.5450049184288208,1.1784096720000528,1.3468836393366805,-0.0009160594041465953,0.0007232892599324699,-0.0014144145357876607,0.0011139806378887996,-0.00026298373306128897,0.0005582669459701276,-0.0007134456759229304,0.5188482403755188,-50.13882827758789,-7.206009864807129,16.73651885986328,1.5517069101333618,-1.2229111194610596,0.03941498324275017,,,,,,,,,
1739303586.3864982,-0.06653645155356075,1.04165669493749,-0.3978783108286082,-1.470005722671511,1.5450035951332142,1.1784089143399745,1.3468809052831323,0.0009410639911092308,-0.0004256859215241511,0.0011801450974520532,-0.0006752603322438797,0.0006417608155619789,-0.00019288567840244314,-0.0007568841534786499,0.5188482403755188,-50.11502456665039,-7.257584571838379,16.78809356689453,1.5517069101333618,-1.2165024280548096,0.05955658480525017,,,,,,,,,
1739303586.39654,-0.06653859072061366,1.0416588403776585,-0.3978792392756281,-1.4700013897172686,1.5450002639443452,1.1784089143399745,1.3468856675557432,2.6739299874641668e-05,0.000613672417065638,0.000631113242022773,0.0007212884423879587,-0.0005990102889861917,0.0002061776363875492,0.0005134494226321814,0.5188482403755188,-50.11502456665039,-7.257584571838379,16.76032257080078,1.5645242929458618,-1.2165024280548096,0.019273381680250168,,,,,,,,,
1739303586.4074962,-0.06653488451526962,1.0416605274006905,-0.3978809797476188,-1.4700034974187204,1.544998739408339,1.1784099739781038,1.346886425215709,0.0005773389305012395,0.0006020058335496599,0.0002002826027389019,0.0005704513548641428,-0.001986345528181269,0.00023707606084173854,0.001011641853172773,0.4672735035419464,-50.13882827758789,-7.206009864807129,16.78809356689453,1.5645242929458618,-1.2165024280548096,0.012864691205322742,,,,,,,,,
1739303586.4194217,-0.06653204530922517,1.0416566890625805,-0.39787924273573505,-1.470003642869094,1.544999981108194,1.1784081566858777,1.3468864295763596,0.0010330384702458598,0.0004706049320133646,0.00014585418526003068,-0.0002825769244582042,0.0007961807580406792,-0.0001076726753295219,0.00038599288914832207,0.4672735035419464,-50.11502456665039,-7.257584571838379,16.76032257080078,1.5581156015396118,-1.2100937366485596,0.012864691205322742,,,,,,,,,
1739303586.4295325,-0.06653587793026298,1.0416588398688167,-0.39787959515019045,-1.470003643826463,1.545002887062625,1.1784096720000528,1.3468871828758608,-0.0003462960820453209,0.0011284730678642013,0.0010731092628018745,0.00011631063853139004,0.00018976785179910822,0.0004460861662769202,0.0008856423992918388,0.4910772144794464,-50.11502456665039,-7.281388282775879,16.76032257080078,1.5581156015396118,-1.2229111194610596,0.0064559997990727425,,,,,,,,,
1739303586.4395347,-0.06654022843038336,1.0416546966816982,-0.39787921694614675,-1.4700049778723705,1.545001027746764,1.1784073990198178,1.3468856675557406,-0.0011872540075819065,-0.0003011316399169433,-1.4708585713186931e-06,-0.00011439729913723134,0.0009181115061884821,-0.0004519511430989423,-0.00045526100212200563,0.5426519513130188,-50.08725357055664,-7.257584571838379,16.78809356689453,1.5581156015396118,-1.2036850452423096,0.019273381680250168,,,,,,,,,
1739303586.4505,-0.06653658501880609,1.0416566936656335,-0.3978810953990197,-1.4700036154053513,1.5450007126210838,1.1784096720000528,1.3468906637682263,0.00038295371565501133,-8.399720073451193e-05,0.0005300240084870062,0.0001341608740282878,0.00015859611379396,0.00024459354276085816,0.001409790637368675,0.4910772144794464,-50.11502456665039,-7.229813575744629,16.76032257080078,1.5517069101333618,-1.2229111194610596,0.012864691205322742,,,,,,,,,
1739303586.4605033,-0.06653488343249804,1.0416567207864427,-0.39788124120447416,-1.4700056951989462,1.5450057326876745,1.178408156679896,1.3468890969712652,0.0003859261137012726,-3.6668041571025575e-05,0.000688730189031432,-0.00034141721404785805,0.0012830181117845932,0.0002763667494374095,0.00017917517191015316,0.4672735035419464,-50.11502456665039,-7.229813575744629,16.78809356689453,1.5452982187271118,-1.2100937366485596,0.026597600430250168,,,,,,,,,
1739303586.4705853,-0.06653318271220603,1.0416549347736748,-0.3978792514948079,-1.4700033955192395,1.5450030798579282,1.1784096720000528,1.346888066288364,0.0007112044921147809,-0.00020498999886184695,0.0004998131418644874,0.0010631461276918092,0.0012518155676831445,0.0004929219839967529,-0.000348559728296467,0.4434697926044464,-50.08725357055664,-7.257584571838379,16.76032257080078,1.5645242929458618,-1.2229111194610596,-0.0008682189509272575,738,725,744,41.608,0,0
1739303586.482488,-0.06653859494299609,1.0416566946117853,-0.39788133139420073,-1.4700075053471335,1.5450017044063908,1.1784089143399745,1.3468785239032317,-0.0002638860613695797,0.0007432886567090315,-0.0004072056843019461,-0.0011844558729869371,0.0009434268540623022,0.0002595073547602046,-0.0025591966385882757,0.5188482403755188,-50.11502456665039,-7.229813575744629,16.81189727783203,1.5517069101333618,-1.2165024280548096,0.07969819009304047,738,726,745,41.608,0,0
1739303586.4925337,-0.06654030749975298,1.0416554477725148,-0.39788489707226,-1.4700036428816554,1.5450043377725442,1.1784089143399745,1.3468871299439162,-0.0013906336362926829,-7.927473570081022e-05,-0.0010991054325391473,0.0006634471700749,0.002317197870460917,0.0002544283943692103,0.0003279150127100725,0.5426519513130188,-50.06344985961914,-7.182206153869629,16.76032257080078,1.5581156015396118,-1.2165024280548096,0.04673920199275017,739,725,745,41.608,0,0
1739303586.5034392,-0.06654030749975318,1.0416566861210796,-0.3978813317182237,-1.4700075053108455,1.5450043248793153,1.178409308467136,1.346886884849904,-0.00128723421258719,1.613142424228037e-05,-0.00027064567051217337,-0.0010779892747192204,0.001435569457867763,0.00019242408934928818,0.002086489632145587,0.5426519513130188,-50.11502456665039,-7.229813575744629,16.81189727783203,1.5581156015396118,-1.2229111194610596,0.019273381680250168,738,726,744,41.826,0,0
1739303586.5134914,-0.06654030890712292,1.0416509207978004,-0.39788311439524277,-1.470009284973093,1.5450002158994984,1.1784096719938963,1.3468871849959747,-0.0014420197936158355,-0.0017407838371342708,-0.0013442963419409088,-0.0020727419281059848,-0.0002906284205603696,0.00019340979486363963,0.001224241081474301,0.5426519513130188,-50.06344985961914,-7.206009864807129,16.83570098876953,1.5517069101333618,-1.2229111194610596,0.0064559997990727425,739,725,744,41.608,1,0
1739303586.5244472,-0.06653859483468431,1.0416546958584878,-0.39787443415061674,-1.4700049778723479,1.5450039569282978,1.1784089143399745,1.3468848031120704,-0.0008817255007407374,-0.00014208723300232495,0.0013341213517391287,-7.396141293678854e-05,0.00040869313192325976,0.00025080101910576405,-0.000105738471166325,0.5188482403755188,-50.08725357055664,-7.281388282775879,16.78809356689453,1.5517069101333618,-1.2165024280548096,0.026597600430250168,738,723,745,41.608,0,0
1739303586.5345666,-0.06653659703602241,1.0416612710975472,-0.3978820369516104,-1.4700036428690422,1.545004333799346,1.178406413612805,1.3468894621084,0.00017134717155909335,0.0009007281613982548,-0.0006544038356914778,0.0009523950728699329,0.0011070138117826851,-0.0005800518559010616,0.0027940627138198543,0.4910772144794464,-50.13882827758789,-7.229813575744629,16.76032257080078,1.5581156015396118,-1.2229111194610596,-0.0008682189509272575,739,725,744,41.608,0,0
1739303586.5454798,-0.06653659703602485,1.0416499852001566,-0.39787917287132873,-1.4700056402552122,1.5450035418911015,1.1784081566063211,1.3468875360964752,-0.0001367826113759671,-0.0021572243622337726,-7.338167357112452e-05,-0.0003746688348441164,0.0022524808247467976,-0.00023278940632799258,0.0006717426438491934,0.4910772144794464,-50.06344985961914,-7.257584571838379,16.78809356689453,1.5645242929458618,-1.2100937366485596,0.0064559997990727425,738,725,743,41.608,0,0
1739303586.5555122,-0.06653659671124722,1.0416566936148461,-0.39788301005927856,-1.4700036150689983,1.544999814488006,1.178407036976789,1.3468792815691932,0.000750412643213704,-0.00011033661018525171,-0.000961841111029645,0.000953062424724588,-0.001313391496536273,-0.0005690851598873327,-0.0017287792202919006,0.4910772144794464,-50.11502456665039,-7.206009864807129,16.76032257080078,1.5581156015396118,-1.2036850452423096,0.07328949868679047,739,724,744,41.608,0,0
1739303586.5655396,-0.06653683379891388,1.0416567063841815,-0.39787641707058463,-1.4700036428811845,1.5449998564600296,1.1784090320714131,1.3468809051209625,0.00027276436888549387,0.0009547715558507584,0.00030796906394624067,0.0005079233128759116,-0.003134557024626422,0.00037352208054350144,-0.0005579342197412006,0.4910772144794464,-50.11502456665039,-7.257584571838379,16.76032257080078,1.5581156015396118,-1.2165024280548096,0.05955658480525017,739,724,743,41.717,1,0
1739303586.5764701,-0.06653954203193661,1.0416529840439448,-0.397881252965221,-1.4700056911294708,1.5450018390257385,1.1784081566805606,1.3468848016585082,-0.0016361745120227365,-0.0017856977244596567,-9.19504047352794e-06,-0.0001123898076179305,-0.0009974282358105088,-0.0005033793694655369,0.0005877327039948289,0.5188482403755188,-50.06344985961914,-7.229813575744629,16.78809356689453,1.5517069101333618,-1.2100937366485596,0.026597600430250168,739,724,743,41.608,1,0
1739303586.5874436,-0.06653487575164371,1.0416584071675106,-0.3978813286935871,-1.470008543226225,1.545005097419901,1.1784073990198178,1.3468848210391782,0.0002602340659292309,0.0005713317081964019,-0.0005734866025640245,-0.0010782600879667675,0.0017795291407566292,-0.00036007133812893447,-0.0010469826896019109,0.4672735035419464,-50.13882827758789,-7.229813575744629,16.83570098876953,1.5517069101333618,-1.2036850452423096,0.026597600430250168,738,723,743,41.608,0,0
1739303586.5984488,-0.06653659699988898,1.0416566946104413,-0.39788133225824096,-1.4700075018396543,1.544998115691459,1.178408156679896,1.3468856675558498,-0.0005380598463689221,-0.0002528593688418568,0.0004572679350208391,-0.0009802139813768012,-0.0009389768207577072,-0.0013615721599936717,-3.2242038406730806e-05,0.4910772144794464,-50.11502456665039,-7.229813575744629,16.81189727783203,1.5709329843521118,-1.2100937366485596,0.019273381680250168,738,723,743,41.608,1,0
1739303586.6085236,-0.06653488494832989,1.0416567034407591,-0.39788133171823287,-1.4700075062932783,1.5450043382085843,1.1784105378972853,1.3468810627504113,0.0007651153577981854,2.089194836873493e-05,-0.0010702568769297275,-0.0009458468119820588,0.001406340873631267,0.0007950031751092755,-0.0005302050811680638,0.4672735035419464,-50.11502456665039,-7.229813575744629,16.81189727783203,1.5581156015396118,-1.2302353382110596,0.05955658480525017,738,723,743,41.717,1,0
1739303586.6185293,-0.06654243544281253,1.0416568005744038,-0.3978806201690395,-1.4700073944426622,1.5450016736733412,1.1784096720000528,1.3468864258644007,-0.002711006754946215,0.00010383431119849348,-0.00012332671395091194,-0.00044152081652148355,0.0016371289227333488,0.0002781247679353508,0.0006598510855862071,0.5426519513130188,-50.11502456665039,-7.229813575744629,16.81189727783203,1.5517069101333618,-1.2229111194610596,0.012864691205322742,739,726,743,41.608,0,0
1739303586.6295304,-0.06653859452191103,1.0416540079054024,-0.3978770910311323,-1.4700036428810295,1.5450036427906717,1.1784094517682027,1.3468820220232958,-0.0011085130627073757,-0.0004180649695082523,0.0011747630374410209,-0.000238663020158634,-0.0003335671928185912,-8.709568319040456e-06,-0.00037132062948936993,0.5188482403755188,-50.08725357055664,-7.257584571838379,16.76032257080078,1.5517069101333618,-1.2302353382110596,0.05314789339900017,738,724,743,41.717,1,0
1739303586.640417,-0.06653659703601712,1.0416554115987253,-0.39788311425064093,-1.470005722671511,1.5450042856209483,1.1784081566615023,1.3468884019918133,-0.00019035059286601948,-0.0003275609868748874,4.4317818787146255e-05,-0.0007429730825534576,0.0009727125028621852,0.00010434034936934955,0.0014412495864137005,0.4910772144794464,-50.08725357055664,-7.206009864807129,16.78809356689453,1.5581156015396118,-1.2100937366485596,-0.0008682189509272575,737,725,743,41.717,0,0
1739303586.650452,-0.06653487282329887,1.0416545832967048,-0.3978830241015082,-1.46999889353281,1.5450023575208882,1.1784096720000525,1.3468865434397894,0.0012561736598535541,-0.000716492849223151,-0.0016350650097000973,0.0020050208795925487,-9.687737767123965e-05,0.00034092870854326963,0.0004494416331831679,0.4672735035419464,-50.08725357055664,-7.206009864807129,16.73651885986328,1.5709329843521118,-1.2229111194610596,0.012864691205322742,739,724,743,41.608,1,0
1739303586.6614096,-0.06653659699987245,1.0416568423675203,-0.39787825708647145,-1.4700026538693212,1.5450027514987232,1.1784096720000528,1.3468881665112569,0.0006593344272183476,0.00014305415808505567,0.0009298505506350356,0.0009309719819546531,-0.0007801032342628113,0.00012812558638847698,0.00030507155064725107,0.4910772144794464,-50.08725357055664,-7.229813575744629,16.76032257080078,1.5581156015396118,-1.2229111194610596,-0.0008682189509272575,738,726,743,41.608,0,0
1739303586.671523,-0.06653659703602424,1.0416584866403698,-0.3978813315581477,-1.4700077889491145,1.5450002294473972,1.1784096720000528,1.3468848018220076,-0.00013736325714278167,0.0013814457648642156,-0.0010415610700011194,-0.001348818225684039,-0.0014661989469884921,0.0007375306956441227,-0.0012414545489004105,0.4910772144794464,-50.13882827758789,-7.229813575744629,16.78809356689453,1.5517069101333618,-1.2229111194610596,0.026597600430250168,739,725,743,41.608,0,0
1739303586.682461,-0.0665347818538335,1.041656650225439,-0.39788129380781545,-1.4700036398408642,1.5450010791562458,1.1784101429503324,1.3468821338928267,0.00018171376140504894,0.0007147417561827002,-0.0007832739044251279,0.001371478565402979,-0.0005012884815405085,0.000760026796177112,-0.0008465296066900356,0.4910772144794464,-50.13882827758789,-7.229813575744629,16.76032257080078,1.5581156015396118,-1.2229111194610596,0.05314789339900017,738,724,743,41.608,2,0
1739303586.693479,-0.0665365970052846,1.0416621174580247,-0.3978792058185847,-1.4700039215271863,1.5450053140479032,1.17840891434795,1.3468855995249909,-0.0003825716721536339,0.0015191379595480329,0.00012484746557579312,-0.0004995854973255489,0.0010081129799780068,0.000406631435599635,-0.0006983265817890488,0.4910772144794464,-50.19040298461914,-7.229813575744629,16.76032257080078,1.5452982187271118,-1.2165024280548096,0.04673920199275017,738,724,743,41.608,0,0
1739303586.7034938,-0.06653512127818802,1.0416566945754475,-0.3978812179389986,-1.4700014176431568,1.545000586823877,1.1784096720000528,1.346881964830873,0.0005420603304631439,0.0006517419110081586,0.00015819051950729312,0.0003631674025936858,-0.00043095426884747065,0.0009250334810090979,-0.0019263229970065535,0.4672735035419464,-50.11502456665039,-7.229813575744629,16.76032257080078,1.5517069101333618,-1.2229111194610596,0.05955658480525017,738,725,746,41.500,0,0
1739303586.7135243,-0.06653488451930327,1.0416526275408124,-0.39788062211123615,-1.4700052790532887,1.5450032822554007,1.1784089143399745,1.3468809051389086,0.0013413892904429038,-0.001589534707527119,0.00016363814681302766,-0.0011349215418412326,0.0004029800138670352,0.0005139345428849678,-0.0013716154901784769,0.4672735035419464,-50.08725357055664,-7.229813575744629,16.81189727783203,1.5379739999771118,-1.2165024280548096,0.05955658480525017,739,724,744,41.608,1,0
1739303586.724414,-0.06653872497907691,1.0416529841371767,-0.397883000660015,-1.4700057226589436,1.5450003310432407,1.1784112955573636,1.3468816627810407,-0.00039291719366721004,-0.0024369995560262437,0.0005212083507528935,1.926776556896863e-05,1.396879216050493e-05,0.0013166500494722045,-0.0012457856060919927,0.4910772144794464,-50.06344985961914,-7.206009864807129,16.78809356689453,1.5517069101333618,-1.2366440296173096,0.05314789339900017,738,725,744,41.608,1,0
1739303586.7345073,-0.0665365965307657,1.0416547761424477,-0.39787925484262726,-1.4700057226715109,1.5450010261218545,1.1784089143399745,1.3468841358786425,-0.0007361002516205938,-0.0006652746001493419,0.0003717039055182495,-0.0006488512643654781,-0.00019696417894579264,0.00013767795225950487,0.0003680980700510604,0.4910772144794464,-50.08725357055664,-7.257584571838379,16.78809356689453,1.5452982187271118,-1.2165024280548096,0.05955658480525017,738,725,745,41.608,1,0
1739303586.7454627,-0.06653661197579312,1.0416566946108898,-0.39787925182037776,-1.4700036428816554,1.5450056919558584,1.1784073990198178,1.3468875361605699,4.8783286618471006e-05,0.00013468821192843974,0.0004940227627785251,-0.0001847835071066312,0.0008167907220994287,-0.0008227908048727283,1.0086284226703233e-05,0.4910772144794464,-50.11502456665039,-7.257584571838379,16.76032257080078,1.5452982187271118,-1.2036850452423096,0.0064559997990727425,738,724,746,41.608,1,0
1739303586.7554924,-0.06653851605831015,1.0416547771235944,-0.3978831027305002,-1.470005722671511,1.5450034607721932,1.1784097895720793,1.34688582454515,-0.0004854134712950701,-3.1214868643993055e-05,0.00017230636557980997,-9.756442197637938e-05,0.0017119053755206236,0.0001852543380021341,-0.0001057071502819192,0.5188482403755188,-50.08725357055664,-7.206009864807129,16.78809356689453,1.5645242929458618,-1.2229111194610596,0.019273381680250168,740,724,745,41.608,1,0
1739303586.7664533,-0.06653775186742049,1.041654684388451,-0.39788489696405743,-1.4700036306718334,1.5450014910458876,1.1784096720020438,1.3468923047707986,-0.00012156329693007329,-0.0014367092684976785,-0.0005842598304926599,0.0005763663103906012,-0.0010736419117112228,-0.00018132349579591485,0.002562513691221931,0.4672735035419464,-50.08725357055664,-7.182206153869629,16.76032257080078,1.5452982187271118,-1.2229111194610596,-0.0008682189509272575,739,717,745,41.500,1,0
1739303586.7774818,-0.06653659574230976,1.0416546713172263,-0.39788133030213363,-1.4700057213148414,1.5450057993020956,1.1784096720000528,1.34688853281326,0.0009209352589871026,-0.0002705267484746695,0.00033002603137541537,-6.0208837018294915e-05,0.0023571377899757055,1.813829490139003e-05,0.0009959158498272366,0.4910772144794464,-50.08725357055664,-7.229813575744629,16.78809356689453,1.5452982187271118,-1.2229111194610596,-0.0008682189509272575,738,725,745,41.500,1,0
1739303586.78842,-0.06654130096279741,1.041658852151267,-0.39788027986323876,-1.4700057226715035,1.5450012960137811,1.178408156679896,1.346888415070414,-0.001094254600914122,0.000258382262207324,1.5377579734521577e-05,-0.0007364313245985388,-0.0008456478797650515,-0.00028657154436842393,0.0012391789091163847,0.5664556622505188,-50.11502456665039,-7.206009864807129,16.78809356689453,1.5517069101333618,-1.2100937366485596,-0.0008682189509272575,738,725,745,41.608,0,0
1739303586.7984703,-0.06653565874126555,1.0416529871288345,-0.3978771245772789,-1.4700036424294398,1.5450005725810176,1.1784079823628828,1.3468840446506556,0.0004687928923745304,-0.0005704070660417946,0.0012603218513662921,-0.0003593596733972544,-0.0007171803477472559,-0.0012895388854048816,-0.0008052100533057567,0.4910772144794464,-50.06344985961914,-7.257584571838379,16.76032257080078,1.5517069101333618,-1.2100937366485596,0.03300629183650017,738,725,747,41.608,1,0
1739303586.8094838,-0.06653859464894765,1.0416551299160859,-0.3978803078011956,-1.470003642881653,1.5450046475453847,1.1784096719990687,1.3468872352035997,-0.0004873729440941429,-0.0014901068796071995,0.00020024982303922775,9.898882348153366e-05,-0.0002558690614804539,7.589806180120616e-05,0.0016834501401205432,0.5188482403755188,-50.06344985961914,-7.229813575744629,16.76032257080078,1.5452982187271118,-1.2229111194610596,0.0064559997990727425,739,726,745,41.608,2,0
1739303586.8204997,-0.0665350160502332,1.0416544946018782,-0.39787925192258816,-1.4700036428816554,1.5450057143798175,1.1784077946368685,1.3468899062700588,0.0007042474520574868,-0.00020893183562943824,-0.00021990776653803517,0.00015410888130490912,0.00042200241268129017,-0.0002971321581303098,0.00117013144897067,0.4672735035419464,-50.08725357055664,-7.257584571838379,16.76032257080078,1.5452982187271118,-1.2100937366485596,0.019273381680250168,739,725,746,41.500,1,0
1739303586.8315341,-0.06653659703676738,1.0416556500641667,-0.39788308426132923,-1.4700057349540108,1.5450018255860705,1.178408879428499,1.346886478051962,-0.00030865696110902844,9.242473761259461e-05,-0.0008672077496672081,3.87006589109247e-05,-0.00020468439954290913,0.00023790025680517818,0.000947255450037894,0.4910772144794464,-50.08725357055664,-7.206009864807129,16.78809356689453,1.5517069101333618,-1.2165024280548096,0.012864691205322742,738,724,750,41.826,1,0
1739303586.8424916,-0.06653860371193168,1.0416540079101861,-0.3978809767233281,-1.4700057226715806,1.54500352211052,1.178408156679699,1.3468792992214533,-0.0007185064415206647,-0.0013113514165288183,1.0639846092620016e-05,-0.00026134559946194505,-7.671793375411983e-05,-5.625589467636474e-05,-0.0023381481018976925,0.5188482403755188,-50.08725357055664,-7.206009864807129,16.78809356689453,1.5517069101333618,-1.2100937366485596,0.07328949868679047,738,724,748,41.608,1,0
1739303586.8534927,-0.06653659703607416,1.0416566946065533,-0.3978770181184522,-1.4700036424294398,1.5450039621652334,1.1784089143399745,1.3468856138911094,0.0005211629580129139,-0.0002558259442538655,0.0018475448403873032,0.00031486729259449635,0.0002474885323450266,-0.0002105757395669415,0.0011517188463651008,0.4910772144794464,-50.11502456665039,-7.257584571838379,16.76032257080078,1.5581156015396118,-1.2165024280548096,0.04673920199275017,738,726,747,41.608,1,0
1739303586.8644295,-0.06653659703602487,1.0416566946104413,-0.39787925191575824,-1.4700074227814899,1.5450016597656053,1.1784056559527267,1.3468903663841938,-4.357734869208534e-06,-0.00048579558102533453,0.0005764587146930173,-0.001052499358583796,-0.0006520243282064985,-0.00012138445853006162,0.0004955202403280593,0.4910772144794464,-50.11502456665039,-7.257584571838379,16.81189727783203,1.5517069101333618,-1.2165024280548096,0.0064559997990727425,738,725,745,41.500,1,0
1739303586.874461,-0.06653488451529367,1.0416569683502912,-0.3978824815830583,-1.4700014145877303,1.5450005403375004,1.178412088563971,1.3468881552143444,0.0009867460424831964,0.0007001508368748877,-0.0003554716225644696,0.0005462411065878698,-0.0013664077327922995,0.000603807519159911,0.0024951892780400125,0.4672735035419464,-50.11502456665039,-7.206009864807129,16.76032257080078,1.5581156015396118,-1.2165024280548096,0.026597600430250168,738,723,746,41.608,1,0
1739303586.884467,-0.06653512095341056,1.0416566949421258,-0.3978824835164652,-1.470004569171598,1.5450027642390245,1.1784089145552357,1.3468856010273558,0.0009995139393540406,0.0002735247465202837,-0.000714844455336728,-0.0009953521388418132,6.808166180640303e-05,-0.00041921852080505204,9.345809841858203e-05,0.4672735035419464,-50.11502456665039,-7.206009864807129,16.81189727783203,1.5581156015396118,-1.2165024280548096,0.04673920199275017,738,725,746,41.608,2,0
1739303586.8945343,-0.06653659704002896,1.041658407131178,-0.39788133170753975,-1.4700013350625065,1.5450014705251518,1.1784081566798996,1.3468851038519283,-0.0002868063188099037,0.0017897318069522864,-0.0005418697320674064,0.0011435947868193557,-0.00024324950377256388,-0.0004889551167422632,0.0003334595775723328,0.4910772144794464,-50.13882827758789,-7.229813575744629,16.76032257080078,1.5517069101333618,-1.2100937366485596,0.03300629183650017,738,725,746,41.500,1,0
1739303586.906554,-0.0665368347732523,1.041654776142448,-0.3978792519283681,-1.4700018193414632,1.5450049581407896,1.178408156679896,1.3468906652277592,-9.056392487225321e-05,0.00033308186725755173,-0.00021685852349869768,0.0010662371718639873,0.0005279180167637231,-0.00033358510822922914,0.0016998518047762112,0.4910772144794464,-50.08725357055664,-7.257584571838379,16.73651885986328,1.5517069101333618,-1.2100937366485596,0.012864691205322742,740,724,746,41.608,0,0
1739303586.9174836,-0.0665365970364722,1.0416600989544935,-0.3978834313715541,-1.4700057226714343,1.5450018399350354,1.1784089143399745,1.3468864383056394,0.00021924038725420943,0.0013614247293719977,-0.0006043799570410734,-0.0002863093145211745,0.0005926316454811235,-4.003141657604731e-05,-0.0012374727898396122,0.4910772144794464,-50.16659927368164,-7.229813575744629,16.78809356689453,1.5379739999771118,-1.2165024280548096,0.012864691205322742,739,724,744,41.608,1,0
1739303586.9284275,-0.06653851916584616,1.0416583050902173,-0.3978791343207518,-1.4700065071955761,1.5449996190649498,1.178404898237467,1.3468816627811144,-0.001036885482848276,-0.0003624141429515637,0.000951996123290635,-0.0005174919081159166,-0.0018074886645936179,-0.001159335246852175,-0.002651280195905896,0.5426519513130188,-50.13882827758789,-7.257584571838379,16.81189727783203,1.5581156015396118,-1.2100937366485596,0.05314789339900017,739,724,744,41.608,1,0
1739303586.9384418,-0.06653488448500806,1.0416565925694858,-0.3978812257615038,-1.4700057191499363,1.5450024601830248,1.1784056558975446,1.3468795841872845,4.6689907309688575e-05,0.00018291799687638016,4.148015034359794e-05,-0.00048151123093126457,0.00032175115093693385,-4.277528347039818e-05,-0.0024642649264235905,0.4672735035419464,-50.11502456665039,-7.229813575744629,16.78809356689453,1.5709329843521118,-1.2165024280548096,0.07969819009304047,739,725,742,41.717,1,0
1739303586.949442,-0.066536594113026,1.0416552618093478,-0.397881331393605,-1.4700028172112607,1.5450043353064933,1.1784089143215803,1.3468835324130426,0.00012531075547770384,-0.0004771645614954939,0.00021334032422218964,0.0006240207480427177,-0.0009935441746628196,-0.0002174186535824727,0.0010916507050217946,0.4910772144794464,-50.08725357055664,-7.229813575744629,16.76032257080078,1.5581156015396118,-1.2165024280548096,0.04673920199275017,740,723,743,41.608,1,0
1739303586.9604747,-0.06653659703600835,1.0416566948357016,-0.39788133074616017,-1.4700072580949723,1.5450018932585836,1.1784105378972851,1.3468864646293481,-0.00027846851628213773,0.0007152822456765635,0.0006182732238906609,-0.0006230373166251683,0.00020100609524839575,0.0003657298510073241,0.00027381819733725255,0.4910772144794464,-50.11502456665039,-7.229813575744629,16.81189727783203,1.5379739999771118,-1.2302353382110596,0.012864691205322742,740,724,743,41.500,1,0
1739303586.970494,-0.06653659801035776,1.041653010639814,-0.397879240263611,-1.470005696026978,1.545003838597124,1.1784089143399745,1.3468880487736872,-0.0001274951312645641,0.00047144942275770035,-0.0003021298353468795,0.0002663052161689835,0.0014776362509633639,0.00011530853514434786,-0.0009560354877674505,0.4910772144794464,-50.06344985961914,-7.257584571838379,16.78809356689453,1.5581156015396118,-1.2165024280548096,-0.0008682189509272575,739,723,744,41.826,1,0
1739303586.9814723,-0.06653659313869877,1.041654776037619,-0.3978808835135134,-1.4700017686308204,1.5450018390482179,1.1784089143399745,1.3468840441599355,0.0005604908930966532,-0.0006342844385623903,0.0001694595133257338,0.0014369402140936571,0.0019057129106867352,-0.0005146722446907487,-0.00042230225278120975,0.4910772144794464,-50.08725357055664,-7.206009864807129,16.73651885986328,1.5517069101333618,-1.2165024280548096,0.03300629183650017,739,724,745,41.608,0,0
1739303586.993408,-0.06653659692774365,1.0416536994050425,-0.39787924896358734,-1.4699996349263633,1.545003481828412,1.1784089143399745,1.3468816629963822,0.0003396344427033471,-0.0010447015581980612,0.0005183050044490402,0.002184287449544954,-0.0007119709765317861,-0.0004941335205871127,-0.0009929461286907624,0.4910772144794464,-50.06344985961914,-7.257584571838379,16.73651885986328,1.5517069101333618,-1.2165024280548096,0.05314789339900017,739,724,743,41.717,1,0
1739303587.003451,-0.06653930819070365,1.0416574187005339,-0.3978791440294997,-1.4700036337117273,1.545002729143904,1.1784089128500854,1.3468864382976622,-0.0012350183652045797,0.0005474639879576971,-0.0005998114036989428,0.000778557985339887,-0.001541609071686963,-0.0001964914842869202,-0.0008613819885992552,0.5188482403755188,-50.11502456665039,-7.257584571838379,16.76032257080078,1.5581156015396118,-1.2165024280548096,0.012864691205322742,739,724,744,41.608,1,0
