IITGN-Robotics/Franka_IITGN_ROBOTICS/franka_ros/franka_iitgn/data01/s_b_006.csv
time,fr3_joint1_pos,fr3_joint2_pos,fr3_joint3_pos,fr3_joint4_pos,fr3_joint5_pos,fr3_joint6_pos,fr3_joint7_pos,fr3_joint1_vel,fr3_joint2_vel,fr3_joint3_vel,fr3_joint4_vel,fr3_joint5_vel,fr3_joint6_vel,fr3_joint7_vel,fr3_joint1_eff,fr3_joint2_eff,fr3_joint3_eff,fr3_joint4_eff,fr3_joint5_eff,fr3_joint6_eff,fr3_joint7_eff,flexpin1,flexpin2,flexpin3,Force,ContactMic,ContactMic_gt
1739302925.4303758,-0.08417137295435873,1.0474708338104257,-0.3788742130307884,-1.4580753084989573,1.5358389796280956,1.175177051487048,1.3486272813618703,0.0017413542259728477,0.0012849863986866786,-0.0005913723797803616,0.00010797588495864495,-0.0006815294918635481,-0.0005565287690893596,0.0004687753127635833,1.264697790145874,-49.90872573852539,-5.960282325744629,17.08167266845703,1.6496683359146118,-1.0059311389923096,0.0064559997990727425,,,,,,,,,
1739302925.4413671,-0.08417602656485985,1.0474735562741204,-0.37887517422201,-1.458080262358578,1.535839439388515,1.175182007662723,1.348632556235408,-0.00017210937751505496,0.0021199034629033205,0.00040140785648223713,-0.0008485153522080003,-0.0008401632291824111,5.502892128235936e-05,0.0019561668369488206,1.316272497177124,-49.98807144165039,-5.960282325744629,17.15705108642578,1.6826273202896118,-1.0388901233673096,-0.0072769103571772575,,,,,,,,,
1739302925.4523022,-0.0841723248775958,1.047471559624607,-0.3788730957457756,-1.4580773885998448,1.5358415366333995,1.1751812500086265,1.3486225146376616,0.0005156407578111272,0.0014390994887234058,-0.00021083565446119328,-0.0007606336453006495,-1.344620620968818e-05,0.0002469088467503788,-0.0016819641932624687,1.264697790145874,-49.96030044555664,-5.988053321838379,17.10944366455078,1.6560770273208618,-1.0324814319610596,0.04673920199275017,,,,,,,,,
1739302925.4623618,-0.08417533431189064,1.0474670279434797,-0.37887185036898435,-1.4580771021519925,1.5358419756744555,1.1751825715998498,1.3486271613656253,-0.0004986661481235772,-0.001625811189592203,0.0008748988173585283,-0.0005344625250901023,0.0017182798082008943,-2.160260380799136e-05,-0.000494017894720598,1.240894079208374,-49.90872573852539,-6.115006446838379,17.13324737548828,1.6432596445083618,-1.0526230335235596,-0.020094294100999832,,,,,,,,,
1739302925.4723895,-0.0841698400745287,1.0474737639967127,-0.37892014678426356,-1.4580755314175096,1.5358422411504817,1.1751644475209326,1.3486202460508576,0.0005435789212316516,-1.16375657050314e-05,-0.002538874118415074,-0.0008533899021264089,0.0020994149984870755,-0.0010815406473798856,-0.0022746865174939597,0.7648199200630188,-50.03567886352539,-6.468094825744629,17.20862579345703,1.6231180429458618,-1.0196640491485596,0.06596527993679047,,,,,,,,,
1739302925.4834046,-0.08416952420885103,1.047470549720453,-0.3789510189835383,-1.4580562738171123,1.5358390426986213,1.175147628408766,1.3486225182199707,0.00015347159199843494,0.00033688296860795626,-0.0030004215307588965,0.0014267613525377918,-0.0001336965984747789,-0.0011849021834389928,-0.003170338257868042,0.4910772144794464,-50.03567886352539,-6.571244239807129,17.08167266845703,1.6368509531021118,-0.9995224475860596,0.04673920199275017,,,,,,,,,
1739302925.4944143,-0.08417214832942171,1.0474687945199275,-0.37896004414231277,-1.4580497719451415,1.5358406662470419,1.1751377213615193,1.3486257655553093,0.0005578434084313637,-0.00046462162207452294,-0.0006593970521025419,0.0008638133033401114,0.0006528737241919875,-0.0014369801681148402,-0.0007371158960670073,0.4156987965106964,-50.01187515258789,-6.646622657775879,17.10944366455078,1.6231180429458618,-0.9665634632110596,0.019273381680250168,,,,,,,,,
1739302925.5053723,-0.0841753529274322,1.0474694087742846,-0.3789603730988778,-1.4580434931266455,1.5358407054928984,1.1751332142799498,1.3486256975704207,0.00019324096288085395,-0.00026976958226982654,-3.959790280935353e-05,0.0031927800344228414,0.00021937370624607852,-0.0011420368020904643,-0.0005645689427900735,0.3442876636981964,-50.03567886352539,-6.698197364807129,17.08167266845703,1.6231180429458618,-0.9867050647735596,0.04673920199275017,,,,,,,,,
1739302925.5153759,-0.08417958547932862,1.0474730478470775,-0.3789573400958805,-1.4580450906696565,1.53583904252889,1.1751338982356663,1.3486297798841578,-0.0005290211139223093,0.0011770638124137575,0.0002930874274743098,-7.492616050210754e-05,-0.0006031651632615277,0.0003343214013969968,0.0003839690228232682,0.3442876636981964,-50.11502456665039,-6.698197364807129,17.13324737548828,1.6368509531021118,-1.0059311389923096,-0.013685601763427258,,,,,,,,,
1739302925.526328,-0.08418172945003394,1.047476894618131,-0.37895625049686765,-1.458046899045725,1.5358414633144815,1.1751355212815444,1.348628340567989,-0.00047868347313577344,0.0002668593620915357,0.0003923057237349408,-0.0013941871201368422,0.000865770908109622,0.000738316405548213,0.0007096558045098973,0.3442876636981964,-50.13882827758789,-6.722001075744629,17.20862579345703,1.6167093515396118,-1.0196640491485596,0.0064559997990727425,,,,,,,,,
1739302925.5373073,-0.08418279487703476,1.0474745184375684,-0.3789562517847495,-1.4580467221858542,1.5358398141318415,1.175132978493967,1.348627281527364,-4.165971317771327e-05,0.00047322818760112904,-0.0001761766768228079,0.0006583837611390365,0.0009227590962013905,-0.0020204861861267574,0.00037613668384612605,0.3442876636981964,-50.13882827758789,-6.722001075744629,17.18085479736328,1.6304422616958618,-0.9995224475860596,0.0064559997990727425,,,,,,,,,
1739302925.5473566,-0.08418503198747179,1.0474709439032703,-0.37895757662763446,-1.4580426907574136,1.5358433455590925,1.1751304864973127,1.3486210037665685,-0.001263079367909823,-6.504664822522456e-05,-9.787015936072276e-05,-0.0009940063769923514,0.001189373788097004,0.00040565547341836136,-0.0019130240891013697,0.3442876636981964,-50.08725357055664,-6.698197364807129,17.15705108642578,1.6304422616958618,-0.9802963733673096,0.05955658480525017,,,,,,,,,
1739302925.5583737,-0.08418251751410723,1.0474696860769193,-0.3789558171942016,-1.4580359049156728,1.535840667720605,1.1751267374092902,1.3486225722220544,0.00119355167319612,0.0005126224562495086,0.00034548540956609624,-0.0002977831197149765,0.0016647935769266466,6.425418933241864e-05,-0.0013246936975390262,0.2927129566669464,-50.08725357055664,-6.722001075744629,17.10944366455078,1.6231180429458618,-0.9867050647735596,0.04673920199275017,,,,,,,,,
1739302925.5693133,-0.08418478379012724,1.0474730349290549,-0.37895792340647894,-1.4580432491756183,1.5358421830207736,1.1751259795030498,1.3486265232161923,-0.000662347704921181,-0.0006180973505166369,5.673915144856917e-05,-0.0018327933288479856,0.001079755291748319,-0.0002140106767291239,0.0005099722551534693,0.3165166676044464,-50.11502456665039,-6.722001075744629,17.20862579345703,1.6103006601333618,-0.9802963733673096,0.012864691205322742,,,,,,,,,
1739302925.579396,-0.08419088688898745,1.047480368112969,-0.3789557825390491,-1.4580376864475388,1.5358386909305795,1.175126737163124,1.3486274160555327,-0.0001955718429265743,0.0003246513279945378,-0.0005011719471046456,0.0008435174417740991,-0.001088364205608171,0.00031121893837946163,0.00048752950344235513,0.3680913746356964,-50.21817398071289,-6.722001075744629,17.13324737548828,1.6368509531021118,-0.9867050647735596,0.0064559997990727425,,,,,,,,,
1739302925.5913825,-0.08418813662793874,1.0474710371155644,-0.3789555830837195,-1.4580373230307626,1.5358390557696975,1.1751258617654756,1.3486272808761228,-0.00036952996735022017,-0.0012164114669142225,-2.6890705984423707e-05,-0.00011376337566518501,-0.0005814775500537028,-8.647962786280676e-05,-0.0003289173497624579,0.3165166676044464,-50.08725357055664,-6.722001075744629,17.15705108642578,1.6368509531021118,-0.9802963733673096,0.0064559997990727425,,,,,,,,,
1739302925.6023707,-0.08419161031645594,1.0474719840152393,-0.37895357259128837,-1.4580345747926156,1.535840665601044,1.1751274948229808,1.3486257656091485,-0.0008379176395462277,0.0009675119967131485,0.0005080149175557521,0.0005425914674036087,-0.00010003499410693066,-7.24735611329718e-05,-9.879399005225918e-05,0.3680913746356964,-50.13882827758789,-6.749772071838379,17.13324737548828,1.6231180429458618,-0.9931137561798096,0.019273381680250168,,,,,,,,,
1739302925.6133142,-0.0841891858974093,1.047472681267692,-0.3789591150181531,-1.4580362508018583,1.5358397988962553,1.1751282524832805,1.3486243903400497,0.00010731290647138768,0.0001057595288835411,0.00011502007103664225,-0.00031218674783387024,-0.0010811533590030296,0.0002789262276269044,-0.0007223613369335571,0.3442876636981964,-50.13882827758789,-6.674393653869629,17.15705108642578,1.6304422616958618,-0.9995224475860596,0.03941498324275017,,,,,,,,,
1739302925.623382,-0.0841893207672358,1.0474729623121068,-0.3789576576202858,-1.4580356479842926,1.535840618279859,1.1751273770856323,1.3486300108528286,0.0014735599891357782,-0.000562000375786142,0.00043599486322289116,-0.00023205577076585576,0.00032067266318860314,-7.81839489715749e-06,0.001879392269703922,0.3165166676044464,-50.11502456665039,-6.722001075744629,17.18085479736328,1.6231180429458618,-0.9931137561798096,-0.013685601763427258,,,,,,,,,
1739302925.634375,-0.08419237103576453,1.0474705301897025,-0.37895627764129536,-1.4580361326868323,1.5358406647932208,1.175125979502381,1.3486234019440013,0.0003786423219409497,1.659973824478069e-05,7.125320008752518e-05,0.0013982119029901838,-0.00023444538157158887,-0.000544295036054284,0.0007460975410673878,0.3442876636981964,-50.11502456665039,-6.749772071838379,17.15705108642578,1.6231180429458618,-0.9802963733673096,0.03941498324275017,,,,,,,,,
1739302925.6453578,-0.08419409633702304,1.0474747475285116,-0.37895943713888264,-1.4580322117775233,1.5358396884264323,1.1751219346914252,1.3486225576866477,-0.00047208253314736786,0.001706378789656204,-0.0008167782677458529,-0.00021551114953345465,0.0009650099691734363,-0.001009761172212127,-0.0016496991075463233,0.3680913746356964,-50.13882827758789,-6.698197364807129,17.13324737548828,1.6304422616958618,-0.9729721546173096,0.04673920199275017,,,,,,,,,
1739302925.6553774,-0.084194175442025,1.047468052468662,-0.37895355946620357,-1.4580327482223567,1.5358397930801628,1.1751259736350095,1.3486272808760242,0.0008723855611736613,-0.0018242824732897071,0.0010728082768418443,-0.0011074592550268344,-0.0007839680376399451,-0.0002099062657844385,0.0011428259227495513,0.3680913746356964,-50.08725357055664,-6.749772071838379,17.18085479736328,1.6304422616958618,-0.9802963733673096,0.0064559997990727425,,,,,,,,,
1739302925.6654196,-0.08419345124595384,1.0474710370655151,-0.3789576545188771,-1.4580294626551262,1.5358382922972806,1.1751267371630245,1.3486241426440249,-0.00043359401676355857,0.0010497161695126127,0.0008793911425016981,0.00012743601406016805,-0.00029214904101220195,-0.0005489536951522539,-0.0009185842240117843,0.3442876636981964,-50.08725357055664,-6.722001075744629,17.10944366455078,1.6432596445083618,-0.9867050647735596,0.03300629183650017,,,,,,,,,
1739302925.676335,-0.08419901278681333,1.0474767453125773,-0.37895765840491386,-1.458033892368066,1.5358420790980039,1.1751274943386856,1.3486250233713681,-0.001344236206786941,0.0005650519468991247,0.00015941454325029,-0.0003763042441516223,0.0011298967150826789,6.64091624259489e-05,0.00018378008130723702,0.3918950855731964,-50.16659927368164,-6.722001075744629,17.18085479736328,1.6231180429458618,-0.9931137561798096,0.026597600430250168,,,,,,,,,
1739302925.687312,-0.08419730879913724,1.0474747475426514,-0.37895847240980607,-1.4580310185765715,1.5358376864552319,1.1751267371631229,1.3486235711670784,-0.0007311036074668858,0.0002941924907787007,0.0004322497250360755,0.0006916671300528018,0.00041605622967080575,3.729313264666458e-05,-0.0013001925643305152,0.3680913746356964,-50.13882827758789,-6.722001075744629,17.13324737548828,1.6496683359146118,-0.9867050647735596,0.019273381680250168,,,,,,,,,
1739302925.697322,-0.08419629619916723,1.0474681879032064,-0.37896203877236956,-1.4580330289850598,1.5358398061667045,1.1751282524832805,1.3486281598173824,-0.00011223188632555368,-0.0009732243447360218,-0.0011423602387025961,-0.0005246606275546118,0.0005046266216121051,0.00025270710215797036,0.0016099837934415034,0.3442876636981964,-50.08725357055664,-6.674393653869629,17.15705108642578,1.6304422616958618,-0.9995224475860596,-0.0008682189509272575,,,,,,,,,
1739302925.7073586,-0.08419730009875265,1.0474721166556162,-0.3789584743994949,-1.458030330793275,1.5358390470504801,1.1751274948232022,1.3486230229411398,-0.0009454507600711105,6.540382335195596e-05,0.0005052979580296827,-0.0005323145850167909,-1.9690837530113895e-05,-0.00025448331005792693,-0.0015329996727280971,0.3680913746356964,-50.11502456665039,-6.722001075744629,17.13324737548828,1.6368509531021118,-0.9931137561798096,0.03941498324275017,,,,,,,,,
1739302925.7184265,-0.08419362850763679,1.0474747445980657,-0.378962352251314,-1.45802815066196,1.535838283576127,1.1751267371631238,1.34862176126309,0.0011843826232260618,0.0004759800319117401,-0.0011603946110715936,0.00017337155672957473,-0.0007661083834854744,-0.000261511994584751,-0.0013465698586486482,0.3165166676044464,-50.13882827758789,-6.674393653869629,17.13324737548828,1.6432596445083618,-0.9867050647735596,0.05314789339900017,,,,,,,,,
1739302925.729335,-0.08420042086439661,1.0474747475776278,-0.37895876089866,-1.4580270968687221,1.535839918087371,1.175127493369652,1.3486300327480645,-0.0005567968114432927,0.0002135414674766516,0.00048547589867871583,0.0003163562277241948,0.0007532306619697514,-0.0010855361324556612,0.0014720165864091435,0.3680913746356964,-50.13882827758789,-6.722001075744629,17.15705108642578,1.6304422616958618,-0.9931137561798096,-0.013685601763427258,,,,,,,,,
1739302925.7403793,-0.08419669948451532,1.0474726775040617,-0.3789604901030526,-1.4580299322568362,1.5358436403236588,1.1751267371631156,1.3486216401016964,0.001197315218345439,0.00047209174930387817,-0.00021306185541860012,-0.0003138666093402173,0.002188896268161946,0.00045158642705868,-0.0015136496443796292,0.3165166676044464,-50.13882827758789,-6.698197364807129,17.15705108642578,1.6368509531021118,-0.9867050647735596,0.05314789339900017,,,,,,,,,
1739302925.7504482,-0.08420056785487451,1.0474747390393186,-0.3789577802423685,-1.4580299284572713,1.5358406663249031,1.1751259795030455,1.348624899656037,-0.0008302032436770365,0.001428109169354614,0.000822382379281682,-0.00027502433283492955,-0.0006111287189526301,0.0002490095869670437,-0.00033658847264138856,0.3680913746356964,-50.13882827758789,-6.722001075744629,17.15705108642578,1.6231180429458618,-0.9802963733673096,0.026597600430250168,,,,,,,,,
1739302925.761366,-0.0842009073170988,1.0474760567536656,-0.3789576674052966,-1.4580281483966226,1.5358387407116805,1.1751262660513386,1.3486281903790998,-1.7643487642195064e-05,0.0015530413327412642,0.0005366024110863589,0.0004883351314049055,-0.0002259102997974371,-0.00030063350506863055,0.002107074026793391,0.3442876636981964,-50.16659927368164,-6.722001075744629,17.13324737548828,1.6304422616958618,-0.9867050647735596,-0.0008682189509272575,,,,,,,,,
1739302925.7723725,-0.08419601344957588,1.0474730346331107,-0.37895673363015686,-1.4580317150588709,1.5358397872618754,1.1751273378371163,1.3486256460456691,0.001709298317311296,0.0009137988247844845,-0.00022384365115329398,-0.0016662891481505771,-0.0004225494148532316,9.620296393322224e-05,0.00034690196823799254,0.2927129566669464,-50.11502456665039,-6.749772071838379,17.18085479736328,1.6304422616958618,-0.9931137561798096,-0.0072769103571772575,,,,,,,,,
1739302925.7833917,-0.08419802222864259,1.0474723461521553,-0.37895870742633,-1.4580270713589099,1.5358390426896569,1.1751259266898337,1.3486258832744895,0.0002900271974909916,0.00020312871052750032,-0.0002415293943286223,-0.0003578563809059144,-3.3782631287311593e-06,-0.0006182438179124769,-0.0006342226476058921,0.2927129566669464,-50.11502456665039,-6.722001075744629,17.15705108642578,1.6368509531021118,-0.9802963733673096,0.019273381680250168,,,,,,,,,
1739302925.7943838,-0.08419826225065306,1.047473033793281,-0.37895870710473933,-1.4580335297776958,1.5358360570392118,1.175127494176882,1.3486241415020375,-0.0003857074093239259,0.0001171831218097122,0.0002687435954220115,-0.0016097621858200757,-0.0033759766510263706,-0.0002251045806131291,-0.00143363517877724,0.2927129566669464,-50.11502456665039,-6.722001075744629,17.20862579345703,1.6231180429458618,-0.9931137561798096,0.03300629183650017,,,,,,,,,
1739302925.8053591,-0.0841983408481952,1.0474738290846204,-0.37895873388101725,-1.4580281192514661,1.5358413845814092,1.1751267371631202,1.3486224552172281,0.0008947798155619085,-0.00020192292717467996,-4.866109636029591e-05,0.00012038189889145413,-4.501850299504294e-05,-0.0002321596651120819,-0.0015918986166482412,0.2927129566669464,-50.13882827758789,-6.722001075744629,17.13324737548828,1.6167093515396118,-0.9867050647735596,0.05955658480525017,,,,,,,,,
1739302925.815365,-0.08419997477407022,1.047473026647106,-0.37895870742617965,-1.458024935359649,1.5358406662463757,1.1751250735688925,1.3486296621173404,0.00031942325769503344,-0.00012018812957989794,4.059947772596014e-05,0.0006081587797852571,0.00010495337705192383,-0.00037954669458756615,0.0009446616253733849,0.3165166676044464,-50.11502456665039,-6.722001075744629,17.13324737548828,1.6231180429458618,-0.9995224475860596,-0.013685601763427258,,,,,,,,,
1739302925.826374,-0.08420207933180164,1.047473009547059,-0.3789587005724406,-1.458026713694727,1.5358406725457594,1.1751259402392438,1.3486253836903128,5.66619926493779e-05,-0.0016387219215188483,0.00014696890087193562,0.00028421618869784945,0.0007591408239326631,-0.00019956375202110165,0.00022054710477405258,0.3165166676044464,-50.11502456665039,-6.698197364807129,17.15705108642578,1.6231180429458618,-0.9802963733673096,0.026597600430250168,,,,,,,,,
1739302925.8364136,-0.08420092193123997,1.0474758013394136,-0.3789586813344341,-1.458024934978606,1.5358390431745677,1.1751274948212076,1.3486241820595144,0.00048143578493811245,0.0009803695253162304,0.0006052650215678161,0.0006987796039824452,-0.0005956868626526469,0.0007166470949956493,-0.0018182013954028391,0.3165166676044464,-50.16659927368164,-6.722001075744629,17.13324737548828,1.6368509531021118,-0.9931137561798096,0.05955658480525017,,,,,,,,,
1739302925.847335,-0.0842024593234146,1.0474762045666315,-0.378956627635827,-1.458026955093067,1.535839042689732,1.175125822519619,1.3486282370154274,-0.001440570881128944,0.0005830065650419102,0.00039105889221094576,-0.0007635793021332046,-0.00036930854204673345,-0.0003314608650126906,-4.6447659429211564e-05,0.3165166676044464,-50.13882827758789,-6.749772071838379,17.15705108642578,1.6368509531021118,-0.9802963733673096,0.026597600430250168,,,,,,,,,
1739302925.8573358,-0.08420433984331752,1.04747473909905,-0.3789566272078863,-1.4580227852908978,1.5358398053564823,1.1751274948205437,1.348625068290089,-0.000819101882808196,0.0006237404055996667,-3.234945561782839e-05,0.001432075417423811,0.001122203595091041,0.00029028371222162744,-0.0005707258535238003,0.3442876636981964,-50.13882827758789,-6.749772071838379,17.13324737548828,1.6304422616958618,-0.9931137561798096,0.026597600430250168,,,,,,,,,
1739302925.8674202,-0.08419826229209555,1.0474723440187947,-0.3789555602145871,-1.4580282569719962,1.5358414282678556,1.1751267365171014,1.3486272808782156,0.002288125097844971,-0.0005280814387960914,0.0007901775448818898,-0.0017051590239988887,0.0005799602768428828,0.0007228834911949583,0.0007501443666808453,0.2927129566669464,-50.11502456665039,-6.773575782775879,17.18085479736328,1.6167093515396118,-0.9867050647735596,0.0064559997990727425,,,,,,,,,
1739302925.878334,-0.08420242164742714,1.0474707050173517,-0.37895670679178106,-1.4580249281092312,1.5358390993782152,1.1751274948231987,1.3486241463586532,9.962400329093341e-05,-0.0010972434012361898,0.0005100079269855247,0.0004745470776266588,0.0009670609584395704,-0.0005462921108193522,-0.0014315377844411194,0.3165166676044464,-50.11502456665039,-6.749772071838379,17.13324737548828,1.6368509531021118,-0.9931137561798096,0.03300629183650017,,,,,,,,,
1739302925.888343,-0.08419850013893267,1.0474728043794062,-0.37895792741567136,-1.4580283806327334,1.5358374873336138,1.1751274948232022,1.3486279360661944,0.0008700046726284649,-0.00038851881704885476,0.0008863989782683213,0.0002868080914628251,-0.0005442353700747865,0.00028985658278565926,0.0016487189612452917,0.2927129566669464,-50.11502456665039,-6.722001075744629,17.18085479736328,1.6231180429458618,-0.9931137561798096,0.012864691205322742,,,,,,,,,
1739302925.8983805,-0.08420245770177283,1.0474708582161583,-0.3789594223472671,-1.4580246032831397,1.5358429805024068,1.1751282524832805,1.3486316388868063,-0.0005504491260290912,-0.00029387464833888796,0.0002744427444434141,-0.0009142229294748631,0.0007307381565029332,0.0010775566741031413,0.0020763993165921995,0.3165166676044464,-50.11502456665039,-6.722001075744629,17.15705108642578,1.6304422616958618,-0.9995224475860596,-0.027418512850999832,,,,,,,,,
1739302925.9092994,-0.08419837737359795,1.047472998067571,-0.37896049011485794,-1.4580281754284254,1.5358390429050925,1.1751274948232022,1.34862926249653,0.0010443521916079644,-0.0002345485273065823,-0.001132140964506432,-0.00014119535687922956,-0.0010870543138801923,-0.0008688782430395917,0.0006915541932767355,0.2927129566669464,-50.11502456665039,-6.698197364807129,17.18085479736328,1.6368509531021118,-0.9931137561798096,-0.0072769103571772575,,,,,,,,,
1739302925.9193902,-0.08420114248896733,1.0474747475774357,-0.3789563933114636,-1.4580249300710637,1.535842523582171,1.1751278992705707,1.3486217782252374,-4.248098734791384e-06,0.0006947928923984485,0.0002603503081179964,-0.001798474210704155,0.0014413608355072214,0.00046910541049341155,-0.000773257841203846,0.2927129566669464,-50.13882827758789,-6.749772071838379,17.13324737548828,1.6432596445083618,-0.9995224475860596,0.05314789339900017,,,,,,,,,
1739302925.930308,-0.08420222369367536,1.0474708922331408,-0.3789556916208724,-1.4580283905532583,1.5358407970366554,1.175126723594661,1.3486255953703774,3.502942696491493e-05,-0.000305880086277254,0.0017615772320071217,-0.0018816033493337329,0.0010069616589771509,7.321509057954821e-05,-0.0013848467762144964,0.3165166676044464,-50.11502456665039,-6.749772071838379,17.18085479736328,1.6231180429458618,-0.9867050647735596,0.05955658480525017,,,,,,,,,
1739302925.940377,-0.08420315803257815,1.047476745409631,-0.37895870737817716,-1.4580264632062783,1.535839817799057,1.1751224986099171,1.3486202456933267,0.0002773732541979522,0.0007067958036887428,-0.0007197446456116241,8.983108439187969e-05,0.0003316724555892115,-0.0010169202417886726,-0.00019467089572832949,0.3165166676044464,-50.16659927368164,-6.722001075744629,17.15705108642578,1.6304422616958618,-0.9867050647735596,0.06596527993679047,,,,,,,,,
1739302925.9513679,-0.0842031697726802,1.0474730264486656,-0.3789587059990989,-1.4580284934520369,1.5358397979272584,1.1751282523137994,1.3486259592962107,-0.0004027402194659401,0.0007065434797811855,0.00013194434716184712,0.0006123279505502887,-0.0008248807143202501,0.000950314654539925,0.0004381390282395721,0.3165166676044464,-50.11502456665039,-6.722001075744629,17.18085479736328,1.6304422616958618,-0.9995224475860596,0.026597600430250168,,,,,,,,,
1739302925.9623764,-0.08419861609721725,1.047476737015083,-0.37896048881875716,-1.4580224278224159,1.5358420657138014,1.1751274948231993,1.3486296620821172,0.0012777652641815956,3.1917326238688367e-05,-0.0012520277053694616,0.0017325906384894677,0.000993028243350158,-0.0001382945112292174,0.000589105505902825,0.2927129566669464,-50.16659927368164,-6.698197364807129,17.13324737548828,1.6432596445083618,-0.9931137561798096,0.012864691205322742,,,,,,,,,
1739302925.9724183,-0.08420146145803704,1.0474737144829098,-0.3789587074257244,-1.4580218272377123,1.5358388857276464,1.175128237947778,1.348627267537913,0.0004624992920160354,-0.00047579986029950487,-0.00029907401570198575,0.0005303717584489176,-8.16198626044454e-05,0.00046451944518174514,-0.00017938032498090631,0.2927129566669464,-50.13882827758789,-6.722001075744629,17.13324737548828,1.6368509531021118,-0.9995224475860596,0.0064559997990727425,,,,,,,,,
1739302925.9833446,-0.08420530179353679,1.0474689668966741,-0.3789573428916134,-1.4580235745537313,1.5358393959015546,1.1751267371630418,1.3486256988085548,-0.0005312343540894357,-0.0007362991772375805,-0.00032836939846676155,0.0004208778519403167,-0.0003550615078746629,0.0006181662353648568,-0.0007724977800896006,0.3165166676044464,-50.08725357055664,-6.749772071838379,17.15705108642578,1.6368509531021118,-0.9867050647735596,0.04673920199275017,,,,,,,,,
1739302925.9943035,-0.08420516906078271,1.0474745178377252,-0.3789566262489469,-1.4580252777576912,1.5358390426917248,1.1751259795030455,1.3486281468443808,-0.0013535751622666243,0.001168761369085238,0.00041880933685071515,0.00012014534921926591,0.0003391741161703959,-0.0003521419147651879,0.0009090720716244848,0.3442876636981964,-50.13882827758789,-6.749772071838379,17.18085479736328,1.6368509531021118,-0.9802963733673096,-0.0008682189509272575,,,,,,,,,
1739302926.0043504,-0.08420340750993298,1.047472692087842,-0.3789566013144802,-1.458021791876064,1.5358390441432812,1.1751266189410372,1.3486257655553144,-0.0003641899411437537,-1.0827225224563808e-05,0.0004695875944337994,-0.00012845802563949077,0.00028652453628430095,-0.0013427119860305364,-0.0005370942139772588,0.3165166676044464,-50.11502456665039,-6.749772071838379,17.13324737548828,1.6368509531021118,-0.9867050647735596,0.019273381680250168,,,,,,,,,
1739302926.0143802,-0.08420811539935985,1.0474719149334935,-0.37895276516855575,-1.4580217918774099,1.535839782907231,1.1751274948212003,1.348623737550634,0.000951126999204545,-0.0015135829432707366,0.0003911819487464177,0.00025497085184411974,-0.0003535993214120944,0.0006814434698654189,0.00038990640192050434,0.3442876636981964,-50.13882827758789,-6.801346778869629,17.13324737548828,1.6304422616958618,-0.9931137561798096,0.03941498324275017,,,,,,,,,
1739302926.0244124,-0.08420601270948373,1.047472958479522,-0.37896072852132984,-1.4580234950815694,1.535841070694115,1.1751267371631238,1.3486245615290822,-0.0001525010664954953,-0.00034669292180311746,-0.001262274529355994,8.358555098577104e-05,0.0001744240440808521,0.0010514746007038967,0.0008170460755547197,0.3165166676044464,-50.11502456665039,-6.698197364807129,17.15705108642578,1.6167093515396118,-0.9867050647735596,0.06596527993679047,,,,,,,,,
1739302926.0344245,-0.08420601227467295,1.0474718903730056,-0.3789587074297693,-1.458025277652264,1.5358355613067936,1.17512749417718,1.3486272809484527,-0.00028138578165655333,-0.00013828907789579465,0.00010690684009875733,-0.0010152529345562474,-0.0006916466259945745,0.0004368106497576345,8.048746604113295e-05,0.3165166676044464,-50.13882827758789,-6.722001075744629,17.18085479736328,1.6304422616958618,-0.9931137561798096,0.0064559997990727425,,,,,,,,,
1739302926.0453117,-0.08420730379208932,1.0474737605400353,-0.3789577454116707,-1.4580252774423061,1.5358377475525322,1.1751221061520365,1.3486233844994302,-0.00023300757524705791,3.763971606078674e-05,0.0009548758361800844,-0.000257338497675382,-0.0005272711077861248,-0.00046106835387437536,-0.00020310991920272894,0.3442876636981964,-50.16659927368164,-6.722001075744629,17.18085479736328,1.6368509531021118,-0.9867050647735596,0.03941498324275017,,,,,,,,,
1739302926.0553238,-0.08420187693255628,1.0474721166533172,-0.37895870708844753,-1.45802564084743,1.535839806626594,1.1751268003081583,1.348628152586796,0.0009810361916537135,-0.0005403439814196973,-0.0010316512043270117,-0.0004762514466262174,-0.0006518763611799639,0.000709965403094438,0.0009040926064027704,0.2689092457294464,-50.11502456665039,-6.722001075744629,17.15705108642578,1.6304422616958618,-0.9995224475860596,-0.0008682189509272575,,,,,,,,,
1739302926.0654001,-0.08420783739006073,1.0474710112757644,-0.3789586856769804,-1.458022075529736,1.5358390426898372,1.1751250735442997,1.3486241608942542,-0.0007087079744970253,-8.953769523821703e-05,0.00039227138872695896,0.0009817502349836107,0.0001556999479772344,0.0010412291969065775,-0.0016010710155023556,0.3680913746356964,-50.08725357055664,-6.722001075744629,17.10944366455078,1.6368509531021118,-0.9995224475860596,0.03300629183650017,,,,,,,,,
1739302926.0763886,-0.0842060415701916,1.0474720061612257,-0.37895661479605947,-1.458021437628302,1.5358395092793597,1.1751259794851003,1.348628117818432,-0.00013812077413111564,-0.0005275861096287434,0.00019117953274692717,0.00029548510314771374,0.0007363153727763514,-6.443320634221173e-05,0.00021492179292835898,0.3165166676044464,-50.11502456665039,-6.749772071838379,17.15705108642578,1.6368509531021118,-0.9802963733673096,0.026597600430250168,,,,,,,,,
1739302926.0863914,-0.0842034898355447,1.0474784211743056,-0.37895734289139593,-1.4580266687474708,1.5358413440280723,1.1751274904625513,1.3486265232697814,-0.00023152398280731575,0.0024133154131045186,0.00032241140952061695,-0.0009350499453308789,0.0014250905239269474,0.0003166093699743805,0.00046915652225378046,0.3165166676044464,-50.19040298461914,-6.749772071838379,17.20862579345703,1.6304422616958618,-0.9931137561798096,0.012864691205322742,,,,,,,,,
1739302926.097369,-0.08420147121921119,1.0474690936421376,-0.37895870497690326,-1.458023495076335,1.5358398003585234,1.1751274948231776,1.3486202454600167,0.000434221994145757,-0.002316948941609495,0.0002959844106728887,-0.0007667124856405654,5.7311507958244064e-05,-8.357168437948662e-06,-0.0004977727128795551,0.2927129566669464,-50.06344985961914,-6.722001075744629,17.15705108642578,1.6304422616958618,-0.9931137561798096,0.06596527993679047,,,,,,,,,
1739302926.107379,-0.08420636341964469,1.0474745066477802,-0.3789563936324144,-1.458023256988693,1.5358398003498095,1.1751227991351074,1.3486261231286736,-0.000482308227669771,0.0005666165298829249,0.0012788947237925082,6.563221046485077e-05,8.549565119408975e-05,-0.0011230902254588957,-0.0005921898838552392,0.3165166676044464,-50.13882827758789,-6.749772071838379,17.15705108642578,1.6304422616958618,-0.9802963733673096,0.019273381680250168,,,,,,,,,
1739302926.1183908,-0.08420623444567138,1.0474726469539206,-0.37895654867043804,-1.4580252749214755,1.5358406664623825,1.1751282524653273,1.3486225071700841,0.00019024797961756355,-0.0007556539753615959,8.39320169296843e-05,-0.000408103304328733,0.0001455163297444015,0.0007990653646675748,-0.0007834736568368905,0.3442876636981964,-50.13882827758789,-6.749772071838379,17.18085479736328,1.6231180429458618,-0.9995224475860596,0.019273381680250168,,,,,,,,,
1739302926.128403,-0.08420293926208465,1.0474765949476075,-0.37895870742439436,-1.458021428785823,1.5358390950175433,1.1751262662128439,1.3486272806546356,0.001481772345659202,0.001281648262668671,-0.00043514188507485656,0.0010538710617960544,-0.0004992545690220882,-0.00014187976484005942,-8.099909999443981e-05,0.2689092457294464,-50.16659927368164,-6.722001075744629,17.15705108642578,1.6368509531021118,-0.9867050647735596,0.0064559997990727425,,,,,,,,,
1739302926.1393063,-0.08420294232941165,1.0474730350560635,-0.37895638207673144,-1.4580234950335662,1.5358382850299481,1.175128252480622,1.3486296607643642,0.00043661078969174075,0.0007622325661654082,0.00035057719533953527,-0.0007334609744977607,-0.000934732436159379,0.00045599503279392133,-0.00011135249961779494,0.2689092457294464,-50.11502456665039,-6.749772071838379,17.15705108642578,1.6432596445083618,-0.9995224475860596,-0.013685601763427258,,,,,,,,,
1739302926.1493075,-0.08420663033251495,1.047470203363378,-0.3789602445394475,-1.4580273320372903,1.5358390428512365,1.1751229028964696,1.3486202454599938,-0.0005263554281488687,-0.0007046542933806042,0.0003943659827808836,-0.0005983931714039399,-0.0003092412735517026,-0.001523607629808363,-0.001782485927823674,0.3165166676044464,-50.11502456665039,-6.698197364807129,17.20862579345703,1.6368509531021118,-0.9931137561798096,0.06596527993679047,,,,,,,,,
1739302926.1603742,-0.08420836531619769,1.0474744404672,-0.3789587073145756,-1.4580234950797915,1.5358398395956687,1.175123974607142,1.3486278021721678,-0.0002777085431262235,0.0017148479843541668,0.00022006622092871666,0.00021156751805142653,1.7179959862643727e-05,-0.0011183223349851916,-0.0009240713695157579,0.3442876636981964,-50.13882827758789,-6.722001075744629,17.15705108642578,1.6304422616958618,-0.9995224475860596,-0.0008682189509272575,,,,,,,,,
1739302926.17042,-0.08420465485016018,1.0474738171274431,-0.37895870714107743,-1.4580234869040034,1.5358406662472632,1.1751266135872043,1.348630304572421,4.399251144643877e-05,-0.0005732733041125184,-1.0467784302102654e-05,-1.1457132990437323e-05,-0.00041994662997193457,-0.0012255003167475462,0.002649556992567358,0.2927129566669464,-50.13882827758789,-6.722001075744629,17.15705108642578,1.6231180429458618,-0.9867050647735596,-0.0072769103571772575,,,,,,,,,
1739302926.1813586,-0.08420430665680938,1.0474708832942001,-0.37895870742572685,-1.4580217127301145,1.5358398056794935,1.1751274890069086,1.3486218000501815,-0.00018023616929468056,-0.000856599002357657,-0.00029882370983386897,0.0002104097892723674,0.0005437258042991542,0.0013666724973476515,-0.0018506874816653638,0.3165166676044464,-50.11502456665039,-6.722001075744629,17.13324737548828,1.6304422616958618,-0.9931137561798096,0.05314789339900017,,,,,,,,,
1739302926.1914206,-0.0842043361955829,1.0474763649281866,-0.3789587074257317,-1.4580217111084697,1.5358382979501295,1.1751267371630911,1.3486297013388273,0.001388241574898216,0.0017233430814307948,-0.0006280547930339407,-0.0003255684055389163,-0.0007343940908437375,0.0012410438388150028,0.001404548656816242,0.2927129566669464,-50.19040298461914,-6.722001075744629,17.13324737548828,1.6432596445083618,-0.9867050647735596,-0.013685601763427258,,,,,,,,,
1739302926.2023485,-0.08420489157516946,1.0474719892523552,-0.37895428760167377,-1.458020509488011,1.535838688023544,1.175128095499854,1.3486304241138096,-9.858244520665052e-05,-0.0001650217161105425,0.0007932059418877885,0.002491934569382755,-0.0014380030550208242,-0.00022667950096799617,0.001951792518452552,0.2927129566669464,-50.13882827758789,-6.749772071838379,17.15705108642578,1.6368509531021118,-0.9995224475860596,-0.020094294100999832,,,,,,,,,
1739302926.213363,-0.0842081285501862,1.0474707309828077,-0.3789566247337354,-1.4580252749059657,1.5358398032549079,1.1751266174866006,1.3486233843379487,-0.0005695723173238161,-0.0009521440623370891,-0.00034464252197169795,-0.0002691702312919176,-0.000554624794317878,5.7914654990361565e-05,-0.001002985152137188,0.3442876636981964,-50.08725357055664,-6.749772071838379,17.18085479736328,1.6304422616958618,-0.9867050647735596,0.03941498324275017,,,,,,,,,
1739302926.2242916,-0.08420918221730084,1.0474747104134818,-0.37895654963471964,-1.4580252776522478,1.5358425075931335,1.175126679989472,1.3486258832928832,0.0001607666294141827,0.0004950471962673856,7.690009767230115e-05,-0.0008267085567408964,8.755648042934667e-05,-0.0003690507548765038,-0.0008786217389773935,0.3165166676044464,-50.13882827758789,-6.749772071838379,17.18085479736328,1.6432596445083618,-0.9867050647735596,0.019273381680250168,,,,,,,,,
1739302926.2353647,-0.084204575976865,1.0474747362393233,-0.37895870646143365,-1.458023336134502,1.5358390427612405,1.1751274946607284,1.3486289044346644,0.0012006054833159133,-0.0005024912277691085,-0.0009578309137407598,0.00024655253600592636,-0.0009493407782808487,0.0008380330673370539,-1.8043378290591807e-05,0.2927129566669464,-50.13882827758789,-6.722001075744629,17.15705108642578,1.6368509531021118,-0.9931137561798096,-0.0072769103571772575,,,,,,,,,
1739302926.246389,-0.08420636737074294,1.0474740304686094,-0.3789583567519516,-1.4580245634706883,1.5358398003139193,1.1751282350406773,1.3486281599083796,-0.0009627766136861527,0.0013047918144865342,9.304628266755912e-05,-0.0009979865333619232,-0.0005263873120096186,0.0002106972231204075,9.17349796585908e-05,0.3165166676044464,-50.13882827758789,-6.698197364807129,17.18085479736328,1.6304422616958618,-0.9995224475860596,-0.0008682189509272575,,,,,,,,,
1739302926.257292,-0.08420636737089135,1.047472334942293,-0.3789566234268471,-1.4580234723967807,1.5358414702427576,1.1751270219345602,1.348622857678303,-0.0008294224035868983,-0.00027547470257772186,0.00012545563674958975,0.00045679185074103964,-0.0002892830544555634,-0.0011045988306190016,-0.001443053268095235,0.3165166676044464,-50.11502456665039,-6.749772071838379,17.15705108642578,1.6432596445083618,-0.9931137561798096,0.05314789339900017,,,,,,,,,
1739302926.2675183,-0.08420294330376187,1.0474781254629804,-0.3789604989330447,-1.4580234950800952,1.5358406793469745,1.1751280954433494,1.3486272808815518,0.0006871762130205687,0.0016773104977739713,-0.0012121519107990684,-0.0006439984088822102,0.000193407534493057,0.0011898019694949625,-0.00029166265653208286,0.2689092457294464,-50.19040298461914,-6.698197364807129,17.15705108642578,1.6231180429458618,-0.9995224475860596,0.0064559997990727425,,,,,,,,,
1739302926.278334,-0.08420907884820981,1.0474767115035446,-0.3789566273149336,-1.4580228060005036,1.5358434934023442,1.175125677524108,1.3486282005539514,-0.0006457239272901046,0.0016281628457416623,0.00045450843401912235,-0.0005172460397341837,0.00017753023035596934,0.0009200713077379074,0.0018730495545664241,0.3442876636981964,-50.16659927368164,-6.749772071838379,17.15705108642578,1.6231180429458618,-0.9867050647735596,-0.0008682189509272575,,,,,,,,,
1739302926.288343,-0.08420468993822834,1.0474737149022963,-0.3789579707482922,-1.4580234950685538,1.5358390952269234,1.175126679003169,1.3486249396959122,0.001373618824842572,-0.00018082871794310006,0.000497443092043103,-0.0007825539487478463,0.00029597121871371393,-0.0007597415694085034,-0.0011748226386809038,0.2927129566669464,-50.13882827758789,-6.722001075744629,17.15705108642578,1.6368509531021118,-0.9867050647735596,0.05314789339900017,,,,,,,,,
1739302926.3002968,-0.08420490319698834,1.0474730347361478,-0.3789587074215731,-1.4580231889625417,1.535844038902623,1.1751282350403491,1.348617769548773,0.0015799925698448585,0.0005704384946139615,-0.0010621569148222998,-0.0008467243198126377,0.0011448851347356753,0.00035552263456527797,-0.0017455672453807586,0.2927129566669464,-50.11502456665039,-6.722001075744629,17.15705108642578,1.6304422616958618,-0.9995224475860596,0.05314789339900017,,,,,,,,,
1739302926.3104186,-0.08420850700734009,1.0474683727137228,-0.3789566186480904,-1.4580217038632144,1.5358381673160095,1.1751235577641206,1.3486193795402532,-0.00030454502003974805,-0.0015553921126385825,0.00038176535101242697,-0.0013440656437480097,-3.646355460774979e-05,-0.0003482217362814198,-0.003081745724129797,0.3165166676044464,-50.06344985961914,-6.749772071838379,17.13324737548828,1.6432596445083618,-0.9867050647735596,0.07328949868679047,,,,,,,,,
1739302926.3213763,-0.08420711404674815,1.047472672739657,-0.3789566276358254,-1.4580232114278493,1.5358390969549423,1.17512673273069,1.3486256973550796,0.0006748126413648384,0.0005739341050049823,-0.000228555191492453,-0.0004442443116920809,6.144648399037753e-05,2.5720488665453687e-05,-0.0006928809713695063,0.3165166676044464,-50.13882827758789,-6.749772071838379,17.18085479736328,1.6368509531021118,-0.9867050647735596,0.04673920199275017,,,,,,,,,
1739302926.3323963,-0.08421293115254294,1.0474727005832891,-0.37896049010275074,-1.4580225222315344,1.5358393973562974,1.1751250721153172,1.3486331942377918,-0.0012445340659579976,-0.00017415935717617602,-0.001126216402435909,-0.00027273141199995576,0.00037347244220301793,-0.00038527157558014005,0.0018734213299480282,0.3680913746356964,-50.11502456665039,-6.698197364807129,17.18085479736328,1.6368509531021118,-0.9995224475860596,-0.013685601763427258,,,,,,,,,
1739302926.3443673,-0.08420956319890806,1.0474709657862786,-0.37895870453680053,-1.4580221797173707,1.5358355105646353,1.175128892172495,1.348623384573204,-0.0008569634583302492,0.00014858984142460615,-0.00035072545644106704,0.000136550988690937,-0.0022008275238797805,0.001614503882535413,-0.0007910505793820329,0.3165166676044464,-50.11502456665039,-6.722001075744629,17.18085479736328,1.6368509531021118,-1.0059311389923096,0.03941498324275017,,,,,,,,,
1739302926.3552916,-0.08420612563739883,1.047472672624494,-0.37895755464127073,-1.4580242535332526,1.5358390819109962,1.1751288792697796,1.3486217607806137,-0.00032301671311932805,0.0005015980886468435,-0.0011454792340882308,-0.0003026088770340003,-0.0006761216437205564,0.0014136054189479801,-0.001500816485897739,0.2689092457294464,-50.13882827758789,-6.722001075744629,17.18085479736328,1.6368509531021118,-1.0059311389923096,0.05314789339900017,,,,,,,,,
1739302926.366296,-0.08420956356148822,1.0474729240593632,-0.37895868108483677,-1.458020510197448,1.5358398003504736,1.1751260427242902,1.3486317923767734,-0.0005642851794393632,-5.067707807164209e-05,-0.0011906393375202208,-1.3951796773876534e-05,1.3410773944462089e-05,-0.0006928893542134537,0.0031043576457289125,0.3165166676044464,-50.11502456665039,-6.722001075744629,17.15705108642578,1.6304422616958618,-0.9931137561798096,-0.020094294100999832,,,,,,,,,
1739302926.3763115,-0.08420785118523791,1.0474689338686043,-0.378960490102602,-1.4580249764749738,1.535838755872262,1.1751262662046469,1.3486290470832003,-6.265967778026264e-05,-3.312494185990901e-05,-0.00018952274152635775,-0.0010375029899498253,8.087537705351542e-05,-0.00044010768266564734,0.0013821224054589394,0.2927129566669464,-50.08725357055664,-6.698197364807129,17.20862579345703,1.6432596445083618,-0.9867050647735596,-0.013685601763427258,,,,,,,,,
1739302926.3863595,-0.08420400776245493,1.0474764024127199,-0.3789586974749689,-1.4580203956508608,1.535839329569009,1.1751224965030582,1.3486218008066784,0.001349327752027903,0.0009935098386069663,-0.0006630908554664568,0.0008502227775637548,-0.0015515257507541752,-0.0014547815435574532,-0.000676211926883616,0.2689092457294464,-50.16659927368164,-6.722001075744629,17.15705108642578,1.6304422616958618,-0.9867050647735596,0.07969819009304047,,,,,,,,,
1739302926.3974307,-0.08420955488894254,1.0474763903782176,-0.37895358420039005,-1.4580242581055698,1.5358390252444702,1.1751241544869633,1.3486289130629008,-0.0004539781512612267,0.0016509360301980086,0.001042162342160902,-0.0011134372928109698,-0.0008037929699636572,-0.0007820584768061415,-0.0003614916828450054,0.3165166676044464,-50.19040298461914,-6.749772071838379,17.20862579345703,1.6368509531021118,-0.9931137561798096,-0.0072769103571772575,,,,,,,,,
1739302926.4082885,-0.08420956366981873,1.0474728025992128,-0.37895982002571316,-1.4580186133815904,1.5358382864829074,1.1751263838938453,1.3486282355560415,-9.175759472148054e-05,-0.0005186169460031781,-0.0020449149864643066,0.0009602456654609673,1.7618306301595856e-05,-0.0008276055094825585,0.0004915335660502932,0.3165166676044464,-50.11502456665039,-6.674393653869629,17.13324737548828,1.6432596445083618,-0.9867050647735596,0.026597600430250168,,,,,,,,,
1739302926.4183958,-0.08420793003024528,1.0474693459453757,-0.3789518019375711,-1.4580203132223986,1.5358398047104682,1.175128129898549,1.348627280894191,0.00016760877556962195,-0.0003026296479117219,0.0014592478420114722,0.0011123659332516619,-0.00012256649938728576,-0.0003982377167048157,0.000581651706229944,0.2927129566669464,-50.08725357055664,-6.773575782775879,17.15705108642578,1.6304422616958618,-0.9995224475860596,0.0064559997990727425,,,,,,,,,
1739302926.4293714,-0.08420956258782061,1.0474744149608086,-0.37896041065780006,-1.458022166105427,1.5358390426897555,1.1751232561084874,1.3486202454600165,7.316893152428189e-05,0.0010846204549990097,-0.0010579208837746767,0.001828211849387374,-0.0005421656451427726,-0.0015629548288797826,-0.0029244493395780753,0.3165166676044464,-50.13882827758789,-6.698197364807129,17.18085479736328,1.6368509531021118,-0.9931137561798096,0.06596527993679047,,,,,,,,,
1739302926.4404109,-0.08420957241851687,1.0474758268486388,-0.3789506331017251,-1.4580204040288411,1.5358366214354213,1.1751282522978472,1.3486318726944222,-8.77171821341236e-05,0.0009410147680599815,0.0012638377660447108,-0.00017027260504417105,-0.0008951282530065711,0.0013917645422740186,0.0011290404835466307,0.3165166676044464,-50.16659927368164,-6.801346778869629,17.15705108642578,1.6304422616958618,-0.9995224475860596,0.0064559997990727425,,,,,,,,,
1739302926.4512956,-0.08420956367001682,1.047472725994644,-0.3789583578530313,-1.4580245653699886,1.5358414240506806,1.1751259099689164,1.348628617748793,-7.460068385823355e-05,-0.00025819777977730094,-0.00028485451082212854,-0.0011254687675037096,0.0006512453911954698,-0.0016079753616587988,0.0027364373945212624,0.3165166676044464,-50.11502456665039,-6.722001075744629,17.20862579345703,1.6167093515396118,-0.9931137561798096,-0.0008682189509272575,,,,,,,,,
1739302926.4613626,-0.08420956366996744,1.0474699641118488,-0.3789538195889133,-1.4580203956438986,1.5358438844072886,1.1751285391662396,1.3486233843459001,-0.00016203017683960884,-0.0020365418576195724,0.0005528801270699349,0.0005626206885110819,0.00274681922100866,0.0012340524965701641,-0.0025674549640556303,0.3165166676044464,-50.11502456665039,-6.749772071838379,17.15705108642578,1.6231180429458618,-1.0059311389923096,0.03941498324275017,,,,,,,,,
1739302926.4713745,-0.08420887505425537,1.047471648137564,-0.37895654082527913,-1.4580186167409068,1.5358438458094459,1.1751273378158476,1.3486202512742176,-2.5015904125892728e-05,-0.00191070207629996,0.00016230284872495064,0.0005757815048556237,0.0011681902381946543,0.00023836870058168986,-0.0012043997065291213,0.2927129566669464,-50.13882827758789,-6.749772071838379,17.13324737548828,1.6231180429458618,-0.9931137561798096,0.06596527993679047,,,,,,,,,
1739302926.4824305,-0.08420997607582699,1.0474718777710348,-0.3789602551005243,-1.4580221783157215,1.5358390426957138,1.175126221152491,1.3486203126085141,0.00020066847066869,-0.000717697894598338,-0.0008016695371836249,0.000727694370417161,-2.802936494865349e-05,-0.0015515962418957505,-0.0013224669365329473,0.2927129566669464,-50.13882827758789,-6.698197364807129,17.18085479736328,1.6368509531021118,-0.9867050647735596,0.05314789339900017,,,,,,,,,
1739302926.4933884,-0.08420956659814789,1.047472235418497,-0.37895176824589405,-1.4580221772982291,1.5358410709097512,1.1751271357933786,1.3486226346801977,2.197859677420034e-05,-0.000801653692672316,0.0011343739068845648,0.00021597517418883472,0.0005208984215571649,0.000938031536320432,-0.0022927662898923184,0.3165166676044464,-50.11502456665039,-6.773575782775879,17.18085479736328,1.6167093515396118,-0.9931137561798096,0.04673920199275017,,,,,,,,,
1739302926.5043573,-0.0842080874682593,1.047473647489667,-0.3789586958169733,-1.458020396583497,1.5358390426877382,1.1751230992852317,1.34862373755129,9.630583575118007e-05,-9.073418791915509e-05,-2.8503985897026813e-05,0.0007590422843769146,0.000228026205416171,-0.0008546495511499657,-0.00032518784466073236,0.2927129566669464,-50.16659927368164,-6.722001075744629,17.15705108642578,1.6368509531021118,-0.9931137561798096,0.03941498324275017,,,,,,,,,
1739302926.514363,-0.08420965493951264,1.0474739534544188,-0.37895661575896267,-1.4580203956387112,1.5358414234226034,1.1751232555502238,1.3486292564386666,-0.0008731146322116859,0.0008534314220006147,0.0004225548601662388,0.0007177238834645211,-0.00013167869626809774,-0.001616680814267125,0.0020550262286331187,0.3165166676044464,-50.16659927368164,-6.749772071838379,17.15705108642578,1.6167093515396118,-0.9931137561798096,0.026597600430250168,,,,,,,,,
1739302926.5253043,-0.08420785514600522,1.0474683003730716,-0.37895868131828714,-1.4580221783157143,1.5358375278540881,1.175126731324992,1.3486217608052076,0.00025211527349518274,-0.0026816282514241455,6.440630774454567e-05,0.0006635694256985372,-0.0006622710322071536,0.0005114139512093747,-0.002587516265977986,0.2927129566669464,-50.06344985961914,-6.722001075744629,17.18085479736328,1.6496683359146118,-0.9867050647735596,0.05314789339900017,,,,,,,,,
1739302926.53536,-0.08421168956903212,1.0474767416169433,-0.3789566275284365,-1.4580203995229044,1.5358390034438825,1.1751281340995894,1.3486304197529377,0.00015010324091196454,0.002215491748246724,-0.000819834390973619,-0.0006531258673981922,-0.000776469540207452,0.0013639138626438325,0.001980196214606494,0.3165166676044464,-50.16659927368164,-6.749772071838379,17.15705108642578,1.6368509531021118,-0.9995224475860596,-0.020094294100999832,,,,,,,,,
1739302926.5453742,-0.08420613866450734,1.0474737267653913,-0.3789565454618337,-1.4580242579925815,1.5358390426890662,1.1751243159068094,1.3486258832928832,0.0012452813749560246,-0.000388430542915627,0.0008450153614609629,-0.0015238488281298585,-0.00019243209544425507,-0.0007080739399648989,0.0001838792738467964,0.2689092457294464,-50.13882827758789,-6.749772071838379,17.20862579345703,1.6368509531021118,-0.9931137561798096,0.019273381680250168,,,,,,,,,
1739302926.5554123,-0.08421177705452047,1.0474736461121712,-0.37895662763448446,-1.4580242786231403,1.53584142390712,1.1751265799643564,1.348626510292791,7.283827322317464e-05,0.0012272072005822371,0.0003586776734433809,-0.0008519527213663033,0.001343866946069575,-0.00140480112494852,8.781032683047401e-05,0.3165166676044464,-50.16659927368164,-6.749772071838379,17.18085479736328,1.6167093515396118,-0.9867050647735596,0.012864691205322742,,,,,,,,,
1739302926.565429,-0.08421172460067046,1.0474757383010436,-0.3789566273148837,-1.4580203956742641,1.5358384027672227,1.1751274555746833,1.34862632607517,-9.319156315611696e-06,0.0005073087704838459,-0.00017194068555672617,0.0007185270133473833,-0.00020540349793398327,0.0006259997824411962,0.0004898046077628374,0.3165166676044464,-50.16659927368164,-6.749772071838379,17.15705108642578,1.6432596445083618,-0.9931137561798096,0.026597600430250168,,,,,,,,,
1739302926.5763588,-0.08421001205465392,1.0474760469500226,-0.3789548449231894,-1.4580168302846572,1.5358379831061013,1.1751267240271148,1.3486335986753775,0.0003292547469544874,0.0012879846906199257,0.0005319133265671102,0.0022755496737669047,-0.0005719666873591434,0.0003170933581823662,0.0016329585255960614,0.2927129566669464,-50.16659927368164,-6.773575782775879,17.10944366455078,1.6368509531021118,-0.9867050647735596,-0.020094294100999832,,,,,,,,,
1739302926.5873077,-0.08421250755310494,1.0474737176983588,-0.3789558216240951,-1.4580186129239914,1.5358390427375848,1.1751241545108277,1.348624899676026,-0.0010188229257039967,0.00023676882531002756,0.00021971784365847706,0.000674705829159465,0.0009448813896484942,-0.00022873660931586252,-0.0002336754036121899,0.3165166676044464,-50.13882827758789,-6.749772071838379,17.13324737548828,1.6368509531021118,-0.9931137561798096,0.026597600430250168,,,,,,,,,
1739302926.5973084,-0.08421157084125838,1.0474681710770724,-0.37895659849236857,-1.4580221787356282,1.5358401564696205,1.1751264220465523,1.348628904432671,-0.0006655739779872331,-0.0018601980837772165,0.00023328072236809588,-0.0007389031607306713,0.0005264893549800202,0.0006433376012217572,0.0008868878297578399,0.3442876636981964,-50.08725357055664,-6.722001075744629,17.18085479736328,1.6304422616958618,-0.9931137561798096,-0.0072769103571772575,,,,,,,,,
1739302926.6073253,-0.08421009466785852,1.0474765041240934,-0.3789597875298631,-1.4580202857503037,1.5358382850356835,1.1751282510115628,1.3486265632523122,-5.1992345672843105e-05,0.0014198980977708758,-0.0019120471132028235,-0.0003907321945262802,-0.00087374880835236,0.0007569693391364732,-0.0010558892215412792,0.2927129566669464,-50.16659927368164,-6.698197364807129,17.15705108642578,1.6432596445083618,-0.9995224475860596,0.03941498324275017,,,,,,,,,
1739302926.6173816,-0.08420943085875232,1.047469511017377,-0.3789587103334765,-1.4580196264143221,1.5358396066089126,1.1751232562706102,1.3486225205402644,0.0006651950006330473,-0.0015485709714340842,-0.0011763631067652188,0.0002354715716645377,-4.9066843257003674e-05,-0.00018246728810668604,-0.0021506087949736703,0.3442876636981964,-50.13882827758789,-6.722001075744629,17.15705108642578,1.6231180429458618,-0.9931137561798096,0.04673920199275017,,,,,,,,,
1739302926.6274223,-0.08420808734820774,1.0474737481391256,-0.3789565111156709,-1.458022178346365,1.5358390426837492,1.1751250720914157,1.3486306167731863,0.00020096528442360907,0.0011941958671207484,-0.0005925627658120952,-0.0004024748483437856,-0.00022891783523141737,-0.0005245381761713071,0.0008789151656506873,0.2927129566669464,-50.16659927368164,-6.749772071838379,17.18085479736328,1.6368509531021118,-0.9995224475860596,0.0064559997990727425,,,,,,,,,
1739302926.6393685,-0.08420967837458458,1.0474774277270518,-0.37895800541481317,-1.4580206253669281,1.5358390426897308,1.1751235577462658,1.3486257642863408,5.352472740088312e-06,0.0025267991697677217,-0.0003984569158484255,-4.3955704209791536e-05,0.00023043076114564998,-8.981217091291185e-05,0.0004623822913023387,0.3165166676044464,-50.19040298461914,-6.722001075744629,17.15705108642578,1.6368509531021118,-0.9867050647735596,-0.0072769103571772575,,,,,,,,,
1739302926.6503577,-0.08421092610471521,1.0474745900603581,-0.3789565497424313,-1.4580203091528878,1.5358382850296526,1.1751259642108656,1.348620245435714,-0.0017269433985741987,0.0007851202524015753,0.0006567009877296869,0.001996017471050296,-0.00042746324528497614,0.00016606395888561174,-0.0012428265481439862,0.2927129566669464,-50.16659927368164,-6.749772071838379,17.15705108642578,1.6432596445083618,-0.9931137561798096,0.06596527993679047,,,,,,,,,
1739302926.6622872,-0.08420613997794785,1.0474706285846431,-0.378960490102311,-1.458022203825033,1.5358417651310277,1.1751274945992212,1.3486244830563667,0.0019505536643130918,-0.001294909614313587,-0.0003424192533584526,-0.0007586474884517798,0.0007537786704110737,0.00032491895259661844,0.00010033846621844634,0.2689092457294464,-50.11502456665039,-6.698197364807129,17.18085479736328,1.6231180429458618,-0.9931137561798096,0.03941498324275017,,,,,,,,,
1739302926.6723247,-0.0842119257799717,1.047468629277651,-0.3789547399943599,-1.4580221768461574,1.535839042695934,1.1751271928451499,1.3486281467787946,-0.0005285181897827812,-0.0017148746009260675,0.00039008937169820307,-0.0008069135594856975,0.0002627024889188382,0.001161507723077539,0.00034384859812651463,0.3165166676044464,-50.08725357055664,-6.773575782775879,17.18085479736328,1.6368509531021118,-0.9995224475860596,-0.0008682189509272575,,,,,,,,,
1739302926.683394,-0.08421169087838092,1.0474782753504106,-0.3789563580017129,-1.458020506181183,1.535837927456292,1.1751229030519934,1.3486264037055014,-0.0004792204287331546,0.003003039828040172,0.0006737203425209379,-2.805296307441512e-05,-0.0008405937182343144,-0.001015004761252088,0.0015154686777368626,0.3165166676044464,-50.21817398071289,-6.749772071838379,17.15705108642578,1.6432596445083618,-0.9931137561798096,-0.013685601763427258,,,,,,,,,
1739302926.6943614,-0.0842095991322415,1.0474679376900922,-0.37895383061847737,-1.45802203286737,1.5358422739258721,1.1751243156695466,1.348628145061979,-0.0004581019804375368,-0.0014366915515905327,0.0013097894402534641,-0.0010899902261868007,0.0010192186948208182,-0.00010407202766224191,0.00038530499007293276,0.3165166676044464,-50.08725357055664,-6.773575782775879,17.20862579345703,1.6368509531021118,-0.9931137561798096,-0.0008682189509272575,,,,,,,,,
1739302926.7043998,-0.08420959121191655,1.0474679376745322,-0.3789545329485708,-1.4580203681163493,1.5358405471279972,1.175127455505564,1.3486233843379145,0.0004639171546258924,-0.0009872118645524416,0.0002006960881766597,-0.0006804225156104864,-0.00120400986455623,0.0003398816414692932,-0.00047524609427072547,0.3165166676044464,-50.08725357055664,-6.773575782775879,17.15705108642578,1.6231180429458618,-0.9931137561798096,0.03941498324275017,,,,,,,,,
1739302926.715416,-0.08421093452950078,1.0474744287050595,-0.37895381926855704,-1.4580186126220482,1.535839800347792,1.1751281347450446,1.3486272808753597,0.00012400745918915012,0.0008444685193307762,0.0005315583726490738,-5.171703117844357e-05,0.0010691025403204322,0.0009782038442818304,-0.00029516188124809246,0.2927129566669464,-50.13882827758789,-6.749772071838379,17.13324737548828,1.6304422616958618,-0.9995224475860596,0.0064559997990727425,,,,,,,,,
1739302926.7263548,-0.08420956500785394,1.0474753585908199,-0.37895871625076494,-1.458018283258795,1.5358411371973215,1.1751249067827425,1.348625765555313,0.0010698294660204854,0.0003640043551632288,-0.0008817671070241905,0.00126449664213833,0.0009682446217374072,-0.00021081574048664525,-0.0014347982294830048,0.3165166676044464,-50.19040298461914,-6.722001075744629,17.13324737548828,1.6231180429458618,-0.9802963733673096,0.019273381680250168,,,,,,,,,
1739302926.7372882,-0.08421251585744223,1.0474738178344178,-0.37895250590585094,-1.458021436529478,1.5358390426385542,1.1751239583293984,1.3486313271405306,-0.0009710221000746197,0.0008605923070525427,0.0009507875416149051,-0.0005487052061738569,-0.00015032492657298622,-0.0001226869056285625,0.0019978881824841894,0.3165166676044464,-50.13882827758789,-6.773575782775879,17.18085479736328,1.6368509531021118,-0.9931137561798096,-0.0008682189509272575,,,,,,,,,
1739302926.747333,-0.08421008499708048,1.0474774253487114,-0.3789548444912552,-1.4580221752506966,1.535837984505151,1.1751259249290458,1.3486221161467555,0.0008549411535771099,0.0017825283445447367,0.00047746778480018965,0.0003701951955506112,-0.000914815730078802,-0.00023937896738395774,-0.00021780050850916661,0.2927129566669464,-50.19040298461914,-6.773575782775879,17.18085479736328,1.6368509531021118,-0.9931137561798096,0.05314789339900017,,,,,,,,,
1739302926.7583704,-0.08420879632986562,1.0474716482877546,-0.3789548449588544,-1.458022406886473,1.5358398017973862,1.1751270892738217,1.348630577529324,-6.93749710236149e-05,-9.225104904700941e-05,0.0005625172703969931,-0.0005532759328464266,3.401063673404638e-05,0.00025768262539841596,0.001600225165999477,0.2927129566669464,-50.13882827758789,-6.773575782775879,17.18085479736328,1.6304422616958618,-0.9931137561798096,0.0064559997990727425,,,,,,,,,
1739302926.7693193,-0.08421263831721672,1.047473646076972,-0.3789566276358761,-1.4580260407864596,1.5358384027672471,1.1751240134393786,1.3486248998754156,-0.0006309073814762465,0.0013202499162719285,-7.032320929868977e-05,-0.0018575461020169009,-0.00014087091650879315,8.955825649026034e-06,-0.000572278178797532,0.3165166676044464,-50.16659927368164,-6.749772071838379,17.23242950439453,1.6432596445083618,-0.9995224475860596,0.026597600430250168,,,,,,,,,
1739302926.7794032,-0.08420983924882237,1.047476630724367,-0.3789566266728991,-1.4580220958994152,1.5358378980255516,1.1751263824190992,1.3486240605628512,-0.0008988291963724804,0.0007789088706888932,0.0002295125198637963,0.0012202695638773577,0.0015261252802076636,-0.0020894665892634352,-0.0011900865537754005,0.3165166676044464,-50.16659927368164,-6.749772071838379,17.18085479736328,1.6496683359146118,-0.9867050647735596,0.03300629183650017,,,,,,,,,
1739302926.7903874,-0.08420960266199902,1.047472566820946,-0.3789566189334115,-1.4580222548446695,1.5358446028236006,1.175127376599113,1.3486202050670102,0.0011525063911316585,-0.00014173890529243819,0.0012303789275086008,-0.0005453330996150118,0.0010173894446510662,0.002297590923142872,-0.0029051491042233145,0.3165166676044464,-50.13882827758789,-6.749772071838379,17.18085479736328,1.6167093515396118,-0.9931137561798096,0.06596527993679047,,,,,,,,,
1739302926.8012938,-0.08421439625104345,1.047474047462858,-0.3789541416645778,-1.458020395639127,1.535836582261345,1.1751237882155725,1.3486248996578527,-0.0012177102148458955,0.0006441188502732426,0.0010917568092594701,0.0003996277522024583,-0.0012447266317226417,0.00020803900290312347,-0.00036848089247654104,0.3442876636981964,-50.13882827758789,-6.773575782775879,17.15705108642578,1.6304422616958618,-0.9931137561798096,0.026597600430250168,,,,,,,,,
1739302926.811331,-0.08420820113946285,1.0474753586383334,-0.37895869585809683,-1.4580242489482031,1.5358390426352324,1.1751282459602854,1.348625752146312,0.00108030303393468,0.0013425993699087387,-3.512694040830994e-05,-0.0016411445253432294,-0.00020523542757784984,0.0001370169771265328,0.0007440301147948688,0.2927129566669464,-50.19040298461914,-6.722001075744629,17.20862579345703,1.6368509531021118,-0.9995224475860596,0.019273381680250168,,,,,,,,,
1739302926.8222854,-0.0842103899604134,1.0474700471026892,-0.37895474049361605,-1.4580203956386435,1.5358406662470414,1.175124720356146,1.34862728528977,0.0007316091711746215,-0.00039750452546900855,0.0010272101198450438,-9.598099977626255e-05,0.0001654986372139451,0.0008853947333160176,-0.0001514217410232251,0.3165166676044464,-50.11502456665039,-6.773575782775879,17.15705108642578,1.6231180429458618,-0.9995224475860596,0.0064559997990727425,,,,,,,,,
1739302926.8323696,-0.08420914693337223,1.0474720955407701,-0.3789566247451759,-1.4580203956386952,1.535839957333236,1.175126719660704,1.3486226870162563,0.00011360363530336671,-0.0008891132503856755,-0.0006707130856496693,0.0001532318256587564,0.0009865298331830144,0.0005303405795122523,-0.000492866085697052,0.2927129566669464,-50.13882827758789,-6.749772071838379,17.15705108642578,1.6304422616958618,-0.9867050647735596,0.04673920199275017,,,,,,,,,
1739302926.8433762,-0.08421251500069456,1.047473722748887,-0.37895460999244346,-1.4580214365690236,1.5358407854390481,1.1751235517345786,1.3486265277922247,-0.0012514451370775198,-0.00037051088250744625,0.0014493733896421244,0.00019092734199159886,3.8423718261883667e-05,-0.0005989766445700208,0.0016296152711814272,0.3165166676044464,-50.16659927368164,-6.773575782775879,17.18085479736328,1.6231180429458618,-0.9867050647735596,0.012864691205322742,,,,,,,,,
1739302926.854394,-0.08420600830502883,1.0474737594543215,-0.3789548448505332,-1.4580203678232466,1.5358382864838758,1.1751269666281292,1.3486281065456152,0.0009558770857383244,0.00039792823034340047,0.0007642912982364102,3.112948949647782e-05,-0.0001642199831879184,-0.0008876011519575705,0.0014823377918371451,0.2689092457294464,-50.16659927368164,-6.773575782775879,17.15705108642578,1.6432596445083618,-0.9931137561798096,-0.0008682189509272575,,,,,,,,,
1739302926.8653586,-0.0842095724177873,1.0474737144311084,-0.3789586255726828,-1.4580202858551181,1.5358390614243866,1.1751252661672933,1.348623384337697,0.0015623575135179893,0.0007070123586272531,-6.5277147419198e-05,0.0002473390258219951,-0.0005406884591231091,-4.882017859369296e-05,-0.002024789615914309,0.3165166676044464,-50.13882827758789,-6.722001075744629,17.15705108642578,1.6368509531021118,-0.9867050647735596,0.03941498324275017,,,,,,,,,
1739302926.8753731,-0.08420998104463515,1.0474716481711093,-0.37895776274387116,-1.4580202857484375,1.5358376298392091,1.1751221453729852,1.348627239961755,0.0005476140892251462,-0.000991712464739617,-0.00018867254733457992,-0.0011506206141624958,-0.001210678432456497,-0.0011347744034370558,0.0008071043137712147,0.2927129566669464,-50.13882827758789,-6.722001075744629,17.15705108642578,1.6368509531021118,-0.9867050647735596,0.03300629183650017,,,,,,,,,
1739302926.887363,-0.08420859914475735,1.0474753627968458,-0.37895378071376085,-1.4580186129610557,1.5358414238453093,1.1751263956979547,1.3486241686434102,0.0014853678067275405,0.0013176031869412308,0.0011393141099769002,0.0015229712942853666,5.4394840584526716e-05,0.0008996218290511556,-0.0006313156788439545,0.2927129566669464,-50.19040298461914,-6.749772071838379,17.13324737548828,1.6167093515396118,-0.9931137561798096,0.05955658480525017,,,,,,,,,
1739302926.8983295,-0.08420988298765186,1.047473876120146,-0.37895266045792225,-1.4580200659734994,1.535837645107144,1.1751239583333857,1.348627320918347,0.00024207758964636016,0.0002347927294717546,-0.00015597284897559186,0.001675353641317798,-0.00017599467353327647,-0.0014987805918162656,-0.0002498861757787728,0.3165166676044464,-50.16659927368164,-6.773575782775879,17.15705108642578,1.6496683359146118,-0.9931137561798096,0.03300629183650017,,,,,,,,,
1739302926.9093077,-0.08420956408329244,1.047469935619281,-0.37895639252548663,-1.4580242550475313,1.5358393308550737,1.1751247143205854,1.3486288900436658,0.0006472469862546838,-0.0007515791228597728,0.0001655039411742465,-0.0008511940087484453,0.00030972944851499464,0.00015671198566008998,-0.0008971965159287961,0.2689092457294464,-50.11502456665039,-6.749772071838379,17.20862579345703,1.6304422616958618,-0.9995224475860596,0.019273381680250168,,,,,,,,,
1739302926.919399,-0.08421104097607157,1.047469936560193,-0.3789563936284742,-1.458020357991692,1.535837486840186,1.175125553751799,1.3486273211268096,0.0006657334400119155,-0.0019238505859052743,0.000724501390927422,9.657122849720173e-05,-0.00030375079276126645,0.0003234132651697738,-0.0009930052984608185,0.2927129566669464,-50.11502456665039,-6.749772071838379,17.15705108642578,1.6231180429458618,-0.9867050647735596,0.03300629183650017,,,,,,,,,
1739302926.9294078,-0.08420932747700606,1.0474744401477352,-0.3789537925231578,-1.458024686125741,1.5358382849578696,1.1751228854471862,1.3486296796071333,0.00013505845036859926,0.0012464403962017259,0.0007182308767448502,-0.000997735649548964,-0.001108723505202461,0.00033015468224280943,0.0012228891776431621,0.2689092457294464,-50.13882827758789,-6.749772071838379,17.18085479736328,1.6432596445083618,-0.9931137561798096,-0.013685601763427258,,,,,,,,,
1739302926.9403453,-0.08421106630472001,1.047472643069336,-0.37895276483200485,-1.458018585503733,1.5358382851911578,1.1751242760985856,1.3486297016331388,-0.001235544635318427,0.0012459203734284745,0.0007224123004923609,0.0009349993030846675,0.0005571679836880064,0.000244934572653797,0.0012641078759886236,0.2927129566669464,-50.13882827758789,-6.801346778869629,17.13324737548828,1.6432596445083618,-0.9931137561798096,0.012864691205322742,,,,,,,,,
1739302926.9503534,-0.08421645423193713,1.0474737402720604,-0.37895870742572596,-1.4580259542958842,1.5358398395956687,1.1751234012107998,1.348626562514965,-0.0012893278073302478,-0.0001923308856254352,-0.0009666855719427892,-0.0017536251815105837,-9.269763081855119e-05,-0.0002377008487024984,-1.2553650767581966e-05,0.3680913746356964,-50.13882827758789,-6.722001075744629,17.23242950439453,1.6304422616958618,-0.9867050647735596,0.012864691205322742,,,,,,,,,
1739302926.9603665,-0.0842146707498099,1.0474737230276174,-0.378956277754219,-1.4580221657623365,1.5358390426917248,1.1751224577417156,1.3486285409017507,-0.0006638216646771989,-0.0001660365168975996,-2.750818931927948e-05,-0.0002817879695801396,-0.0002753016674010971,-0.0018748596852777067,0.0005234475016566975,0.3442876636981964,-50.16659927368164,-6.749772071838379,17.18085479736328,1.6368509531021118,-0.9867050647735596,-0.0072769103571772575,,,,,,,,,
1739302926.9712856,-0.08421404168215785,1.047470015306721,-0.37895800536725815,-1.458021436569,1.5358406662470419,1.1751251629063197,1.3486328471396274,-0.0013556833247279185,-0.002362738450563476,-3.87266130436498e-05,-0.0001361177206360851,0.0009581445569478553,0.0003436805014207344,0.003077598933526493,0.3442876636981964,-50.08725357055664,-6.722001075744629,17.18085479736328,1.6231180429458618,-0.9867050647735596,-0.013685601763427258,,,,,,,,,
1739302926.98132,-0.08420933612598656,1.047472342495915,-0.37895621461585366,-1.4580221783031528,1.5358429749035465,1.1751277272404648,1.3486272809292987,0.0011504176659386397,0.0010283357444168116,-0.0009183511557663419,-0.0013198369132610798,-0.00029598165002658357,-0.0015638043685924697,-0.00074292050076864,0.2689092457294464,-50.13882827758789,-6.749772071838379,17.18085479736328,1.6304422616958618,-0.9995224475860596,0.0064559997990727425,,,,,,,,,
1739302926.991347,-0.08421316211537337,1.0474736756927019,-0.37895379358745873,-1.458020404141964,1.5358382981653662,1.1751250670997742,1.3486248996580819,0.0007106345015146761,0.001559022465149172,-0.00010938860214377579,0.0002522065650941608,-0.00030775067126233323,0.000551075337815793,-0.0011812485907627406,0.2927129566669464,-50.16659927368164,-6.749772071838379,17.15705108642578,1.6432596445083618,-0.9995224475860596,0.026597600430250168,,,,,,,,,
1739302927.001383,-0.08421003780162235,1.0474753841080089,-0.37895350754227813,-1.4580235162459694,1.5358406662472641,1.1751259400417386,1.3486253836903128,0.0008240521973714451,0.0017032418055209903,0.0002719999833887286,-0.0011339976397495475,0.0009537023922185962,0.0011914277401376332,-0.0001382943424059704,0.2689092457294464,-50.19040298461914,-6.749772071838379,17.20862579345703,1.6231180429458618,-0.9802963733673096,0.026597600430250168,,,,,,,,,
1739302927.0123188,-0.08421009519382927,1.0474736460771135,-0.3789584734046984,-1.4580203946170223,1.5358401029738826,1.1751219834075743,1.348622270979482,0.0004710157700616587,-0.0008085663997953896,-0.0003421264578509541,0.0006288847780843343,0.00012330499941413418,-0.002360551111707901,-0.0012905274560093905,0.2927129566669464,-50.16659927368164,-6.722001075744629,17.15705108642578,1.6368509531021118,-0.9867050647735596,0.05314789339900017,,,,,,,,,
1739302927.0233438,-0.08421275251312947,1.0474707046888203,-0.37895800156224174,-1.4580221779765468,1.535842976363082,1.1751247181759399,1.3486272815780973,-0.0006992077881317704,-0.00013548465730396305,-2.622849202757704e-05,-7.484226681562108e-05,0.0012828632846916027,-0.0005994327382858832,0.0002555454752319606,0.3165166676044464,-50.11502456665039,-6.722001075744629,17.18085479736328,1.6304422616958618,-0.9995224475860596,0.0064559997990727425,,,,,,,,,
1739302927.0343719,-0.0842127525184629,1.0474753589169779,-0.37895461095145216,-1.4580203680535397,1.5358390253188918,1.1751217402307195,1.3486281467725962,-0.00032231000646517656,0.00027246222414537393,0.001491126249030306,0.0002945791462269359,-0.0004617070679039923,-0.0012492515726027467,-0.00040913339469332994,0.3165166676044464,-50.19040298461914,-6.773575782775879,17.15705108642578,1.6368509531021118,-0.9802963733673096,-0.0008682189509272575,,,,,,,,,
1739302927.0460346,-0.08421096093671127,1.047470012472155,-0.378954521603773,-1.4580203956008548,1.5358414639439424,1.1751266789971833,1.3486312319270148,0.0005583310302411383,-0.0008255222853492017,-0.0002792604141042502,0.0011312708928302366,-2.1288603380552638e-05,0.000653213132525873,0.0024774816213651847,0.2927129566669464,-50.08725357055664,-6.749772071838379,17.15705108642578,1.6432596445083618,-0.9867050647735596,-0.013685601763427258,,,,,,,,,
1739302927.0564659,-0.08421244633901316,1.0474706330001289,-0.37895661763755895,-1.4580218455603782,1.5358390557896282,1.175127179601365,1.348629664093513,-0.0006496822567749383,0.0007884321181819516,-8.551477908233897e-05,-0.0009334419976236883,9.609788921314451e-05,0.0013129447648514236,0.0006269700009438173,0.3165166676044464,-50.11502456665039,-6.749772071838379,17.18085479736328,1.6368509531021118,-0.9995224475860596,-0.013685601763427258,,,,,,,,,
1739302927.067377,-0.08421103999600334,1.047473407662327,-0.37895871529301595,-1.4580181581492384,1.5358398003498832,1.1751284847596413,1.348627280875371,-0.0007130771194244649,0.0008432153959714189,-0.0022320428755846487,0.00045381544562180177,0.0004948865325188593,0.0009080616025010985,0.001135568290561682,0.2927129566669464,-50.16659927368164,-6.722001075744629,17.15705108642578,1.6304422616958618,-1.0059311389923096,0.0064559997990727425,,,,,,,,,
1739302927.0783644,-0.08421103999773172,1.0474757123699758,-0.3789587042158526,-1.458022178152345,1.535839462405352,1.1751255549392914,1.3486278187881047,0.0006195664018145463,0.0006288056859769886,-0.0003686058490894639,-0.00047069298109087595,0.0009443937921426572,0.0008125239827064255,0.0014248593352810222,0.2927129566669464,-50.16659927368164,-6.722001075744629,17.18085479736328,1.6432596445083618,-0.9867050647735596,-0.0072769103571772575,,,,,,,,,
1739302927.0884104,-0.08420791186668712,1.047474334981725,-0.3789584695703489,-1.458021436569021,1.5358396869928292,1.1751249538732347,1.3486257655369276,0.00038049354507589846,0.0008977474643326237,2.1589985175302095e-05,-0.0007855817682860564,0.0005171700042666186,0.00030415241517047387,-0.001549848469289287,0.2689092457294464,-50.16659927368164,-6.722001075744629,17.18085479736328,1.6304422616958618,-0.9995224475860596,0.019273381680250168,,,,,,,,,
1739302927.0994103,-0.08421275344880237,1.0474736460808585,-0.37895586182724167,-1.4580219022338836,1.5358386382417226,1.175126737090668,1.3486217607806132,0.0003830454185740326,0.000705385082139504,0.001283861277777388,-0.00024561755595991456,-0.0007094062892784736,-0.000134437048167748,-0.00042254825646039125,0.3165166676044464,-50.16659927368164,-6.722001075744629,17.18085479736328,1.6432596445083618,-0.9867050647735596,0.05314789339900017,,,,,,,,,
1739302927.1113198,-0.08421275251846817,1.0474737399402754,-0.3789577453956072,-1.4580203586685088,1.535838324277503,1.1751259511528407,1.3486268613981098,8.229346522380187e-05,-0.0008388496056535527,0.00013703780369370199,7.240097387727702e-05,-0.0009260598541212842,0.0006781861328435357,-0.00020516120682084272,0.3165166676044464,-50.13882827758789,-6.722001075744629,17.15705108642578,1.6432596445083618,-0.9931137561798096,-0.0008682189509272575,,,,,,,,,
1739302927.1223054,-0.08421299220435614,1.047469938453744,-0.37895860241186985,-1.458019653891935,1.535836620771528,1.1751288524392252,1.3486254049634172,-0.0005013574948762424,-0.002693565403405833,-0.00040146566696630596,-0.0003693267818793988,-0.0010628478772602905,0.0018286994881347141,-0.0003358964794890064,0.3165166676044464,-50.11502456665039,-6.722001075744629,17.15705108642578,1.6304422616958618,-1.0059311389923096,0.019273381680250168,,,,,,,,,
1739302927.1323836,-0.08421488338857275,1.0474755891308176,-0.37895358558963466,-1.4580203956261337,1.5358367783650015,1.175126080516142,1.348626523209175,-0.00083145425702599,0.0003773295588298516,0.0008497300176177901,4.588263824581421e-06,0.0006907997157066406,0.0009064455452067063,0.0009376472443147505,0.3165166676044464,-50.19040298461914,-6.749772071838379,17.15705108642578,1.6304422616958618,-0.9931137561798096,0.012864691205322742,,,,,,,,,
1739302927.1433892,-0.08421506615520416,1.0474743357878626,-0.37895639040536,-1.458019950023187,1.5358398003327502,1.1751263172241784,1.3486285002006428,-0.0011252080137801306,0.0009257238558062931,-0.0004954399513467649,0.0003299617166316444,0.0015203920719992269,0.001215987087982058,0.00022793966692208714,0.3442876636981964,-50.16659927368164,-6.749772071838379,17.18085479736328,1.6304422616958618,-0.9931137561798096,-0.0008682189509272575,,,,,,,,,
1739302927.1543648,-0.08421388115424813,1.0474719033430564,-0.37895839445685514,-1.4580203955884319,1.5358417266762348,1.175126719067851,1.3486265624631333,0.00021901121534382206,-0.0002243458044181614,-0.0015857125307827472,0.0007292948013068637,2.5529084839777828e-06,0.00043401815238398444,-0.0006140293971709415,0.2927129566669464,-50.13882827758789,-6.722001075744629,17.15705108642578,1.6496683359146118,-0.9867050647735596,0.012864691205322742,,,,,,,,,
1739302927.1654541,-0.08421560649589936,1.0474716594781301,-0.37894968524214145,-1.4580203834288723,1.5358400360575704,1.175125978049189,1.3486234061902942,-0.0012891791302358613,-0.00012781793809745647,0.001805608206362124,0.0009561778260362535,0.0013807491120542757,0.000683784315194297,-0.0006624026016522461,0.3165166676044464,-50.13882827758789,-6.801346778869629,17.15705108642578,1.6304422616958618,-0.9802963733673096,0.03941498324275017,,,,,,,,,
1739302927.1763484,-0.0842127555550911,1.0474695024739045,-0.3789542065869211,-1.4580152936962927,1.5358375273161824,1.175127735826918,1.348623384553306,-0.00038260977031489467,-0.0004361608653780474,0.0010110291464314857,0.0017773655046537087,-0.0009947491875128,0.00013520940354208664,-0.0011347262309494724,0.3165166676044464,-50.13882827758789,-6.749772071838379,17.10944366455078,1.6496683359146118,-0.9995224475860596,0.03941498324275017,,,,,,,,,
1739302927.1863642,-0.0842113511551962,1.047470649853639,-0.37895452145709585,-1.4580252990098759,1.5358398134317606,1.175123844949785,1.3486249015961516,-7.259915936135789e-05,-0.0001664665291463,0.0004995794229671246,-0.001604462424349431,0.00046230391328878066,-0.0001731897237523082,-0.0007920506691964686,0.2927129566669464,-50.11502456665039,-6.749772071838379,17.23242950439453,1.6304422616958618,-0.9931137561798096,0.026597600430250168,720,732,760,41.717,0,0
1739302927.1973455,-0.08421103999948822,1.04747535954654,-0.37896048003310107,-1.4580199500189996,1.5358390412362546,1.1751271927707123,1.3486201259506874,0.0003125353397722756,0.0012112105560232928,-0.0012064666341523116,-0.00015044145507048788,-0.00043919588749286026,0.00016326475312780018,-0.0017317243281207621,0.2927129566669464,-50.19040298461914,-6.698197364807129,17.18085479736328,1.6368509531021118,-0.9995224475860596,0.03941498324275017,721,731,760,41.717,0,0
1739302927.2073708,-0.08421317086378248,1.0474708209206873,-0.37896048721364906,-1.4580221664880704,1.535840666247017,1.1751249028395452,1.348630240956267,-0.00043477094290461996,-0.00034740278988824733,-0.0022930593098136817,-0.0006959973069028865,0.0004940257319198684,-0.0009019240517987994,-0.0003421020874011215,0.2927129566669464,-50.13882827758789,-6.698197364807129,17.18085479736328,1.6231180429458618,-0.9995224475860596,-0.0008682189509272575,724,731,760,41.826,0,0
1739302927.2183437,-0.08421475047134477,1.0474717256056747,-0.3789545753252701,-1.4580203922470112,1.5358406708230332,1.175127023854014,1.3486227461655231,-0.0011319955480437556,0.000566363249786882,0.0012861333899831767,9.173291633724032e-05,0.0010910092176738113,0.0009354975393513003,-0.0017252485495964853,0.3442876636981964,-50.13882827758789,-6.773575782775879,17.15705108642578,1.6231180429458618,-0.9931137561798096,0.03300629183650017,719,730,760,41.717,0,0
1739302927.2293255,-0.08421128942695401,1.0474716363627967,-0.37895657612416717,-1.4580241749867024,1.5358398003498352,1.1751246146047565,1.348628904424791,0.0002848561019546487,-0.00011306392910820023,-0.0006348309232168571,-0.0007943616115252913,0.00030283095945900717,0.0017280528287696927,0.002364749906679569,0.2927129566669464,-50.13882827758789,-6.749772071838379,17.20862579345703,1.6304422616958618,-1.0059311389923096,-0.0072769103571772575,719,732,760,41.717,1,0
1739302927.2393398,-0.08421300392782911,1.047470165203447,-0.3789586294237192,-1.45801745510514,1.5358394133450437,1.1751266804002254,1.3486268764279912,5.6410564248125284e-05,0.00013714935988909816,-0.0009497430037736353,0.00037225841944528237,0.001420511751176169,-0.0011723844305223303,0.00035547944438872625,0.3165166676044464,-50.11502456665039,-6.722001075744629,17.15705108642578,1.6368509531021118,-0.9867050647735596,0.012864691205322742,720,731,760,41.826,0,0
1739302927.250325,-0.08421276421471535,1.047473620534712,-0.37895484399455903,-1.4580194133953155,1.5358382850359298,1.1751266000439227,1.348623635563886,-5.2597852423893446e-05,-0.00021893446275297572,0.0004148463313990513,0.00207139875232647,-0.0007868400565059135,-0.0009021883621817856,0.0009136366695493834,0.3165166676044464,-50.16659927368164,-6.773575782775879,17.18085479736328,1.6432596445083618,-0.9867050647735596,0.07328949868679047,718,730,760,41.717,0,0
1739302927.2603757,-0.08421377852715829,1.0474736461118181,-0.37895662364129923,-1.4580220957330687,1.5358406662470419,1.1751267087583102,1.3486313257110056,-0.00046723216520384457,0.0005904953679617531,-0.0006901082075169682,0.00024199643890393147,0.0006219774557410879,0.0011265969339509891,0.000584706583116226,0.3165166676044464,-50.16659927368164,-6.749772071838379,17.18085479736328,1.6231180429458618,-0.9995224475860596,-0.0008682189509272575,720,731,761,41.608,0,0
1739302927.2713268,-0.08420932748279238,1.0474719455284591,-0.37895837412118333,-1.4580186128104713,1.5358382830915858,1.1751243113779435,1.3486210032448047,0.0014722198147617608,0.00040419214796021244,-0.0008306457683718218,0.0012429881052081083,-0.0012715639724193576,-0.0008541051092079223,-0.001791832314090117,0.2689092457294464,-50.13882827758789,-6.698197364807129,17.13324737548828,1.6432596445083618,-0.9931137561798096,0.05955658480525017,720,731,762,41.717,1,0
1739302927.282384,-0.08421146126604999,1.0474701911353672,-0.37895777136444014,-1.458016384669148,1.53583874652587,1.1751235582307653,1.3486263660057478,0.0008077504916836422,-0.001370314761272686,0.00025862286012638675,0.0008692200035851265,-0.000947293973696337,-0.0015871620279085414,-0.0004338635157198397,0.2689092457294464,-50.13882827758789,-6.722001075744629,17.13324737548828,1.6304422616958618,-0.9867050647735596,0.012864691205322742,714,732,760,41.826,1,0
1739302927.293315,-0.08421278778726109,1.04747612388368,-0.3789566271669364,-1.4580221783031355,1.5358407839786627,1.1751265656262495,1.3486239312906434,-0.0007249102182884867,0.001075618249847072,0.00025728467688412653,-0.00047911763886264143,0.000683985735142386,0.0017205490249242918,-0.0002915473896586779,0.3165166676044464,-50.19040298461914,-6.749772071838379,17.18085479736328,1.6231180429458618,-0.9867050647735596,0.04673920199275017,720,732,761,41.717,1,0
1739302927.304352,-0.08421475143424616,1.047468932884894,-0.3789587087339189,-1.458018612622514,1.5358406662490354,1.1751243907697217,1.348622876037979,-0.0008684260519604865,-0.000585453759239708,-0.001244299823752302,0.00045602582007232655,0.00016870257661721742,-0.0012048341297750337,-0.0007239087456731655,0.3442876636981964,-50.08725357055664,-6.722001075744629,17.13324737548828,1.6231180429458618,-0.9802963733673096,0.04673920199275017,718,732,759,41.717,1,0
1739302927.3144035,-0.08421104010599643,1.047473671483378,-0.3789584734223188,-1.458022991266472,1.5358390422052142,1.175125940086715,1.34862257513117,-0.0006081627859428852,-1.7763145686555443e-05,-0.001203523773297487,0.0001555735597702668,-0.0008171992707769558,0.00013567952308530433,0.0008476123244813099,0.2927129566669464,-50.16659927368164,-6.722001075744629,17.23242950439453,1.6368509531021118,-0.9802963733673096,0.04673920199275017,719,734,759,41.608,1,0
1739302927.3252897,-0.08421104010599155,1.0474720060390401,-0.3789586684773394,-1.4580153987088025,1.535841424698181,1.1751258427075943,1.3486231871982415,5.208070260010394e-05,-0.0006093189127713919,-0.001486393197633148,0.000899112561330614,2.7411968287684082e-05,-0.0005877777581568893,0.0005318239364914966,0.2927129566669464,-50.11502456665039,-6.722001075744629,17.13324737548828,1.6432596445083618,-0.9802963733673096,0.05314789339900017,719,731,760,41.717,1,0
1739302927.3352964,-0.08421275251846476,1.0474754351621838,-0.3789586033165545,-1.4580221782612806,1.5358366221346142,1.175126718264654,1.3486225186263539,-0.0009684832897886393,0.0006976054273136207,-0.00013580499975133898,-0.0008398643914933616,-0.0009761542131014058,-0.00037661638693821874,-0.0021868047285589862,0.3165166676044464,-50.19040298461914,-6.722001075744629,17.18085479736328,1.6304422616958618,-0.9867050647735596,0.04673920199275017,719,732,760,41.826,0,0
1739302927.3453236,-0.0842137346460254,1.0474716484523487,-0.37896045543381424,-1.45801995273648,1.5358391598889607,1.1751267370012983,1.3486202591879939,-0.0013065321811340578,-0.0013612234319002603,-0.001897325492548886,0.00022971712318115814,0.0008604700299372047,0.0012766208533836559,-0.002264566217663141,0.3165166676044464,-50.13882827758789,-6.698197364807129,17.18085479736328,1.6368509531021118,-0.9867050647735596,0.06596527993679047,720,730,760,41.717,1,0
1739302927.35535,-0.08421104878336023,1.0474716484510576,-0.37895662731429663,-1.458020395487951,1.5358398395976507,1.175127481579742,1.3486248996583132,-0.0004971931316545287,-0.00022572837287526286,-0.0005071473461782687,-0.00037068249381646434,4.611165666834388e-05,0.0010280044814844238,0.0003701375338550868,0.2927129566669464,-50.13882827758789,-6.749772071838379,17.15705108642578,1.6304422616958618,-0.9931137561798096,0.026597600430250168,718,732,760,41.826,2,0
1739302927.3663592,-0.08421306820237189,1.0474764011361075,-0.3789538283181518,-1.4580245368911227,1.5358378337084975,1.1751282111377765,1.3486234255218477,-0.0003451745419958879,0.0018235886988852684,-0.0005028168527058763,-0.0011234844343973567,-0.0002628512153527937,0.0017400637710241601,-0.0004559298363629594,0.3165166676044464,-50.16659927368164,-6.749772071838379,17.20862579345703,1.6560770273208618,-0.9995224475860596,0.03941498324275017,719,731,761,41.608,0,0
1739302927.3763685,-0.0842164629853933,1.047473953501052,-0.3789583578176602,-1.458019653783672,1.5358390428692554,1.1751257745398114,1.3486225249016126,-0.0004787125289077122,0.0009372478359311164,0.0003397867269209797,-9.367052789786042e-05,0.0006178314467494357,-0.0003723778043920934,-0.0017781530319480481,0.3680913746356964,-50.16659927368164,-6.722001075744629,17.15705108642578,1.6368509531021118,-1.0059311389923096,0.04673920199275017,720,732,759,41.608,0,0
1739302927.3863962,-0.084211039997732,1.0474757123869405,-0.3789586294068297,-1.4580238151656653,1.5358398003498184,1.1751265664488426,1.3486258832932114,0.0015331208336823877,0.00038470042769127386,-0.0012847510613023675,-0.0009695793830717783,-0.0013773399613121516,-0.00018349558284531584,-0.0009617445928369458,0.2927129566669464,-50.16659927368164,-6.722001075744629,17.23242950439453,1.6304422616958618,-0.9867050647735596,0.019273381680250168,719,734,760,41.717,1,0
1739302927.3972979,-0.0842095675959306,1.0474699356192732,-0.3789563849655157,-1.458024350970681,1.5358390558434634,1.1751236607177322,1.34862865696895,0.001220147014068292,-0.0016672993530336732,0.0007641379443568148,-0.0016151831422307919,-0.001209211024398899,0.0003360953658113539,0.000631174148597634,0.2689092457294464,-50.11502456665039,-6.749772071838379,17.20862579345703,1.6368509531021118,-0.9995224475860596,-0.0008682189509272575,720,735,761,41.717,1,0
1739302927.4082747,-0.0842134076307434,1.0474715003097577,-0.3789558125252025,-1.4580197048108332,1.5358401579233927,1.1751256610858303,1.348622531531284,-0.00027253975163113713,-0.0013932223524733248,0.0016900249630545394,0.0004050990796094685,0.00048582768982164976,0.0008449742219629142,-0.0011563992837446688,0.2927129566669464,-50.16659927368164,-6.749772071838379,17.18085479736328,1.6304422616958618,-1.0059311389923096,0.04673920199275017,721,734,758,41.717,0,0
1739302927.4182804,-0.08421145835641661,1.0474760463692252,-0.3789578927425562,-1.4580203951348318,1.5358406691561606,1.175128194322365,1.3486265673923126,0.0010100776114874057,0.001698991504260001,-2.136004020252165e-05,-0.0005728998118875051,-0.0005320841848861449,0.0002372877174927498,-0.0007511546174623687,0.2689092457294464,-50.19040298461914,-6.722001075744629,17.15705108642578,1.6231180429458618,-0.9995224475860596,0.03941498324275017,721,735,759,41.608,0,0
1739302927.4283776,-0.08420720172234938,1.047473646088617,-0.3789565467320082,-1.4580183657127708,1.5358358632908753,1.1751281347447258,1.3486297204501698,0.001006617505580769,0.00039406770015366715,-5.3718814636841237e-05,0.0007116356995690129,-0.0006665094267213645,0.001281164232580375,0.0020549696064138916,0.2689092457294464,-50.16659927368164,-6.749772071838379,17.13324737548828,1.6368509531021118,-0.9995224475860596,-0.013685601763427258,720,731,760,41.717,2,0
1739302927.4383805,-0.0842134626631398,1.0474701652036467,-0.3789563589639124,-1.4580183969302423,1.535839042474382,1.175125626288342,1.3486320848015971,-5.1320754364746643e-05,-0.0010944818921305144,-0.00036663147022539613,-0.0003883525841751973,-0.001129426344828462,3.159422485945671e-05,0.00151107373380415,0.3165166676044464,-50.11502456665039,-6.749772071838379,17.15705108642578,1.6368509531021118,-0.9802963733673096,-0.0072769103571772575,720,734,759,41.608,1,0
1739302927.4493275,-0.08421283144343655,1.0474698563497409,-0.37895371548479906,-1.4580203952505661,1.535844039063831,1.175127781531007,1.348622831498187,-0.0010108352050066608,-0.0005655858509858998,0.0005900445662345771,0.0005145397575202114,0.00025225051719006674,0.0008038044184694357,0.0009500850175779302,0.3165166676044464,-50.11502456665039,-6.749772071838379,17.15705108642578,1.6304422616958618,-0.9995224475860596,0.04673920199275017,719,733,759,41.717,1,0
1739302927.4603932,-0.08421030083601244,1.0474752791243933,-0.37895652294938054,-1.4580185305453748,1.535839683120684,1.1751251614581635,1.3486296218675131,0.0002752395641717235,0.0005007986921796539,-0.00018208397266728925,0.0010856738888771356,0.00023960491008122526,0.0003947524616023432,0.001142537134471982,0.2689092457294464,-50.19040298461914,-6.722001075744629,17.13324737548828,1.6304422616958618,-0.9867050647735596,-0.013685601763427258,720,737,759,41.717,1,0
1739302927.472326,-0.08421107507921075,1.0474756560245875,-0.37895659271582477,-1.4580186129612107,1.5358398002953124,1.1751248762495141,1.3486270340368216,0.0008128396557140691,0.0007400545597407341,-0.00043881025068880737,-0.00011878458702778557,-0.00015880786353160886,-0.0007987273109624558,-0.001038114902898802,0.2927129566669464,-50.19040298461914,-6.722001075744629,17.13324737548828,1.6304422616958618,-0.9802963733673096,0.03941498324275017,720,737,759,41.717,2,0
1739302927.4833279,-0.08421175029851012,1.0474753623774908,-0.37895662474296576,-1.4580242581055698,1.5358398003498093,1.1751232548150587,1.3486296620996165,0.0006613183254534567,0.0007637491611778898,-0.000705796326871191,-0.0021441520263982784,-0.00039709734129306267,0.0006177263938237695,3.367638445532354e-05,0.2927129566669464,-50.19040298461914,-6.749772071838379,17.20862579345703,1.6304422616958618,-0.9931137561798096,-0.013685601763427258,722,736,759,41.608,1,0
1739302927.4942794,-0.08421567368076384,1.0474744031952739,-0.3789586284615982,-1.4580203956386952,1.5358398003498093,1.1751220871781167,1.3486232631602852,-0.0008844916239254749,-1.0984360957435615e-05,0.00015164642798727018,0.0005448083771786875,-0.0002884782192035314,-0.0031802536849209863,-0.0019424884343921594,0.3165166676044464,-50.13882827758789,-6.722001075744629,17.15705108642578,1.6304422616958618,-0.9867050647735596,0.03941498324275017,719,737,759,41.717,0,0
1739302927.5042984,-0.08421106635419015,1.0474736343498696,-0.37895862813928494,-1.4580220836895932,1.5358406662470416,1.17512248092775,1.3486225576844961,0.0010433346482084144,-0.0003450864768233824,-0.0007765837458537071,-0.0010307360698753676,0.000525582687782625,-0.0018887894105097162,-0.001705880033567437,0.2927129566669464,-50.16659927368164,-6.722001075744629,17.18085479736328,1.6231180429458618,-0.9867050647735596,0.04673920199275017,721,737,760,41.717,0,0
1739302927.5144157,-0.08421103999907077,1.0474737226057942,-0.3789566033713836,-1.458022583197328,1.5358407185748506,1.175126311417063,1.3486273346587128,0.001409937431358661,0.0006062169527377315,-0.0007682776878114815,-0.0011653951366805313,0.0007065719567855514,0.00036796997601632256,0.0008567770988674548,0.2927129566669464,-50.16659927368164,-6.722001075744629,17.18085479736328,1.6231180429458618,-0.9931137561798096,0.0064559997990727425,720,737,760,41.826,2,0
1739302927.5263042,-0.08421104010599094,1.0474695026839844,-0.3789582969601976,-1.4580221782034222,1.5358391604812345,1.1751259640172258,1.3486185023934667,0.001233768126688513,-0.0008256448743892946,-0.0007173565990255253,-0.0011390705401948759,0.0011449299963891867,0.0008076299513181794,-0.0025461954168575105,0.2927129566669464,-50.13882827758789,-6.698197364807129,17.18085479736328,1.6368509531021118,-0.9931137561798096,0.05314789339900017,720,736,759,41.826,1,0
1739302927.5363958,-0.08421559663228294,1.0474682257924186,-0.3789566189210366,-1.4580186006387994,1.535838587459993,1.1751277813090186,1.3486280916360274,-0.00087000665423259,-0.0012840580886552806,-0.0006503845068555973,0.0005431591151402789,-0.00048045039162791835,0.0017538253025590116,0.0011165921328034343,0.3165166676044464,-50.08725357055664,-6.749772071838379,17.13324737548828,1.6368509531021118,-0.9995224475860596,0.026597600430250168,720,739,759,41.717,0,0
1739302927.547336,-0.08421275548962694,1.0474753841123865,-0.3789559256254678,-1.4580203956384865,1.5358417260389672,1.1751252002680177,1.3486238553422603,-4.441184562730614e-05,0.0013923898656846736,-9.762319205515021e-05,-0.00027601243081998604,-0.00026944456173661754,-0.00024634060064973736,-0.0008414919883559956,0.3165166676044464,-50.19040298461914,-6.749772071838379,17.15705108642578,1.6231180429458618,-0.9867050647735596,0.03941498324275017,720,740,758,41.717,1,0
1739302927.5583348,-0.08421096191104975,1.0474741647767214,-0.378956623782647,-1.4580203130716576,1.5358398008363203,1.1751253226225566,1.348630005562267,0.0012279018309015602,0.0006130556794916532,0.0007413054585608499,-4.9236270593313524e-05,0.0008455688392064579,0.000529372838988922,0.000835290255668459,0.2927129566669464,-50.13882827758789,-6.749772071838379,17.15705108642578,1.6304422616958618,-0.9867050647735596,0.019273381680250168,719,737,759,41.717,2,0
1739302927.5683773,-0.0842147507827712,1.0474759421071813,-0.3789565149674974,-1.4580186129602777,1.5358398003498175,1.1751243110396914,1.3486217614984406,-0.0010619237626745509,0.0023152846143992285,0.0011034699017924443,0.0009042407073996134,0.0006683013335333057,0.00014237575743942062,-0.00036364168630321846,0.3442876636981964,-50.16659927368164,-6.749772071838379,17.13324737548828,1.6304422616958618,-0.9931137561798096,0.05314789339900017,720,737,759,41.717,0,0
1739302927.5793648,-0.08421275251846475,1.0474718777723317,-0.3789519589160381,-1.4580192103114669,1.5358406662470419,1.1751230971158781,1.348629644214085,7.173123016047256e-05,0.00039272156744924824,0.0010189421599843295,0.0013563680036238958,-0.00043123305586343426,-0.0010462611464396331,-0.0006677012934404202,0.3165166676044464,-50.13882827758789,-6.773575782775879,17.18085479736328,1.6231180429458618,-0.9931137561798096,-0.013685601763427258,719,736,758,41.826,0,0
1739302927.5902715,-0.08420956521422795,1.047469935619274,-0.37896024449473065,-1.4580221785803866,1.5358381658385325,1.1751262646848184,1.3486281467722896,0.0012927678702916111,0.00027331698446149546,-0.0012053595430975559,-0.0006214184110950742,-0.0012661788378748322,-0.001446039969633369,-0.000652198429669921,0.2689092457294464,-50.11502456665039,-6.698197364807129,17.18085479736328,1.6432596445083618,-0.9867050647735596,-0.0008682189509272575,720,737,759,41.717,1,0
1739302927.6003509,-0.08421487467338654,1.0474700206480745,-0.37895870742434523,-1.4580220918294762,1.5358384420662416,1.1751266916158825,1.3486248996580807,1.8979738049675082e-05,-0.0008300766939773128,-0.0009845445420148078,-0.0015969497413305216,0.0006120553397789784,0.0018279399518506439,-0.0002365730991857717,0.3165166676044464,-50.11502456665039,-6.722001075744629,17.18085479736328,1.6432596445083618,-0.9867050647735596,0.026597600430250168,720,736,759,41.717,2,0
1739302927.6103857,-0.08421104003367061,1.0474753671024095,-0.378952760996101,-1.4580170988722185,1.5358390426923902,1.175127475764772,1.348624939065443,0.000993378077314967,0.0015139564279450233,0.0024910565519017623,0.000733201577112422,-0.000596654122143229,0.0011991425380466828,-0.0016628975571891715,0.2927129566669464,-50.19040298461914,-6.801346778869629,17.15705108642578,1.6368509531021118,-0.9931137561798096,0.026597600430250168,718,737,765,41.934,0,0
1739302927.6213102,-0.08420732953614768,1.0474699356154331,-0.3789604814359338,-1.4580221691397375,1.5358390383829152,1.1751258310135226,1.3486292064109442,0.001881402867974508,-0.0002738897127119328,-0.0008697942891554433,-0.0018773670161066744,-0.0007682545494758571,0.0013544022387677653,0.00014241879865108104,0.2411382496356964,-50.11502456665039,-6.698197364807129,17.18085479736328,1.6368509531021118,-1.0059311389923096,-0.0008682189509272575,719,736,758,41.717,1,0
1739302927.631332,-0.08421369957004102,1.0474736460769696,-0.37895355092379934,-1.4580221691578816,1.5358404162944945,1.175127318782106,1.3486202847597082,6.419281728271901e-05,-0.0009555269260367673,0.002129052941573991,-0.000488577762688868,0.000265276354704298,-0.0011221433057891684,-0.0034850320169552453,0.3165166676044464,-50.16659927368164,-6.749772071838379,17.18085479736328,1.6368509531021118,-0.9931137561798096,0.06596527993679047,718,737,759,41.608,1,0
1739302927.6422784,-0.08421317183989739,1.0474716481240034,-0.3789565120728422,-1.4580203834288559,1.5358390426923156,1.1751269839807124,1.3486235413214247,-0.00015666772011888733,-0.0005986192677276177,0.0007797792899999121,0.0002510303657070729,0.0005544113735724983,0.000730410620846979,-0.001407968854424442,0.2927129566669464,-50.13882827758789,-6.749772071838379,17.15705108642578,1.6368509531021118,-0.9931137561798096,0.03941498324275017,719,739,758,41.717,1,0
1739302927.653376,-0.08421285821555582,1.0474699436825887,-0.3789558893249716,-1.4580221783155074,1.5358422216041188,1.1751274810865766,1.3486269164676805,-0.0011886452373672046,-0.0007491958994413819,0.0006591072335627053,-0.001226993862691486,0.0013865419289578293,0.0010104177387937957,-0.0006658303364986474,0.3165166676044464,-50.11502456665039,-6.722001075744629,17.18085479736328,1.6368509531021118,-0.9931137561798096,0.03941498324275017,718,739,759,41.608,1,0
1739302927.6643903,-0.08420932845153233,1.0474736574146766,-0.37895662763057336,-1.4580203956386952,1.535840667222057,1.1751223400120983,1.3486283042471818,0.0008287938647785304,0.0006839864541621632,-0.0011514235331099197,-0.00036286786263247837,0.0008497935172773324,-0.0014173004623408464,0.0013924502802516877,0.2689092457294464,-50.16659927368164,-6.749772071838379,17.15705108642578,1.6231180429458618,-0.9867050647735596,-0.0008682189509272575,712,739,759,41.717,0,0
1739302927.6753197,-0.08421372598529402,1.047471648027164,-0.3789566189690827,-1.4580203915687544,1.5358392529116913,1.1751260425401788,1.3486271097101783,-0.0009196246670456291,-0.000518014775639413,-0.0004565175734339109,0.00022548293957653462,3.642781795933271e-05,-0.0019126438854440418,0.0014799793969149633,0.3165166676044464,-50.13882827758789,-6.749772071838379,17.15705108642578,1.6231180429458618,-0.9931137561798096,0.04673920199275017,717,737,759,41.717,1,0
1739302927.6853278,-0.08421569763563903,1.0474725664891598,-0.37895743907035523,-1.4580203864812598,1.5358397872439222,1.17512201455378,1.34862489989734,-0.0006813583415114444,0.0002446524684185619,0.0004421992239802691,-0.0006690035519926471,-0.00042479705769047835,-0.0015367344560002958,-0.002003299621452869,0.3442876636981964,-50.13882827758789,-6.698197364807129,17.15705108642578,1.6304422616958618,-0.9867050647735596,0.026597600430250168,718,738,758,41.717,1,0
1739302927.6953614,-0.08421422315935419,1.0474726001904424,-0.37895355568745537,-1.4580211023815166,1.5358376298386698,1.1751267160006929,1.3486281467725965,-0.0002247139373709344,6.326162852092801e-05,0.00014343317394706527,0.0006651820373380431,0.00046042271329925684,3.3154445670228886e-05,0.00018026466573690226,0.2927129566669464,-50.16659927368164,-6.749772071838379,17.18085479736328,1.6368509531021118,-0.9995224475860596,-0.0008682189509272575,719,736,759,41.608,0,0
1739302927.7063432,-0.08421317218086202,1.0474713314985171,-0.3789558979763808,-1.4580238154233895,1.5358390446198222,1.175127494814529,1.3486257655553133,-0.00014255300068238063,-0.0007584164981340118,-0.00044574528372734587,-0.0015113764741263073,-0.0007177328471179104,0.001846298531396466,-0.0007452628157505049,0.2927129566669464,-50.13882827758789,-6.722001075744629,17.23242950439453,1.6368509531021118,-0.9931137561798096,0.019273381680250168,719,737,757,41.717,1,0
1739302927.717273,-0.08421170388697811,1.0474676992541656,-0.37895593401208394,-1.45801964426986,1.5358375280156074,1.1751262760482386,1.3486289044326707,0.0003369370080943912,-0.001142936836476547,-3.377856470913133e-05,0.0006658243238886367,-0.00064125082072379,0.0008049957420329474,0.0017703177936162834,0.2689092457294464,-50.08725357055664,-6.749772071838379,17.15705108642578,1.6496683359146118,-0.9931137561798096,-0.0072769103571772575,720,736,758,41.717,1,0
