IITGN-Robotics/Franka_IITGN_ROBOTICS/franka_ros/franka_iitgn/data01/s_b_007.csv
time,fr3_joint1_pos,fr3_joint2_pos,fr3_joint3_pos,fr3_joint4_pos,fr3_joint5_pos,fr3_joint6_pos,fr3_joint7_pos,fr3_joint1_vel,fr3_joint2_vel,fr3_joint3_vel,fr3_joint4_vel,fr3_joint5_vel,fr3_joint6_vel,fr3_joint7_vel,fr3_joint1_eff,fr3_joint2_eff,fr3_joint3_eff,fr3_joint4_eff,fr3_joint5_eff,fr3_joint6_eff,fr3_joint7_eff,flexpin1,flexpin2,flexpin3,Force,ContactMic,ContactMic_gt
1739302984.453579,-0.08136765355310396,1.0454837957603902,-0.37973256626144114,-1.4616917437810366,1.5374346828724865,1.1770267220695538,1.3477715996367585,-0.0003978624504368604,0.00042533107758424934,0.0005948313577377887,-0.0008484232079938023,0.00016414651675593237,0.0006033033878488974,0.00024131240471798478,2.038318395614624,-49.60324478149414,-5.734147071838379,16.63733673095703,1.4400125741958618,-1.2430527210235596,0.026597600430250168,,,,,,,,,
1739302984.4635947,-0.08136381202717659,1.0454864287251626,-0.3797367088178974,-1.461691743785091,1.5374361995271606,1.1770252067434157,1.3477748074321325,0.0005903519274229148,0.0006022526373353154,-0.00016979786008494366,-0.0010155408905065041,-0.002578424399815959,-0.00045041349520226953,-2.4300817998560158e-05,1.986743688583374,-49.60324478149414,-5.682572364807129,16.63733673095703,1.4271951913833618,-1.2302353382110596,-0.0008682189509272575,,,,,,,,,
1739302984.47559,-0.08136979436405557,1.0454933288942851,-0.37975356878294664,-1.4616756980255319,1.5374347923245248,1.1770228255260264,1.347778105065014,-0.0004433192128917157,0.002767620213104431,-0.002542419697038281,0.0030681816262867626,0.000464100334006917,-0.0016140748391089313,0.00032441691695474125,1.363879919052124,-49.78177261352539,-6.241959571838379,16.78809356689453,1.4793802499771118,-1.2100937366485596,-0.0008682189509272575,,,,,,,,,
1739302984.4875574,-0.08140455519531672,1.0455004946669277,-0.379789706204489,-1.4616253321600403,1.5374319483996042,1.1770052061611354,1.3477774540929144,-0.0019545158496762287,-0.0008099995664698103,-0.0012770089490882028,0.0032782555541846013,0.0007260121208295801,-0.0018619852197060433,0.0014089860217926628,0.8163946270942688,-49.88492202758789,-6.622818946838379,16.83570098876953,1.5123392343521118,-1.0983994007110596,-0.013685601763427258,,,,,,,,,
1739302984.497615,-0.08142730712410622,1.0455044405995826,-0.3798084038197311,-1.4615856782701198,1.5374306162445135,1.1770022555884474,1.3477743137379212,-0.0036345184095745477,0.0016084056376215912,-0.002063955695265001,0.0038041455797909597,-0.00027201055248914335,-0.00032312915740635815,-0.0011200149341973565,0.7410162091255188,-49.93649673461914,-6.622818946838379,16.73651885986328,1.5251566171646118,-1.1176254749298096,0.012864691205322742,,,,,,,,,
1739302984.5091376,-0.08144262285097839,1.0454955293032102,-0.3798123400719574,-1.4615589411544336,1.5374291003003138,1.1769967312123155,1.3477719616821309,-0.0019877648845282154,-0.0011669170421128995,0.0002743145006432573,0.0023267559632005707,-0.00021464291301863639,0.0003351397855520411,-0.0017707282538794212,0.6894415020942688,-49.85715103149414,-6.674393653869629,16.73651885986328,1.5315653085708618,-1.1112167835235596,0.026597600430250168,,,,,,,,,
1739302984.5195985,-0.08144164127798856,1.0455013311873202,-0.37980814499871374,-1.4615581010279646,1.537429369734685,1.176995561471041,1.3477747922986991,0.0005038007269115674,2.342271566285975e-05,0.0006429602156976455,0.0007476202404259633,-0.0005650323487820088,0.00036586121168880465,-0.00043832502624998443,0.6180303692817688,-49.93649673461914,-6.773575782775879,16.81189727783203,1.5251566171646118,-1.1048080921173096,0.03941498324275017,,,,,,,,,
1739302984.5305824,-0.08145080749984902,1.045512830950439,-0.37980320118820116,-1.4615627320411355,1.5374286724696793,1.1769990928060041,1.3477712287260504,-0.0012143655510255735,-0.0006819423762825979,-1.9021373602994183e-05,0.0006526184543381318,-0.0012381681016175729,-0.0008644667247119078,-0.0014480035692213,0.6418340802192688,-50.06344985961914,-6.801346778869629,16.88727569580078,1.5315653085708618,-1.1313583850860596,0.03941498324275017,,,,,,,,,
1739302984.5415158,-0.08145261961732983,1.0455115790458946,-0.379804032378083,-1.461568713960744,1.5374286288634496,1.1769963452946914,1.3477777815492415,0.00066576548443953,-0.000674386070551247,-0.0011128452346469,-0.0008448516506131488,-0.0001349331640019449,-0.0005178066387401163,0.0004347292376838134,0.6418340802192688,-50.03567886352539,-6.825150489807129,16.95868682861328,1.5315653085708618,-1.1112167835235596,0.0064559997990727425,,,,,,,,,
1739302984.5525174,-0.08145386366486694,1.04551226781489,-0.3798050324167274,-1.4615596143710219,1.5374306550255188,1.1769894417442972,1.347770847521306,0.0001321756578823589,-0.0005503438947160556,-0.0006970309701964804,0.0012414757344471465,0.0007229178460283379,-0.0007192415836808606,-0.0019202977723834832,0.6180303692817688,-50.03567886352539,-6.773575782775879,16.83570098876953,1.5187479257583618,-1.0855820178985596,0.04673920199275017,,,,,,,,,
1739302984.5626135,-0.08145253213791075,1.0455022968025893,-0.3798088944203786,-1.4615486061736802,1.5374307993770047,1.1769880466832128,1.347778057047151,0.0008115654585120786,-0.0005122057728909722,-0.0012231143886322238,0.0007115848621571991,0.0003878926661676727,0.00012382140778845362,-0.0004354959409355281,0.5664556622505188,-49.93649673461914,-6.749772071838379,16.76032257080078,1.5251566171646118,-1.0782577991485596,0.012864691205322742,,,,,,,,,
1739302984.573614,-0.08145359710797087,1.0455095484925645,-0.37980178358916605,-1.4615549213402603,1.5374282244397617,1.1769886105994072,1.3477750895608527,-0.00040776439986145674,0.0012447036296678597,0.002307324918835464,-0.0017042970198893456,-0.00034702943438604325,0.0007398948056213261,-0.0005369083138704816,0.5664556622505188,-50.01187515258789,-6.825150489807129,16.85950469970703,1.5379739999771118,-1.0919907093048096,0.03941498324275017,,,,,,,,,
1739302984.5855777,-0.08145358833656986,1.0455080477171834,-0.3798039151916056,-1.4615604817988306,1.5374333289126136,1.176987971830883,1.3477804784549772,0.000188445953984325,-0.0022783020802308374,0.00026485043715056213,-0.0007346398452514269,0.00036693121296424604,-0.0006653691457695585,0.001214749660362588,0.5664556622505188,-49.98807144165039,-6.801346778869629,16.93488311767578,1.5187479257583618,-1.1176254749298096,-0.0072769103571772575,,,,,,,,,
1739302984.5955799,-0.08145530964668811,1.0455153150208971,-0.3798035659015009,-1.4615566353467724,1.5374286463237843,1.1769935231418793,1.3477804919188618,-0.00014221704953415196,0.0013731566586359556,0.0003024965623945597,0.0011300801033137158,-6.331064193471867e-05,-0.0012335416186351042,0.0011773891180963982,0.5902593731880188,-50.08725357055664,-6.825150489807129,16.91107940673828,1.5315653085708618,-1.1249496936798096,-0.0072769103571772575,,,,,,,,,
1739302984.6075082,-0.08145530964673774,1.0455061531244954,-0.3798070726200443,-1.4615510455850227,1.5374246922888357,1.1769911855574466,1.3477741073805092,0.0005145173033018513,-0.0009301233710080117,-0.00047789279376884324,0.0006869262493823673,-0.0016906901415741267,-0.0005233802113639982,-0.0013237401649722127,0.5902593731880188,-49.96030044555664,-6.773575782775879,16.81189727783203,1.5379739999771118,-1.1048080921173096,0.04673920199275017,,,,,,,,,
1739302984.6175625,-0.0814590202526676,1.0455043636017793,-0.3798049264147591,-1.4615545730171589,1.5374296886987284,1.1769848677658377,1.347778868361635,-0.0009670154579661407,-0.0017555946201492545,-0.00040637256642271673,-0.00039212518324995005,0.0008082008881407707,-0.0010531085877930717,0.001726004683334116,0.6418340802192688,-49.93649673461914,-6.773575782775879,16.85950469970703,1.5315653085708618,-1.0782577991485596,0.0064559997990727425,,,,,,,,,
1739302984.6285539,-0.08145584621111815,1.0455115780676059,-0.37980284661278835,-1.4615563305893042,1.5374293865412303,1.1769875217332462,1.3477781107015487,0.0007057212874090934,0.0006671847530022196,0.0007059560985900246,-0.0009197270315528295,-3.888901984004286e-05,0.00020401819456303076,0.0006055165893832349,0.5664556622505188,-50.03567886352539,-6.801346778869629,16.91107940673828,1.5251566171646118,-1.0782577991485596,0.012864691205322742,,,,,,,,,
1739302984.6385841,-0.08145823084311743,1.0455131408010225,-0.3798049244676049,-1.4615559478015765,1.5374286811910125,1.1769850256510934,1.3477748566749517,0.001335607745523899,0.000502344855389617,6.187782373378822e-05,-6.002153005528292e-05,0.00018271038093877596,2.6719736939829607e-06,-0.0002918756970973789,0.5902593731880188,-50.08725357055664,-6.773575782775879,16.91107940673828,1.5315653085708618,-1.0919907093048096,0.012864691205322742,,,,,,,,,
1739302984.649613,-0.08145858389089279,1.0455135769424908,-0.3798051651482606,-1.461554840488448,1.5374286463061018,1.1769856595267314,1.347778829514624,-8.667751634935634e-05,-0.0002469245486617491,-0.0005144687070456561,-0.0006135094464618167,-0.0009228377313777608,-0.00018922985544515329,7.204752053916453e-05,0.5902593731880188,-50.06344985961914,-6.773575782775879,16.85950469970703,1.5315653085708618,-1.0983994007110596,0.0064559997990727425,,,,,,,,,
1739302984.6605403,-0.0814606367759248,1.0455095474347194,-0.37980670918912823,-1.4615541972690576,1.537430446161444,1.1769864217262123,1.3477781454776652,-0.00041548200607367716,-0.0007597731431120465,-0.0009832709149282782,0.0007137213293272517,-8.31432263840681e-06,0.00013130128057579077,0.0010828538995583598,0.5902593731880188,-50.01187515258789,-6.749772071838379,16.83570098876953,1.5251566171646118,-1.1048080921173096,0.012864691205322742,,,,,,,,,
1739302984.6705813,-0.08146263619617312,1.0455060081270116,-0.3798010639357709,-1.4615548108493381,1.5374309149433358,1.1769879522967532,1.34778050301496,-0.0009073983226080026,-0.0007611065003432993,0.0008604541710625696,-0.0007791342634230309,0.0009101045909462722,0.0007595303606569694,0.0012122710875637004,0.6180303692817688,-49.98807144165039,-6.825150489807129,16.85950469970703,1.5123392343521118,-1.1048080921173096,-0.0072769103571772575,,,,,,,,,
1739302984.6815174,-0.08146263476475453,1.0455152894995767,-0.3798028466127881,-1.4615545079315373,1.5374321761718999,1.1769910089600037,1.3477797342589222,-0.00016088270042238762,0.0016978810443986354,0.0005709058208384921,0.0001027451958336342,0.0016017390655291067,0.0006210464974894447,0.0012122210344520034,0.6180303692817688,-50.08725357055664,-6.801346778869629,16.85950469970703,1.5315653085708618,-1.1048080921173096,-0.0008682189509272575,,,,,,,,,
1739302984.6915212,-0.08145679346116923,1.0455070055064255,-0.3798049928160651,-1.4615547356597112,1.5374293865833557,1.1769884398850152,1.3477753650733812,0.0006732268984975244,-0.0010731226068440734,-0.00010473691644699026,0.0012373933056239281,0.00032720636867964353,-0.0002519990249366561,-0.0021328628187001295,0.5664556622505188,-50.01187515258789,-6.801346778869629,16.85950469970703,1.5251566171646118,-1.0919907093048096,0.06596527993679047,,,,,,,,,
1739302984.7025676,-0.08146074400559754,1.0455135769425075,-0.3798088637135385,-1.4615564033422483,1.5374291390593409,1.1769854164826579,1.3477804919787546,-0.0008694705092405844,0.0014743273872264958,-0.0018061563748541644,-0.00038701446619706856,1.4382130096940123e-05,0.000773843814851819,0.0023600349305481797,0.6180303692817688,-50.06344985961914,-6.749772071838379,16.91107940673828,1.5315653085708618,-1.0919907093048096,-0.0072769103571772575,,,,,,,,,
1739302984.7135596,-0.08146263377974017,1.0455152100388303,-0.3798049265601617,-1.4615538577393348,1.5374322289496427,1.1769849025687167,1.3477798536653207,-0.0010280223263299634,0.0017028182764223735,-0.0005915996981541501,-0.00022427494469307312,0.0007050565634400372,-0.001301594246397529,0.0021203309030239626,0.6180303692817688,-50.08725357055664,-6.773575782775879,16.88727569580078,1.5379739999771118,-1.0919907093048096,-0.0008682189509272575,,,,,,,,,
1739302984.7246165,-0.08146050390270343,1.045509429358159,-0.3798032136275669,-1.4615517755655183,1.5374323844489486,1.1769856987718905,1.3477773661237573,0.0009821656230624733,2.16792527394409e-05,-0.00041158703079954807,-0.0005044542300826967,0.0002711003971402094,0.0002701793925502447,0.0008833005097026033,0.6180303692817688,-50.03567886352539,-6.825150489807129,16.85950469970703,1.5379739999771118,-1.0983994007110596,0.019273381680250168,,,,,,,,,
1739302984.7355502,-0.08145850598190031,1.0455098400262866,-0.3797996815786228,-1.4615520247499862,1.537428628942516,1.176986456432189,1.3477797072427333,0.0016030050705649538,-0.0006406810977415278,0.0015989267381856687,0.00028682980533383765,-0.0005709310028550727,-0.00027679572396346685,0.0005331932164276401,0.5902593731880188,-50.01187515258789,-6.848954200744629,16.83570098876953,1.5315653085708618,-1.1048080921173096,0.026597600430250168,,,,,,,,,
1739302984.7456026,-0.08146096137297981,1.0455112611582185,-0.3798028818328317,-1.4615538464321214,1.5374269652689734,1.1769874831236227,1.34778096292375,0.0004202351526235223,-0.0024771500500310657,8.14531028770075e-05,0.0007656463704662675,-0.00028334516568334845,0.00034269694582546686,0.0018994303429382324,0.5902593731880188,-50.03567886352539,-6.801346778869629,16.88727569580078,1.5187479257583618,-1.1048080921173096,-0.0072769103571772575,,,,,,,,,
1739302984.7565048,-0.08146146446739382,1.045513585912348,-0.37980492640284247,-1.4615545096872424,1.5374286288452583,1.1769856595320498,1.3477797428738034,0.00030085736187718015,0.0006453188018619624,0.00010010021510653788,-0.00019863845360151172,-0.0007859942932162133,-0.000544538055161496,0.0008441905896797741,0.5902593731880188,-50.06344985961914,-6.773575782775879,16.88727569580078,1.5315653085708618,-1.0983994007110596,-0.0008682189509272575,,,,,,,,,
1739302984.7665632,-0.08145803069317721,1.045509866529526,-0.37980499238000004,-1.4615509788243841,1.5374301485440105,1.176986417186111,1.347774105927105,0.0009066083020724706,0.0005060492903499445,0.001509864873485126,-0.00015164566464715616,-0.0004133115021411882,-0.0006010847656217266,0.0004140570287892542,0.5426519513130188,-50.01187515258789,-6.801346778869629,16.83570098876953,1.5187479257583618,-1.1048080921173096,0.04673920199275017,,,,,,,,,
1739302984.777575,-0.08146098888747046,1.0455079159050005,-0.3798075044774985,-1.4615481757491877,1.5374296885013572,1.1769858295914115,1.3477802052091392,-0.000615858086487265,-0.0004078094795629858,-0.0006701290640630824,0.001485501378809965,0.0007094134618882234,-0.0002895298613301111,0.0008857803610146644,0.5902593731880188,-49.98807144165039,-6.749772071838379,16.81189727783203,1.5315653085708618,-1.0983994007110596,-0.0008682189509272575,,,,,,,,,
1739302984.7885518,-0.08146167495954179,1.0455098674728385,-0.3798049525740664,-1.461553832225013,1.537430144512353,1.1769856595269927,1.3477706273105194,0.0001658086942423476,-0.0008000796698470609,-0.0002620552102228943,-0.0005085766780851516,0.0004243233214769592,-0.0009712650668968068,-0.0014259797893018968,0.5902593731880188,-50.01187515258789,-6.773575782775879,16.88727569580078,1.5187479257583618,-1.0983994007110596,0.03941498324275017,,,,,,,,,
1739302984.7986052,-0.08146556967126925,1.0455152355486534,-0.3798026104022317,-1.4615574117513581,1.5374345397193094,1.1769864347902195,1.3477812495054413,-0.0014086549267300795,0.0004910738942422805,0.00065714305315609,-0.0017065492260003778,0.0005224157210242122,-0.00016480693384052044,0.0011081201283817785,0.6418340802192688,-50.08725357055664,-6.801346778869629,16.93488311767578,1.5187479257583618,-1.1048080921173096,-0.013685601763427258,,,,,,,,,
1739302984.8095927,-0.08145903379621137,1.0455098665290703,-0.3798028466114547,-1.461552685275398,1.5374293865480948,1.1769871813603472,1.3477787488519564,0.001654636475579193,-0.0013467125037143778,0.0009538410843228643,0.0007737315868137337,0.0003871456607023368,-0.0006811971290256933,0.0012879068185328436,0.5664556622505188,-50.01187515258789,-6.801346778869629,16.85950469970703,1.5251566171646118,-1.1112167835235596,-0.020094294100999832,,,,,,,,,
1739302984.8196154,-0.08145998970796997,1.0455077245413937,-0.379797257435319,-1.4615538244604713,1.5374287466007737,1.1769841966953007,1.3477781564975992,0.0011977052698398292,-0.0004221023211218434,0.002107160482413404,8.386464984725132e-06,-0.0003798527473970641,-0.0007732918825927136,-0.0012090958330100193,0.5664556622505188,-50.01187515258789,-6.848954200744629,16.88727569580078,1.5315653085708618,-1.0855820178985596,0.03941498324275017,,,,,,,,,
1739302984.8305101,-0.08146369715448494,1.045511580297758,-0.3798046085270344,-1.4615499584554597,1.537432318135898,1.1769856596878345,1.3477788703176714,-0.00041069556433746986,0.00019856993027374741,-0.00014967861223218258,0.0009241093037825292,0.0016989829266926266,-0.0006401149172666453,-0.0006242293525694186,0.6180303692817688,-50.03567886352539,-6.773575782775879,16.83570098876953,1.5315653085708618,-1.0983994007110596,0.0064559997990727425,,,,,,,,,
1739302984.8405125,-0.08145998972410735,1.0455152895117115,-0.37980283785884933,-1.46155174098845,1.5374314166242093,1.176984901865957,1.3477781550992631,0.0010901137585419198,0.0015099414755171874,0.00032893625870736076,0.0001684610185129561,0.00168647662655681,-0.00025534802933989534,8.19580624562378e-05,0.5664556622505188,-50.08725357055664,-6.801346778869629,16.85950469970703,1.5123392343521118,-1.0919907093048096,0.03941498324275017,,,,,,,,,
1739302984.8506243,-0.08146030596824055,1.0455115777419108,-0.37980284531655756,-1.4615517410974639,1.5374321097643602,1.1769856987718894,1.347782047329924,-0.0003120198580016302,-0.0005215669305427993,0.0007804689169191244,0.00015851279519360056,0.0003573798023696235,0.0008459178783838994,0.000823479378137145,0.5664556622505188,-50.03567886352539,-6.801346778869629,16.85950469970703,1.5379739999771118,-1.0983994007110596,0.0064559997990727425,,,,,,,,,
1739302984.8615823,-0.08146170516286028,1.0455094332828867,-0.37980492345044886,-1.4615518421555465,1.5374301579352614,1.1769871792070616,1.3477812510505118,0.0001513226904030247,0.00013018033245251303,-0.00020905010443596087,0.0008826526032727052,3.6268421417726994e-05,-0.0009696134934548964,0.001789608149599462,0.5902593731880188,-50.03567886352539,-6.773575782775879,16.85950469970703,1.5187479257583618,-1.1112167835235596,-0.013685601763427258,,,,,,,,,
1739302984.8725722,-0.08146170613315327,1.0455115790379932,-0.3798017801726361,-1.461556292329695,1.5374250455015246,1.1769903552141523,1.3477789206894442,0.00044347526380159605,0.0005406905665890412,0.00033315717078340646,-0.0006242409396224656,-0.0021380155408850018,0.0006710217344443687,0.000666916088149205,0.5902593731880188,-50.03567886352539,-6.825150489807129,16.91107940673828,1.5379739999771118,-1.1112167835235596,0.0064559997990727425,,,,,,,,,
1739302984.8826208,-0.08146370018580879,1.0455081218367315,-0.37980492544271144,-1.4615562923407888,1.5374301483346517,1.1769865932810561,1.3477816428295326,5.518137785590218e-05,-0.0005339235564071903,-0.0003850242293606478,-0.0012022847907376519,-0.00035277512794689,-0.0005486173152047837,0.0008992737833555638,0.6180303692817688,-49.98807144165039,-6.773575782775879,16.91107940673828,1.5187479257583618,-1.1048080921173096,0.012864691205322742,,,,,,,,,
1739302984.893521,-0.0814599897241587,1.0455099429495975,-0.37980802584416656,-1.4615517302724046,1.537434735787105,1.1769871748471834,1.3477775870546775,0.0006420150684292459,0.0014675695289235583,-0.001452920318704698,0.0005564018677074761,0.001558583679746315,0.0007784614527421373,0.0009956508215330968,0.5664556622505188,-50.01187515258789,-6.773575782775879,16.85950469970703,1.5187479257583618,-1.1112167835235596,0.05314789339900017,,,,,,,,,
1739302984.90358,-0.0814599897241587,1.0455098662036202,-0.3798013033879839,-1.4615517410972825,1.5374342650760666,1.176985660979583,1.347780491990722,0.0004450980194724086,-0.0005699253835746149,-0.00016164387134089337,-0.0005848115569795545,0.0008805607518236464,0.0003164982180176888,-0.0002631370906957649,0.5664556622505188,-50.01187515258789,-6.825150489807129,16.85950469970703,1.5187479257583618,-1.0983994007110596,-0.0072769103571772575,,,,,,,,,
1739302984.913609,-0.08146373517996511,1.0455145742559364,-0.3798010668913737,-1.4615493215904036,1.537429690164246,1.176984901866028,1.3477797837963095,-0.0005789117760849286,0.0007837215243995301,0.0009786367545245723,0.0012954358539997413,0.00035952355017012955,-5.800649674541697e-05,-0.00016036791042058226,0.6180303692817688,-50.08725357055664,-6.825150489807129,16.85950469970703,1.5315653085708618,-1.0919907093048096,0.026597600430250168,,,,,,,,,
1739302984.9255817,-0.08146211562322153,1.0455115751241746,-0.3798067351385941,-1.4615538209756342,1.5374279164805205,1.176986417186111,1.3477812496031645,-0.00031200772386298127,-0.00027854075002273833,-0.0008289961599443894,0.00046756262131473727,0.0005488175816406336,0.00026925543358382676,0.0008848490862758984,0.5664556622505188,-50.03567886352539,-6.749772071838379,16.88727569580078,1.5379739999771118,-1.1048080921173096,-0.013685601763427258,,,,,,,,,
1739302984.93561,-0.08146170517307584,1.0455115791550627,-0.37980284661293523,-1.4615517410974663,1.5374286332241098,1.1769849018659544,1.3477693454630124,0.0005206375414832899,0.0006675068947165295,-0.0008657650174408052,0.00012989194416771085,0.002108556853069296,-0.0014147979193441698,-0.002272934827589261,0.5902593731880188,-50.03567886352539,-6.801346778869629,16.85950469970703,1.5315653085708618,-1.0919907093048096,0.05955658480525017,,,,,,,,,
1739302984.9465482,-0.08146170321696815,1.0455098665293754,-0.3798000116487647,-1.4615517327758905,1.5374338383005821,1.176987932560103,1.3477823150130275,-0.000823437760178225,-0.0005270751097334158,0.0008834106984633142,0.00023479682042936069,0.0009426343579925951,-0.0002018550236623862,0.0007569496694976341,0.5902593731880188,-50.01187515258789,-6.801346778869629,16.85950469970703,1.5187479257583618,-1.1176254749298096,-0.013685601763427258,,,,,,,,,
1739302984.9565654,-0.08146440881875841,1.0455136453444582,-0.3798013111366555,-1.4615494893663,1.5374306675240088,1.1769871748461904,1.3477781113656142,-0.0008055973943265634,0.001510567091020021,0.001011659549750366,0.0009752920543942369,0.0009078853850117782,-0.0004805463775445565,-0.00014577591744911088,0.6180303692817688,-50.03567886352539,-6.825150489807129,16.85950469970703,1.5187479257583618,-1.1112167835235596,0.012864691205322742,,,,,,,,,
1739302984.968506,-0.08146006846515884,1.0455054408237177,-0.37980461145603955,-1.4615515016850291,1.5374332211159014,1.1769867206177123,1.3477781111860692,0.001061057272111456,-0.000813743969839149,-0.0004132892784944248,0.001205876440728773,0.002670869802950152,-0.0006652182742169939,-2.6819965811178078e-05,0.5664556622505188,-49.96030044555664,-6.773575782775879,16.85950469970703,1.5315653085708618,-1.0983994007110596,0.012864691205322742,,,,,,,,,
1739302984.9785655,-0.08146298154752299,1.0455115760945541,-0.3798058800716264,-1.4615497965272335,1.5374297399752674,1.176984901883924,1.3477799043242464,0.00037614564687751714,-7.845600954671399e-05,-0.000982827589900421,0.0003403115081992721,8.462202621837596e-05,-0.0016446583964583926,-0.00024040407226714891,0.5664556622505188,-50.03567886352539,-6.773575782775879,16.83570098876953,1.5251566171646118,-1.0919907093048096,-0.0008682189509272575,,,,,,,,,
1739302984.9885676,-0.08146370034441659,1.0455135406884917,-0.37980683597500636,-1.4615496263971486,1.5374286288691892,1.1769853215815755,1.3477804919218177,-0.00021522519054405171,0.0006284493352926359,-0.0007179385448179164,0.0004284346927642404,-0.0010066906592324492,0.00017268644230747273,0.0011385810407152635,0.6180303692817688,-50.06344985961914,-6.773575782775879,16.85950469970703,1.5315653085708618,-1.0855820178985596,-0.0072769103571772575,,,,,,,,,
1739302984.9995792,-0.08146383203213409,1.0455098660932416,-0.3798032098277033,-1.4615517410813736,1.5374315571957047,1.1769864230025273,1.3477813673165862,0.00030772261206457206,-0.00015077213482687593,0.0004535370468818794,0.0006004026255194142,0.000673645855740917,0.0005735838921623311,0.002348959824212009,0.5902593731880188,-50.01187515258789,-6.825150489807129,16.85950469970703,1.5187479257583618,-1.1048080921173096,-0.013685601763427258,,,,,,,,,
1739302985.0095828,-0.08146382817995501,1.0455119328237197,-0.3798010639721099,-1.4615537946022872,1.5374309209250268,1.176987174846288,1.3477773525469445,0.0002916688466559745,-0.0005460938076974227,0.001050833042835079,0.00011628255237878831,0.0009202494857869167,-0.00015823915929415877,-0.0008359909671351062,0.5902593731880188,-50.01187515258789,-6.825150489807129,16.88727569580078,1.5123392343521118,-1.1112167835235596,0.019273381680250168,,,,,,,,,
1739302985.0205112,-0.08146656972396207,1.0455152895233546,-0.37980670907966296,-1.4615502840585508,1.5374337940481355,1.1769856987718894,1.3477797342588567,-0.0009459123484460298,0.001671189741366897,-0.0017961729860408733,-5.7043655026946355e-05,0.0019249803384385061,-0.00027134944457417385,-0.0004573156576286597,0.6180303692817688,-50.08725357055664,-6.749772071838379,16.85950469970703,1.5187479257583618,-1.0983994007110596,-0.0008682189509272575,,,,,,,,,
1739302985.0305643,-0.08146174020389313,1.045509866529375,-0.37980458743230017,-1.4615514244410954,1.537428972086989,1.176988080781007,1.3477824801275513,0.0008169920310581505,5.929462771361605e-05,-0.0010184342313349472,-0.00035098641145590577,0.002092585518147212,0.00032886031566901864,0.0016139161966660025,0.5902593731880188,-50.01187515258789,-6.749772071838379,16.85950469970703,1.5379739999771118,-1.0919907093048096,-0.020094294100999832,,,,,,,,,
1739302985.0415142,-0.08146393643295918,1.045508154428558,-0.3798030850557292,-1.4615499583823204,1.5374286332300686,1.1769871748641345,1.3477788727249471,0.0003567502773811904,-0.0014637977028742098,0.0011805603172776757,0.0007478967281700096,0.00037908423736574714,0.0002375991552236735,0.0012317973252109066,0.6180303692817688,-49.98807144165039,-6.801346778869629,16.83570098876953,1.5315653085708618,-1.1112167835235596,0.0064559997990727425,,,,,,,,,
1739302985.0515685,-0.08146464273561499,1.0455082565566205,-0.37980492837805924,-1.4615499574392996,1.5374310507636093,1.1769895961004992,1.347779372861928,-0.00018613573984330926,-0.0006212481732241413,0.00031845824911708274,-0.00032226635075285567,-0.00017272190440899304,0.00022093361367120747,0.0008205425344065443,0.5902593731880188,-49.98807144165039,-6.773575782775879,16.83570098876953,1.5379739999771118,-1.1048080921173096,-0.0008682189509272575,,,,,,,,,
1739302985.0615885,-0.08146081354226638,1.045509751736981,-0.379802837864266,-1.4615498436262992,1.5374309564113935,1.176985659579868,1.3477829268951016,0.0003500258279918189,0.00011008300613391095,3.114280680586172e-05,0.0015069490603493965,0.0010254437107261398,-0.0009395023395320885,0.0014717595397375116,0.5664556622505188,-50.01187515258789,-6.801346778869629,16.83570098876953,1.5251566171646118,-1.0983994007110596,-0.0008682189509272575,,,,,,,,,
1739302985.0716627,-0.081464041825388,1.045511579048162,-0.37980284661263997,-1.4615502875224664,1.5374310638720738,1.1769856595260337,1.3477749599228082,-0.0006402700624954184,0.0009367264991760867,-0.00015627427656112348,0.00019450554502720553,-0.00035128346442007437,-0.000919816249400161,-0.0012162097558170676,0.6180303692817688,-50.03567886352539,-6.801346778869629,16.83570098876953,1.5379739999771118,-1.0983994007110596,0.03941498324275017,,,,,,,,,
1739302985.0825355,-0.0814627617941009,1.045511578904751,-0.3798010647729063,-1.4615475742365134,1.5374303147512782,1.176986417186111,1.3477811516856228,0.0007240043801673611,0.0003885752567638581,0.000612512865492078,0.001429323728562835,0.0005528608665479194,-0.0009147161420112019,0.0017902652963232432,0.5902593731880188,-50.03567886352539,-6.825150489807129,16.83570098876953,1.5187479257583618,-1.1048080921173096,-0.0008682189509272575,,,,,,,,,
1739302985.093601,-0.08146170225087108,1.0455114995772454,-0.37980488860125733,-1.4615538211524595,1.5374287306126835,1.1769841442058762,1.3477828731444383,0.0005548431127322511,-1.4694742543102708e-05,-0.0002726614191942308,-0.00017670864577719306,-0.00018315345697607848,-0.0014648649615425732,0.00047711861475789705,0.5902593731880188,-50.03567886352539,-6.773575782775879,16.88727569580078,1.5315653085708618,-1.0855820178985596,-0.027418512850999832,,,,,,,,,
1739302985.1045396,-0.08145999375641479,1.045515306154392,-0.379804935232748,-1.4615538208873227,1.5374310638998971,1.1769880865945432,1.3477749849061436,0.0024925418605670673,0.0018826990901410514,-0.00041010953628347897,-0.0012314621718925655,-0.00019684583686034775,-8.866232242737417e-05,0.00021103105818918568,0.5664556622505188,-50.08725357055664,-6.773575782775879,16.88727569580078,1.5379739999771118,-1.0919907093048096,0.03941498324275017,,,,,,,,,
1739302985.1155248,-0.0814637278355215,1.0455155912688154,-0.37980492640269353,-1.4615499584204468,1.5374310632713233,1.1769864172040887,1.3477797342589333,-0.0007717907640908054,0.0006826334589146244,-0.00021992620675045086,0.0008751324594477122,0.0006917712789091205,-0.0007805603516903663,3.349066867719462e-06,0.6180303692817688,-50.08725357055664,-6.773575782775879,16.83570098876953,1.5379739999771118,-1.1048080921173096,-0.0008682189509272575,,,,,,,,,
1739302985.125559,-0.0814637103388559,1.0455128630000756,-0.3798028453167058,-1.4615530791406306,1.5374289832231214,1.176985659526033,1.347776789122399,-0.0008424358481559108,0.0009377158285242294,0.0003627148304398747,-0.0005184797769211369,-0.0005447326129784716,-0.0002717720098476438,-0.0007337092082261748,0.6180303692817688,-50.06344985961914,-6.801346778869629,16.88727569580078,1.5379739999771118,-1.0983994007110596,0.03300629183650017,,,,,,,,,
1739302985.1365726,-0.08146211706330445,1.0455136462488965,-0.3798028466127808,-1.461553820883134,1.537434434622836,1.1769864215467616,1.347778269144507,0.0014488278368296795,0.001122759948248898,0.0008653549794992124,-0.0008855068555987065,0.0015536960870499803,0.00011084903571522851,0.0002276466880809386,0.5664556622505188,-50.03567886352539,-6.801346778869629,16.88727569580078,1.5123392343521118,-1.1048080921173096,0.012864691205322742,,,,,,,,,
1739302985.1466134,-0.08146564938552792,1.0455096281458038,-0.3798070534620548,-1.4615531056315838,1.5374286420049836,1.1769888005031466,1.3477812495816994,-0.0008950953419157338,-0.0001723791543759973,-0.0009807972122166603,-0.0016471023608498007,-0.0006101012880698332,0.00023664964276559332,-0.0007419982645833953,0.6418340802192688,-50.01187515258789,-6.749772071838379,16.88727569580078,1.5315653085708618,-1.1249496936798096,-0.013685601763427258,,,,,,,,,
1739302985.157605,-0.08146241087922494,1.0455130560008665,-0.37980280050559073,-1.4615499574352626,1.5374304505221361,1.17698864024019,1.3477789206894357,0.0005348783257261646,0.0002643911645241547,0.00036938627891614206,0.00045412378553150466,-0.00019325994186864358,0.0008191206332464605,0.0002582710712196075,0.5902593731880188,-50.06344985961914,-6.773575782775879,16.83570098876953,1.5251566171646118,-1.1112167835235596,0.0064559997990727425,,,,,,,,,
1739302985.1695874,-0.08146654649448677,1.0455107158560526,-0.37980570661567253,-1.4615517409884438,1.5374301848887733,1.1769813324605776,1.347777392449238,-0.0016100305009295773,-0.0018921757723351772,-0.0002648481507628754,4.246583597009051e-05,0.002050422453243444,-0.002359047280786042,0.0006903829889594454,0.6180303692817688,-50.06344985961914,-6.801346778869629,16.85950469970703,1.5187479257583618,-1.0983994007110596,0.019273381680250168,,,,,,,,,
1739302985.180575,-0.08146382830525262,1.0455152895063067,-0.3798028466181697,-1.4615517279064971,1.53742862886328,1.1769856595178905,1.3477773531134347,4.2466169594611964e-05,0.002233163138417758,0.0008369254435889227,0.0005346030112802197,-2.3322803965856675e-05,-0.000522596656815425,-0.0011862577988449542,0.5902593731880188,-50.08725357055664,-6.801346778869629,16.85950469970703,1.5315653085708618,-1.0983994007110596,0.019273381680250168,,,,,,,,,
1739302985.1915307,-0.08146453678888756,1.0455135709950643,-0.37980499332514417,-1.4615549335072826,1.537429399605234,1.176984906226605,1.3477778999951875,0.00028587637829872336,0.0003538223027454842,-0.0006925819498697218,-0.000864628628007433,-0.00019496970841137846,5.5117556350860815e-05,0.0012778105807970958,0.5902593731880188,-50.06344985961914,-6.801346778869629,16.88727569580078,1.5251566171646118,-1.0919907093048096,0.026597600430250168,,,,,,,,,
1739302985.203497,-0.0814647281390192,1.0455118088079145,-0.37980276788790646,-1.4615535795315837,1.5374286308013443,1.176988080780367,1.3477812495869916,-0.00045284895251786417,7.820864598500585e-06,0.0001243728688364407,-0.00033670984268670766,-0.00010395054925836994,0.0006095491635695651,-8.88546365835029e-05,0.6180303692817688,-50.03567886352539,-6.801346778869629,16.88727569580078,1.5315653085708618,-1.0919907093048096,-0.013685601763427258,,,,,,,,,
1739302985.2136064,-0.081462018170754,1.0455115787243543,-0.37980516602096676,-1.4615517410961034,1.537430503802451,1.176985659597813,1.3477753250369011,0.001317742985294799,-0.0011208216726639026,5.414329411399839e-05,-0.0006151930603018473,-2.5318557599631646e-05,-0.0004216971617350307,-0.001682736446259007,0.5902593731880188,-50.03567886352539,-6.773575782775879,16.85950469970703,1.5517069101333618,-1.0983994007110596,0.03941498324275017,,,,,,,,,
1739302985.2245002,-0.08146394230891979,1.0455126234566123,-0.37980380039747347,-1.4615516577000205,1.5374293867088136,1.176986417347617,1.3477749718800205,0.0006635260841220829,-0.0017411584693495937,-0.0009036628665716446,0.0014359749231180185,-0.00043628346623716854,-0.00012809375154137394,-0.0024014254159193246,0.5902593731880188,-50.06344985961914,-6.801346778869629,16.85950469970703,1.5251566171646118,-1.1048080921173096,0.03941498324275017,,,,,,,,,
1739302985.2345238,-0.08146489104518213,1.0455069369957646,-0.3798000004645087,-1.4615517410932288,1.537429348730985,1.176986417186119,1.3477788683616296,-0.0008757061473149917,-0.0007193166345213519,-1.3523196629288466e-05,-0.00022356026386334836,-0.0008690470930428995,-0.0005054713744951889,-9.003645590799402e-07,0.5902593731880188,-50.01187515258789,-6.801346778869629,16.85950469970703,1.5251566171646118,-1.1048080921173096,0.0064559997990727425,,,,,,,,,
1739302985.2445564,-0.08146688871021758,1.045515643268774,-0.3798049264229158,-1.4615490940964728,1.5374310631992518,1.176985659579868,1.347779563750924,-0.0012945403349537156,0.001376828336376724,-0.0013636230650801004,0.0006156542515831549,-0.000744059236163007,-0.0008070429186113404,0.0007322512701470748,0.6180303692817688,-50.06344985961914,-6.773575782775879,16.81189727783203,1.5379739999771118,-1.0983994007110596,0.03941498324275017,,,,,,,,,
1739302985.254584,-0.0814619958369829,1.0455115790850986,-0.37980492672969285,-1.4615538209028736,1.5374332657425447,1.1769856653402346,1.347780492158208,0.0005292599350960362,0.0015116821148458046,-0.0008067757430474023,-0.0008185149732475665,0.0010315139842751043,7.612042777762475e-05,-0.0012010328435852692,0.5664556622505188,-50.03567886352539,-6.773575782775879,16.88727569580078,1.5315653085708618,-1.0983994007110596,-0.0072769103571772575,,,,,,,,,
1739302985.265562,-0.08146486343695301,1.0455101447388921,-0.3798049265116618,-1.461553820778305,1.537428983249074,1.1769903537606103,1.3477769582561345,0.00039122163599380344,-0.00017775448952052884,0.0002035028780561928,-0.00042120367263566796,-4.396948151845183e-05,0.0007364610869523473,0.0011787193413997877,0.5902593731880188,-50.01187515258789,-6.773575782775879,16.88727569580078,1.5379739999771118,-1.1112167835235596,0.026597600430250168,,,,,,,,,
1739302985.2755911,-0.08146285941191878,1.0455061827330363,-0.37980492771084073,-1.4615510170114088,1.5374286309816085,1.176985425197878,1.347774878863268,0.0006068450296811945,-0.0007930797520998851,-0.0005355846904562052,0.000888039894426028,-0.0002381494309431055,0.0002555867649002295,-0.0014802933374890629,0.5664556622505188,-49.96030044555664,-6.773575782775879,16.85950469970703,1.5315653085708618,-1.0919907093048096,0.05314789339900017,,,,,,,,,
1739302985.2866051,-0.08146688899643448,1.04551364530827,-0.37980469019165136,-1.4615498524162074,1.5374282244158468,1.1769864171890652,1.3477758864763365,-0.0012777436416618038,0.0012337104215429905,-0.00023459428700453556,0.0017711058230170662,-0.00029378576645016827,0.00019958075743723097,-0.00064711844698906,0.6180303692817688,-50.03567886352539,-6.773575782775879,16.83570098876953,1.5379739999771118,-1.1048080921173096,0.03300629183650017,,,,,,,,,
1739302985.2975693,-0.08146105267365698,1.0455098637671805,-0.3798028466114547,-1.46155102584113,1.5374289831710573,1.176986417186111,1.3477784622179323,0.0012307753030419365,3.835839301554082e-05,-0.0001436977786040941,0.00021292092086499514,-0.0011050212324815092,-0.0003538782112287627,-0.0006775526265824893,0.5664556622505188,-50.01187515258789,-6.801346778869629,16.85950469970703,1.5379739999771118,-1.1048080921173096,0.04673920199275017,,,,,,,,,
1739302985.3076892,-0.08146860173573811,1.045509114725198,-0.37980492640264363,-1.4615501870154486,1.5374298062577338,1.1769871748461895,1.3477828733717168,-0.0021390107013285276,-0.00038873350079328775,-0.0008372603393553709,0.00034532188378080114,-0.00034996010067865635,-0.00019870105135561433,0.0012455052366968284,0.6418340802192688,-50.03567886352539,-6.773575782775879,16.83570098876953,1.5315653085708618,-1.1112167835235596,-0.027418512850999832,,,,,,,,,
1739302985.3186657,-0.08146688871021887,1.0455070054561757,-0.3798057066636756,-1.461549708229401,1.537433642686554,1.176986417186111,1.3477722268584016,-0.00018427349485231385,-0.0001588278178662083,0.00045392789100632684,0.0005542844712554809,0.0009360234472253231,-0.0011733839005722167,-0.0021813382236639516,0.6180303692817688,-50.01187515258789,-6.801346778869629,16.83570098876953,1.5251566171646118,-1.1048080921173096,0.06596527993679047,,,,,,,,,
1739302985.3304968,-0.08146488716913435,1.0455135730502225,-0.3798028502294983,-1.4615537109975103,1.537427910473008,1.1769864176706277,1.3477819047720003,0.0007924736999208024,0.0006553255146045766,0.0010383106509212609,-0.0016607851960332932,-0.0015523787689882,-0.0006911929562689611,0.0017676217878204797,0.5902593731880188,-50.06344985961914,-6.801346778869629,16.88727569580078,1.5379739999771118,-1.1048080921173096,-0.0072769103571772575,,,,,,,,,
1739302985.3405156,-0.08146688028561642,1.0455119328236604,-0.3798028731038026,-1.4615499584185856,1.5374287525771448,1.176986417186119,1.347777353065507,-0.00040068125945889746,0.000649853988879811,0.0003106083618630864,7.393608990805922e-05,-0.0009300900004203063,-0.0004282198051694424,-0.0015298287868274292,0.6180303692817688,-50.01187515258789,-6.801346778869629,16.83570098876953,1.5315653085708618,-1.1048080921173096,0.019273381680250168,,,,,,,,,
1739302985.3506112,-0.08146688903418904,1.045512238392162,-0.37980316450437646,-1.4615555650386003,1.5374294257698369,1.1769856595260328,1.3477800223306886,5.4579916980452095e-05,0.0009843126186064462,-0.0004455452103637365,-0.0007336996974026497,-0.0013592344848115852,-0.0005407146005076788,0.0007216890652485361,0.6180303692817688,-50.03567886352539,-6.801346778869629,16.88727569580078,1.5251566171646118,-1.0983994007110596,-0.0072769103571772575,,,,,,,,,
1739302985.361535,-0.08146317857265419,1.0455149284532106,-0.37980082772656387,-1.46155382093216,1.5374339803883028,1.1769879332061253,1.3477788698663615,0.0013675248001608178,-0.00022372566951196744,0.0010374540695315218,-0.00041979024834909895,0.0014948254191819372,-8.989319533270982e-06,-0.0009718362966886296,0.5664556622505188,-50.06344985961914,-6.825150489807129,16.88727569580078,1.5251566171646118,-1.1176254749298096,0.0064559997990727425,,,,,,,,,
1739302985.3715742,-0.0814687049522896,1.0455135757514253,-0.37980213927598366,-1.461552429862252,1.537430923643801,1.176985698771925,1.347779734258936,-0.0007267531910322715,0.0005319269903730896,0.00039683877291523165,-3.445469390399482e-05,0.0007397440808046303,2.5738832591093485e-05,-0.0011149848255482147,0.6180303692817688,-50.06344985961914,-6.801346778869629,16.85950469970703,1.5251566171646118,-1.0983994007110596,-0.0008682189509272575,,,,,,,,,
1739302985.381607,-0.08146489110363629,1.0455113318012021,-0.37980177915151114,-1.461549595334142,1.5374289864452408,1.1769856595800894,1.3477742629103855,0.0003262034326644052,-0.00035272169136447225,0.0011257861839290134,-6.168369435740253e-05,0.0005007380269933885,7.530471020893942e-05,-0.0013866703884161007,0.5902593731880188,-50.03567886352539,-6.825150489807129,16.85950469970703,1.5315653085708618,-1.0983994007110596,0.04673920199275017,,,,,,,,,
1739302985.3935277,-0.08146489109338544,1.0455134621954327,-0.37980421777368206,-1.4615490047340174,1.5374302614384319,1.1769874768242405,1.347782047276901,-0.0008565481534335195,0.00035979630913456496,-0.0004490433017252061,0.00033850039086050145,0.0002104780613389223,0.00015227686631693251,0.0006286348374220211,0.5902593731880188,-50.06344985961914,-6.773575782775879,16.83570098876953,1.5187479257583618,-1.1048080921173096,0.0064559997990727425,,,,,,,,,
1739302985.4035358,-0.08146688903423843,1.0455135652165541,-0.37980778742159266,-1.461553897411358,1.537429425931306,1.1769856609855647,1.347780509433321,0.00018478891114683685,0.0007448964361219839,-0.0018303637011403422,-0.000703756357836579,0.0006902509656102804,-0.0006945272598680081,0.00014647870681356673,0.6180303692817688,-50.06344985961914,-6.773575782775879,16.88727569580078,1.5251566171646118,-1.0983994007110596,-0.0072769103571772575,,,,,,,,,
1739302985.4154906,-0.08146320487964247,1.0455098665293083,-0.3798010597036498,-1.4615516616250381,1.5374326111439722,1.1769880807803506,1.3477814073536054,0.0013295988171387711,0.0004529781062299975,0.0008102138865794006,-4.559002412798745e-05,0.0003936775519551497,-0.00020125589729006528,3.461731185495269e-05,0.5664556622505188,-50.01187515258789,-6.825150489807129,16.85950469970703,1.5251566171646118,-1.0919907093048096,0.012864691205322742,,,,,,,,,
1739302985.4255195,-0.08146688611820174,1.0455115525591527,-0.37980287310371746,-1.461551714606064,1.5374301068937735,1.1769879457676704,1.347779734277469,2.8585504520994614e-05,-0.0003660142192735684,-0.0003609036282875024,-0.0007976527644879794,-0.0004466617453944631,0.0006218609143130906,0.000319059366079785,0.6180303692817688,-50.03567886352539,-6.801346778869629,16.85950469970703,1.5187479257583618,-1.1176254749298096,-0.0008682189509272575,,,,,,,,,
1739302985.4356039,-0.08146688903418904,1.0455077305247267,-0.379807390061743,-1.4615492342249268,1.5374301441827285,1.1769864189588592,1.3477797342588598,-0.0013210019608129759,-0.001188967560889311,-0.0011440776105144128,0.001578228809890227,-0.0006917859439619202,-0.000560717613248683,0.0012402087643489093,0.6180303692817688,-50.01187515258789,-6.773575782775879,16.83570098876953,1.5187479257583618,-1.1048080921173096,-0.0008682189509272575,,,,,,,,,
1739302985.4465432,-0.08146489109338538,1.045508153863454,-0.37980524433580476,-1.461551421776551,1.537431812138242,1.176985372816264,1.347775011070048,-0.0006677505713659261,-0.00020081452043483672,-0.0008575190637544528,0.0002192086068326073,0.0018390237696620801,0.00084293681729218,-0.0023776559241533105,0.5902593731880188,-49.98807144165039,-6.773575782775879,16.85950469970703,1.5315653085708618,-1.0919907093048096,0.03941498324275017,,,,,,,,,
1739302985.4565606,-0.0814670219594361,1.045510316875579,-0.3798026108396482,-1.461549958418644,1.5374278776813182,1.1769864171887694,1.3477789229343817,-0.00018583262809373558,-0.0010690510239509175,0.000247374490690138,-0.00037315300319783987,-0.0014952059474600788,0.00017010811666824262,-0.0009116284954912619,0.5902593731880188,-50.01187515258789,-6.801346778869629,16.83570098876953,1.5379739999771118,-1.1048080921173096,0.03300629183650017,,,,,,,,,
1739302985.4675767,-0.0814648907813936,1.045508154011186,-0.37980497087995024,-1.4615531056315838,1.5374318605899535,1.176986417186111,1.3477734617681512,1.3730677870570635e-05,-0.0008466633944659215,-0.0009415847634902613,-0.00018156252684732956,-8.716021010129495e-05,0.0005779466078632025,-0.0003866720338811039,0.5902593731880188,-49.98807144165039,-6.773575782775879,16.88727569580078,1.5315653085708618,-1.1048080921173096,0.05314789339900017,,,,,,,,,
1739302985.477601,-0.08146688903423314,1.045509433900653,-0.37980492934683613,-1.4615532164229972,1.5374312552723834,1.1769882868121275,1.3477823097035844,-0.0007152528194206496,0.0004507904554275937,-0.00041030191773322786,-0.0013421740884819802,-9.723556451350342e-05,0.0009441249118749885,0.0028754765402121815,0.6180303692817688,-50.03567886352539,-6.773575782775879,16.91107940673828,1.5123392343521118,-1.1112167835235596,-0.013685601763427258,,,,,,,,,
1739302985.4885027,-0.0814646548823857,1.045509839008827,-0.3798028466128047,-1.4615514905282667,1.537430146123422,1.1769871748524665,1.3477749892727786,-0.0002116178851922242,0.0003616127623205912,0.0016287542617904997,0.0006449106813807869,-0.00035253481832434416,0.00011117230765953425,-0.0008538505048036774,0.5902593731880188,-50.01187515258789,-6.801346778869629,16.85950469970703,1.5187479257583618,-1.1112167835235596,0.03941498324275017,,,,,,,,,
1739302985.4985766,-0.08146773224411942,1.045511567275883,-0.3798028614390006,-1.4615517407661736,1.5374309586934365,1.1769871748461895,1.3477782865814238,-0.0006471619016755029,-0.00015986831629477994,-0.0008378520738306116,-0.0007343035713200896,0.0010396658547309344,-9.410273015239902e-05,0.00032399384934058025,0.5902593731880188,-50.03567886352539,-6.801346778869629,16.85950469970703,1.5123392343521118,-1.1112167835235596,0.012864691205322742,,,,,,,,,
1739302985.5095682,-0.08146489110942376,1.0455091400607253,-0.3798067130043321,-1.4615528632884172,1.5374318339956519,1.1769871748461895,1.347781249580009,-0.001224316059999815,0.001013939497411865,-0.0007111481718724114,-0.0014052788078612643,0.0011323479288801825,-0.0002938062900041159,0.0011901835268050601,0.5902593731880188,-49.98807144165039,-6.749772071838379,16.88727569580078,1.5315653085708618,-1.1112167835235596,-0.013685601763427258,,,,,,,,,
1739302985.5195906,-0.08146901990028942,1.045511579066805,-0.3798027678758547,-1.4615494801928575,1.5374286739775402,1.1769871748461895,1.3477741190089112,-0.0008414839448668427,0.00045585450948382915,0.00016176145957308538,-7.73981791565709e-05,-0.0011673996203608438,-0.0002481438256016677,-0.002702019629068999,0.6180303692817688,-50.03567886352539,-6.801346778869629,16.85950469970703,1.5315653085708618,-1.1112167835235596,0.04673920199275017,,,,,,,,,
1739302985.5305254,-0.0814668628006006,1.045508153972305,-0.3798067120226575,-1.461545310456081,1.5374278712033798,1.1769856595260328,1.3477774097301138,0.0001597058354520873,-0.0007391447544208813,-0.0012897879459366382,0.001140883623197589,7.817185715572463e-05,-0.00020747825751978084,0.0003515628354198136,0.6180303692817688,-49.98807144165039,-6.749772071838379,16.81189727783203,1.5379739999771118,-1.0983994007110596,0.019273381680250168,,,,,,,,,
1739302985.5405354,-0.08146489109294111,1.0455108349208868,-0.3798028378642824,-1.4615534926998293,1.5374304461614112,1.1769871748461895,1.3477812495799761,0.0009671926455625098,0.0013909377051803341,0.0014376281009022102,-0.00029798126543951,-0.00029035300255534794,-1.8564863426859002e-05,0.00067941273850954,0.5902593731880188,-50.01187515258789,-6.801346778869629,16.88727569580078,1.5251566171646118,-1.1112167835235596,-0.013685601763427258,,,,,,,,,
1739302985.5505698,-0.08146317727657187,1.0455115701271718,-0.37980461439793517,-1.4615485343783714,1.5374301442013052,1.176987175007695,1.3477797754427832,0.0009804972181375708,-0.0006151229223528404,0.0010232334684960032,0.0005318362427699161,-0.0002721627065615489,0.00011803666871594001,0.00041806470019461285,0.5664556622505188,-50.03567886352539,-6.773575782775879,16.85950469970703,1.5187479257583618,-1.1112167835235596,-0.0008682189509272575,,,,,,,,,
1739302985.561556,-0.08146860155494767,1.045513576990808,-0.3798067090743789,-1.4615538164723645,1.5374301616259634,1.1769871748461922,1.3477802052098367,-0.0013072538106913844,0.0007772228772738436,-0.0014510774137222885,-0.001001926635041108,0.0002798481931115858,0.0005060687600629157,-0.0013213488765860463,0.6418340802192688,-50.06344985961914,-6.749772071838379,16.88727569580078,1.5187479257583618,-1.1112167835235596,-0.0008682189509272575,,,,,,,,,
1739302985.5725012,-0.08146536484704871,1.0455098655598927,-0.3798028466127881,-1.4615493528296128,1.5374282246312085,1.1769871746254652,1.3477788698160633,0.0010732518695094695,-0.00020102928654898227,0.00028916683105278663,-0.00020184470193221275,-0.001253264032136252,0.00017050897099490282,-0.0011186732432160664,0.5902593731880188,-50.01187515258789,-6.801346778869629,16.85950469970703,1.5379739999771118,-1.1112167835235596,0.0064559997990727425,,,,,,,,,
1739302985.582589,-0.081466856971038,1.0455114995772299,-0.37980292706679425,-1.4615548842345556,1.5374301461274125,1.1769879325062638,1.3477766053664593,0.0005448840678287832,0.00035532003747508977,0.0009806716251766128,-0.0007773104921016766,0.00040430951386876893,0.000433400337900738,-0.00026396989852762065,0.6180303692817688,-50.03567886352539,-6.801346778869629,16.91107940673828,1.5187479257583618,-1.1176254749298096,0.026597600430250168,,,,,,,,,
1739302985.5935276,-0.08146679863231682,1.0455098662018774,-0.3798057076361915,-1.461549946642629,1.5374294044504124,1.1769879325062675,1.3477797342595268,-0.0007906933338045103,2.7067789792123767e-05,0.00018600226702495884,0.00033881185934989924,-0.001469731149991283,3.163826791578332e-05,-0.0005260794889635041,0.6180303692817688,-50.01187515258789,-6.801346778869629,16.83570098876953,1.5251566171646118,-1.1176254749298096,-0.0008682189509272575,,,,,,,,,
1739302985.6035395,-0.08146321657010629,1.0455098665293694,-0.37980492645109537,-1.4615517400071036,1.537426944257086,1.1769864171861109,1.3477792220588534,0.0006064619936526528,-0.0004843552693741162,-0.00015783971931529893,-0.0007501376259981649,-0.0016350713894605331,-0.0001070898444571054,-5.786426824558148e-06,0.5664556622505188,-50.01187515258789,-6.773575782775879,16.85950469970703,1.5452982187271118,-1.1048080921173096,0.0064559997990727425,,,,,,,,,
1739302985.6145496,-0.08146489109402887,1.0455100421545833,-0.37980284759393534,-1.4615538204512377,1.537429386522248,1.1769856595260326,1.3477808470757044,0.00011406675160830285,1.2073643966009238e-06,0.0005717636059784112,-0.0009492428098848928,-0.0008681820284448452,-0.0005194502822997404,0.0006257489505768616,0.5902593731880188,-50.01187515258789,-6.801346778869629,16.88727569580078,1.5251566171646118,-1.0983994007110596,-0.0072769103571772575,,,,,,,,,
1739302985.6245582,-0.08146489112947179,1.0455098665303661,-0.37980492640264923,-1.4615499495901263,1.537427871418466,1.1769871748461893,1.347774931814534,-0.00070292779297073,0.0013268720715796096,0.000910014631307082,0.0007730617642922746,-0.001120512245384985,-8.528121417393172e-05,-0.002397313268159798,0.5902593731880188,-50.01187515258789,-6.773575782775879,16.83570098876953,1.5379739999771118,-1.1112167835235596,0.03941498324275017,,,,,,,,,
1739302985.6345706,-0.08146489109338599,1.0455040103005788,-0.3798032095949741,-1.4615468320517504,1.5374315570342028,1.1769864171861109,1.3477812626602907,0.0004793728105914875,-0.0019996088163960974,-0.0002426863104978559,0.0013134070052689107,0.0006600608567785783,-0.00011273796017476277,0.0013238078992277955,0.5902593731880188,-49.96030044555664,-6.825150489807129,16.83570098876953,1.5187479257583618,-1.1048080921173096,-0.013685601763427258,,,,,,,,,
1739302985.6454942,-0.08146862786195791,1.0455132590874072,-0.379804926414756,-1.4615485503916723,1.53743212284557,1.1769864171861109,1.3477817336651572,-0.0010091308168297872,0.0005457050910932812,-0.0008165249263773875,0.0020580540548433375,1.733732873172595e-06,-0.0004073617131978258,0.001337266780925563,0.6418340802192688,-50.06344985961914,-6.773575782775879,16.85950469970703,1.5379739999771118,-1.1048080921173096,-0.013685601763427258,,,,,,,,,
1739302985.6555455,-0.08146759057481197,1.0455116044455128,-0.3797999934902955,-1.4615513936085833,1.5374290998854852,1.1769856595260326,1.3477764892521185,-0.00024220203159013964,0.0005051146499041794,0.002181380870895389,0.00029875768531770983,0.00016207934292405027,-0.0001927279209888752,-0.0012393298534426327,0.6180303692817688,-50.03567886352539,-6.848954200744629,16.85950469970703,1.5315653085708618,-1.0983994007110596,0.026597600430250168,,,,,,,,,
1739302985.6665716,-0.08146273885259554,1.045509837200391,-0.3798050277133327,-1.4615474905042767,1.5374291390673165,1.1769864171861109,1.347776200434585,0.0006961886165617438,-0.0004860517145114133,-0.0008881737925150084,0.0007289987922651398,8.534876839934172e-05,-0.0001531814484277121,-0.0008960212660526125,0.5902593731880188,-50.01187515258789,-6.801346778869629,16.83570098876953,1.5315653085708618,-1.1048080921173096,0.03300629183650017,,,,,,,,,
1739302985.6776068,-0.081464970154646,1.0455060745841314,-0.379804992240095,-1.4615480949456159,1.5374293365980738,1.1769856595260326,1.347784834052754,-0.0003505661869138679,-0.0019020385389059322,0.00018005167252271295,0.0008710071690028421,0.0014069749520934033,-0.00028875619492195606,0.0016599744079890412,0.5902593731880188,-49.96030044555664,-6.801346778869629,16.81189727783203,1.5379739999771118,-1.0983994007110596,-0.013685601763427258,,,,,,,,,
1739302985.6876087,-0.08146712579847186,1.0455115407840159,-0.3798052012689928,-1.4615470179232695,1.53742910129185,1.1769871748461893,1.3477760316845295,-0.0005172705064721191,-0.0006548626520251598,-6.719167154005997e-06,0.0017122826279329193,-0.0007475369073097948,-0.00012084807389129963,0.0003521307978847034,0.6180303692817688,-50.03567886352539,-6.773575782775879,16.83570098876953,1.5315653085708618,-1.1112167835235596,0.03941498324275017,,,,,,,,,
1739302985.6985762,-0.08146490311149433,1.0455113396501645,-0.37980300629591895,-1.4615496931309275,1.537427871205792,1.1769864186396612,1.347785490237089,0.0006854253375067863,-0.0001611933015043411,0.0006383060867079734,-9.649357883850524e-05,-0.002401194060487359,-0.00021450214410643622,0.0022015333686967176,0.5902593731880188,-50.03567886352539,-6.801346778869629,16.83570098876953,1.5379739999771118,-1.1048080921173096,-0.013685601763427258,,,,,,,,,
1739302985.7095637,-0.08146783619414358,1.0455115790487548,-0.37980284708609335,-1.4615537286580604,1.5374294321216915,1.1769903539220912,1.347777353065519,-0.001287966598987407,0.00031667800241766224,0.00019907421083644594,-0.0011086086489824818,5.782029832234956e-06,0.0004767280359435417,-0.0012310530075199098,0.6180303692817688,-50.03567886352539,-6.801346778869629,16.88727569580078,1.5251566171646118,-1.1112167835235596,0.019273381680250168,,,,,,,,,
1739302985.7214851,-0.08146146735638025,1.0455098664203586,-0.37980493523296405,-1.4615499571117307,1.537431216903699,1.176986417204057,1.347778868361627,0.0014329556850430118,0.000883949632494594,-0.0006413884648626697,-0.0008159810300047547,0.0019965642879114795,8.941245351005952e-06,-0.0014537632623374426,0.5426519513130188,-50.01187515258789,-6.773575782775879,16.83570098876953,1.5187479257583618,-1.1048080921173096,0.0064559997990727425,,,,,,,,,
1739302985.7316072,-0.08146688903424579,1.0455096628711549,-0.37980261040183827,-1.4615534484943993,1.537431210287768,1.176986417186111,1.3477758995496485,-0.0006181212010591222,-0.0005405300575287844,0.0008421083077082346,-0.0014021088947070754,0.0008567057143116958,-0.00019259836974508976,-0.0005138374686782802,0.6180303692817688,-50.03567886352539,-6.801346778869629,16.91107940673828,1.5187479257583618,-1.1048080921173096,0.03300629183650017,,,,,,,,,
1739302985.7425683,-0.08146560138206894,1.0455081510543875,-0.37980492640131025,-1.4615495143916786,1.5374296889918675,1.176986417186111,1.3477782289245954,0.0004980820445183438,-0.0009815745746251426,-5.562220685172134e-05,-0.0005349434697289967,-0.0002632121175396627,0.00016726267697520864,-0.0011428155512741766,0.5902593731880188,-49.98807144165039,-6.773575782775879,16.85950469970703,1.5315653085708618,-1.1048080921173096,0.012864691205322742,,,,,,,,,
1739302985.753569,-0.08146860188375685,1.0455079038162909,-0.37980106393576907,-1.4615556030793666,1.5374294259366286,1.1769879325062678,1.3477733497210982,-0.0005663448916891197,-0.0006793317533535558,-0.000456414824221906,-0.0020399740148961494,0.0021268150112404164,4.9524394828781386e-05,-0.002193760306275986,0.6418340802192688,-49.98807144165039,-6.825150489807129,16.91107940673828,1.5251566171646118,-1.1176254749298096,0.05314789339900017,,,,,,,,,
1739302985.7645063,-0.08146691534123228,1.0455098399251683,-0.3798077087976093,-1.4615537952321511,1.5374271244976805,1.1769871748461895,1.3477858415057733,-0.000167500463113897,-2.131020710933757e-05,-0.0012936447129631538,-0.0002264804195939514,-0.0016523213927844057,0.0005339507877921981,0.0012275864026056146,0.6180303692817688,-50.01187515258789,-6.773575782775879,16.88727569580078,1.5452982187271118,-1.1112167835235596,-0.013685601763427258,,,,,,,,,
1739302985.7745852,-0.08146870678307125,1.0455059542782286,-0.37980670942241823,-1.461552791192182,1.537428681191685,1.1769839164589417,1.3477826687544945,-0.0012116655664181496,-0.0008541488167605373,-0.0009331905390844874,-0.0014201762690665737,-0.0002472158010246564,-0.0006018470124710351,0.0026814313103449357,0.6418340802192688,-49.98807144165039,-6.749772071838379,16.88727569580078,1.5315653085708618,-1.1112167835235596,-0.013685601763427258,,,,,,,,,
1739302985.7854953,-0.08146973018956674,1.0455077207497454,-0.3797989409802132,-1.461547847707663,1.5374312057598518,1.1769871748277958,1.3477812650167853,-0.0013006493932264695,-0.0004924281996233173,0.0014619838442390665,0.0019479680157341987,0.00029205895533891013,-3.853452387802251e-05,0.0020944139598505426,0.6180303692817688,-50.01187515258789,-6.825150489807129,16.81189727783203,1.5187479257583618,-1.1112167835235596,-0.0008682189509272575,,,,,,,,,
1739302985.795511,-0.0814670453983544,1.045511576070328,-0.3798010933342091,-1.461549591073064,1.537434085136455,1.1769864171861106,1.3477789085860867,-0.0003142056665183029,0.0011868950863298097,0.0008779728275457807,-0.0002971595945390782,0.00020281242322839495,-0.000710546783015133,-0.0006554513341403654,0.5902593731880188,-50.03567886352539,-6.825150489807129,16.85950469970703,1.5123392343521118,-1.1048080921173096,0.03300629183650017,,,,,,,,,
1739302985.8056114,-0.08146317860913753,1.045509867789068,-0.3798049365416545,-1.461551024388106,1.5374286308551797,1.1769864171861109,1.3477810021689125,0.0005225013504663106,-0.0006088276982527313,0.0003901807805303261,0.0008852934981068775,-0.0007126805790415029,-0.00024359705563686295,0.0019608548019088602,0.5664556622505188,-50.01187515258789,-6.773575782775879,16.85950469970703,1.5315653085708618,-1.1048080921173096,-0.0072769103571772575,,,,,,,,,
1739302985.8165202,-0.08146925763751678,1.0455081540086508,-0.37980491769048413,-1.4615494854014706,1.5374286419451668,1.1769871748461893,1.347775133224984,-0.0004698945339415397,-0.0004509114632311155,-0.00023848843877512964,0.0002357187856434018,-0.0007877433303094062,0.0005871415803045711,-0.0013656658060765211,0.6180303692817688,-49.98807144165039,-6.773575782775879,16.85950469970703,1.5315653085708618,-1.1112167835235596,0.03941498324275017,,,,,,,,,
1739302985.826556,-0.08146759979607135,1.045511576106667,-0.37980106829627225,-1.4615485263875412,1.5374293871695257,1.1769864171861109,1.3477806503586478,-0.0010076832574799977,-0.00031478985081275006,0.0015509923754169356,0.002258963294916684,-0.0008967967001985153,-0.0005614786606318652,0.0008710414529555623,0.6180303692817688,-50.03567886352539,-6.825150489807129,16.85950469970703,1.5251566171646118,-1.1048080921173096,-0.0072769103571772575,,,,,,,,,
1739302985.8375783,-0.0814668890382507,1.0455115789047345,-0.3798028466128127,-1.4615528639243696,1.5374295100750563,1.1769864174014517,1.3477816692955313,-8.04243453581756e-05,3.5940742278025434e-05,0.0011671229507137257,-0.0017415155679196912,-0.00018940288879967467,0.0003221956017565197,0.0027144428835620513,0.6180303692817688,-50.03567886352539,-6.801346778869629,16.88727569580078,1.5251566171646118,-1.1048080921173096,-0.0072769103571772575,,,,,,,,,
1739302985.8485012,-0.0814631785726542,1.0455121105973013,-0.3798049264026437,-1.461551740001901,1.5374286463065037,1.1769871748461906,1.3477718329529298,0.001319967344985384,-0.0004697690600483907,0.00024062102941844446,-0.0017810368848551828,-0.0011762253703558904,-0.00018059356262150925,-0.003053731947452898,0.5664556622505188,-50.08725357055664,-6.773575782775879,16.85950469970703,1.5315653085708618,-1.1112167835235596,0.06596527993679047,,,,,,,,,
1739302985.8585374,-0.08146773322245257,1.0455081548996161,-0.37980772046234995,-1.4615538091135456,1.537432246389661,1.1769871748461895,1.3477808470697146,-0.0004752627817704066,0.00014814005904599515,-0.0013467385618373862,-0.0008780981440746834,0.0027013903050723495,0.00010334418680244602,0.0020453661877638633,0.5902593731880188,-49.98807144165039,-6.773575782775879,16.88727569580078,1.5379739999771118,-1.1112167835235596,-0.0072769103571772575,,,,,,,,,
1739302985.869502,-0.08146603190055181,1.0455115671673478,-0.379802873151059,-1.4615514752065877,1.5374286460568893,1.176986417186111,1.3477788683676413,-0.00046670889504271733,0.0003974568639281276,0.0005413785911396905,8.167904036066379e-05,-0.0006427599080474204,-0.00020183247231879062,-0.0014094882484062112,0.5664556622505188,-50.03567886352539,-6.801346778869629,16.85950469970703,1.5315653085708618,-1.1048080921173096,0.0064559997990727425,,,,,,,,,
1739302985.879602,-0.0814658420584022,1.0455098626047221,-0.3798049924891661,-1.461548060620747,1.5374310632533974,1.1769871748461895,1.3477797342588596,-0.000122613978072887,-0.0017004623714823941,0.0002873661909281553,0.0014234702433227678,-0.0003579878476071376,6.574080293433358e-05,-0.0007313097604703715,0.5902593731880188,-50.01187515258789,-6.801346778869629,16.81189727783203,1.5379739999771118,-1.1112167835235596,-0.0008682189509272575,,,,,,,,,
1739302985.8906353,-0.08147144271507215,1.045507744870566,-0.37980561633995535,-1.4615506976657717,1.53743413534379,1.176986417186111,1.3477802071472063,-0.0011334792788246643,-0.0011727072956925996,-0.0016033454469087658,-0.0004596252320851564,0.0007150412167656092,-0.0004056487541169155,0.0006094038548742283,0.6418340802192688,-49.98807144165039,-6.749772071838379,16.85950469970703,1.5251566171646118,-1.1048080921173096,-0.0008682189509272575,,,,,,,,,
1739302985.9015558,-0.08146489154246066,1.045512869800116,-0.3798056455767981,-1.4615531022098505,1.5374293871961113,1.1769871748461895,1.3477775100276763,0.0006349172295797495,0.0009425752134496654,-0.0008485050253673272,-0.0010740552956328107,-0.0001387924949853792,0.0003792781657673604,-0.00012466131803448162,0.5902593731880188,-50.06344985961914,-6.773575782775879,16.88727569580078,1.5251566171646118,-1.1112167835235596,0.019273381680250168,,,,,,,,,
1739302985.9115868,-0.08146490278538777,1.045507915142023,-0.3798028466249674,-1.4615535736262535,1.537431714017637,1.176986417186111,1.3477761123410004,0.0008269464080816682,-0.00023469365738980615,0.0008196083259779622,-0.0006541896621851081,0.0002769483394583897,-0.0001517955948774199,-0.0012284696658509421,0.5902593731880188,-49.98807144165039,-6.801346778869629,16.88727569580078,1.5187479257583618,-1.1048080921173096,0.026597600430250168,,,,,,,,,
1739302985.922534,-0.08146489206778428,1.0455160926490215,-0.3798027678757883,-1.4615492430179584,1.5374293925616853,1.176986417186111,1.3477808456140483,-0.00020480329065515135,0.0021579999565194473,0.0010676367782715345,0.00043020041930490226,-0.0011495850172792193,-0.00034661121598958964,0.002060151550121788,0.5902593731880188,-50.06344985961914,-6.801346778869629,16.83570098876953,1.5251566171646118,-1.1048080921173096,-0.0072769103571772575,,,,,,,,,
1739302985.9325569,-0.08146302128263586,1.0455115788706388,-0.3798028466114547,-1.4615535791861387,1.5374278712032274,1.176986417186111,1.3477734674639905,0.0007633745013145114,0.00044742340619442707,0.0003749578082174816,-0.0007382263178725482,-0.0010428088641706336,-0.00015657607525829974,-0.0017743160146654101,0.5664556622505188,-50.03567886352539,-6.801346778869629,16.88727569580078,1.5379739999771118,-1.1048080921173096,0.05314789339900017,,,,,,,,,
1739302985.9435723,-0.08146686278768389,1.0455115799949126,-0.3798049264026437,-1.46154855029894,1.5374286304782592,1.1769864166894812,1.347781249579689,-0.0011693119061186356,-1.7881538110308673e-05,-0.000326074323991742,0.001232592311445929,-0.0010050175704852996,4.115236109264618e-05,0.0008198294277046993,0.6180303692817688,-50.03567886352539,-6.773575782775879,16.85950469970703,1.5315653085708618,-1.1048080921173096,-0.013685601763427258,,,,,,,,,
1739302985.953579,-0.08146692703277701,1.0455095476568057,-0.37980490113812343,-1.4615486019199793,1.5374312438584374,1.1769864171861026,1.3477737014795903,-0.0013412051319130031,0.0004192787073383907,-2.9740837310656624e-06,0.0009016803954919954,0.0016669098984530212,-0.0005041849315095862,-0.000230084487293711,0.6180303692817688,-50.01187515258789,-6.773575782775879,16.85950469970703,1.5452982187271118,-1.1048080921173096,0.05314789339900017,,,,,,,,,
1739302985.963582,-0.08146883864328529,1.045511579044706,-0.37980292641226876,-1.461551383470943,1.537429443929544,1.1769864171861109,1.3477741233755436,-0.001145592759017381,0.0010576028243075271,-9.325305773496564e-05,0.00034172867858382966,-0.00031908033327795955,0.00010190305221807403,3.886370456133515e-05,0.6418340802192688,-50.03567886352539,-6.801346778869629,16.85950469970703,1.5251566171646118,-1.1048080921173096,0.04673920199275017,,,,,,,,,
1739302985.973611,-0.08146773225213479,1.0455098282646644,-0.3798049532219971,-1.4615537027076297,1.537428648406351,1.1769887984035001,1.3477742412689329,-0.0009489368109004331,-0.0006734710822723607,-0.001546075620796985,0.00017317134897455996,-0.0012233745612493304,0.0004850875302813076,-0.0006464069434005175,0.5902593731880188,-50.01187515258789,-6.773575782775879,16.88727569580078,1.5315653085708618,-1.1249496936798096,0.04673920199275017,,,,,,,,,
1739302985.9845657,-0.08146703475006142,1.0455114995770305,-0.379804961724066,-1.46154852246415,1.5374295101289983,1.1769871748461893,1.3477733875673363,-0.0008057623920236775,-0.0007922759859233899,-0.0008389062554425648,0.0004051081981154453,-0.001113234686334205,0.0004259898482014451,-0.0006601178687442209,0.5902593731880188,-50.03567886352539,-6.773575782775879,16.85950469970703,1.5251566171646118,-1.1112167835235596,0.05314789339900017,,,,,,,,,
1739302985.9955297,-0.08146702621784833,1.0455114956513147,-0.3798028469404351,-1.461550686070014,1.5374302488410712,1.1769871748461893,1.3477741117418254,0.00015579214893600153,0.0004295603689732801,0.0002155143208812925,-0.001110951252893174,0.00019120931592558248,0.0001980802193777292,-0.0013486436345316016,0.5902593731880188,-50.03567886352539,-6.801346778869629,16.88727569580078,1.5187479257583618,-1.1112167835235596,0.04673920199275017,,,,,,,,,
1739302986.0065231,-0.08146523308825064,1.0455114397268592,-0.3798018556596486,-1.4615467407993847,1.53743288195142,1.1769856595260326,1.3477764877903813,-0.0002181838499314626,0.000601292440864483,0.0005152312831293821,0.001885813657000341,0.0022153871298185492,-8.264189423193633e-05,-0.0004005215048030143,0.5902593731880188,-50.06344985961914,-6.773575782775879,16.83570098876953,1.5315653085708618,-1.0983994007110596,0.026597600430250168,,,,,,,,,
1739302986.0175643,-0.08146317871893037,1.045507720750098,-0.37980284659545366,-1.4615527480037211,1.5374280964945297,1.1769864171861109,1.3477763861036216,0.0016829752775588507,-0.0015030540526696627,7.666350059040049e-05,0.00020856268835452976,-0.002126612991231345,-0.00012169286133571525,-0.001156484162591515,0.5664556622505188,-50.01187515258789,-6.801346778869629,16.88727569580078,1.5251566171646118,-1.1048080921173096,0.019273381680250168,,,,,,,,,
1739302986.027597,-0.08146349425651603,1.0455074356641119,-0.3798048447494583,-1.4615506380301782,1.5374278716657952,1.176986415696222,1.3477789206730606,0.0009004062509655538,-0.0013776387679132807,0.0004440452553503667,-7.449964637986544e-05,-0.0003078790018885269,0.00010240384349379348,0.0011434650203011665,0.5664556622505188,-49.98807144165039,-6.773575782775879,16.88727569580078,1.5379739999771118,-1.1048080921173096,0.0064559997990727425,,,,,,,,,
1739302986.0386198,-0.08146773224990171,1.0455096278846705,-0.37980670897119495,-1.4615485234279963,1.5374325811904415,1.1769871753306977,1.3477804920807386,-0.0009574229391601959,-0.0002650784039553829,-0.0005510030717376718,1.3240602627733524e-05,0.0014280003741152826,0.00015010768050473293,0.0010975322128922685,0.5902593731880188,-50.01187515258789,-6.749772071838379,16.85950469970703,1.5379739999771118,-1.1112167835235596,-0.0072769103571772575,,,,,,,,,
1739302986.0495121,-0.0814631874659479,1.0455134974804134,-0.3798049352329608,-1.4615494800455555,1.537430812482661,1.1769871750076977,1.3477797342588604,0.00044181794899954784,0.0007770138430621639,-0.000810714263030844,0.0012918602512876944,0.0006996647916182922,0.00023539268926661754,0.0005160981459718487,0.5664556622505188,-50.06344985961914,-6.773575782775879,16.85950469970703,1.5251566171646118,-1.1112167835235596,-0.0008682189509272575,,,,,,,,,
1739302986.0595562,-0.08146591706607893,1.0455098665280285,-0.37980766667871435,-1.4615494852945479,1.5374310590125195,1.1769871748461922,1.3477733482668806,9.608522905462074e-06,-0.00010510052278279764,-0.002052582684053851,-0.0007038851913758055,-0.00040925435442050624,0.0014957837287491943,-0.0024754026127125593,0.5902593731880188,-50.01187515258789,-6.749772071838379,16.85950469970703,1.5123392343521118,-1.1112167835235596,0.05314789339900017,,,,,,,,,
1739302986.0715644,-0.08146489109917703,1.04551086375803,-0.3798013906629313,-1.4615527040822531,1.5374312040377174,1.176986417186111,1.347776566427125,0.0007517656866340553,-0.0002829620886743875,-3.407696365042407e-05,-0.0010825370608444436,3.4985670678946046e-05,0.0005548661702213973,-0.0011291888966625109,0.5902593731880188,-50.03567886352539,-6.825150489807129,16.91107940673828,1.5187479257583618,-1.1048080921173096,0.05314789339900017,,,,,,,,,
1739302986.0824819,-0.08146688903423843,1.045509831206758,-0.37980537823692634,-1.4615488894620268,1.5374293870097928,1.1769856595260328,1.3477764871504037,-0.00017982944939466604,-0.000668042854934709,0.00028321807685142107,0.0007713511017000312,0.0005022150998299918,-0.00018540454727619668,-0.0015608790974446503,0.6180303692817688,-50.01187515258789,-6.749772071838379,16.83570098876953,1.5251566171646118,-1.0983994007110596,0.026597600430250168,,,,,,,,,
1739302986.0935988,-0.08146489304432235,1.0455104731921976,-0.3798029616034228,-1.461552786413847,1.537429688501341,1.176986417186111,1.3477836713178426,-2.7788874386478314e-05,-0.000553913951217628,-0.0007062162665363679,-0.00029763941027855683,-0.000578011635285618,0.0004965409239828114,0.0006242578381290963,0.5902593731880188,-50.01187515258789,-6.801346778869629,16.88727569580078,1.5315653085708618,-1.1048080921173096,-0.0072769103571772575,,,,,,,,,
1739302986.1045814,-0.08146489109338904,1.0455098665305165,-0.37980492640286007,-1.461548548953824,1.5374294080922457,1.1769856595260328,1.3477733673484669,-0.00035221164401576417,0.00014936282860999602,-0.00038604148986874447,0.001065539528740464,0.0012530082222285495,-9.119012272036101e-05,-0.0012196859146830087,0.5902593731880188,-50.01187515258789,-6.773575782775879,16.85950469970703,1.5379739999771118,-1.0983994007110596,0.05314789339900017,,,,,,,,,
1739302986.1145895,-0.08146688903423843,1.0455152806813726,-0.3798027678757882,-1.461548549374115,1.5374287529255184,1.1769871748461895,1.3477764871446711,0.0007133360960172716,0.0003799223766455207,0.0010447818615360782,-0.0008133743947061471,-0.00097145719926014,1.7010308423372536e-05,-0.0005282531516424481,0.6180303692817688,-50.08725357055664,-6.801346778869629,16.85950469970703,1.5315653085708618,-1.1112167835235596,0.026597600430250168,,,,,,,,,
1739302986.125608,-0.08146702325854663,1.0455110868413053,-0.3798010639353246,-1.4615485520265474,1.5374324847603567,1.1769887985650058,1.3477817641358032,-0.0008319824164638302,3.508703005129419e-05,0.001638562867068822,0.00136472651841991,0.002021740954493254,0.000966949344452349,0.0011438171618830496,0.5902593731880188,-50.06344985961914,-6.825150489807129,16.85950469970703,1.5123392343521118,-1.1249496936798096,-0.013685601763427258,,,,,,,,,
1739302986.1375616,-0.08146973897000495,1.0455060082623675,-0.3798038012682509,-1.4615485312771326,1.5374297030457709,1.1769871748461904,1.3477799324171469,-0.0012656959439733733,-0.0011869966290677446,0.00038559223410374044,0.0005998121337723795,0.0007170158739211946,0.0007087909352069101,0.00014854639928520245,0.6180303692817688,-49.98807144165039,-6.801346778869629,16.85950469970703,1.5315653085708618,-1.1112167835235596,0.0064559997990727425,,,,,,,,,
1739302986.1475892,-0.08146325783448462,1.0455098171328925,-0.379802879023263,-1.4615528631249446,1.5374279908848258,1.176986417186111,1.3477771425564562,0.0009947933517923959,-0.00039563483521122555,-0.0002902887985510105,-0.0007728129832865883,-0.0015397281404830616,-9.562064682375982e-05,0.0004009496289901056,0.5664556622505188,-50.01187515258789,-6.801346778869629,16.88727569580078,1.5379739999771118,-1.1048080921173096,0.03300629183650017,,,,,,,,,
1739302986.1595397,-0.08147139125447264,1.045509866529096,-0.37980492640282665,-1.4615498137504517,1.5374293865239574,1.176986417186111,1.3477812500715098,-0.0009698233118407616,-6.438098236120954e-05,0.000349426630236843,0.0007381327549065158,-0.00022205173949544816,0.0003841591060217257,0.0001761938452938958,0.6418340802192688,-50.01187515258789,-6.773575782775879,16.83570098876953,1.5251566171646118,-1.1048080921173096,-0.013685601763427258,,,,,,,,,
1739302986.1705232,-0.08146418246563569,1.045511932678372,-0.3798070270074403,-1.4615495673733652,1.537430913041159,1.1769871748461895,1.347780764942723,0.00077943496943181,0.0006784455290447641,-0.0011069215519164195,-0.0003202300486071682,-0.0002280921987199147,0.000717472828783898,0.0016616532458111055,0.5902593731880188,-50.01187515258789,-6.749772071838379,16.85950469970703,1.5123392343521118,-1.1112167835235596,0.026597600430250168,,,,,,,,,
1739302986.180533,-0.08146901988828847,1.0455159694811471,-0.3798067103932421,-1.4615485267159782,1.5374298724937703,1.1769871748461895,1.3477810441626166,-0.0007907368833581682,0.0012977450163373153,-0.00152960697094515,0.0004815851229456385,0.001609185958502939,0.00023638392394564244,-0.0001356541126382914,0.6180303692817688,-50.08725357055664,-6.749772071838379,16.85950469970703,1.5251566171646118,-1.1112167835235596,0.019273381680250168,,,,,,,,,
1739302986.1916103,-0.08146699427422029,1.0455135769947974,-0.3798028466127955,-1.4615508499214893,1.5374287873567587,1.176986417186111,1.3477773530624169,-0.0005216147813071018,0.00223111673390848,0.001027314691193993,-0.0008289317272968597,0.0005343800044012532,0.00028228825013370325,-0.000558658290642662,0.6180303692817688,-50.06344985961914,-6.801346778869629,16.88727569580078,1.5315653085708618,-1.1048080921173096,0.019273381680250168,,,,,,,,,
1739302986.2025175,-0.08146902022566087,1.045509830881055,-0.37980321017538476,-1.4615469816054492,1.5374332780176423,1.176985659029403,1.3477799279997562,-2.571171403264609e-05,-0.0004951730524305178,0.0007005782188724061,0.0012646259769471366,0.0014664061741253057,-0.00023250310578672417,0.0005263392035212994,0.6180303692817688,-50.01187515258789,-6.825150489807129,16.83570098876953,1.5315653085708618,-1.0983994007110596,0.0064559997990727425,,,,,,,,,
1739302986.2135553,-0.08146712594148407,1.0455133032505053,-0.37980782289222687,-1.46155275095125,1.5374290394891288,1.1769856595260244,1.3477810794120368,-0.0002502965402248682,0.0006050645229232043,-0.0009639492709982744,-0.00033000272646427646,0.0006113874968999514,-0.00032654137520931757,0.0008750177570627639,0.6180303692817688,-50.06344985961914,-6.773575782775879,16.88727569580078,1.5315653085708618,-1.0983994007110596,0.026597600430250168,,,,,,,,,
1739302986.2236037,-0.08146692735933647,1.0455115662936574,-0.3798028584392346,-1.4615485226041325,1.5374279894275298,1.1769856595260326,1.3477797910270777,-0.00012134523801291696,-0.00020486786583293103,0.0001387834802374187,7.171008773375592e-05,-3.834722855988045e-05,-0.00016402826794391037,0.0004005346063734491,0.6180303692817688,-50.03567886352539,-6.801346778869629,16.85950469970703,1.5379739999771118,-1.0983994007110596,-0.0008682189509272575,,,,,,,,,
1739302986.2345169,-0.08146688903445477,1.0455115828292647,-0.3798049963046524,-1.4615476937709948,1.5374325785741245,1.1769873902683108,1.3477734853854408,0.0006095753753702656,0.0007206979769541523,-0.00015004191033158505,0.0003575753908575492,0.001238276841156569,-0.0006055995292194056,0.0003634380524927119,0.6180303692817688,-50.03567886352539,-6.801346778869629,16.83570098876953,1.5251566171646118,-1.0983994007110596,0.05314789339900017,751,757,797,41.934,0,0
1739302986.2445717,-0.08146997084919885,1.0455098626048533,-0.37980284664919334,-1.4615527569592053,1.5374270830605996,1.1769903537898876,1.347780505003212,-0.0010917116375025692,3.7137875392637576e-05,-0.0008803310127513406,-0.0015036748968329885,-0.0007562549353587025,0.0009462497882266358,-0.00011957407679185727,0.6180303692817688,-50.01187515258789,-6.801346778869629,16.88727569580078,1.5187479257583618,-1.1112167835235596,-0.0072769103571772575,750,758,794,41.934,1,0
1739302986.255489,-0.08146689782063146,1.0455115512509354,-0.3798049264026439,-1.4615545043109608,1.5374286419278755,1.1769864172040563,1.3477781499474792,-0.00019856804817023878,-2.1652966774245256e-05,0.00030008797967685075,-0.0019016126567861342,-0.000708418713479155,0.0005971373498102053,-0.0005445891282799253,0.6180303692817688,-50.03567886352539,-6.773575782775879,16.91107940673828,1.5315653085708618,-1.1048080921173096,0.012864691205322742,751,756,795,41.934,0,0
1739302986.2655542,-0.08146860155511843,1.04551157774144,-0.3798066628625144,-1.4615467411137162,1.537428633385581,1.1769864171861113,1.3477815646396838,7.023131804120863e-05,0.0009756994334171864,-0.0011298434152276627,0.00100428590783433,0.00036258141206097015,0.00028362432417673733,0.0009474574596381244,0.6418340802192688,-50.03567886352539,-6.722001075744629,16.83570098876953,1.5315653085708618,-1.1048080921173096,-0.0072769103571772575,752,756,795,42.043,0,0
1739302986.2765367,-0.08146601983564769,1.0455098665293527,-0.37980072078680327,-1.4615449570926324,1.5374318471850301,1.1769856595260328,1.347773350223114,0.00048123445888044285,4.350513485436053e-06,0.0012671960967183247,0.0014280273971245447,0.00027282842467634923,-0.0002448857961261144,-0.001967254952555488,0.5664556622505188,-50.01187515258789,-6.801346778869629,16.81189727783203,1.5315653085708618,-1.0983994007110596,0.05314789339900017,753,756,796,41.934,1,0
1739302986.2865856,-0.08146860157100863,1.045509044328678,-0.3798049263906433,-1.461550611066821,1.5374280457011573,1.1769856595260328,1.347781291069498,0.00017067510649343203,-0.0006625829271991948,1.6724803052227172e-05,-0.0007244053626017967,-0.0004186187731365443,-0.0006226289125463951,-0.000520430535003874,0.6418340802192688,-50.01187515258789,-6.773575782775879,16.88727569580078,1.5379739999771118,-1.0983994007110596,0.012864691205322742,754,755,796,42.043,1,0
1739302986.2966168,-0.08146489152642249,1.0455115790361822,-0.37980706186034485,-1.4615483899920312,1.5374278712060803,1.176986417186111,1.3477764915588586,0.0011377095646300218,0.000956481254083737,-0.0019506795829267937,-0.0004044026395975593,-0.0010619466941244227,7.248533248599662e-05,-0.0011334751884340684,0.5902593731880188,-50.03567886352539,-6.749772071838379,16.85950469970703,1.5379739999771118,-1.1048080921173096,0.026597600430250168,754,756,796,42.043,1,0
1739302986.3074973,-0.08146863677530206,1.0455126176639253,-0.3798007207157826,-1.4615513969643525,1.5374297429825492,1.176986417186111,1.3477773530416053,5.065592621016481e-05,0.0011310062006822962,0.0009003985933025878,-0.001123284482497947,0.0008631949641748672,9.933532636391163e-05,-2.3083392236109473e-05,0.6418340802192688,-50.01187515258789,-6.801346778869629,16.88727569580078,1.5315653085708618,-1.1048080921173096,0.019273381680250168,751,756,797,42.043,1,0
1739302986.3175724,-0.08146371383851808,1.045506008393001,-0.3798049292020738,-1.461550602249962,1.5374286855705308,1.1769871748461895,1.3477836708333257,0.0003753527154388061,-0.001339650522050791,8.274945018559108e-05,-0.0009440933686542471,-0.0008371341248274067,8.912135472959187e-05,0.0002608185164096544,0.5426519513130188,-49.98807144165039,-6.773575782775879,16.88727569580078,1.5315653085708618,-1.1112167835235596,-0.0072769103571772575,750,756,796,41.934,1,0
1739302986.328481,-0.08146804895508716,1.0455116046164408,-0.37980287277973657,-1.4615508671460358,1.5374293866851076,1.176986417186111,1.3477848875266618,-0.0008469660613049777,0.0010188797161698314,-0.0009043852815004627,-0.0007900677909534733,-0.0014020801695599399,-0.00010022297958892746,0.003552197650881575,0.5902593731880188,-50.03567886352539,-6.801346778869629,16.88727569580078,1.5251566171646118,-1.1048080921173096,-0.0072769103571772575,750,756,796,42.043,2,0
1739302986.3385994,-0.08146489114686405,1.0455115109153714,-0.3798051648216659,-1.4615506144508117,1.537433980388084,1.1769871748461895,1.3477733483413206,0.00068276186993711,0.00014366317309534132,0.0008963373992201227,-0.0012236376505930608,0.0020245812065773287,0.00019386989864737087,7.277668458107508e-05,0.5902593731880188,-50.03567886352539,-6.773575782775879,16.88727569580078,1.5251566171646118,-1.1112167835235596,0.05314789339900017,751,757,796,41.934,1,0
1739302986.3495605,-0.08146583818105017,1.045509866341913,-0.37980287310508726,-1.4615495026119865,1.537430159477545,1.1769871748461895,1.3477798970564874,-0.000820794385052279,0.00031282956784367544,0.000302646627965475,-0.0005182627277284267,8.14463583630097e-05,0.00035835464956233704,-0.0013985767579652083,0.5902593731880188,-50.01187515258789,-6.801346778869629,16.85950469970703,1.5315653085708618,-1.1112167835235596,-0.0008682189509272575,751,762,795,42.043,1,0
1739302986.360522,-0.08146591707127465,1.0455098652211787,-0.3798031909953297,-1.4615467397751618,1.5374286288718437,1.176986412716444,1.3477718329472024,0.00033234111542246157,0.00034031460305991384,0.000548226349088988,0.001662195887839746,-0.0005069976757439028,-0.00021260434430783292,-0.0029017379562262325,0.5902593731880188,-50.01187515258789,-6.801346778869629,16.83570098876953,1.5315653085708618,-1.1048080921173096,0.06596527993679047,752,756,796,41.934,1,0
1739302986.371514,-0.0814668890761165,1.0455114701428465,-0.37980284959451016,-1.4615506032176497,1.5374296928081483,1.1769830580767682,1.347775169925739,0.0008827462191549535,-0.0005491173830240994,0.0007755598562688241,0.0005427486570031072,-0.00020887876033300463,-0.0011291296379304756,-0.0017607821219693593,0.6180303692817688,-50.03567886352539,-6.801346778869629,16.88727569580078,1.5315653085708618,-1.0855820178985596,0.04673920199275017,753,756,797,42.043,1,0
1739302986.3815632,-0.08146490029541902,1.0455115786121967,-0.37980885193074,-1.461550602672585,1.537430144201378,1.1769849018475607,1.347776789140418,0.0003819192090757596,5.5995143059916556e-05,-0.00037343383092378697,-0.001030296438618531,4.9100668843697604e-05,-0.0005829163303779407,-0.0010437342421462143,0.5902593731880188,-50.03567886352539,-6.749772071838379,16.88727569580078,1.5187479257583618,-1.0919907093048096,0.03300629183650017,751,754,796,41.934,0,0
1739302986.392566,-0.08146720861548133,1.0455100961176338,-0.3798034481336565,-1.4615506680321684,1.5374321099709833,1.1769856595260326,1.3477799048147368,5.379017291061585e-05,-0.0005735993856642323,0.0009683944998091717,-0.00027829327336044787,-0.0004039743873933552,-0.00012149755326689701,0.001508984754608071,0.6180303692817688,-50.01187515258789,-6.825150489807129,16.85950469970703,1.5379739999771118,-1.0983994007110596,-0.0008682189509272575,754,757,796,42.043,0,0
1739302986.4026098,-0.08146602265579932,1.0455115770553627,-0.37980492753318296,-1.4615485579132708,1.5374318080108809,1.1769831587988633,1.3477783987482406,0.0007902618159030599,0.0005646740237399421,-0.00025417053413415614,0.00012166725295016792,8.899221060190159e-05,-0.00046637947720350236,0.0012942636436887652,0.5664556622505188,-50.03567886352539,-6.773575782775879,16.85950469970703,1.5315653085708618,-1.1048080921173096,0.04673920199275017,752,757,795,41.934,1,0
1739302986.4135897,-0.08146430725879862,1.045509813717038,-0.3798057076357437,-1.461543280379604,1.53743137431905,1.1769871747726146,1.3477793724554057,0.00022366043844879657,-0.00025820883370709604,-0.00042004001444813393,0.0004994198644632556,0.000336042429989557,0.0005752105340946568,0.0009930671542191403,0.5426519513130188,-50.01187515258789,-6.801346778869629,16.78809356689453,1.5123392343521118,-1.1112167835235596,-0.0008682189509272575,753,756,797,42.043,2,0
1739302986.4245577,-0.08146791502282007,1.0455152895113922,-0.3798049264187942,-1.4615484429743864,1.537433344344374,1.1769856595260324,1.3477805316472686,-0.0009655439210693528,0.001960043022911871,5.15774189211514e-05,0.000486007625903767,0.0031974135320968298,-0.0005886183936529713,0.000601965793837758,0.6180303692817688,-50.08725357055664,-6.773575782775879,16.85950469970703,1.5315653085708618,-1.0983994007110596,-0.0072769103571772575,751,758,795,42.043,1,0
1739302986.4354892,-0.08147063106446245,1.0455098663840199,-0.37980284792098346,-1.4615467397691801,1.537430610799608,1.1769895962620047,1.347779209585759,-0.003059447333704936,-0.0005338586149115518,0.001096971377757054,0.0017775062808828709,-0.0003200298615392134,0.0008676573245698659,-0.0005605875786858778,0.6656377911567688,-50.01187515258789,-6.801346778869629,16.83570098876953,1.5187479257583618,-1.1048080921173096,0.012864691205322742,748,755,796,42.043,1,0
1739302986.4454937,-0.0814649963374432,1.0455115790500986,-0.37980495322071217,-1.4615524382224776,1.5374286812147187,1.1769871750077032,1.347781904825606,0.0003997142678177696,-0.0002537869895465099,0.00021760549889369816,-0.00031267991890081433,0.00010996919644255854,0.00017090966279918884,0.001572819225103584,0.5902593731880188,-50.03567886352539,-6.773575782775879,16.91107940673828,1.5315653085708618,-1.1112167835235596,-0.0072769103571772575,750,757,796,42.043,3,0
1739302986.455518,-0.08146860289076066,1.0455095456944967,-0.3798007220221377,-1.461550602236804,1.5374286309092362,1.176986417186112,1.3477775512049393,-0.000547056765721609,-0.001094713516439976,0.001207448901801054,0.001052711926079028,-0.0005439445223498064,-0.0003804767483819982,-0.0004363328473585709,0.6418340802192688,-50.01187515258789,-6.801346778869629,16.88727569580078,1.5315653085708618,-1.1048080921173096,0.026597600430250168,748,758,796,42.043,0,0
1739302986.4656339,-0.0814693381506641,1.045511251014721,-0.3798071074551464,-1.461550611066821,1.5374298968809585,1.176986417186111,1.3477825226049651,-0.0005529086849508349,0.0001931605131858088,0.0005048852426351525,-0.0005177574773107027,0.000842862970893104,-0.0002581714929482102,0.0016804759467411471,0.6418340802192688,-50.03567886352539,-6.773575782775879,16.88727569580078,1.5251566171646118,-1.1048080921173096,0.0064559997990727425,752,756,796,42.151,1,0
1739302986.4765651,-0.08146490282562467,1.0455091512717858,-0.3798073106007468,-1.4615485224466978,1.5374301500542773,1.176989595438326,1.3477828781637382,-0.00033439537322822434,0.00017309422890792925,-0.0006140417069220852,0.000524509992594097,-0.0012013552204067817,0.00010410586031768065,0.0018220874040773697,0.5902593731880188,-50.01187515258789,-6.773575782775879,16.85950469970703,1.5187479257583618,-1.1048080921173096,-0.027418512850999832,750,757,797,41.934,1,0
1739302986.4875767,-0.08146146554905073,1.0455135740434822,-0.37980496188272855,-1.4615506375577743,1.537427988940728,1.1769864172040523,1.3477764871443765,0.001697207335609007,0.0018187502923679847,-0.00033634391091798683,0.00018766377922213042,-0.0007042432746653098,0.00019236833751656618,-0.0021332259923757643,0.5426519513130188,-50.06344985961914,-6.773575782775879,16.88727569580078,1.5379739999771118,-1.1048080921173096,0.026597600430250168,752,757,796,41.934,1,0
1739302986.4984848,-0.08146625746461306,1.0455098778670502,-0.37980492640284397,-1.4615523849137217,1.5374270067601077,1.1769864166894812,1.3477812495790162,0.000409462981178424,-0.00010480263226276016,-0.0002124217837386491,0.00014503528721643885,-0.0014588214968599355,-0.00023479323832318908,0.00115706026734413,0.5664556622505188,-50.01187515258789,-6.773575782775879,16.91107940673828,1.5452982187271118,-1.1048080921173096,-0.013685601763427258,751,757,797,41.934,1,0
1739302986.5084906,-0.08146493022710187,1.0455115250872453,-0.37980516580236917,-1.4615506022365035,1.5374294044504262,1.1769856595260244,1.3477757301302922,0.0011445194173767123,-0.00040172543931264005,0.00011906426795623879,0.00017053755811435406,-0.0008119828911966284,-0.0006832225232888372,-0.0011096259469737428,0.5902593731880188,-50.03567886352539,-6.773575782775879,16.88727569580078,1.5251566171646118,-1.0983994007110596,0.03300629183650017,750,757,796,41.934,0,0
1739302986.5185516,-0.08146512828997947,1.0455098802645109,-0.3798049532246999,-1.4615513949163053,1.537433002596197,1.1769879325062675,1.3477808451316584,-0.00028649556248816965,-0.00030655905248363525,-7.346951025016966e-05,-0.0015870045637332878,0.00206849471147101,0.00034277586450934456,0.0008864903489156498,0.5902593731880188,-50.01187515258789,-6.773575782775879,16.85950469970703,1.5315653085708618,-1.1176254749298096,-0.0072769103571772575,748,757,798,42.043,1,0
1739302986.528607,-0.08146976830023195,1.0455100163179603,-0.3798028466132423,-1.461548535250197,1.5374290000771023,1.176990694984485,1.3477760827029612,-0.0012223604281937457,-0.00044613849386786935,0.00044015977419720263,-0.000879500750244453,-0.00041388223872991736,0.001256413568325433,-0.0005254767494125996,0.6180303692817688,-50.01187515258789,-6.801346778869629,16.85950469970703,1.5315653085708618,-1.1048080921173096,0.03300629183650017,749,760,796,41.934,2,0
1739302986.539557,-0.08146317858890773,1.0455094067927864,-0.37980401698893224,-1.4615506022365756,1.5374293923395783,1.1769864230244602,1.3477852312156442,0.0012238370803647047,-0.00023259579774614523,0.0008172055668812773,0.0002756038296752442,-0.000825233429586913,-0.00012197392315802984,0.001393890622638427,0.5664556622505188,-50.03567886352539,-6.773575782775879,16.88727569580078,1.5251566171646118,-1.1048080921173096,-0.020094294100999832,751,762,795,42.043,1,0
1739302986.5495713,-0.0814678753839104,1.0455060167079133,-0.37980893463138216,-1.4615488858638894,1.5374294054195337,1.1769871748462881,1.347778868416225,-9.671131016076445e-05,-0.0017446540158607064,-0.0021992162709586504,-0.00028937269854050125,0.0005908909550054471,0.00035594442956695906,-0.001144846350072666,0.6180303692817688,-49.98807144165039,-6.749772071838379,16.83570098876953,1.5251566171646118,-1.1112167835235596,0.0064559997990727425,750,756,796,41.934,1,0
1739302986.560526,-0.0814660501901335,1.045511142100837,-0.3798028508769859,-1.4615506035568133,1.5374291149951145,1.176986417186111,1.3477741059807944,0.00015999740095895814,0.000458691744397115,-0.00014970905544410047,-0.0011999604460164576,4.019332877378455e-05,-0.0005627343499390019,-0.002178406478679327,0.5664556622505188,-50.03567886352539,-6.801346778869629,16.88727569580078,1.5315653085708618,-1.1048080921173096,0.04673920199275017,749,756,796,41.934,1,0
1739302986.5705988,-0.08146689915097614,1.0455059817430787,-0.3798067090797349,-1.4615496007926003,1.5374289353716435,1.1769871748461895,1.347775768891633,-0.0010534923402802348,-0.0011073622132652615,-0.0010410617495672562,-0.00013855193897641994,-0.0007265537832851757,0.0002649590471879645,0.00047080729986999825,0.6180303692817688,-49.98807144165039,-6.749772071838379,16.83570098876953,1.5379739999771118,-1.1112167835235596,0.03300629183650017,752,757,796,42.151,1,0
1739302986.581506,-0.08146870775731276,1.0455115702075257,-0.3798013023906869,-1.4615485224627984,1.5374293865292892,1.1769856595260328,1.3477749855523882,-0.00057294888329178,0.0008929883955445831,0.0007662515582089264,2.857665639037561e-05,-0.0004752802158086032,-9.822651550141505e-05,-0.0013742418639796227,0.6418340802192688,-50.03567886352539,-6.825150489807129,16.85950469970703,1.5251566171646118,-1.0983994007110596,0.03941498324275017,753,755,796,41.934,1,0
1739302986.5925398,-0.08146912556307766,1.0455060068240705,-0.37980284661682634,-1.4615527480037154,1.5374338347474346,1.1769870139381773,1.347781147109931,-0.0007178000620318306,-0.0017113262304854718,0.0002853336923621282,-0.0010896796735762842,0.0013866248883949886,0.0002394516902835846,0.0015829081890137234,0.6180303692817688,-49.98807144165039,-6.801346778869629,16.88727569580078,1.5187479257583618,-1.1112167835235596,-0.0008682189509272575,747,755,796,42.151,1,0
1739302986.602579,-0.08147077140696159,1.0455122678027693,-0.379805641658381,-1.4615506023939713,1.5374279242516249,1.176987174845281,1.3477733487593728,-0.0014049684980420498,0.0010425100983522562,-0.001139975279361597,-0.0005252262723985788,-0.00022878694273436095,0.0005416263574239414,-0.002758502824027477,0.6418340802192688,-50.03567886352539,-6.773575782775879,16.88727569580078,1.5379739999771118,-1.1112167835235596,0.05314789339900017,748,757,798,42.043,2,0
1739302986.614539,-0.08146712584546822,1.0455135768858308,-0.37980670919271664,-1.4615570286134918,1.5374301601727123,1.1769828303298593,1.3477781121551016,0.000761558012468283,-5.5042336811658735e-05,-1.926027736972788e-06,-0.0018978107373738594,-2.1546427826939294e-05,-0.0008942703828606171,-0.0005838041302100378,0.6180303692817688,-50.06344985961914,-6.749772071838379,16.93488311767578,1.5187479257583618,-1.1112167835235596,0.012864691205322742,750,757,796,41.934,1,0
1739302986.6256113,-0.08147074129872126,1.0455074286143933,-0.37980671780197384,-1.4615498869861494,1.537428344091502,1.1769849018577792,1.3477797342588622,-0.0005602866527393276,-0.0011614141871041585,-0.0003719674266443925,0.00011019715139282528,0.0009778607176607417,-0.0008444324153339309,0.0006704979780863681,0.6418340802192688,-49.98807144165039,-6.749772071838379,16.88727569580078,1.5379739999771118,-1.0919907093048096,-0.0008682189509272575,746,756,796,41.934,1,0
1739302986.636499,-0.08146726891077537,1.0455115790460112,-0.37980565092481305,-1.4615506682098223,1.5374293865797866,1.1769864171861109,1.3477791834216302,-0.000556276512100968,0.0017470298115488591,0.00011465498131226333,-9.420995603629733e-05,-5.8814512265912275e-06,5.440299585760298e-05,0.0005866622253176679,0.5902593731880188,-50.03567886352539,-6.773575782775879,16.85950469970703,1.5251566171646118,-1.1048080921173096,0.012864691205322742,750,756,796,42.151,1,0
1739302986.6465888,-0.08146912809150951,1.045508911873912,-0.37980672184683595,-1.46154845650563,1.53742954786736,1.1769871748461893,1.3477788814617457,-0.0015842364978175204,-0.0006588864655532801,-0.00031676997321812236,6.76580964935568e-05,0.00041936144299163224,0.0002711819721498214,-0.000634339134133946,0.6180303692817688,-50.01187515258789,-6.749772071838379,16.88727569580078,1.5251566171646118,-1.1112167835235596,0.0064559997990727425,749,757,796,41.934,1,0
1739302986.6575015,-0.08147168060391649,1.045509866523986,-0.379805195804429,-1.461546739757516,1.537429692862894,1.1769871703765225,1.3477805493073287,-0.0015073521805188121,-1.6385511708326482e-05,-0.0002365808730443095,0.0009660612430727003,5.538646956395677e-05,0.001015511609141963,0.0010574532284267448,0.6418340802192688,-50.01187515258789,-6.801346778869629,16.83570098876953,1.5315653085708618,-1.1112167835235596,-0.0072769103571772575,749,756,795,42.043,1,0
1739302986.668516,-0.0814698091634053,1.0455135769909591,-0.3798056289483374,-1.461546992905404,1.5374286464733182,1.1769856595260075,1.3477789255349273,-0.0010079203632671813,0.0008210542477614022,-0.000113119547172159,0.0007839249270389764,0.0003851015622850988,-6.329381865646005e-05,-0.000563522129261829,0.6180303692817688,-50.06344985961914,-6.801346778869629,16.83570098876953,1.5315653085708618,-1.0983994007110596,0.0064559997990727425,748,756,796,41.934,0,0
1739302986.6785414,-0.0814677704048146,1.0455115790501062,-0.37980493822351974,-1.4615552459407586,1.5374339784503126,1.1769871748461893,1.3477750125245664,-0.0002881800939033593,0.0009047669238738219,0.0004397810216789963,-0.0006825028866021453,0.0021505977407785806,-0.00021624107853818297,-0.0015666643978033304,0.5902593731880188,-50.03567886352539,-6.773575782775879,16.91107940673828,1.5251566171646118,-1.1112167835235596,0.03941498324275017,750,755,796,42.151,1,0
1739302986.6885455,-0.08146973023773411,1.0455052929856945,-0.3798028475941347,-1.4615467517008538,1.5374279105267465,1.1769849018659542,1.3477802068248843,-0.0004884386872529194,-0.0010564023635298446,0.0008994618449831348,0.0003989081237509096,6.511477503325292e-05,-0.00042397529813673724,0.000838949614539664,0.6180303692817688,-49.98807144165039,-6.801346778869629,16.83570098876953,1.5379739999771118,-1.0919907093048096,-0.0008682189509272575,751,755,796,41.934,2,0
1739302986.698589,-0.08146974192908354,1.0455135641876039,-0.3798069484794049,-1.4615456614239006,1.537433625076465,1.1769871748461893,1.3477807271584186,0.0002950616934596759,0.0010302343969913704,-0.0004192779163443176,0.000523471216624031,-8.281794611283925e-05,-1.2708981312812423e-05,-0.001137281260713221,0.6180303692817688,-50.06344985961914,-6.749772071838379,16.85950469970703,1.5251566171646118,-1.1112167835235596,0.026597600430250168,750,755,796,42.151,2,0
1739302986.7095852,-0.0814686016071607,1.0455106253757174,-0.3798062107246537,-1.4615533385716883,1.5374318475318915,1.1769864171861109,1.3477844679247013,0.0003703201168413213,-0.0009388236529541431,-0.0003988760822106972,-0.0019877292961809224,0.0007094016297477968,-0.00015172670986851301,-4.7062706983957926e-05,0.6418340802192688,-50.03567886352539,-6.773575782775879,16.91107940673828,1.5315653085708618,-1.1048080921173096,-0.013685601763427258,751,754,794,41.934,0,0
1739302986.7204766,-0.08146784485481351,1.0455135804269904,-0.37980492653341,-1.4615475727130673,1.5374300482287742,1.1769879325062675,1.3477771559560807,-0.00036875574436524947,0.002133239393040042,-0.0003010938990822459,0.0007955980541247333,-2.21925931069071e-05,-3.484541777259382e-05,-0.000659917069759388,0.6180303692817688,-50.06344985961914,-6.773575782775879,16.85950469970703,1.5315653085708618,-1.1176254749298096,0.03300629183650017,747,755,798,41.934,1,0
1739302986.7305787,-0.08146721641548822,1.0455094303394743,-0.37980104655675967,-1.4615506035393373,1.537428641953168,1.1769871748461893,1.3477757295461574,-0.001208263499914079,1.5188480625010132e-05,0.0012978753266073343,-0.0009987170003337752,-0.0007669803399658509,0.00028730685511710086,-0.0011076596712658237,0.6180303692817688,-50.03567886352539,-6.825150489807129,16.88727569580078,1.5315653085708618,-1.1112167835235596,0.03300629183650017,749,754,795,41.934,2,0
1739302986.7414923,-0.08146699762007517,1.045507613805074,-0.3798028436965048,-1.461546632824677,1.5374289878901881,1.1769864171861109,1.3477788683616272,-0.00012242082654270243,-0.001462860869242586,0.0012041336747627908,0.0018231807071189643,0.00011193948388033687,0.0002343548101333824,-0.00024144131133203747,0.6180303692817688,-50.01187515258789,-6.801346778869629,16.83570098876953,1.5315653085708618,-1.1048080921173096,0.0064559997990727425,748,754,796,42.043,1,0
