IITGN-Robotics/Franka_IITGN_ROBOTICS/franka_ros/franka_iitgn/data01/s_b_008.csv
time,fr3_joint1_pos,fr3_joint2_pos,fr3_joint3_pos,fr3_joint4_pos,fr3_joint5_pos,fr3_joint6_pos,fr3_joint7_pos,fr3_joint1_vel,fr3_joint2_vel,fr3_joint3_vel,fr3_joint4_vel,fr3_joint5_vel,fr3_joint6_vel,fr3_joint7_vel,fr3_joint1_eff,fr3_joint2_eff,fr3_joint3_eff,fr3_joint4_eff,fr3_joint5_eff,fr3_joint6_eff,fr3_joint7_eff,flexpin1,flexpin2,flexpin3,Force,ContactMic,ContactMic_gt
1739303069.6083922,-0.0776802734057995,1.0458106343621374,-0.3885795855198716,-1.4548423686256982,1.530586120984997,1.1780394848084088,1.353585800129589,0.0009275583188321881,0.00028918045941467426,0.00023767769995462654,0.00023693571234009318,-6.409615552255759e-06,-0.0004781462946263241,0.0017829313076468865,0.04277399927377701,-50.59903335571289,-7.384537696838379,17.65296173095703,1.6698099374771118,-0.8484604358673096,0.026597600430250168,,,,,,,,,
1739303069.6184378,-0.07768277517493856,1.0458128972594076,-0.38857949726579544,-1.4548398791799209,1.530584507674997,1.178043436019575,1.353583297630842,0.00021148030340290393,0.0008302346973352485,-0.0006354370776515566,0.0009727124862997322,-0.00020660608094088487,0.001399902190345657,-0.0011231312878936409,0.06657771021127701,-50.62680435180664,-7.384537696838379,17.57758331298828,1.6698099374771118,-0.8686020374298096,0.03941498324275017,,,,,,,,,
1739303069.6294231,-0.07768175340445749,1.0458118503775333,-0.3885756572312536,-1.4548442429329842,1.5305819457319962,1.1780416553439204,1.3535807102774018,-0.001696094239391331,-0.0002264601016159886,-9.864490428326616e-05,-0.002222423548927553,0.00031956503211754924,0.00019875354099792368,0.0013311075775147073,0.06657771021127701,-50.62680435180664,-7.408341407775879,17.67676544189453,1.6762186288833618,-0.8548691272735596,0.04673920199275017,,,,,,,,,
1739303069.6394372,-0.07768175046410715,1.0458121580156772,-0.3885795767265431,-1.454842142276297,1.5305836899231835,1.178039995010527,1.3535815724667506,0.0005881624604318308,-0.0013860788078591652,-0.000687883705497019,0.0001523321183530983,0.0005813542787884288,0.0008272666111110135,-0.000231601824589271,0.06657771021127701,-50.62680435180664,-7.384537696838379,17.65296173095703,1.6624857187271118,-0.8484604358673096,0.03941498324275017,,,,,,,,,
1739303069.6494799,-0.07768177547198296,1.0458144716450604,-0.3885816565283612,-1.454846344752362,1.53058373997802,1.1780441984302699,1.353577530832377,-0.0007654390797163793,3.9679135338419275e-06,-0.000611711423081049,-0.0005937480035961236,-0.0001024271656804135,0.0010960007682639388,-0.0011737327845242678,0.06657771021127701,-50.67837905883789,-7.356766700744629,17.70056915283203,1.6762186288833618,-0.8612778186798096,0.07328949868679047,,,,,,,,,
1739303069.6604779,-0.0776854638491117,1.0458121904721163,-0.38857990229984835,-1.4548435227910483,1.5305844858707087,1.178039955810858,1.3535831171278745,-0.001064428985584237,-0.0007874265939961859,-0.0005259931937843357,0.0005054526495714295,0.0006844275445386187,-0.0012419103766795484,0.0015450179906470753,0.11815241724252701,-50.62680435180664,-7.408341407775879,17.65296173095703,1.6560770273208618,-0.8484604358673096,0.05314789339900017,,,,,,,,,
1739303069.6723738,-0.07768398386872823,1.0458136688488266,-0.3885777999524652,-1.4548434496861777,1.5305841244436325,1.1780405967911844,1.3535830902274115,0.0006552371212772865,0.0003124729698316966,0.0002766104415183791,0.00012644157759652435,5.207054977484748e-05,0.0008182832135668215,0.0005069621241091649,0.09434870630502701,-50.65060806274414,-7.408341407775879,17.65296173095703,1.6826273202896118,-0.8484604358673096,0.026597600430250168,,,,,,,,,
1739303069.6833873,-0.07768374707018486,1.0458161871201714,-0.38857564359289454,-1.4548463927201076,1.5305859960180304,1.178038727202264,1.3535800461791754,0.00046144487593735367,0.0009186814081604994,0.0008964669807725098,-0.00034481732741795,-0.000531083483555119,-8.547237496258213e-05,-2.849923807911206e-05,0.09434870630502701,-50.70218276977539,-7.436112403869629,17.67676544189453,1.6698099374771118,-0.8420517444610596,0.03941498324275017,,,,,,,,,
1739303069.694454,-0.07768183230804615,1.0458146225002694,-0.38857347136972714,-1.4548446063347427,1.5305846745404295,1.1780386005057724,1.3535820813393808,-0.0002726565038611851,0.00014584062678958215,0.00019343108069203952,0.0004375688487201309,9.12878257418444e-05,-0.0005925720159846581,-4.395059234366561e-05,0.06657771021127701,-50.65060806274414,-7.436112403869629,17.65296173095703,1.6698099374771118,-0.8420517444610596,0.07328949868679047,,,,,,,,,
1739303069.7064836,-0.077679571887605,1.0458072016134412,-0.38858166530613997,-1.4548414592365908,1.5305849874477915,1.178040237996588,1.3535764596745945,0.0014674285875950865,-0.0029325345299454635,-0.0014964509830356944,0.0019405950263538688,-0.0013460543561223002,0.0006664273077968316,-0.0016281786346987808,0.04277399927377701,-50.54745864868164,-7.356766700744629,17.60138702392578,1.6762186288833618,-0.8548691272735596,0.07969819009304047,,,,,,,,,
1739303069.718444,-0.07768176090420817,1.0458091993968266,-0.3885727811406263,-1.4548424602579104,1.5305853456853395,1.1780402424664849,1.353585473934025,-0.00010799787019568274,-0.0002928351712997977,0.001751110042327527,-0.0006453655751698477,0.00034789879856692376,4.979458805524327e-05,0.0027342830140975175,0.06657771021127701,-50.57522964477539,-7.436112403869629,17.65296173095703,1.6762186288833618,-0.8548691272735596,0.03300629183650017,,,,,,,,,
1739303069.7284448,-0.07768287779917461,1.0458091612895815,-0.3885775634424062,-1.4548425525408546,1.530586062456624,1.1780410001265715,1.353586212291194,-0.00014807428056899205,-0.0006664280046818308,0.0008107244428619933,0.00089233895486357,-0.0005927745008507985,-6.48119258463286e-06,0.0015479845530541282,0.04277399927377701,-50.57522964477539,-7.408341407775879,17.65296173095703,1.6698099374771118,-0.8612778186798096,0.026597600430250168,,,,,,,,,
1739303069.7393749,-0.07768459043331233,1.0458109019001018,-0.38857744956977747,-1.4548463566406933,1.5305828238795967,1.178041866023804,1.3535805126311187,0.0003826156563915429,0.00020524652580608953,0.0010010920174290511,-0.0016148650399953756,-0.0012760991754691728,0.00021493475164481902,-0.0007032001419067626,0.06657771021127701,-50.59903335571289,-7.408341407775879,17.70056915283203,1.6698099374771118,-0.8686020374298096,0.03941498324275017,,,,,,,,,
1739303069.7503757,-0.07768247249287871,1.0458146212282424,-0.3885764066486016,-1.4548474512354805,1.5305877040026081,1.1780426236838824,1.3535784226277725,-0.0003069133135357305,-6.442232062112098e-05,0.00011001994369215062,-0.0005253166296532893,0.001677496388073464,0.0005480400360499909,-0.001682657965691626,0.06657771021127701,-50.65060806274414,-7.384537696838379,17.67676544189453,1.6560770273208618,-0.8750107288360596,0.05314789339900017,,,,,,,,,
1739303069.7604659,-0.07768206496934088,1.0458143209975892,-0.3885754051568244,-1.4548446003997713,1.5305861180787592,1.1780379560772571,1.35357871908983,0.0002496603893140375,-0.000801119921978379,0.0003563445700711345,-0.00019786396988649756,0.0002665744832176795,-0.0004907932548614431,-0.0018649039467328978,0.06657771021127701,-50.65060806274414,-7.436112403869629,17.67676544189453,1.6698099374771118,-0.8356430530548096,0.08610688149929047,,,,,,,,,
1739303069.7714493,-0.07768198592964994,1.045813191005948,-0.38857708665327556,-1.4548410996989174,1.5305869886118915,1.17803710358895,1.3535820725075467,0.0003480089303680084,7.584112863371468e-05,-0.00022274112703096568,0.00012392622378936476,0.0006806749220483569,0.00026977543135429515,0.0002678909138268332,0.06657771021127701,-50.65060806274414,-7.408341407775879,17.60138702392578,1.6624857187271118,-0.8283188343048096,0.05314789339900017,,,,,,,,,
1739303069.7824414,-0.07768177552052169,1.0458166200992687,-0.3885795842594302,-1.4548492442075815,1.5305868277039054,1.1780363459289476,1.3535801638310114,0.0012457594321122552,-7.135251541538429e-05,-0.0012401444338841399,-0.0013594092061267405,0.0017326381279083119,0.0003822935873830282,-0.0005029854931352118,0.06657771021127701,-50.67837905883789,-7.384537696838379,17.70056915283203,1.6624857187271118,-0.8219101428985596,0.03941498324275017,,,,,,,,,
1739303069.7924712,-0.07768459032015332,1.0458117615136542,-0.38857253241393136,-1.4548475997645394,1.5305869692406355,1.1780394848064148,1.3535772179557435,-0.0005093032744026123,-0.0008714165339930685,0.0011071183191178583,-0.0004466599673975326,-0.00019033655731554478,0.0007522258590297031,-0.00010606071528715573,0.06657771021127701,-50.65060806274414,-7.436112403869629,17.67676544189453,1.6624857187271118,-0.8484604358673096,0.09983979165554047,,,,,,,,,
1739303069.803443,-0.07768174946970233,1.0458129099997282,-0.3885764465001891,-1.4548489065929857,1.5305868614746134,1.17803875406738,1.3535815027330054,0.0007951338164473626,-0.0001784831961207581,-0.0003778592805716855,-0.0014633182387839743,0.00032757932262779415,-0.0006783419285541333,4.88927402822831e-05,0.06657771021127701,-50.62680435180664,-7.384537696838379,17.72437286376953,1.6624857187271118,-0.8548691272735596,0.026597600430250168,,,,,,,,,
1739303069.8144047,-0.07768177547196613,1.045816616552877,-0.38857639341045624,-1.4548424959800113,1.530585190238811,1.178040242441287,1.3535799874295662,0.0017649160904489277,0.0016925899534922279,0.0006371295806000008,0.0003368830696078678,0.0012544342980690742,-0.0006867744900914791,0.0021239834060887593,0.06657771021127701,-50.67837905883789,-7.384537696838379,17.65296173095703,1.6762186288833618,-0.8548691272735596,0.07969819009304047,,,,,,,,,
1739303069.8244278,-0.07768376013316598,1.0458129099795177,-0.38857247824210234,-1.4548425644826815,1.5305869482183845,1.1780410001265713,1.3535772968317534,-0.0010709392148747728,0.0009247692986204228,0.0021376686326398716,0.0007957031343850266,0.0010036682912100306,0.00012972559925244088,-0.0004619088924711752,0.09434870630502701,-50.62680435180664,-7.436112403869629,17.62519073486328,1.6624857187271118,-0.8612778186798096,0.09343110024929047,,,,,,,,,
1739303069.8364205,-0.07768175013937913,1.045814465443868,-0.38858094464061926,-1.4548463985084372,1.530585360584712,1.1780387271463366,1.3535765059658007,-0.0005318386693060014,0.0010671791256710553,-0.0017101230811970513,-0.00017320331020226332,0.0013335606067999806,-0.00011648294907116622,-0.0009124900855485534,0.06657771021127701,-50.67837905883789,-7.332962989807129,17.67676544189453,1.6762186288833618,-0.8420517444610596,0.07328949868679047,,,,,,,,,
1739303069.8465023,-0.0776800395672457,1.0458145872031737,-0.38857536940285314,-1.4548481303903733,1.530580962211856,1.178039484309785,1.353585342630617,0.0005055254324433921,0.0008646743158699289,0.0002911177459281474,-0.0015754312061212112,-0.0010949327083949096,-0.00036546417112525386,0.0016143749719026595,0.04277399927377701,-50.65060806274414,-7.436112403869629,17.72437286376953,1.6762186288833618,-0.8484604358673096,0.03300629183650017,,,,,,,,,
1739303069.8584106,-0.0776838260268071,1.0458166087035066,-0.3885745842936477,-1.4548474601710264,1.5305849835629872,1.1780387271463337,1.3535759828543101,-0.0005667778796898746,0.0007782897780648494,0.00044454322227972104,-0.0007539689961604935,0.00015826694235057993,-0.000195439037171827,-0.0013162060107357726,0.09434870630502701,-50.67837905883789,-7.408341407775879,17.67676544189453,1.6762186288833618,-0.8420517444610596,0.07328949868679047,,,,,,,,,
1739303069.86848,-0.0776846029873712,1.0458100372189731,-0.3885743227656172,-1.4548417356069394,1.5305846068914382,1.1780370857103577,1.353578717528076,-0.00013422155655623097,-0.0010360235382187838,-0.000962530417964912,0.0018849836417645803,0.0010841122931404574,-0.0011232275615379545,-0.0011754319660134415,0.06657771021127701,-50.62680435180664,-7.408341407775879,17.60138702392578,1.6826273202896118,-0.8283188343048096,0.05314789339900017,,,,,,,,,
1739303069.8794267,-0.07768648690358039,1.0458121947547356,-0.3885763206766256,-1.4548474526651025,1.530583964915314,1.1780402423009164,1.3535736057569432,-0.0007930792704435423,-0.001129264601266142,-0.0016694384017043322,-4.2442367666177415e-05,0.0007021694106834377,0.0007887372077725573,-0.0024837251223542196,0.11815241724252701,-50.62680435180664,-7.356766700744629,17.67676544189453,1.6560770273208618,-0.8548691272735596,0.09343110024929047,,,,,,,,,
1739303069.8904684,-0.07768386446460952,1.0458166204734252,-0.3885742400350951,-1.4548474527015431,1.5305841179961663,1.1780402424664924,1.353580148732258,1.5154673339211994e-05,0.0010188823930537,-0.0004931952487754119,-0.0007923642927866966,5.545380633565581e-05,0.0007802003283012174,0.0005052679428741256,0.09434870630502701,-50.67837905883789,-7.384537696838379,17.67676544189453,1.6762186288833618,-0.8548691272735596,0.03941498324275017,,,,,,,,,
1739303069.9013965,-0.07768240524818214,1.045812241294258,-0.38857636690614894,-1.454845437165775,1.5305839168754571,1.1780394848064148,1.3535811647647662,0.0001399945474930086,-0.0008416203072843544,-0.00021753936017045048,-0.0004548614715482087,-0.0010320232584673582,-3.521793982424009e-05,-0.0006897213714899671,0.04277399927377701,-50.65060806274414,-7.384537696838379,17.65296173095703,1.6762186288833618,-0.8484604358673096,0.03941498324275017,,,,,,,,,
1739303069.911447,-0.07767832427188204,1.0458129098665359,-0.38857636691815506,-1.4548449635950618,1.530586626544365,1.1780402424664933,1.353576849014704,0.0015347142675576416,-0.00017692130612426344,-0.000619237551859716,-0.00030542403517122834,0.0009326892594231331,0.0004488920951850275,-0.0006764400972149648,0.018970288336277008,-50.62680435180664,-7.384537696838379,17.65296173095703,1.6624857187271118,-0.8548691272735596,0.06596527993679047,,,,,,,,,
1739303069.9224358,-0.07768151370118953,1.0458129090347315,-0.38857636724520406,-1.4548474615278735,1.530585306946892,1.1780402424664933,1.3535812048003384,0.00018119557771686912,0.00022744594460422606,-0.0012727053257586586,-0.0003382671406468101,-0.0002838954288849534,-0.0009384839817137312,0.001287044978084633,0.06657771021127701,-50.62680435180664,-7.384537696838379,17.67676544189453,1.6762186288833618,-0.8548691272735596,0.06596527993679047,,,,,,,,,
1739303069.9324546,-0.07768198592387962,1.045814623626756,-0.38857466371400146,-1.4548430477351402,1.5305846073935445,1.1780394848064148,1.353573722358284,0.00016110800585736757,0.0007202509534878262,-0.00015739369005537398,0.0006339731847233835,0.0006398243491646627,1.1054208703532056e-05,-0.002180963431868141,0.06657771021127701,-50.65060806274414,-7.408341407775879,17.65296173095703,1.6826273202896118,-0.8484604358673096,0.05955658480525017,,,,,,,,,
1739303069.943447,-0.07768483596119333,1.0458165321742916,-0.38857458395390304,-1.4548492526973464,1.53058760622243,1.1780387271463366,1.3535791219535163,0.00033396091143884454,0.002178161119198472,0.0005098853936322175,-1.0410851245838768e-05,-0.0003297288057700548,-0.0003821608153321478,-0.0005897299666416471,0.06657771021127701,-50.67837905883789,-7.408341407775879,17.70056915283203,1.6560770273208618,-0.8420517444610596,0.04673920199275017,,,,,,,,,
1739303069.9544468,-0.07768480831488744,1.0458146222080658,-0.38857045835218734,-1.4548456789600146,1.5305853650522352,1.1780402424664933,1.3535805475852285,-0.001185526782871994,0.00041862101073821456,0.0012228747503135672,0.0006872741184590085,0.0010549381495242138,0.00026445987180801584,-0.001109445735075953,0.09434870630502701,-50.65060806274414,-7.436112403869629,17.65296173095703,1.6762186288833618,-0.8548691272735596,0.04673920199275017,,,,,,,,,
1739303069.965441,-0.07768422346732405,1.0458146220642055,-0.38857506328202374,-1.4548492470433534,1.530586497745012,1.178037967996369,1.3535779637647563,0.00013947390680336155,-0.00022731339667828452,0.0002835665875958991,0.0005561311510295685,-0.00037595385809205406,-0.0002031258302251123,0.0003844277199255026,0.06657771021127701,-50.65060806274414,-7.408341407775879,17.70056915283203,1.6560770273208618,-0.8356430530548096,0.05955658480525017,,,,,,,,,
1739303069.9764407,-0.07768581054471381,1.0458126715972969,-0.38857420635468914,-1.4548436371722948,1.5305865058808328,1.1780394848064064,1.3535784788786742,-0.0016532119048007989,-0.000722072892584548,-0.00016932536165868088,0.001475338041357734,-0.00039971765002038643,0.0011215251763468266,0.0011893876797720686,0.11815241724252701,-50.62680435180664,-7.384537696838379,17.62519073486328,1.6624857187271118,-0.8484604358673096,0.05314789339900017,,,,,,,,,
1739303069.987386,-0.07768209115780128,1.0458163025846783,-0.38857174966094155,-1.4548473823742023,1.530586122546417,1.1780394848064148,1.3535741115924127,1.1427271772893657e-05,0.00016665298966148166,0.0011214562324194553,-0.0005846180014304309,0.00043360594523515045,0.0005777186821580868,-0.0006438732933214043,0.06657771021127701,-50.67837905883789,-7.408341407775879,17.67676544189453,1.6698099374771118,-0.8484604358673096,0.09343110024929047,,,,,,,,,
1739303069.998414,-0.07768174949168088,1.0458118765398594,-0.38857458814972057,-1.4548496044602155,1.5305868141293602,1.1780394848064148,1.353578261794649,0.0008091290960626228,-0.0009292918866093834,0.0002675530587714844,-0.000639869385751405,-0.0003391546163001325,0.0013054878913244755,0.0014173770867409495,0.06657771021127701,-50.62680435180664,-7.408341407775879,17.67676544189453,1.6624857187271118,-0.8484604358673096,0.06596527993679047,,,,,,,,,
1739303070.0084352,-0.07768277524578038,1.0458107554008471,-0.38857636691822145,-1.4548474616731804,1.5305877462690411,1.1780395519544613,1.3535781931847881,-0.000516930126142749,0.0005955605594788207,-0.00013595717717941196,-0.0009619258618003695,0.00199591066083009,-0.001049772750279844,0.0012233374930045928,0.06657771021127701,-50.62680435180664,-7.384537696838379,17.67676544189453,1.6560770273208618,-0.8612778186798096,0.09343110024929047,,,,,,,,,
1739303070.019424,-0.07768175209376364,1.0458116184882824,-0.3885763669181553,-1.454845678854893,1.5305829054570848,1.1780394847982398,1.3535831307059203,0.0011062691675524303,0.00024015225121151078,3.2050684984354224e-05,0.0006365846188474794,-0.0009395803525397202,-0.000488787178481965,0.0033843629934198786,0.06657771021127701,-50.59903335571289,-7.384537696838379,17.65296173095703,1.6560770273208618,-0.8484604358673096,0.012864691205322742,,,,,,,,,
1739303070.029467,-0.07768587797192608,1.0458121918286654,-0.3885742147734917,-1.4548474712949235,1.5305850363380797,1.1780410001265713,1.3535768504483905,-0.0005307836789316414,0.00017130166963772386,0.0006158126769750347,-0.00012028112950930242,0.0011584078925584607,0.0004593017848772763,-0.0008537371815675554,0.09434870630502701,-50.62680435180664,-7.384537696838379,17.67676544189453,1.6698099374771118,-0.8612778186798096,0.06596527993679047,,,,,,,,,
1739303070.040401,-0.07768408954173905,1.045814622496217,-0.38857613952532444,-1.4548475635711935,1.530582699735003,1.1780354687590888,1.3535744672928702,-0.0013245924905168583,0.001725544740083858,-0.0005087484917394757,0.0002863335535416867,-0.00086943799106379,-0.0010335397520413725,-0.001384433386343448,0.09434870630502701,-50.65060806274414,-7.384537696838379,17.67676544189453,1.6698099374771118,-0.8420517444610596,0.08610688149929047,,,,,,,,,
1739303070.0504477,-0.07768387960378575,1.045818659844796,-0.38857844378797474,-1.4548456788566202,1.5305835647890222,1.1780385661831432,1.3535791214909239,0.00038167785778733256,0.0003943099880265047,-0.0005461215837095749,3.281410498683914e-05,-0.0008860125465180233,-0.0005013289767584102,0.00011162668856758184,0.06657771021127701,-50.67837905883789,-7.356766700744629,17.65296173095703,1.6624857187271118,-0.8420517444610596,0.04673920199275017,,,,,,,,,
1739303070.0614083,-0.07768374823653065,1.0458182535368468,-0.38857253977253514,-1.4548457527558092,1.530587570445766,1.1780379694853496,1.353573601395627,-0.0005115079278794617,0.0010552644518155479,0.0007653993514766485,0.0005132789654980208,-8.230615210600572e-05,-0.0005369605657783099,-0.002290527127894039,0.09434870630502701,-50.70218276977539,-7.436112403869629,17.65296173095703,1.6560770273208618,-0.8356430530548096,0.09343110024929047,,,,,,,,,
1739303070.0723796,-0.07768374710583213,1.0458100489924809,-0.3885763669183546,-1.4548519995834195,1.530583796709551,1.1780379694862582,1.3535802211655332,-2.9759673008739637e-05,-0.0005737380152836384,-0.0012230347089025359,-0.0007396609237280672,-0.0013474763986513986,0.0001528548908659094,0.00010931339470949115,0.09434870630502701,-50.62680435180664,-7.384537696838379,17.70056915283203,1.6496683359146118,-0.8356430530548096,0.07328949868679047,,,,,,,,,
1739303070.0824811,-0.07768477600136739,1.0458158697550997,-0.3885745842411362,-1.4548463677596637,1.5305827434072767,1.178037641017254,1.353572844435406,-0.0004367344119226219,0.0007727467713788388,-0.00044727373390115365,0.0004677198093357347,-0.0005965858996731781,-0.0008682023796922926,-0.00205939633839064,0.09434870630502701,-50.67837905883789,-7.408341407775879,17.65296173095703,1.6698099374771118,-0.8420517444610596,0.09983979165554047,,,,,,,,,
1739303070.0934374,-0.07768269625457323,1.0458108061098002,-0.3885763669181553,-1.454845755385609,1.5305844864680427,1.178038727144293,1.353575224952939,0.0005593359592752051,-0.0016949553163240509,-0.001121657925917027,0.0008921843895931109,-0.00013460987385844242,-0.00016925016566808057,-0.0003677421511413732,0.06657771021127701,-50.59903335571289,-7.384537696838379,17.65296173095703,1.6826273202896118,-0.8420517444610596,0.07969819009304047,,,,,,,,,
1739303070.1034493,-0.07768174918101173,1.0458146225348155,-0.38857810348603294,-1.4548475596478487,1.530585324825556,1.1780387271463366,1.3535807450482347,0.0004032552496293458,0.00043873566364598137,-0.0008202683744171387,0.00029350929962343426,0.0014538779376619673,-0.00024506490369850575,-0.00026336965666082923,0.06657771021127701,-50.65060806274414,-7.332962989807129,17.67676544189453,1.6762186288833618,-0.8420517444610596,0.03300629183650017,,,,,,,,,
1739303070.1134627,-0.0776821587412964,1.0458166204774628,-0.3885745842051339,-1.4548474701418204,1.5305844867128382,1.1780394445794118,1.3535783580166443,0.0005472422762175051,0.00021466014701113686,0.0006136478100766834,0.00016927003419597213,0.0007175200567030361,-0.0002044844433092517,0.0005343572201441209,0.04277399927377701,-50.67837905883789,-7.408341407775879,17.67676544189453,1.6826273202896118,-0.8484604358673096,0.05314789339900017,,,,,,,,,
1739303070.1234875,-0.07768382638750612,1.0458099579646443,-0.38857843407120773,-1.4548496043558294,1.5305820528637681,1.1780394848057336,1.3535798167180662,-0.0008334315198791324,-0.0006382430219788139,-0.0009859752175352067,-0.0014055035905837297,-0.0003574654804771342,0.00026587081729497955,0.0003696704492599915,0.09434870630502701,-50.59903335571289,-7.356766700744629,17.67676544189453,1.6762186288833618,-0.8484604358673096,0.07969819009304047,,,,,,,,,
1739303070.1344438,-0.07768375587526939,1.0458129364651072,-0.38857458435008113,-1.4548463797860474,1.5305845875106443,1.1780387271463366,1.3535831653757853,-0.0005296142121775146,0.0011128398660748516,0.0007506331670030574,9.666565203110555e-05,0.0008875169428934546,1.9864596714472456e-05,0.002054707651421784,0.09434870630502701,-50.62680435180664,-7.408341407775879,17.62519073486328,1.6826273202896118,-0.8420517444610596,0.012864691205322742,,,,,,,,,
1739303070.1453815,-0.07768617868428612,1.045818562550266,-0.3885743480301372,-1.454848150732307,1.530585891066952,1.1780387271463366,1.3535770414438382,-0.0006070262727339978,0.0012454001132732222,0.00028998415280144215,-0.0004782881732611245,-0.0012849001806740882,-0.0006932522043655712,-0.0008075968162930391,0.11815241724252701,-50.70218276977539,-7.408341407775879,17.67676544189453,1.6954447031021118,-0.8420517444610596,0.07328949868679047,,,,,,,,,
1739303070.1564653,-0.0776807469451024,1.045810048996817,-0.38857386393939625,-1.4548438286649694,1.5305869707806508,1.1780391429284096,1.35357998805211,0.0006806463227930087,-0.0012503700000513916,0.0007972020867201291,0.001167644161855124,0.0005107170658953917,-4.4081701108502594e-05,0.0007876655940855435,0.04277399927377701,-50.62680435180664,-7.408341407775879,17.62519073486328,1.6624857187271118,-0.8548691272735596,0.03941498324275017,,,,,,,,,
1739303070.1673765,-0.07768659995389139,1.0458146106484532,-0.3885745842397808,-1.454852342280336,1.5305853649809986,1.1780437228602334,1.353577264245522,-0.0017805778981387008,-0.00019922631809458853,0.0003121652826242486,-0.0011867975680199525,0.0008108766652264801,0.001591124723414516,-0.0018039987064341996,0.09434870630502701,-50.65060806274414,-7.408341407775879,17.70056915283203,1.6762186288833618,-0.8484604358673096,0.026597600430250168,,,,,,,,,
1739303070.177442,-0.07768661461586156,1.0458108322749158,-0.38857458424113617,-1.4548475391635838,1.530586122714684,1.178040224659597,1.3535728441482864,-0.0002247234926456513,-0.0012400171034389986,0.00032841456664716654,0.0006541349569252553,-0.0004210701040125447,0.000482433388269486,-0.0006074596776908738,0.09434870630502701,-50.59903335571289,-7.408341407775879,17.67676544189453,1.6698099374771118,-0.8548691272735596,0.09983979165554047,,,,,,,,,
1739303070.1884427,-0.07768216767082502,1.045810843721076,-0.38857637574847304,-1.454845679205259,1.530582235369371,1.1780402288918483,1.3535785745911546,0.0008339212861069969,-0.0020047661840882046,-0.0013363113265272694,0.00026440014922154753,-0.00047475706639342675,0.0001818959633004468,3.9672104047862485e-05,0.04277399927377701,-50.62680435180664,-7.384537696838379,17.65296173095703,1.6624857187271118,-0.8548691272735596,0.03941498324275017,,,,,,,,,
1739303070.1994698,-0.07768075412614912,1.045815893327288,-0.3885738769163823,-1.4548531045179953,1.5305853516187737,1.1780402424664165,1.3535740742759983,0.0006722218481831136,-0.0002731245494170396,-0.00030997807378771306,-0.002631579769610755,-0.0013902028594450478,0.0008452049074004986,-0.001095855783724756,0.04277399927377701,-50.67837905883789,-7.408341407775879,17.72437286376953,1.6762186288833618,-0.8548691272735596,0.09343110024929047,,,,,,,,,
1739303070.2104685,-0.07768388892042932,1.045812880569172,-0.38857426928115807,-1.4548457073392855,1.530584982949371,1.1780376007902509,1.35358074699431,0.00025747586632105044,0.0010986622825843852,0.0005644743759185204,5.065913472715431e-06,-0.0010798304697852094,-0.0006993085631676929,0.000358608026647371,0.06657771021127701,-50.62680435180664,-7.408341407775879,17.65296173095703,1.6698099374771118,-0.8420517444610596,0.03300629183650017,,,,,,,,,
1739303070.2204733,-0.07768375004090343,1.0458143841178646,-0.38857773706516985,-1.4548464823614784,1.530585346507332,1.1780406201985176,1.3535800004701193,5.553685024311714e-05,-0.0002630490831050927,2.2154799091273706e-05,-0.0005608166816910198,0.0008753738158809979,-0.0002897551925188206,0.0006420043012999369,0.09434870630502701,-50.65060806274414,-7.356766700744629,17.65296173095703,1.6762186288833618,-0.8612778186798096,0.03941498324275017,,,,,,,,,
1739303070.231368,-0.07768374725018794,1.0458166888296163,-0.3885763669141493,-1.4548465972124733,1.5305811739728088,1.1780394848042701,1.3535791258516483,-0.0003257710793228434,0.0006384216975224331,-0.0008211526592244976,0.0010132987787189048,-0.001111317722529826,1.838318947732698e-06,0.0010582690999136003,0.09434870630502701,-50.65060806274414,-7.384537696838379,17.65296173095703,1.6826273202896118,-0.8484604358673096,0.04673920199275017,,,,,,,,,
1739303070.242398,-0.07768217043329337,1.0458161873749914,-0.38857458424113617,-1.45485029313602,1.53058367189531,1.178036226419167,1.3535806229500877,-0.00040693843583591784,0.0006723057890574579,-0.00015357692164179668,-0.0013700199036927809,-0.0007393757284781263,-0.00023548096627012372,0.0007079252610604182,0.04277399927377701,-50.70218276977539,-7.408341407775879,17.67676544189453,1.6624857187271118,-0.8484604358673096,0.03300629183650017,,,,,,,,,
1739303070.252399,-0.07768176122987681,1.0458100224535254,-0.38857226824028096,-1.454843712807869,1.5305821612976465,1.1780379694126832,1.3535799875489725,-0.0014307486899426223,-0.0019428633524601387,0.0011516452820877878,0.0014435670544379819,-0.0014666230231960798,-6.755919729250671e-05,-0.00015285969646126389,0.06657771021127701,-50.62680435180664,-7.436112403869629,17.62519073486328,1.6624857187271118,-0.8356430530548096,0.03941498324275017,,,,,,,,,
1739303070.2624273,-0.07768377341301835,1.0458143840691296,-0.38857844670401054,-1.4548486890140229,1.5305810024123143,1.1780376074432293,1.353578363830848,0.00014837793179702855,-2.06858975548105e-05,-0.0005656560826668023,-0.001065006793166394,-0.0023626221963539253,-8.893328848050166e-05,8.18572830616589e-05,0.09434870630502701,-50.65060806274414,-7.356766700744629,17.65296173095703,1.6762186288833618,-0.8356430530548096,0.05314789339900017,,,,,,,,,
1739303070.2724378,-0.07768184118574759,1.045810873806277,-0.3885724257142807,-1.454846381049679,1.5305853456121683,1.1780379694801268,1.3535739720509397,-0.0006389594794396927,-0.0008979512418509205,0.0006439076155810877,0.0013447875841671405,0.0001426609665499511,0.0009836860519997419,-0.0005980188566760163,0.06657771021127701,-50.59903335571289,-7.436112403869629,17.62519073486328,1.6762186288833618,-0.8356430530548096,0.09343110024929047,,,,,,,,,
1739303070.2834284,-0.07768217140814328,1.045812441011846,-0.38857627943215534,-1.4548456792205253,1.5305845071230864,1.1780409941670154,1.3535808497059447,0.0005915915685812327,0.00029394490803355045,-0.0005314460239787991,0.00025683727164605986,-0.00026819741268496137,-0.0015235132081230095,9.851503422410844e-05,0.04277399927377701,-50.65060806274414,-7.384537696838379,17.65296173095703,1.6698099374771118,-0.8612778186798096,0.03300629183650017,,,,,,,,,
1739303070.2934766,-0.0776783543639826,1.0458129100879505,-0.3885736395046722,-1.4548483798849625,1.5305860018407726,1.1780387942942823,1.3535802074353105,0.0015064390472071937,-0.00010404645327080961,0.0008033652530087261,-0.0003735781722642202,0.001104301354393783,-0.000664240210235167,0.001214749529836827,0.018970288336277008,-50.62680435180664,-7.408341407775879,17.67676544189453,1.6698099374771118,-0.8548691272735596,0.026597600430250168,,,,,,,,,
1739303070.3044615,-0.07768175338725263,1.045810910730492,-0.38857458423580316,-1.4548492443190928,1.5305817780321294,1.1780402424583183,1.3535847628974647,0.0007189945264567633,-0.00039925717465866847,0.0004839252848123581,-0.0002403845551658154,-0.0006829014111384267,-0.0006305381872335164,0.0027419234126359253,0.06657771021127701,-50.59903335571289,-7.408341407775879,17.70056915283203,1.6698099374771118,-0.8548691272735596,-0.0008682189509272575,,,,,,,,,
1739303070.315391,-0.07768174721633073,1.0458129071087705,-0.38857072177426155,-1.454847793194393,1.530584065050406,1.1780402424664933,1.3535749229749605,0.0005653829304883841,0.001071634476737767,0.0011153799638996347,0.0007517778857068646,-0.0005451242207271023,-0.0006740969185391393,-0.0004893426045754587,0.06657771021127701,-50.62680435180664,-7.459916114807129,17.67676544189453,1.6826273202896118,-0.8548691272735596,0.07328949868679047,,,,,,,,,
1739303070.3254397,-0.07768028315043203,1.0458126715972504,-0.38857708260995766,-1.4548523403492484,1.530586988602733,1.1780402290574923,1.353579987370211,-8.71922216521569e-05,0.0002855668888017807,-0.0004266848631635015,-0.0011312397352860738,0.0011099038409230204,0.0007725708072166921,0.0001411377985898486,0.04277399927377701,-50.62680435180664,-7.384537696838379,17.70056915283203,1.6624857187271118,-0.8548691272735596,0.03941498324275017,,,,,,,,,
1739303070.3364236,-0.0776817852166815,1.0458146254787033,-0.3885756232949742,-1.4548459123798334,1.5305853107012488,1.1780386064652517,1.3535813907849437,0.00040378943789749137,0.0006474755721993852,0.00024714024597790403,-1.2514843059814162e-05,-0.00030573155269536913,0.00025716222410145583,0.0003061480079902631,0.06657771021127701,-50.65060806274414,-7.384537696838379,17.65296173095703,1.6762186288833618,-0.8420517444610596,0.026597600430250168,,,,,,,,,
1739303070.3464274,-0.07768174916558322,1.045816620150464,-0.38857640190281234,-1.4548478057607899,1.5305832805771062,1.1780362264171234,1.353579791947601,0.0006766953517641616,0.0010367152577945148,-0.0012907874481388707,-0.00020833510845649116,-0.0003530368393946098,-0.00042429188438026773,-0.00012736879003896919,0.06657771021127701,-50.67837905883789,-7.384537696838379,17.67676544189453,1.6560770273208618,-0.8484604358673096,0.06596527993679047,,,,,,,,,
1739303070.3574443,-0.07768253934895401,1.04581091207502,-0.3885738406145075,-1.4548495618451687,1.5305852381728717,1.1780387209660563,1.3535759871850197,0.00013791877260652168,-0.0016126202809166753,0.00018018637728915338,0.00040685356577770674,-0.0005695891429800369,-4.5522867408974714e-05,-0.00011051638749716083,0.06657771021127701,-50.59903335571289,-7.408341407775879,17.67676544189453,1.6762186288833618,-0.8420517444610596,0.07328949868679047,,,,,,,,,
1739303070.36844,-0.07768685133490347,1.0458166194963165,-0.38857844670381303,-1.454849562026089,1.5305869463976796,1.178040242300915,1.353576506495743,-0.0014084063598294272,0.0005857543515454598,0.00018355069028639748,-0.0007599377549080291,0.0005795724408723074,0.0006005739678998901,-0.0010033231081602219,0.09434870630502701,-50.67837905883789,-7.356766700744629,17.70056915283203,1.6624857187271118,-0.8548691272735596,0.03300629183650017,,,,,,,,,
1739303070.3793774,-0.0776854596684845,1.0458139071718546,-0.38857458127694794,-1.4548446038277558,1.5305877040583948,1.178038726980793,1.3535799854959487,-0.00023360429742930189,-0.0008446748240189196,-0.00023553485465116725,0.0007138813617556301,0.0012108039452312573,-0.00012444861090954478,1.1482913018424044e-05,0.11815241724252701,-50.65060806274414,-7.408341407775879,17.62519073486328,1.6560770273208618,-0.8420517444610596,0.03941498324275017,,,,,,,,,
1739303070.3893938,-0.0776824607527675,1.045810910427667,-0.3885707130256558,-1.4548484678740632,1.530585624594414,1.1780379560772543,1.3535799721198718,0.0001544974732277383,7.176130415569178e-05,0.0020314684260886963,-0.0009057103197354362,-0.0007759713578655773,-0.0005366680837201447,0.0007834375066117277,0.06657771021127701,-50.59903335571289,-7.459916114807129,17.67676544189453,1.6698099374771118,-0.8356430530548096,0.026597600430250168,,,,,,,,,
1739303070.3994596,-0.07768144356127074,1.0458121859297957,-0.3885767300082,-1.4548519993900875,1.5305832072651944,1.1780394848061877,1.3535788286179922,0.00027944921954728115,-0.0005287039981820806,-0.00036560136931817957,-0.0015490497472763509,0.0013267975699467263,-0.00042928125308103307,0.0007470055566751156,0.06657771021127701,-50.62680435180664,-7.408341407775879,17.70056915283203,1.6624857187271118,-0.8484604358673096,0.05314789339900017,,,,,,,,,
1739303070.4104838,-0.07768388002929827,1.045812908994306,-0.3885738755842479,-1.4548463686150297,1.53058756746397,1.1780387271463366,1.353572073049977,-0.00015745152865503418,0.0009207984299452733,0.0013061968918432814,0.0013661046341055573,-0.0005876701167707829,-0.00012276685704045454,-0.002221763176825914,0.06657771021127701,-50.62680435180664,-7.408341407775879,17.65296173095703,1.6560770273208618,-0.8420517444610596,0.10624848306179047,,,,,,,,,
1739303070.4214063,-0.07767932636758672,1.0458165410045974,-0.3885742439585972,-1.4548478016665622,1.5305881399015187,1.1780394311704108,1.3535815550360482,0.0007415542066272028,0.0017259603323004221,-0.0001427937914057426,0.0005209634807726214,0.0025758075048516655,-0.0006425383138401878,0.0008349884969465159,0.04277399927377701,-50.67837905883789,-7.384537696838379,17.67676544189453,1.6496683359146118,-0.8484604358673096,0.026597600430250168,,,,,,,,,
1739303070.4324465,-0.07768573535073885,1.0458106847744613,-0.3885745840971768,-1.4548521110760664,1.5305833676788478,1.1780376059524333,1.3535751745640818,-0.0012838423904778869,-0.0010076665247030741,0.0006714405713130333,-0.0011577042034476555,0.0011074321772120363,-0.0016077157739222837,-0.0015527983046310938,0.11815241724252701,-50.62680435180664,-7.408341407775879,17.70056915283203,1.6624857187271118,-0.8356430530548096,0.07969819009304047,,,,,,,,,
1739303070.4424865,-0.07768460201325825,1.0458168587381254,-0.3885745842411354,-1.454854037409266,1.5305860645333929,1.178037969484206,1.3535717440602142,7.967984062024258e-05,0.0010252314155191852,0.00047527628270005944,-0.00037821387852088215,-0.0008478137866976563,0.00011252675112017035,-0.0025206568985458614,0.06657771021127701,-50.67837905883789,-7.408341407775879,17.72437286376953,1.6698099374771118,-0.8356430530548096,0.07328949868679047,,,,,,,,,
1739303070.4544208,-0.0776886427882433,1.045812909980885,-0.38857636688215297,-1.4548505570887282,1.5305844668480042,1.1780387271463366,1.3535736013717001,-0.0002603556842234655,-0.0002676783985709739,-0.00028974256281745703,-0.0006160422635888604,-0.00043457637954128923,-0.0004309836353693751,-0.0016663123131565806,0.11815241724252701,-50.62680435180664,-7.384537696838379,17.67676544189453,1.6826273202896118,-0.8420517444610596,0.09343110024929047,,,,,,,,,
1739303070.4644554,-0.07768580163537364,1.0458129100158784,-0.38857386685958145,-1.45484640290997,1.530581015902273,1.178037929259255,1.3535807057485427,-0.0008042763393540117,-0.0004459352131332639,-3.846723121618404e-05,0.0015218341384397257,0.00021875046755025137,0.00045419065774932163,0.001126766107472185,0.11815241724252701,-50.62680435180664,-7.408341407775879,17.65296173095703,1.6762186288833618,-0.8356430530548096,0.03300629183650017,,,,,,,,,
1739303070.4753637,-0.0776803786370198,1.045814516572797,-0.3885776292000488,-1.4548487697447494,1.5305855997390945,1.1780402424110852,1.3535752243066932,0.0006419977423155835,0.0013156350102049594,-8.281276037884347e-05,-0.0002733476214126465,0.0021420142134668477,4.1391654611590734e-05,-0.0005711323021480667,0.04277399927377701,-50.65060806274414,-7.356766700744629,17.65296173095703,1.6698099374771118,-0.8548691272735596,0.07969819009304047,,,,,,,,,
1739303070.4853852,-0.07768186414204648,1.045812918408337,-0.38857458422729163,-1.4548445216695716,1.530581615791597,1.1780402424664924,1.3535818602816625,-0.00032167383219570647,0.0004850362530636626,-0.0009996157950698235,0.0014271315454656495,-0.00046238236953780444,0.00041786784865628006,0.003160115651652892,0.06657771021127701,-50.62680435180664,-7.408341407775879,17.62519073486328,1.6698099374771118,-0.8548691272735596,0.026597600430250168,,,,,,,,,
1739303070.497405,-0.07768311503164262,1.0458129100159261,-0.38857644639101485,-1.4548502433307422,1.5305855998252447,1.178036622036218,1.3535776628612453,0.0008739772437256592,-2.0950007602120506e-05,-0.0009773406053047275,-0.0005908809165374031,0.0006838458271006566,-0.00013095682410645603,0.00019327837945249502,0.04277399927377701,-50.62680435180664,-7.384537696838379,17.70056915283203,1.6560770273208618,-0.8548691272735596,0.05955658480525017,,,,,,,,,
1739303070.5084836,-0.07768175795179011,1.0458129100158788,-0.38857250445143016,-1.4548487524560614,1.5305877457529338,1.178040242441287,1.3535751856533522,0.0005971305008432963,0.0008493509416121935,0.0009504204002025677,0.0001775257399065696,0.0010943942627995602,0.0005678232655332983,-0.002721622483611272,0.06657771021127701,-50.62680435180664,-7.436112403869629,17.65296173095703,1.6560770273208618,-0.8548691272735596,0.07969819009304047,,,,,,,,,
1739303070.5195646,-0.07768178424100666,1.0458162747505368,-0.3885784466720085,-1.4548487684282834,1.5305842787599782,1.1780379674997392,1.353575220592065,0.0009339515313604587,0.00036842736435075654,-0.0011805457995387658,0.0011431465982973982,0.0008843495595022057,-0.0007715859629739243,-0.0014948118598295075,0.06657771021127701,-50.67837905883789,-7.356766700744629,17.65296173095703,1.6762186288833618,-0.8356430530548096,0.07969819009304047,,,,,,,,,
1739303070.5304463,-0.07768109228000628,1.0458166204755113,-0.38857457549258045,-1.4548486730028,1.5305828628314162,1.1780379694862468,1.3535744672928347,0.0003487029458811473,0.0012833037740283106,0.0005267405609095037,0.0004734554832371778,0.001250421840017445,0.00011072272137123385,-0.0010181674541926001,0.04277399927377701,-50.67837905883789,-7.408341407775879,17.65296173095703,1.6698099374771118,-0.8356430530548096,0.08610688149929047,,,,,,,,,
1739303070.5413854,-0.07768459162477662,1.0458183673383188,-0.38857245834208987,-1.4548523096367882,1.5305828086865125,1.1780394848064148,1.3535799859346058,-3.0473479429748876e-06,0.002084020474386695,0.00016902230210677434,-0.0011974023376806068,-0.000867322043499566,0.0004227712720985031,0.0006209355587930031,0.06657771021127701,-50.70218276977539,-7.408341407775879,17.70056915283203,1.6698099374771118,-0.8484604358673096,0.03941498324275017,,,,,,,,,
1739303070.5514367,-0.07768015111038028,1.0458146225383544,-0.3885742426154426,-1.4548487754602693,1.5305873790943016,1.1780379694862582,1.3535801443715088,0.000702297053877747,0.00018527605682304476,-0.000262814514948631,-0.0010327701179074131,0.0013721591938303944,-0.00025412230250121,0.0019387617979589285,0.04277399927377701,-50.65060806274414,-7.408341407775879,17.65296173095703,1.6560770273208618,-0.8356430530548096,0.03941498324275017,,,,,,,,,
1739303070.561466,-0.07768483098057927,1.045808687162003,-0.38857565536704264,-1.4548531314449957,1.5305826381339585,1.17803872218004,1.35358145038139,-8.457256679724807e-05,-0.0015351358663929634,-0.0007058510558900998,-0.00030140160624427025,-0.0014938306264686428,-0.0001570234702424738,0.0008785904387178995,0.06657771021127701,-50.59903335571289,-7.384537696838379,17.72437286376953,1.6624857187271118,-0.8420517444610596,0.026597600430250168,,,,,,,,,
1739303070.5725098,-0.07768291682577512,1.0458137221220514,-0.3885717369603142,-1.454847805908687,1.5305808997775279,1.1780402230979081,1.3535807450479393,0.0004593016865229515,-0.0006988993357127527,0.0008991332866959374,0.0006285462189899811,-0.0022595004151887855,-0.00014733536982598002,0.001043035963058045,0.04277399927377701,-50.67837905883789,-7.408341407775879,17.67676544189453,1.6762186288833618,-0.8548691272735596,0.03300629183650017,,,,,,,,,
1739303070.5834277,-0.07768048553491726,1.0458155673642473,-0.3885693460986498,-1.4548457541732527,1.5305868137178869,1.1780402424663838,1.353579776520179,0.0016696821127673677,0.0008399107455310553,0.002972421331198661,0.001778004071035855,0.0009552569805209181,0.00018595795766618008,-4.9803478604992834e-05,0.018970288336277008,-50.65060806274414,-7.436112403869629,17.62519073486328,1.6624857187271118,-0.8548691272735596,0.05314789339900017,,,,,,,,,
1739303070.5944395,-0.0776810639280962,1.0458105911001263,-0.38857772930862733,-1.4548505524648396,1.5305856333127512,1.1780402424664933,1.3535806540253745,9.355638061598625e-05,-0.0021864071092505544,-0.0001278143040814477,-0.0016560594124544325,-8.835951165669248e-05,0.0003086313013334629,-0.0002420278703385196,0.04277399927377701,-50.59903335571289,-7.356766700744629,17.67676544189453,1.6698099374771118,-0.8548691272735596,0.04673920199275017,,,,,,,,,
1739303070.6054199,-0.0776800400060761,1.0458166170961467,-0.3885767309854448,-1.4548490082116825,1.530581743959396,1.1780402417491391,1.353581502716964,0.0008231414229709546,0.0013892279485242427,0.00029074503980992567,-0.0007626822783931892,-0.0013589605954222896,0.00023012326693485686,0.0021636404340400033,0.04277399927377701,-50.67837905883789,-7.408341407775879,17.65296173095703,1.6762186288833618,-0.8548691272735596,0.026597600430250168,,,,,,,,,
1739303070.616376,-0.07768459421705756,1.0458146233723822,-0.38857458392923405,-1.454850560974737,1.5305840721852755,1.1780379694862542,1.3535739604225379,-0.00043496846354808364,0.00024484224672090087,0.00047066302240979165,-0.0002461257129245577,-0.0008162746553960223,-6.4411819273034e-05,-0.001331100057654234,0.06657771021127701,-50.65060806274414,-7.408341407775879,17.67676544189453,1.6560770273208618,-0.8356430530548096,0.09343110024929047,,,,,,,,,
1739303070.6264799,-0.07768494415898984,1.0458121947601555,-0.3885737968711321,-1.4548523436504586,1.5305842786977601,1.1780374867622214,1.353580432363042,-0.0005671454422638264,-0.0004997084719964911,0.0007610411223098911,9.524717151067574e-05,-0.00020892431375224736,-0.0009470443969451746,0.00021341855262153734,0.06657771021127701,-50.62680435180664,-7.408341407775879,17.70056915283203,1.6762186288833618,-0.8356430530548096,0.05955658480525017,,,,,,,,,
1739303070.637391,-0.07768296051679255,1.045812671593262,-0.3885761307027109,-1.4548487781914419,1.530582503543259,1.1780386049727134,1.3535752250227266,0.00043321337262630156,-0.00043705525903573345,-0.0007620769290322783,0.0005383341614156763,-0.0015477309784231593,0.0005969278944544421,-0.0005086623399397594,0.11815241724252701,-50.62680435180664,-7.384537696838379,17.65296173095703,1.6624857187271118,-0.8420517444610596,0.07969819009304047,,,,,,,,,
1739303070.6474175,-0.0776866008845651,1.0458185714127355,-0.38857457257239514,-1.454848549035206,1.5305860819150976,1.1780387271442676,1.3535776056862516,-0.0007783294549285265,0.0012204856614918312,0.0004029356646261561,-0.0004532672018594346,7.86378860055827e-05,-0.0001912993595846623,-0.0005121192985240532,0.09434870630502701,-50.70218276977539,-7.408341407775879,17.65296173095703,1.6698099374771118,-0.8420517444610596,0.05955658480525017,,,,,,,,,
1739303070.6574416,-0.07768553859585078,1.0458143841220684,-0.3885696699190871,-1.4548485487042766,1.5305856216146598,1.1780394267007437,1.3535752249529294,-0.0004956226844534256,-7.832372462912686e-05,0.0010284406182224748,0.0005474679316214918,-6.418991387963314e-06,7.789999868175233e-05,-0.0003114690593424667,0.11815241724252701,-50.65060806274414,-7.436112403869629,17.65296173095703,1.6698099374771118,-0.8484604358673096,0.07969819009304047,,,,,,,,,
1739303070.6684492,-0.07768006684900718,1.0458106847381226,-0.388578446584003,-1.4548505875721127,1.5305846611307454,1.1780387271460084,1.3535745302102133,0.00272484244413742,-0.0005048703502866179,-0.0020352435016621952,0.0002547511311148273,0.00016444427234356388,-0.0003006897817405536,-5.981043935428276e-05,0.04277399927377701,-50.62680435180664,-7.356766700744629,17.67676544189453,1.6698099374771118,-0.8420517444610596,0.04673920199275017,,,,,,,,,
1739303070.679363,-0.07768445750293904,1.045812190532284,-0.38857606080047274,-1.4548523096025399,1.5305853515821741,1.178038725159818,1.3535810470003675,-0.0015274077610112594,-0.00025737124134047376,-0.0001603051429904237,-0.0007709031879798802,0.0009904260764311108,-0.0004887460004004833,0.001098389811587607,0.09434870630502701,-50.62680435180664,-7.384537696838379,17.70056915283203,1.6762186288833618,-0.8420517444610596,0.03941498324275017,,,,,,,,,
1739303070.6893964,-0.07768759191200805,1.0458166104357818,-0.3885745842359521,-1.4548487770361003,1.5305850344333127,1.1780369820926933,1.3535807432896179,-0.0016012024956363296,0.00019296818919511342,0.0005273202288368526,3.4302372077612588e-06,0.0007976016168844323,0.00012698723681627496,0.00029664263037961207,0.11815241724252701,-50.67837905883789,-7.408341407775879,17.65296173095703,1.6698099374771118,-0.8548691272735596,0.03300629183650017,,,,,,,,,
1739303070.699396,-0.07768176100133713,1.0458091995541245,-0.3885784467080107,-1.4548484918446427,1.5305869751844865,1.1780394845856568,1.3535791258515446,-9.358253472994694e-05,-0.0003633675910704844,-0.0014953502839727454,0.0006245446199303152,0.001681089859422388,0.00018178370742696052,-0.0009495575854100781,0.06657771021127701,-50.57522964477539,-7.356766700744629,17.67676544189453,1.6624857187271118,-0.8484604358673096,0.04673920199275017,,,,,,,,,
1739303070.7094424,-0.07768174949035167,1.0458129100158786,-0.38857458424113617,-1.4548476655712619,1.5305835693159753,1.1780394440827708,1.3535768084739896,0.00045265259101263516,-0.0004530190144451347,-0.00019443733448542788,-0.0005494710021624016,0.0013547619436149805,0.00019979976126364586,-0.00038672865413170976,0.06657771021127701,-50.62680435180664,-7.408341407775879,17.65296173095703,1.6624857187271118,-0.8484604358673096,0.03941498324275017,,,,,,,,,
1739303070.720446,-0.07767972450120861,1.0458108061233256,-0.38857211713647233,-1.4548523432284501,1.5305853471511113,1.1780387271462598,1.353573605750296,0.0005486936488166318,-0.000892873231694905,0.000909415905382188,-0.0007646321063995931,0.00028553836095711435,-0.0010288756657040525,-0.0012635483802872674,0.06657771021127701,-50.59903335571289,-7.408341407775879,17.70056915283203,1.6762186288833618,-0.8420517444610596,0.09343110024929047,,,,,,,,,
1739303070.7304869,-0.07768587793758862,1.0458090921714758,-0.38857353394066296,-1.4548525796706726,1.5305839028110197,1.1780394841442419,1.353573444412274,-0.00043140336356504647,-0.002230309272059549,0.0005994582476573816,-0.0015567686036533866,-0.00023884247202283056,0.0006601324765175024,-0.002255132601840735,0.09434870630502701,-50.57522964477539,-7.408341407775879,17.70056915283203,1.6762186288833618,-0.8484604358673096,0.09343110024929047,,,,,,,,,
1739303070.7415044,-0.07768395896401686,1.0458121944324863,-0.3885725041213311,-1.4548527039075607,1.5305862950755147,1.1780393636287723,1.3535757471369898,-0.0004949761319020017,7.187552579745733e-05,0.0011837385198080093,-0.0008975826529617536,0.00047998698914859686,-0.00010810522184232864,-0.00041782669352722734,0.06657771021127701,-50.62680435180664,-7.436112403869629,17.67676544189453,1.6560770273208618,-0.8484604358673096,0.07328949868679047,,,,,,,,,
1739303070.7524064,-0.07768207756372053,1.0458165410005638,-0.388574557023406,-1.454850561021875,1.530583343145173,1.1780349995776613,1.3535807450469053,-0.0014627675650786562,8.546373493023969e-05,9.597650438783906e-05,-0.0006032583023105737,-0.0010562321246325055,-0.0018276187905544117,0.0012946564704352957,0.06657771021127701,-50.67837905883789,-7.408341407775879,17.67676544189453,1.6560770273208618,-0.8484604358673096,0.03300629183650017,,,,,,,,,
1739303070.7633634,-0.07768374710767957,1.0458097311010421,-0.3885745803527357,-1.4548487782964206,1.5305853589046519,1.1780394440574629,1.3535721362169788,-0.0008457903657114467,-0.0008189971111630264,-0.0010494859117009948,0.0007524405957806198,-0.0003593667143077133,0.0010216080292143497,-0.003118628223662658,0.09434870630502701,-50.62680435180664,-7.408341407775879,17.65296173095703,1.6762186288833618,-0.8484604358673096,0.09343110024929047,,,,,,,,,
1739303070.7733672,-0.07767885282976891,1.0458136419904562,-0.3885734581255312,-1.4548517883876058,1.5305813962900365,1.1780394843090949,1.3535730006941622,0.0008612549486070495,5.1081211042940686e-05,0.0013861711124728547,0.0005972103054326695,-0.0014709427641288303,0.0007057589911556216,-0.001555810812555171,0.04277399927377701,-50.65060806274414,-7.436112403869629,17.67676544189453,1.6698099374771118,-0.8484604358673096,0.09983979165554047,,,,,,,,,
1739303070.7833743,-0.07768177934924456,1.045814596029051,-0.38857542176628657,-1.4548466985273512,1.530587055017749,1.1780393641253972,1.3535776119876262,0.0007323638735138383,0.0005236942602254743,0.000551369675594229,0.0006625084849451028,0.0007159949747222233,7.089869698728864e-05,-0.0012141052483437519,0.06657771021127701,-50.65060806274414,-7.384537696838379,17.62519073486328,1.6496683359146118,-0.8484604358673096,0.05955658480525017,,,,,,,,,
1739303070.7934635,-0.07767832802135308,1.0458166164434122,-0.3885763364442149,-1.4548487782964208,1.53058698858738,1.1780402424644496,1.3535799873882546,0.0024247716680064536,0.0008938867338772957,-0.0007697048811061534,-3.2722643150484803e-05,0.001517061717226196,0.0016302077644564053,0.0008491077097643573,0.018970288336277008,-50.67837905883789,-7.384537696838379,17.65296173095703,1.6624857187271118,-0.8548691272735596,0.03941498324275017,,,,,,,,,
1739303070.804465,-0.07768004541325961,1.0458129087076606,-0.3885763580614208,-1.4548487871267382,1.5305869463983957,1.178039001916835,1.3535800004701084,0.0013914056637311348,0.0012853525361500358,-0.00024464669144728555,0.00021122911565104403,-0.0009483087672870898,-0.0014651629189110407,0.0004823452733495096,0.04277399927377701,-50.62680435180664,-7.384537696838379,17.65296173095703,1.6624857187271118,-0.8484604358673096,0.03941498324275017,,,,,,,,,
1739303070.815402,-0.07768385330816127,1.0458129007494885,-0.3885761302750782,-1.4548505595562777,1.5305837146633685,1.1780358643734137,1.3535734458658244,-0.0007446868888118324,-0.0003461917742638438,-0.0012034871240039408,-0.00010460057051134148,0.0012189236268544902,-0.0008610727130117929,-0.0023284813422977924,0.09434870630502701,-50.62680435180664,-7.384537696838379,17.67676544189453,1.6624857187271118,-0.8484604358673096,0.09343110024929047,,,,,,,,,
1739303070.8254201,-0.07768322271462069,1.0458138013169027,-0.38857027313358217,-1.454851275284345,1.530582341320953,1.1780353077897643,1.3535776061681333,-0.0006542648525273796,-0.0011471749070320085,0.0016426470035683163,-0.0005376839910822068,-0.002364729141665168,-0.0006781401153803138,-0.0004826160984314577,0.04277399927377701,-50.65060806274414,-7.436112403869629,17.67676544189453,1.6698099374771118,-0.8420517444610596,0.05955658480525017,,,,,,,,,
1739303070.837369,-0.07768175210595685,1.0458084512098234,-0.38857037853968784,-1.4548499075339585,1.5305833664496828,1.1780379694669558,1.3535807452635753,0.0007675868712644682,-0.0007372679839773468,0.0014635327619573373,-0.00048320747426044313,-0.0004198996815877758,-0.00019022988579564076,0.0011606974248365564,0.06657771021127701,-50.59903335571289,-7.436112403869629,17.67676544189453,1.6624857187271118,-0.8356430530548096,0.03300629183650017,,,,,,,,,
1739303070.8474376,-0.07768174948976692,1.0458108845526957,-0.3885745845201819,-1.4548487669550398,1.53058129539869,1.1780378488052488,1.3535769647942693,-0.000764028692108751,-0.0005064236755064778,0.0007254746525325657,9.817915963177627e-05,-0.0010328834314494643,0.0008730663075630078,-0.0011622001424892027,0.06657771021127701,-50.59903335571289,-7.408341407775879,17.65296173095703,1.6698099374771118,-0.8356430530548096,0.06596527993679047,,,,,,,,,
1739303070.8574924,-0.07768175013932209,1.0458098887376166,-0.38857155960729617,-1.4548481526739934,1.530585365877541,1.1780394848002835,1.3535783638367531,0.0007845155615412536,-0.001244748205941902,0.001303321488659871,0.0014598675677059837,-0.00017336850904412106,0.0002234908776861293,0.00043076079804105243,0.06657771021127701,-50.62680435180664,-7.436112403869629,17.62519073486328,1.6624857187271118,-0.8484604358673096,0.05314789339900017,,,,,,,,,
1739303070.8684552,-0.07768490632834948,1.045812698034859,-0.38857613070182195,-1.4548523440220547,1.5305869707240891,1.1780342619489972,1.3535768470566982,-0.001688249414951532,-0.0005756864010933044,6.118681312084014e-05,-0.0010042079986109108,-0.00025814206660797505,-0.002189203218161486,-0.0005227056068652107,0.06657771021127701,-50.62680435180664,-7.384537696838379,17.70056915283203,1.6624857187271118,-0.8420517444610596,0.06596527993679047,,,,,,,,,
1739303070.8794637,-0.07768207363579771,1.0458129085982684,-0.38857636562162845,-1.45484877833276,1.53058216118758,1.178039484724438,1.3535799873343182,-0.00028748688558145885,0.0006258102252796548,0.00013875353341638157,0.000700886066509993,-0.0005085270074013095,0.0005269665104660271,0.0007587002002664375,0.06657771021127701,-50.62680435180664,-7.384537696838379,17.65296173095703,1.6624857187271118,-0.8484604358673096,0.03941498324275017,,,,,,,,,
1739303070.8904555,-0.07768270599779784,1.0458165135324955,-0.3885745842051266,-1.4548544894176705,1.5305853728276344,1.1780387271463362,1.3535775654339888,0.00020316279703561584,0.0008494241558359118,-0.0003664662261844714,-0.0015149168125320352,-0.00024507771998290284,0.00017373077668328732,0.0006015516318434119,0.06657771021127701,-50.67837905883789,-7.408341407775879,17.70056915283203,1.6624857187271118,-0.8420517444610596,0.03300629183650017,,,,,,,,,
1739303070.9013522,-0.07768178424635841,1.0458121947595376,-0.3885784467080106,-1.4548523427177638,1.5305849814505883,1.1780362249292782,1.3535768528529502,1.7805326508413564e-05,-0.00035337988765327626,-0.0007153752074472433,-0.0006927689872399403,-0.0007388819699205096,-3.815029851220495e-05,0.0004884511055377444,0.06657771021127701,-50.62680435180664,-7.356766700744629,17.70056915283203,1.6698099374771118,-0.8484604358673096,0.06596527993679047,,,,,,,,,
1739303070.911443,-0.07768374710641986,1.045814622524497,-0.388570142341284,-1.4548485487081433,1.530584278906197,1.178039880202716,1.3535801854897773,0.0004388500428133252,0.00023659689018765807,0.001529077843445453,0.0005459208618839612,0.0016049627155401017,0.0009100634992154998,0.0014298170982679401,0.09434870630502701,-50.65060806274414,-7.436112403869629,17.65296173095703,1.6762186288833618,-0.8548691272735596,0.04673920199275017,,,,,,,,,
1739303070.9223926,-0.0776800629512298,1.0458078126334973,-0.3885722293084754,-1.4548469379049942,1.530587625088226,1.1780386854273994,1.3535784815744216,0.0009885020036174467,-0.001708821332340335,-0.000749356107671984,0.0010039711928183414,0.0016100372473772007,0.0012362599449954295,-0.00013465801702698156,0.04277399927377701,-50.59903335571289,-7.436112403869629,17.62519073486328,1.6560770273208618,-0.8420517444610596,0.05314789339900017,,,,,,,,,
1739303070.9324021,-0.07768377341325955,1.045809173010852,-0.38857329617050007,-1.45485056108651,1.5305842274707806,1.1780394841435353,1.353579122946468,-4.747583022950873e-05,-0.00046478244678259395,-0.000417673340625901,0.000644177069424987,-0.0007650095071876278,0.001444937447520363,0.00044899007764918414,0.09434870630502701,-50.57522964477539,-7.384537696838379,17.67676544189453,1.6826273202896118,-0.8484604358673096,0.04673920199275017,,,,,,,,,
1739303070.9435103,-0.07768006295137829,1.0458146225001212,-0.38857326948013116,-1.4548450041327237,1.5305838970151655,1.1780402423009462,1.3535807392340418,0.0009334023077920561,0.0010541851371660856,-4.0819610604564405e-06,0.0010796768721796567,-0.0008151324286921768,0.00043099511858654335,0.0003245896992353655,0.04277399927377701,-50.65060806274414,-7.384537696838379,17.60138702392578,1.6762186288833618,-0.8548691272735596,0.03300629183650017,,,,,,,,,
1739303070.9553897,-0.07768216754652714,1.0458167652513661,-0.3885745840796419,-1.4548523351126952,1.530584469997793,1.1780389616898308,1.3535736013955941,0.0017483513089954319,0.0010685779829287634,-0.00047758643187809416,-0.00018480032170334478,0.000135905558816294,-0.0014607354370401702,-0.0025272838887789462,0.04277399927377701,-50.65060806274414,-7.408341407775879,17.70056915283203,1.6560770273208618,-0.8484604358673096,0.09343110024929047,,,,,,,,,
1739303070.9664407,-0.07768459134215529,1.0458129011613178,-0.3885792806167811,-1.454850560973391,1.5305893015553975,1.178036616846244,1.353579991748807,0.00015815482111818026,-0.0008672780145269558,-0.0021930671068713576,0.00016401239319323714,0.0021285631731698938,-0.0011770976495476776,0.00047585098634205284,0.06657771021127701,-50.62680435180664,-7.332962989807129,17.67676544189453,1.6698099374771118,-0.8548691272735596,0.03941498324275017,,,,,,,,,
1739303070.9783638,-0.07768169753067708,1.0458106732688166,-0.3885745053943442,-1.454847873734535,1.5305804975196435,1.1780402422941276,1.353579673905828,0.0010715997786274766,-0.0010551162373409776,-0.0005277851259225892,0.00034688352272496746,-0.00011186963010101635,0.000836807854676686,0.00038778904362065205,0.06657771021127701,-50.59903335571289,-7.408341407775879,17.67676544189453,1.6762186288833618,-0.8548691272735596,0.03941498324275017,,,,,,,,,
1739303070.9894612,-0.07768588186891659,1.0458137444092195,-0.38857458391667055,-1.454846686103917,1.5305828507254158,1.1780372789742255,1.353581322536136,-0.0008875461548998923,-0.0004502057877175399,0.00011249248798343568,0.00048239848217085135,0.0006011709475920342,-0.0012422977726431294,0.0010136306270994806,0.09434870630502701,-50.65060806274414,-7.408341407775879,17.62519073486328,1.6698099374771118,-0.8420517444610596,0.06596527993679047,,,,,,,,,
1739303071.0014539,-0.07768375004487019,1.0458160540275785,-0.3885763198249508,-1.4548523432305207,1.530585186206589,1.1780383651005841,1.3535783594786133,-0.0006665713515446411,-0.0001798789974632851,-0.0011653672922572788,-0.0006787370874799866,0.0008156350732093962,-9.033746980521536e-05,8.907301813651725e-05,0.09434870630502701,-50.65060806274414,-7.356766700744629,17.70056915283203,1.6762186288833618,-0.8420517444610596,0.05314789339900017,,,,,,,,,
1739303071.012491,-0.07768382710938823,1.045809969571215,-0.388576339588418,-1.4548521141106479,1.5305841067179125,1.1780387256557663,1.3535764967510806,-0.001379917838131158,-0.00022194482154869758,-0.0015841254248075026,-0.000543584918725221,-0.0005751726424003116,-0.00023512383518029545,-0.0007349393075376018,0.09434870630502701,-50.62680435180664,-7.384537696838379,17.70056915283203,1.6826273202896118,-0.8420517444610596,0.06596527993679047,,,,,,,,,
1739303071.0233994,-0.07768183685538524,1.0458108855311348,-0.3885715133899795,-1.4548523436491627,1.5305822418227302,1.1780387137373272,1.3535736013936412,0.00029485016998778284,-0.0010292102510458879,0.0003102156073765541,-0.0008827865557765255,-0.001753736929805782,0.00032387753824127986,-0.0011969770125764678,0.06657771021127701,-50.59903335571289,-7.408341407775879,17.70056915283203,1.6624857187271118,-0.8420517444610596,0.09343110024929047,,,,,,,,,
1739303071.0334458,-0.07768004584775949,1.0458109120745762,-0.3885714304968681,-1.4548466985065647,1.5305876859338758,1.1780387211865535,1.3535752046032339,0.0005298955416199603,-0.0013198908609854173,0.0005552191212340356,0.0014167687744918644,0.000643089757135555,-0.0001056268550597677,0.00034978286693490785,0.04277399927377701,-50.59903335571289,-7.408341407775879,17.62519073486328,1.6560770273208618,-0.8420517444610596,0.07969819009304047,,,,,,,,,
1739303071.0434456,-0.07768269621670665,1.0458129097978461,-0.3885696977078267,-1.4548488322594733,1.530587726736874,1.1780402423008491,1.3535773954635104,-0.0005786556665877032,0.0012494058210636763,0.002212951449245459,0.0008203078405497049,0.0014596593008300463,0.000276472918188557,0.0017429878957819838,0.06657771021127701,-50.62680435180664,-7.459916114807129,17.65296173095703,1.6560770273208618,-0.8548691272735596,0.07328949868679047,,,,,,,,,
1739303071.0543995,-0.07768248316341132,1.0458109119296695,-0.3885784454061476,-1.454852335147494,1.5305872499733049,1.1780402424664924,1.3535776061787426,0.0016259153572503182,-0.0009421113581206454,-0.002308398680071472,0.00019110519623072352,0.0008959014341299003,0.0009325105820926535,-0.001112167785197971,0.04277399927377701,-50.59903335571289,-7.356766700744629,17.70056915283203,1.6560770273208618,-0.8548691272735596,0.05955658480525017,,,,,,,,,
1739303071.0653665,-0.077680144809004,1.0458107613052268,-0.3885745832330649,-1.4548506703167086,1.5305841031158205,1.1780378756711114,1.3535782462378767,0.00010367081035015096,1.8356902693264998e-05,0.00031165387431305496,-0.0004351467257418269,-0.0003959781155260699,-0.0005317161361512379,-0.0016465030815292776,0.04277399927377701,-50.62680435180664,-7.408341407775879,17.67676544189453,1.6762186288833618,-0.8484604358673096,0.07969819009304047,,,,,,,,,
1739303071.0753963,-0.07768246865752099,1.0458109120386372,-0.38857250445126357,-1.4548487782982722,1.5305861033247572,1.1780394832892749,1.3535752191899022,-0.00013575348921782073,-0.0011790337599127257,0.0012983816690675795,4.0351822744633836e-05,0.0001467289746129224,0.000325399838744868,-0.0013724201479149605,0.06657771021127701,-50.59903335571289,-7.436112403869629,17.65296173095703,1.6698099374771118,-0.8484604358673096,0.07969819009304047,,,,,,,,,
1739303071.0854087,-0.07768246087321068,1.045812473825958,-0.38857174970914027,-1.454848548708159,1.5305850321156071,1.1780349793820466,1.3535744672927617,3.13026384820454e-05,-0.0003587271089580502,0.0004990549644581352,0.0007121797218201909,0.00139470470583952,-0.0008281301198933312,-0.0016362019606707629,0.06657771021127701,-50.65060806274414,-7.408341407775879,17.65296173095703,1.6698099374771118,-0.8484604358673096,0.08610688149929047,,,,,,,,,
1739303071.096443,-0.07768256566799513,1.0458185713803847,-0.3885762041136036,-1.4548498722047671,1.5305866065196907,1.178037808501946,1.35357447165351,0.00019839826105903026,0.0033610889090145944,-0.0005047400572672338,-0.00017408254837076464,0.0002817072621551926,-0.00042065112629086624,-0.0017938508546112444,0.06657771021127701,-50.70218276977539,-7.356766700744629,17.67676544189453,1.6624857187271118,-0.8356430530548096,0.08610688149929047,,,,,,,,,
1739303071.1074321,-0.0776844926194485,1.0458143595904172,-0.3885753830350189,-1.4548527067367631,1.530585842885118,1.178039480335839,1.3535759826130405,-0.0015405764426613122,-0.0002651749346286047,0.0011668796299408564,-0.0011080429154253035,-0.0007186933694499114,0.000588707918077849,-0.0006161245782857487,0.09434870630502701,-50.67837905883789,-7.384537696838379,17.67676544189453,1.6624857187271118,-0.8484604358673096,0.07328949868679047,,,,,,,,,
1739303071.1174347,-0.07768004974781449,1.0458128981930201,-0.3885745460011542,-1.4548534230259866,1.5305885035904825,1.1780346575660225,1.3535807276056318,0.0008508687021673883,-0.0009404077371863892,0.0009488288868556693,-0.0009128723917063823,0.0021748307507132394,-0.0007018708338679002,-0.0005453702617203024,0.04277399927377701,-50.62680435180664,-7.408341407775879,17.67676544189453,1.6496683359146118,-0.8484604358673096,0.03300629183650017,,,,,,,,,
1739303071.1283765,-0.07768311882013992,1.0458166204773962,-0.3885714545883973,-1.4548544894338267,1.530582275596372,1.1780387271190866,1.353574433861105,-1.5671514823085834e-05,0.0012580022318518381,0.001874485933991449,-0.0012975552221441188,-4.718845195636473e-05,0.0007630875615613456,-7.492019059512109e-05,0.04277399927377701,-50.67837905883789,-7.436112403869629,17.70056915283203,1.6624857187271118,-0.8420517444610596,0.08610688149929047,,,,,,,,,
1739303071.1394055,-0.07768479940275594,1.045810903244708,-0.3885745829391274,-1.4548505964158396,1.5305813087536726,1.178040242466493,1.3535814852655212,-0.0004713845314440335,-0.00033245387442926166,-0.0005022774641417418,-0.00026743185043238553,-0.0010698457171285226,0.00045847519084266997,0.001585659338380966,0.09434870630502701,-50.59903335571289,-7.408341407775879,17.67676544189453,1.6826273202896118,-0.8548691272735596,0.026597600430250168,,,,,,,,,
1739303071.150435,-0.07768185833228405,1.045812669598618,-0.38857810251396385,-1.4548507993922184,1.5305817782335691,1.1780387271463366,1.353575224952839,-0.00023295342858547304,-0.00035976999452538914,-0.001697695551518422,-0.00035685240535801875,-0.00038946833957425393,0.0007476987273978902,-0.0014728873542730286,0.06657771021127701,-50.62680435180664,-7.332962989807129,17.67676544189453,1.6698099374771118,-0.8420517444610596,0.07969819009304047,,,,,,,,,
1739303071.1604383,-0.07768028510097959,1.0458039962040284,-0.3885782104609924,-1.4548466985106023,1.5305817729929407,1.1780367217869903,1.3535736007496046,0.0006984341654733087,-0.003276987097634623,-0.0014903793143443735,0.00019753630620607948,-0.0004018415023336781,-0.001344392214086141,-0.0011849963012916151,0.04277399927377701,-50.54745864868164,-7.356766700744629,17.62519073486328,1.6698099374771118,-0.8356430530548096,0.09343110024929047,,,,,,,,,
1739303071.171357,-0.07768419604106296,1.0458124767513033,-0.3885743480288029,-1.454846698506565,1.5305842205745748,1.1780394847993716,1.3535773041927124,-0.000705823534030164,0.0004378404461288778,-0.0002314195356853978,0.0016341876501497466,-0.0004519472827663489,7.081771492144646e-05,-0.00023103103209482385,0.06657771021127701,-50.65060806274414,-7.408341407775879,17.62519073486328,1.6762186288833618,-0.8484604358673096,0.05314789339900017,,,,,,,,,
1739303071.1814647,-0.07768611488446828,1.0458175381242418,-0.3885738726879518,-1.4548541263274777,1.530582496305472,1.1780394848064146,1.3535807450302895,-0.0009930548533646512,0.0009478227064939565,-0.0006608898857567898,-0.0014698621410770942,0.0012855894411515608,0.0012842692810205133,0.0006437681122763603,0.09434870630502701,-50.70218276977539,-7.408341407775879,17.72437286376953,1.6698099374771118,-0.8484604358673096,0.03300629183650017,,,,,,,,,
1739303071.193356,-0.07768198597731979,1.0458146225321228,-0.3885746364922508,-1.4548487781914419,1.5305833821459132,1.1780379693207148,1.353579122944474,-0.0011945828995497637,0.0008531361942035057,-0.00012117838851372125,0.000666797229470725,-0.0007513498469388731,-8.814512773677393e-05,0.0004996239549367937,0.06657771021127701,-50.65060806274414,-7.408341407775879,17.65296173095703,1.6560770273208618,-0.8356430530548096,0.04673920199275017,,,,,,,,,
1739303071.2044272,-0.0776800454497696,1.0458187647911246,-0.3885739218589896,-1.4548505524822832,1.5305861351787493,1.17803379154738,1.3535783656074094,7.93776008309419e-06,0.0013490883145394232,0.0001723032690392625,0.0004697764844461911,0.000795206750650024,-0.0011373686435654923,-0.0004883382724953074,0.04277399927377701,-50.67837905883789,-7.384537696838379,17.67676544189453,1.6560770273208618,-0.8283188343048096,0.05314789339900017,,,,,,,,,
1739303071.2144485,-0.07768003664439063,1.04581076548416,-0.38857455926225754,-1.4548562737782413,1.5305812932949723,1.1780394443577789,1.3535804975843226,0.0014430583184532409,-0.000914071285591378,-0.00044673829792182346,-0.002343439887528119,-0.003198100095617813,0.000531048686934682,-6.988729318147381e-05,0.04277399927377701,-50.62680435180664,-7.408341407775879,17.72437286376953,1.6698099374771118,-0.8484604358673096,0.03941498324275017,,,,,,,,,
1739303071.2253542,-0.07768175208797139,1.045809198561042,-0.38857636688201197,-1.4548505605656472,1.5305846801621836,1.1780387271461084,1.3535784038702057,0.0012726216965146145,-0.0015156893196218053,0.00018730331254739326,-0.000744789774280484,-0.0009483419212608184,0.0008478514054722365,-0.0006792440039235486,0.06657771021127701,-50.57522964477539,-7.384537696838379,17.67676544189453,1.6560770273208618,-0.8420517444610596,0.07969819009304047,,,,,,,,,
1739303071.2354043,-0.07768619657888304,1.0458150185926627,-0.3885745842411344,-1.4548490961878386,1.5305826439398127,1.178037627608253,1.3535791216524296,-0.0015390985226654348,0.0010545739633494213,-9.634301323180104e-05,-0.00011244165553674144,0.0003850363062004792,-0.00256200137098134,-0.0004215106561344903,0.09434870630502701,-50.65060806274414,-7.408341407775879,17.65296173095703,1.6624857187271118,-0.8420517444610596,0.04673920199275017,,,,,,,,,
1739303071.245413,-0.07768174917880004,1.045809704176708,-0.3885696699192847,-1.454849016716794,1.530581772214273,1.1780383852621241,1.3535739033736787,0.0006866473913792208,-0.0022498023543186577,0.0009692581131589614,9.445526338282788e-06,-0.0012786732100551143,0.00015967685835354065,-0.0014113310080154315,0.06657771021127701,-50.62680435180664,-7.436112403869629,17.65296173095703,1.6698099374771118,-0.8484604358673096,0.09983979165554047,,,,,,,,,
1739303071.256381,-0.07768382700112357,1.0458121908174587,-0.3885784115537785,-1.4548505606598494,1.5305833679363592,1.1780394848002078,1.3535783237999066,-0.0004821983957359526,-0.000173666676602957,-0.0009538050155436352,-0.0014093036326781323,0.0006920463062001464,0.00045816482968651974,0.0010358654965731873,0.09434870630502701,-50.62680435180664,-7.356766700744629,17.67676544189453,1.6624857187271118,-0.8484604358673096,0.026597600430250168,,,,,,,,,
1739303071.2674236,-0.07768374743195641,1.0458100476725547,-0.3885784434672097,-1.4548505613004827,1.530585758954909,1.1780354642894217,1.3535773039773753,0.0004753342876724437,-0.0007784785989628292,-0.0016094262097019647,-0.0013056047315558239,0.00027011369086573164,-0.0017466854562607288,-0.00034479036606944427,0.09434870630502701,-50.62680435180664,-7.356766700744629,17.67676544189453,1.6698099374771118,-0.8420517444610596,0.05314789339900017,727,738,749,40.522,0,0
1739303071.2784657,-0.07768319362718139,1.0458108325846671,-0.38857450550413025,-1.4548505525791873,1.5305844873874341,1.1780386064407942,1.353580731910453,0.00026327512717778766,-0.00051594109682767,0.00037637376229249974,0.0001841312052231148,0.0009351457034964826,0.00031538965117926504,0.0008112980899859609,0.04277399927377701,-50.59903335571289,-7.408341407775879,17.67676544189453,1.6560770273208618,-0.8420517444610596,0.03300629183650017,727,738,749,40.631,0,0
1739303071.28942,-0.07768445741233058,1.0458146212643047,-0.38857247827818353,-1.4548523435817713,1.5305826018084878,1.1780402021836278,1.3535739963425055,-0.00011181975118785799,0.00035888277401733247,0.0006885250335229641,-0.000569135328118469,-0.000547404274914911,0.0004613845090780075,-0.0031702647553724563,0.09434870630502701,-50.65060806274414,-7.436112403869629,17.70056915283203,1.6624857187271118,-0.8548691272735596,0.08610688149929047,728,738,747,40.631,0,0
1739303071.3003895,-0.07768198932399886,1.0458129100158715,-0.38857434759796133,-1.4548466985065645,1.5305855997388818,1.1780379650163637,1.3535781300503693,0.0005413251623216652,-0.0002748360691040612,-0.00010612067563619767,0.0010628571110094644,0.00029702673860185224,-0.0003396120862328846,-0.000906390472896545,0.06657771021127701,-50.62680435180664,-7.408341407775879,17.62519073486328,1.6698099374771118,-0.8356430530548096,0.019273381680250168,727,739,747,40.522,0,0
1739303071.310397,-0.07768399836240818,1.045815903804514,-0.38857215353298963,-1.4548487782964203,1.5305861092968276,1.1780387137372599,1.3535757898819796,-0.0004513718693223321,0.0009516587037700862,0.001376277399215493,0.0005919761621875623,0.001598402546825754,0.0002488964278199231,-0.0017091287721739822,0.06657771021127701,-50.67837905883789,-7.436112403869629,17.65296173095703,1.6698099374771118,-0.8420517444610596,0.04673920199275017,726,738,748,40.522,0,0
1739303071.3204727,-0.07768209552427913,1.0458088806537424,-0.388574337871549,-1.4548509212292093,1.5305859596543838,1.1780389947669985,1.3535807962264723,-0.0003906053992750748,-0.0005047286989714535,-0.0003583176547910631,0.00039201530002113923,-4.7412232266573256e-05,-0.00020006395718485628,0.0005447416653241288,0.06657771021127701,-50.59903335571289,-7.408341407775879,17.65296173095703,1.6698099374771118,-0.8548691272735596,0.026597600430250168,726,738,747,40.522,1,0
1739303071.3313584,-0.07768011863450587,1.0458121149487654,-0.3885706863106189,-1.4548487783085173,1.5305816239424022,1.1780358643690962,1.353581189743876,0.00026093003095354597,0.00012651122677452762,0.0018972365048340982,0.0005145230585211048,-0.002105142962182577,0.00020636591479771164,8.545340909381618e-05,0.04277399927377701,-50.62680435180664,-7.459916114807129,17.65296173095703,1.6762186288833618,-0.8484604358673096,0.05314789339900017,726,738,748,40.522,1,0
1739303071.3414698,-0.07768391803139499,1.0458127059239595,-0.3885763669175547,-1.4548485487081593,1.5305857604427584,1.1780406589868564,1.3535752251623,0.0002152879075415793,0.00012015345113620836,-0.0011456897322477011,0.00039964288184983005,0.0005983047527456816,0.00011147011057041189,-0.001490056231890972,0.06657771021127701,-50.62680435180664,-7.384537696838379,17.65296173095703,1.6698099374771118,-0.8686020374298096,0.07969819009304047,725,739,752,40.631,0,0
1739303071.3514793,-0.07768419878287063,1.0458146195897144,-0.3885722653240958,-1.4548467129793266,1.5305833666856181,1.178035019588634,1.3535752249529411,-0.00016626765729657004,0.0004639510725541183,0.000790116154516542,0.0008251168182939826,-0.0004086444540989589,-0.0018793390608717638,-0.0001286044724190592,0.06657771021127701,-50.65060806274414,-7.436112403869629,17.65296173095703,1.6624857187271118,-0.8484604358673096,0.07969819009304047,726,738,747,40.522,1,0
1739303071.3623872,-0.07768482713251607,1.0458091995542778,-0.38857353238480946,-1.4548505354169807,1.530583037981579,1.1780387270659491,1.3535759827745215,-0.00015738714588898515,0.0006681642182128912,0.0013418006614155523,-0.00019726119752562363,5.483469968587773e-05,0.0010361650673247347,-0.0013395199196392627,0.06657771021127701,-50.57522964477539,-7.384537696838379,17.67676544189453,1.6560770273208618,-0.8420517444610596,0.07328949868679047,727,739,748,40.631,1,0
1739303071.3724017,-0.07768311558832887,1.0458117611866118,-0.3885717234154706,-1.454852141533864,1.5305852441283194,1.1780382444222985,1.3535755668064062,9.1353630344472e-05,-0.0008636361559988277,0.0012566797992757282,0.00040420801286804455,0.0008897264128020745,0.0007266070560574457,-0.0010319533690976617,0.04277399927377701,-50.65060806274414,-7.408341407775879,17.70056915283203,1.6762186288833618,-0.8420517444610596,0.11265717446804047,727,740,748,40.522,1,0
1739303071.382407,-0.07768175019144777,1.0458128834764682,-0.388572530569765,-1.4548487900667546,1.5305868257153388,1.1780394847982398,1.353578365356173,0.00011965043674180004,0.0006363336263010675,0.0005085089316351694,-0.00048395689175856306,0.0019664405530821455,0.0005990830085307117,0.001121380124709691,0.06657771021127701,-50.62680435180664,-7.436112403869629,17.65296173095703,1.6624857187271118,-0.8484604358673096,0.05314789339900017,726,739,748,40.522,1,0
1739303071.39339,-0.07768183198327491,1.0458124767329096,-0.3885724955948657,-1.4548487491164657,1.5305843669820953,1.1780364810871449,1.3535759826130245,0.0009201536059573992,-0.0010596452588266094,0.0008398338067713088,0.0003196424764280591,-6.084073266804705e-05,-0.0016766905243668438,-0.0013489144202949144,0.06657771021127701,-50.65060806274414,-7.436112403869629,17.65296173095703,1.6560770273208618,-0.8356430530548096,0.07328949868679047,727,739,748,40.631,0,0
1739303071.404351,-0.07768219804079228,1.0458078086725724,-0.38857244959343373,-1.4548488048958956,1.530585526973578,1.1780394713722075,1.3535744672928594,-0.00020089564424997404,-0.002137238230565257,0.0007882519683794209,0.000845659665803276,-0.0002669356755024074,0.0006959356832474608,-0.0008723121648122072,0.04277399927377701,-50.59903335571289,-7.408341407775879,17.65296173095703,1.6624857187271118,-0.8484604358673096,0.08610688149929047,726,739,747,40.522,1,0
1739303071.414423,-0.07768174917717383,1.04581290999836,-0.38857635815754954,-1.454846698506715,1.530586077844221,1.1780374688834776,1.3535799873881562,0.0009565369706198728,0.000754063178927419,-0.0014553093086423058,0.001536908725649188,-0.000652264054109435,-0.0015379891542200703,0.0015686604521754377,0.06657771021127701,-50.62680435180664,-7.384537696838379,17.62519073486328,1.6698099374771118,-0.8356430530548096,0.03941498324275017,727,739,745,40.631,1,0
1739303071.424428,-0.07768011556520697,1.0458129100158777,-0.3885763669177102,-1.4548523436504586,1.5305878534546833,1.1780387271209032,1.3535768485102484,0.0010428231318985886,-0.00045987059130945607,-0.0009958518874837985,-3.3842102770752485e-05,0.0006864608118285877,0.0006887642195566791,0.00035463322437758696,0.04277399927377701,-50.62680435180664,-7.384537696838379,17.70056915283203,1.6698099374771118,-0.8420517444610596,0.06596527993679047,726,739,746,40.522,1,0
1739303071.4344246,-0.07768245949018818,1.045810585389608,-0.38857458409712703,-1.4548505609734395,1.5305842724239278,1.1780369820927268,1.3535778681118975,-0.0006973303538311686,-0.0012510965984120655,8.465765698990413e-06,-0.0009448366247075681,-0.0007220593090074703,0.001279057819447213,0.0006971763811967183,0.06657771021127701,-50.59903335571289,-7.408341407775879,17.67676544189453,1.6762186288833618,-0.8548691272735596,0.03941498324275017,727,739,746,40.522,0,0
1739303071.44546,-0.07768014187620444,1.0458154719734007,-0.388575660256533,-1.4548487792775668,1.5305827034132573,1.1780409866991657,1.3535756119457398,0.00012966945777078542,0.0015575956441033247,-0.0010276766748894038,0.0013219053089885383,-0.0004227275091790912,0.0005019661882921136,-0.0014891126504927975,0.04277399927377701,-50.70218276977539,-7.384537696838379,17.65296173095703,1.6698099374771118,-0.8612778186798096,0.07328949868679047,726,740,748,40.522,1,0
1739303071.4564147,-0.07768074660874148,1.0458146195770202,-0.38857628479295137,-1.4548487454098515,1.5305850350764116,1.178040068149404,1.353582368334277,7.065054038822528e-05,0.0006100764466710158,-0.0011869922808588384,0.0008850948545995963,0.0014558862166324823,3.472958740849538e-06,0.0018032932865257468,0.04277399927377701,-50.65060806274414,-7.384537696838379,17.65296173095703,1.6698099374771118,-0.8548691272735596,0.019273381680250168,728,737,747,40.522,1,0
1739303071.4664266,-0.07768587830867742,1.0458107642486167,-0.3885742397216852,-1.4548505619540288,1.5305816570022968,1.1780380366313525,1.3535838311132615,0.00022685508907138762,0.00027198597167253565,0.0002677693738393083,-0.0002060442295543527,-0.0009933306660024456,0.0002737209299035979,0.001334885447316502,0.09434870630502701,-50.62680435180664,-7.384537696838379,17.67676544189453,1.6698099374771118,-0.8484604358673096,0.0064559997990727425,726,740,748,40.522,0,0
1739303071.476438,-0.07768587840493044,1.0458128036160006,-0.3885744700778208,-1.4548512762292265,1.5305834010321544,1.1780358643025646,1.3535803802044397,0.000306475016207135,-0.0005632888064053125,-0.0009446550635591982,-0.0002429029825349838,-0.0002014899827637282,-0.0006542446707962255,0.000615055010099136,0.09434870630502701,-50.62680435180664,-7.408341407775879,17.67676544189453,1.6560770273208618,-0.8484604358673096,0.03300629183650017,725,737,747,40.522,1,0
1739303071.4864583,-0.07768003698105039,1.0458146222089606,-0.38857250430662704,-1.4548488581003667,1.5305816857767776,1.178035466531408,1.353580443068124,0.0010728737634041062,0.00038891298993688197,0.0012593798856601907,0.0003396439586472079,-0.0009493867130133669,-0.0011979079421098292,0.0009742675321623179,0.04277399927377701,-50.65060806274414,-7.436112403869629,17.65296173095703,1.6762186288833618,-0.8420517444610596,0.026597600430250168,726,736,748,40.522,1,0
1739303071.4974303,-0.0776800366442472,1.0458146235177508,-0.3885724257142783,-1.454849016716351,1.5305828059939144,1.1780376407964919,1.3535815026903677,0.0017618658585287232,0.0005763900058554959,0.0002803376460932855,9.229509151581792e-05,-0.0006941380647676991,-0.0005355711783661373,0.000659735094240804,0.04277399927377701,-50.65060806274414,-7.436112403869629,17.65296173095703,1.6698099374771118,-0.8420517444610596,0.026597600430250168,726,737,746,40.522,1,0
1739303071.5083609,-0.0776838347957867,1.0458146225366118,-0.38857632070085885,-1.454850560973888,1.530583590150469,1.178039478348185,1.3535752249529376,0.00041053414427973816,0.00016932094133350172,-0.0008473366443065136,0.0003590627681976637,-0.0002382059450694448,0.0007965843727310438,-0.0018552484027864451,0.09434870630502701,-50.65060806274414,-7.356766700744629,17.67676544189453,1.6624857187271118,-0.8484604358673096,0.07969819009304047,725,735,748,40.631,0,0
1739303071.5194578,-0.07768482708408654,1.045812906091293,-0.3885723442508925,-1.4548523437594747,1.5305836093205643,1.178038726980684,1.3535783187707877,-0.0002864385486068368,-0.002077943859455068,0.0006467079980715664,-0.0008398154384957257,2.4521936805942327e-05,0.00046585482036482184,7.818648921073868e-05,0.06657771021127701,-50.62680435180664,-7.408341407775879,17.70056915283203,1.6624857187271118,-0.8420517444610596,0.05314789339900017,726,736,749,40.740,1,0
1739303071.5294995,-0.0776817755240858,1.0458114701131087,-0.3885763542434184,-1.4548527067406531,1.5305877402552115,1.1780353018915177,1.3535728304913277,0.0011211278271251847,-0.0008583183978404588,-0.0012335274247432587,-0.0019269488852768444,0.0015356230416838478,-0.0011268418082418157,-0.0004106196997927013,0.06657771021127701,-50.65060806274414,-7.384537696838379,17.67676544189453,1.6560770273208618,-0.8420517444610596,0.09983979165554047,726,736,746,40.414,1,0
1739303071.5404348,-0.0776840891087518,1.0458153377743025,-0.3885743475860845,-1.4548505600326693,1.5305868231606523,1.178037636522748,1.3535728437355237,-0.0006033782407080302,0.0006507239189135585,0.0009269838066615264,0.0004647437305694786,-0.0009517527791309346,0.0006729621180915134,-0.0012507227615934358,0.09434870630502701,-50.65060806274414,-7.408341407775879,17.67676544189453,1.6624857187271118,-0.8420517444610596,0.09983979165554047,726,736,746,40.631,1,0
1739303071.5504627,-0.07768257681243287,1.0458143841301435,-0.3885740048041509,-1.4548517608494713,1.5305873648576096,1.178039484787945,1.3535759805134435,-0.0004806481927452468,0.0002524721125095372,-0.0010152913952034355,-0.001827739709880931,0.0022364480544214524,0.001540635309225458,0.0005026325333051019,0.06657771021127701,-50.65060806274414,-7.384537696838379,17.70056915283203,1.6560770273208618,-0.8484604358673096,0.07328949868679047,725,735,748,40.631,0,0
1739303071.561386,-0.077687996437057,1.0458105228853025,-0.3885745839037814,-1.4548505612971983,1.530586812582138,1.178039001365024,1.353579987603485,-0.002163765010045336,-0.0021624638679460582,-5.5385906498814054e-05,-0.0002683850580215636,-0.0009892927550616544,0.00029363534919811833,0.001988027025672788,0.1419561207294464,-50.62680435180664,-7.408341407775879,17.67676544189453,1.6624857187271118,-0.8484604358673096,0.03941498324275017,725,737,747,40.522,1,0
1739303071.5723786,-0.07768659995720797,1.045809771932777,-0.38857426929313477,-1.4548505609734412,1.5305817762108425,1.1780394848036857,1.3535840016631628,-0.00033755041083129524,-0.0013277828375204271,0.00013030437787488137,0.0006503570483299876,0.0006512303089497142,0.0004444353483695245,0.0018279490758520037,0.09434870630502701,-50.62680435180664,-7.408341407775879,17.67676544189453,1.6698099374771118,-0.8484604358673096,0.0064559997990727425,726,735,747,40.522,2,0
1739303071.5834312,-0.07768490745924939,1.0458108325490223,-0.38857325717935004,-1.4548516147907093,1.5305817766348575,1.1780402240911956,1.3535745689735472,-0.0004899827165384508,-6.378731508107044e-05,0.000522290144306218,-0.0009818594441374333,-0.0006201194226690835,0.0008155180397881298,-0.0014043672792232484,0.06657771021127701,-50.59903335571289,-7.384537696838379,17.65296173095703,1.6698099374771118,-0.8548691272735596,0.04673920199275017,723,736,747,40.522,1,0
1739303071.5934446,-0.07768685528168952,1.0458087306590451,-0.38857531674991497,-1.4548487783124326,1.5305860690541475,1.1780379292591512,1.3535734836323579,-0.0014468184958256378,-0.0018763556294597895,0.0006525809474931987,0.0004963656003501462,0.002245655400499089,0.00017333706563593714,-0.0011395944226576366,0.09434870630502701,-50.59903335571289,-7.384537696838379,17.65296173095703,1.6698099374771118,-0.8356430530548096,0.09343110024929047,727,739,746,40.522,0,0
1739303071.6043873,-0.07768175340462766,1.0458146225606344,-0.38857742182500177,-1.4548487782964206,1.5305869483294305,1.178039442592666,1.3535799917481421,0.0009985720431084403,-0.00046235980740774697,-0.0012975667734434616,0.0002930495940187732,4.867594565724742e-05,0.0017158103863483046,0.0006999283711046463,0.06657771021127701,-50.65060806274414,-7.356766700744629,17.65296173095703,1.6624857187271118,-0.8484604358673096,0.03941498324275017,727,736,746,40.522,1,0
1739303071.615445,-0.07768406278975692,1.0458128835249259,-0.38857392605380225,-1.4548505639168785,1.530585639824423,1.1780376390300205,1.3535800230640593,-0.00030935596658466635,2.4515722727029385e-05,-0.001325220798267099,-0.0003579224079880987,-0.00020902304288776086,-4.721554373589813e-05,0.0015113731941100164,0.09434870630502701,-50.62680435180664,-7.384537696838379,17.67676544189453,1.6698099374771118,-0.8420517444610596,0.06596527993679047,727,737,747,40.522,2,0
1739303071.6263964,-0.07768273129312918,1.0458124774234456,-0.38857534234850133,-1.4548467014500095,1.5305877440638445,1.1780374865394496,1.353572033753635,0.00037859719309584665,0.000388619016967785,-0.001074362665252846,0.00044925500474419806,0.0005180944194505819,-0.0006502959725288471,-0.002326640373267757,0.06657771021127701,-50.65060806274414,-7.384537696838379,17.62519073486328,1.6560770273208618,-0.8356430530548096,0.10624848306179047,726,738,747,40.522,1,0
1739303071.636418,-0.07767903475360395,1.0458128274542358,-0.3885717104852994,-1.4548490167150494,1.5305825501425143,1.1780390686225748,1.3535806668621824,0.002127481023904364,-0.0004426007044198949,0.0003296011061213512,-0.00040681608940709626,-0.0001286437365816742,-0.000680615651684747,0.0013021178948072394,0.018970288336277008,-50.62680435180664,-7.408341407775879,17.65296173095703,1.6698099374771118,-0.8484604358673096,0.05955658480525017,727,738,746,40.522,1,0
1739303071.648354,-0.07768378619141246,1.0458109384564966,-0.38857424288723846,-1.454850560974785,1.5305856392531274,1.1780394669253973,1.3535807451193476,0.0003590550155510478,-0.0004164328076406045,0.00032595570587746987,-0.0002909599944734844,0.0001341826971327176,0.000540490369512346,6.0772213081064464e-05,0.09434870630502701,-50.59903335571289,-7.408341407775879,17.67676544189453,1.6698099374771118,-0.8484604358673096,0.03300629183650017,726,739,748,40.522,2,0
1739303071.6584597,-0.07768374808082057,1.0458100489933764,-0.3885716436406243,-1.4548523436504586,1.5305829973253857,1.1780349595165827,1.3535807842940923,0.0013125017223692634,-0.0007574219361325351,0.0006825992793697193,-0.0006364247702436653,-0.00010024952644373299,-0.0019589018528312413,0.0010034709963900165,0.09434870630502701,-50.62680435180664,-7.408341407775879,17.70056915283203,1.6560770273208618,-0.8484604358673096,0.03300629183650017,726,738,745,40.522,1,0
1739303071.668471,-0.07768483097993861,1.0458119563254118,-0.38857139553805126,-1.454848774626206,1.5305835499212925,1.1780394445538664,1.3535736198074848,0.00024115953830339677,-4.9218184361475077e-05,0.0006904521560663168,0.00040988681904686195,-0.0006260952787334545,0.0010139645341209794,-0.0019099859306519027,0.06657771021127701,-50.62680435180664,-7.408341407775879,17.65296173095703,1.6624857187271118,-0.8484604358673096,0.09343110024929047,726,741,746,40.522,0,0
1739303071.679389,-0.07768406410619258,1.0458128835195417,-0.38857320856359706,-1.4548474138712977,1.530586988426963,1.1780386602041457,1.3535807581302908,-0.00014079865138539395,0.0004903990350678402,-0.0005446513041312451,3.950591223569617e-05,0.0006013707967801875,-0.001710213582695993,-9.778768053917244e-05,0.09434870630502701,-50.62680435180664,-7.384537696838379,17.62519073486328,1.6624857187271118,-0.8548691272735596,0.03300629183650017,726,739,744,40.631,1,0
1739303071.689427,-0.07768177547732939,1.0458103668839196,-0.38857392472158947,-1.4548487870338744,1.5305841246704888,1.1780354667457744,1.353578359470416,0.00012846590543229053,-0.0021232192951697215,-0.00022925441937768538,0.00024410268428184137,-0.0009342034252247913,-0.0002909857644224578,0.0002548647966354165,0.06657771021127701,-50.62680435180664,-7.384537696838379,17.65296173095703,1.6826273202896118,-0.8420517444610596,0.05314789339900017,727,740,745,40.522,1,0
1739303071.7014215,-0.07768617868438515,1.0458119553460599,-0.38857423081672504,-1.4548505609734887,1.5305828494258225,1.178035892744737,1.3535799873881316,-0.001049612454232749,-0.0007378962377608177,-0.0004348231525726345,0.0002802659893591222,-0.0020996635370624933,0.00019619920791263913,0.0009521121205134976,0.11815241724252701,-50.62680435180664,-7.384537696838379,17.67676544189453,1.6698099374771118,-0.8548691272735596,0.03941498324275017,722,740,744,40.522,1,0
1739303071.7123806,-0.07768315293509927,1.0458100496452307,-0.3885732170021129,-1.4548505874643924,1.5305850030054202,1.1780383650951243,1.3535759841383466,-0.00032153777372065893,-0.000270273672342259,0.0007280057163599352,-0.00023295076170160725,0.0003290058156609232,-0.0007389588282468128,-0.00040243547091313556,0.04277399927377701,-50.62680435180664,-7.384537696838379,17.67676544189453,1.6762186288833618,-0.8420517444610596,0.07328949868679047,726,740,744,40.522,0,0
1739303071.7233467,-0.07768587802555443,1.0458109915317386,-0.3885762527011221,-1.4548533771248329,1.5305861085862864,1.1780362199609375,1.3535776649752718,-0.0005899398348191856,-0.0006306623296402719,-0.0010219870098313881,-0.002302800913843145,-0.00036145477209482133,-0.0008996726752303789,0.0014114108898611287,0.09434870630502701,-50.59903335571289,-7.384537696838379,17.70056915283203,1.6698099374771118,-0.8484604358673096,0.03300629183650017,726,740,744,40.631,1,0
1739303071.7344217,-0.07768174920106,1.0458115190628252,-0.38857147385768925,-1.454846708349356,1.530581362519084,1.178038566183034,1.353576755489185,0.001041328606829717,-5.475374776737926e-05,0.0005029374464939393,0.0014433059753275737,-0.0015829383594419344,-0.0008211946693961163,0.0012405425233498405,0.06657771021127701,-50.65060806274414,-7.408341407775879,17.65296173095703,1.6698099374771118,-0.8420517444610596,0.07969819009304047,726,741,744,40.522,1,0
1739303071.7445242,-0.07768553865578161,1.0458087661462399,-0.3885714677487776,-1.4548467783804349,1.5305822614321596,1.1780402365042113,1.3535791273310445,0.0006920269518743724,-0.0007653222676192355,0.00020290759398533835,0.0013630593330586326,-0.00047831806544516256,0.0005871166540643432,0.002477541800618914,0.11815241724252701,-50.59903335571289,-7.436112403869629,17.62519073486328,1.6890360116958618,-0.8548691272735596,0.04673920199275017,726,741,745,40.631,1,0
1739303071.7553456,-0.07768312377608076,1.045814622520459,-0.3885759791333665,-1.454852485982858,1.5305861175246755,1.1780387256012552,1.353575067969522,0.00037098371760445055,0.0007269374107712758,-0.0009458526368026436,-0.00028039221907241203,0.002232468865051067,-0.0005571488405976996,-0.0018863787322128047,0.04277399927377701,-50.65060806274414,-7.356766700744629,17.67676544189453,1.6698099374771118,-0.8420517444610596,0.07969819009304047,726,741,743,40.522,1,0
1739303071.7653804,-0.0776838922083359,1.0458108061112126,-0.3885760126138706,-1.4548530561043729,1.5305848376338125,1.1780383472246148,1.353575774392272,-0.00035255037426386207,-0.002162997855340245,0.0004343351604092923,-0.0008071938160967564,3.483330731126114e-05,-0.0004202981973050347,1.5371640562307975e-05,0.06657771021127701,-50.59903335571289,-7.384537696838379,17.70056915283203,1.6762186288833618,-0.8420517444610596,0.07969819009304047,726,740,745,40.522,1,0
1739303071.775383,-0.07768004003656968,1.0458142771712768,-0.3885753054207492,-1.4548510391308582,1.5305828576967766,1.178038961848941,1.353574661043061,0.0006514915676027142,-7.950542270631614e-05,0.00011580859209198732,-0.0004326107016480814,0.0009375451735791923,0.00032104667017244354,-7.444972281709533e-05,0.04277399927377701,-50.65060806274414,-7.384537696838379,17.67676544189453,1.6698099374771118,-0.8484604358673096,0.09343110024929047,726,740,745,40.522,1,0
1739303071.7854095,-0.0776854683956105,1.045814384112182,-0.38857739589130735,-1.454850560981537,1.5305858890185406,1.1780365206431187,1.3535815427631785,-0.00039017192615098113,-0.0009219756087854017,0.00014401554724037633,0.0007508958426859114,0.001144849811110803,-0.0010304915122470771,0.00012298145765478774,0.11815241724252701,-50.65060806274414,-7.356766700744629,17.67676544189453,1.6624857187271118,-0.8356430530548096,0.05314789339900017,727,740,744,40.522,1,0
1739303071.7964196,-0.07768240427333525,1.0458146225325722,-0.3885721079500944,-1.4548485487081593,1.5305831931838343,1.1780358972634537,1.3535803875287096,0.0007577888648594649,7.313967602907035e-06,4.194587270064174e-05,0.0007745415320459827,-0.0009824657472098893,-0.001588403258364695,0.00039309124943970666,0.04277399927377701,-50.65060806274414,-7.408341407775879,17.65296173095703,1.6624857187271118,-0.8548691272735596,0.03300629183650017,726,740,745,40.522,0,0
1739303071.8073575,-0.07768199762431711,1.0458128040520658,-0.38857534837060365,-1.4548505472369575,1.530588141642787,1.1780394828117198,1.3535823686766528,0.0008727347863795386,-0.0005963107002013336,-0.000459372089982368,0.0003662163745044901,0.0011070117413406206,-0.000500246266225084,0.00046893541584061,0.06657771021127701,-50.62680435180664,-7.356766700744629,17.67676544189453,1.6496683359146118,-0.8484604358673096,0.019273381680250168,726,742,746,40.522,1,0
1739303071.817486,-0.0776819859320749,1.0458165410028086,-0.3885760914481953,-1.4548506403410877,1.5305859601451053,1.1780383636133862,1.3535799873881573,0.0008982426610156999,0.00022445319566095304,-0.0009558688456521565,-0.0004792670873160536,0.0008696569716657616,0.0006759720213761172,-0.000538296828973779,0.06657771021127701,-50.67837905883789,-7.384537696838379,17.67676544189453,1.6698099374771118,-0.8420517444610596,0.03941498324275017,725,742,745,40.631,1,0
1739303071.8284419,-0.07768056411618231,1.045810885583624,-0.3885736039693329,-1.4548527067410992,1.5305846678647475,1.1780387271442845,1.3535814002389952,0.0009874238742958162,1.4797559283658869e-05,-0.00017514736892659268,-0.0005575506876770773,-0.0005005353016154018,0.0016154334670108132,0.0023709625192471313,0.018970288336277008,-50.59903335571289,-7.408341407775879,17.67676544189453,1.6698099374771118,-0.8420517444610596,0.03941498324275017,726,742,743,40.522,1,0
1739303071.8393862,-0.07768587800981094,1.04581291001543,-0.3885714415391846,-1.4548508986991806,1.5305854197341602,1.17804024230095,1.353582368629472,-0.00018184019534673977,0.0003716488577083711,0.00036726116977755336,0.0006815253087429246,0.0008113361511203716,0.0010503805745850352,0.0013343348884446136,0.09434870630502701,-50.62680435180664,-7.436112403869629,17.65296173095703,1.6624857187271118,-0.8548691272735596,0.019273381680250168,726,743,743,40.522,1,0
1739303071.8494568,-0.07768210300418976,1.045818332998194,-0.38857320562340975,-1.4548505639288483,1.530584261038,1.1780387269807924,1.3535736013417918,0.00011532299535412104,0.001872682180358651,-0.0004768802193293351,-0.0009313674917923679,-0.0002515424603710737,0.00012842511849526096,-0.0004163481298085684,0.06657771021127701,-50.70218276977539,-7.384537696838379,17.67676544189453,1.6762186288833618,-0.8420517444610596,0.09343110024929047,727,744,747,40.522,1,0
1739303071.8603723,-0.07768577834766652,1.0458146212284147,-0.3885696305512514,-1.4548526615419473,1.5305853793475555,1.1780401888304863,1.3535744672928585,-0.0007154307175499847,0.0003472490586144094,0.0013308399478131133,-0.001703716097182278,0.00015025896895007318,0.000636338790839346,-0.0005254591622682987,0.11815241724252701,-50.65060806274414,-7.436112403869629,17.70056915283203,1.6624857187271118,-0.8548691272735596,0.08610688149929047,728,743,747,40.522,1,0
1739303071.8703945,-0.0776818631637211,1.0458146215554562,-0.3885717457686678,-1.454848778298215,1.5305828493642821,1.1780349749121024,1.3535810455727353,0.000730629045050577,0.0014418471076215744,-0.0006926907175512094,0.0005437037612644835,-0.0010520808312679294,-0.001017359508581801,0.001029994704703951,0.06657771021127701,-50.65060806274414,-7.408341407775879,17.65296173095703,1.6698099374771118,-0.8484604358673096,0.03941498324275017,728,741,747,40.522,1,0
1739303071.880431,-0.07768246822458294,1.045816511570194,-0.3885735251858183,-1.4548488842602334,1.5305837256995685,1.1780385527529478,1.3535759826309364,0.0012408583714956347,0.0010916189271513131,0.001115522722501178,0.0006032209155166772,0.00012410568913498275,-0.00020252801419214686,-0.0015634448109255498,0.06657771021127701,-50.67837905883789,-7.408341407775879,17.65296173095703,1.6624857187271118,-0.8420517444610596,0.07328949868679047,727,742,746,40.631,1,0
1739303071.8913448,-0.0776817845697938,1.0458139062991114,-0.3885739693399284,-1.4548528254599657,1.53058720393398,1.1780383969657344,1.353581502708313,0.0006141403527177799,-0.0002559800547990499,-0.0006611487621626419,-0.00024469417104070596,-0.0001786673641042064,0.0004493562537811947,0.0005176994950123644,0.06657771021127701,-50.65060806274414,-7.384537696838379,17.67676544189453,1.6560770273208618,-0.8484604358673096,0.026597600430250168,727,742,747,40.631,1,0
1739303071.9014885,-0.07768374710642534,1.0458143487846303,-0.38857163161704067,-1.454851004665004,1.5305861754231735,1.1780369795911558,1.3535767307726785,-0.00024612599524690505,-0.00021359604321436192,0.00046161744217709127,0.00021571624394599472,-0.0003683047893291042,-0.00021614435940010943,-0.0005142535374168351,0.09434870630502701,-50.65060806274414,-7.408341407775879,17.65296173095703,1.6560770273208618,-0.8548691272735596,0.06596527993679047,726,744,747,40.522,1,0
