IITGN-Robotics/Franka_IITGN_ROBOTICS/franka_ros/franka_iitgn/data01/s_b_016.csv
time,fr3_joint1_pos,fr3_joint2_pos,fr3_joint3_pos,fr3_joint4_pos,fr3_joint5_pos,fr3_joint6_pos,fr3_joint7_pos,fr3_joint1_vel,fr3_joint2_vel,fr3_joint3_vel,fr3_joint4_vel,fr3_joint5_vel,fr3_joint6_vel,fr3_joint7_vel,fr3_joint1_eff,fr3_joint2_eff,fr3_joint3_eff,fr3_joint4_eff,fr3_joint5_eff,fr3_joint6_eff,fr3_joint7_eff,flexpin1,flexpin2,flexpin3,Force,ContactMic,ContactMic_gt
1739303731.867536,-0.06758348449160878,1.0447412102147748,-0.4014165581744243,-1.4689712817603886,1.5508708916059546,1.1722010905866176,1.3466402314260129,-0.0006894278337277922,6.707610716627976e-05,-0.0012664142021498134,-0.0004326716885938199,2.8322505698423787e-05,1.2935090483204151e-05,-0.0016435670930277635,-0.2825433909893036,-50.16659927368164,-7.690018653869629,17.05786895751953,1.6496683359146118,-1.2165024280548096,0.09343110024929047,,,,,,,,,
1739303731.8795555,-0.06757973239334446,1.0447450426659834,-0.4014165590024597,-1.4689701111860447,1.55087204935984,1.172199575266461,1.346644954110766,0.0007277472808894677,0.0006323467014983159,-0.00035923736262003436,0.0007452882668298971,0.0005491111605554849,0.00014526363455264493,0.002141530610785259,-0.3301508128643036,-50.21817398071289,-7.690018653869629,17.08167266845703,1.6368509531021118,-1.2036850452423096,0.026597600430250168,,,,,,,,,
1739303731.891514,-0.06758101735029363,1.044741492345511,-0.40141863135195965,-1.4689666248147926,1.5508762878565039,1.1721995752126257,1.346643530292939,-0.0007979229541477282,-0.0011186092429280815,-0.001119110904439443,6.156898909199062e-05,0.0008400850035871698,-0.0007773958366117941,0.001334890353197312,-0.2825433909893036,-50.19040298461914,-7.662247657775879,17.03406524658203,1.6368509531021118,-1.2036850452423096,0.03941498324275017,,,,,,,,,
1739303731.90346,-0.06757974401744049,1.0447411338281387,-0.40141656194588965,-1.4689662804325492,1.5508705340456403,1.17219688771037,1.3466370527269165,0.0007762597957529519,-0.0009266312296051674,-0.0009606252877271634,0.0005161427673656541,-0.0010125108027979391,-0.0009414332431241883,-0.002101114693759648,-0.3301508128643036,-50.16659927368164,-7.690018653869629,17.03406524658203,1.6496683359146118,-1.1899521350860596,0.09343110024929047,,,,,,,,,
1739303731.913517,-0.06758100539280834,1.044743558518407,-0.4014165590025142,-1.4689680593296894,1.550872050811372,1.172199457510872,1.346641174753165,-0.0006027235035042357,-0.00026572590697384035,-0.0011759846937904857,6.802918736533803e-05,-0.0015627246725060714,0.000470838197164006,-0.0017873047887734359,-0.2825433909893036,-50.19040298461914,-7.690018653869629,17.05786895751953,1.6368509531021118,-1.2036850452423096,0.05955658480525017,,,,,,,,,
1739303731.9244823,-0.06758040450332797,1.0447428697549166,-0.40141863901136193,-1.4689698202761252,1.5508705398518685,1.1721981622538944,1.3466443141171422,-0.0008150704330185161,-0.0005141841005950448,-0.0018916352257875436,-0.0015356602224758109,-0.0008373102236312653,0.0006193604558591436,0.002787706551783489,-0.2825433909893036,-50.19040298461914,-7.662247657775879,17.08167266845703,1.6496683359146118,-1.2036850452423096,0.03300629183650017,,,,,,,,,
1739303731.9345567,-0.06757679167049555,1.0447448676948725,-0.4014147763254491,-1.4689650015117555,1.5508737521980083,1.1721995224302058,1.3466429012663041,0.0010312537728144834,4.2821454838728654e-05,-1.4482428192620482e-05,-2.1878920639868834e-05,-0.0008289541431535254,-0.0005776114129612944,-0.0008126655163636796,-0.3301508128643036,-50.21817398071289,-7.713822364807129,17.05786895751953,1.6496683359146118,-1.2036850452423096,0.03300629183650017,,,,,,,,,
1739303731.945549,-0.06757858310990232,1.0447449978966354,-0.401417930159321,-1.4689673729271382,1.5508723513540392,1.1721988130839278,1.3466411351947798,1.4639137961910552e-05,0.0006284385680456766,0.0008083553899712775,-0.0014744171168549491,0.0006048185355515736,-6.079702123925793e-05,0.00017818999049800375,-0.3063471019268036,-50.19040298461914,-7.662247657775879,17.05786895751953,1.6432596445083618,-1.1972763538360596,0.03300629183650017,,,,,,,,,
1739303731.9564936,-0.06757515810488772,1.0447429581052499,-0.401412993644426,-1.4689634190955034,1.550875544791745,1.1721988132457062,1.3466459376565088,0.0002628306475450776,-0.0005145045730672163,0.0008996845302342894,-0.0006904037197225025,0.00016556872458689894,0.00029681142803948706,0.0019022300400438202,-0.3539545238018036,-50.19040298461914,-7.737626075744629,17.03406524658203,1.6432596445083618,-1.1972763538360596,0.019273381680250168,,,,,,,,,
1739303731.9665115,-0.06757857975431289,1.0447430905134591,-0.40141432768877344,-1.4689649654883619,1.5508732704120547,1.1721975984963664,1.3466443126635927,-0.0001640566135476235,0.0005608879400044154,-0.0003195386463985583,0.00011473659118951366,0.0007321197264213408,-4.4348983201865995e-05,0.0009716652305108257,-0.3063471019268036,-50.19040298461914,-7.690018653869629,17.05786895751953,1.6368509531021118,-1.1899521350860596,0.03300629183650017,,,,,,,,,
1739303731.9765124,-0.06757687058955979,1.044744990451228,-0.40141466255643576,-1.4689613987332992,1.550871291718422,1.1721985156223498,1.3466447179184646,0.0006078644115000629,0.00043445733934497775,-0.00010115782578998635,0.0008036064511875103,-0.0006665491700064589,-0.0005055517072399804,0.0016990437493709914,-0.3301508128643036,-50.19040298461914,-7.713822364807129,17.01026153564453,1.6432596445083618,-1.2036850452423096,0.026597600430250168,,,,,,,,,
1739303731.987449,-0.06758033062530117,1.0447460576557523,-0.40141190388239983,-1.46896499768047,1.5508712916977434,1.1722001623706617,1.3466362550279691,-0.00034436668300932605,-2.4973275811500015e-05,0.001746759655374902,-0.00013724402908847535,-0.0006979528220646035,0.0005975806227588771,-0.0003470739072541865,-0.2825433909893036,-50.19040298461914,-7.713822364807129,17.05786895751953,1.6432596445083618,-1.2100937366485596,0.07328949868679047,,,,,,,,,
1739303731.9975865,-0.06758029563167163,1.0447418464881248,-0.4014167940241858,-1.468965193256229,1.5508715951293446,1.1721995738100222,1.3466442615719996,-0.0008628227060400965,-0.000757269396948401,-0.0006606287762508983,0.00013360426210178096,5.566777551104504e-05,0.001312197212604964,0.0015923342748618017,-0.2825433909893036,-50.16659927368164,-7.690018653869629,17.05786895751953,1.6496683359146118,-1.2036850452423096,0.03300629183650017,,,,,,,,,
1739303732.0085363,-0.06758029563107901,1.044744071241736,-0.40141863879364664,-1.4689649514588656,1.5508690376196512,1.172201050856236,1.34664669517262,-0.0007835885944386964,0.0010985018700105159,-0.001700680556635642,0.0002891095544394455,-0.0026489295298045986,0.00014061681268418675,0.0008872388185267698,-0.2825433909893036,-50.16659927368164,-7.662247657775879,17.05786895751953,1.6624857187271118,-1.2165024280548096,0.012864691205322742,,,,,,,,,
1739303732.0195255,-0.06758021667402775,1.044741130867502,-0.40141477632544537,-1.4689652473896349,1.550870586527086,1.172199522453911,1.3466387548298238,-0.0003163602629512641,-0.0009319973954490912,0.0004504685438576165,0.0002634392410641741,0.00045604086140409373,-0.00024384581740820007,-0.000996248644970691,-0.2825433909893036,-50.16659927368164,-7.713822364807129,17.03406524658203,1.6496683359146118,-1.2036850452423096,0.07969819009304047,,,,,,,,,
1739303732.0296686,-0.06758029562974185,1.0447449471672858,-0.40141655889445754,-1.46896219202978,1.55087293057056,1.1721981488482582,1.3466387940211824,-0.0007538464828856721,0.0006889420201536859,-0.0004656739986330378,0.0007691201897359217,0.0006756697067592887,-0.001172100644565774,-8.393687524802711e-05,-0.2825433909893036,-50.21817398071289,-7.690018653869629,17.03406524658203,1.6304422616958618,-1.2036850452423096,0.07969819009304047,,,,,,,,,
1739303732.0405607,-0.0675815745142524,1.0447487025444675,-0.4014165041447669,-1.4689649636618092,1.550871004988642,1.1721995752584087,1.3466411706636843,-0.0013967631425249097,0.0022501387510438548,6.61564504859896e-05,0.0007036365444768653,0.000663087346870747,-0.0002555953407508467,0.0005544066858650459,-0.2547723948955536,-50.24197769165039,-7.662247657775879,17.05786895751953,1.6496683359146118,-1.2036850452423096,0.05955658480525017,,,,,,,,,
1739303732.0515194,-0.06757834591035734,1.0447495305708971,-0.4014158503574153,-1.468966641869141,1.5508718923770535,1.1721998212768525,1.3466404169331088,0.0008154332954976072,0.0017456484721438935,-0.0023228211881239956,0.00012163635240379262,-0.0006487496478868866,-6.452548140033639e-05,-0.0003639494927897862,-0.3063471019268036,-50.24197769165039,-7.690018653869629,17.08167266845703,1.6368509531021118,-1.2100937366485596,0.06596527993679047,,,,,,,,,
1739303732.062473,-0.06757679119818953,1.044745262786484,-0.40141228501142695,-1.4689648446210368,1.550871296057508,1.1721963379918339,1.3466459374591093,0.0007569424094656196,0.0005176631672765366,0.0012081847825919656,-7.988759152586532e-05,-0.0014089706401717752,-0.0008490211694085305,0.0018076435559231025,-0.3301508128643036,-50.19040298461914,-7.737626075744629,17.05786895751953,1.6432596445083618,-1.2036850452423096,0.019273381680250168,,,,,,,,,
1739303732.07347,-0.06758028393863605,1.0447392388148433,-0.4014157927005993,-1.468966746004577,1.5508705340376896,1.1721984643215628,1.3466459362209025,-0.000947553256698752,-0.0010945718210452638,0.0007187608856572485,-0.0004014067871269143,-0.000630241239519375,0.0007637112242361494,0.0022486722084174094,-0.2825433909893036,-50.13882827758789,-7.662247657775879,17.08167266845703,1.6496683359146118,-1.1972763538360596,0.019273381680250168,,,,,,,,,
1739303732.0834782,-0.0675802839388862,1.0447412370345435,-0.4014129936002275,-1.4689688261342608,1.5508706517752349,1.1721999404619898,1.346631820393183,-0.0014914648606918824,-0.0015867263581708878,0.0005107062406337248,-0.00043930672039861797,0.00016080237790489828,0.0014253469276604405,-0.003843661182416228,-0.2825433909893036,-50.16659927368164,-7.737626075744629,17.10944366455078,1.6496683359146118,-1.2100937366485596,0.09983979165554047,,,,,,,,,
1739303732.0935175,-0.06757857141815503,1.0447450796238498,-0.4014129936484255,-1.4689669759326722,1.550871684804326,1.1721994570377279,1.3466371703867628,-0.0005238106175340833,0.0010150502224510992,0.0012855499251820143,-0.0006309075707724585,-0.00028430480113673197,0.00034555223798828235,-0.0024103070605300545,-0.3063471019268036,-50.21817398071289,-7.737626075744629,17.08167266845703,1.6432596445083618,-1.2036850452423096,0.09343110024929047,,,,,,,,,
1739303732.103535,-0.06758025730712029,1.0447412488105428,-0.4014129933244057,-1.4689631799767757,1.5508763053595993,1.1722002762360773,1.3466426905598312,-0.00018344187598498584,-0.0007323280815688974,0.0008121231743534096,-0.0004541448720625643,-0.0004323101276897063,-0.0002502297437860931,0.0021595224454562393,-0.2825433909893036,-50.16659927368164,-7.737626075744629,17.03406524658203,1.6368509531021118,-1.2100937366485596,0.04673920199275017,,,,,,,,,
1739303732.1144745,-0.06757679134365781,1.0447413179237846,-0.40141866528327136,-1.4689631535182675,1.5508712922062853,1.1721956386378392,1.346637918624198,0.00029468074085627473,-0.0004915917730242406,-0.0021828467354275995,0.00107565192191575,-0.0005683636258618029,-1.0664983711440828e-06,-0.0002642736070759691,-0.3301508128643036,-50.13882827758789,-7.662247657775879,17.03406524658203,1.6432596445083618,-1.1972763538360596,0.08610688149929047,,,,,,,,,
1739303732.12453,-0.0675785479247622,1.0447429492634357,-0.4014129936488749,-1.4689648812506275,1.550871179774383,1.1722010898867592,1.3466372381782583,-0.00027089392399626006,0.00017711947850225095,0.0006501342189623174,-0.0002691736939321924,-0.0006246522736798128,0.00011516183233256931,-0.001313137277025397,-0.3063471019268036,-50.19040298461914,-7.737626075744629,17.05786895751953,1.6432596445083618,-1.2165024280548096,0.06596527993679047,,,,,,,,,
1739303732.135486,-0.0675795589269493,1.0447458743512452,-0.4014165502539089,-1.4689631796332607,1.5508712786151593,1.1721978984287678,1.3466456452655984,-0.0017940726951132977,0.0011005372332395106,0.0003645134263905532,0.0009725203532402012,-0.0012855022479895273,0.0006535380147639311,0.0012945921649569047,-0.2825433909893036,-50.21817398071289,-7.690018653869629,17.03406524658203,1.6432596445083618,-1.2165024280548096,0.026597600430250168,,,,,,,,,
1739303732.1464543,-0.06757933879592679,1.0447428433047883,-0.4014129936483769,-1.468968826096574,1.5508717005595238,1.1722003285478684,1.3466371690142227,-0.0005501952438867472,-0.0005995524718845067,0.0007777330364378525,-0.0015844452246852473,-0.0007656370634849624,0.0006332628898446717,-0.0007645621740193717,-0.2825433909893036,-50.19040298461914,-7.737626075744629,17.10944366455078,1.6368509531021118,-1.2100937366485596,0.09343110024929047,,,,,,,,,
1739303732.1564856,-0.06757792701159678,1.044743991344922,-0.40141665621772177,-1.4689639746718037,1.5508712923378587,1.1722009329570944,1.3466393179045228,0.0008194274184181543,-0.00048554323000669843,-0.0008000277830809401,0.0008611165182722237,0.0002482244209401597,-0.0006462807603005384,-0.001075244972439784,-0.2825433909893036,-50.16659927368164,-7.690018653869629,17.05786895751953,1.6432596445083618,-1.2165024280548096,0.03941498324275017,,,,,,,,,
1739303732.166535,-0.06758157014377118,1.0447411435452345,-0.4014126504280947,-1.4689660059456937,1.5508713062332566,1.1721985025437098,1.3466380493719399,-0.0015843584929139728,-0.002179863780530886,0.0005437034988501753,9.756260230043504e-05,-0.00039327912188292635,-0.0003317078518621087,-0.0008192393381308107,-0.2547723948955536,-50.16659927368164,-7.713822364807129,17.08167266845703,1.6432596445083618,-1.2036850452423096,0.08610688149929047,,,,,,,,,
1739303732.177526,-0.06757613330857763,1.044745079622122,-0.4014147763134446,-1.4689644844706933,1.550873108996033,1.1722003285598328,1.346637879797129,-0.0007437326116534542,0.0013411647887205046,-0.0002743001828054868,-0.0006716896741965587,5.6652613814122806e-05,0.0009273012554980413,-6.226497163533732e-05,-0.3063471019268036,-50.21817398071289,-7.713822364807129,17.08167266845703,1.6368509531021118,-1.2100937366485596,0.09343110024929047,,,,,,,,,
1739303732.188517,-0.06757822894455294,1.0447428809109147,-0.40141653275679773,-1.4689649636169388,1.550874907776337,1.172198815991302,1.3466387940258502,-4.506396870494945e-05,-0.0010055851882126148,-0.000308690583826284,6.438187585656787e-05,0.0016870667439982416,0.00012303415791526024,0.0005065913842777055,-0.3063471019268036,-50.19040298461914,-7.690018653869629,17.05786895751953,1.6496683359146118,-1.1972763538360596,0.07969819009304047,,,,,,,,,
1739303732.199514,-0.0675817656662917,1.0447428433718462,-0.4014187182650315,-1.468965665435996,1.5508712791249977,1.1721981488491438,1.3466425727684272,-0.0021237465161212028,-0.0012226572480487524,-0.0011839889012247185,-6.911773962464814e-05,-0.0010477572263463423,-0.0008655430993317104,0.002068967453114561,-0.2309686839580536,-50.19040298461914,-7.662247657775879,17.08167266845703,1.6432596445083618,-1.2036850452423096,0.04673920199275017,,,,,,,,,
1739303732.2104495,-0.06757368602401767,1.044744311000809,-0.40141687689435185,-1.4689627109491186,1.5508712806076224,1.1721995750969032,1.346641932899089,0.000383894743227451,-0.00022109435837121863,-0.0010313097679964301,0.00010182759092709098,-0.0016012576571038685,0.0006610345557155059,0.0016737569291051858,-0.3301508128643036,-50.16659927368164,-7.690018653869629,17.05786895751953,1.6432596445083618,-1.2036850452423096,0.05314789339900017,,,,,,,,,
1739303732.2205603,-0.06757712693830044,1.044743559880408,-0.4014150942222677,-1.4689613708031042,1.550874749995677,1.172199575266458,1.3466404154795844,0.00022797327323227916,0.0005119537985160778,-0.00010596755694573806,0.000518336452815003,0.0013535105964452509,-0.00013998973066717214,-0.000608213872700655,-0.2825433909893036,-50.19040298461914,-7.713822364807129,17.01026153564453,1.6231180429458618,-1.2036850452423096,0.06596527993679047,,,,,,,,,
1739303732.2315052,-0.06757711102415355,1.0447450898736244,-0.40141477535517817,-1.4689629337413206,1.5508744706182116,1.17219880452443,1.3466358851657059,-0.0004030462606423804,0.00027679496312868316,-0.00021966757741845885,-4.063151873839844e-06,0.0001270987437832549,0.00047435269038559693,-0.0022164670066277792,-0.2825433909893036,-50.21817398071289,-7.713822364807129,17.03406524658203,1.6432596445083618,-1.1972763538360596,0.09983979165554047,,,,,,,,,
1739303732.2415373,-0.06757325886881374,1.044743562782623,-0.40141863879227063,-1.4689667002839866,1.550871333043173,1.172198765277909,1.3466377212749576,0.00029085113910288704,0.00021555745579597728,-0.0014413710061446964,-0.0003811311614160658,-0.000256731106899744,-0.0010795446322769103,-0.0012659791030503846,-0.3063471019268036,-50.19040298461914,-7.662247657775879,17.05786895751953,1.6432596445083618,-1.1972763538360596,0.07969819009304047,,,,,,,,,
1739303732.251574,-0.06757710812507312,1.0447449983366128,-0.40141655900246437,-1.4689663857122475,1.550871293151527,1.1722000309481928,1.3466466807390287,0.0005957731837847257,0.0005546510090182511,-0.0003409986548715538,-0.0003862616269657475,-0.001046977053469662,0.000881581321275339,0.0019990667535064012,-0.2825433909893036,-50.19040298461914,-7.690018653869629,17.08167266845703,1.6432596445083618,-1.2165024280548096,0.012864691205322742,,,,,,,,,
1739303732.262548,-0.06758081271663552,1.0447433123149386,-0.40141419689246777,-1.4689629325712166,1.550876641123057,1.1721992687064364,1.346637170464453,-0.0018981926465208507,-0.000249820784109535,-7.721044231513339e-06,0.0008876048510230475,0.002178169069168142,-0.00036102512883006956,-0.0011230245498559718,-0.2309686839580536,-50.16659927368164,-7.690018653869629,17.03406524658203,1.6368509531021118,-1.2100937366485596,0.09343110024929047,,,,,,,,,
1739303732.2725575,-0.06757538681132125,1.0447471229350846,-0.4014165238602328,-1.4689647164142878,1.5508720495970891,1.1721970357720417,1.3466387925682959,-0.00016091074267553555,0.0006262760578850893,0.0001577984776730759,-0.00038087073427686864,0.00017132558953586251,-0.00010130763467983134,0.0006690567669719765,-0.3063471019268036,-50.24197769165039,-7.690018653869629,17.05786895751953,1.6368509531021118,-1.2100937366485596,0.07969819009304047,,,,,,,,,
1739303732.2835457,-0.06757251934954916,1.044741131726246,-0.40141871826498127,-1.4689629201736114,1.5508762879103406,1.1722003326925858,1.3466368167673008,0.0006093495077044732,-0.0016117823926578485,-0.000982557735104936,-0.00013815967357586458,0.001214260679431711,0.0003221885081229527,-0.0019404155173576806,-0.3063471019268036,-50.16659927368164,-7.662247657775879,17.03406524658203,1.6368509531021118,-1.2100937366485596,0.09343110024929047,,,,,,,,,
1739303732.2935526,-0.0675770992834422,1.0447477287173899,-0.4014148557996509,-1.468964716301024,1.550876288466636,1.1722002762380754,1.3466418936479074,-0.00020653473267180316,0.0007774619833364953,6.826991803868876e-05,0.0009358676688996738,0.0033423088252822726,0.0006074185075264033,0.00025624811454110906,-0.2825433909893036,-50.21817398071289,-7.713822364807129,17.05786895751953,1.6368509531021118,-1.2100937366485596,0.05314789339900017,,,,,,,,,
1739303732.303602,-0.06757536061254185,1.04474581029828,-0.40141477632679123,-1.4689648676804348,1.5508712912850162,1.1721988001628194,1.3466356551437142,-0.000280001127214943,0.0012108148318661508,-0.00021038140690191444,-4.216425887048196e-05,9.729228350370198e-05,-0.0005412562982128469,-0.0012299259620018705,-0.3063471019268036,-50.19040298461914,-7.713822364807129,17.05786895751953,1.6432596445083618,-1.1972763538360596,0.10624848306179047,,,,,,,,,
1739303732.3145182,-0.06757528190794836,1.0447411351192863,-0.40141655857043695,-1.4689582471110698,1.5508746275955558,1.1721955149786194,1.3466419328997539,0.001872391345949719,-0.0025045150422600007,6.07874300108605e-07,0.0021009708784835114,-0.0010191771141817867,-0.00042889249104973093,0.00047839623788661673,-0.3063471019268036,-50.16659927368164,-7.690018653869629,16.98249053955078,1.6432596445083618,-1.1972763538360596,0.05314789339900017,,,,,,,,,
1739303732.3255117,-0.06757538681067955,1.0447468716156654,-0.4014147676859036,-1.468959174176239,1.5508720493766528,1.1721984763638313,1.346638322910061,0.0002305921291856345,0.0013479014794322364,-0.0010067668419849961,0.0004212864825567154,-0.0005572218440182066,-5.3575310483560995e-05,-0.0018466759815879796,-0.3063471019268036,-50.24197769165039,-7.713822364807129,17.01026153564453,1.6368509531021118,-1.2036850452423096,0.07969819009304047,,,,,,,,,
1739303732.335522,-0.06757580515659126,1.0447450184696054,-0.4014179214106191,-1.4689602138528908,1.5508705534183351,1.172199086854968,1.3466371704565572,0.0004172199459111745,-0.001235501450297547,-0.00032205994973633003,0.0013672913540228786,0.0004932122302631726,-0.0001880756716149723,-0.0029128667785844687,-0.3301508128643036,-50.19040298461914,-7.662247657775879,17.03406524658203,1.6496683359146118,-1.2036850452423096,0.09343110024929047,,,,,,,,,
1739303732.3455472,-0.06757536054036986,1.044744990374862,-0.4014141446342722,-1.4689624117213338,1.550872351336201,1.1722003308186952,1.3466356333411251,0.0003433624318595642,-0.00017958649241605126,0.0010809339293404597,0.0009722584559469661,-0.0007629309864303969,0.00016241097531330325,-0.002101558695477433,-0.3063471019268036,-50.19040298461914,-7.690018653869629,17.03406524658203,1.6432596445083618,-1.2100937366485596,0.10624848306179047,,,,,,,,,
1739303732.3564477,-0.06757609709980701,1.0447435237701157,-0.4014145401008165,-1.46896396449261,1.5508752282781915,1.1721992220537392,1.3466380357156225,-0.0008523654183555354,-0.00010446771681167926,-7.612460698048884e-05,0.000277685949735664,0.0004752773119607971,-0.0004338514125125925,0.0008869085565719294,-0.3063471019268036,-50.16659927368164,-7.713822364807129,17.05786895751953,1.6368509531021118,-1.2036850452423096,0.08610688149929047,,,,,,,,,
1739303732.3674934,-0.06757728969545283,1.0447438078064095,-0.4014147792648841,-1.4689628238361563,1.5508740662185982,1.1721988176004006,1.3466363727675257,0.0003967261342988568,0.00048360074593510496,0.0007456066843653097,0.0006479590633247335,0.000444070972495322,0.0002032233976705027,0.0003063693567093528,-0.3063471019268036,-50.19040298461914,-7.713822364807129,17.03406524658203,1.6496683359146118,-1.1972763538360596,0.07328949868679047,,,,,,,,,
1739303732.3775058,-0.06757363922529801,1.0447419258029773,-0.401418638468316,-1.4689641910979654,1.5508712917176826,1.1721998617609184,1.3466426905418873,0.0012089181981580809,-0.00039671748519044044,-0.0010454569992705972,-0.000646203841562479,2.256865918186352e-05,-0.0002786908649993562,0.00046701302611592936,-0.3301508128643036,-50.16659927368164,-7.662247657775879,17.08167266845703,1.6432596445083618,-1.2100937366485596,0.04673920199275017,,,,,,,,,
1739303732.3875303,-0.06757741501526845,1.0447432768496117,-0.4014186037980923,-1.4689611509081297,1.5508713571075048,1.172199518570022,1.346645424989931,-0.00036331602460329296,-0.0008356041666272635,-0.0010523736725838143,0.0007494399711362286,-0.0010386296643030762,0.0004771308106686186,0.001372449729178822,-0.2825433909893036,-50.16659927368164,-7.662247657775879,17.01026153564453,1.6432596445083618,-1.2036850452423096,0.026597600430250168,,,,,,,,,
1739303732.3984735,-0.06757367429232258,1.0447450806516498,-0.40141655900226686,-1.4689664977374706,1.5508740043249576,1.1721999622709063,1.3466450543366124,0.0002160297877297997,0.0004987884187378677,0.0006171632975820633,-0.001178570280588178,0.0010041703571511036,0.00024927017176127903,0.0019260692541388379,-0.3301508128643036,-50.21817398071289,-7.690018653869629,17.08167266845703,1.6231180429458618,-1.2100937366485596,0.026597600430250168,,,,,,,,,
1739303732.40857,-0.06757712466465833,1.0447428550404296,-0.40141469769746174,-1.4689646879247,1.550872049363434,1.1721998445273794,1.3466425721759447,5.2431934473117254e-05,0.0001837085211066659,0.00038515391635079836,-0.00021118758018976873,0.0006461522211515443,-0.000822537977217197,0.0005268621802958182,-0.2825433909893036,-50.19040298461914,-7.713822364807129,17.05786895751953,1.6368509531021118,-1.2100937366485596,0.04673920199275017,,,,,,,,,
1739303732.4194698,-0.06757538681170075,1.0447448540675899,-0.4014186374949061,-1.4689676240957372,1.5508720716455922,1.1722003140221149,1.3466371685244636,0.0007280855128914876,-0.0003482487411330607,-0.000732130312107801,-0.0012949487638834606,0.00025073849721566824,0.0005412471480938016,-0.000396788859770452,-0.3063471019268036,-50.21817398071289,-7.662247657775879,17.05786895751953,1.6368509531021118,-1.2100937366485596,0.09343110024929047,,,,,,,,,
1739303732.4304824,-0.06757506235841627,1.044742843371658,-0.40141265042644597,-1.4689658590394565,1.5508712936537974,1.1721956255561712,1.3466419328818053,0.0005339663544772194,-0.0009459897224315502,0.00149364337425893,-0.0013785788664214386,-0.0007610684085049435,-0.0013353095013621705,-0.000899660509187042,-0.3063471019268036,-50.19040298461914,-7.713822364807129,17.10944366455078,1.6432596445083618,-1.1972763538360596,0.05314789339900017,,,,,,,,,
1739303732.4405189,-0.0675763890378247,1.0447473079145788,-0.4014147792328823,-1.4689631687303026,1.5508759901314664,1.1721988130301684,1.3466419328997536,-0.0006004580356011388,0.0004596397559168536,0.0006043920018832822,-0.0012894476628251554,0.0014312045194569004,0.00015668973891175275,-0.00042747760340287443,-0.2825433909893036,-50.21817398071289,-7.713822364807129,17.03406524658203,1.6304422616958618,-1.1972763538360596,0.05314789339900017,,,,,,,,,
1739303732.451553,-0.06757780958059045,1.0447413696104553,-0.4014165080693695,-1.4689658901870961,1.5508705355091839,1.172200332280491,1.346639315804975,-0.0006258507443049971,8.652595280760663e-06,-0.00041985056744289843,-0.0011641426010846434,-0.00045018290322149617,0.0009645523362309513,-0.0007991726270808815,-0.2825433909893036,-50.16659927368164,-7.662247657775879,17.08167266845703,1.6496683359146118,-1.2100937366485596,0.03941498324275017,,,,,,,,,
1739303732.461596,-0.06757538682329986,1.0447451851699936,-0.4014164530116522,-1.4689624809890724,1.5508768532830957,1.1722003322805057,1.3466431900905869,0.0001313105787849868,-0.0004926938054915843,0.0012537289473388764,0.0002201745382606239,0.0026254673913464798,0.0018361164446379626,0.0011271053817383816,-0.3063471019268036,-50.21817398071289,-7.690018653869629,17.05786895751953,1.6231180429458618,-1.2100937366485596,0.03941498324275017,,,,,,,,,
1739303732.4724765,-0.06757562357416634,1.0447412465191053,-0.4014144331028691,-1.468961278914412,1.550875228290163,1.1721986688477872,1.3466419328976857,0.00038698725657915895,-0.00038382784746054916,-0.00030440835706240795,-0.00012716062531053433,-8.719685195081133e-05,9.046750820598695e-05,0.0013575295592458238,-0.3063471019268036,-50.16659927368164,-7.690018653869629,17.01026153564453,1.6368509531021118,-1.2229111194610596,0.05314789339900017,,,,,,,,,
1739303732.4834492,-0.06757367429187708,1.044745105168849,-0.40141778531723,-1.4689617484135735,1.5508705341094453,1.1721986809008762,1.3466447185645116,0.0006575945553625772,-0.0007590052552457742,-0.0019599031319292464,0.0009181261197230843,-0.0007819518638491774,-0.0008167820509410912,0.002316968931979505,-0.3301508128643036,-50.21817398071289,-7.713822364807129,17.05786895751953,1.6496683359146118,-1.1972763538360596,0.026597600430250168,,,,,,,,,
1739303732.4935749,-0.067579097272856,1.044741380938693,-0.4014165323757279,-1.4689631809359223,1.5508720498423396,1.1721983450387317,1.3466463421157306,-0.0014025508317575914,-0.0010030150131539594,-0.0005696969227356206,-0.0002248869257109533,-0.00029082572601557116,-0.00026532962412840425,0.0018786634664797824,-0.2547723948955536,-50.16659927368164,-7.690018653869629,17.03406524658203,1.6368509531021118,-1.1972763538360596,0.012864691205322742,,,,,,,,,
1739303732.5044866,-0.06757367457923177,1.044742856055272,-0.4014165547900466,-1.4689616353226547,1.5508720624397765,1.1721995354795844,1.3466419401655112,0.0009589105000243529,0.0002468276982979603,-0.0003122028659796793,0.0013041756864677451,-0.00028477453889225846,0.0010946862040448117,0.00012110091171773144,-0.3301508128643036,-50.19040298461914,-7.690018653869629,17.05786895751953,1.6368509531021118,-1.2036850452423096,0.05314789339900017,,,,,,,,,
1739303732.5144863,-0.06757444852869463,1.044739136834852,-0.40141477632537403,-1.4689621551958996,1.5508713049414227,1.172199457528217,1.3466435356977455,-0.00044194992951120495,-0.001081840112370028,9.680988138496989e-05,0.0005714463690350908,0.00016866554826870021,0.0012371651646821509,0.002027679842232913,-0.3063471019268036,-50.13882827758789,-7.713822364807129,17.03406524658203,1.6432596445083618,-1.2036850452423096,0.026597600430250168,,,,,,,,,
1739303732.5245187,-0.0675749684500623,1.0447449298337652,-0.4014186387923199,-1.4689656429208966,1.5508714225174898,1.1721995169609516,1.3466434327177745,-0.00015298445867978545,0.0015381837113926703,0.0002319866155839961,-0.0014417142262164273,0.0003700116623763011,0.001949525051665649,0.002649683844590691,-0.2825433909893036,-50.21817398071289,-7.662247657775879,17.08167266845703,1.6432596445083618,-1.2036850452423096,0.03941498324275017,,,,,,,,,
1739303732.5346293,-0.0675707541065814,1.044744853962877,-0.4014157759343756,-1.4689600918493302,1.5508705340443112,1.1721991028596686,1.3466380363554813,0.0015216605904778734,0.0007544167074793058,-0.0006439964599863013,0.0009888868272904282,-0.00025934669426759397,3.2064423173141084e-05,-1.44266770198434e-05,-0.3301508128643036,-50.21817398071289,-7.737626075744629,17.03406524658203,1.6496683359146118,-1.2036850452423096,0.08610688149929047,,,,,,,,,
1739303732.5455358,-0.06757328224671445,1.0447428433837707,-0.4014147763670195,-1.468961639487275,1.5508720887651837,1.1721985136714304,1.3466426905598323,0.000970854471276426,0.00034057902933721726,0.00017510061232061378,-0.001092676432741841,0.00046341620199757293,-0.00040421475838542826,0.0013646108672960566,-0.3063471019268036,-50.19040298461914,-7.713822364807129,17.05786895751953,1.6368509531021118,-1.2036850452423096,0.04673920199275017,,,,,,,,,
1739303732.5564528,-0.06757734391376671,1.0447448455641222,-0.4014138344248862,-1.4689642183595804,1.5508728070181224,1.1721984469450768,1.346640833655368,-0.0007332508998391986,0.0005715893221618644,0.0002834966518538808,-0.0006070653983388136,0.0013949626329438527,-0.00034218343626019206,-6.327554210683244e-05,-0.2825433909893036,-50.21817398071289,-7.713822364807129,17.05786895751953,1.6304422616958618,-1.1972763538360596,0.05955658480525017,,,,,,,,,
1739303732.5665188,-0.06757720456409806,1.0447466685184064,-0.40141086773347817,-1.4689656469955874,1.5508722063412481,1.1721998550626311,1.3466387919164888,-0.0014341219235424185,0.0007246091096491719,0.001887481512910861,-0.0006502818997049395,0.0014995585402684628,-0.0013388293077370697,-3.003005654271323e-05,-0.2825433909893036,-50.24197769165039,-7.737626075744629,17.08167266845703,1.6368509531021118,-1.2165024280548096,0.07969819009304047,,,,,,,,,
1739303732.576637,-0.06757357740032878,1.0447469962390095,-0.40141091382256816,-1.4689617402557484,1.55087240257319,1.1721966437950908,1.3466404175791213,0.0011163407929716232,0.0008699876691807258,0.0018399217914442463,-0.0003959563192448991,0.0004733147557747226,-0.0002274875189724007,-0.0005848549924230941,-0.3301508128643036,-50.21817398071289,-7.765397071838379,17.05786895751953,1.6368509531021118,-1.2100937366485596,0.06596527993679047,,,,,,,,,
1739303732.587546,-0.06757542203105478,1.0447484712235129,-0.40141863879231976,-1.4689616302170327,1.550871291915078,1.1721994572927248,1.3466363727675366,0.000432194120194195,0.0009528796189383249,0.0001662697731711131,-0.00016551892238354638,-0.0006143871402378741,-0.0008387897529841303,-0.0002052300039261496,-0.3063471019268036,-50.24197769165039,-7.662247657775879,17.05786895751953,1.6432596445083618,-1.2036850452423096,0.07328949868679047,,,,,,,,,
1739303732.5975718,-0.06757709900782174,1.044744876666231,-0.40141663880237294,-1.468962701289186,1.5508712931512973,1.1721988176043845,1.3466390800317873,-0.0005536885526504515,0.00048577472115275927,-0.0005756651334530115,-0.0012861142332394305,-0.00027072985534029207,0.0009311334633576118,-0.001393160402663338,-0.2825433909893036,-50.21817398071289,-7.690018653869629,17.05786895751953,1.6432596445083618,-1.1972763538360596,0.07328949868679047,,,,,,,,,
1739303732.6075928,-0.06757709933199743,1.0447435585189553,-0.40141469758979686,-1.4689588022181501,1.5508728070179247,1.1722002805987302,1.3466387940138587,-0.00018702912748796692,0.0001188654176461495,0.0012705642535921075,0.0011044588307270006,7.909805834505496e-05,0.0019993644643048567,-0.00031599685318541926,-0.2825433909893036,-50.19040298461914,-7.713822364807129,17.01026153564453,1.6304422616958618,-1.2100937366485596,0.07969819009304047,,,,,,,,,
1739303732.6185071,-0.06757709933200293,1.0447411585450725,-0.4014186387918755,-1.4689617095844174,1.5508678108053044,1.172196093727704,1.346636776067902,-0.0011894897240354065,-0.000670987782265265,-0.0004968208969829592,4.1222267595068804e-05,-0.00115570958201477,-0.0005142846024355943,-0.0016471704658559396,-0.2825433909893036,-50.16659927368164,-7.662247657775879,17.05786895751953,1.6368509531021118,-1.2100937366485596,0.09343110024929047,,,,,,,,,
1739303732.6285167,-0.06757538670301254,1.0447429237170944,-0.4014147763254453,-1.4689648400443622,1.5508714272906527,1.172198798638438,1.3466387933691446,-0.001277224791457184,-0.0011592913367534069,0.000939781116512606,-0.0008456682985368155,0.0010136547280646733,-0.0006158511273915528,-0.0009932513856234187,-0.3063471019268036,-50.19040298461914,-7.713822364807129,17.05786895751953,1.6432596445083618,-1.1972763538360596,0.07969819009304047,,,,,,,,,
1739303732.6394424,-0.06757709543467072,1.0447411222754106,-0.40141477636178413,-1.4689656704850396,1.5508681127841208,1.1721948657635566,1.3466403783332968,0.0006654108837363769,-0.0017560361494399867,0.0009577798339218551,-0.0014346762124340937,-0.00019480572416619176,-0.0025466049463226267,0.00017994563373020542,-0.2825433909893036,-50.16659927368164,-7.713822364807129,17.08167266845703,1.6432596445083618,-1.2036850452423096,0.06596527993679047,,,,,,,,,
1739303732.6495082,-0.067577072700171,1.044741210650668,-0.4014148383829568,-1.46896397047059,1.5508744836402486,1.1721986997890566,1.34663955168126,-0.00018603127575149696,0.00011814532088253436,0.0003049818888857194,-0.000722629253519456,-0.00017787068372957781,-0.00010192148054323714,-0.0009967305630047107,-0.2825433909893036,-50.16659927368164,-7.713822364807129,17.05786895751953,1.6432596445083618,-1.1972763538360596,0.07328949868679047,,,,,,,,,
1739303732.659517,-0.06757908460607728,1.044748805783629,-0.40141863004481537,-1.4689620725930386,1.5508736918653414,1.1721988023361347,1.3466339915501475,-0.001197969085710448,0.0008337760289498158,-0.0017453341889575851,0.0008948829091749908,0.0011241900326679208,-0.0020279023650542917,-0.00166719883985904,-0.2547723948955536,-50.24197769165039,-7.662247657775879,17.03406524658203,1.6231180429458618,-1.2100937366485596,0.09343110024929047,,,,,,,,,
1739303732.6695251,-0.067574334531526,1.0447429316039338,-0.4014144331033193,-1.4689643978568088,1.5508759786648578,1.1722003324161017,1.346638676230441,0.0015483191093280434,-9.29616880548364e-05,-0.0006789240365250725,-4.690512922208808e-05,0.001923731117797686,0.0005789919993709931,-0.001352902708877854,-0.3063471019268036,-50.19040298461914,-7.690018653869629,17.08167266845703,1.6304422616958618,-1.2100937366485596,0.07969819009304047,,,,,,,,,
1739303732.6795523,-0.06757514999491586,1.044742829531056,-0.4014136456254617,-1.4689630574161898,1.5508712933124298,1.1722010731439887,1.3466447180740104,0.0003452947885755213,0.000693254757884657,-0.0002214125505381095,-2.124833905069233e-05,-0.0009795571215534954,0.00026929032833803535,0.0015766577941245463,-0.3063471019268036,-50.19040298461914,-7.690018653869629,17.03406524658203,1.6432596445083618,-1.2165024280548096,0.026597600430250168,,,,,,,,,
1739303732.6904461,-0.0675771050692955,1.0447428462181438,-0.4014165011514322,-1.4689609250622135,1.5508712916977463,1.1721995360205713,1.3466411687608417,-0.001054989116263401,0.0004627608994573339,-0.0005416486148278118,-0.00037209108434323065,0.00012177057678218631,0.00043177725467719925,-0.001384159816661718,-0.2825433909893036,-50.19040298461914,-7.662247657775879,17.03406524658203,1.6432596445083618,-1.2036850452423096,0.05955658480525017,,,,,,,,,
1739303732.7005095,-0.06757709630084217,1.0447473138015055,-0.4014116005635821,-1.4689638524223254,1.5508720493578216,1.1721979073109141,1.3466416265609427,-0.0007929604122872511,0.0005261286690445834,0.0018174840779429833,-0.0002530373985027687,0.000823966553377106,0.0011698280875695247,-0.001759969379006562,-0.2825433909893036,-50.21817398071289,-7.713822364807129,17.05786895751953,1.6368509531021118,-1.2165024280548096,0.04673920199275017,,,,,,,,,
1739303732.7114458,-0.06757315071725079,1.044741855823046,-0.40141476755896255,-1.4689641079184041,1.5508696194479954,1.172197241939946,1.3466395145465386,0.0009670389799195405,-0.0015131929625169334,0.00048144846312601854,-0.0008671187754279673,-0.0005737843846159026,-0.0006950857224508602,-0.0007568260493717644,-0.3063471019268036,-50.16659927368164,-7.713822364807129,17.05786895751953,1.6560770273208618,-1.1972763538360596,0.04673920199275017,,,,,,,,,
1739303732.7214527,-0.06757527862245147,1.0447448539706534,-0.4014147675767413,-1.4689637652275684,1.5508712902415356,1.1721990635900903,1.346637234250332,0.00020174738983135367,-0.0003947049083737529,0.0004404571059521502,-0.0004940118181057604,-0.00028116816338113424,0.0001486066932781691,-0.0015431077493799302,-0.3063471019268036,-50.21817398071289,-7.713822364807129,17.08167266845703,1.6432596445083618,-1.2036850452423096,0.06596527993679047,,,,,,,,,
1739303732.7315056,-0.06757538388644085,1.0447456624232372,-0.4014140676922982,-1.4689634115428003,1.5508728041107749,1.172195881140598,1.3466408213270336,0.0009017063626432357,0.0011756522612636493,3.950730458541124e-05,9.053086372783096e-05,-0.0005568024209864299,-0.0012029794622145332,-0.0018028266787135415,-0.3063471019268036,-50.21817398071289,-7.713822364807129,17.08167266845703,1.6304422616958618,-1.2036850452423096,0.05955658480525017,,,,,,,,,
1739303732.7415543,-0.06757486226361664,1.0447437973869065,-0.4014129932043981,-1.468961625807336,1.5508723513358236,1.172198817543822,1.346640062260881,0.00032902441816799006,0.0003048397156953831,0.0010062048607729877,0.00010982384087690819,-0.0005224604111992768,0.0010075403115491072,-0.001013905212683035,-0.2825433909893036,-50.19040298461914,-7.737626075744629,17.05786895751953,1.6432596445083618,-1.1972763538360596,0.06596527993679047,,,,,,,,,
1739303732.751584,-0.0675755183083282,1.0447432769613216,-0.4014187018534836,-1.4689634095017885,1.550870853476264,1.1722003314729876,1.3466411196379084,-3.42947396162737e-05,-0.0005168957240996221,-0.0009325982500355764,0.00048537639637930805,-0.0003311487810548708,0.001992695283091126,-0.0009924299751177404,-0.3063471019268036,-50.16659927368164,-7.690018653869629,17.08167266845703,1.6560770273208618,-1.2100937366485596,0.06596527993679047,,,,,,,,,
1739303732.7624726,-0.06757526989206614,1.0447432794646532,-0.40141398896754293,-1.4689581440377746,1.550873160721207,1.1721991041008322,1.346637117656173,0.0003670562312147246,-0.001658913468136399,0.0010606383846394377,0.0002385161871617334,0.0022845077981434652,0.0010835843156241337,-0.002015305442889554,-0.3063471019268036,-50.16659927368164,-7.713822364807129,17.01026153564453,1.6304422616958618,-1.2036850452423096,0.09343110024929047,,,,,,,,,
1739303732.773484,-0.0675745975996433,1.0447412088339234,-0.40141473840170405,-1.4689618730575966,1.5508742209678794,1.1721967294433835,1.3466356922030411,0.000749241648471416,-0.0005537372583651805,4.3819988508285814e-05,2.087258187918764e-05,-0.00018729475112599366,6.16557629599942e-05,-0.0006786905434241448,-0.3063471019268036,-50.16659927368164,-7.713822364807129,17.05786895751953,1.6368509531021118,-1.2165024280548096,0.09343110024929047,,,,,,,,,
1739303732.7835166,-0.06757709639563886,1.0447428442450863,-0.4014143948683973,-1.4689638520690282,1.5508749031773228,1.1721951664132026,1.3466371181116923,-0.00015324430908015266,-0.0016924611446507616,0.0012228996099012141,0.00045373446701951173,0.0007561053512630043,-0.002261406632687713,-0.0010792741167285269,-0.2825433909893036,-50.19040298461914,-7.690018653869629,17.05786895751953,1.6167093515396118,-1.2036850452423096,0.09343110024929047,,,,,,,,,
1739303732.794472,-0.06757060499755668,1.0447428698989276,-0.40141469746436564,-1.4689638551340471,1.5508728219640306,1.172198162227875,1.3466452766692836,0.001032404806073074,-0.0006695062107729829,-2.8257079748517506e-05,0.00014663278445057638,0.0005033475045767483,-0.0009223177071620371,0.0015672264522127246,-0.3301508128643036,-50.19040298461914,-7.713822364807129,17.05786895751953,1.6432596445083618,-1.2036850452423096,0.012864691205322742,,,,,,,,,
1739303732.804547,-0.06757539065662459,1.0447475078350346,-0.40141653275546224,-1.4689616258450382,1.5508768520169414,1.172199438124291,1.3466435433510873,-0.0002416628025711123,0.0017363525800073597,-3.968710194872991e-05,-5.0305414838360705e-05,0.0011344674809767828,0.0007954699718833473,0.0009465357568257272,-0.3063471019268036,-50.24197769165039,-7.690018653869629,17.05786895751953,1.6231180429458618,-1.2036850452423096,0.03941498324275017,,,,,,,,,
1739303732.8154426,-0.06757709640902593,1.0447435586327571,-0.40141585036931726,-1.468964150121978,1.550871341459409,1.1721985023302643,1.3466390414857141,-0.0015639161673572208,-0.00010341942247357516,-0.0004419726763476681,-0.00048299558490592443,-0.0004403016903294047,-0.0001195245803751481,-0.0013794749509960273,-0.2825433909893036,-50.19040298461914,-7.690018653869629,17.08167266845703,1.6432596445083618,-1.2036850452423096,0.07328949868679047,,,,,,,,,
1739303732.8254805,-0.06757467641427946,1.0447398524295362,-0.40142010521325644,-1.468963408496863,1.55087361919293,1.1721959232840502,1.3466393429123682,-0.00022234214824036957,-0.002322769973513274,-0.000592321664037202,0.00022083607879496643,0.0027545898948173604,-0.0016646225929480732,0.00013762741168611622,-0.3063471019268036,-50.13882827758789,-7.638443946838379,17.08167266845703,1.6368509531021118,-1.2036850452423096,0.06596527993679047,,,,,,,,,
1739303732.8355174,-0.06757538677517984,1.0447474822523213,-0.4014186387762525,-1.4689608321258534,1.5508721671751473,1.1721981486636128,1.3466372386101704,-0.0002903812881654235,-4.858362864946261e-06,-0.0014089298642974003,0.00025916283887224766,4.6684369975323126e-05,0.00047095859546182503,-0.00084077607910099,-0.3063471019268036,-50.24197769165039,-7.662247657775879,17.03406524658203,1.6368509531021118,-1.2036850452423096,0.06596527993679047,,,,,,,,,
1739303732.846493,-0.06757367136754178,1.0447443454153578,-0.4014147763254453,-1.468962480484577,1.5508759902931606,1.1721994051445626,1.3466352604352163,0.0014886104127513507,0.0008954555482283842,0.0010246659854053685,-0.0013221669232728528,0.0012175784346003464,-0.000551308857628837,-0.0012469934091454754,-0.3301508128643036,-50.16659927368164,-7.713822364807129,17.05786895751953,1.6304422616958618,-1.2036850452423096,0.07969819009304047,,,,,,,,,
1739303732.8574908,-0.06757496442425849,1.0447438777361358,-0.40141576797001954,-1.4689656717153128,1.5508706517932045,1.172199221568274,1.346643544145789,-0.0007575373848141114,0.0005267126821119289,0.0002652051979315491,-0.00040153023020056574,-0.0010033212641669283,-5.852701156820896e-05,0.0009201426943455777,-0.2825433909893036,-50.19040298461914,-7.662247657775879,17.08167266845703,1.6496683359146118,-1.2036850452423096,0.06596527993679047,,,,,,,,,
1739303732.8684804,-0.067577098309532,1.0447448421904568,-0.40141831180335097,-1.4689596061187937,1.5508705732841863,1.1722003327630368,1.3466361790981243,-0.00018359368924452654,-0.0002281883232737391,-0.0006014223937313944,0.00034428191629314785,6.334368146982395e-05,0.0016402667660865016,-0.0014328387463157653,-0.2825433909893036,-50.21817398071289,-7.662247657775879,17.03406524658203,1.6496683359146118,-1.2100937366485596,0.06596527993679047,,,,,,,,,
1739303732.8794694,-0.06757709922373795,1.0447458040714979,-0.40141299332255986,-1.4689598343362942,1.5508705399059226,1.1721971142817766,1.3466427582516227,-0.0009704538541185052,0.0013601474026043315,0.0014106616253896718,0.0016536742158311892,-0.0003199635807956327,0.0011358851807427247,0.0005955760400883552,-0.2825433909893036,-50.21817398071289,-7.737626075744629,17.03406524658203,1.6496683359146118,-1.2100937366485596,0.019273381680250168,,,,,,,,,
1739303732.8894792,-0.06757709933199742,1.044745795908151,-0.4014145401144291,-1.4689654882737122,1.5508719330741,1.1721995751029366,1.3466361788651082,-0.0014737376812697335,-0.0005440321215123248,0.0003923867821649692,-0.0006835523053913473,-0.0012872346104405726,0.0011866654266169357,-0.0020471194662645994,-0.2825433909893036,-50.19040298461914,-7.713822364807129,17.10944366455078,1.6368509531021118,-1.2036850452423096,0.06596527993679047,,,,,,,,,
1739303732.8995113,-0.06757528115028177,1.0447459427571524,-0.4014147762881096,-1.4689616258072842,1.5508712916970868,1.1721971088982572,1.346644347471036,0.0002614414058429961,-0.0002478422665703341,0.0006184819564333086,0.001190798144806279,-0.00019209787433497303,-3.1313191438408084e-05,0.002161178948336842,-0.3063471019268036,-50.19040298461914,-7.713822364807129,17.05786895751953,1.6432596445083618,-1.2100937366485596,0.03300629183650017,,,,,,,,,
1739303732.9095552,-0.06757709056121745,1.0447457952573262,-0.40141651289332236,-1.4689616532793839,1.5508750988479236,1.1722001568308544,1.3466389516104502,0.0002288307429402398,0.0006004398910199647,-0.0007186028393760378,7.068718398281013e-05,0.0005893290107695112,-0.0009546290239021202,-0.0012942639947844039,-0.2825433909893036,-50.21817398071289,-7.662247657775879,17.05786895751953,1.6231180429458618,-1.2100937366485596,0.03941498324275017,,,,,,,,,
1739303732.921476,-0.06758080102454159,1.0447453159023266,-0.4014147749093554,-1.4689634055410192,1.5508764961903092,1.1721985155735022,1.3466424038240392,-0.0023125401352073432,0.00014337784496578073,0.00012469440972242586,-0.0003273571784306839,0.0013184705176352862,0.0002926350925401649,0.002211771798595563,-0.2309686839580536,-50.19040298461914,-7.713822364807129,17.08167266845703,1.6304422616958618,-1.2036850452423096,0.05314789339900017,,,,,,,,,
1739303732.932483,-0.0675746404722544,1.0447453455176798,-0.40141419641243464,-1.4689616259580172,1.5508731099719264,1.1721998614897486,1.346640417580043,0.00017842025656992832,0.0001373758404656647,0.00024829164364747634,0.0005222679976071662,0.0006577393466724623,0.0002443393820367002,-0.0006689032701109763,-0.3063471019268036,-50.19040298461914,-7.690018653869629,17.05786895751953,1.6368509531021118,-1.2100937366485596,0.06596527993679047,,,,,,,,,
1739303732.9424865,-0.0675732166344881,1.0447415563840732,-0.4014162844090193,-1.4689634055408667,1.5508729247734314,1.1721971496435164,1.3466393579410276,0.00016148132963998997,-0.0010965616755351003,-0.00024188874120196954,-4.83349007138378e-05,0.000140123165608291,-0.0019354192373227449,-0.001075126471188825,-0.3063471019268036,-50.13882827758789,-7.690018653869629,17.08167266845703,1.6304422616958618,-1.2100937366485596,0.06596527993679047,,,,,,,,,
1739303732.9534423,-0.06757359532123859,1.0447457955822033,-0.40141655900091433,-1.4689600903791455,1.550877558255605,1.172196094140711,1.3466419154511693,0.0005458519237923608,0.0003443926257669967,-0.0006150518514868004,0.001115667253987057,-0.00013608028710375837,-0.00045132009901686,0.00019523547143404367,-0.3301508128643036,-50.19040298461914,-7.690018653869629,17.03406524658203,1.6231180429458618,-1.2100937366485596,0.05314789339900017,,,,,,,,,
1739303732.9635227,-0.06757426878533396,1.0447457965633276,-0.40141655900246437,-1.4689598431344526,1.5508705342649691,1.1721986589361157,1.3466411185509206,0.0012894630937565655,0.0005768173778780944,0.0003427835398074515,0.0007385672712275939,-0.0013811060504405753,0.00048293021696494044,0.0019283951331724213,-0.2825433909893036,-50.19040298461914,-7.690018653869629,17.03406524658203,1.6496683359146118,-1.1972763538360596,0.05955658480525017,,,,,,,,,
1739303732.9744864,-0.06757486322202055,1.0447470134783072,-0.4014156102702188,-1.4689598431302655,1.5508705338761606,1.1721994573126544,1.3466387408492586,-0.0004156354461732188,0.0008508851172193573,0.000372519027624182,0.0003890538809727611,-0.0011975887206882292,0.0008619192023526565,0.0005002421094426088,-0.2825433909893036,-50.21817398071289,-7.690018653869629,17.03406524658203,1.6496683359146118,-1.2036850452423096,0.05314789339900017,,,,,,,,,
1739303732.9845414,-0.06757621800553246,1.0447448413138336,-0.40141863874411937,-1.4689645931332083,1.5508705340376567,1.1721992220477584,1.3466402977413472,0.0007129666853912989,-0.0005946468595521579,-0.0005045928556306105,-0.0013439294632859049,0.0012738936003526549,0.0005124212922269535,0.00015611826412883416,-0.2547723948955536,-50.21817398071289,-7.662247657775879,17.05786895751953,1.6496683359146118,-1.2036850452423096,0.06596527993679047,,,,,,,,,
1739303732.9954803,-0.06757292892045474,1.0447414852749046,-0.40141266699968364,-1.4689626932341497,1.5508720474197546,1.1722003329258743,1.346636359685359,0.00041361471162730686,-0.0003382065168660553,0.0011561978494904637,-0.0006642684556103548,0.0014247682277692892,0.0012869387669884103,-0.0006733683866222205,-0.3301508128643036,-50.16659927368164,-7.737626075744629,17.08167266845703,1.6368509531021118,-1.2100937366485596,0.07328949868679047,,,,,,,,,
1739303733.0065098,-0.06757504438317961,1.0447467925808476,-0.4014187018516472,-1.4689616349982977,1.550872719084074,1.1721989062938902,1.346645058623415,0.0005733222432114561,-0.00013034406279426492,-0.00024019314663990102,-0.00010224227316761689,0.00013640430232250193,-0.00048556956187588456,0.00020098154205284562,-0.3063471019268036,-50.24197769165039,-7.690018653869629,17.05786895751953,1.6432596445083618,-1.2100937366485596,0.026597600430250168,,,,,,,,,
1739303733.016515,-0.0675744280618998,1.0447497693811174,-0.40141561376272766,-1.4689634075033127,1.5508705340618378,1.1721971475277675,1.3466439946962665,0.0011425466262249542,0.003336807717695107,-3.4260160813184296e-05,-0.0017449361282311881,4.787397239228649e-05,-0.00023306369488045053,0.0005537869671407208,-0.3063471019268036,-50.24197769165039,-7.690018653869629,17.08167266845703,1.6496683359146118,-1.2100937366485596,0.026597600430250168,,,,,,,,,
1739303733.0274305,-0.06757686211983505,1.044749663467717,-0.4014184025653126,-1.4689616258072675,1.550872351335873,1.1721954816546227,1.346644012766874,-0.000179619490938699,0.0008164363706831546,-0.0002786528292223463,-0.0004954746294114622,2.834656730820141e-05,-0.0013526975540788517,0.0002323535666815511,-0.2825433909893036,-50.24197769165039,-7.662247657775879,17.05786895751953,1.6432596445083618,-1.1972763538360596,0.026597600430250168,,,,,,,,,
1739303733.0375447,-0.06757511385237526,1.044746986988237,-0.4014140323728701,-1.468959605050848,1.5508711739661551,1.1722006850272673,1.3466371848774317,0.0018161081253068954,-0.0006503761579147346,0.00028344183768316605,0.0007395958311469665,-0.001494658921633031,0.0014289263622174148,-0.0019425050931475849,-0.3063471019268036,-50.21817398071289,-7.713822364807129,17.03406524658203,1.6432596445083618,-1.2165024280548096,0.06596527993679047,,,,,,,,,
1739303733.0485506,-0.06757709803135153,1.0447450914442584,-0.4014145397862255,-1.4689631690832339,1.5508740163829897,1.1721995747796548,1.3466370512013315,0.0003063424891789719,2.4221774226729274e-05,-0.00016401112671972574,-0.00018961761441935767,0.0006445262081991355,6.41775978970278e-05,-0.001612511300006673,-0.2825433909893036,-50.21817398071289,-7.713822364807129,17.08167266845703,1.6560770273208618,-1.2036850452423096,0.09343110024929047,,,,,,,,,
1739303733.0595906,-0.06757609955818171,1.0447421240268597,-0.401414723646036,-1.4689664507774418,1.5508697899679906,1.172195721726804,1.3466419323607288,0.0004904407191365302,-0.0008291561495301174,-0.0003883133052426194,-0.0012106651240082486,-0.0005472835591738222,-0.0008849369983951567,-0.0003775537428563919,-0.2825433909893036,-50.16659927368164,-7.713822364807129,17.10944366455078,1.6560770273208618,-1.2100937366485596,0.05314789339900017,,,,,,,,,
1739303733.070457,-0.06757424936654238,1.0447482706111908,-0.40141162036545514,-1.4689641502364272,1.5508731089960277,1.1721983464685666,1.3466414619494713,-0.0003639642405599982,0.0015633120675061939,0.001875616799887354,-0.00015628590917552728,-0.0006661795743475213,-0.0009671320626883272,-4.158589796465481e-05,-0.2825433909893036,-50.26578140258789,-7.765397071838379,17.08167266845703,1.6368509531021118,-1.1972763538360596,0.05314789339900017,,,,,,,,,
1739303733.0805147,-0.06757220231831486,1.0447435614618679,-0.40141582413576354,-1.4689616259329,1.5508720626192245,1.1721956386840156,1.3466427435705655,0.0017996844299480595,0.00013345716929572286,-0.0003106778841297557,-0.0003352439543809187,0.0017310032159255494,-0.0013944759667661585,0.0015253413836616293,-0.3063471019268036,-50.19040298461914,-7.690018653869629,17.05786895751953,1.6368509531021118,-1.1972763538360596,0.019273381680250168,,,,,,,,,
1739303733.0914466,-0.06757472248304819,1.044742844138802,-0.4014164510994644,-1.468957697363054,1.550872051457469,1.1721995615205412,1.346641931428173,0.00012643264358871119,0.0003583361722917272,7.485781399647152e-05,0.0008515559216701238,0.00020666293506963658,-3.3564271960258444e-05,-0.0002683912176064811,-0.2825433909893036,-50.19040298461914,-7.690018653869629,17.03406524658203,1.6368509531021118,-1.2036850452423096,0.05314789339900017,,,,,,,,,
1739303733.1015,-0.06757614790980424,1.0447458106854597,-0.4014126412440381,-1.4689634084479646,1.5508709897197277,1.1722001759428797,1.3466365683343084,-0.001412647209024175,0.0012009042849348206,0.0016184498043172414,-0.0011094715935497605,-0.0016559131957109197,0.0008918485515541117,-0.0014597375103029275,-0.2825433909893036,-50.19040298461914,-7.713822364807129,17.08167266845703,1.6368509531021118,-1.2100937366485596,0.09983979165554047,,,,,,,,,
1739303733.1115098,-0.06757325159874016,1.044743567398926,-0.4014158507693727,-1.4689598431302646,1.550873712934108,1.1721963919887635,1.3466411745962874,0.0003003699110096894,-0.0005033314401741385,0.00037584316944596014,0.0006093143930162574,0.0004903330018382105,-0.0011326939620241382,0.0011945021154567625,-0.3063471019268036,-50.19040298461914,-7.690018653869629,17.03406524658203,1.6496683359146118,-1.2036850452423096,0.05955658480525017,,,,,,,,,
1739303733.1215234,-0.06757709630052419,1.0447428669559378,-0.4014155062236321,-1.468959127874528,1.5508713330431716,1.172195638530267,1.346641472856603,-0.0012852489982864079,0.00015164384577865086,0.0008006447983411267,0.0012237978765335237,0.000558518221066633,-0.001864537362907701,-0.0006113310465607241,-0.2825433909893036,-50.19040298461914,-7.690018653869629,17.03406524658203,1.6432596445083618,-1.1972763538360596,0.06596527993679047,,,,,,,,,
1739303733.1335385,-0.06757290469219072,1.044743082153645,-0.40142018090008175,-1.468963411535413,1.550872049842416,1.172199050510895,1.3466463933583568,0.001212332364219997,9.807930555118241e-05,-0.001693010937745389,-0.000607500259772792,-0.000666579062745615,-0.0003920456510799777,0.0036397753632425494,-0.3063471019268036,-50.19040298461914,-7.638443946838379,17.08167266845703,1.6368509531021118,-1.2036850452423096,0.0064559997990727425,,,,,,,,,
1739303733.1435456,-0.06757511059192636,1.0447468039178864,-0.4014147499704138,-1.4689616258073015,1.550872402570534,1.1722013583973006,1.3466424567759232,0.00015352579759015335,0.0009339397575566979,0.00044725142638380925,-8.596477702948286e-05,0.0004035354046417087,0.0006127085664509867,5.843805082620204e-05,-0.3063471019268036,-50.24197769165039,-7.713822364807129,17.05786895751953,1.6368509531021118,-1.2229111194610596,0.012864691205322742,,,,,,,,,
1739303733.1545315,-0.06757534769205088,1.044739159293399,-0.40141864271675687,-1.4689616258072844,1.550873791139213,1.1721973858566248,1.346639551173481,8.552622521330519e-05,-0.0023639165782235374,-0.0012554637873820227,7.394693139592596e-05,0.00046110231648218076,-0.00039660639726191074,0.00017027758544255482,-0.3063471019268036,-50.13882827758789,-7.662247657775879,17.05786895751953,1.6231180429458618,-1.1972763538360596,0.07328949868679047,,,,,,,,,
1739303733.165464,-0.06757624604979423,1.0447453082659517,-0.4014109403495461,-1.4689609092433518,1.5508720493584889,1.172201835102826,1.3466450175113427,-0.00011671325080195663,0.0005911145288803331,0.001727017243011019,-2.4770647946685694e-05,0.0002834404297538451,0.002261872682394644,0.0014469697373840243,-0.2547723948955536,-50.19040298461914,-7.765397071838379,17.05786895751953,1.6368509531021118,-1.2229111194610596,0.026597600430250168,,,,,,,,,
1739303733.1754746,-0.06757367121099693,1.0447413094615943,-0.40141691042836514,-1.4689620595278843,1.5508720538799778,1.1721952973063585,1.346644314116224,0.00022052920188698837,-0.00023413048733016736,-5.558076822874397e-05,-8.042362587249038e-05,-0.0001856040002960654,-0.0007274356757984428,0.0006675778871029205,-0.3301508128643036,-50.13882827758789,-7.713822364807129,17.03406524658203,1.6368509531021118,-1.2036850452423096,0.03300629183650017,,,,,,,,,
1739303733.1854851,-0.06757334983763293,1.0447411426615216,-0.4014165285806715,-1.4689634085218384,1.5508732910502085,1.1721990473937682,1.346642444329621,0.0013187025051020784,-0.0023561287156431596,-0.0011376043939258708,-0.0011902978083015861,0.001099262112044615,1.2121803320158143e-05,-0.0010624298716762966,-0.3301508128643036,-50.16659927368164,-7.690018653869629,17.08167266845703,1.6304422616958618,-1.2036850452423096,0.03941498324275017,,,,,,,,,
1739303733.1954978,-0.06757049112847469,1.0447459734473392,-0.40141856005377446,-1.468962445979671,1.5508727438190306,1.1721940886960966,1.3466443140606412,0.0030528894016902757,-0.0003251438125236498,-0.0013816640281317728,-0.000652185994146282,0.00038343440376123917,-0.0014550762126126348,0.0011432025143037249,-0.3301508128643036,-50.19040298461914,-7.662247657775879,17.08167266845703,1.6432596445083618,-1.1972763538360596,0.03300629183650017,,,,,,,,,
1739303733.2056024,-0.067573914833255,1.0447473138191254,-0.40141477618099175,-1.4689634083698537,1.5508715934357582,1.172198502358179,1.3466377591523848,0.0005304608924295632,0.0007552367798337946,0.00041780436430704447,-0.0012519841364471845,-0.00031305434149810584,0.001282913014353152,-0.0014098474509858774,-0.2825433909893036,-50.21817398071289,-7.713822364807129,17.08167266845703,1.6368509531021118,-1.2036850452423096,0.09343110024929047,,,,,,,,,
1739303733.2165186,-0.06757324376612639,1.0447435585323128,-0.40141632235943653,-1.4689634084843026,1.550872049355248,1.1721999659797981,1.3466435558143657,-0.00020903380954777958,-0.0005452091408791886,-0.00014614011721902892,-0.0012246972636383525,0.0008020062389263793,0.0008877629409036972,0.0007638939780444636,-0.3063471019268036,-50.19040298461914,-7.690018653869629,17.08167266845703,1.6368509531021118,-1.2100937366485596,0.03941498324275017,,,,,,,,,
1739303733.2274728,-0.06757243020403453,1.0447449904874173,-0.4014163223220992,-1.4689634084843033,1.5508758834629708,1.1721968500939617,1.346643658711038,0.0004152307131880605,-0.0006225716444876738,-0.00034037227984291775,-0.000836042024891267,0.0014293558716607542,-0.0005316776186536261,0.0010972706681562606,-0.3063471019268036,-50.19040298461914,-7.690018653869629,17.08167266845703,1.6432596445083618,-1.2165024280548096,0.026597600430250168,,,,,,,,,
1739303733.2375128,-0.06757898864691533,1.0447460520475371,-0.4014163218073784,-1.4689655981625576,1.5508723520536754,1.172198749310365,1.3466440120673009,-0.0010905633653588566,0.00035729997769342453,-0.00044840152570364735,-0.0017268617160337667,0.0004434904449062035,8.570956812745968e-05,0.002830597100411187,-0.2547723948955536,-50.19040298461914,-7.690018653869629,17.10944366455078,1.6432596445083618,-1.2100937366485596,0.026597600430250168,,,,,,,,,
1739303733.248482,-0.06757613908971016,1.0447423385394612,-0.4014159259830465,-1.468961625807491,1.550872049431597,1.1722003309854923,1.346639551195414,-0.0008533981735049843,-0.0011271548966218835,0.0010937125867172628,-0.000423815457117021,0.00014024591529303933,0.00258897340665899,0.0003797833100202592,-0.2547723948955536,-50.13882827758789,-7.662247657775879,17.05786895751953,1.6368509531021118,-1.2100937366485596,0.07328949868679047,,,,,,,,,
1739303733.258505,-0.06757230776095373,1.044747967299258,-0.401416547291782,-1.4689645927940465,1.5508710616764054,1.1721987769069426,1.3466393164509889,-9.160487907479013e-06,0.00040225572573962873,-0.0004281017142842189,-0.0010869294049294363,-0.0001073741832997471,0.0008673684295336177,-0.0005558490053351408,-0.3063471019268036,-50.21817398071289,-7.690018653869629,17.05786895751953,1.6496683359146118,-1.1972763538360596,0.03941498324275017,,,,,,,,,
1739303733.2685437,-0.06757415257239388,1.044743199798756,-0.40141648026526616,-1.4689634207443716,1.5508720488822405,1.172200292226443,1.346637051040105,0.0003139853058145354,-0.00024162227077536197,-0.00046682710442632334,-0.0005389637368118751,0.00028230582430684343,-0.00021288740355390385,-0.0004092822522220233,-0.2825433909893036,-50.19040298461914,-7.690018653869629,17.08167266845703,1.6368509531021118,-1.2100937366485596,0.09343110024929047,,,,,,,,,
1739303733.2804713,-0.06757527236465113,1.0447458305644584,-0.40141655896601763,-1.4689598431303346,1.550871291751576,1.1722002019452815,1.3466342028855034,-0.0014291186917158175,0.0010521878137452459,-0.0005193793185237308,3.8479102408814104e-05,-0.0021706704678803087,-0.00031885354735940787,-0.0013518141052668632,-0.3063471019268036,-50.21817398071289,-7.690018653869629,17.03406524658203,1.6432596445083618,-1.2100937366485596,0.10624848306179047,,,,,,,,,
1739303733.2914567,-0.06757355927092788,1.0447472297517741,-0.40141645357576966,-1.4689613873887053,1.550874631956209,1.1722003154298546,1.3466408220242332,-0.0006805017778359282,-0.0006369459744899383,0.000695651955484214,-0.0002467185999475611,0.0008277427587596454,0.002020458345133821,0.0009286949085164145,-0.3301508128643036,-50.21817398071289,-7.690018653869629,17.05786895751953,1.6432596445083618,-1.2100937366485596,0.05955658480525017,,,,,,,,,
1739303733.301508,-0.06757293733251936,1.0447457057151128,-0.4014165589971082,-1.4689609092312388,1.5508756993921922,1.1721995752655718,1.3466440077604962,7.825274492123286e-05,0.0008075519887160425,0.00016608523068550881,-0.0004911298502720149,0.0007205569876335496,0.0008546328686024454,0.00036817690504390636,-0.3063471019268036,-50.19040298461914,-7.690018653869629,17.05786895751953,1.6368509531021118,-1.2036850452423096,0.026597600430250168,,,,,,,,,
1739303733.3115199,-0.06757319664579069,1.044748050549556,-0.4014130996122392,-1.4689623675499297,1.5508712917183478,1.1721992219999158,1.3466395516759182,0.0014589221118256222,3.05547243943573e-05,0.0012389374841439039,-0.00017822280820554797,0.00028135586054481933,0.0001731588222285497,-0.0005752674814192745,-0.2825433909893036,-50.21817398071289,-7.737626075744629,17.05786895751953,1.6432596445083618,-1.2036850452423096,0.07328949868679047,,,,,,,,,
1739303733.3215282,-0.06757366448111922,1.0447429497168461,-0.401420316488467,-1.4689634084968648,1.5508690187175085,1.1721995615325038,1.3466426905598323,-0.00019618020325009992,8.87021587781122e-05,-0.0009097069746079286,-0.0004219267511825788,-0.0007749391115123581,0.001532369956608142,0.001500029057763565,-0.3301508128643036,-50.19040298461914,-7.638443946838379,17.08167266845703,1.6624857187271118,-1.2036850452423096,0.04673920199275017,,,,,,,,,
1739303733.3324819,-0.06757226945114833,1.0447456359326688,-0.4014165560856866,-1.468967270951178,1.550870534037665,1.172199154097212,1.3466387896611953,0.0003617268638983107,0.00041864826755645115,-0.0002965779066160402,-0.0021973284703193314,-0.0005102716305179323,0.0006133488711786444,-0.0008692597888571064,-0.3063471019268036,-50.21817398071289,-7.690018653869629,17.13324737548828,1.6496683359146118,-1.2100937366485596,0.07969819009304047,,,,,,,,,
1739303733.3434978,-0.06757251799675464,1.0447458112350123,-0.4014186374962212,-1.4689615463344246,1.5508712916977434,1.172200197255195,1.3466364123199157,0.0005058834238475389,0.0008659035497477685,-0.0014784922660260255,-0.0004126216866206335,-0.0007278253061775893,-1.2526684659599314e-05,-0.0006496285694913865,-0.3063471019268036,-50.19040298461914,-7.662247657775879,17.05786895751953,1.6432596445083618,-1.2100937366485596,0.09983979165554047,,,,,,,,,
1739303733.354464,-0.06757785037121082,1.044744003697872,-0.4014147763254234,-1.4689616258059384,1.5508720498423383,1.1721953192690429,1.3466380363617596,-5.999262924720526e-05,-0.0004724751357508105,0.0007183797979349368,2.191092310205016e-05,4.9883922312545764e-05,-0.0024300538617127447,-0.0002446150110836153,-0.2309686839580536,-50.16659927368164,-7.713822364807129,17.05786895751953,1.6368509531021118,-1.2036850452423096,0.08610688149929047,,,,,,,,,
1739303733.364602,-0.0675748764289168,1.0447479411336207,-0.4014144331034674,-1.4689634081572545,1.5508752287567291,1.1721995752424357,1.3466404177406626,-0.0006792503123588675,0.001980420162370098,0.00013466600101219302,-0.0006953381640113672,0.0011816336098224452,-0.0003628836855901386,5.0237843130542095e-05,-0.2825433909893036,-50.21817398071289,-7.690018653869629,17.08167266845703,1.6368509531021118,-1.2036850452423096,0.06596527993679047,,,,,,,,,
1739303733.3754792,-0.06757506819186533,1.0447428432801167,-0.4014162411262789,-1.4689595251298084,1.5508731090138987,1.1721952843861343,1.3466408288640543,-0.0005838918769701616,-0.0009029036321134302,0.0005331094745365668,0.0006829898115927462,0.0005775791681943833,-0.0010918284605489139,0.001884459280661282,-0.3063471019268036,-50.19040298461914,-7.690018653869629,17.03406524658203,1.6368509531021118,-1.2036850452423096,0.026597600430250168,,,,,,,,,
1739303733.3855088,-0.06757324587171855,1.0447451974686364,-0.4014161979399402,-1.468963090587479,1.550872049375767,1.1721940668469952,1.3466438411569424,-7.176630913023641e-05,0.0008936909595725598,-0.00047463420700079154,0.00037332584959019245,0.0002600894248998511,-0.0006095557428862044,0.0013472913399410202,-0.3063471019268036,-50.21817398071289,-7.662247657775879,17.08167266845703,1.6368509531021118,-1.1972763538360596,0.03300629183650017,,,,,,,,,
1739303733.3965533,-0.06757695423360156,1.0447449453160182,-0.4014186387785413,-1.4689638422152436,1.5508706910210914,1.172199110463964,1.3466370134784391,-0.001026617825589817,-8.866035860094474e-05,-0.0002796867269470089,4.6711130640025254e-05,-0.00034892824820483925,-0.00031216933641997516,-0.0018065221376703374,-0.2547723948955536,-50.21817398071289,-7.662247657775879,17.05786895751953,1.6496683359146118,-1.2100937366485596,0.09343110024929047,,,,,,,,,
1739303733.407426,-0.06757239559717344,1.0447411336859134,-0.40141632279146466,-1.468959843142777,1.550873226734407,1.1722001609161925,1.3466443139009163,0.0014769321122448174,-0.0005870070196041318,0.0009762020953246613,0.0008663664531034473,0.00018729113494503607,-0.0007537032308298278,0.0009668714585734754,-0.3063471019268036,-50.16659927368164,-7.690018653869629,17.03406524658203,1.6368509531021118,-1.2100937366485596,0.03300629183650017,,,,,,,,,
1739303733.4184504,-0.06757250912252685,1.0447473058433177,-0.4014165589984641,-1.4689573448704605,1.5508716463839423,1.1721985156254184,1.346643106518861,0.001111845007161132,0.0007294193287168075,-0.001009259253169875,0.0018681734705819604,0.0004335580148304566,0.0006996367767432583,6.876344355559861e-05,-0.3063471019268036,-50.21817398071289,-7.690018653869629,17.01026153564453,1.6432596445083618,-1.2036850452423096,0.012864691205322742,,,,,,,,,
1739303733.4284742,-0.06757391602583074,1.0447428550866262,-0.40141580328826226,-1.4689617082195436,1.5508712916997456,1.1721995360146225,1.3466416990478425,-0.00020276246390070306,-0.0006265854753638421,0.0009589354311293078,0.0001837714572483573,-0.001222623056203026,0.0007778407580182525,0.0005200643089530176,-0.2825433909893036,-50.19040298461914,-7.662247657775879,17.05786895751953,1.6432596445083618,-1.2036850452423096,0.019273381680250168,,,,,,,,,
1739303733.4385,-0.06757392934013516,1.0447438262463817,-0.40141582837768935,-1.4689597633317524,1.550875530250261,1.172194966057966,1.3466471782017224,0.00020386820153123957,0.0005522504114233487,-0.0004404050029464885,0.0012138078642420665,0.001128806524269589,-0.0004330822405058877,2.7637578166492607e-05,-0.2825433909893036,-50.24197769165039,-7.737626075744629,17.03406524658203,1.6432596445083618,-1.2036850452423096,0.0064559997990727425,,,,,,,,,
1739303733.4485424,-0.06757366627047784,1.0447457052205231,-0.40141852186889854,-1.4689616256969167,1.5508712917695235,1.1721959765583942,1.3466400755599723,0.00013143194190256636,0.00030701117644162096,-0.00026268062212754767,0.0002046112039122711,0.0005217113658469552,0.0001628961402429107,-0.0006048351926809395,-0.2825433909893036,-50.19040298461914,-7.662247657775879,17.05786895751953,1.6432596445083618,-1.2100937366485596,0.03300629183650017,,,,,,,,,
1739303733.4595323,-0.06757219051085912,1.0447457949302816,-0.40141478024937094,-1.4689598431302646,1.5508719447022044,1.1721989195665914,1.346643548432637,-0.0001623241789706835,0.0008264043364483499,-0.0001269878707442142,0.00045227727017216736,-0.0005848326317980238,0.00024014284992975276,-0.0007033422664565652,-0.3063471019268036,-50.21817398071289,-7.713822364807129,17.03406524658203,1.6368509531021118,-1.2100937366485596,0.026597600430250168,,,,,,,,,
1739303733.4714935,-0.06757219051219565,1.0447455653312483,-0.4014147763254675,-1.4689616257709455,1.5508705383977248,1.1721966809543203,1.346638794013247,0.0007421247991620607,0.0001886990907538458,0.000541390151634134,-0.00048007590779234206,-0.0010512041884996378,-0.001606247249501214,-0.0010512001585837824,-0.3063471019268036,-50.21817398071289,-7.713822364807129,17.05786895751953,1.6496683359146118,-1.2100937366485596,0.07969819009304047,,,,,,,,,
1739303733.483434,-0.06757126767023612,1.0447472608572503,-0.40142113672507634,-1.4689615904860132,1.550874978621976,1.1722002604784385,1.3466407296622367,0.0005640380505588043,0.0019788374826910137,-0.0019002950398593526,-0.00011353836216153813,0.00035252807734656097,-0.00011602258178560908,0.0008563269939281094,-0.3301508128643036,-50.21817398071289,-7.638443946838379,17.05786895751953,1.6304422616958618,-1.2229111194610596,0.03300629183650017,,,,,,,,,
1739303733.4934747,-0.06757398206660865,1.0447450923219723,-0.40141477632948297,-1.4689598431300661,1.5508706499032618,1.1721984469421067,1.3466438241966407,-0.00034556669961174517,0.0008716726663744798,0.00042395829640970884,0.0006890502678455756,-0.0008899377812505477,0.0007320832908651014,-0.00024020967638356614,-0.2825433909893036,-50.21817398071289,-7.713822364807129,17.03406524658203,1.6496683359146118,-1.1972763538360596,0.03300629183650017,,,,,,,,,
1739303733.504533,-0.06757222562471259,1.0447465893739394,-0.4014186384682994,-1.468959843469427,1.5508706910755807,1.1722003193579777,1.3466442740773468,0.00033124408889523,4.100584307502992e-05,-0.0014559157976614758,0.00044993407618638726,-0.0003356926298586179,0.0006710319566572309,0.0026429381618875533,-0.3063471019268036,-50.24197769165039,-7.662247657775879,17.03406524658203,1.6496683359146118,-1.2100937366485596,0.0064559997990727425,,,,,,,,,
1739303733.5155568,-0.06757461332180863,1.044746048813515,-0.40141191554778094,-1.4689616258072862,1.5508705340385514,1.1721984962475849,1.3466426886038203,-0.00022053560794071868,0.0012611258256397455,0.002204652260549887,-0.00048776780205810543,-0.0008801902247591673,-0.0006067693986920621,0.0007200666955026129,-0.2825433909893036,-50.19040298461914,-7.713822364807129,17.05786895751953,1.6496683359146118,-1.2036850452423096,0.04673920199275017,,,,,,,,,
1739303733.5255811,-0.06757390304495564,1.0447435893152288,-0.40141789511665127,-1.468960910551547,1.550870534037665,1.1721988112893913,1.3466416136405726,0.0001983379588999109,0.0008325170367441968,0.00017577208761198693,-5.0093523251749e-05,-0.0010003931985098137,0.0007912438382364755,0.0007292566205530572,-0.2825433909893036,-50.19040298461914,-7.662247657775879,17.05786895751953,1.6496683359146118,-1.1972763538360596,0.04673920199275017,,,,,,,,,
1739303733.5364668,-0.06757390400725981,1.0447471027865098,-0.40141839919290734,-1.4689598431262278,1.5508697778311369,1.1722016912093984,1.3466399059233911,0.00041750274560544326,0.00015350342160793144,-0.0005919331031832789,0.00019419017469396438,-0.0011882137420098954,0.0004579736283412467,-0.0009189976892199938,-0.2825433909893036,-50.21817398071289,-7.662247657775879,17.03406524658203,1.6560770273208618,-1.2229111194610596,0.06596527993679047,,,,,,,,,
1739303733.547494,-0.06757253293609665,1.0447448412417708,-0.4014165589984068,-1.4689614972771037,1.550873672915157,1.1721975966215163,1.3466387802852067,0.0001332288736096396,0.0009108216637557019,-0.0006165866159819366,0.00029035714337372564,-0.00012597093479418682,-0.0008463012656243576,4.549669572585769e-05,-0.3063471019268036,-50.21817398071289,-7.690018653869629,17.05786895751953,1.6231180429458618,-1.1972763538360596,0.07969819009304047,,,,,,,,,
1739303733.558485,-0.06757243066914513,1.0447449890298295,-0.4014164310961288,-1.468961591502773,1.550870166649853,1.1721947669736685,1.3466363681914675,0.0002599077655310305,0.00031251298682677647,0.0004033994717181828,0.00030984456246772033,0.0007511547448987001,-0.0005002602608077584,-0.0011269272646615579,-0.3063471019268036,-50.19040298461914,-7.662247657775879,17.05786895751953,1.6432596445083618,-1.1899521350860596,0.07328949868679047,,,,,,,,,
1739303733.568498,-0.06757503166828564,1.0447448533527282,-0.40141196823593783,-1.4689598441475569,1.550876288388505,1.1721948655303451,1.3466415283805795,-0.0005424409865663899,-5.099745704342069e-05,0.0007737176630665696,0.0009723274802707087,0.0024600272824636315,-0.0008513727207659091,0.0013634316021430791,-0.3063471019268036,-50.21817398071289,-7.713822364807129,17.03406524658203,1.6368509531021118,-1.2036850452423096,0.05955658480525017,,,,,,,,,
1739303733.5794723,-0.06757219052823407,1.044743365175732,-0.4014186387764682,-1.4689606636418175,1.5508720488972343,1.1721994177180957,1.3466426513159693,0.0003951105695503592,-7.962430883999008e-05,-5.8164694989412734e-05,0.0008109869734221819,-0.001645132742524962,0.0012473512622350883,0.0007127582007578764,-0.3063471019268036,-50.16659927368164,-7.662247657775879,17.05786895751953,1.6368509531021118,-1.2036850452423096,0.04673920199275017,,,,,,,,,
1739303733.5899684,-0.06757390335770475,1.0447448454929456,-0.4014164802654642,-1.4689616257909899,1.5508713309435922,1.1721964460063967,1.346644313631962,0.0010372470155432772,0.0005696050208434855,-0.0003527660743169914,-0.000446985041643592,0.0008917516124224614,-9.024402308600821e-05,0.0019308283102501308,-0.2825433909893036,-50.21817398071289,-7.690018653869629,17.05786895751953,1.6432596445083618,-1.2165024280548096,0.03300629183650017,,,,,,,,,
1739303733.6005068,-0.06757389430001898,1.0447448500701515,-0.40142042143289225,-1.4689638497391606,1.550870590726346,1.172199575240242,1.3466419328997512,0.0005648640155452873,0.0003007145073770577,-0.0011140889830567387,-0.001004818317464926,-4.3747870908207245e-05,0.0013729471644851055,4.9098436526258794e-05,-0.2825433909893036,-50.21817398071289,-7.638443946838379,17.05786895751953,1.6496683359146118,-1.2036850452423096,0.05314789339900017,,,,,,,,,
1739303733.6114838,-0.06757621665749139,1.0447428697537209,-0.4014183238443198,-1.4689626667752753,1.550872051458354,1.1721951632195577,1.346643552096414,-0.0014372934026744373,0.000560006813541359,0.0006589807247233761,-0.0001834901039032222,7.152680339993864e-05,-0.0004956722224523378,0.0016884488664175596,-0.2547723948955536,-50.19040298461914,-7.662247657775879,17.08167266845703,1.6368509531021118,-1.1972763538360596,0.03941498324275017,,,,,,,,,
1739303733.622513,-0.06757079367591785,1.0447435556839817,-0.4014144321308131,-1.4689609105380383,1.5508720493578254,1.1721963946583602,1.3466397616710257,-0.00019551555312504864,-0.0007687622852865102,0.0003617355463424602,-3.484768710220188e-05,-0.0011307169219763478,-0.0011817636008876191,-0.0003089823140036605,-0.3301508128643036,-50.19040298461914,-7.690018653869629,17.05786895751953,1.6368509531021118,-1.2036850452423096,0.05955658480525017,,,,,,,,,
1739303733.633454,-0.0675710628543075,1.0447448691156571,-0.4014165589544559,-1.4689616258032465,1.5508728076639222,1.1721994393684758,1.3466394930474184,0.0009867105426598999,0.00024533199670822247,-0.0002081719432898445,-9.768527270541486e-05,-5.570009337873793e-05,-0.00038882258329635223,-0.0013062754101784307,-0.2825433909893036,-50.21817398071289,-7.690018653869629,17.05786895751953,1.6304422616958618,-1.2036850452423096,0.07328949868679047,,,,,,,,,
1739303733.644452,-0.06757876741307091,1.0447431621356753,-0.40141477632544453,-1.4689598441477505,1.550876305352953,1.1721995184141942,1.3466415385021275,-0.0006480004575187009,-0.0011748613344866037,6.709138939220573e-05,0.0005025521104174498,0.0008882320647122151,0.0020618269938211795,-0.0004928990614849046,-0.2547723948955536,-50.19040298461914,-7.713822364807129,17.03406524658203,1.6368509531021118,-1.2036850452423096,0.05314789339900017,742,747,792,40.522,0,0
1739303733.655427,-0.06757005975979787,1.0447460354170257,-0.40141865642671076,-1.4689535183613887,1.5508717604697313,1.1721966697465263,1.3466450717764793,0.0003285751515146316,0.0019678869426884692,-0.0008521231330030148,0.002779914436659303,-0.00013058244323540906,0.0001638933582718656,0.0022803207235708943,-0.3063471019268036,-50.19040298461914,-7.662247657775879,16.98249053955078,1.6304422616958618,-1.2100937366485596,0.026597600430250168,742,748,791,40.414,0,0
1739303733.665498,-0.06757390299684236,1.0447428816904034,-0.4014161979456221,-1.4689616257655849,1.5508720493400983,1.172195636691891,1.3466432525409469,7.73727730151884e-05,-0.0006215931337605255,0.0002716763030440587,-4.777158084351508e-05,-0.00014054594792624155,0.00017457133817665697,-0.0004501774377048027,-0.2825433909893036,-50.19040298461914,-7.662247657775879,17.05786895751953,1.6368509531021118,-1.1972763538360596,0.03300629183650017,742,746,791,40.414,0,0
1739303733.6755278,-0.06757219062045426,1.0447487302346523,-0.40141655604494325,-1.4689616258072835,1.550871291697743,1.172197136515679,1.3466442750148142,0.0010714867426344118,0.0020790714787705536,0.0003234887458976991,-0.00036637833953396826,-0.0008020173884744784,0.0009684405699638252,0.0017751313340695356,-0.3063471019268036,-50.24197769165039,-7.690018653869629,17.05786895751953,1.6432596445083618,-1.2100937366485596,0.03300629183650017,742,747,792,40.522,1,0
1739303733.6864793,-0.06757391476100864,1.0447432765213849,-0.40141655025389217,-1.46896548533072,1.5508716492172687,1.1721995731488444,1.3466377285692952,0.00030348830624417236,-0.00031029145413737183,-0.0003054361646368111,-0.0013967401561631365,-0.00010437388905656648,0.0014919177236606663,-0.0012227316980047706,-0.2825433909893036,-50.16659927368164,-7.690018653869629,17.10944366455078,1.6432596445083618,-1.2036850452423096,0.07969819009304047,742,750,792,40.414,1,0
1739303733.696528,-0.06757424838000864,1.044743903373151,-0.40141574538665076,-1.4689616228637952,1.5508744699721637,1.1721991163049472,1.3466419815980826,-0.0006267876671748757,-0.00042438357616737473,0.0012441261943160805,-0.00039529770000407496,-0.0005798640664120606,0.00024376346203311612,-0.0014495582168769041,-0.2825433909893036,-50.19040298461914,-7.690018653869629,17.05786895751953,1.6432596445083618,-1.2100937366485596,0.03941498324275017,742,746,790,40.631,0,0
1739303733.707505,-0.0675739821001868,1.044744841209455,-0.40141632246285125,-1.4689596047116695,1.5508720508293132,1.172198391585176,1.3466387935284392,-0.0005429445281410924,0.0005400043789094836,1.5959274386707858e-05,0.000339823637296022,-0.00017515557351935194,-0.0012920681183277002,-0.0009056305305845405,-0.2825433909893036,-50.21817398071289,-7.690018653869629,17.03406524658203,1.6368509531021118,-1.2036850452423096,0.07969819009304047,742,745,791,40.414,1,0
1739303733.7194982,-0.0675704896839056,1.0447448794681808,-0.40141832384298515,-1.4689596047103404,1.5508740149301126,1.1721945784011607,1.3466395516819218,0.00017559610448870228,0.001301224391722237,-0.0010985508081766886,0.00022621504482481973,0.001420875055538671,4.91766621885956e-05,-0.00047199612086776775,-0.3301508128643036,-50.21817398071289,-7.662247657775879,17.03406524658203,1.6560770273208618,-1.1972763538360596,0.07328949868679047,741,747,792,40.522,1,0
1739303733.730452,-0.06757800564112357,1.0447453082295355,-0.4014176798920029,-1.4689616244623016,1.550871291705719,1.1721995056525756,1.3466414619494742,-0.0007131602553847306,0.0006646895285731907,1.448429110897134e-05,-0.0008411569068336864,3.6274485455638184e-05,0.00022891698832010437,4.984649996501791e-05,-0.2547723948955536,-50.19040298461914,-7.690018653869629,17.05786895751953,1.6432596445083618,-1.2165024280548096,0.05314789339900017,740,749,791,40.522,1,0
1739303733.7405512,-0.06757389429957347,1.044741142557388,-0.4014165326677733,-1.4689587770656076,1.5508712916977434,1.1721978702999594,1.3466368911346085,1.9040816236967936e-05,-0.002229620991920744,0.00023487119466293442,0.0014995852804633749,0.0007219331308433669,0.0004868323356108767,-0.0024424206194149914,-0.2825433909893036,-50.16659927368164,-7.690018653869629,17.01026153564453,1.6432596445083618,-1.2165024280548096,0.05955658480525017,742,749,791,40.631,1,0
1739303733.7514954,-0.06757219051214636,1.0447473788684045,-0.40141863879217127,-1.468961624830183,1.5508768532830708,1.172196485075237,1.3466419328217347,0.0003082043914294018,0.002666558831412203,-0.0005324299946123236,0.0005818105319464215,0.0008454780741954024,-2.2576431967384722e-05,0.0009108860029060855,-0.3063471019268036,-50.24197769165039,-7.662247657775879,17.05786895751953,1.6231180429458618,-1.2165024280548096,0.05314789339900017,739,746,791,40.522,1,0
1739303733.7615335,-0.06757219343519436,1.0447411425296174,-0.4014187414079203,-1.4689597361852895,1.5508720479581313,1.1721975402928997,1.3466384520073138,0.00031753306194964956,-0.0018097093287484742,-0.0009581401715918498,0.001129726160012454,6.380562506643637e-06,0.0004004510437734394,-5.127762264983362e-05,-0.3063471019268036,-50.16659927368164,-7.662247657775879,17.03406524658203,1.6368509531021118,-1.2165024280548096,0.04673920199275017,742,746,792,40.522,1,0
1739303733.7725005,-0.06757390595594204,1.044745104950528,-0.4014158503700447,-1.4689580604526424,1.5508720493578136,1.1721985510901796,1.3466425727983358,0.0005420863626483638,0.000529380814925484,0.00045865321636197467,0.0005946918782116017,-2.0785146423488702e-05,0.0010945497414786378,0.00039649700773319245,-0.2825433909893036,-50.19040298461914,-7.690018653869629,17.01026153564453,1.6368509531021118,-1.2229111194610596,0.04673920199275017,741,747,790,40.522,0,0
1739303733.7834878,-0.0675738241119785,1.0447465538823242,-0.401423034288527,-1.4689616258072842,1.5508740261278422,1.1721952783379803,1.3466403778481189,-0.0005042127700904627,-0.00010592075763951928,-0.0012664697745657487,-0.00020013313197136354,0.0013120315293518123,-0.0019497807358682757,0.00040124070418844375,-0.2825433909893036,-50.24197769165039,-7.638443946838379,17.05786895751953,1.6231180429458618,-1.2036850452423096,0.06596527993679047,742,748,790,40.631,1,0
1739303733.7945,-0.06757260885706967,1.0447458254023432,-0.4014144331182169,-1.4689598431302653,1.5508698848246047,1.1721949771782596,1.3466371704643112,0.0004060702016828011,0.0014971376606704794,0.0015860921231108706,-0.00022481756344805518,-0.000479916201618001,-0.0002789480733063242,-0.0024277333449039848,-0.3301508128643036,-50.21817398071289,-7.690018653869629,17.03406524658203,1.6432596445083618,-1.2036850452423096,0.09343110024929047,742,748,791,40.414,2,0
1739303733.8045802,-0.06757313792463779,1.04474222375596,-0.40141302435501197,-1.468965488274159,1.5508745099956682,1.17219891418363,1.3466395516819245,-2.2796890853159334e-05,-0.0009027236993590165,0.0006781854131050224,-0.001126144736680759,0.0006930040500263193,0.0009497608807817482,-0.00012021045894727812,-0.3063471019268036,-50.13882827758789,-7.737626075744629,17.10944366455078,1.6432596445083618,-1.2100937366485596,0.07328949868679047,741,747,790,40.631,1,0
1739303733.8154995,-0.06757290210533794,1.04474587861973,-0.4014186300439378,-1.4689598431302653,1.5508725222643358,1.1722003329185302,1.346636699298915,6.940634749124058e-05,-0.00023355275908041592,-0.00025719708864837767,0.0007626955041024185,0.0007522636003881365,0.0007040483370099426,-0.0024121150734675214,-0.3063471019268036,-50.21817398071289,-7.662247657775879,17.03406524658203,1.6368509531021118,-1.2100937366485596,0.09343110024929047,741,750,791,40.631,1,0
1739303733.825503,-0.06757391181397382,1.0447428433892025,-0.40141655900231626,-1.4689616259203382,1.5508736730846466,1.1721995339210316,1.346638787715149,8.040569923172233e-05,-0.0014001244775872668,-0.00019658125472628995,-0.0002877028118245888,0.0005995844578133805,0.0008558931623044836,-0.0017200928183496752,-0.2825433909893036,-50.19040298461914,-7.690018653869629,17.05786895751953,1.6231180429458618,-1.2036850452423096,0.07969819009304047,740,749,791,40.414,1,0
1739303733.8374858,-0.0675711970491937,1.044745239258505,-0.4014186506024157,-1.468959736730388,1.5508712916977443,1.1721994176367785,1.3466443126635572,0.0013724918233208405,-0.0005194144350593421,-0.0010027329337635002,0.0006981693285106999,4.3785632817683524e-05,-0.0005634948310246646,0.003203853426302023,-0.3301508128643036,-50.19040298461914,-7.662247657775879,17.03406524658203,1.6432596445083618,-1.2036850452423096,0.03300629183650017,740,748,792,40.414,1,0
1739303733.8474948,-0.06757219051625477,1.0447457963448628,-0.4014164802655312,-1.4689598431296647,1.5508728070179,1.172198341201412,1.346634739225285,0.0005867461295899626,-0.0004600849764485245,8.88919280018037e-05,-0.0005456453644301595,0.0003846082246423102,-0.00018192378167711503,-0.003018559037824009,-0.3063471019268036,-50.21817398071289,-7.690018653869629,17.03406524658203,1.6304422616958618,-1.2036850452423096,0.08610688149929047,741,751,791,40.414,1,0
1739303733.858456,-0.0675741399040806,1.0447457435368153,-0.4014163226830134,-1.4689598431302653,1.5508748898432356,1.1721959750144295,1.3466365130269764,-2.878228266005607e-05,0.0002122317857547203,0.0003203199484538381,-0.00013051836294564493,0.00027584679374575077,0.00062303168662655,-0.000607531517104866,-0.2825433909893036,-50.19040298461914,-7.690018653869629,17.03406524658203,1.6496683359146118,-1.2100937366485596,0.09983979165554047,740,751,791,40.414,2,0
1739303733.8684664,-0.0675704779954759,1.0447419952903105,-0.4014174001613311,-1.4689616259203382,1.550872206415014,1.1722002151151674,1.3466329319137156,0.00140654949716484,-0.0004004526179416203,-4.8247306562405954e-05,0.0002440342638665075,0.00010968314235803094,0.001840333770205172,-0.0023233842756279206,-0.3301508128643036,-50.13882827758789,-7.713822364807129,17.05786895751953,1.6368509531021118,-1.2100937366485596,0.09343110024929047,740,752,791,40.522,1,0
1739303733.8784735,-0.06757503199170765,1.0447465806996967,-0.4014147763698802,-1.4689636557332022,1.550871291700403,1.1721984643916774,1.3466371702312498,-0.00015796313078232866,0.0006844440322524624,0.00037763946216869885,-0.0007820153324271755,-0.0001782463535968261,0.00023300698636036688,-0.00046477937417304207,-0.3063471019268036,-50.24197769165039,-7.713822364807129,17.08167266845703,1.6432596445083618,-1.1972763538360596,0.09343110024929047,741,750,790,40.631,1,0
1739303733.8894832,-0.06757220225231116,1.0447482936125108,-0.4014164815736605,-1.4689598431344526,1.5508728070179,1.1721987762549715,1.3466387940218423,5.8836123641566526e-05,2.1877821636786176e-05,-0.000535650185535973,0.0001229858640220582,0.0005328788196034925,0.00030155089049236717,-7.011392455170094e-05,-0.3063471019268036,-50.26578140258789,-7.690018653869629,17.03406524658203,1.6304422616958618,-1.1972763538360596,0.07969819009304047,744,751,791,40.631,1,0
1739303733.9004982,-0.06757218921310722,1.0447453334486116,-0.40141477632529965,-1.4689616258072844,1.5508712916977434,1.1721977385875053,1.3466442574286837,-0.00010509122742950679,-8.598043392715488e-05,0.0012801835340530265,-0.0007881453976681924,-0.0002491602868108665,-0.0015693005940770719,0.0014414850628165924,-0.3063471019268036,-50.19040298461914,-7.713822364807129,17.05786895751953,1.6432596445083618,-1.1972763538360596,0.03300629183650017,739,750,789,40.522,1,0
1739303733.911486,-0.06757413936277719,1.0447413780048405,-0.4014186387923199,-1.4689612627170916,1.5508728070179,1.172199204605057,1.3466395342390016,9.008472645108216e-05,-0.0007219843319695226,-0.0007472688728859523,-0.0008678186893931336,0.0008913900344344374,0.0010370802870005378,8.540448248129512e-05,-0.2825433909893036,-50.16659927368164,-7.662247657775879,17.08167266845703,1.6304422616958618,-1.2036850452423096,0.07328949868679047,739,751,791,40.522,2,0
1739303733.9215195,-0.06757603487731273,1.044745904770373,-0.40141846855867663,-1.4689611557357933,1.5508744706121316,1.1721974032957159,1.3466401141477007,-0.00046471636600329234,0.0004347083380026076,-0.00044652169936660273,0.00012452408233121714,0.0002260555137624193,-0.0008792962192294603,-0.0007206220817431538,-0.2825433909893036,-50.21817398071289,-7.690018653869629,17.08167266845703,1.6432596445083618,-1.1972763538360596,0.05955658480525017,740,751,792,40.414,1,0
1739303733.9324493,-0.06757661127449781,1.0447459783584694,-0.4014158500562243,-1.4689580602951744,1.5508690201890034,1.172200966542346,1.3466408171758084,-0.0008630767705614033,0.0014394378307024188,0.0009069518565029005,0.0013824853573107083,-0.002371922388359214,0.00016948609536121182,-0.000872674728218784,-0.2547723948955536,-50.19040298461914,-7.690018653869629,17.01026153564453,1.6624857187271118,-1.2165024280548096,0.05955658480525017,739,751,786,40.522,1,0
1739303733.9424772,-0.06757219052422467,1.044743117164577,-0.4014165589904583,-1.4689598431302626,1.5508720493578465,1.1721985098120298,1.346636623504865,0.0010242391522329516,-0.0010374887379483192,-0.00034871785165806386,0.0006386652482136976,-0.0010006076346279538,0.0008389213863784408,-0.002373906493220608,-0.3063471019268036,-50.19040298461914,-7.690018653869629,17.03406524658203,1.6368509531021118,-1.2036850452423096,0.08610688149929047,739,746,791,40.414,1,0
1739303733.953427,-0.06757398195389189,1.044745072758962,-0.4014158500454446,-1.4689598431302653,1.5508759859322883,1.1722009728310039,1.3466437850009267,-0.0001304919928122545,0.00014592048412877918,3.346972341491044e-05,0.0009180618841594866,0.00043858084930903417,0.0016505380367821485,0.0003182336057905819,-0.2825433909893036,-50.19040298461914,-7.690018653869629,17.03406524658203,1.6304422616958618,-1.2165024280548096,0.03300629183650017,738,750,791,40.522,1,0
1739303733.9635222,-0.06757590097422542,1.0447428434205581,-0.4014165473337216,-1.4689654872930127,1.5508697764493669,1.1722002747838645,1.3466376956362944,-0.0006005183902229658,3.529983813224586e-05,0.0001538716049693561,-0.00047986651215639977,-0.0005761906017706615,-0.0006344610519334649,-0.0009786342069656054,-0.2547723948955536,-50.19040298461914,-7.690018653869629,17.10944366455078,1.6560770273208618,-1.2100937366485596,0.05314789339900017,739,751,791,40.414,2,0
1739303733.973527,-0.06757390303292685,1.0447440701879118,-0.4014165590022668,-1.4689598303753453,1.5508728070179012,1.1721960536736302,1.346636836320433,0.0001028982586065449,0.00048060647082404453,0.0005615857929265663,0.0003688553730433976,0.00017445038131917224,-0.0026479539533197146,-0.0006572317236980433,-0.2825433909893036,-50.16659927368164,-7.690018653869629,17.03406524658203,1.6304422616958618,-1.2100937366485596,0.05955658480525017,738,750,791,40.522,1,0
1739303733.984498,-0.06757390292466764,1.0447480294008347,-0.4014186387923199,-1.4689598428031445,1.5508712916977434,1.1721994175590202,1.34664117456916,-0.00026837432480538337,0.0016099919676978345,-0.0002260194384997603,0.0006944853805401553,-0.0001315455856486233,-0.00035189826507903935,-0.0006721449236860341,-0.2825433909893036,-50.21817398071289,-7.662247657775879,17.03406524658203,1.6432596445083618,-1.2036850452423096,0.05955658480525017,738,751,791,40.522,1,0
1739303733.9945092,-0.06757390693025661,1.0447479764563274,-0.4014126769174016,-1.4689588855313578,1.5508714486811699,1.1721981173528933,1.346638753823849,-5.088665049377893e-05,0.0006748150200654731,0.0013065990464470173,0.0012943920799213804,0.0009813169214572882,-0.00015719744515342007,0.001397300399672095,-0.2825433909893036,-50.21817398071289,-7.713822364807129,17.03406524658203,1.6432596445083618,-1.2036850452423096,0.05314789339900017,737,750,791,40.631,2,0
1739303734.004511,-0.06757589610218141,1.0447479629374137,-0.4014186387567663,-1.4689606456257975,1.5508705345248401,1.1721971539874612,1.346642758706228,0.0005408983324392911,0.000811072991108165,-0.0008838522284769127,0.00028599276052617654,-0.0021594726641374113,0.0010570017746004295,0.0020080880604073487,-0.2547723948955536,-50.21817398071289,-7.662247657775879,17.05786895751953,1.6496683359146118,-1.2100937366485596,0.019273381680250168,737,750,791,40.631,0,0
1739303734.0164359,-0.06757219051216816,1.0447431907150873,-0.401416524008242,-1.468963405535331,1.5508723361752934,1.1721971406969127,1.3466375253570626,0.001165073817562794,-0.00017424175621644382,-3.414738902283307e-05,-0.0011274570077180787,-0.00038172478060309644,-0.0003829595249433677,-0.002241135767002516,-0.3063471019268036,-50.19040298461914,-7.690018653869629,17.08167266845703,1.6304422616958618,-1.2100937366485596,0.05955658480525017,737,749,792,40.522,1,0
1739303734.0264463,-0.0675759038967786,1.04474137257827,-0.4014165678325846,-1.4689598431302486,1.5508747340041542,1.1721972303114936,1.3466415665844882,-0.0006538981370656652,-0.0011099993395506705,0.00022444064728748347,-0.00016169537411625024,0.0012498026847740152,-0.0008381675320756441,-0.0008173054531921654,-0.2547723948955536,-50.16659927368164,-7.690018653869629,17.03406524658203,1.6231180429458618,-1.1972763538360596,0.05314789339900017,738,750,791,40.522,1,0
1739303734.0365036,-0.06757219051224515,1.0447413696006262,-0.4014148822894078,-1.4689616258072842,1.5508708472314239,1.1721959367176917,1.346644505979572,0.0010433900968574651,-0.0013085092514342903,-0.0002321018709903555,0.0004887532185314564,0.0002445132976963502,-0.0016905004438004963,0.0001359441103145117,-0.3063471019268036,-50.16659927368164,-7.713822364807129,17.05786895751953,1.6231180429458618,-1.2100937366485596,0.03300629183650017,737,750,792,40.522,1,0
1739303734.0475354,-0.06757390335770447,1.0447449929557635,-0.4014143192288344,-1.4689616228638451,1.550872454273756,1.1721977880956418,1.346640518381107,-4.349043139574658e-05,-0.0015713959222141988,0.0007586388311911446,-0.0007480842549049031,0.00017219618845865109,-0.0009390890305970678,-0.001374560834067921,-0.2825433909893036,-50.19040298461914,-7.690018653869629,17.05786895751953,1.6304422616958618,-1.2165024280548096,0.05314789339900017,738,749,791,40.522,1,0
1739303734.0584514,-0.06757413979582319,1.0447477140486507,-0.40141863831164665,-1.4689633819933337,1.5508724030530567,1.1721964590185392,1.3466450703156863,-0.0001689749427709756,0.0018773453204584515,0.0004682588352943672,-0.00022554091124765702,-0.000837257953900074,-0.0011165154868443342,0.0017488779119818692,-0.2825433909893036,-50.21817398071289,-7.662247657775879,17.08167266845703,1.6368509531021118,-1.2165024280548096,0.026597600430250168,739,750,791,40.522,2,0
1739303734.068515,-0.06757674419167073,1.0447457955808352,-0.4014186387923118,-1.4689596047112377,1.550872807669912,1.1721995737344746,1.3466404625693666,-0.0012750045854368305,0.001222902050464105,-0.0007706972607281592,0.0006212260520893919,1.94189580933244e-05,0.00028947680356418773,-0.0013282851559520002,-0.2825433909893036,-50.19040298461914,-7.662247657775879,17.03406524658203,1.6304422616958618,-1.2036850452423096,0.026597600430250168,738,750,791,40.414,2,0
1739303734.0794919,-0.06757299118163075,1.0447428736948223,-0.40141265042644836,-1.4689599255829031,1.550871291697747,1.1721963810299765,1.3466459376484348,-0.0011010044279583522,-0.0007090124015160897,0.0013680308312586265,0.0001916320407891021,-0.000473376789139174,-2.0281784243459918e-07,0.0025577016102108076,-0.2825433909893036,-50.19040298461914,-7.713822364807129,17.03406524658203,1.6432596445083618,-1.2165024280548096,0.019273381680250168,736,749,791,40.522,1,0
1739303734.0904624,-0.06757832377804725,1.0447431905886206,-0.4014186299957614,-1.468961615632898,1.5508715936757944,1.1721941035548433,1.3466414556507564,-0.0018678002878073736,-0.00047518909698400356,-0.00027377779449781124,0.000247203886176829,-0.0005778663159724096,-0.0030196696798291817,-0.0011208643220267961,-0.2309686839580536,-50.19040298461914,-7.662247657775879,17.05786895751953,1.6496683359146118,-1.1972763538360596,0.05314789339900017,735,750,791,40.522,1,0
1739303734.1004925,-0.06757377888875399,1.044744992088167,-0.4014144331033185,-1.4689613079156731,1.55087053405561,1.1721990979376304,1.3466438412207142,-0.0003609932777317808,-0.001054876363211935,-1.811765252368146e-05,0.0001439406432783892,-0.00028033860065516383,-0.0003814314121344277,0.0006107160447597535,-0.2547723948955536,-50.19040298461914,-7.690018653869629,17.05786895751953,1.6496683359146118,-1.2036850452423096,0.03300629183650017,738,751,790,40.414,1,0
1739303734.1105494,-0.06757358731312978,1.0447453377002465,-0.4014179775621482,-1.4689580561962283,1.5508705471196174,1.1722010774965816,1.3466411379238774,0.0007113834647177015,-0.0005916302815452566,-0.0005850612636258163,0.0014899459327315599,0.0004985682008633008,6.323342841741466e-05,0.0007542009316134277,-0.2825433909893036,-50.19040298461914,-7.638443946838379,17.01026153564453,1.6496683359146118,-1.2165024280548096,0.05955658480525017,739,748,792,40.522,2,0
1739303734.1215277,-0.06757421871143947,1.0447418460398674,-0.40141475848775393,-1.468958060453174,1.5508731220781247,1.172195920879415,1.346645935735755,-0.0012557090908591332,-0.0008393040488533924,-0.00037245241303645503,0.0014875580887029726,0.00034548955389024686,-0.0014191363488126852,0.0026907464295645557,-0.2825433909893036,-50.16659927368164,-7.690018653869629,17.01026153564453,1.6368509531021118,-1.2036850452423096,0.019273381680250168,737,749,791,40.522,2,0
1739303734.132546,-0.06757585712939344,1.0447448794816399,-0.40141477534999565,-1.468963851047356,1.55087204935984,1.1721963961119106,1.3466387940218425,-0.0012285821070801956,0.0004687126547644858,0.0007822461896755449,-0.001658069563580597,1.243973142292257e-05,0.0006255205792592707,-5.39750430381188e-05,-0.2547723948955536,-50.21817398071289,-7.713822364807129,17.05786895751953,1.6368509531021118,-1.2036850452423096,0.07969819009304047,737,753,791,40.414,1,0
1739303734.1435266,-0.06757047799121696,1.0447466328823418,-0.4014127574374211,-1.4689569821575623,1.5508697778311369,1.1721935559399188,1.346632135006083,0.0008063669060902178,0.00015660870044102541,0.0002711692518562106,0.0009854046592531508,-0.0005793278688922612,0.00038963657878322416,-0.0011209222633555762,-0.3301508128643036,-50.24197769165039,-7.737626075744629,17.03406524658203,1.6560770273208618,-1.1899521350860596,0.09983979165554047,737,748,791,40.631,1,0
