IITGN-Robotics/Franka_IITGN_ROBOTICS/franka_ros/franka_iitgn/data01/s_b_004.csv
time,fr3_joint1_pos,fr3_joint2_pos,fr3_joint3_pos,fr3_joint4_pos,fr3_joint5_pos,fr3_joint6_pos,fr3_joint7_pos,fr3_joint1_vel,fr3_joint2_vel,fr3_joint3_vel,fr3_joint4_vel,fr3_joint5_vel,fr3_joint6_vel,fr3_joint7_vel,fr3_joint1_eff,fr3_joint2_eff,fr3_joint3_eff,fr3_joint4_eff,fr3_joint5_eff,fr3_joint6_eff,fr3_joint7_eff,flexpin1,flexpin2,flexpin3,Force,ContactMic,ContactMic_gt
1739302732.0209587,-0.08882586158927688,1.0544054265277416,-0.37410782628492056,-1.4537059745296574,1.5443321568197221,1.1641964100511086,1.3484145067706252,0.0006634261570069109,0.0004386134303348701,-0.00045763417265464715,-0.0004747475610654387,0.0010757259984791945,0.000717385248591996,0.0004655931429995453,2.113696813583374,-50.03567886352539,-5.480240821838379,16.68891143798828,1.5251566171646118,-1.4664413928985596,-0.0072769103571772575,,,,,,,,,
1739302732.0319576,-0.08882746015105347,1.0544037522596001,-0.37410774749998366,-1.4537021916079718,1.5443303492008138,1.1641964100511086,1.3484157538570782,0.0007339484225901661,0.0010994790032169007,0.0007801504553622629,0.0010121573123509425,-0.00012264335534980828,0.00012070036283468678,0.000746560671640009,2.137500524520874,-50.01187515258789,-5.480240821838379,16.63733673095703,1.5379739999771118,-1.4664413928985596,-0.027418512850999832,,,,,,,,,
1739302732.0429606,-0.08882843857175826,1.0544063841147393,-0.37410667117795354,-1.4537039386142077,1.5443282255990305,1.1641941370708735,1.348410873611149,3.470828290950143e-05,0.0020350816413597433,-0.001305929492578185,0.001577400380547494,0.0017255361093995115,-0.0006931735937711846,0.00021809627026409212,2.062122106552124,-50.03567886352539,-5.579422950744629,16.68891143798828,1.5315653085708618,-1.4472153186798096,0.012864691205322742,,,,,,,,,
1739302732.0549228,-0.0888520059956691,1.0544185558466326,-0.37415219176884856,-1.4536755780634036,1.5443284230876295,1.1641878743897929,1.3484097673392015,-0.00239068698288191,-0.00021876675826488622,-0.002897212309941827,0.003314147874867592,-0.000305698040690594,-0.00013511295114336682,-0.0015837470429856206,1.014758825302124,-50.21817398071289,-6.341141700744629,16.88727569580078,1.5581156015396118,-1.3941147327423096,0.05314789339900017,,,,,,,,,
1739302732.0649686,-0.08888568653968218,1.0544195142805994,-0.37417442727838246,-1.4536418771968187,1.5443323595194238,1.1641800662411022,1.3484150721879984,-0.002443289660968249,-0.0012207089682247981,-0.0023015287068842345,0.0019027585395632195,0.0023691587917337147,-8.208826684743322e-05,0.0003404770375759962,0.8401983380317688,-50.26578140258789,-6.420487403869629,16.83570098876953,1.5517069101333618,-1.3281967639923096,-0.013685601763427258,,,,,,,,,
1739302732.0759075,-0.08891155574108994,1.0544220596846972,-0.37418898899834524,-1.4536141284035478,1.5443261501322099,1.1641746543831446,1.3484138461991004,-0.0027200519808392764,0.0005137762571120383,-0.0006968844641237174,0.001054691504611052,4.929751949073679e-06,0.00016773567458882644,-0.00035858695111931524,0.7925909161567688,-50.26578140258789,-6.468094825744629,16.81189727783203,1.5773416757583618,-1.2824203968048096,0.026597600430250168,,,,,,,,,
1739302732.0859172,-0.08891285114750153,1.054423978827546,-0.3741864790572865,-1.4536084843280421,1.5443265545735974,1.164176380409773,1.348418474512192,-0.0004291541819323053,0.0024966125062080907,0.00024053996719012203,0.0012933091702821687,0.00035287938598414835,0.0006995735759179671,0.0027615482061742053,0.6656377911567688,-50.29355239868164,-6.519669532775879,16.83570098876953,1.5709329843521118,-1.3089706897735596,-0.020094294100999832,,,,,,,,,
1739302732.097002,-0.08891912463035587,1.054427609812267,-0.3741741458191752,-1.4536095783925047,1.5443269077856423,1.1641800089934318,1.3484096619712704,-0.000621404624733886,0.0006203820930864889,0.0013960034393545213,-0.001325571638051005,-0.0006651137064926281,0.0016204066539470265,-0.001253061073056424,0.6180303692817688,-50.34512710571289,-6.646622657775879,16.93488311767578,1.5709329843521118,-1.3281967639923096,0.026597600430250168,,,,,,,,,
1739302732.107011,-0.08892745891621917,1.054431399745365,-0.37417410750488356,-1.4536094654351663,1.5443276654463851,1.1641783923212383,1.3484180056830755,-0.00013964776191916663,-0.00020603310848903766,-0.0006689868766376118,0.00035783469938504615,-0.00042194113982570684,0.0013355327458450075,-0.00017786761991904916,0.6894415020942688,-50.39670181274414,-6.646622657775879,16.93488311767578,1.5645242929458618,-1.3153793811798096,-0.0072769103571772575,,,,,,,,,
1739302732.1189983,-0.08893142930441131,1.0544352619592396,-0.3741756543763573,-1.45361067055298,1.5443261501262284,1.1641738226120513,1.3484203267160964,-0.0010202874940183828,0.00017600567002931574,-0.0007133528002690572,-0.0006837358170330366,-0.0008233305201821332,0.0001854703857334789,0.0012298228633234043,0.6656377911567688,-50.42050552368164,-6.622818946838379,16.91107940673828,1.5773416757583618,-1.2888290882110596,-0.0008682189509272575,,,,,,,,,
1739302732.1299512,-0.08892707078680795,1.0544276902703182,-0.37417951280828365,-1.4535963255155522,1.5443261507722508,1.164169128357466,1.3484169123324274,0.001362522198927076,-0.000103804860389479,-0.0007906124514046489,0.0020547373281426186,0.0003300229330193821,0.0005615235973989791,-4.9338222147037644e-05,0.5902593731880188,-50.34512710571289,-6.571244239807129,16.78809356689453,1.5773416757583618,-1.2760117053985596,-0.0008682189509272575,,,,,,,,,
1739302732.141572,-0.08892570966578092,1.0544284045408696,-0.37417386766438243,-1.4535963548365085,1.5443267900487407,1.164164296420726,1.3484140357487364,0.0001904349840344396,0.0010449193285222615,0.0007833339448644657,0.0013624481159240666,-0.0004380921792037901,0.00038502405612100355,-0.000373610158079707,0.5664556622505188,-50.34512710571289,-6.646622657775879,16.83570098876953,1.5709329843521118,-1.2760117053985596,-0.0008682189509272575,,,,,,,,,
1739302732.1519444,-0.08892941138079329,1.0544316381693277,-0.3741740273459616,-1.4536041972196705,1.5443270255232122,1.1641657560910834,1.3484128547918008,-0.0008060301462434541,0.0003781649720502655,-0.00022294610080676394,-0.0005597147879607735,0.000586965612100716,-0.00035400889014130285,-0.0004135949349989897,0.6180303692817688,-50.39670181274414,-6.646622657775879,16.91107940673828,1.5709329843521118,-1.2888290882110596,0.03941498324275017,,,,,,,,,
1739302732.162994,-0.08893559222105452,1.0544294021369445,-0.37417953930193354,-1.4536049022505968,1.5443311855866748,1.1641739971446454,1.3484160638779934,-0.0006767935639411639,-0.000662056563411098,-0.0007415746291090125,0.000374980802056312,0.0027765449806172898,0.0007839530848629103,-2.9229390542951468e-05,0.6656377911567688,-50.36893081665039,-6.571244239807129,16.95868682861328,1.5709329843521118,-1.3217880725860596,0.0064559997990727425,,,,,,,,,
1739302732.174933,-0.08893026109262125,1.0544256926524695,-0.37417565032945055,-1.4536023625862522,1.5443252822989786,1.1641722070180571,1.3484100819036027,0.0015526727251206312,-0.0006076089233845419,-9.419581154307153e-05,0.0009097394658842048,5.211527435144134e-05,-0.000496414304660344,-0.0018359874970246808,0.5902593731880188,-50.31735610961914,-6.622818946838379,16.88727569580078,1.5846658945083618,-1.3153793811798096,0.03300629183650017,,,,,,,,,
1739302732.1849992,-0.08893465430131298,1.054427689285149,-0.37417565917171897,-1.453595989105168,1.5443226807589674,1.1641698144077068,1.3484156401516705,-0.00029013663689292943,6.370797886709337e-05,-0.00032808251576822885,0.001618281825545493,-0.0007886961521557742,-0.001019964660702964,-0.0014353018417715992,0.6418340802192688,-50.34512710571289,-6.622818946838379,16.81189727783203,1.5846658945083618,-1.2952377796173096,0.012864691205322742,,,,,,,,,
1739302732.1959817,-0.08893397447866175,1.05443154757307,-0.37417565034141803,-1.4536016105596077,1.5443249310113873,1.164161222580365,1.3484119362784235,-0.0006706212768367492,0.00047202369039297956,0.00020495558460622768,0.0003550209351066469,-0.000928625066495946,-0.0015203782194279556,-0.0016834459841538166,0.6418340802192688,-50.36893081665039,-6.622818946838379,16.88727569580078,1.5846658945083618,-1.2494614124298096,0.05314789339900017,,,,,,,,,
1739302732.2068934,-0.08893229800697963,1.0544294018543094,-0.3741757563052144,-1.4535994618812242,1.5443280172035507,1.164161859553905,1.348417265706848,0.0025884926963754985,0.0005026154769492709,2.2125531274531078e-05,0.0006548694218225057,-0.0008521852236853379,-0.0004053371606570356,0.00027561577144499414,0.6180303692817688,-50.36893081665039,-6.622818946838379,16.88727569580078,1.5645242929458618,-1.2558701038360596,-0.0008682189509272575,,,,,,,,,
1739302732.2168992,-0.08893691837076262,1.0544314909933283,-0.37417472772711735,-1.4535994739335625,1.5443252840734476,1.164170061361243,1.3484140184248683,-0.00018695174930233145,-0.00043821273001553814,0.0007968968477672706,-0.0005375525942885829,0.00023240665760675805,0.0016321044696623519,-0.00027815006069891157,0.6418340802192688,-50.39670181274414,-6.674393653869629,16.88727569580078,1.5846658945083618,-1.2888290882110596,0.026597600430250168,,,,,,,,,
1739302732.2270048,-0.08893341928040288,1.054427768868548,-0.3741718144152667,-1.453599473715734,1.5443276654463827,1.1641665138237578,1.3484230194120512,0.0004513795165130327,-0.0008412685874995777,-1.452882307170772e-05,-0.0013651518033837712,0.0012129106705417725,0.00037863348666456126,0.002140112484302783,0.5902593731880188,-50.34512710571289,-6.674393653869629,16.88727569580078,1.5645242929458618,-1.2952377796173096,-0.013685601763427258,,,,,,,,,
1739302732.2379644,-0.08893926850210016,1.054434508055345,-0.37417556296501214,-1.4536005211210234,1.5443261501262284,1.1641681242262065,1.3484172655633038,-0.0007052912891020802,0.0016672458286225778,-0.00013317581922921552,-0.00015784836806140388,-0.0006487144627802285,1.1066196200055015e-05,0.0006727585321458379,0.6418340802192688,-50.39670181274414,-6.622818946838379,16.88727569580078,1.5773416757583618,-1.3089706897735596,-0.0008682189509272575,,,,,,,,,
1739302732.2489257,-0.08893888038604385,1.0544317177647125,-0.37417565023290134,-1.4536055252345463,1.5443269077863069,1.1641665137507737,1.3484163996421445,-0.0015599679279252531,0.001717639684288876,-0.00015017239515080591,-0.002325841342366004,4.6156795535623295e-05,-0.0006350380632567788,0.00013378252609358443,0.6656377911567688,-50.39670181274414,-6.622818946838379,16.95868682861328,1.5709329843521118,-1.2952377796173096,0.0064559997990727425,,,,,,,,,
1739302732.259,-0.0889389184617446,1.0544294018112434,-0.37417320074584753,-1.453601968716961,1.5443269034256562,1.1641673796480798,1.34841218937816,-0.00033253302113625993,-0.00013522615852471702,-2.056879049663733e-05,-0.0010366283190414642,-0.00014636638603471747,0.00020439762493080417,-0.0012648521734183581,0.6656377911567688,-50.36893081665039,-6.622818946838379,16.91107940673828,1.5709329843521118,-1.3025619983673096,0.07328949868679047,,,,,,,,,
1739302732.2699203,-0.08893545576698449,1.0544235456134006,-0.37417385890199883,-1.4535974880108014,1.5443277054832814,1.1641649984306908,1.3484180203131908,0.0005393833617105464,-0.0019059693982998226,0.0006906166334667452,0.0001686386597503234,2.307445635733917e-05,-0.00043379255507230405,0.0005137054135051837,0.6180303692817688,-50.31735610961914,-6.646622657775879,16.85950469970703,1.5910745859146118,-1.2824203968048096,-0.0072769103571772575,,,,,,,,,
1739302732.2799678,-0.08893452384352366,1.0544292539431608,-0.3741735215260709,-1.4535994618345505,1.5443261501800638,1.164166356767421,1.3484180231994065,0.0006182144382153597,-0.0003982019064951343,-0.00030611207379386017,-0.0002118495347468412,0.0008675636743490781,0.00013074411786608188,0.0007856288830187927,0.5902593731880188,-50.39670181274414,-6.622818946838379,16.88727569580078,1.5773416757583618,-1.2952377796173096,-0.0072769103571772575,,,,,,,,,
1739302732.2910051,-0.08893428407515162,1.0544294017937448,-0.3741739481063713,-1.453601244696852,1.5443250919416498,1.1641642407697264,1.3484173183517028,0.0015888604268109985,-0.00092006051808017,0.0001819878979936091,-0.00027148500415907366,-0.0009400774094847127,6.149403222654483e-05,0.001917708457575789,0.5902593731880188,-50.36893081665039,-6.646622657775879,16.91107940673828,1.5773416757583618,-1.2760117053985596,-0.0008682189509272575,,,,,,,,,
1739302732.3018982,-0.08894094881751176,1.0544256913442738,-0.3741738673408159,-1.4535973820429013,1.5443249295567627,1.1641665137508475,1.348412503105007,-0.0016010731962342642,-0.0009755840091882286,-0.00028101920050957506,0.0007322807827976759,-0.0007103794133011196,0.00020869780523295316,-0.0021082492400979714,0.6894415020942688,-50.31735610961914,-6.646622657775879,16.85950469970703,1.5846658945083618,-1.2952377796173096,0.03941498324275017,,,,,,,,,
1739302732.3119698,-0.08893581017156346,1.0544308680904986,-0.3741686908858591,-1.453599461832756,1.544324565808768,1.1641657560907692,1.3484180228764442,0.0010719508612033284,0.00040761432481006187,0.0016808246106308027,0.00010437850922095495,-0.00017361761125333488,-0.00039160741884087695,-0.000824500466095219,0.6180303692817688,-50.34512710571289,-6.674393653869629,16.88727569580078,1.5910745859146118,-1.2888290882110596,-0.0072769103571772575,,,,,,,,,
1739302732.3220222,-0.08893915708468178,1.0544316382191234,-0.3741738675039278,-1.453599461832756,1.5443276654470497,1.1641642407706125,1.3484119904201808,0.0005999059869509812,0.0009521967780261647,4.1590010839212814e-05,-2.1645809993421227e-05,4.005230208103689e-05,-0.0005397462416476314,-0.002160180085395634,0.6656377911567688,-50.39670181274414,-6.646622657775879,16.88727569580078,1.5645242929458618,-1.2760117053985596,0.04673920199275017,,,,,,,,,
1739302732.3329525,-0.08894037158658788,1.0544294021342528,-0.3741756240957339,-1.4535994621598045,1.5443252391689384,1.1641657560907692,1.3484188600530984,-0.00015988616496251075,-0.0007092123401162351,0.0004113326081128245,-0.0006287560679322587,-0.0012449810610832446,-6.431163216880984e-05,0.0011670847076772756,0.6418340802192688,-50.36893081665039,-6.622818946838379,16.88727569580078,1.5846658945083618,-1.2888290882110596,-0.013685601763427258,,,,,,,,,
1739302732.3439658,-0.08893644414434537,1.0544286733749875,-0.3741739339683431,-1.4535946555030346,1.5443269077855437,1.164166446602801,1.3484150022225145,-2.2651891417448317e-05,0.0007758284111593372,0.001334831434655149,0.0007845157830013689,-0.0002051431669737784,0.00020488389833618446,-0.000882960382978887,0.6180303692817688,-50.34512710571289,-6.674393653869629,16.83570098876953,1.5709329843521118,-1.2824203968048096,0.019273381680250168,,,,,,,,,
1739302732.354115,-0.0889366598268847,1.0544294136941865,-0.37417352445451924,-1.4536012358961992,1.5443245286684906,1.1641649984388658,1.3484101219418205,0.0002230534191371278,0.00010242532290969517,0.0003057848564125958,0.0004424940270473908,-0.0004512986624161347,-2.809967269032577e-05,-0.0025931932088066236,0.5902593731880188,-50.36893081665039,-6.622818946838379,16.91107940673828,1.5910745859146118,-1.2824203968048096,0.05955658480525017,,,,,,,,,
1739302732.3658924,-0.08893913298564321,1.0544276892851938,-0.3741777301192563,-1.453597381098044,1.5443269077863189,1.1641657560907694,1.348418380772816,-0.0002704700127940347,-0.000287407364571522,0.00010935087392407018,0.0007893934991528738,0.0004879558094732244,0.0002535457678030296,0.0015361037687592646,0.5902593731880188,-50.34512710571289,-6.595047950744629,16.85950469970703,1.5709329843521118,-1.2888290882110596,-0.0072769103571772575,,,,,,,,,
1739302732.3758998,-0.08894208446257357,1.054428404540864,-0.37417773013125694,-1.453597382042895,1.5443281099306743,1.1641665137508477,1.3484150020616863,-0.0012696240928260843,0.0005145974249647002,-7.688109915759365e-05,0.0002671130507556636,0.00019682177458911444,0.0008178160087158917,8.567069909912314e-05,0.6656377911567688,-50.34512710571289,-6.595047950744629,16.85950469970703,1.5846658945083618,-1.2952377796173096,0.019273381680250168,,,,,,,,,
1739302732.3859468,-0.08894037160311684,1.0544279306592579,-0.37416609662149175,-1.4535985434797103,1.544325167185302,1.16416737964808,1.3484188985990977,0.0005985752076994343,0.0005044965470009179,0.002571824160522536,0.0007179553505104572,-0.000559453884905122,0.00021008955805814294,0.0011936545516108043,0.6418340802192688,-50.34512710571289,-6.722001075744629,16.88727569580078,1.5846658945083618,-1.3025619983673096,-0.013685601763427258,,,,,,,,,
1739302732.3959517,-0.0889403716031111,1.0544331475928008,-0.3741737887833734,-1.4536009808928854,1.5443221048281093,1.1641642407706128,1.3484164001286552,0.0003712996808543628,0.0008422310872245079,0.000159457627072876,0.00010640566174157002,-0.001146888787808485,-0.0007362588283230519,0.0006988319349459998,0.6418340802192688,-50.42050552368164,-6.646622657775879,16.91107940673828,1.5846658945083618,-1.2760117053985596,0.0064559997990727425,,,,,,,,,
1739302732.4059572,-0.08894250344349472,1.0544292870123255,-0.3741754138050453,-1.453598948622697,1.5443276608703853,1.164164998430691,1.3484174607338324,0.0003063337101345791,-0.0007427427678342769,0.0001360423241203966,5.171517581750929e-05,0.0003483637181591668,0.00011434215097080591,0.0016344991444769456,0.6418340802192688,-50.36893081665039,-6.622818946838379,16.91107940673828,1.5645242929458618,-1.2824203968048096,0.0064559997990727425,,,,,,,,,
1739302732.4159632,-0.08894079009279274,1.0544294018039138,-0.3741756143711118,-1.4535998923824927,1.5443269077862294,1.1641634831105343,1.3484171973572232,7.146364036994551e-05,0.0009837619956015056,3.482428018895188e-06,-0.0015387039235287238,0.00019550910705522071,-0.00022069252825529756,-8.506892822395299e-05,0.6180303692817688,-50.36893081665039,-6.622818946838379,16.91107940673828,1.5709329843521118,-1.2696030139923096,0.026597600430250168,,,,,,,,,
1739302732.4260008,-0.08894079301577738,1.054431399746711,-0.37417315903077425,-1.4535973950955907,1.544325639019373,1.1641665137508477,1.3484192520251546,-0.00032276490898056623,0.0012477217881267677,-0.0002444312165187758,-0.001446060637738871,-0.0002491335181192345,0.0006210740423962771,0.0020569811794627474,0.6180303692817688,-50.39670181274414,-6.646622657775879,16.88727569580078,1.5910745859146118,-1.2952377796173096,-0.013685601763427258,,,,,,,,,
1739302732.4370162,-0.08894208514630772,1.0544314531646823,-0.37417177620578584,-1.4535994881720706,1.544325284235276,1.164164998430691,1.348412856481584,-0.0002850436641807669,0.0010421956826463146,0.0007821692405288539,-0.00046777297777477253,0.0007388398820988484,-0.00014416133982176563,-0.00194899435995747,0.6656377911567688,-50.39670181274414,-6.674393653869629,16.88727569580078,1.5846658945083618,-1.2824203968048096,0.03941498324275017,,,,,,,,,
1739302732.4479258,-0.0889425063664992,1.054430355480476,-0.37417979716140315,-1.453596438180197,1.5443293290406164,1.164167419930264,1.3484108797108985,-0.0005818722315236757,0.0004951086711494023,-0.0012737592325274898,0.0012002987234069715,0.0007556195908496094,0.0009177948476291677,-0.001597601731039808,0.6418340802192688,-50.36893081665039,-6.595047950744629,16.85950469970703,1.5773416757583618,-1.3025619983673096,0.05314789339900017,,,,,,,,,
1739302732.4588962,-0.088940380384158,1.0544313997520944,-0.37416966195119605,-1.4535969991499234,1.5443261480446009,1.1641673796483074,1.3484158757061597,0.00028078816372281034,0.0006926019489015206,0.0015801877432401494,0.0007591996185571117,-0.0005072862708213995,0.00024002312944807635,0.0005414695017220909,0.6418340802192688,-50.39670181274414,-6.674393653869629,16.88727569580078,1.5773416757583618,-1.3025619983673096,0.04673920199275017,,,,,,,,,
1739302732.46902,-0.08894037149474825,1.0544256913442738,-0.3741756240597321,-1.4536030016352814,1.5443261370442412,1.1641665137508477,1.348417736561436,-0.0005059043044291675,-0.0016328214170165305,-7.897110425330133e-05,-0.0018652781615713797,-0.00011064171133746866,0.00022109990621656044,0.0009212225284667435,0.6418340802192688,-50.31735610961914,-6.622818946838379,16.93488311767578,1.5773416757583618,-1.2952377796173096,-0.0008682189509272575,,,,,,,,,
1739302732.4809582,-0.08893494862079505,1.054432992022498,-0.37417386377598716,-1.4535994495501119,1.5443261515797049,1.1641642407706128,1.3484154370925645,0.0017541905247417107,0.00042919548101077207,-8.022892789382547e-05,0.0003295676620130346,4.0992414086518584e-05,0.00017987484283381856,-0.0005146779541545938,0.5664556622505188,-50.42050552368164,-6.646622657775879,16.88727569580078,1.5773416757583618,-1.2760117053985596,0.026597600430250168,,,,,,,,,
1739302732.4919589,-0.08894216347784398,1.054429174942777,-0.3741738550275726,-1.453601207662253,1.5443269077863098,1.164164998430691,1.3484116547245293,-0.0006244859983291372,-0.0009236460523119338,0.00015596246509925964,0.000647297506250661,0.0003794096465998983,-0.0012649634251038332,-0.00013424552707418883,0.6656377911567688,-50.36893081665039,-6.646622657775879,16.91107940673828,1.5709329843521118,-1.2824203968048096,0.04673920199275017,,,,,,,,,
1739302732.501973,-0.0889388968209512,1.054431399742869,-0.3741738676641684,-1.4535993484552125,1.5443261501262286,1.164164998430691,1.348418023199752,3.8881662462295804e-05,0.0002061562755562718,0.0002298753554395775,-0.0002865713636605356,-0.0008145889840005532,0.0003273851540076825,-0.00023203540629162102,0.6180303692817688,-50.39670181274414,-6.646622657775879,16.88727569580078,1.5773416757583618,-1.2824203968048096,-0.0072769103571772575,,,,,,,,,
1739302732.5120215,-0.08894039888845841,1.0544277288580322,-0.37417385319247276,-1.453598222068151,1.544326268025304,1.16416737964808,1.3484101220488254,0.0002403193777254766,0.00014328793558608763,0.00012382871087460813,-0.0005099874362040353,0.0006232605805430241,-0.0004682441647315337,-0.002983215879084366,0.6418340802192688,-50.34512710571289,-6.646622657775879,16.91107940673828,1.5773416757583618,-1.3025619983673096,0.05955658480525017,,,,,,,,,
1739302732.523903,-0.08893969782966377,1.0544256914535135,-0.37417084303044645,-1.4535973564110531,1.5443260977990851,1.16416737964808,1.34841569510105,-0.00015445470183383649,-0.0003395049142107273,0.0012099582497520195,0.0005931608282635968,-0.001119455374924909,6.654236600160794e-05,-0.002047298684703592,0.6180303692817688,-50.31735610961914,-6.674393653869629,16.85950469970703,1.5773416757583618,-1.3025619983673096,0.03941498324275017,,,,,,,,,
1739302732.5349,-0.08893866009475379,1.054427692228566,-0.37417530914595737,-1.4536005472416735,1.544324683552246,1.16416737964808,1.3484152506227662,0.0015671179488788377,-0.0011331576596114372,0.0006604899179081998,-0.0010805444699133436,0.0004282371731830863,0.0007811234557140779,-0.0005117399504466837,0.6180303692817688,-50.34512710571289,-6.622818946838379,16.91107940673828,1.5910745859146118,-1.3025619983673096,0.019273381680250168,,,,,,,,,
1739302732.5449307,-0.0889410818918461,1.0544256926526183,-0.37417566806646463,-1.4535935075262973,1.5443269470401393,1.1641665137508477,1.3484192518284235,0.000130747233632949,-0.0014103206496613682,0.0007082227336494776,0.001474766882298758,0.0008243896833549084,-0.00022415117873513093,0.0018269241776958005,0.6418340802192688,-50.31735610961914,-6.622818946838379,16.83570098876953,1.5709329843521118,-1.2952377796173096,-0.013685601763427258,,,,,,,,,
1739302732.5559785,-0.08894278411528966,1.0544293988624212,-0.37417382424868684,-1.4536005554144544,1.5443247034714402,1.1641649979461741,1.3484209506177547,-0.00013235126535009038,0.00024649725378621544,-0.00035742571507919386,-0.0011495847194813182,-0.001248758861515937,-0.0006571487559893915,0.002257295792966316,0.6418340802192688,-50.36893081665039,-6.646622657775879,16.91107940673828,1.5910745859146118,-1.2824203968048096,-0.020094294100999832,,,,,,,,,
1739302732.5669975,-0.08894161861413696,1.0544294018058413,-0.3741717616286151,-1.4535973564242248,1.5443252842299948,1.1641649591848315,1.3484175183829348,-0.001995481479145594,-8.918476063944427e-05,0.00021507136563259695,0.0009847102126770801,-0.00012222208551924355,-0.0001954497297562263,2.396447228887003e-05,0.6180303692817688,-50.36893081665039,-6.674393653869629,16.85950469970703,1.5846658945083618,-1.2824203968048096,0.03300629183650017,,,,,,,,,
1739302732.5779307,-0.08894211434486882,1.0544277246063976,-0.3741756500172327,-1.4535985434445728,1.5443276596321842,1.1641649984304694,1.3484210037224045,-0.0005996992321194825,-0.0002526854592768762,-0.000684173006410308,-0.000903797125247283,0.000647486031816987,0.00019649191773338183,0.005460276348567815,0.6656377911567688,-50.34512710571289,-6.622818946838379,16.88727569580078,1.5645242929458618,-1.2824203968048096,-0.020094294100999832,,,,,,,,,
1739302732.5879438,-0.08894525005672148,1.0544294018064562,-0.3741738673403563,-1.4535952099145373,1.5443275571627681,1.1641665137508475,1.3484132607896007,-0.001252004664453463,-0.0004506124550474207,0.000138589288657431,0.0018043291629321143,0.0004150760942877458,0.000904235095952929,-0.0013979299789592147,0.6656377911567688,-50.36893081665039,-6.646622657775879,16.85950469970703,1.5773416757583618,-1.2952377796173096,0.03300629183650017,,,,,,,,,
1739302732.5988946,-0.08894081757240122,1.0544276892851268,-0.3741756503413996,-1.4536009354404298,1.5443261457735205,1.1641657560907692,1.3484133176147526,0.0009343409248028604,0.00011709973796557827,-0.0004400916572569874,0.0004267104725207002,-0.0013758914201938708,-0.00027246966512047314,0.0001913924446176465,0.6180303692817688,-50.34512710571289,-6.622818946838379,16.91107940673828,1.5773416757583618,-1.2888290882110596,0.03300629183650017,,,,,,,,,
1739302732.6089287,-0.0889388313422254,1.0544239788235426,-0.3741735244424045,-1.4535991782101885,1.5443248001966905,1.1641665006688953,1.3484174725246945,0.0015839279476851382,-0.0015914199619826044,0.0009048830652924748,-0.0007238726070601736,-0.002369909249936821,0.0004444983574268832,0.0007157058739289883,0.5902593731880188,-50.29355239868164,-6.622818946838379,16.91107940673828,1.5846658945083618,-1.2952377796173096,0.0064559997990727425,,,,,,,,,
1739302732.6199157,-0.08894113489902951,1.0544264424821932,-0.37417637733489345,-1.4536005215919434,1.5443266622522347,1.1641673796478584,1.3484113635977992,-2.960698351863199e-05,-0.001557260974651495,-0.001020440484296343,-0.001282914711619505,0.0014460138891518438,0.0006049194765871397,-0.001068370468798992,0.6180303692817688,-50.29355239868164,-6.622818946838379,16.91107940673828,1.5773416757583618,-1.3025619983673096,0.05314789339900017,,,,,,,,,
1739302732.6299536,-0.08893866007068886,1.054425691358181,-0.3741717878786307,-1.453594974668902,1.5443257969164097,1.164165743008817,1.3484134723772045,0.0005467258269848832,-0.0013496050018322555,0.001483146023915939,0.001016255792444421,-0.0019714351561600937,0.00025425508713533107,-0.0015434106667055053,0.6180303692817688,-50.31735610961914,-6.674393653869629,16.85950469970703,1.5773416757583618,-1.2888290882110596,0.05955658480525017,,,,,,,,,
1739302732.641008,-0.08894090831184026,1.054431638492339,-0.3741777304583058,-1.4535964389245548,1.5443258772755026,1.1641673750720145,1.3484207979007292,0.00019922907114417024,0.001955789656092607,-0.00036251746457183356,-0.0003302624621473952,-0.00022321775049000852,0.0006117164731694406,0.0017983950209334058,0.6180303692817688,-50.39670181274414,-6.595047950744629,16.88727569580078,1.5846658945083618,-1.3025619983673096,-0.0008682189509272575,,,,,,,,,
1739302732.6529531,-0.08894151230267,1.0544277010602314,-0.3741777290511903,-1.4535966289323983,1.5443269077896546,1.1641657560907435,1.348411637281252,0.0002864601341821844,-0.0004726793398325122,0.00016788119301306792,4.804012755051665e-05,0.0010662008902962666,0.0002809719393086383,-0.0008286389359770737,0.6180303692817688,-50.34512710571289,-6.595047950744629,16.88727569580078,1.5709329843521118,-1.2888290882110596,0.04673920199275017,,,,,,,,,
1739302732.6630092,-0.08894259421690648,1.0544304350621168,-0.3741756768323486,-1.4535994614668353,1.5443237752075571,1.1641649984306908,1.348417243045334,0.0004066565137004274,0.0003754253162840035,0.000230001734422345,-0.0016678513525945433,-0.0005272603766288079,-0.0001724023907492924,-0.0011714030659237468,0.6418340802192688,-50.36893081665039,-6.622818946838379,16.88727569580078,1.5974832773208618,-1.2824203968048096,0.026597600430250168,,,,,,,,,
1739302732.6739085,-0.0889435562046959,1.0544294018116906,-0.3741738676645319,-1.453601218999966,1.5443245788967623,1.1641657560907692,1.3484164127422997,0.00019648529969723213,-5.497941658802019e-05,0.00010403510525211115,-0.0008569652845596997,0.0001545125003895001,0.0001570786234111876,0.0015719858839293261,0.6418340802192688,-50.36893081665039,-6.646622657775879,16.91107940673828,1.5910745859146118,-1.2888290882110596,0.0064559997990727425,,,,,,,,,
1739302732.6849072,-0.08893914419276823,1.0544284041047989,-0.3741758887599806,-1.4535952094750388,1.5443280699478845,1.1641657560907692,1.3484164548607742,0.001190643927163612,5.7140096612509305e-05,-0.00071001780706906,0.0014005643404235893,0.001208230446547103,9.117825501228676e-05,0.0007104109313050091,0.5902593731880188,-50.34512710571289,-6.622818946838379,16.85950469970703,1.5581156015396118,-1.2888290882110596,0.03300629183650017,,,,,,,,,
1739302732.6949668,-0.08894356496710956,1.0544295107252155,-0.37417386766842003,-1.4535984329004215,1.544328418739832,1.1641657560907692,1.3484186784443084,0.0004168024991284022,-0.00039153809598664504,0.0009443665342251255,-0.000940171120301444,0.00042932511102343273,0.0005214048599803262,0.0006106737118423066,0.6418340802192688,-50.36893081665039,-6.646622657775879,16.88727569580078,1.5581156015396118,-1.2888290882110596,-0.0008682189509272575,,,,,,,,,
1739302732.7050686,-0.0889396206776587,1.0544313997485555,-0.37417326793863565,-1.453598531704679,1.54432527114697,1.1641661605381377,1.348419280527992,0.0005347234172008504,0.0009557280911710795,0.00046663928204917533,-0.0005100667437561057,-0.0007521833827536734,6.225118640996931e-05,0.00027673731798353614,0.5902593731880188,-50.39670181274414,-6.646622657775879,16.88727569580078,1.5846658945083618,-1.2952377796173096,0.019273381680250168,,,,,,,,,
1739302732.7158988,-0.08893961937726134,1.0544259327062921,-0.37417776544914255,-1.453599100421008,1.5443279674243624,1.1641654541107243,1.3484207991448418,0.0017942054959037498,-0.0008405570980929201,-0.00021328028689060978,-0.0012848813136688403,0.0005016585265746257,-0.00029774073817880276,9.364615184103046e-05,0.5902593731880188,-50.31735610961914,-6.595047950744629,16.91107940673828,1.5709329843521118,-1.2952377796173096,-0.0008682189509272575,,,,,,,,,
1739302732.7261035,-0.08894174138047514,1.054429400828799,-0.3741738676649805,-1.4535981450844255,1.5443261501441736,1.1641688949502915,1.348413305383706,0.00025848866176263267,-6.722379184688314e-05,-2.1172942838834316e-05,0.0004825917146572267,-6.402300296812091e-05,0.001078404832383669,-0.003269572570465015,0.6180303692817688,-50.36893081665039,-6.646622657775879,16.91107940673828,1.5773416757583618,-1.3153793811798096,0.05955658480525017,,,,,,,,,
1739302732.737074,-0.0889452800974972,1.054427701058878,-0.3741753471671589,-1.4535963995536623,1.5443261501262286,1.1641649984306908,1.3484180630016347,-0.000975112368333624,-0.0003452217633061944,-0.000815716563002262,-0.00031602558385986323,8.197132848591999e-05,-0.0002227122989143738,0.0020598676188618567,0.6656377911567688,-50.34512710571289,-6.622818946838379,16.88727569580078,1.5773416757583618,-1.2824203968048096,-0.0072769103571772575,,,,,,,,,
1739302732.7478876,-0.08894143703613462,1.054429401842263,-0.3741738715872566,-1.4535964390258365,1.5443252842289963,1.1641673798136232,1.3484164849009632,0.0009191417002257883,-0.00027492090169356964,-0.0004927880284652203,0.00034346582608027075,-0.0016326836501935641,0.0007624733334054559,0.0012253931370305219,0.6418340802192688,-50.36893081665039,-6.646622657775879,16.88727569580078,1.5846658945083618,-1.3025619983673096,0.03300629183650017,,,,,,,,,
1739302732.7579021,-0.08894356786610078,1.0544314792195713,-0.3741776513943236,-1.4535942826026698,1.5443252716315607,1.1641642407706154,1.3484141363785422,-0.00011384031102485662,0.0002245753639437837,-0.00011250894432843065,0.0008084134508526898,-0.000719410776126102,-0.0009334805521614264,-0.0007987426222215206,0.6418340802192688,-50.39670181274414,-6.595047950744629,16.85950469970703,1.5846658945083618,-1.2760117053985596,0.026597600430250168,,,,,,,,,
1739302732.7679267,-0.08894698904631737,1.054433112268788,-0.37417386766304894,-1.4535963623912276,1.5443277051765454,1.1641642402860959,1.3484188207534102,-0.002086593125727826,0.0005638309148703816,0.0013608124130994868,-9.646618497315528e-05,0.0006407497819050326,-5.4644035666333264e-05,0.001364601037370146,0.6894415020942688,-50.42050552368164,-6.646622657775879,16.88727569580078,1.5645242929458618,-1.2760117053985596,-0.013685601763427258,,,,,,,,,
1739302732.7779677,-0.0889456987681719,1.0544373442786845,-0.37417386799143115,-1.4535990889310988,1.5443251664920992,1.1641665137508392,1.3484211286877927,0.0010238453420638959,0.002328234807757158,0.00040090141457771336,-0.0009173713594796326,0.00017485703387075749,0.0004081809822832562,0.0025637462656505853,0.6418340802192688,-50.44827651977539,-6.646622657775879,16.91107940673828,1.5846658945083618,-1.2952377796173096,0.0064559997990727425,,,,,,,,,
1739302732.7889638,-0.08894528043494718,1.0544256943003243,-0.37417385891582866,-1.4535981463333183,1.5443279412598672,1.164165756036934,1.3484177495983045,-0.0004344710377223652,-0.0004312335544996596,0.0002612686374978771,0.00040573469845119325,0.00018797949250747709,-0.0003220428530304245,0.0007993951096588556,0.6656377911567688,-50.31735610961914,-6.646622657775879,16.91107940673828,1.5709329843521118,-1.2888290882110596,-0.0008682189509272575,,,,,,,,,
1739302732.7989643,-0.08894185538145619,1.0544284087925484,-0.37417071949243397,-1.4535942826013935,1.5443245265864198,1.1641657560907683,1.3484161260224958,0.0003888724594587694,0.0007294865127847245,0.00022113900727152445,0.001124365684810943,-0.0005169841679884069,-0.00017451228537887823,0.0004423195459292079,0.6180303692817688,-50.34512710571289,-6.646622657775879,16.85950469970703,1.5910745859146118,-1.2888290882110596,0.012864691205322742,,,,,,,,,
1739302732.8089647,-0.08894325221832781,1.0544260092478974,-0.3741756240424203,-1.4535966713433324,1.5443273658161403,1.1641657560907692,1.3484143336545718,0.000640950948906967,-0.0012936756181379885,0.0007940200329365311,-0.0005069047022561965,0.0015017814915833764,0.00010853594788380652,-0.0011989589661140377,0.6418340802192688,-50.31735610961914,-6.622818946838379,16.88727569580078,1.5709329843521118,-1.2888290882110596,0.03300629183650017,,,,,,,,,
1739302732.8199584,-0.08894161861677942,1.0544281661240795,-0.3741754135942567,-1.4535999277820026,1.5443284631459697,1.1641657560907692,1.3484223150922607,0.0001214875746940802,-0.00017263248234465346,0.00046578976836303664,-0.0005709748081742878,0.0008015265768495914,0.0002658532311360885,0.0019551734735668122,0.6180303692817688,-50.34512710571289,-6.622818946838379,16.93488311767578,1.5846658945083618,-1.2888290882110596,-0.013685601763427258,,,,,,,,,
1739302732.8308823,-0.08894333113795612,1.0544320355322803,-0.37417383266882376,-1.4535981450682467,1.5443261501441736,1.1641665137508475,1.34842418844691,-0.0006925433391400582,0.0008261387780455536,0.0003677921124802387,-0.0005232568340871197,0.00046959198736599566,0.0004920591964222207,0.003509690634273693,0.6418340802192688,-50.39670181274414,-6.646622657775879,16.91107940673828,1.5773416757583618,-1.2952377796173096,-0.020094294100999832,,,,,,,,,
1739302732.8409772,-0.08894504365601423,1.054429405087113,-0.37417752924093567,-1.4535920148746357,1.5443276654463856,1.1641624234724048,1.3484176776188659,-0.00024681842705088944,7.760637692146044e-06,-0.0011307312927742452,0.0016497462150965904,0.00018778210744208832,-0.0008506030297042503,0.0009774287189115959,0.6656377911567688,-50.36893081665039,-6.595047950744629,16.83570098876953,1.5645242929458618,-1.2696030139923096,-0.0008682189509272575,,,,,,,,,
1739302732.8519154,-0.08894529113924371,1.0544314527286358,-0.3741758103488954,-1.4535963623884893,1.5443245270534347,1.164164998424709,1.3484157771645653,-0.00026387772428724827,0.0007430500398791065,-0.0005263525802854636,0.00010506205581806664,-0.00011164875513092095,6.347550283801496e-05,-0.0008403186499157253,0.6656377911567688,-50.39670181274414,-6.622818946838379,16.88727569580078,1.5910745859146118,-1.2824203968048096,0.012864691205322742,,,,,,,,,
1739302732.862955,-0.08893993636174925,1.0544277687588837,-0.3741758887626903,-1.4535942839660942,1.5443252842290043,1.1641649984306908,1.3484212202213322,0.0007893238096413029,0.0005597549089778775,-0.0008461529858071477,0.0007151907577540073,-0.000932208126468636,-0.00041454317325420316,0.0010668034797419186,0.5902593731880188,-50.34512710571289,-6.622818946838379,16.85950469970703,1.5846658945083618,-1.2824203968048096,-0.03382720425724983,,,,,,,,,
1739302732.8739944,-0.08894356433007873,1.0544276932101608,-0.37417378892872843,-1.4535963627061712,1.5443279162436125,1.164168098117483,1.3484180362817357,0.0006191140483813815,-0.0007214837334978922,-0.0009509699810702401,0.0004351553940053104,-0.00020463458376343593,0.0004963071003007287,0.000585314490736458,0.6418340802192688,-50.34512710571289,-6.646622657775879,16.88727569580078,1.5773416757583618,-1.3089706897735596,-0.0072769103571772575,,,,,,,,,
1739302732.8849716,-0.08893985745262502,1.0544276897211993,-0.374173762669567,-1.4535988338680241,1.5443276654497085,1.1641665137507737,1.3484126732418924,0.0010717354099082734,-3.506511364583133e-05,0.001164717457114545,-0.0009381176189464897,0.0013005113763746095,0.0008785907551927902,-0.001104654394416021,0.5902593731880188,-50.34512710571289,-6.646622657775879,16.91107940673828,1.5645242929458618,-1.2952377796173096,0.03941498324275017,,,,,,,,,
1739302732.8949788,-0.08894356790218738,1.0544279666228198,-0.3741760129977888,-1.4535963624028925,1.5443267908398008,1.1641673796480798,1.3484204065194083,-0.0007375836673586427,-0.001385802083668636,-8.872201020521434e-05,0.00025429304255006167,-0.0004538372385428528,0.0005675476418301049,0.00018773217455976586,0.6418340802192688,-50.31735610961914,-6.646622657775879,16.88727569580078,1.5974832773208618,-1.3025619983673096,-0.027418512850999832,,,,,,,,,
1739302732.9059114,-0.08894360297817155,1.054425729767183,-0.3741737887954838,-1.4535964254251448,1.5443276654634441,1.1641633348364595,1.3484129740550004,-0.0003693261066515228,-0.0004639467535901107,0.0003983047521057421,0.0004987437056474705,0.0012195911167409048,-0.0007265313634203238,-0.0011885565946377183,0.6418340802192688,-50.31735610961914,-6.646622657775879,16.85950469970703,1.5645242929458618,-1.2952377796173096,0.03941498324275017,,,,,,,,,
1739302732.9169574,-0.0889440213240851,1.0544277255881949,-0.3741763655958031,-1.4536001574747945,1.5443293290406168,1.1641625726003897,1.3484164011036703,-0.00048517902600510743,-2.031847090428035e-05,-0.0003432756167392232,-0.0017699404977662243,0.00019366406248142755,-0.0006116138915083333,-0.0023133433709124386,0.6180303692817688,-50.34512710571289,-6.622818946838379,16.93488311767578,1.5773416757583618,-1.2888290882110596,0.0064559997990727425,,,,,,,,,
1739302732.9269652,-0.08894469658450349,1.0544276892853315,-0.3741727895677765,-1.4535999277465625,1.5443261501980088,1.1641649809162817,1.3484134356753419,-0.0013084994391638894,-0.0005860511831044231,0.0007753031556394894,-0.0007759231758620498,-0.0004033770611444787,-0.0005697002358985861,-0.0013656504584787484,0.6180303692817688,-50.34512710571289,-6.622818946838379,16.93488311767578,1.5773416757583618,-1.2824203968048096,0.03300629183650017,,,,,,,,,
1739302732.9370015,-0.08894185552580405,1.0544294008247115,-0.37417553646483703,-1.4535942031285123,1.5443237288719225,1.1641657560898795,1.3484187823219704,0.000236922615305791,0.0007239492936348298,0.0015951602561994672,0.000616750831647669,-0.0009185956563133328,0.0001183603170684784,0.00010204153614172789,0.6180303692817688,-50.36893081665039,-6.622818946838379,16.85950469970703,1.5709329843521118,-1.2888290882110596,-0.013685601763427258,,,,,,,,,
1739302732.9479334,-0.08894198863143156,1.0544294017695173,-0.37417772138248717,-1.4535954087167615,1.5443269084084026,1.1641657560907692,1.3484133921226642,0.00030320471675624773,-0.00010886298493496501,-0.00019692778266139712,-0.0003457933200067575,-0.00028549401401400037,0.0002533104195380608,-0.0017264682379496505,0.5902593731880188,-50.36893081665039,-6.595047950744629,16.88727569580078,1.5709329843521118,-1.2888290882110596,0.03300629183650017,,,,,,,,,
1739302732.9589167,-0.08894559611880838,1.054430120005034,-0.3741749329237953,-1.4535952562378491,1.5443261770812005,1.1641657560907692,1.3484140358472672,-0.0014772596537958567,-0.0003979196697822321,0.00027904060186933663,0.000169259245560157,-0.0016175139513627374,0.0002990939859344683,-0.0008307916109577321,0.6656377911567688,-50.36893081665039,-6.622818946838379,16.83570098876953,1.6038919687271118,-1.2888290882110596,0.03941498324275017,,,,,,,,,
1739302732.9698942,-0.08894333211540767,1.0544321150065024,-0.37417554535468506,-1.4535970482281317,1.5443251229027901,1.1641665137508475,1.3484215567887556,-0.0002917188444248929,0.0006731856110477793,9.911803773349792e-05,-0.00014152444375340226,-0.0017159766435731966,0.0005246798086148364,0.0008084984206542375,0.6418340802192688,-50.39670181274414,-6.622818946838379,16.88727569580078,1.5846658945083618,-1.2952377796173096,-0.0072769103571772575,,,,,,,,,
1739302732.9819295,-0.08894356790085615,1.0544259297668905,-0.3741756531402389,-1.4535903531798662,1.5443269077853963,1.1641657560907692,1.348419984332339,-3.8406290527427905e-05,-0.0017115417947239841,-0.0003534966481839092,0.0014841288448861592,-0.00040421086385893036,0.00018071413611301973,0.0015746149663638923,0.6418340802192688,-50.31735610961914,-6.622818946838379,16.83570098876953,1.5709329843521118,-1.2888290882110596,0.0064559997990727425,,,,,,,,,
1739302732.9919655,-0.0889455171858129,1.0544293223343442,-0.3741737889273983,-1.4535991160937114,1.5443284133622757,1.1641656383531993,1.3484192693264874,-0.0010435708114865123,-0.0003084169615712039,-0.00014416433303058654,-0.001775607957381805,0.000706715436786937,-0.0006861912551347168,-0.00026990851919274535,0.6656377911567688,-50.36893081665039,-6.646622657775879,16.88727569580078,1.5910745859146118,-1.2888290882110596,-0.013685601763427258,,,,,,,,,
1739302733.0029516,-0.08893993668768195,1.0544256955954596,-0.37417765139381265,-1.453596335915819,1.5443262548037873,1.1641657560901046,1.3484157990220855,0.001029909038234511,-0.001381740889770882,-0.0006617587643874471,0.00014066638989774014,-0.00041262515456163727,0.0002247407337910502,0.00041832104712803084,0.5902593731880188,-50.31735610961914,-6.595047950744629,16.88727569580078,1.5773416757583618,-1.2888290882110596,0.012864691205322742,,,,,,,,,
1739302733.014077,-0.08894528042426043,1.0544276892851987,-0.37417386777206524,-1.453596362390779,1.5443260191469734,1.1641633217545073,1.3484196562599515,-0.0018716742632241936,-0.0008031290026599991,0.0005358963533844757,-0.0003932196494368297,-0.0002992577216746655,-0.0005315822097922468,-7.10688401358877e-05,0.6656377911567688,-50.34512710571289,-6.646622657775879,16.88727569580078,1.5773416757583618,-1.2952377796173096,-0.020094294100999832,,,,,,,,,
1739302733.0249317,-0.08894185581449283,1.0544330063036291,-0.3741777301312572,-1.4535963623912276,1.5443252842287498,1.1641661590785812,1.3484130148263973,0.00018998158931527725,0.001203612476181338,-0.0005161582683406269,0.00010109969287393327,0.0001879931006447053,-0.0003868146278028681,-0.0006166354635334069,0.6180303692817688,-50.42050552368164,-6.595047950744629,16.88727569580078,1.5846658945083618,-1.2952377796173096,0.03941498324275017,,,,,,,,,
1739302733.0368876,-0.0889442781908732,1.054431550515911,-0.3741717878745269,-1.4535963623912276,1.5443272097643579,1.1641635855778496,1.348419595910928,-0.0003140286878562229,0.00060456445723688,0.0021646023475650786,-0.00026564631304902043,0.0004877845083782152,-0.0009365549290822422,0.0007786294490289381,0.6418340802192688,-50.36893081665039,-6.674393653869629,16.88727569580078,1.5773416757583618,-1.2824203968048096,-0.020094294100999832,,,,,,,,,
1739302733.0469692,-0.08894356888854887,1.0544323535664322,-0.374179548129547,-1.4535963620641787,1.5443276644952968,1.1641642412433155,1.3484110016465907,0.0006075560442133489,0.0015002994074660018,-0.0020156161324765324,-1.3740285040702806e-05,0.0012571310307792002,-0.0005198892577149038,-0.0022418157646261435,0.6418340802192688,-50.39670181274414,-6.571244239807129,16.88727569580078,1.5645242929458618,-1.2760117053985596,0.05314789339900017,,,,,,,,,
1739302733.057908,-0.08894356790218905,1.0544313997485055,-0.37417678528732484,-1.4535954086078942,1.5443252842289943,1.1641649984306919,1.3484124493818934,0.0018866286620063631,0.0007896464325245791,0.0008161623634707835,0.0008534256141003702,-2.1186929785255377e-05,-0.0007093609463822779,-0.0007657046178447978,0.6418340802192688,-50.39670181274414,-6.595047950744629,16.88727569580078,1.5846658945083618,-1.2824203968048096,0.05314789339900017,,,,,,,,,
1739302733.0679207,-0.08894367713573112,1.05443154757307,-0.3741716367667179,-1.4535963878848819,1.544325284228996,1.1641665079366466,1.3484186840694967,-0.00035798697291309283,0.0011242847710003178,0.001722076692557123,0.0012164064015360674,-0.0019578192669950723,0.00015264768493237243,0.00027348509547570147,0.6418340802192688,-50.36893081665039,-6.646622657775879,16.88727569580078,1.5846658945083618,-1.2952377796173096,-0.0008682189509272575,,,,,,,,,
1739302733.0779428,-0.08894528053302747,1.054433112303781,-0.37417341942195753,-1.4535941901334941,1.544326920868259,1.164166507936548,1.348413430854189,-0.0008498239256325645,0.0015399616993500033,-0.00014690854043921856,0.0009986495856995727,0.0012830904969795222,-0.00034160593374508525,-0.001582809831754942,0.6656377911567688,-50.42050552368164,-6.622818946838379,16.88727569580078,1.5709329843521118,-1.2952377796173096,0.03300629183650017,,,,,,,,,
1739302733.0889096,-0.08894388369430638,1.0544335484573621,-0.3741710068381239,-1.4535921368218976,1.5443269076248753,1.1641673796480472,1.3484133000654395,-0.00017694962577329996,0.0005748209191858315,0.001846447911697209,0.001392162282686955,0.0010010033579912147,0.0008717994772416597,-0.002530511822970944,0.6418340802192688,-50.39670181274414,-6.646622657775879,16.85950469970703,1.5709329843521118,-1.3025619983673096,0.03300629183650017,,,,,,,,,
1739302733.0998907,-0.08894233423270197,1.0544286527830367,-0.37417494072019125,-1.453594270815502,1.5443243815742924,1.164166356767421,1.348420200170818,0.001284506978177225,0.0007452394913818477,-0.0007633212175951487,0.0007596014104245146,-0.00045028622186600706,0.00015323391356122636,0.0010065424709818538,0.5902593731880188,-50.34512710571289,-6.622818946838379,16.85950469970703,1.5846658945083618,-1.2952377796173096,-0.013685601763427258,,,,,,,,,
1739302733.1099055,-0.08894846404348186,1.0544313997630277,-0.37417810374928323,-1.453596362391028,1.544325949521008,1.164166513748189,1.3484178583682516,-0.0015023654030401781,0.0006217631639385351,-0.0003399986782886406,-0.000376283288769683,0.0008662055346471778,0.0006591624957408154,9.259892716982144e-05,0.6656377911567688,-50.39670181274414,-6.595047950744629,16.88727569580078,1.5773416757583618,-1.2952377796173096,0.03300629183650017,,,,,,,,,
1739302733.1199563,-0.08894380569332949,1.0544296402244373,-0.3741756503477287,-1.4535962564274145,1.5443268947009574,1.1641657694997702,1.348423936621913,-0.00036411855865645527,0.00034390575012808197,0.00048066523426973633,-9.297367640753731e-05,0.00010601578757472882,0.00027363838901356256,0.0012826327388422258,0.6418340802192688,-50.36893081665039,-6.622818946838379,16.88727569580078,1.5709329843521118,-1.2888290882110596,-0.027418512850999832,,,,,,,,,
1739302733.1299832,-0.08894291058801292,1.0544277952529773,-0.3741777326426689,-1.4535999277434712,1.5443279674242147,1.1641655932933688,1.348411953780848,-0.0009454295396134477,-0.0005842354698476341,1.531062414639791e-05,-0.0018752334968694343,0.0009030294931580085,-0.000251622514741726,-0.001794394944425117,0.6180303692817688,-50.34512710571289,-6.595047950744629,16.93488311767578,1.5709329843521118,-1.2888290882110596,0.05314789339900017,,,,,,,,,
1739302733.1400223,-0.0889452804407884,1.0544256825157505,-0.37417397362823784,-1.453594176637559,1.5443270662412287,1.1641665137480905,1.348417465112667,-0.0006731400134100279,-0.0013529790773221771,0.0005996384831262888,0.0008401887435531513,0.00023871211101889365,0.0003091826786178456,0.0005870980281234305,0.6656377911567688,-50.31735610961914,-6.646622657775879,16.85950469970703,1.5709329843521118,-1.2952377796173096,0.0064559997990727425,,,,,,,,,
1739302733.150964,-0.08893993928456657,1.054429481424023,-0.3741776867161263,-1.453594282600774,1.544326904880101,1.1641657560907692,1.348422077732847,0.0016780897497256529,-0.00018302324898860053,-0.0009583067233406458,0.0002541055899654362,0.0007080979344841202,-0.0001245552331120283,0.0007645623483604239,0.5902593731880188,-50.36893081665039,-6.595047950744629,16.85950469970703,1.5709329843521118,-1.2888290882110596,-0.013685601763427258,,,,,,,,,
1739302733.1629214,-0.08894365948994173,1.054431411847966,-0.3741776630597622,-1.4535999277452658,1.5443252842289799,1.1641661605381377,1.348418276430499,0.0007440535818285433,0.0012362174523850938,0.0004779570267149472,-0.0013757611547524718,5.886594721261462e-05,-0.00047833648345808124,-0.0011857444001778152,0.6418340802192688,-50.39670181274414,-6.595047950744629,16.93488311767578,1.5846658945083618,-1.2952377796173096,0.026597600430250168,,,,,,,,,
1739302733.1729875,-0.088941855381973,1.0544313997831178,-0.3741777304579272,-1.4535963623912276,1.5443244865319972,1.1641665137488537,1.3484173833548188,0.0013111548268650403,0.0005940785304459437,-0.0012680309398893303,-0.0005618857490260219,-0.001858867649968872,0.0001005893940816301,-0.0018893479855792003,0.6180303692817688,-50.39670181274414,-6.595047950744629,16.88727569580078,1.5645242929458618,-1.2952377796173096,-0.0008682189509272575,,,,,,,,,
1739302733.1838944,-0.08894570010343483,1.0544297195882806,-0.3741795128082779,-1.4535963623912276,1.5443261501082834,1.164165743008817,1.3484179876854663,0.0008111786603564129,0.0009796711005354295,-0.0010543135724824034,-0.0004073890351537829,-0.00032527852898837673,6.065322280130402e-06,0.0007912445052178463,0.6418340802192688,-50.36893081665039,-6.571244239807129,16.88727569580078,1.5773416757583618,-1.2888290882110596,-0.03382720425724983,,,,,,,,,
1739302733.193971,-0.08894199137402058,1.0544297197026784,-0.37417773013125705,-1.4535992124895285,1.5443281320360138,1.164166513750626,1.3484125032124559,0.0005722598294731296,0.0005597160931011292,-0.0015703539324433526,-0.0016569760688930298,0.001202361602830692,5.023460915204832e-05,-0.0013799147586874062,0.5902593731880188,-50.36893081665039,-6.595047950744629,16.93488311767578,1.5645242929458618,-1.2952377796173096,0.03941498324275017,,,,,,,,,
1739302733.2049818,-0.08894572521962374,1.0544314026955337,-0.3741717878745269,-1.4535938957770247,1.5443263419369602,1.1641649591848342,1.348419291055672,0.0005838593537085878,-6.833301779507917e-05,0.0013515597388404433,-6.10360425393221e-05,-0.00015754764597157385,-0.00013960237521593217,0.0015420163235422496,0.6418340802192688,-50.39670181274414,-6.674393653869629,16.88727569580078,1.5846658945083618,-1.2824203968048096,-0.013685601763427258,,,,,,,,,
1739302733.2159607,-0.08894752530200649,1.0544296403697977,-0.37417202533315713,-1.453598142120166,1.5443250381622806,1.1641657560906955,1.348419539005199,-0.0006873349016522008,-0.0003101500552738552,0.0007855877211693468,-0.0011212794455830225,-0.0008128145677900282,-5.2074270113192437e-05,0.0016124767452366643,0.6656377911567688,-50.36893081665039,-6.674393653869629,16.91107940673828,1.5773416757583618,-1.2888290882110596,-0.020094294100999832,,,,,,,,,
1739302733.22797,-0.08894356795094599,1.0544279541960058,-0.3741756503427419,-1.4535896389013871,1.5443266718203732,1.1641665137508475,1.3484184331006275,0.0005880750363999823,0.00022625237855571436,-0.0011856502846255789,0.0021596811554072115,0.00020824501703956905,-0.0009467815363720638,-0.0003455980138283614,0.6418340802192688,-50.34512710571289,-6.622818946838379,16.83570098876953,1.5709329843521118,-1.2952377796173096,-0.0072769103571772575,,,,,,,,,
1739302733.2389128,-0.08894572507522627,1.054428939019885,-0.3741795128082761,-1.45359813492435,1.5443244829619664,1.1641642407706125,1.3484188732250344,0.00047690294404949,-0.0014307650550643438,-0.0017202503481755728,-0.0009811548385257412,-0.0008906960023840193,-0.00016790376626416617,0.0012991786980679433,0.6418340802192688,-50.39670181274414,-6.571244239807129,16.91107940673828,1.5910745859146118,-1.2760117053985596,0.012864691205322742,,,,,,,,,
1739302733.2489684,-0.08894742301749581,1.0544335484156895,-0.37417772721507186,-1.453593567345463,1.5443277074206343,1.1641657560907692,1.3484215496911902,-0.00018088753779952444,0.001477297341851313,-0.00032077605973934525,0.0008791917262875144,0.00019571116199243249,-0.00024229069165864517,0.0011152705806368257,0.6656377911567688,-50.39670181274414,-6.595047950744629,16.85950469970703,1.5910745859146118,-1.2888290882110596,-0.0008682189509272575,,,,,,,,,
1739302733.2598836,-0.08894357809064803,1.0544294027991337,-0.37417458194804154,-1.453599689322649,1.5443258329846088,1.1641649984306908,1.348417216847189,-0.00031619693805093823,0.0005033541211092918,0.0006447888353844849,-0.0016066828665244866,-0.0011122943121803584,3.466655818366187e-05,-0.000614221697563864,0.6418340802192688,-50.36893081665039,-6.646622657775879,16.93488311767578,1.5709329843521118,-1.2824203968048096,0.012864691205322742,,,,,,,,,
1739302733.2699213,-0.08894641241312956,1.0544294022419398,-0.3741756503534979,-1.4535959992969971,1.5443237201324156,1.1641665131048253,1.348421202786536,-0.0004895729213149113,0.00014136861100803118,-0.0007158607089452007,-0.0011110260062683268,-0.0005999428516621772,0.00032570551640962066,0.0013022758469440265,0.6418340802192688,-50.36893081665039,-6.622818946838379,16.91107940673828,1.5709329843521118,-1.2952377796173096,-0.0072769103571772575,,,,,,,,,
1739302733.2799647,-0.08894196358057985,1.054425585380468,-0.37417107632534286,-1.4535981420884685,1.544324225182906,1.1641625771763704,1.348415091844816,0.0004057709657953615,-0.0016882768471575469,0.001224865349989555,-0.001096559186260295,-0.0011924632670061012,-0.00025239988508099476,-0.0008412781133372609,0.6180303692817688,-50.31735610961914,-6.674393653869629,16.91107940673828,1.5846658945083618,-1.2888290882110596,0.026597600430250168,,,,,,,,,
1739302733.2909856,-0.08894664582164837,1.0544256923236255,-0.37417564158079575,-1.4535924999243024,1.5443261501082934,1.1641665136970123,1.3484186784083947,-0.0014435435058865631,-0.0013546432980010687,0.00029460017219149593,0.000891987738149168,0.0007535766486462676,0.0007318659878718283,0.0003203914561085365,0.6418340802192688,-50.31735610961914,-6.622818946838379,16.83570098876953,1.5773416757583618,-1.2952377796173096,-0.0008682189509272575,,,,,,,,,
1739302733.3019576,-0.08894470855875436,1.054429402787006,-0.3741756237716978,-1.453596361410081,1.5443257969135187,1.1641649984306908,1.3484140373236773,-0.00044244286603227435,-0.0004512385545783896,1.2982022488581234e-08,-0.000356752658163812,0.0002370826855232889,0.0002932415227016394,-0.002750295673968401,0.6180303692817688,-50.36893081665039,-6.622818946838379,16.88727569580078,1.5773416757583618,-1.2824203968048096,0.026597600430250168,,,,,,,,,
1739302733.3129852,-0.0889441004049078,1.054427689285132,-0.3741756455172816,-1.453595369144,1.5443268946485256,1.1641657560907692,1.3484195290612628,-0.0006663840298244574,-0.000551448383109747,0.0005020413325033354,0.0008015491453836675,-0.00028679582052518605,0.0001890144455160553,0.0023806703169469705,0.6180303692817688,-50.34512710571289,-6.622818946838379,16.88727569580078,1.5709329843521118,-1.2888290882110596,0.019273381680250168,,,,,,,,,
1739302733.3239799,-0.08894675997378405,1.0544334389891987,-0.37417738897390235,-1.4535977134242355,1.544327665446311,1.1641649984306908,1.3484141021483482,-0.001174573357444879,0.001485939255831786,-0.0003758287493179254,0.0005294293728625174,0.000548082952175873,6.482978022045057e-05,-0.0013374933418903087,0.6418340802192688,-50.42050552368164,-6.595047950744629,16.88727569580078,1.5645242929458618,-1.2824203968048096,0.05314789339900017,,,,,,,,,
1739302733.334983,-0.08894268065944101,1.054426976974673,-0.3741756493674139,-1.4535963623988541,1.5443245266227532,1.1641657560907692,1.3484189385610095,0.0005231629434052905,-0.000767032986187919,-0.0005081612478714385,-0.00010836746285005348,1.4403624440443923e-05,0.00011547527717185155,0.00034029536257648815,0.6180303692817688,-50.34512710571289,-6.622818946838379,16.88727569580078,1.5910745859146118,-1.2888290882110596,-0.013685601763427258,,,,,,,,,
1739302733.3458762,-0.0889409197928995,1.0544266454869728,-0.37417564695718103,-1.4535963270699566,1.544327260999017,1.164165754637219,1.34842394139011,0.00016214812788261637,-0.0010134384616804918,-0.0001252886977951501,0.00013959720552005387,0.0004353633724448687,0.00032999867870706426,0.0027986007255873325,0.5902593731880188,-50.31735610961914,-6.622818946838379,16.88727569580078,1.5709329843521118,-1.2888290882110596,-0.027418512850999832,,,,,,,,,
1739302733.3559988,-0.08894209605967314,1.0544294028031629,-0.374173489448125,-1.4535981094193287,1.5443300867066767,1.1641642407705879,1.3484215555479575,0.0005803454555825514,0.0003459186322221306,0.00047438453699287,-0.0011209781570135477,0.0015528100953798004,-0.0005087665522454149,0.00014910852912234675,0.6180303692817688,-50.36893081665039,-6.622818946838379,16.91107940673828,1.5709329843521118,-1.2760117053985596,-0.0072769103571772575,,,,,,,,,
1739302733.366046,-0.08894427819494666,1.0544293664846038,-0.37417565019679966,-1.453598145067643,1.5443272109487323,1.1641665137508475,1.3484168215171586,0.00014095204282889713,-0.0004755041840485627,0.00023692450106528986,-0.0009919534288423638,-5.240605534439374e-05,-0.0002360257879203177,-0.0009103607683114234,0.6418340802192688,-50.36893081665039,-6.622818946838379,16.91107940673828,1.5773416757583618,-1.2952377796173096,0.012864691205322742,,,,,,,,,
1739302733.376997,-0.08894555551358323,1.0544322628286078,-0.37417181436547925,-1.453596122991502,1.5443269077922952,1.1641665122972973,1.3484174021797588,-0.0009946042454561578,0.0001801203379774921,0.0009023643195498794,-0.0004823896081728493,-7.96757772618563e-05,-0.0007217729816659855,0.001129195573642122,0.6656377911567688,-50.36893081665039,-6.674393653869629,16.88727569580078,1.5709329843521118,-1.2952377796173096,-0.0008682189509272575,,,,,,,,,
1739302733.3879273,-0.08894188562341517,1.0544314262538146,-0.3741738676645319,-1.4535942826000208,1.544326907786307,1.16416575027656,1.3484157218040769,0.0003687269153128222,0.0009024814632294362,0.001678299288813823,0.0003282333047238617,0.000714612466920662,-0.0006094581493255215,-0.0018547614162580817,0.6180303692817688,-50.39670181274414,-6.646622657775879,16.85950469970703,1.5709329843521118,-1.2888290882110596,0.03941498324275017,,,,,,,,,
1739302733.3979692,-0.08894577801449252,1.054429322333447,-0.3741745441351561,-1.4535963623912276,1.5443252843905018,1.164166507936548,1.3484180684755276,-0.0003461022690498882,-0.0006259388176391286,0.00014391137052302468,3.1771199492514025e-05,-0.00022244140638489138,-0.00026046079662786167,0.00035574912829304853,0.6418340802192688,-50.36893081665039,-6.622818946838379,16.88727569580078,1.5846658945083618,-1.2952377796173096,-0.0072769103571772575,,,,,,,,,
1739302733.4089024,-0.08894199719638511,1.0544284133707331,-0.37417352432815304,-1.4535963522163757,1.5443225395074185,1.164167586797945,1.3484125617853262,0.0009481499241835336,-0.00035642118339505684,0.0005023466755125867,-0.00012296248241357104,-0.0010446251741922622,0.0008970462170719919,-0.0019669601858480633,0.5902593731880188,-50.34512710571289,-6.622818946838379,16.88727569580078,1.5773416757583618,-1.2952377796173096,0.03941498324275017,,,,,,,,,
1739302733.4189875,-0.08894459694222498,1.0544313997589734,-0.37417564900931494,-1.4535963623910553,1.5443300910001996,1.1641657559474359,1.348412163376755,-0.0006804391867449023,0.0014261938844402568,0.0003556748721783098,-0.0007314365951157722,0.00035767780213662235,0.0002713355772066159,-0.0016162434376743996,0.6418340802192688,-50.39670181274414,-6.622818946838379,16.88727569580078,1.5709329843521118,-1.2888290882110596,0.07328949868679047,,,,,,,,,
1739302733.430038,-0.0889450385689333,1.054429401805858,-0.37417483672572843,-1.4535942796579329,1.5443261472909326,1.1641657560369334,1.3484222639260697,-0.0009558868194787989,-0.0004601464941116567,0.0009204282174215119,0.000286344470897927,0.0007198832872723714,5.3463088455385065e-05,0.0006969973605152571,0.6180303692817688,-50.36893081665039,-6.622818946838379,16.85950469970703,1.5773416757583618,-1.2888290882110596,-0.0072769103571772575,,,,,,,,,
1739302733.4419594,-0.08894196986549764,1.0544256888732384,-0.37417493831959464,-1.4535963622458559,1.54432726187681,1.1641638210549914,1.3484173241898427,0.0011508416883791754,-0.0006722009284502379,-0.0005916116813266178,-0.0004919539863745314,0.0012365182330103688,-0.0016759957269177226,-0.0006626285560503748,0.6180303692817688,-50.31735610961914,-6.622818946838379,16.88727569580078,1.5773416757583618,-1.2824203968048096,-0.0008682189509272575,,,,,,,,,
1739302733.453013,-0.0889484376947643,1.0544293753149,-0.3741755625304856,-1.4535907172473335,1.5443269208703512,1.1641673796458645,1.3484141557047213,-0.0013492252890560123,-0.0003091127283527809,-0.000190194383432608,0.0013736693146346045,0.0006353664150111978,0.0005978714128462835,-2.9392410657876705e-05,0.6656377911567688,-50.36893081665039,-6.622818946838379,16.81189727783203,1.5709329843521118,-1.3025619983673096,0.026597600430250168,,,,,,,,,
1739302733.4639287,-0.0889495685880902,1.0544260180658807,-0.3741773606631168,-1.4535942825650332,1.5443261501263024,1.1641625771763813,1.348418811363921,-0.00020181158068313556,-0.00010399461662076686,-0.0023913464109608104,-0.0002748064043227667,-0.0002462545946552311,-0.00024686040065030856,0.0012919136322275464,0.6656377911567688,-50.31735610961914,-6.571244239807129,16.85950469970703,1.5773416757583618,-1.2888290882110596,-0.0008682189509272575,,,,,,,,,
1739302733.4748774,-0.08894604505381523,1.0544297314765867,-0.37417565041397094,-1.4535963359002737,1.544323728871919,1.164165756036934,1.3484174786871224,-5.2846874749480914e-05,0.001084469289242048,-0.0007421878126463747,-0.00038327492990010317,-6.510823818357745e-05,0.0001648478153300721,0.0002634357567097796,0.6418340802192688,-50.36893081665039,-6.622818946838379,16.88727569580078,1.5709329843521118,-1.2888290882110596,0.0064559997990727425,,,,,,,,,
1739302733.4848878,-0.08894641928335731,1.0544315475749308,-0.3741756489373127,-1.45360020841901,1.544324526604808,1.164162577176381,1.3484172110733192,-0.00125954278062059,-8.611266786767225e-05,-0.000766309029798133,-0.0012368612446863783,-0.00032335853084630375,-0.0008663186815605625,-0.0013959721022913578,0.6418340802192688,-50.36893081665039,-6.622818946838379,16.91107940673828,1.5910745859146118,-1.2888290882110596,0.026597600430250168,,,,,,,,,
1739302733.494952,-0.08894502405690961,1.0544264080172225,-0.3741738706077503,-1.4535963536657388,1.544327665446387,1.1641649982691853,1.3484177516718794,-1.8204536888555604e-05,-0.001344461034778773,0.000495085759745926,-0.0006599141677504385,0.00024127043367662047,-4.976028950409917e-05,0.0002519187191192013,0.6180303692817688,-50.31735610961914,-6.646622657775879,16.88727569580078,1.5645242929458618,-1.2824203968048096,-0.0008682189509272575,,,,,,,,,
1739302733.5059462,-0.08894505150004807,1.0544314026914987,-0.37417844538699985,-1.4535945140428936,1.5443260311504492,1.1641657037629602,1.3484176728843846,0.0008556691935097098,0.0010371268785487832,-0.001434221295467602,0.00022578632444490498,-0.00043926337547388637,-0.00157720415610792,-0.0006179404289336539,0.6180303692817688,-50.39670181274414,-6.595047950744629,16.85950469970703,1.5773416757583618,-1.2888290882110596,0.026597600430250168,,,,,,,,,
1739302733.5159552,-0.08894092287362525,1.054433112267492,-0.37417175289241755,-1.4535922261884222,1.5443237689068245,1.1641652851396034,1.3484215722015964,0.0017243819775152195,0.001109640739975873,0.0008489988748572715,0.0015999572288477792,-0.0015705844366140644,-0.0007777863549376284,0.0025381965949010997,0.5902593731880188,-50.42050552368164,-6.674393653869629,16.83570098876953,1.5974832773208618,-1.2888290882110596,-0.03382720425724983,,,,,,,,,
1739302733.525977,-0.08894504861318775,1.0544321153294969,-0.37417541412980937,-1.4535942472754653,1.5443263438671255,1.1641657560827936,1.348415437581368,0.0012406339865667125,0.0013012379019295569,-0.00024237280829696119,0.000817248428258543,0.0005443790774497235,0.00034674429900736575,0.0005536621939505951,0.6180303692817688,-50.39670181274414,-6.622818946838379,16.85950469970703,1.5846658945083618,-1.2888290882110596,0.026597600430250168,,,,,,,,,
1739302733.5369067,-0.08894304226418533,1.0544294022459624,-0.37416892709553085,-1.4535935026278224,1.5443250372555528,1.1641638875579028,1.3484255597205606,0.0005212406162576999,0.000372859835495257,0.002023385801077915,2.0497538212938766e-05,-0.00023015474400185377,-0.0005950935701832854,0.0020962978602724796,0.5902593731880188,-50.36893081665039,-6.674393653869629,16.88727569580078,1.5910745859146118,-1.2760117053985596,-0.03382720425724983,,,,,,,,,
1739302733.5469248,-0.08894847672180012,1.0544294018058653,-0.3741756501849471,-1.4535924881021656,1.5443245280311166,1.1641648806871392,1.3484179107464989,-0.0003813922174751916,-0.00014527896662692362,-0.0001592821267932685,0.0027969337278931517,0.00012033013850309203,-0.0001312874721788521,0.0009545445148776921,0.6656377911567688,-50.36893081665039,-6.622818946838379,16.83570098876953,1.5910745859146118,-1.2824203968048096,0.03300629183650017,,,,,,,,,
1739302733.5569654,-0.08894847672199446,1.054431399746711,-0.37417178798354045,-1.453596362596947,1.5443295227815381,1.1641657560887753,1.348419612799796,-0.0011010048071484644,0.00044075370882761943,0.0008350783337491295,-0.00013117771967141633,0.000981856863867898,0.00010353224267739373,0.0008514285758265926,0.6656377911567688,-50.39670181274414,-6.674393653869629,16.88727569580078,1.5846658945083618,-1.2888290882110596,0.019273381680250168,,,,,,,,,
1739302733.567881,-0.08894402570798912,1.0544257709624885,-0.374173867664383,-1.453596282918369,1.5443238466334157,1.164166474504991,1.3484172367733083,0.001413191589671953,-0.0020786388922887193,0.0007719232320612297,-0.00016396187766725345,-0.0009999689405165233,-0.000379451424061727,-0.0006950316860255777,0.6180303692817688,-50.31735610961914,-6.646622657775879,16.88727569580078,1.5709329843521118,-1.2952377796173096,0.026597600430250168,,,,,,,,,
1739302733.5779345,-0.08894668526292349,1.0544278459431518,-0.3741756591717192,-1.453596282917022,1.544326776914944,1.164164985348074,1.3484227181346355,0.000654409291952695,-0.0016627976146136596,0.000487452961283862,0.00016942335930966902,-0.0001807958393575601,-0.00013090003881774794,0.0009553204448391637,0.6418340802192688,-50.31735610961914,-6.622818946838379,16.88727569580078,1.5709329843521118,-1.2824203968048096,-0.020094294100999832,,,,,,,,,
1739302733.5889504,-0.0889430566983185,1.0544281144607364,-0.37417775782244844,-1.453596333061365,1.5443269077855681,1.164167377709939,1.3484227895701666,0.0013693130389078394,-5.66775042212677e-05,-0.0012936488360647544,-0.0008990836835107355,-0.0005305316255325723,0.0003930031132047618,0.0009218889706949339,0.5902593731880188,-50.34512710571289,-6.595047950744629,16.88727569580078,1.5709329843521118,-1.3025619983673096,-0.0072769103571772575,,,,,,,,,
1739302733.5989594,-0.0889440244089287,1.0544290840306358,-0.3741717878749958,-1.4535935407451686,1.5443237296629828,1.1641665137508148,1.3484179722863703,0.0006856057859218041,2.764510826494754e-06,0.001682233029609186,0.0010661288149393852,-0.0009084767622168764,0.001095505990174706,-0.000974588685514429,0.6180303692817688,-50.36893081665039,-6.674393653869629,16.85950469970703,1.5974832773208618,-1.2952377796173096,0.03300629183650017,,,,,,,,,
1739302733.6089962,-0.08894434137445156,1.0544301435471668,-0.37417560434127634,-1.4535960444872253,1.5443261456034074,1.1641657541527024,1.3484215191917037,0.0008553634403892224,0.00030178864920052753,-0.0006054314156017114,0.0006635430396138816,5.4201496897594826e-05,-0.0004525664351768925,0.0008345870517997399,0.6180303692817688,-50.36893081665039,-6.595047950744629,16.88727569580078,1.5773416757583618,-1.2888290882110596,-0.0008682189509272575,,,,,,,,,
1739302733.619091,-0.0889484503789189,1.0544303555178587,-0.37417557149640024,-1.4535989652244805,1.544326907786077,1.1641657560906709,1.3484234963926396,0.0006180003214041926,0.0013652235404779025,-0.0007407553001781194,-0.001102547847453829,-0.001008552779444501,-5.0387729804260065e-05,0.0008631214730137856,0.6656377911567688,-50.36893081665039,-6.622818946838379,16.93488311767578,1.5709329843521118,-1.2888290882110596,-0.013685601763427258,,,,,,,,,
1739302733.6309118,-0.08894305568829525,1.0544239788253371,-0.3741756503412531,-1.4535943846387882,1.5443255862070473,1.1641657560907692,1.3484201944370484,0.0007010412768062792,-0.0019148358051228028,-0.0005764929516736062,-0.0004597673504339712,7.25798317081212e-05,0.000509855527043139,-0.00046593413002327664,0.5902593731880188,-50.29355239868164,-6.622818946838379,16.85950469970703,1.5910745859146118,-1.2888290882110596,-0.013685601763427258,,,,,,,,,
1739302733.6418781,-0.08894481491764855,1.0544314000737596,-0.37417386748571685,-1.4535963623918036,1.54432615013221,1.1641665137508475,1.3484231959994681,0.00045288808676685323,0.001513399537410657,0.00013216881396294045,-0.000212302695225958,-0.0011096561096629073,0.00048306278595817455,0.002155662312756142,0.6180303692817688,-50.39670181274414,-6.646622657775879,16.88727569580078,1.5773416757583618,-1.2952377796173096,-0.013685601763427258,,,,,,,,,
1739302733.65192,-0.08894572688922167,1.0544294021329124,-0.374177730131254,-1.4535921368341602,1.544326907786307,1.1641649984306908,1.3484141812808,-0.0007423256110022583,0.0006081135876002086,-0.0013130854205866595,0.0016330592941890111,-0.0004249042752820153,0.00016721823242437004,-0.0014812418721185771,0.6180303692817688,-50.36893081665039,-6.595047950744629,16.85950469970703,1.5709329843521118,-1.2824203968048096,0.05314789339900017,,,,,,,,,
1739302733.6629715,-0.08894599873338069,1.0544277648334013,-0.37417181829006574,-1.4535963661543077,1.5443261370442762,1.1641657562563126,1.3484195545118798,0.00022284266654846064,-0.0002895361164933619,0.0006232983536809566,0.0006317170322862746,-0.00021249527603393073,0.00040523904195663353,0.00030896813720725767,0.6180303692817688,-50.34512710571289,-6.674393653869629,16.88727569580078,1.5773416757583618,-1.2888290882110596,-0.0072769103571772575,,,,,,,,,
1739302733.6739085,-0.08894363110851106,1.0544295749238197,-0.3741717849948521,-1.453596362391249,1.5443237288718452,1.1641657560907703,1.348419610700309,0.00022841182709009477,0.0006475098922467421,0.001365615841297011,-0.0007004103698367656,0.00044289486615014905,-0.0003512987946760477,0.001995153779962209,0.6180303692817688,-50.39670181274414,-6.674393653869629,16.88727569580078,1.5709329843521118,-1.2888290882110596,-0.0072769103571772575,,,,,,,,,
1739302733.6839232,-0.08894776640925336,1.0544313998248236,-0.37417386766433364,-1.4535903276661877,1.5443276652310445,1.1641657560907694,1.3484151218578924,-0.0006781863899858603,0.0009929697655933043,0.0014080063116959478,0.0013157123174331313,0.0003244656824067066,-0.0011265804898641168,-0.0018345120652835886,0.6656377911567688,-50.39670181274414,-6.646622657775879,16.83570098876953,1.5645242929458618,-1.2888290882110596,0.026597600430250168,,,,,,,,,
1739302733.694897,-0.08894505261476883,1.054425691380613,-0.37417494367978,-1.453594281171898,1.5443269077863058,1.1641657560907694,1.3484209695192506,-0.0001582663465650133,0.00026010474801791675,0.00038781288049271343,-0.0008454700512840264,9.549061476397475e-05,-0.00032145556917547564,0.00048751909622797335,0.6180303692817688,-50.31735610961914,-6.622818946838379,16.85950469970703,1.5709329843521118,-1.2888290882110596,-0.020094294100999832,,,,,,,,,
1739302733.7059011,-0.08894563556727599,1.0544276902662737,-0.37417564935737235,-1.453596253483951,1.5443261457655777,1.1641651009000085,1.3484150787332514,-0.0005315658092410013,0.00010859894358313936,1.3707135692994638e-05,0.0006383590164797442,0.0008400233830920381,-0.0001734602417894794,-0.0019164158991167074,0.6656377911567688,-50.34512710571289,-6.622818946838379,16.88727569580078,1.5773416757583618,-1.2952377796173096,0.026597600430250168,,,,,,,,,
1739302733.7169578,-0.08894673788892885,1.0544294018058598,-0.3741737772626399,-1.453594281571569,1.5443237689985565,1.1641657560881107,1.348418781417826,-0.0003188024356875758,-0.000186268049093272,0.00045685784953243227,-4.0667534508164274e-05,-0.0003786160529003467,9.334558811111408e-05,-0.0006333403377815811,0.6418340802192688,-50.36893081665039,-6.646622657775879,16.85950469970703,1.5974832773208618,-1.2888290882110596,-0.013685601763427258,,,,,,,,,
1739302733.7278738,-0.08894305373953049,1.054431399746711,-0.3741738414182054,-1.4535980391044279,1.5443276654463858,1.1641665137508475,1.3484202461996906,0.000378463418889967,0.0009712396626880353,0.000386239974736602,-0.0010652310072042067,-0.0001734735302330217,0.0009361150833969968,0.001716730142811546,0.5902593731880188,-50.39670181274414,-6.646622657775879,16.91107940673828,1.5645242929458618,-1.2952377796173096,-0.013685601763427258,,,,,,,,,
1739302733.737966,-0.08894889506731399,1.054430394835047,-0.3741777301308125,-1.4535980652665437,1.544324408831348,1.1641665137508475,1.3484131684667235,5.682915391266995e-05,0.0013870225143785076,-0.00148898030987781,-0.00047674065473494434,-0.0005153126976650019,0.0006140331784420458,-0.0015194986182919768,0.6418340802192688,-50.36893081665039,-6.595047950744629,16.91107940673828,1.5910745859146118,-1.2952377796173096,0.04673920199275017,,,,,,,,,
1739302733.7489066,-0.08894718255861159,1.0544278371170914,-0.37417560423226004,-1.4535942559646133,1.5443257551786111,1.1641665137508475,1.3484161966383632,0.0002962301002648286,-0.0005665081692031781,-5.616035148494909e-05,7.061043814938791e-05,0.00016032299140986811,7.332208903681244e-05,-8.621114720935722e-05,0.6180303692817688,-50.31735610961914,-6.595047950744629,16.85950469970703,1.5846658945083618,-1.2952377796173096,0.03941498324275017,,,,,,,,,
1739302733.758932,-0.08894847675808107,1.0544301201503896,-0.37417822287130204,-1.453598115524387,1.544324524800332,1.1641649984306908,1.3484217319147054,-0.0015365850925209655,-5.357209903042597e-05,-0.0009997436701250741,-0.00019841465038900134,-0.0005613818370586292,-0.0004950790209835819,0.001876392535407914,0.6656377911567688,-50.36893081665039,-6.622818946838379,16.91107940673828,1.5910745859146118,-1.2824203968048096,-0.0072769103571772575,,,,,,,,,
1739302733.7699034,-0.08894676712426217,1.0544314007319124,-0.3741784444294546,-1.4535924959632618,1.5443287651214253,1.1641657560907692,1.348421977937318,-0.00017187906733287682,0.0009766039385561268,-0.0008489434841438094,0.0009760284077701942,0.001406161787157148,-9.800337844944153e-07,0.00032444382576113547,0.6418340802192688,-50.39670181274414,-6.595047950744629,16.83570098876953,1.5910745859146118,-1.2888290882110596,-0.013685601763427258,,,,,,,,,
1739302733.7808995,-0.0889429485117754,1.0544294018058746,-0.374178445399091,-1.4535935673455678,1.5443252843007764,1.1641661474561855,1.3484113443772194,0.0017872027125871968,0.0005411126231383385,-0.0017085971799062542,0.0010191801461037634,-0.00043486701987833555,-0.000809125778644325,-0.0019346596521592,0.5902593731880188,-50.36893081665039,-6.595047950744629,16.85950469970703,1.5846658945083618,-1.2952377796173096,0.05955658480525017,,,,,,,,,
1739302733.7909176,-0.0889430566620837,1.0544256924707751,-0.3741717404733408,-1.4535978261916238,1.5443293351239937,1.1641657560887015,1.348416114032507,0.0008422142945460945,-0.0008052044619041737,0.00014820074583158404,-0.00040886463351270274,0.0011713817636995623,-0.00013757318035689022,-0.0010765180330893753,0.5902593731880188,-50.31735610961914,-6.646622657775879,16.91107940673828,1.5773416757583618,-1.2888290882110596,0.019273381680250168,,,,,,,,,
1739302733.8019829,-0.08894508967956463,1.0544242967150004,-0.3741725026622125,-1.4535981450628463,1.5443213478699738,1.1641642407706125,1.348417738448549,0.00022995418163243716,-0.0016652586925216893,0.0009305577201130165,-0.0008858008821392488,-0.0008393533685311764,-0.0006175395959196007,0.000768670765546204,0.6180303692817688,-50.29355239868164,-6.674393653869629,16.91107940673828,1.5910745859146118,-1.2760117053985596,-0.0008682189509272575,747,758,749,41.826,0,0
1739302733.8129668,-0.08894676430959397,1.0544294017337785,-0.3741739471385871,-1.4536002113625988,1.5443252900192708,1.1641665137508475,1.3484154373061363,0.00018394885511347712,-0.0020737902876543325,0.0001036450812672988,-0.0011795882631175057,-0.0015268242298607038,0.0003841684220984329,0.00036888440595346945,0.6418340802192688,-50.36893081665039,-6.646622657775879,16.91107940673828,1.5846658945083618,-1.2952377796173096,0.026597600430250168,745,760,749,41.826,0,0
1739302733.822978,-0.08894847672199996,1.0544316384923351,-0.37417770388962807,-1.4535942827063508,1.5443252842292903,1.1641649984306908,1.3484191908327898,-0.0001994844682885917,0.001106037928405832,-0.0005769834757295418,0.0003704329723987706,-0.0006198725682421451,0.0005850596147894371,0.0012502876554177167,0.6656377911567688,-50.39670181274414,-6.595047950744629,16.85950469970703,1.5846658945083618,-1.2824203968048096,-0.013685601763427258,745,759,750,41.717,0,0
1739302733.8339276,-0.0889447271915902,1.0544352593432984,-0.3741756503293513,-1.453595644192051,1.5443252842289963,1.1641649984306908,1.3484179714331936,0.0011602482093059261,0.002342293571277479,-0.0005487205573047067,3.430583000807355e-05,-6.326598134363907e-05,-0.0002646841113681331,4.3943297807426895e-05,0.6180303692817688,-50.42050552368164,-6.622818946838379,16.88727569580078,1.5846658945083618,-1.2824203968048096,0.0064559997990727425,744,759,750,41.826,1,0
1739302733.84487,-0.08894700139536288,1.0544294116294424,-0.3741777296992295,-1.4535956441879967,1.544324538251155,1.1641657560907692,1.3484193091531682,-0.0001495649277344522,2.4732341621771473e-05,-0.0015831671042845405,-0.00012226361671933587,-0.0007413869957599083,-5.663078179824861e-05,0.0005555231153827711,0.6418340802192688,-50.36893081665039,-6.595047950744629,16.88727569580078,1.5910745859146118,-1.2888290882110596,-0.013685601763427258,746,760,749,41.826,1,0
1739302733.8549035,-0.08894505071021608,1.0544278459419696,-0.37417553661017205,-1.453598039092271,1.5443245286686882,1.1641657560907692,1.348419127890235,-0.00033921403848836176,-0.0008039471275417215,-0.0001858498365530254,0.0007144744706315886,-0.0008304142682514164,-0.000551957557074329,-0.0004615006540762887,0.6180303692817688,-50.31735610961914,-6.622818946838379,16.91107940673828,1.5910745859146118,-1.2888290882110596,0.019273381680250168,745,760,749,41.826,0,0
1739302733.865892,-0.08894505168052659,1.0544284035718803,-0.3741756501967503,-1.4535954060878096,1.5443221050992793,1.1641649979461741,1.3484188506329577,0.0010623987743948573,0.0004713370638675713,0.00016233610786333194,0.0007223115340264036,-0.001540036393103489,-0.0006138722700238831,0.0016609637402477705,0.6180303692817688,-50.34512710571289,-6.622818946838379,16.88727569580078,1.5846658945083618,-1.2824203968048096,-0.0008682189509272575,745,760,749,41.826,0,0
1739302733.8759072,-0.08894505168053207,1.054427724618494,-0.37417386766437993,-1.4535956471192952,1.5443265031235938,1.1641649984306826,1.348416050697384,0.00013821849361883348,-0.0004941577610850778,-0.00040603499877299627,-0.0002972945059146698,0.00019077981092135215,-0.0005460400747923594,-0.0012627189205263085,0.6180303692817688,-50.34512710571289,-6.646622657775879,16.88727569580078,1.5773416757583618,-1.2824203968048096,0.04673920199275017,746,758,749,41.826,0,0
1739302733.8859403,-0.08894672912527889,1.0544313202744495,-0.3741738676643824,-1.4535963623791144,1.5443252871420747,1.1641663960132775,1.348424870319959,0.0003979991699759518,-0.00029823808409887515,7.745003252416252e-05,0.00013897138219812625,0.0008869388625208597,1.8267381309364597e-05,0.0032091521159920092,0.6418340802192688,-50.39670181274414,-6.646622657775879,16.88727569580078,1.5846658945083618,-1.2952377796173096,-0.03382720425724983,746,759,749,41.717,2,0
1739302733.896927,-0.08895018924252765,1.0544294018054092,-0.3741754131583401,-1.453591342105563,1.544326150126245,1.1641649982685207,1.348413958166369,-0.00025246902092493156,-0.0011338099884509398,-0.0003870298386315271,0.0016700539180896034,0.0002586650529110624,-0.0001754824188715098,-0.0004046411916463367,0.6894415020942688,-50.36893081665039,-6.622818946838379,16.85950469970703,1.5773416757583618,-1.2824203968048096,0.06596527993679047,745,759,749,41.826,0,0
1739302733.9069526,-0.08895018826839275,1.054431399746711,-0.3741774035145,-1.4535980655455893,1.544320926000842,1.1641615177037925,1.348421167849267,0.00010487202252707872,9.632108262601249e-05,-0.00033343664597813556,-0.0008443520834087129,-0.00151437809257391,-0.0008508355544513287,0.0010756925839226787,0.6894415020942688,-50.39670181274414,-6.595047950744629,16.91107940673828,1.5846658945083618,-1.2888290882110596,0.0064559997990727425,746,758,749,41.826,0,0
1739302733.9178905,-0.08894960535598107,1.0544293223329981,-0.37417549262566846,-1.45359404407243,1.544326131640785,1.1641657560189917,1.3484105943718998,-0.0007797570837744698,0.0005022278109025495,-0.0005884313411138486,-0.0003369722544048206,-0.0007048050586684394,0.000244852897858974,-0.0022526353942501354,0.6418340802192688,-50.36893081665039,-6.622818946838379,16.85950469970703,1.5773416757583618,-1.2888290882110596,0.05955658480525017,746,759,750,41.826,1,0
1739302733.9278994,-0.08894497277560562,1.054426751309003,-0.3741738676634921,-1.4535981447398514,1.5443247429818157,1.1641649984306905,1.348415602834672,0.0005352759444190057,-0.0010378220084840662,0.000872170253123283,-0.0012844644759609333,-0.0008003208643993393,0.00013044916075530223,-0.00014150294611168894,0.6180303692817688,-50.31735610961914,-6.646622657775879,16.91107940673828,1.5773416757583618,-1.2824203968048096,0.05314789339900017,746,766,748,41.934,1,0
1739302733.9379208,-0.088948480726249,1.0544257973260371,-0.3741738676643824,-1.4535942826013664,1.5443285219240503,1.1641643432399302,1.3484155686354393,-0.0008391676260014712,-0.0007797053750999764,7.535507225283873e-05,0.0006090782272775922,0.0016460496068889056,-0.0006045662529995392,0.0005006602659671948,0.6656377911567688,-50.31735610961914,-6.646622657775879,16.85950469970703,1.5581156015396118,-1.2888290882110596,0.026597600430250168,746,761,750,41.826,0,0
1739302733.9489558,-0.08894505168055467,1.0544294018064562,-0.3741749403043133,-1.4535999248018265,1.5443229712123983,1.1641657560827936,1.3484182983853983,0.0017465135426834133,-0.0014361540963986107,0.00021261272687932481,-0.000644733630288217,0.0006355330087205295,0.0010178746647002644,-0.0018737309136928513,0.6180303692817688,-50.36893081665039,-6.622818946838379,16.93488311767578,1.5773416757583618,-1.2888290882110596,0.026597600430250168,747,759,749,41.826,0,0
1739302733.9589896,-0.08894848094410368,1.0544276641023687,-0.37417147161842046,-1.453594588719004,1.544325284175161,1.1641673796480798,1.3484212566137064,-0.0004215915415352641,0.00015090120655523036,0.0010358022193069176,0.000738489627900497,-0.0009329838059325198,0.00029813755320719747,-0.00036723426006219436,0.6656377911567688,-50.34512710571289,-6.674393653869629,16.85950469970703,1.5846658945083618,-1.3025619983673096,-0.0072769103571772575,746,756,750,41.717,1,0
1739302733.9699073,-0.08894645155304394,1.0544284134073783,-0.37417702149647275,-1.4535942826031,1.5443252842289958,1.1641649984306908,1.3484169138942657,-0.0005139634006404104,0.0002670145809993467,-0.0004421904927483643,0.0006985632274273722,-0.0012253177449121468,0.00032562271151205887,9.809934358986255e-05,0.6656377911567688,-50.34512710571289,-6.595047950744629,16.85950469970703,1.5846658945083618,-1.2824203968048096,0.03941498324275017,746,757,750,41.826,1,0
1739302733.9809809,-0.08894844260891084,1.054431400731945,-0.37417773012725675,-1.4535999277452658,1.5443269077863069,1.1641656383531993,1.3484144455572533,-0.00028106956923498467,0.0010125201289484425,-0.0006111173361019837,-0.002112122243760491,2.7653710560723095e-05,-2.3017038004986894e-05,-0.0006962038702655843,0.6656377911567688,-50.39670181274414,-6.595047950744629,16.93488311767578,1.5709329843521118,-1.2888290882110596,0.03941498324275017,745,759,748,41.826,0,0
1739302733.9919052,-0.08894505460295306,1.054423982748145,-0.37417987687961524,-1.4535942031285123,1.5443229716963573,1.164164998428697,1.3484204101442856,0.00014920287471011497,-0.0025881734556870593,-0.0014938403011070466,-0.00034100272707285486,-0.0007438959593296681,9.64859006271333e-07,0.0013652591501261586,0.6180303692817688,-50.29355239868164,-6.595047950744629,16.85950469970703,1.5773416757583618,-1.2824203968048096,0.012864691205322742,750,756,749,41.826,0,0
1739302734.0019429,-0.08894793180859883,1.0544296666063961,-0.3741738794865966,-1.4535963355727768,1.5443252846417355,1.1641622751983303,1.348414092706503,-0.0007428196107956722,-0.00030918230714700626,0.0001981641132774321,-0.0006149635724973797,-0.00015569526330222678,-0.0007767241670715125,-0.000880509980387887,0.6180303692817688,-50.36893081665039,-6.646622657775879,16.88727569580078,1.5846658945083618,-1.2952377796173096,0.06596527993679047,748,757,752,41.826,1,0
1739302734.0128703,-0.08894410464521238,1.054428643069954,-0.3741738637762022,-1.4535924959996158,1.5443275629770699,1.1641649984067641,1.3484109535222644,0.0012534691653124596,-0.00043323527823139606,0.0004966906902542378,0.0014749397583411908,0.0005911943998968081,-0.00046079477368883055,-0.001889958771789549,0.6180303692817688,-50.34512710571289,-6.646622657775879,16.83570098876953,1.5773416757583618,-1.2824203968048096,0.06596527993679047,747,758,749,41.826,2,0
1739302734.0228987,-0.08894505166449394,1.0544239791667436,-0.3741767849631719,-1.4535933289269891,1.5443247372993163,1.1641642007336914,1.3484148377157494,0.0011122840071672764,-0.0016031152712215769,-6.361542957431887e-05,0.0004623843796954521,-0.0012061157393246076,-0.0006412782533273839,-0.0010257077047670226,0.6180303692817688,-50.29355239868164,-6.595047950744629,16.85950469970703,1.5773416757583618,-1.3025619983673096,0.05955658480525017,745,758,750,41.934,0,0
1739302734.0329478,-0.08894597274989924,1.0544294057304493,-0.37417953053466724,-1.4535963316324894,1.5443245657908482,1.1641625771225461,1.3484158581400452,-3.540093915105862e-05,0.001212628818108511,-0.0018225888163212766,-0.00010105117616081131,0.00095409658708023,-0.000661486962254961,-0.0020663427578212117,0.6180303692817688,-50.36893081665039,-6.571244239807129,16.88727569580078,1.5910745859146118,-1.2888290882110596,0.03941498324275017,745,757,748,41.826,0,0
1739302734.04297,-0.08894676424805843,1.0544256913444732,-0.3741730542288852,-1.4535941763089475,1.5443245265709107,1.1641663958517692,1.348418180837852,0.0002179389475627672,-0.0004917325025495472,0.0003524047818820003,0.0018982287245332657,-0.0016051215466998403,-0.0002751674546474302,-0.001190456509366022,0.6418340802192688,-50.31735610961914,-6.622818946838379,16.85950469970703,1.5910745859146118,-1.2952377796173096,-0.0072769103571772575,747,759,748,41.717,2,0
1739302734.0538661,-0.08894676420126335,1.0544301259282516,-0.3741774886899642,-1.4535981408042993,1.5443261457655777,1.1641642407703907,1.3484203709376101,-0.0003653960268338764,0.0012304029897909471,-4.6920025268599216e-05,-0.0009566073697284472,-0.0020240327831315135,-0.0008606184812303752,-1.5830015691164069e-06,0.6418340802192688,-50.36893081665039,-6.622818946838379,16.91107940673828,1.5773416757583618,-1.2760117053985596,0.012864691205322742,746,758,749,41.717,1,0
1739302734.0638912,-0.08894305373967902,1.0544294031263162,-0.3741735527475154,-1.453595662113644,1.5443284633048158,1.1641665137508475,1.3484113701199385,0.0014746015102286186,0.0011442762344710572,0.0005939161311392748,0.00010040038127375091,0.00010008601639086489,-0.0002320955930186905,-0.002158023287873328,0.5902593731880188,-50.36893081665039,-6.646622657775879,16.91107940673828,1.5846658945083618,-1.2952377796173096,0.05314789339900017,746,757,748,41.826,0,0
1739302734.073961,-0.08895060758804518,1.0544257178352494,-0.37417773012592387,-1.453596359296723,1.5443245309834066,1.1641657560907692,1.3484187847859357,-0.0006565210932114739,-0.001277481186365296,-0.0017945735634788502,-0.0009689536723217049,-0.0009104343795738773,0.00021889197326839532,0.000309549193777693,0.6656377911567688,-50.31735610961914,-6.595047950744629,16.88727569580078,1.5910745859146118,-1.2888290882110596,0.026597600430250168,747,758,749,41.826,1,0
1739302734.0848875,-0.08894515735355084,1.0544257973082363,-0.37417351863728815,-1.453594176601203,1.5443263307851982,1.1641657560907692,1.3484172583943275,0.0003970697605452545,-0.0009166154142720808,-0.00037260790714730384,0.0007068984528493273,-0.0008301030527788527,4.4931297827152474e-05,0.000910874015732392,0.6180303692817688,-50.31735610961914,-6.622818946838379,16.85950469970703,1.5846658945083618,-1.2888290882110596,0.03941498324275017,746,758,748,41.826,2,0
1739302734.0958774,-0.08894505460532035,1.0544294047510916,-0.3741739721880056,-1.453591792449973,1.5443261457833013,1.1641654028780595,1.348416388136234,0.0006963944364965075,0.000895317196795054,0.000268312953113642,0.0016937170767468341,0.0006389663853772441,0.00029153616119376364,-0.0011501134337678816,0.6180303692817688,-50.36893081665039,-6.646622657775879,16.85950469970703,1.5773416757583618,-1.2888290882110596,0.04673920199275017,746,756,749,41.717,0,0
1739302734.1058943,-0.08894847769637688,1.0544293988624684,-0.37417773013302713,-1.4535935013261074,1.5443278485936427,1.1641665137448658,1.3484164012181123,-0.00038165829556306523,0.0006247789626892888,-0.0008754958897856088,0.0006320636922250566,0.001450981054324474,0.0008515138776868769,-0.0019174523123373192,0.6656377911567688,-50.36893081665039,-6.595047950744629,16.88727569580078,1.5645242929458618,-1.2952377796173096,0.04673920199275017,745,758,749,41.717,0,0
1739302734.1159525,-0.0889467291252844,1.054427689612159,-0.3741737887833734,-1.4535918941477959,1.5443274953820403,1.1641649984306908,1.3484211665601515,-0.0002844220082122613,-0.00020486177885704277,0.0005790332123282732,0.0005105567617148197,0.00012025057231263687,-0.00016427295952771705,-0.00010602136922225545,0.6418340802192688,-50.34512710571289,-6.646622657775879,16.85950469970703,1.5645242929458618,-1.2824203968048096,0.0064559997990727425,746,757,750,41.717,1,0
1739302734.1259577,-0.08894672912468488,1.054429481605772,-0.37417951280694023,-1.4535963622417627,1.5443252842261161,1.1641663916526268,1.348418593055526,0.000502710077131434,0.00043688061999867507,-0.0007185337123615809,0.00016594765083575926,-0.0006186136683728117,0.0005026777768467681,-0.00047104803555706517,0.6418340802192688,-50.36893081665039,-6.571244239807129,16.88727569580078,1.5846658945083618,-1.2952377796173096,0.019273381680250168,747,757,749,41.826,2,0
1739302734.136973,-0.0889466862544333,1.0544294018063083,-0.37417394616518035,-1.4535939647099323,1.5443265033389384,1.1641665137501582,1.3484196510726425,0.0007294630003815448,-0.00048329125602420407,0.0005993776738048015,0.0004083652667118973,-0.0005194319573526966,0.00039137305718577167,0.0001554412264707126,0.6418340802192688,-50.36893081665039,-6.646622657775879,16.85950469970703,1.5773416757583618,-1.2952377796173096,0.019273381680250168,746,756,748,41.717,0,0
1739302734.148898,-0.08894634574724451,1.054429918449784,-0.37417565023383775,-1.4535942126976356,1.5443270260103874,1.1641657560907692,1.3484196395578834,-0.00080233200050377,0.0012732228357978527,-0.00023760373560969511,0.00010711869197734332,0.0002462536092802898,-8.017928394234853e-05,0.0018613500276361255,0.6656377911567688,-50.34512710571289,-6.622818946838379,16.88727569580078,1.5709329843521118,-1.2888290882110596,0.019273381680250168,746,756,746,41.608,0,0
1739302734.1589506,-0.08894676418923385,1.054432115015032,-0.37417315784431676,-1.4535942077815627,1.5443269077869743,1.1641633348364595,1.348424304953163,-0.0009583222690788585,0.0015141506882072216,0.0012761157459563431,1.921237496041499e-05,0.0014705427219196406,-5.48431415946105e-05,0.002082063878118438,0.6418340802192688,-50.39670181274414,-6.646622657775879,16.88727569580078,1.5709329843521118,-1.2952377796173096,-0.020094294100999832,747,756,749,41.717,1,0
1739302734.1698925,-0.0889467642012632,1.0544276893255031,-0.3741777300912478,-1.4535963619429995,1.544324526568918,1.1641659169808365,1.348420365956066,7.472342339425012e-05,2.91013067152498e-05,-0.0013271862784668674,-7.619952226672408e-05,-0.0010664389765577156,0.0004290929369353063,-8.838992589966111e-06,0.6418340802192688,-50.34512710571289,-6.595047950744629,16.88727569580078,1.5910745859146118,-1.2888290882110596,-0.013685601763427258,746,757,749,41.826,2,0
1739302734.1799378,-0.08894677297025935,1.0544295077696715,-0.3741756513225472,-1.4535981362379213,1.5443269071402848,1.164165756093494,1.3484211548778653,-0.0001361635885627299,0.0013385304240689838,0.0006655174210691542,0.00011544751116653268,0.0003025565571986533,-0.00020209491187885565,0.0006588883722655021,0.6418340802192688,-50.36893081665039,-6.622818946838379,16.91107940673828,1.5709329843521118,-1.2888290882110596,0.0064559997990727425,747,757,749,41.717,1,0
1739302734.1899695,-0.08894676420141176,1.0544296402262316,-0.37417549881758266,-1.4536000297843434,1.5443261501262175,1.1641649977846686,1.3484196061962035,-0.00020373436597324982,0.00041382719034591163,-7.912189462311401e-05,-0.00246784947869775,-0.0001169520084196482,-0.0006560778190276433,0.0007243685118692472,0.6418340802192688,-50.36893081665039,-6.595047950744629,16.93488311767578,1.5773416757583618,-1.2824203968048096,-0.0072769103571772575,745,758,749,41.717,1,0
1739302734.2009463,-0.08894634585594374,1.0544276892864726,-0.37416962696871187,-1.4535955676632064,1.5443245788967268,1.1641649979461706,1.3484220338929775,-0.00034740390850223127,-0.0013344882060218827,0.0020880388582318675,0.00048768927216406784,-0.0004268260321704492,-0.0005659694025035839,0.0020900664133216788,0.6656377911567688,-50.34512710571289,-6.674393653869629,16.88727569580078,1.5910745859146118,-1.2824203968048096,-0.0008682189509272575,747,758,749,41.826,2,0
1739302734.2109795,-0.08894889492296837,1.0544314000737596,-0.37417387046321965,-1.453590351200243,1.5443249683907647,1.164165756090761,1.3484187867964472,-0.0007371758109025204,0.0007770154915588683,0.0005986142090382267,0.0009445256480811415,-0.0009064296791212235,6.237232308516687e-05,-0.0005614130509413843,0.6418340802192688,-50.39670181274414,-6.646622657775879,16.83570098876953,1.5773416757583618,-1.2888290882110596,0.026597600430250168,745,758,748,41.934,2,0
1739302734.2210143,-0.08894847719111526,1.0544294050763516,-0.37417564936938713,-1.4535981449228415,1.5443261486526656,1.1641649984306908,1.34841576565655,-0.0006316831292223924,7.126339044437723e-05,-0.00015241248960527463,-0.0003374077378436576,1.1932560753625974e-05,-7.720257101153283e-05,-0.0003049555593822909,0.6656377911567688,-50.36893081665039,-6.622818946838379,16.91107940673828,1.5773416757583618,-1.2824203968048096,0.05314789339900017,749,757,751,41.717,0,0
1739302734.231965,-0.0889467642012659,1.0544279277037243,-0.3741710596233342,-1.4535981450682458,1.5443261675688231,1.1641657560907692,1.348422789956646,0.0004676321690304121,-0.0005074506017008329,0.001150649192487829,-0.001338383323617865,0.0009905602605094356,-0.00037378078181976517,0.0021164835281982253,0.6418340802192688,-50.34512710571289,-6.646622657775879,16.91107940673828,1.5773416757583618,-1.2888290882110596,-0.0072769103571772575,745,758,744,41.717,0,0
1739302734.2428842,-0.0889485556429593,1.054433112268788,-0.37417174174953394,-1.453594176637559,1.544324789441791,1.1641665006688953,1.3484234308475143,-0.0011647109094972074,0.0008047173523709722,0.0010934562034057133,-3.014516541711084e-05,-0.001132396812727557,0.0003474633117054001,0.001422202971876869,0.6656377911567688,-50.42050552368164,-6.646622657775879,16.85950469970703,1.5773416757583618,-1.2952377796173096,-0.013685601763427258,745,754,748,41.934,2,0
1739302734.2529137,-0.08894889506865052,1.0544286432864918,-0.37417773423888206,-1.4535963358984798,1.5443298695109566,1.1641673796478584,1.3484172582308283,-0.0008116019091568615,-4.4285759955280265e-05,-0.0019760999666805336,0.0005490837232030165,0.00011376512684233963,0.0004051399252167385,0.0003705553353765131,0.6418340802192688,-50.34512710571289,-6.595047950744629,16.88727569580078,1.5846658945083618,-1.3025619983673096,0.03941498324275017,745,754,750,41.826,2,0
1739302734.2650237,-0.08894847677010967,1.0544301553316908,-0.3741756591717424,-1.4535903263578431,1.5443252842548802,1.1641665118127806,1.348417258394264,-0.00013865004908598813,0.0007368744783090982,0.0001487003371701186,0.002876329784989806,-2.632117352919806e-06,-0.0001571351821222267,-0.000943214971740893,0.6656377911567688,-50.36893081665039,-6.622818946838379,16.83570098876953,1.5846658945083618,-1.2952377796173096,0.03941498324275017,746,756,749,41.934,0,0
1739302734.275872,-0.0889452196817142,1.0544284398635528,-0.3741777301312736,-1.4535963619147336,1.5443252842289963,1.164167784095445,1.3484219161733646,0.00035998287148273603,0.00036582599439771864,-0.0019363477476846355,0.0005380910018578981,-0.0001995592921242235,0.0006460073326220363,0.0007857813223699282,0.5902593731880188,-50.34512710571289,-6.595047950744629,16.88727569580078,1.5846658945083618,-1.3089706897735596,-0.0008682189509272575,746,756,748,41.934,1,0
1739302734.285969,-0.0889453236643506,1.0544293589751754,-0.37417773013125705,-1.453594282601364,1.544325282775446,1.1641657560847876,1.3484195349541162,0.00028106622547976307,0.0007641759743633688,-0.0008118444023006446,0.0004994837420833481,-0.0005482403181796213,3.0222081514764942e-06,-1.6810262522404934e-05,0.6180303692817688,-50.36893081665039,-6.595047950744629,16.85950469970703,1.5846658945083618,-1.2888290882110596,0.019273381680250168,746,756,749,41.826,2,0
1739302734.2968981,-0.08894505200684505,1.054425691453048,-0.37417386766438243,-1.4535940438557442,1.5443269077862987,1.1641665132663308,1.3484235477769009,-0.0009202071430017326,-0.0007697202839551244,0.0013418901954688565,0.001328556732860134,-0.0010244744397424732,2.9882277175740604e-05,0.0010244011122018117,0.6180303692817688,-50.31735610961914,-6.646622657775879,16.85950469970703,1.5709329843521118,-1.2952377796173096,-0.013685601763427258,745,756,748,41.826,1,0
1739302734.3069046,-0.08894702813722528,1.0544296412055851,-0.37417151375311986,-1.4535963623871844,1.5443269073017902,1.1641649984306826,1.3484185137726388,0.000527536155957551,2.8459240034344743e-05,0.00082168969642319,-1.972264369664469e-05,-0.0018086996631436945,0.00022522840121357094,-0.0010453776072473836,0.6418340802192688,-50.36893081665039,-6.674393653869629,16.88727569580078,1.5709329843521118,-1.2824203968048096,-0.0072769103571772575,746,756,749,41.717,0,0
