IITGN-Robotics/Franka_IITGN_ROBOTICS/franka_ros/franka_iitgn/data01/s_b_013.csv
time,fr3_joint1_pos,fr3_joint2_pos,fr3_joint3_pos,fr3_joint4_pos,fr3_joint5_pos,fr3_joint6_pos,fr3_joint7_pos,fr3_joint1_vel,fr3_joint2_vel,fr3_joint3_vel,fr3_joint4_vel,fr3_joint5_vel,fr3_joint6_vel,fr3_joint7_vel,fr3_joint1_eff,fr3_joint2_eff,fr3_joint3_eff,fr3_joint4_eff,fr3_joint5_eff,fr3_joint6_eff,fr3_joint7_eff,flexpin1,flexpin2,flexpin3,Force,ContactMic,ContactMic_gt
1739303412.916803,-0.06535333874352431,1.0376706329627907,-0.3975243507337127,-1.4714017014678984,1.5376507957584018,1.1854689329706518,1.3537626166738208,-0.004567472485957683,-0.0008515480990159409,-0.0020642643694200992,0.003173253797274912,-0.0015094873371332166,-0.00010456430388479463,-0.0005097220708446096,0.9909551739692688,-50.19040298461914,-6.900528907775879,16.78809356689453,1.5581156015396118,-1.2888290882110596,0.03941498324275017,,,,,,,,,
1739303412.9277637,-0.06537384268278446,1.0376714635615074,-0.3975394512789027,-1.471379682183318,1.5376500393364625,1.1854670586235847,1.3537660414227672,-0.002303691116103986,0.0005395898924297595,-0.0016024923892869242,0.0027357360879867784,-0.0022536713765810876,-0.0008814798042052594,0.00021995704855142417,0.9155767560005188,-50.16659927368164,-6.952103614807129,16.73651885986328,1.5645242929458618,-1.2760117053985596,0.04673920199275017,,,,,,,,,
1739303412.9378242,-0.06537932792422552,1.0376736641908415,-0.3975321947213911,-1.4713731745482905,1.5376504951426275,1.1854663881584913,1.353768984855329,0.0003191185073252621,0.0018009334220647133,0.0007876862425317507,0.000581540075546918,-0.0005930914039095618,0.0009240102828319633,3.357924234591151e-06,0.8163946270942688,-50.21817398071289,-7.102860450744629,16.81189727783203,1.5581156015396118,-1.2952377796173096,0.012864691205322742,,,,,,,,,
1739303412.9478285,-0.06538539349923483,1.0376829809748345,-0.39752583672241065,-1.4713689534021486,1.537650042238472,1.185468134571703,1.3537684223718338,-0.001323888939870488,0.0017251736725684436,0.0003643393738589775,0.0014215722818988915,-0.0012125474050444052,-1.708201132578208e-05,0.0008001582954102187,0.7925909161567688,-50.31735610961914,-7.154435157775879,16.81189727783203,1.5645242929458618,-1.3089706897735596,0.026597600430250168,,,,,,,,,
1739303412.9587886,-0.06539196306165564,1.0376855015769635,-0.3975206324839895,-1.4713808523304002,1.5376520243148752,1.1854646928928003,1.35377166870083,0.0007562369497590802,0.00029541707611571396,-0.00029663077980418985,-0.0009582710913735953,-0.0012184345014278064,-0.0008301965533862759,0.0007481518317177191,0.8401983380317688,-50.31735610961914,-7.182206153869629,16.93488311767578,1.5517069101333618,-1.2888290882110596,-0.0008682189509272575,,,,,,,,,
1739303412.9688578,-0.06539396707591826,1.0376822167517012,-0.397518451568311,-1.4713763883044186,1.5376555028621433,1.1854602682798474,1.353771669504316,-0.00010410501049628392,-0.0011692030527677292,0.0010386255769453076,0.001121016069013398,0.00013192453234968547,-0.001781489372316832,0.0026307967857385423,0.7648199200630188,-50.29355239868164,-7.182206153869629,16.91107940673828,1.5452982187271118,-1.2558701038360596,-0.0008682189509272575,,,,,,,,,
1739303412.9807904,-0.0653945081930223,1.0376775905526616,-0.3975244559381781,-1.4713621363795517,1.5376515551591512,1.1854579950812905,1.353765283943023,0.0008525123245004793,-0.0018606919431892934,0.00010096738869959818,0.0018864694969093804,0.0003867243224828173,0.00026497929831497996,-0.0015384110986995045,0.7410162091255188,-50.24197769165039,-7.130631446838379,16.71271514892578,1.5517069101333618,-1.2366440296173096,0.05314789339900017,,,,,,,,,
1739303412.9918015,-0.06538979551211233,1.0376813490541883,-0.3975265619810513,-1.4713606598911697,1.5376485225627556,1.1854602680615245,1.3537699238487915,0.0006891999076778241,0.0008850928714965547,-0.0014024352449446941,0.000554286479626694,-0.001748055306425159,-1.5644639722569556e-05,-0.00014446814994621042,0.6656377911567688,-50.29355239868164,-7.130631446838379,16.78809356689453,1.5773416757583618,-1.2558701038360596,0.012864691205322742,,,,,,,,,
1739303413.002791,-0.06539906189323852,1.0376820409695737,-0.3975205936260579,-1.4713691734105374,1.5376515532030655,1.1854641645990702,1.3537672454965533,-0.0008601302475153269,0.0009416971169396529,0.0012090556674128005,-0.0010769006974604642,-0.0008240180158691894,-4.755786801837126e-05,-0.00016772066290833548,0.7648199200630188,-50.29355239868164,-7.182206153869629,16.91107940673828,1.5517069101333618,-1.2888290882110596,0.026597600430250168,,,,,,,,,
1739303413.0137794,-0.0654014060523946,1.0376834408597397,-0.3975274979583938,-1.4713698747484987,1.5376492807611823,1.18546947404129,1.353773185252946,-0.0007261471217508119,-0.0006784795072862878,-0.0014627541297061078,0.0011031013502443114,-0.0014322435386829677,-0.0003312634558786091,0.0030111953447827457,0.7925909161567688,-50.29355239868164,-7.130631446838379,16.91107940673828,1.5709329843521118,-1.3217880725860596,-0.013685601763427258,,,,,,,,,
1739303413.0238218,-0.06539503215777316,1.037679283123851,-0.39752051416904904,-1.4713642209197486,1.537649286198546,1.185470528120933,1.3537694183858182,0.002480813802689128,-0.001061013839598749,0.001450658427471522,0.00200849246699531,-0.0003652813996978411,7.893965231675282e-05,0.00028480117405308477,0.7172124981880188,-50.26578140258789,-7.182206153869629,16.83570098876953,1.5709329843521118,-1.3153793811798096,0.0064559997990727425,,,,,,,,,
1739303413.034755,-0.06539600060332135,1.0376782521563457,-0.3975206195189927,-1.4713638778454035,1.5376507824610686,1.1854681228125448,1.3537716656203669,0.0014330142311320528,-0.0005109260257426203,0.000654235263738492,-0.0011507237316486733,0.00032958381328023476,-6.634500667356946e-05,0.0029489561357685067,0.7172124981880188,-50.24197769165039,-7.182206153869629,16.83570098876953,1.5581156015396118,-1.2824203968048096,-0.0008682189509272575,,,,,,,,,
1739303413.0448866,-0.06539805526481002,1.0376852627296924,-0.39752266444337336,-1.4713649789953551,1.5376526522483354,1.1854577215333066,1.3537689737113736,0.00021156492247599893,0.0012895751133957661,6.44685024527824e-05,-0.0007625351313643764,0.0001430861167402085,-0.0011161915508119073,0.0010662797252545188,0.7410162091255188,-50.34512710571289,-7.154435157775879,16.85950469970703,1.5517069101333618,-1.2302353382110596,0.012864691205322742,,,,,,,,,
1739303413.0558228,-0.06540378259732985,1.0376829892461699,-0.39752267327320034,-1.4713649842675574,1.5376516083694007,1.1854595104041787,1.3537628626826606,-0.0015027664355797615,-0.0025184322072667764,0.0007154398858820695,0.001437252217175357,0.0006631478768059589,0.0005393288296725888,-0.0011488972858463972,0.7925909161567688,-50.31735610961914,-7.154435157775879,16.88727569580078,1.5645242929458618,-1.2494614124298096,0.04673920199275017,,,,,,,,,
1739303413.0658746,-0.06540018660384765,1.0376832263913844,-0.39752267229210375,-1.471364971705156,1.5376547365047002,1.1854617346354084,1.3537720700217215,0.00035551579583669585,-0.0006882287777178782,-8.204389821344946e-05,-0.0004600096319963819,0.0005869337861626139,2.1295798397884865e-05,0.002081354436911974,0.7410162091255188,-50.31735610961914,-7.154435157775879,16.85950469970703,1.5517069101333618,-1.2696030139923096,-0.0072769103571772575,,,,,,,,,
1739303413.0767634,-0.06540066389262457,1.037681537212193,-0.397522669348659,-1.4713586234479705,1.5376505103047085,1.1854652242363133,1.3537693854245485,-0.00025752563090916946,-0.0015265237757692168,-0.00019346362576921683,0.0012682620715108585,-0.000437152361105196,0.00020326130413963854,-7.391892095051189e-06,0.7410162091255188,-50.29355239868164,-7.154435157775879,16.81189727783203,1.5645242929458618,-1.2888290882110596,0.0064559997990727425,,,,,,,,,
1739303413.0868318,-0.06540461223580142,1.0376843708684496,-0.39752421458818443,-1.4713667665008359,1.5376500858580673,1.1854657881743258,1.353769232059076,-0.0006717672104994085,0.0012572049456596312,-0.00026294138231042034,-0.0004753075810800286,0.00027625404331239867,-0.0007787811115723655,4.55681100460252e-06,0.7925909161567688,-50.29355239868164,-7.130631446838379,16.91107940673828,1.5645242929458618,-1.3025619983673096,0.019273381680250168,,,,,,,,,
1739303413.097817,-0.06540437439433237,1.037686083227224,-0.39752653584575975,-1.4713611468788619,1.5376535202291686,1.1854649615050052,1.35376754602281,0.00040559855102706205,0.0010172823160040038,-0.0001266942225818901,0.0009071526102812642,0.0016260652170935353,-0.0006407013449876769,-0.00032212306662710206,0.7925909161567688,-50.31735610961914,-7.102860450744629,16.83570098876953,1.5709329843521118,-1.2952377796173096,0.03300629183650017,,,,,,,,,
1739303413.1078324,-0.06539918827915377,1.0376776655195474,-0.3975244561622471,-1.4713593396372755,1.5376488758472666,1.185463407101162,1.3537652667177826,0.0003430323914297659,-0.0011590665412528544,-0.0009546313892728291,0.0017045234947642182,-0.0001422357903298058,-0.0002856914960180702,-0.0006669021238935334,0.7172124981880188,-50.24197769165039,-7.130631446838379,16.81189727783203,1.5773416757583618,-1.2824203968048096,0.05314789339900017,,,,,,,,,
1739303413.1179,-0.06540461126548057,1.0376833169896222,-0.3975244173585138,-1.4713593491535761,1.5376550341014872,1.1854626492789162,1.3537637686759714,-0.00013067400828568377,0.0001284326647961354,0.00018991754239863643,0.0011341806327162638,0.0031744955807547445,-0.0005292945822834633,-0.00014906961398814455,0.7925909161567688,-50.31735610961914,-7.130631446838379,16.81189727783203,1.5581156015396118,-1.2760117053985596,0.06596527993679047,,,,,,,,,
1739303413.128876,-0.06539932120836286,1.0376850681608332,-0.3975205275058204,-1.4713588696017506,1.5376500379068354,1.1854610257216027,1.3537660416569395,0.0010950778704020788,0.001148956102840356,0.0006970804494040104,0.0012627791935420419,-0.0008983339017741463,-0.00017428626894172239,-0.0005847079016668413,0.6894415020942688,-50.34512710571289,-7.154435157775879,16.83570098876953,1.5645242929458618,-1.2622787952423096,0.04673920199275017,,,,,,,,,
1739303413.139829,-0.06540545459964989,1.0376880540665814,-0.39752267326113727,-1.4713656546003182,1.5376497575256631,1.1854602680615245,1.3537669075003367,-0.00030500327488267205,0.0006771308067634304,0.0001916853769379093,-0.00033209452957461366,-0.0003986332375125703,-0.0005576354519549442,-0.0010916957650786594,0.7648199200630188,-50.34512710571289,-7.154435157775879,16.88727569580078,1.5709329843521118,-1.2558701038360596,0.03941498324275017,,,,,,,,,
1739303413.150766,-0.0654095161859522,1.037681506329457,-0.3975188136953066,-1.471364983839716,1.5376550853866926,1.1854626492789135,1.353768422874328,-0.002201132440500663,-0.0016171338185905775,0.0007697379025106182,-0.0007735801956250329,0.0007596895464106674,0.0003620208354789556,-0.00023295738298796862,0.8163946270942688,-50.29355239868164,-7.206009864807129,16.88727569580078,1.5517069101333618,-1.2760117053985596,0.026597600430250168,,,,,,,,,
1739303413.1608965,-0.06540570103964896,1.0376834497854368,-0.3975188078629852,-1.4713629040460743,1.5376500423033772,1.1854634069389918,1.353764067375305,0.0004425075628852765,-0.0010470284426776948,0.00038090768347386983,-9.472250850664791e-06,-2.323487786468672e-05,0.00030848606410353077,-0.0020850891799387384,0.7648199200630188,-50.29355239868164,-7.206009864807129,16.85950469970703,1.5645242929458618,-1.2824203968048096,0.05314789339900017,,,,,,,,,
1739303413.171869,-0.06540344184979983,1.0376815402325086,-0.3975242145882343,-1.4713668005260243,1.5376483757422525,1.1854626492789135,1.3537713673040634,0.000769902990075206,-0.00026968222078338684,-0.0010771322721470147,-0.0014390561572254405,4.326317118091827e-05,-0.0005130813420593887,0.0010893422561959742,0.7648199200630188,-50.29355239868164,-7.130631446838379,16.91107940673828,1.5517069101333618,-1.2760117053985596,-0.0072769103571772575,,,,,,,,,
1739303413.182811,-0.06540319196418878,1.0376880710391567,-0.3975206714831722,-1.4713629040462661,1.5376512840256034,1.1854626492789135,1.3537724102003295,0.001398956118497393,0.001262461728252482,0.001249475435931916,3.840458178210629e-05,6.963567267589428e-05,-0.0005322036855045922,0.0016113782697362226,0.7648199200630188,-50.34512710571289,-7.182206153869629,16.85950469970703,1.5581156015396118,-1.2760117053985596,-0.0072769103571772575,,,,,,,,,
1739303413.1938796,-0.06540401816723086,1.0376834277533973,-0.39752361795416474,-1.4713619670512468,1.5376515532058228,1.1854634461848483,1.3537692882331103,0.00034742949969285676,-0.00022809747908363517,-8.272147156209776e-05,-0.00039851398569593245,-6.119487470409657e-05,-8.180518177807876e-05,0.0019617532822430754,0.7410162091255188,-50.29355239868164,-7.154435157775879,16.85950469970703,1.5517069101333618,-1.2824203968048096,0.019273381680250168,,,,,,,,,
1739303413.2048316,-0.06540548517040261,1.0376843677617673,-0.397524455955602,-1.4713646659392015,1.5376532169588022,1.1854634069392134,1.3537655841156577,-0.000854456369051443,-0.0010939217899883673,-0.000967228513451001,-0.0006042507417729677,0.000456756962058787,0.0006230701373723885,-0.0011081311457528682,0.7648199200630188,-50.29355239868164,-7.130631446838379,16.88727569580078,1.5645242929458618,-1.2824203968048096,0.04673920199275017,,,,,,,,,
1739303413.214839,-0.06540409417447912,1.0376840153581275,-0.3975206020411718,-1.4713593033653813,1.5376500442354641,1.1854626492789135,1.3537676608458509,2.6218290900576006e-05,0.0014527682090404608,0.00028634352461105554,0.0014278008388701224,-2.204903515174274e-05,0.00021089881233229507,-0.00015594936604229297,0.7410162091255188,-50.31735610961914,-7.182206153869629,16.81189727783203,1.5645242929458618,-1.2760117053985596,0.03300629183650017,,,,,,,,,
1739303413.2258134,-0.06540409710295593,1.0376820423862205,-0.39752455995183766,-1.4713593347309122,1.5376492816764165,1.1854657881563808,1.3537713109619045,0.00023236990763079806,-4.598456225422836e-05,-0.0013045127933691873,0.0009008633632844028,-0.001579823785830475,0.00043977173639947866,0.001570875119296899,0.7410162091255188,-50.26578140258789,-7.130631446838379,16.81189727783203,1.5709329843521118,-1.3025619983673096,-0.0008682189509272575,,,,,,,,,
1739303413.235852,-0.06540196623692175,1.0376830883307027,-0.3975224338752859,-1.4713601676946715,1.5376541335403988,1.1854630024916233,1.353769093122909,0.0008972675406230966,-0.0006126442026533634,-0.0004431817504962212,0.0007773642248681135,0.0012539163633774426,0.00025919418047719035,0.00038816497318730925,0.7410162091255188,-50.26578140258789,-7.154435157775879,16.83570098876953,1.5581156015396118,-1.2760117053985596,-0.013685601763427258,,,,,,,,,
1739303413.245913,-0.06540780655413742,1.0376833266055114,-0.3975198693932854,-1.4713628380525672,1.5376500372934154,1.1854602680675062,1.3537708040223058,-0.00018785377692013525,-0.00027109910305058707,0.00010454215956614893,-0.0003994649216197029,-0.0008140204783196247,-0.0009215022250876138,0.0007701991008715061,0.7925909161567688,-50.31735610961914,-7.182206153869629,16.88727569580078,1.5645242929458618,-1.2558701038360596,0.0064559997990727425,,,,,,,,,
1739303413.2567868,-0.06540581012663645,1.0376830204601644,-0.39752059333395207,-1.4713649838238165,1.537651553203062,1.1854602680615245,1.3537707474031473,0.0002985846044292917,-0.0015067604845790227,0.0005156682903763213,-0.0008651779889445269,-0.001004619616530623,-0.00016159598417754412,0.00013763740810573814,0.7648199200630188,-50.31735610961914,-7.182206153869629,16.88727569580078,1.5517069101333618,-1.2558701038360596,0.0064559997990727425,,,,,,,,,
1739303413.266791,-0.06540433331398064,1.0376799688037754,-0.3975226703298084,-1.471359338364987,1.537650676351867,1.1854610257216027,1.3537652163628973,0.0008749548565881264,-0.000732731194949702,0.000714227861969802,0.0009553738151529097,-0.0013225218429723596,-0.00022702211552968248,-0.001204616617288312,0.7410162091255188,-50.24197769165039,-7.154435157775879,16.81189727783203,1.5581156015396118,-1.2622787952423096,0.06596527993679047,,,,,,,,,
1739303413.2768521,-0.06540417973221951,1.037680627164916,-0.39752259380034066,-1.4713628235920624,1.537650042241541,1.1854626492789135,1.3537666056006374,0.00020586117951205634,-0.0012491949357468393,0.00022288906052038174,-0.000588572916423354,2.046466382934078e-05,0.0001466292121222204,0.00022081495254564702,0.7410162091255188,-50.24197769165039,-7.154435157775879,16.85950469970703,1.5645242929458618,-1.2760117053985596,0.03300629183650017,,,,,,,,,
1739303413.2878542,-0.06540780724024553,1.0376796076283674,-0.3975227247829884,-1.4713649720617183,1.5376476581190943,1.1854634069389918,1.3537700464255475,-0.0011149582404051221,0.00045596555235092614,0.00036856604645522126,-0.0014552649338940337,-0.0018923441621790586,-0.0005503382928417485,-0.00015751588062913743,0.7925909161567688,-50.26578140258789,-7.154435157775879,16.88727569580078,1.5846658945083618,-1.2824203968048096,0.012864691205322742,,,,,,,,,
1739303413.2988038,-0.06540780756455489,1.037686046644058,-0.39752470364703274,-1.4713649572358936,1.5376507955968304,1.1854641645990702,1.353765238882968,0.00019364549954678295,0.0020475130462305523,-4.162101852355952e-05,0.0008524651639321504,-0.00029075658065286453,-0.00011255361478205498,-0.0016741714981084435,0.7925909161567688,-50.31735610961914,-7.154435157775879,16.88727569580078,1.5581156015396118,-1.2888290882110596,0.05314789339900017,,,,,,,,,
1739303413.309818,-0.06540581837225921,1.0376829868093598,-0.39752374070599344,-1.4713649794751287,1.5376518551811167,1.185464961505005,1.353765283942771,0.0007361952177555197,0.0008003472930137011,8.990331454744111e-06,-0.00032718688690731125,-1.4858783495235459e-05,0.0007650485043262285,-0.00022246868821864643,0.7648199200630188,-50.29355239868164,-7.130631446838379,16.88727569580078,1.5581156015396118,-1.2952377796173096,0.05314789339900017,,,,,,,,,
1739303413.3198204,-0.06540616259026559,1.0376816155189266,-0.3975188107942628,-1.4713621227038902,1.537655090801909,1.1854634069396564,1.3537684228743276,-0.0010574183147401288,-0.0005082949307160723,0.001652224478195372,-0.000818782063910966,0.0023448178854939185,3.292474202861943e-05,-0.0006547070850326966,0.7648199200630188,-50.29355239868164,-7.206009864807129,16.88727569580078,1.5581156015396118,-1.2824203968048096,0.026597600430250168,,,,,,,,,
1739303413.3298287,-0.06540480574194898,1.0376840067032704,-0.3975205892317599,-1.4713649736489631,1.5376507956157277,1.1854610257216027,1.3537701350397802,0.0010312043947251917,-0.0006729184254770989,-0.0002158039586421807,-0.0025075494995215417,0.00042666444665106037,-0.00033111663020480133,0.00041259994969940585,0.7410162091255188,-50.31735610961914,-7.182206153869629,16.88727569580078,1.5581156015396118,-1.2622787952423096,-0.0008682189509272575,,,,,,,,,
1739303413.339882,-0.06540612598779323,1.0376810246352828,-0.397520594767292,-1.4713604138962977,1.5376536877475775,1.185459510401446,1.3537683834409717,0.0009197781839427334,-0.0010929351722106903,0.0004757040171112293,0.0008681382174531012,0.0011016886403804164,-0.0003388825258829371,0.00015011070024827154,0.7648199200630188,-50.26578140258789,-7.182206153869629,16.85950469970703,1.5645242929458618,-1.2494614124298096,0.026597600430250168,,,,,,,,,
1739303413.3507683,-0.06540443927048627,1.0376860844443636,-0.39752059348340185,-1.4713629039956784,1.5376511034096778,1.185461891618835,1.3537708040913847,0.001509204453583216,0.0004935254419506754,0.00036227093679062867,3.931146531858411e-05,0.00021869431438372664,-0.00015759368760926185,0.0008615654913039852,0.7410162091255188,-50.31735610961914,-7.182206153869629,16.85950469970703,1.5645242929458618,-1.2696030139923096,0.0064559997990727425,,,,,,,,,
1739303413.3607812,-0.06540491115646005,1.0376859824477458,-0.3975244471199515,-1.4713627888158776,1.537650797014582,1.1854634069389918,1.3537710126985065,0.0006897899550810088,0.00031963626536541436,-0.0005442401407956624,-0.0008783058603383305,0.0002763501265124551,0.0007252388200288571,0.0009133978524899008,0.7410162091255188,-50.31735610961914,-7.130631446838379,16.85950469970703,1.5581156015396118,-1.2824203968048096,-0.0072769103571772575,,,,,,,,,
1739303413.3717666,-0.06540421375497506,1.0376821411472217,-0.39752051302933866,-1.4713589401345666,1.537651266493275,1.1854649222591485,1.3537684214127907,0.000693982703969557,-0.0006176618549706882,0.0018521519295112278,0.0010201322018811708,0.0002379933569497971,0.0004195529941655331,0.00010185112038886481,0.7410162091255188,-50.26578140258789,-7.182206153869629,16.83570098876953,1.5581156015396118,-1.2952377796173096,0.026597600430250168,,,,,,,,,
1739303413.3819034,-0.06540659731969863,1.0376840172438702,-0.39752445594890673,-1.4713587340938692,1.5376511487636724,1.1854626492789135,1.3537677538224762,0.0014835794006216108,0.002035854685672265,-0.0002749108950725558,0.0011924546124666953,-0.0009135643673946461,-0.0010326507851929876,-0.00011323001475503094,0.7648199200630188,-50.31735610961914,-7.130631446838379,16.83570098876953,1.5581156015396118,-1.2760117053985596,0.019273381680250168,,,,,,,,,
1739303413.3927605,-0.06540556171643917,1.037684269565417,-0.3975198122503009,-1.4713625732409008,1.5376515532050592,1.185461909061438,1.3537658078703467,0.0002817357427043901,0.0007422897156602064,0.0015396301775795962,-0.0004027005487810493,-0.0016047960831590468,-0.0004329520868860612,0.0006490400486283171,0.7172124981880188,-50.29355239868164,-7.154435157775879,16.85950469970703,1.5517069101333618,-1.2696030139923096,0.012864691205322742,,,,,,,,,
1739303413.402765,-0.06540548302879776,1.0376880569162859,-0.3975206711090342,-1.4713608442440984,1.5376543943345014,1.185463406939287,1.353760287712485,0.0001877329568513632,0.0015134243043317028,0.000910174875428886,-3.0497232022682334e-05,0.0014713210307673948,-0.00014238293150211425,-0.0025872127022571836,0.7172124981880188,-50.34512710571289,-7.182206153869629,16.83570098876953,1.5645242929458618,-1.2824203968048096,0.05955658480525017,,,,,,,,,
1739303413.4128222,-0.06540728584193012,1.0376820679072756,-0.3975225941226974,-1.471362585168796,1.537652329833074,1.1854634069389918,1.3537696534166646,-0.0009568480015395843,-0.002004495482930895,-0.00021798037885171288,-0.0004170987449140833,-0.0003486647503740891,-7.88655736161316e-05,-0.0005260188301383352,0.7410162091255188,-50.26578140258789,-7.154435157775879,16.85950469970703,1.5452982187271118,-1.2824203968048096,0.012864691205322742,,,,,,,,,
1739303413.4238749,-0.06540718096880081,1.0376843718595359,-0.39752267355745696,-1.4713596854116255,1.5376539749419988,1.1854610257216027,1.3537630740763629,-0.00042134611436404044,0.0002859072940858752,-0.0006763550033120299,-7.540973420533907e-05,0.0001914423571454441,-0.0006875063688783118,-0.0021510354296309974,0.7410162091255188,-50.29355239868164,-7.154435157775879,16.85950469970703,1.5581156015396118,-1.2622787952423096,0.05955658480525017,,,,,,,,,
1739303413.4347548,-0.06540897218993759,1.0376860758787256,-0.39752235538181296,-1.4713596883750344,1.537652039191312,1.1854634069389918,1.3537677845543268,0.0012631049175932914,0.0012995593606108236,0.00014749442830046082,0.0009864515036036444,0.00188218782585748,-5.821840595748753e-05,-0.001317353221459303,0.7648199200630188,-50.31735610961914,-7.154435157775879,16.85950469970703,1.5517069101333618,-1.2824203968048096,0.05955658480525017,,,,,,,,,
1739303413.4458172,-0.06541066400837756,1.0376857528593393,-0.39752267326786667,-1.471361841410048,1.5376515533728012,1.1854626492789135,1.3537648000198073,-0.0009607405910593037,-0.0009920879715648522,-0.0009445256980131038,0.0005063459367501003,0.00019036949359423278,-0.0006889889531946771,-0.0014252174795651548,0.7925909161567688,-50.31735610961914,-7.154435157775879,16.85950469970703,1.5517069101333618,-1.2760117053985596,0.05314789339900017,,,,,,,,,
1739303413.4568205,-0.06541091785695237,1.03768401724719,-0.39752406390293993,-1.471361831493574,1.5376515536875823,1.1854634069389918,1.353764468193862,-1.0408529319045246e-05,-1.8141725520882577e-05,-0.00016451063194127327,0.00029845107094066554,-0.00013495757837658025,-2.8254218662949663e-05,-0.0031786470109919866,0.7925909161567688,-50.31735610961914,-7.154435157775879,16.85950469970703,1.5517069101333618,-1.2824203968048096,0.05955658480525017,,,,,,,,,
1739303413.4688342,-0.06540927290204214,1.0376796189195907,-0.3975226468258129,-1.4713627977491577,1.5376507960275065,1.1854626667215165,1.3537724261950397,-0.00022278587575062726,-0.00037739958560272695,-0.0001807924579546056,-0.0013219268247967914,-0.0006082364381457406,-0.00035053505217771117,0.0010553846844043031,0.7648199200630188,-50.26578140258789,-7.154435157775879,16.85950469970703,1.5581156015396118,-1.2760117053985596,-0.0072769103571772575,,,,,,,,,
1739303413.4788728,-0.06540898968919047,1.037682305551359,-0.3975226693485152,-1.4713596947155472,1.5376508109727476,1.185462649279012,1.3537638711460136,-0.00030075238370224337,0.00010024002125384908,0.0001787245381809784,2.119988138132644e-05,-0.0011534788059561795,-4.634336593069651e-05,-0.0027464426732797457,0.7648199200630188,-50.29355239868164,-7.154435157775879,16.85950469970703,1.5709329843521118,-1.2760117053985596,0.05314789339900017,,,,,,,,,
1739303413.4898276,-0.06540799785978423,1.0376897919624986,-0.3975226744481811,-1.4713596867035041,1.537655203076374,1.1854626623608657,1.3537660416489639,-0.0013200005087634346,0.0027291572073672088,0.0005094375526605203,-0.0003630002553003136,0.000827801681818935,6.125649022428999e-05,-0.00011100743347330086,0.7410162091255188,-50.36893081665039,-7.154435157775879,16.85950469970703,1.5517069101333618,-1.2760117053985596,0.04673920199275017,,,,,,,,,
1739303413.499829,-0.06540897516840095,1.037681353633066,-0.39752090537895857,-1.4713617651851338,1.5376515663468284,1.1854641645992918,1.353764095613506,-0.0003586378797927821,-0.0022781163132782325,0.0011105938067273817,-0.00034971249179910336,-0.0005989911388392783,0.00023204779483924608,-0.0009071492273584844,0.7648199200630188,-50.26578140258789,-7.182206153869629,16.88727569580078,1.5517069101333618,-1.2888290882110596,0.05955658480525017,,,,,,,,,
1739303413.510877,-0.06540899555588241,1.0376841338689522,-0.3975196368673996,-1.4713599474273682,1.5376507955968965,1.18546280626234,1.3537707903612013,0.0006516165943839671,0.00024395798197958366,0.0018321319696004389,0.0005754366851953256,-0.0009732903668056371,0.0004896333849619716,0.0013488076145140564,0.7648199200630188,-50.29355239868164,-7.182206153869629,16.83570098876953,1.5581156015396118,-1.2760117053985596,0.0064559997990727425,,,,,,,,,
1739303413.5217772,-0.06540344738771416,1.0376842954354781,-0.3975184929095366,-1.47136179950044,1.5376485792512118,1.185461891619721,1.35376741709285,0.0016797369552550255,-0.0006400362892222597,0.0013298264252853392,-0.0010651640469197014,-0.0010501929146384365,-0.0007174847924201694,-6.514494518425362e-05,0.7172124981880188,-50.29355239868164,-7.206009864807129,16.88727569580078,1.5773416757583618,-1.2696030139923096,0.026597600430250168,,,,,,,,,
1739303413.5317822,-0.06540628494307014,1.0376836822527626,-0.3975188098090783,-1.4713617681302944,1.537651097523918,1.185465070533223,1.3537684184625787,-0.0003198300645585636,-0.0009941878638246656,0.0003495236576895824,-0.00017106358802438694,-0.0009531767426537995,0.0003124137350098696,0.0006212562472481193,0.7172124981880188,-50.29355239868164,-7.206009864807129,16.88727569580078,1.5645242929458618,-1.2696030139923096,0.026597600430250168,,,,,,,,,
1739303413.541838,-0.06540728595548445,1.0376843719623492,-0.397519570888277,-1.4713618003556608,1.5376492807133288,1.1854626492968585,1.3537691922667698,0.001046670019723299,0.000531688378619048,0.0016521685890010824,-0.0008328179795107631,-0.00010523634994063212,1.6327178223335376e-05,0.00040610365345437665,0.7410162091255188,-50.29355239868164,-7.154435157775879,16.88727569580078,1.5709329843521118,-1.2760117053985596,-0.0072769103571772575,,,,,,,,,
1739303413.5528696,-0.06541099630504535,1.0376823750065358,-0.3975246898998377,-1.4713597128675544,1.5376500378829114,1.1854626492789135,1.3537660241422373,-0.0010365029586127735,-0.00046734018408221964,0.00036882441918202917,3.6729189425763365e-05,-0.0012155752390838597,0.00026697350085665627,-0.0003375520202989745,0.7925909161567688,-50.26578140258789,-7.130631446838379,16.85950469970703,1.5645242929458618,-1.2760117053985596,0.04673920199275017,,,,,,,,,
1739303413.5637965,-0.06540942178457179,1.0376823825407768,-0.3975205934847153,-1.4713561203684218,1.5376529660539044,1.1854634069389918,1.353765283996762,0.0002886072350882573,-0.0003920990891518489,0.0011689033843991343,0.0013808951535227898,0.0007658739331713247,0.00033783020614556834,-0.0015450157874340137,0.7410162091255188,-50.26578140258789,-7.182206153869629,16.81189727783203,1.5517069101333618,-1.2824203968048096,0.05314789339900017,,,,,,,,,
1739303413.5738182,-0.06540899850836966,1.0376833770839209,-0.39752059348339464,-1.47136278483679,1.537650038391352,1.1854649222591485,1.353769171033991,9.415781306055257e-07,-0.00019731711939665572,0.0019106860627806817,-0.0007027391590583528,-0.0007656957719014874,0.00021934869533780195,2.1457624574613065e-05,0.7648199200630188,-50.29355239868164,-7.182206153869629,16.85950469970703,1.5645242929458618,-1.2952377796173096,0.019273381680250168,,,,,,,,,
1739303413.58474,-0.06540762873949726,1.0376857771039323,-0.3975223259474189,-1.4713596852996988,1.5376520223767864,1.1854641776810224,1.353766907553507,0.0005867795072437295,0.0004066493324814684,0.00038256547187188523,0.0012861250902981881,0.00027906403574054674,-0.0001631646273196902,0.0010556972969844292,0.7410162091255188,-50.31735610961914,-7.154435157775879,16.85950469970703,1.5517069101333618,-1.2888290882110596,0.03941498324275017,,,,,,,,,
1739303413.5947495,-0.06540899858651585,1.0376860816473452,-0.39752264677641497,-1.4713617916760633,1.5376505107792007,1.1854629514186914,1.353766867517141,-0.00013190646492119957,0.0010853795006957308,0.0003349804149349179,-0.0003075304701122498,0.0013605133535063655,-0.0009273168360779693,0.0013254893035808478,0.7648199200630188,-50.31735610961914,-7.154435157775879,16.88727569580078,1.5645242929458618,-1.2696030139923096,0.012864691205322742,,,,,,,,,
1739303413.605819,-0.06541131565457867,1.0376823727655977,-0.3975205186752718,-1.4713579115490036,1.5376526540331268,1.1854631842616659,1.3537692467426279,-0.00018275965569070855,0.00022492934093929352,0.0010005881931639806,-4.3021220666576666e-05,0.0013222697651727434,0.00023530795234169056,0.001838692116616842,0.7925909161567688,-50.26578140258789,-7.154435157775879,16.83570098876953,1.5517069101333618,-1.2622787952423096,-0.0072769103571772575,,,,,,,,,
1739303413.6158233,-0.0654072913944941,1.0376860844869666,-0.39752048456397965,-1.4713599238138853,1.5376515532631148,1.1854626362091463,1.353767665196294,0.0012396259549347117,0.0013570443294494356,0.0010230920210145744,-6.974170859035936e-06,0.0001504070331648748,0.0001911420668319505,0.00019914281578061805,0.7410162091255188,-50.31735610961914,-7.182206153869629,16.85950469970703,1.5517069101333618,-1.2760117053985596,0.03300629183650017,,,,,,,,,
1739303413.6267822,-0.0654110315708295,1.037684337638231,-0.3975224348540562,-1.471357985135882,1.5376529677227957,1.1854642046359167,1.3537645263367826,-0.00011324391339838965,-0.0009798282622991766,0.00025787177964830117,0.000620457800756528,-5.016341928556627e-05,0.00010109537205475451,-0.0018537052614142151,0.7925909161567688,-50.29355239868164,-7.154435157775879,16.83570098876953,1.5517069101333618,-1.2622787952423096,0.05955658480525017,,,,,,,,,
1739303413.6368253,-0.06540934419182666,1.0376838195790663,-0.3975188107942626,-1.4713543373683864,1.5376539876111923,1.1854650711792454,1.3537708040916074,-9.446936511026465e-05,-0.0008873106608134047,0.0017552795207784297,0.0010311732504073132,7.773340072378453e-05,0.0007273295653857442,0.0017386844838926223,0.7648199200630188,-50.29355239868164,-7.206009864807129,16.78809356689453,1.5581156015396118,-1.2696030139923096,0.0064559997990727425,,,,,,,,,
1739303413.6469314,-0.06540732143670082,1.0376860811945252,-0.3975208265056684,-1.4713571962928176,1.537651215491968,1.1854634069569405,1.3537724271644014,0.0006570369547256224,0.001158149024841185,0.00032468462309577766,0.00117975748460924,2.6568396635555123e-05,-0.0001956967631440366,0.002252159752238658,0.7410162091255188,-50.31735610961914,-7.182206153869629,16.83570098876953,1.5645242929458618,-1.2824203968048096,-0.0072769103571772575,,,,,,,,,
1739303413.6577628,-0.065408985835597,1.0376843350137466,-0.3975203550661309,-1.4713578202979505,1.5376515533712185,1.1854626497634304,1.3537727143587142,0.00040112397256886564,0.0013684255030208304,0.0007638667403374621,0.0009448941636179397,0.001308114717212818,0.00016114412986969215,0.0018548882759114884,0.7648199200630188,-50.29355239868164,-7.182206153869629,16.83570098876953,1.5517069101333618,-1.2760117053985596,-0.013685601763427258,,,,,,,,,
1739303413.6677713,-0.06540906472460346,1.037678872453881,-0.397524457230201,-1.4713596972766336,1.5376507957044954,1.1854634074235166,1.3537700464235536,-0.00010579128169942273,-0.0007383449556972238,-0.0005651388194346114,0.00010396392849797064,-0.0005460586801204197,0.00030506281494589634,0.001628720041323564,0.7648199200630188,-50.21817398071289,-7.130631446838379,16.85950469970703,1.5581156015396118,-1.2824203968048096,0.012864691205322742,,,,,,,,,
1739303413.6777873,-0.0654056642560374,1.0376840654273503,-0.3975205934834163,-1.471359896341937,1.5376542552781973,1.1854634069389998,1.3537652665542579,0.0007879758535628077,-0.00016700835785539577,0.0005002443658638787,0.0008924527546600863,0.0003453151657110398,5.29896642749755e-05,-0.0014216944357698306,0.7172124981880188,-50.29355239868164,-7.182206153869629,16.85950469970703,1.5645242929458618,-1.2824203968048096,0.05314789339900017,,,,,,,,,
1739303413.688812,-0.06541184722781396,1.0376860843768039,-0.39752445595026925,-1.4713617651886841,1.5376553878641528,1.1854618921033517,1.3537621449571522,-0.0012163022086076167,0.00022648132350906898,-0.000519130709275711,0.00044686763873490176,0.0013071182360623677,-0.00024105198213043955,-0.0015728979310815883,0.7648199200630188,-50.31735610961914,-7.130631446838379,16.88727569580078,1.5581156015396118,-1.2696030139923096,0.07969819009304047,,,,,,,,,
1739303413.6988258,-0.06541208390607713,1.037682305356954,-0.3975205886476483,-1.471361910635328,1.5376539877267565,1.1854618916188377,1.3537692495257032,-0.0005453122607941745,0.00024505755276026185,0.0006921373075165219,-0.0008782892002261044,-0.0001931616769650067,0.0005828851641742921,-0.0009456227353348593,0.7648199200630188,-50.29355239868164,-7.182206153869629,16.85950469970703,1.5581156015396118,-1.2696030139923096,0.019273381680250168,,,,,,,,,
1739303413.7107737,-0.06541013519317877,1.037683014690242,-0.3975205935190331,-1.4713617651976734,1.5376547321354732,1.1854626492789135,1.3537600795116826,-0.0001149467241091305,-0.0003082135295823806,0.0005551083233543809,-0.00029281935622620163,0.0012310723826994727,-0.0001555929092355196,-0.0030527218987083313,0.7410162091255188,-50.31735610961914,-7.182206153869629,16.88727569580078,1.5517069101333618,-1.2760117053985596,0.06596527993679047,,,,,,,,,
1739303413.7208025,-0.06540771904596597,1.037682271968833,-0.3975244471199517,-1.4713561200412182,1.5376517145650879,1.1854634069389918,1.3537645074198041,0.0011733057440228762,-0.0016300936344944778,5.755472494332496e-05,0.0021662255024067377,8.227651632048219e-05,-0.0003184520481205325,-0.0016758567250440026,0.7172124981880188,-50.26578140258789,-7.130631446838379,16.81189727783203,1.5517069101333618,-1.2824203968048096,0.05955658480525017,,,,,,,,,
1739303413.7308908,-0.06541113531824384,1.0376836831997303,-0.39752438997276335,-1.4713579115485549,1.537655085978918,1.1854641645990702,1.3537652796358899,0.00026685225918825336,-0.0005975130538580431,0.0001695516632825593,0.00017846528232621573,0.0013214145267242486,-7.680159690364125e-05,-0.0003471876427487544,0.7648199200630188,-50.29355239868164,-7.102860450744629,16.83570098876953,1.5517069101333618,-1.2888290882110596,0.05314789339900017,,,,,,,,,
1739303413.7417753,-0.06540934814627146,1.0376771911781204,-0.39752059344705587,-1.4713581411369658,1.5376500379427365,1.1854630031376456,1.3537684867137272,0.0006968552414201493,-0.0020099216286761008,0.001206701851293887,0.001496396212964612,-0.0010674539341794687,-8.45449964368711e-05,0.0004395151155880152,0.7648199200630188,-50.24197769165039,-7.182206153869629,16.83570098876953,1.5645242929458618,-1.2760117053985596,-0.0008682189509272575,,,,,,,,,
1739303413.7518203,-0.06541321167859505,1.0376840655140347,-0.3975265357401246,-1.471360124907199,1.5376483742886777,1.1854644665791185,1.3537673119835707,-0.0015118794504580923,0.000995266790230547,-0.00024036381877959274,-0.0005995708325712496,-0.0016910135232639893,0.0005303268884162285,0.00023502782573630687,0.7925909161567688,-50.29355239868164,-7.102860450744629,16.83570098876953,1.5517069101333618,-1.2824203968048096,0.03300629183650017,,,,,,,,,
1739303413.7618744,-0.06541117253888966,1.0376842951166965,-0.3975229082396475,-1.47136354800878,1.5376533343195258,1.1854626492968585,1.353760994203703,-0.001579411877294053,0.0008464033159938994,0.0002139111332183763,-0.0015102276866941404,0.0006192224502715404,-0.00032567090701530186,-0.0014001677625592322,0.7648199200630188,-50.29355239868164,-7.154435157775879,16.91107940673828,1.5645242929458618,-1.2760117053985596,0.05955658480525017,,,,,,,,,
1739303413.7728965,-0.06540911288020508,1.037682373709152,-0.3975244559542484,-1.4713596853952586,1.5376500424608903,1.1854618916188353,1.3537683044309192,-3.3401235788645906e-05,-9.799052149707588e-05,-0.0008654308057833063,-0.00015451469334104063,-0.00015819891788160844,-0.00011384683669066854,-0.0010130135401816322,0.7648199200630188,-50.26578140258789,-7.130631446838379,16.85950469970703,1.5645242929458618,-1.2696030139923096,0.026597600430250168,,,,,,,,,
1739303413.7838502,-0.06541280008414257,1.0376816169071046,-0.39752446984984346,-1.4713578203019382,1.5376507782619155,1.1854584107263961,1.3537662118411948,0.00025051352788507534,-0.0005688671516884747,0.00035301572582790844,0.0004021608018801605,-0.0011653477507438527,-0.0011930652807697084,-0.0011879026139909386,0.8163946270942688,-50.29355239868164,-7.130631446838379,16.83570098876953,1.5581156015396118,-1.2760117053985596,0.0064559997990727425,,,,,,,,,
1739303413.793879,-0.06541124368547416,1.037685970044716,-0.39752259383613475,-1.471359685394791,1.5376522027948685,1.1854626492549867,1.3537692756636852,0.000564214087051362,0.00026487357421755534,-2.2459597448417883e-05,0.0008486201168256277,0.0016189671658464388,-0.0001910904542228169,0.0008231565083722834,0.7648199200630188,-50.31735610961914,-7.154435157775879,16.85950469970703,1.5581156015396118,-1.2760117053985596,0.019273381680250168,,,,,,,,,
1739303413.804791,-0.06540900727431008,1.0376880824271808,-0.3975244294225288,-1.471357902718237,1.5376500403134363,1.1854626492789133,1.3537689981027543,-0.00041383208838319285,0.002609821135574785,9.911340667351763e-05,0.000754192131499294,-0.0008941698784660653,-0.0004355289962922169,0.0007847847612782733,0.7648199200630188,-50.34512710571289,-7.130631446838379,16.83570098876953,1.5645242929458618,-1.2760117053985596,0.012864691205322742,,,,,,,,,
1739303413.8157585,-0.06540731231992694,1.0376806574104918,-0.39752477930358304,-1.4713617651851116,1.5376523673153608,1.1854626492789135,1.3537675859136091,0.0006572100742788692,-0.001729114650325137,0.000236615818412854,0.00035349699561491426,0.0012825181770906528,0.0002819997540409933,0.0010856290060262878,0.7410162091255188,-50.24197769165039,-7.154435157775879,16.88727569580078,1.5581156015396118,-1.2760117053985596,0.0064559997990727425,,,,,,,,,
1739303413.8259075,-0.06540653581994232,1.0376843634279576,-0.3975230113257449,-1.4713579027545758,1.5376509531813087,1.1854637089170428,1.3537716699706732,-0.00034202817056464344,-3.596073970913169e-05,0.0002706149054506774,0.0009736810348296267,-0.00028412209716322304,0.00014274407782699272,0.0015331466144664642,0.7172124981880188,-50.29355239868164,-7.154435157775879,16.83570098876953,1.5581156015396118,-1.2760117053985596,-0.0008682189509272575,,,,,,,,,
1739303413.8367891,-0.06540728888671288,1.037684064903705,-0.39752374069644025,-1.4713596843777712,1.5376522083947162,1.1854634069449734,1.3537697400928272,0.0008724201414745347,-0.000695429575273633,0.00026610544248550894,-0.0005152840585801951,0.00036636144058533357,-0.00020750509766704492,0.000826173235566608,0.7410162091255188,-50.29355239868164,-7.130631446838379,16.85950469970703,1.5581156015396118,-1.2824203968048096,0.0064559997990727425,,,,,,,,,
1739303413.8478236,-0.065407324364578,1.0376833294261043,-0.3975245339473717,-1.4713597236599607,1.5376503896500437,1.185463408392542,1.3537681869908218,0.0005717901454491891,0.0011726411048655365,0.0003462746661704698,-0.0009438761773538624,-0.000934840473940466,-0.00018579245590919627,-0.001646263800316272,0.7410162091255188,-50.31735610961914,-7.130631446838379,16.85950469970703,1.5645242929458618,-1.2824203968048096,-0.0072769103571772575,,,,,,,,,
1739303413.857863,-0.06541023931134236,1.0376843464097787,-0.39752445595159014,-1.4713635586190508,1.5376507955489442,1.1854649222591729,1.3537652446791884,0.0005016845956301352,0.0006473564824708882,5.295347073435553e-05,-0.0006124081840330584,-0.0010177205070699392,-4.152849446977796e-05,-0.0006820747350435065,0.7410162091255188,-50.29355239868164,-7.130631446838379,16.91107940673828,1.5581156015396118,-1.2952377796173096,0.05314789339900017,,,,,,,,,
1739303413.8687797,-0.0654120924067401,1.0376860844868296,-0.39752445202568354,-1.471359539832047,1.5376523261313961,1.185461891618835,1.3537629027788096,-0.0007664908214575801,0.0008612015779996824,0.0008284246216403613,-0.0003905084594710726,0.00034703754654739135,-0.0008020484228303693,-0.0004989353286976312,0.7648199200630188,-50.31735610961914,-7.130631446838379,16.88727569580078,1.5581156015396118,-1.2696030139923096,0.07328949868679047,,,,,,,,,
1739303413.8788095,-0.06540731237217394,1.0376834801041506,-0.39752445627119515,-1.471360639031886,1.5376526161465656,1.1854626434647124,1.3537645263367828,0.0010494212438889703,-0.00015839185672923467,-0.0009932700837694125,-0.001212741547306167,0.0006608613610007269,-0.0008286245984028405,0.00034978278299750487,0.7410162091255188,-50.29355239868164,-7.130631446838379,16.85950469970703,1.5709329843521118,-1.2760117053985596,0.05955658480525017,,,,,,,,,
1739303413.8897474,-0.06541345890228246,1.0376864921136346,-0.3975258204843893,-1.4713617652995112,1.5376518988064551,1.1854626473408136,1.35376924873453,-0.0013420755554955797,0.0007678645496953597,-0.001518866024442744,-0.0010983432635938563,-0.0007742768434907726,0.0006920417296226595,0.0010586402482601098,0.7925909161567688,-50.29355239868164,-7.102860450744629,16.88727569580078,1.5581156015396118,-1.2760117053985596,-0.0072769103571772575,,,,,,,,,
1739303413.8998156,-0.06541045149250097,1.037683316866307,-0.3975223101709444,-1.4713617651851136,1.537650079085516,1.1854626536395314,1.3537676519169572,0.0006325583920415534,-0.0009670155354335364,-0.0006776495447155896,-0.00040486072170961654,-0.0010615420136906807,-0.00011531409691470689,0.0005690358308628911,0.7410162091255188,-50.31735610961914,-7.130631446838379,16.88727569580078,1.5645242929458618,-1.2760117053985596,0.03300629183650017,,,,,,,,,
1739303413.9108124,-0.06540983054311063,1.037683335373116,-0.3975226722799908,-1.47135953994504,1.537655842990474,1.1854634069390162,1.3537713679568786,0.00063033729542277,0.0005645436405651152,0.0006598936149781702,-0.0006676195944912251,0.0013363216399161063,6.295390494669408e-05,0.0016382322262793938,0.7648199200630188,-50.31735610961914,-7.154435157775879,16.88727569580078,1.5452982187271118,-1.2824203968048096,-0.0072769103571772575,,,,,,,,,
1739303413.9218504,-0.06541387949765053,1.0376807409619992,-0.3975226731278895,-1.4713586179614129,1.5376524591571572,1.1854649237126986,1.3537716656222072,-0.0006199729970015433,-0.0010028289833990236,0.00030720470198882427,-8.570295368477362e-05,0.0004734792209949242,0.0007542990438744825,0.0013609034368478492,0.7925909161567688,-50.24197769165039,-7.154435157775879,16.83570098876953,1.5709329843521118,-1.2952377796173096,-0.0008682189509272575,,,,,,,,,
1739303413.931867,-0.0654091053940535,1.0376860816565878,-0.39752445595026187,-1.4713613979093025,1.537650055971535,1.1854626492789873,1.3537669075539498,0.0009246240407635376,0.0010554136463060634,-0.0009682657940959634,-0.0006173586137971318,-0.00156704182065356,-0.0002819894691251288,-0.0012753109154387664,0.7648199200630188,-50.31735610961914,-7.130631446838379,16.88727569580078,1.5645242929458618,-1.2760117053985596,0.03941498324275017,,,,,,,,,
1739303413.9427905,-0.06541023957614352,1.037682360242677,-0.39752653574012475,-1.471359685344319,1.5376504423303112,1.1854649222591485,1.3537668900397886,-0.0002817895871142739,0.0002056870915670356,-0.0006839132864713383,0.000686345513291306,-0.0004421783042281081,-7.091751098547983e-05,-0.0009490965756254756,0.7410162091255188,-50.26578140258789,-7.102860450744629,16.85950469970703,1.5581156015396118,-1.2952377796173096,0.03941498324275017,,,,,,,,,
1739303413.952791,-0.06541410933429434,1.0376897826658251,-0.39752059337437834,-1.4713594381463586,1.5376514529021166,1.185462649440419,1.3537601698848931,0.0013868648322347195,0.0005194290498265765,0.001130605744029517,-0.00033278867780267335,-0.0005506596774457177,-0.0006002882726737561,-0.0031784098019842517,0.7925909161567688,-50.36893081665039,-7.182206153869629,16.85950469970703,1.5517069101333618,-1.2760117053985596,0.05955658480525017,,,,,,,,,
1739303413.9637659,-0.0654120339458539,1.0376833733044768,-0.397520593483394,-1.4713617650329776,1.5376508015719628,1.1854634069389927,1.3537651915537041,-0.0014865290289539958,-0.0011178906886949549,3.472206801927242e-05,-0.0015391736999235772,-0.0006928728641496139,-0.0005108171090110916,-0.0013576023258629302,0.7925909161567688,-50.29355239868164,-7.182206153869629,16.88727569580078,1.5581156015396118,-1.2824203968048096,0.026597600430250168,,,,,,,,,
1739303413.9747486,-0.0654138706732032,1.0376843983115869,-0.39752056699244137,-1.4713596866657659,1.5376508350042184,1.1854641647605757,1.3537652439416994,-0.0013141352008676438,0.0009026997813320648,0.0010233051069562717,-0.0009430212934118914,0.0003522151023734287,0.0009290227539376058,-0.00021361870560470796,0.7925909161567688,-50.29355239868164,-7.182206153869629,16.85950469970703,1.5581156015396118,-1.2888290882110596,0.026597600430250168,,,,,,,,,
1739303413.9848623,-0.06540901024012384,1.0376843718617101,-0.397525464023255,-1.471359685282224,1.5376500529035961,1.185464164599073,1.3537652708610732,3.1243016781946843e-05,-7.753673845996165e-05,-0.0026034716018824323,0.00036260395982095207,0.0002212148605654833,3.284532015490068e-05,-0.0009263866020752548,0.7648199200630188,-50.29355239868164,-7.130631446838379,16.85950469970703,1.5645242929458618,-1.2888290882110596,0.05314789339900017,,,,,,,,,
1739303413.995848,-0.06540811606499518,1.0376858539539042,-0.3975228064103185,-1.4713530431660569,1.5376500509649456,1.185463408392542,1.3537698894480283,0.0008449829020116427,0.0014625561964156937,0.00037609202910400443,0.0023108046691144666,-0.000593432027456074,0.000233864195718783,0.0006957808888980869,0.7410162091255188,-50.31735610961914,-7.182206153869629,16.81189727783203,1.5645242929458618,-1.2824203968048096,0.012864691205322742,,,,,,,,,
1739303414.006796,-0.0654092369129607,1.037683788603059,-0.3975224319237239,-1.471360986791586,1.537651553687656,1.1854649222591565,1.3537671899024337,0.0015734548023546885,0.0017276304080688738,0.0006129566639354636,-0.00035347355151406313,-3.547788605864574e-05,-0.00016870076697068827,-0.0016109725728099419,0.7648199200630188,-50.31735610961914,-7.154435157775879,16.88727569580078,1.5517069101333618,-1.2952377796173096,0.03300629183650017,,,,,,,,,
1739303414.018741,-0.06541588528561629,1.037685855177808,-0.3975265239650054,-1.4713579292047965,1.5376508134701095,1.1854626492789135,1.3537716699861568,-0.0009684934722452936,0.00015303098269228672,-0.0011767725628399482,-0.0003861866243529328,0.0004794382848166233,-0.0007219847371058774,0.00039810710750603953,0.8163946270942688,-50.31735610961914,-7.102860450744629,16.83570098876953,1.5581156015396118,-1.2760117053985596,-0.0008682189509272575,,,,,,,,,
1739303414.0288491,-0.06540834507842887,1.0376843634616792,-0.39752442935023324,-1.4713617651852613,1.5376524984370115,1.1854626492789135,1.3537716152308132,0.0003950056696656216,0.00011981136645633473,-0.0002271472337980684,-0.0007446481055438533,-0.000205031303522139,0.0002873918951625696,0.003004360224450821,0.7410162091255188,-50.29355239868164,-7.130631446838379,16.88727569580078,1.5709329843521118,-1.2760117053985596,0.012864691205322742,,,,,,,,,
1739303414.039776,-0.06540760664528743,1.0376823739903485,-0.39752653563095836,-1.4713596883386955,1.5376500442536285,1.1854610257216027,1.3537669075630276,0.0015361546056493515,2.916815935241118e-05,-0.0014468865999969428,7.245499079922631e-05,-0.0008912520677739309,-0.0016981057669339741,-0.00013126532071229297,0.7410162091255188,-50.26578140258789,-7.102860450744629,16.85950469970703,1.5645242929458618,-1.2622787952423096,0.03941498324275017,,,,,,,,,
1739303414.0518103,-0.06541047792943032,1.0376843691318194,-0.39752445551420357,-1.471359683925572,1.5376492802228663,1.185461891618835,1.3537652825433109,-0.0002708367491115914,0.0003889991593807059,-0.0008926999227363231,0.0001662401370617272,-0.0011338545513584542,-0.0007411136245415555,-0.0006843984570803061,0.7410162091255188,-50.29355239868164,-7.130631446838379,16.85950469970703,1.5709329843521118,-1.2696030139923096,0.05314789339900017,,,,,,,,,
1739303414.0618227,-0.06541196490699999,1.0376816169070904,-0.39752374069452945,-1.471358055517315,1.5376507955429872,1.1854626492789135,1.3537651260070214,-0.0007843019819584483,-0.00025696163774391366,-4.7119946706185756e-05,0.0002162254394345182,-0.00025264190808335434,-0.0003335318220426338,-0.0002745023428819093,0.7648199200630188,-50.29355239868164,-7.130631446838379,16.83570098876953,1.5581156015396118,-1.2760117053985596,0.026597600430250168,,,,,,,,,
1739303414.0729089,-0.06541131429633783,1.0376859820822653,-0.3975226734811886,-1.4713650554798543,1.5376509137650738,1.18546451781178,1.3537660415844934,0.000980172046038657,0.00012390834065301187,0.0006410502893546014,-0.0009571490191336096,-0.00017045846755069728,0.00027536991550795756,-0.0024832089316872133,0.7925909161567688,-50.31735610961914,-7.154435157775879,16.93488311767578,1.5581156015396118,-1.2888290882110596,0.04673920199275017,,,,,,,,,
1739303414.0848253,-0.06541048089539718,1.0376806615040803,-0.39752275127439146,-1.471359676236337,1.5376507960281711,1.185462649442413,1.3537708040377718,0.0003546164230294693,-0.00042300652365955416,-3.470565193416773e-05,-0.0009869940788047322,-0.0013007055868911072,0.000333097654801244,0.0009439750060732963,0.7410162091255188,-50.24197769165039,-7.154435157775879,16.85950469970703,1.5581156015396118,-1.2760117053985596,0.0064559997990727425,,,,,,,,,
1739303414.0958438,-0.0654113833815242,1.0376837886043602,-0.397524455950416,-1.471359685395239,1.5376513115533252,1.1854645178117802,1.35376301719034,0.0006382229474761284,0.001734276232087629,0.00017074993454116411,-0.00046394765388069295,0.0006678531027778557,0.000898446778592972,-0.0013431615526941646,0.7648199200630188,-50.31735610961914,-7.130631446838379,16.85950469970703,1.5581156015396118,-1.2888290882110596,0.04673920199275017,,,,,,,,,
1739303414.106845,-0.06541212329164214,1.0376853925598706,-0.39752831841714387,-1.4713553782945274,1.5376517016953937,1.1854634069409857,1.3537684910573786,0.0008846483144311101,0.0002945551152968742,-0.0018236839395013756,0.0010083934924827872,-0.001333255063881736,-4.4294817061715276e-05,0.0010763461449897907,0.7648199200630188,-50.31735610961914,-7.079056739807129,16.81189727783203,1.5773416757583618,-1.2824203968048096,-0.0008682189509272575,,,,,,,,,
1739303414.1182837,-0.06541041059574927,1.037684359679837,-0.39752445595026925,-1.4713571983829612,1.53765003795469,1.1854634074235084,1.3537688707813327,-0.0006346954956364799,0.00039494988474335054,-8.178845770898199e-05,0.00032242288771143707,-0.0006269280156028898,-0.0004908607334416585,0.0011552756168215878,0.7410162091255188,-50.29355239868164,-7.130631446838379,16.78809356689453,1.5645242929458618,-1.2824203968048096,0.05955658480525017,,,,,,,,,
1739303414.128744,-0.0654100663521343,1.0376860158184695,-0.39752445595026925,-1.471361737578424,1.5376493826921482,1.1854648198436686,1.3537700467911777,-0.0011088936595798028,0.0025226482857680713,-0.0002486573696134384,-0.0014824273312940778,-0.002393391408645652,0.0019152144546697694,0.0009525609919851759,0.7648199200630188,-50.34512710571289,-7.130631446838379,16.88727569580078,1.5581156015396118,-1.2824203968048096,0.012864691205322742,,,,,,,,,
1739303414.1397436,-0.06541017033953618,1.0376843719545765,-0.3975244558049142,-1.4713596853951005,1.5376515531950896,1.1854652242451753,1.3537676251772213,0.0001436656271629691,0.00040137437560465336,5.81569748189201e-05,-0.00021907301528888926,0.00023516444890515583,0.0004726250354871621,0.0004733968310322575,0.7410162091255188,-50.29355239868164,-7.130631446838379,16.85950469970703,1.5517069101333618,-1.2888290882110596,0.0064559997990727425,,,,,,,,,
1739303414.149845,-0.0654122022164474,1.037683992577836,-0.39752266752062076,-1.4713596579231567,1.537652024153345,1.185463406956937,1.3537700418555376,0.0004292938886325716,-0.0001334517967035935,0.00045734701851168436,-0.00012314281003223044,0.0012447125724020936,0.00021903705109130805,-4.331309889353866e-05,0.7648199200630188,-50.31735610961914,-7.154435157775879,16.85950469970703,1.5517069101333618,-1.2824203968048096,0.012864691205322742,,,,,,,,,
1739303414.1618073,-0.06541219929204357,1.0376788431536603,-0.39752350516485147,-1.471363547824291,1.5376511487583553,1.1854641652989277,1.3537700464315032,-0.0001686745223614604,-0.0011645367378166679,0.00017227276987992262,-0.0012690873263745356,0.0008354490408758767,0.00036183989755437656,0.0006746604663106708,0.7648199200630188,-50.21817398071289,-7.130631446838379,16.91107940673828,1.5581156015396118,-1.2888290882110596,0.012864691205322742,,,,,,,,,
1739303414.1718454,-0.06541220138924436,1.0376803075904684,-0.39752453426703444,-1.4713558717748358,1.5376511531183414,1.1854634069389958,1.3537697398774866,-0.00018453227754327097,-0.0010698550157780566,-0.0003689457957492307,0.0012552465833949376,0.000644241735699701,-0.00013437617325686682,-0.0003978413626042652,0.7648199200630188,-50.26578140258789,-7.130631446838379,16.81189727783203,1.5581156015396118,-1.2824203968048096,0.0064559997990727425,,,,,,,,,
1739303414.1828043,-0.06541427889969467,1.0376830541832693,-0.3975244588405267,-1.471357819958572,1.5376512167182137,1.1854634069389918,1.3537660536473204,-0.0016644292996202778,-0.000821147819748767,-0.00021183628679172283,0.0010659804982699427,0.0011427587491300928,0.00022772890354447566,-0.0005341089674319005,0.7925909161567688,-50.26578140258789,-7.130631446838379,16.83570098876953,1.5645242929458618,-1.2824203968048096,0.019273381680250168,,,,,,,,,
1739303414.1937857,-0.06541057761885564,1.037685982208114,-0.3975225673094427,-1.4713617648081097,1.5376501687046489,1.1854641645990702,1.353766894448187,0.0002646382493009252,0.0003408133931241279,0.0007569243570881807,-0.00015251341184442077,-0.0010420116349401853,0.00026896436226438506,-0.0006633403329740154,0.7410162091255188,-50.31735610961914,-7.154435157775879,16.88727569580078,1.5645242929458618,-1.2888290882110596,0.03941498324275017,,,,,,,,,
1739303414.2038872,-0.06541583357999917,1.037686084170306,-0.39752232342673943,-1.4713579027182306,1.5376539875415427,1.1854634069389918,1.3537660285747652,-0.0005145430569943907,0.0005678546450346892,0.0016547563498309841,0.0004565921584898666,-0.0004678022856302573,-0.00013484336876958385,-0.0021067180371552377,0.8163946270942688,-50.31735610961914,-7.130631446838379,16.83570098876953,1.5581156015396118,-1.2824203968048096,0.04673920199275017,,,,,,,,,
1739303414.2147698,-0.0654142364525668,1.0376843349787706,-0.39752445299479183,-1.471357902718237,1.5376535318753188,1.1854626492789135,1.3537628627424776,-0.0010456197280289288,0.00038209384623293433,-4.0840350505972223e-05,0.0007142314636322217,0.0007445949994835079,-6.331082380155157e-05,-0.001851806334336577,0.7925909161567688,-50.29355239868164,-7.130631446838379,16.83570098876953,1.5709329843521118,-1.2760117053985596,0.04673920199275017,,,,,,,,,
1739303414.2258182,-0.06541220351855269,1.0376860844863474,-0.39752864177085684,-1.471359694225574,1.5376505481510472,1.1854641645990702,1.35376686825448,6.651195419062376e-05,0.0015878069772197782,-0.0009855700498496303,-0.0005580740680149502,0.0010604630990918894,-0.00018540830462670187,-0.0009766904568080344,0.7648199200630188,-50.31735610961914,-7.102860450744629,16.85950469970703,1.5645242929458618,-1.2888290882110596,0.03941498324275017,,,,,,,,,
1739303414.2378304,-0.06540667536490952,1.0376880821128909,-0.39752267129675084,-1.4713579017007685,1.5376536921271322,1.1854641645990702,1.353764526121368,0.001405576254808969,0.001684999122600583,0.0011056770122964727,-4.0273033967014096e-05,0.00034584589702464316,8.734990777556665e-05,-0.0014254011581748692,0.7172124981880188,-50.34512710571289,-7.154435157775879,16.83570098876953,1.5645242929458618,-1.2888290882110596,0.05955658480525017,,,,,,,,,
1739303414.2488406,-0.06541220224184634,1.0376823739204102,-0.39752469983116884,-1.4713596853952544,1.5376509583654359,1.1854634069389918,1.3537636508848585,-0.0006019452543173691,-0.0007525403952736535,-0.0010162573672223942,-0.00019714872032948797,-0.0007973085022370467,0.00041878458347011983,-0.0013350772957560551,0.7648199200630188,-50.26578140258789,-7.154435157775879,16.85950469970703,1.5581156015396118,-1.2824203968048096,0.06596527993679047,,,,,,,,,
1739303414.2598126,-0.06541220218568541,1.0376840373993517,-0.3975205934948346,-1.4713589436485657,1.537652476796081,1.1854626492789135,1.353770897006009,0.0011834869406675914,-0.0010714570855680705,0.0011890978764796342,0.0011076280253336614,0.0011317895676473675,-0.0002348752056821986,0.00014704796484154843,0.7648199200630188,-50.29355239868164,-7.182206153869629,16.85950469970703,1.5709329843521118,-1.2760117053985596,-0.0072769103571772575,,,,,,,,,
1739303414.2707403,-0.06541220517404309,1.0376841300586002,-0.3975205905399554,-1.4713596839213683,1.537650808642984,1.1854626492789135,1.3537698893856267,0.00021582786612509204,-0.0001636508989845501,0.0011637378230374815,9.106486757073947e-05,-0.001326575639771718,0.00030811427008907953,0.0004447559128126892,0.7648199200630188,-50.29355239868164,-7.182206153869629,16.85950469970703,1.5581156015396118,-1.2760117053985596,0.012864691205322742,,,,,,,,,
1739303414.2807467,-0.06541419137332223,1.03768598244365,-0.39752267370119015,-1.4713595399450152,1.5376496515243872,1.1854634069389918,1.3537635986082257,-0.0003507781898851746,0.000878901286589833,0.000471218261499948,-4.844821763811194e-05,-0.0003209920957685865,-0.00021416253267602712,-0.0022760456012509375,0.7925909161567688,-50.31735610961914,-7.154435157775879,16.88727569580078,1.5709329843521118,-1.2824203968048096,0.06596527993679047,,,,,,,,,
1739303414.2918065,-0.06541056941013663,1.0376860534167613,-0.3975245418484326,-1.4713596473965815,1.5376503442237064,1.1854630024916233,1.3537660411714625,0.0001285179605247617,-0.0001146263749365351,-0.0007124871742086776,2.9885926370351362e-05,-0.0005159677964110454,4.6116640703043154e-05,-0.00024741133264079144,0.7410162091255188,-50.31735610961914,-7.154435157775879,16.85950469970703,1.5709329843521118,-1.2760117053985596,0.04673920199275017,,,,,,,,,
1739303414.3018084,-0.06541220513939087,1.0376822716582885,-0.397522942403478,-1.4713579027175936,1.5376508537030158,1.1854618916248167,1.353767611432883,-0.00026154345469934554,-0.0005567951476263036,-0.00015747418436681045,0.0013184847367504605,0.0004592149695200352,-1.9731316849034468e-05,-0.0009185095813660002,0.7648199200630188,-50.29355239868164,-7.154435157775879,16.83570098876953,1.5581156015396118,-1.2696030139923096,0.03300629183650017,,,,,,,,,
1739303414.3137946,-0.06541614889445621,1.0376806605130016,-0.39752563584637274,-1.471364652699014,1.5376493965071785,1.1854637601517015,1.3537684228740248,-0.0012865942686918663,-0.0007024994507356834,-0.0004521827623591564,-0.0016987044984344054,-0.0007572755877871846,0.0006505816857609828,-0.001658528142445838,0.8163946270942688,-50.24197769165039,-7.154435157775879,16.88727569580078,1.5709329843521118,-1.2824203968048096,0.026597600430250168,,,,,,,,,
1739303414.3248215,-0.06541220222230029,1.0376816852606034,-0.3975240526683281,-1.471358943653999,1.5376500509650797,1.1854641645997348,1.3537684228743285,-2.5308446479665477e-05,-0.0008519380775350751,-0.00037080757101346683,-1.052231177781104e-06,-0.0004520264592336276,0.0006902404679441893,0.00021952496810859656,0.7648199200630188,-50.26578140258789,-7.130631446838379,16.85950469970703,1.5645242929458618,-1.2888290882110596,0.026597600430250168,,,,,,,,,
1739303414.3358634,-0.06541490976776959,1.0376843634590855,-0.3975244559479927,-1.4713596762337027,1.5376546297020448,1.18546280626234,1.3537713160762728,-0.0013511603702557329,0.00026465584264942233,-0.00022623627716012294,0.0001168733569806431,0.000964213597096887,0.00017460947101521077,0.0009635284247403476,0.7925909161567688,-50.29355239868164,-7.130631446838379,16.85950469970703,1.5645242929458618,-1.2760117053985596,-0.0008682189509272575,,,,,,,,,
1739303414.3467581,-0.06541420016671462,1.0376806235723324,-0.397518243964777,-1.4713561200411662,1.5376500379088296,1.1854652242380856,1.3537676652122523,-8.57168336096788e-05,-0.001151097898317466,0.0012087411080856142,2.6847654412960327e-05,-0.0008416095191464073,0.00046579437253274256,0.00019240421170806338,0.7925909161567688,-50.24197769165039,-7.182206153869629,16.81189727783203,1.5645242929458618,-1.2888290882110596,0.03300629183650017,,,,,,,,,
1739303414.3568118,-0.06541287763668942,1.0376840658479183,-0.3975226731244446,-1.4713596853952562,1.5376510975210385,1.1854641646170152,1.353767363236199,-0.0005738911045550612,0.0004182614499577144,0.0011363733705907287,-0.0013230478615179086,0.0011033820160823262,8.203590663861477e-05,-5.933623708259092e-05,0.7648199200630188,-50.29355239868164,-7.154435157775879,16.85950469970703,1.5645242929458618,-1.2888290882110596,0.026597600430250168,,,,,,,,,
1739303414.3687427,-0.06541501038935461,1.0376909066015492,-0.3975224464103947,-1.4713578198497226,1.537649632633994,1.1854641253532137,1.353769306644247,-0.000956887575285243,0.0021510982133412073,-0.0013795088352512221,6.373122853706116e-05,-0.00019019843428430322,0.0010333595237034224,-0.0003156741307727597,0.7648199200630188,-50.34512710571289,-7.154435157775879,16.83570098876953,1.5709329843521118,-1.2888290882110596,0.019273381680250168,,,,,,,,,
1739303414.3788006,-0.06541225460639798,1.0376888039716274,-0.3975205275047576,-1.4713596852817346,1.5376508407665397,1.1854641645988486,1.35377004643163,0.0004446411035361285,0.0004003977603783068,3.9791846414445455e-05,0.00020589207893877517,0.00016370623046012937,-0.0003265771529719203,0.0015828314292156613,0.7648199200630188,-50.36893081665039,-7.154435157775879,16.85950469970703,1.5581156015396118,-1.2888290882110596,0.012864691205322742,,,,,,,,,
1739303414.3898067,-0.0654101719795624,1.037681977672982,-0.39752445299471706,-1.471357875246137,1.537650039821231,1.1854626492789135,1.3537651872714807,0.0009760326543408797,-0.000833881722929068,9.63804287851636e-05,-0.000252836261777636,-0.0009948023152895572,-0.0006068082833051062,-0.0006515235880197741,0.7410162091255188,-50.26578140258789,-7.130631446838379,16.83570098876953,1.5645242929458618,-1.2760117053985596,0.026597600430250168,,,,,,,,,
1739303414.3998241,-0.06541017327602482,1.0376823485088704,-0.3975244646170125,-1.4713556787858955,1.5376500398210085,1.1854634069389918,1.3537647997483282,0.0008457392103989915,-0.0009436669256609458,-0.00018674690716066815,0.000653666693521008,-0.0003854982366812496,0.0004934908799642966,-0.0009807513404626739,0.7410162091255188,-50.26578140258789,-7.130631446838379,16.83570098876953,1.5645242929458618,-1.2824203968048096,0.05314789339900017,,,,,,,,,
1739303414.410807,-0.06541420016092264,1.0376871631298297,-0.39752445595031816,-1.4713571605067768,1.5376518558271497,1.1854634069389918,1.3537691201395023,-0.00029079218535864846,0.0018637996039854734,-0.000297636445620989,0.000828062662407397,0.0005167926337046953,-0.0002180873841981827,0.0011741217851248507,0.7925909161567688,-50.34512710571289,-7.130631446838379,16.83570098876953,1.5581156015396118,-1.2824203968048096,0.019273381680250168,,,,,,,,,
1739303414.4218018,-0.06540877958800426,1.0376822252180784,-0.3975246899536895,-1.4713579023748857,1.5376515580542183,1.1854641645990702,1.3537656243417118,0.001606923460882585,0.00040945250192737877,-0.0005128739231303619,0.00042132054933078495,-4.0610715582760045e-05,0.0003204674169353511,-0.000883564567010372,0.7172124981880188,-50.29355239868164,-7.130631446838379,16.83570098876953,1.5517069101333618,-1.2888290882110596,0.04673920199275017,,,,,,,,,
1739303414.431845,-0.06541243550308405,1.0376823710496323,-0.3975227512783531,-1.4713560376249133,1.5376526176864442,1.185464168959721,1.3537665543343949,-0.0002589427810966809,-0.0011553020908657723,0.00028588460887719105,0.0011104367254977973,0.0006410650775764965,3.7488877161927095e-05,-0.00019314618808586974,0.7648199200630188,-50.26578140258789,-7.154435157775879,16.81189727783203,1.5517069101333618,-1.2888290882110596,0.03941498324275017,,,,,,,,,
1739303414.4427686,-0.06541220319523443,1.0376831260155768,-0.3975265092496119,-1.471357902717772,1.537650836248403,1.1854649222591729,1.3537640665822472,-0.0006512061142097835,-0.0006588991120864117,-0.0007857573170985721,0.0005543816870923252,-0.00040417577887916353,0.0002449410074407426,-0.0009038755457773474,0.7648199200630188,-50.31735610961914,-7.102860450744629,16.83570098876953,1.5581156015396118,-1.2952377796173096,0.026597600430250168,,,,,,,,,
1739303414.4527698,-0.0654150367538683,1.0376843832699831,-0.3975226053556663,-1.4713566359921952,1.537651149240903,1.1854626492789135,1.353770802564283,1.2063493395113309e-05,-0.0005529835107625806,-0.0004700775938462384,0.0004352045783498623,-1.822166416509346e-05,0.0004730966576223534,-6.477645719878426e-05,0.7648199200630188,-50.29355239868164,-7.154435157775879,16.85950469970703,1.5581156015396118,-1.2760117053985596,0.0064559997990727425,,,,,,,,,
1739303414.4638236,-0.0654131559384179,1.0376822888527923,-0.39752453398669174,-1.4713617651678976,1.5376507954911485,1.1854626492789135,1.3537621058192526,-3.6933869445655995e-05,-0.0010054139340982884,0.00021713387042077896,-0.0007427188193945132,-0.0011458339539479518,0.00041940654872943975,-0.0037144228281420027,0.7648199200630188,-50.26578140258789,-7.130631446838379,16.88727569580078,1.5581156015396118,-1.2760117053985596,0.07969819009304047,,,,,,,,,
1739303414.474807,-0.06541221399998716,1.0376836836952363,-0.3975226761626218,-1.4713596853952562,1.537651553203065,1.1854634069389918,1.3537668680927524,0.0001093072078102146,-0.0015611938244378277,-0.0003409635290230568,-0.0009403608905035443,0.0007358289847436238,-0.00014733095556727113,-6.028375936691603e-05,0.7648199200630188,-50.31735610961914,-7.154435157775879,16.85950469970703,1.5517069101333618,-1.2824203968048096,0.03941498324275017,,,,,,,,,
1739303414.4848418,-0.06541203796149395,1.0376816852199477,-0.39752653279673444,-1.4713587981983496,1.5376513207591427,1.185462649440419,1.353763727491672,0.000750161341563,-0.0006629492144366925,-0.0002505673485299753,0.000607067022412597,0.0008908661771711088,-0.00026410489357378894,-0.0020059856314966215,0.7925909161567688,-50.26578140258789,-7.102860450744629,16.88727569580078,1.5581156015396118,-1.2760117053985596,0.06596527993679047,,,,,,,,,
1739303414.495793,-0.06541356043191458,1.0376843715424398,-0.3975265448348913,-1.4713561108671027,1.5376514645185224,1.1854641645990711,1.3537713161298752,7.352761377649598e-05,0.0007853093397262486,-0.0010600789567058214,0.0007376323453984624,0.0007325207071380111,5.420488504016011e-05,0.0018195493405755098,0.7410162091255188,-50.29355239868164,-7.102860450744629,16.81189727783203,1.5645242929458618,-1.2888290882110596,-0.0008682189509272575,,,,,,,,,
1739303414.5067425,-0.06541419985450855,1.0376880797387564,-0.39752663998224275,-1.4713617275381086,1.5376519729267397,1.1854626492789135,1.3537689824307515,-0.00025920000716344964,0.0028842900110892028,-0.0005068129754917628,-0.0003894329659403895,0.0001577069150102247,-0.0003263432276697846,-0.0005799474247626678,0.7925909161567688,-50.34512710571289,-7.130631446838379,16.88727569580078,1.5581156015396118,-1.2760117053985596,0.012864691205322742,,,,,,,,,
1739303414.5167634,-0.06541420016270366,1.0376880484147055,-0.39752445609425346,-1.4713596879988962,1.5376515546765548,1.1854626492789135,1.3537690786511325,2.4981926424764333e-05,0.0016812719011420907,-0.0007380478591054894,0.0002212796761743986,0.0003456466004998956,-0.0007778168103273438,0.0003111193942145281,0.7925909161567688,-50.34512710571289,-7.130631446838379,16.85950469970703,1.5517069101333618,-1.2760117053985596,-0.0072769103571772575,,,,,,,,,
1739303414.5277908,-0.06541443734577027,1.0376860834369956,-0.3975215154544611,-1.4713578894909447,1.5376500785823237,1.1854634069389918,1.3537689354861107,-0.0003898149854121231,0.0010733000353969932,0.0008879126943803108,8.416485489181577e-05,-0.00012833310434233946,-0.00029077522425811393,-0.00040805429952778596,0.7925909161567688,-50.31735610961914,-7.130631446838379,16.83570098876953,1.5645242929458618,-1.2824203968048096,0.019273381680250168,,,,,,,,,
1739303414.537873,-0.06541229262761315,1.037684346456418,-0.39752445481030896,-1.47135967318521,1.5376509132812464,1.1854641645990702,1.3537715701239552,-2.1511058259652627e-05,0.0005351428720760247,-0.00041582191303022546,-0.0013349199468447493,-0.00020538356446397684,0.0001559824495869145,0.0010645404398013478,0.7648199200630188,-50.29355239868164,-7.130631446838379,16.85950469970703,1.5581156015396118,-1.2888290882110596,-0.0008682189509272575,,,,,,,,,
1739303414.5487685,-0.06541055672040669,1.0376806615042264,-0.39752421753167083,-1.4713594381461526,1.5376497239180493,1.185461891618835,1.3537645088924886,0.0012452240469489006,-8.442027469204914e-05,-0.00013221275611254517,0.0007279029396619391,-0.0011997542139412863,-0.0005907429333150312,-0.0005347755841942927,0.7410162091255188,-50.24197769165039,-7.130631446838379,16.85950469970703,1.5645242929458618,-1.2696030139923096,0.05955658480525017,,,,,,,,,
1739303414.5587792,-0.0654151537556414,1.0376823698962299,-0.3975226732719043,-1.4713608421278004,1.5376501556187063,1.1854626492789135,1.3537669075540733,-0.0006250593163789959,-0.00016996019571525816,0.0007758849642434394,-0.00014264603336789966,-0.000627310773209472,-0.0003114487494640033,-0.0007815510719399573,0.7925909161567688,-50.26578140258789,-7.154435157775879,16.85950469970703,1.5645242929458618,-1.2760117053985596,0.03941498324275017,,,,,,,,,
1739303414.5697684,-0.06541325966825606,1.0376840181925517,-0.39752267327325014,-1.4713551307260584,1.5376494372082508,1.1854626492789135,1.3537716569068876,7.310858945413492e-05,0.000565535371948566,0.0007404702613713423,0.0012719284564944105,-0.0007512710859355542,-0.0006861986646070075,0.0012829883389258371,0.7925909161567688,-50.31735610961914,-7.154435157775879,16.81189727783203,1.5709329843521118,-1.2760117053985596,-0.0008682189509272575,,,,,,,,,
1739303414.5808318,-0.06541052469003768,1.0376860492024902,-0.3975244559502692,-1.4713617651418425,1.537650341853748,1.1854634069389918,1.3537629027789577,0.0003303348583949779,0.0011115749713280845,-0.00027917343552430647,-0.00011140688352480129,-0.0006689992783950089,-0.00020464769022067718,-0.0018066698014494835,0.7410162091255188,-50.31735610961914,-7.130631446838379,16.88727569580078,1.5709329843521118,-1.2824203968048096,0.07328949868679047,775,726,729,41.934,0,0
1739303414.591744,-0.06541420001809263,1.037681685260539,-0.3975251568219156,-1.4713578203019382,1.5376540965575933,1.1854637601517015,1.3537708040916074,-0.0008463222555603032,-0.0003091594566235382,-0.0006755088603852589,0.00028324867933218387,-0.0005203806407302218,0.0006038151041882964,0.0013923566506172879,0.7925909161567688,-50.26578140258789,-7.130631446838379,16.83570098876953,1.5581156015396118,-1.2824203968048096,0.0064559997990727425,774,725,730,41.934,0,0
1739303414.6017802,-0.06541228193091499,1.0376814556606797,-0.39752650043072313,-1.4713597648667203,1.5376496990627098,1.1854641646050519,1.3537707310317197,0.0005562323946277573,-0.0008253525570914402,-0.0009491552600295321,-0.0011277020869713374,-0.0010616618998953084,-0.00029116699418925624,0.0011191253618602274,0.7648199200630188,-50.26578140258789,-7.102860450744629,16.85950469970703,1.5709329843521118,-1.2888290882110596,-0.0008682189509272575,773,724,729,42.043,0,0
1739303414.6127923,-0.06541229273205325,1.0376805849700537,-0.3975205934831953,-1.4713548135206491,1.5376523108655082,1.1854641645990702,1.3537651694412018,-0.00038749309752494183,-7.49853743517014e-06,0.001309143432295837,0.001991670002695765,-0.0010589066712701411,-0.00023753115150787474,0.0006514392871466386,0.7648199200630188,-50.24197769165039,-7.182206153869629,16.83570098876953,1.5452982187271118,-1.2888290882110596,0.019273381680250168,775,724,729,42.043,0,0
1739303414.623843,-0.06541420027122666,1.0376843804461995,-0.39752360045661334,-1.4713597648506773,1.5376523505935171,1.1854634069389918,1.3537731721499555,-0.0006512852464544388,0.000590155951356926,-0.0010716368277513622,-0.00043228924748317076,-0.00028346623692376307,0.00019133933710114767,0.002534097814728558,0.7925909161567688,-50.29355239868164,-7.154435157775879,16.85950469970703,1.5452982187271118,-1.2824203968048096,-0.013685601763427258,774,725,729,41.934,0,0
1739303414.6339102,-0.06541261560012344,1.037685939499219,-0.3975244559659712,-1.4713596310943873,1.5376515533652437,1.1854610258831082,1.3537684228741056,-8.261281286473996e-05,0.0008640044537135731,0.0004822803343507785,0.0011407957739734496,-0.00028986617232195885,-0.0013329671037874183,0.0007736386535207972,0.7410162091255188,-50.34512710571289,-7.130631446838379,16.85950469970703,1.5517069101333618,-1.2622787952423096,0.026597600430250168,774,724,730,42.043,0,0
1739303414.6448119,-0.06541220226985887,1.037682042385804,-0.39752266458559576,-1.471358610930608,1.5376539744573758,1.1854634069389927,1.3537648086859304,0.000754455407789107,-0.0010097679948346354,0.0005313172880289775,0.0002203915495901682,-0.000317051058237203,0.0002724823770723751,-0.0024800198708705406,0.7648199200630188,-50.26578140258789,-7.154435157775879,16.85950469970703,1.5581156015396118,-1.2824203968048096,0.05314789339900017,774,725,730,42.043,0,0
1739303414.6548138,-0.06541252019404824,1.0376823655165042,-0.3975272376412221,-1.471361285974397,1.5376498035547541,1.1854626623608657,1.3537629957403243,-0.0011145854204323272,-0.00016347940461696259,-0.000738406938109525,-0.00048057110808663237,0.0002852096514102228,-0.00040192761219831987,-0.00219379319352887,0.7648199200630188,-50.26578140258789,-7.102860450744629,16.91107940673828,1.5709329843521118,-1.2760117053985596,0.05955658480525017,773,724,730,41.934,0,0
1739303414.6657372,-0.0654143290947095,1.037682141602657,-0.3975234889187636,-1.471357902667784,1.5376515401240674,1.1854626492789873,1.3537716699801998,-0.001064031937000646,-0.00047277077951128166,0.0005066652059932644,0.00033927855739847616,-0.00047073471335406885,0.00017112753774350712,0.001770112523544,0.7648199200630188,-50.26578140258789,-7.154435157775879,16.83570098876953,1.5517069101333618,-1.2760117053985596,-0.0008682189509272575,772,723,730,42.043,1,0
1739303414.6757798,-0.0654163387345271,1.0376823626837615,-0.3975283174498105,-1.4713543373641984,1.5376531230371095,1.1854634069389918,1.3537716699888398,-0.0008056391819080649,-0.0004610415803850987,-0.0016316005917444319,0.0009422867173286065,0.0002411289459971926,1.0560527702875518e-05,0.0016330340559166977,0.7925909161567688,-50.26578140258789,-7.079056739807129,16.78809356689453,1.5517069101333618,-1.2824203968048096,-0.0008682189509272575,772,726,731,41.934,1,0
1739303414.6858327,-0.06541643248467843,1.0376842670924002,-0.39752455995177294,-1.471359694225574,1.5376507955695724,1.1854649266197992,1.3537700464315292,-0.0008633111087337832,0.0009869851543449683,5.2933260136155905e-06,-0.0011332478484394253,-0.00024247174651257947,0.00030852963450744917,0.0006970033250894836,0.7925909161567688,-50.29355239868164,-7.130631446838379,16.85950469970703,1.5581156015396118,-1.2952377796173096,0.012864691205322742,773,724,730,41.934,1,0
1739303414.696794,-0.06541261658478487,1.0376841776986603,-0.39752560830732203,-1.4713579017008018,1.5376504950184864,1.1854641645990946,1.3537665499808111,-5.6009314897257994e-05,0.0007854265604314614,0.00021166649645290575,-0.0001276890245061231,-0.000540312405857216,0.0002887849120308565,-0.0005542303229885319,0.7410162091255188,-50.29355239868164,-7.130631446838379,16.83570098876953,1.5517069101333618,-1.2888290882110596,0.03941498324275017,774,724,730,42.043,1,0
1739303414.7077944,-0.06541341370626576,1.0376804328964468,-0.39752726403348293,-1.471361752975284,1.537651166353832,1.185461891618835,1.3537716698253157,-0.0006541669361806662,-0.00039555668011236023,-0.0013813552679989053,-0.00015639394576360014,-0.0002740560634431593,-0.0008470470138558042,0.0016286627200243218,0.7410162091255188,-50.24197769165039,-7.130631446838379,16.88727569580078,1.5581156015396118,-1.2696030139923096,-0.0008682189509272575,771,725,730,42.043,0,0
1739303414.7187893,-0.06541212313343213,1.037684355285463,-0.3975286416777423,-1.4713596535139852,1.5376515139593019,1.1854634069389918,1.3537652447510033,0.0002105226186268624,0.0005720310869742229,-0.0012341019824688797,1.2182829774275101e-05,0.0009566095174296365,6.281955941606494e-05,-0.0007944514151244303,0.7648199200630188,-50.29355239868164,-7.102860450744629,16.85950469970703,1.5517069101333618,-1.2824203968048096,0.05314789339900017,771,725,730,42.043,1,0
1739303414.728836,-0.06541220232852331,1.0376843716510242,-0.39752059351905883,-1.4713579292086505,1.5376525114643627,1.1854634069389918,1.3537708037719693,-0.0006203183000653134,0.0010239979726219396,0.0006747074399574148,-0.00040202928030901453,0.0012366641004671118,-0.0008017765359036368,0.001297451865238026,0.7648199200630188,-50.29355239868164,-7.182206153869629,16.83570098876953,1.5709329843521118,-1.2824203968048096,0.0064559997990727425,772,724,729,41.826,1,0
1739303414.73974,-0.06541291380704288,1.0376843732394432,-0.3975244559502694,-1.4713617621328057,1.5376508130038304,1.1854626492789135,1.3537676652142485,-0.00047868270954977356,-2.5434239701449838e-05,0.0006092076017438167,-0.0009364290819735572,3.091168670372713e-05,-0.0005960225775161582,-2.9963205987936544e-05,0.7648199200630188,-50.29355239868164,-7.130631446838379,16.88727569580078,1.5581156015396118,-1.2760117053985596,0.03300629183650017,771,725,729,41.934,0,0
1739303414.7498357,-0.06541222847957322,1.0376800015083982,-0.39752445595026925,-1.471359657923105,1.5376493238296336,1.1854634069389918,1.3537708021535404,-0.0005573063104576823,-0.0010163644826246302,0.00010071233200639463,7.672430279798686e-05,-0.00041075193395096734,0.00017025810103491395,0.0011331454861706414,0.7648199200630188,-50.26578140258789,-7.130631446838379,16.85950469970703,1.5709329843521118,-1.2824203968048096,0.0064559997990727425,771,721,731,42.151,1,0
1739303414.760787,-0.06541220517419151,1.0376823047136898,-0.3975272406393166,-1.4713595755067026,1.5376510989748342,1.1854634069389918,1.3537661098571618,0.00011513763860720471,2.2644950817948615e-05,-0.0005655737342619445,-2.233559275445409e-05,0.00014645839162116635,0.00021587316252608563,-0.00032982716004389154,0.7648199200630188,-50.29355239868164,-7.102860450744629,16.85950469970703,1.5645242929458618,-1.2824203968048096,0.019273381680250168,772,725,731,42.043,1,0
1739303414.7707977,-0.06541220804064915,1.0376842618248023,-0.39752656101184247,-1.4713616198282262,1.537651305757093,1.1854634069389918,1.3537643649388702,0.0013309884636132636,0.00014088342638887626,-0.0008753494493064748,-0.0006211600051632604,-8.292711355292336e-05,-0.0002317029172698058,-0.0011597965642878277,0.7648199200630188,-50.29355239868164,-7.130631446838379,16.88727569580078,1.5581156015396118,-1.2824203968048096,0.05955658480525017,771,727,730,42.043,0,0
1739303414.7818131,-0.06541048970115747,1.0376843710208132,-0.3975205592416555,-1.4713589436477452,1.5376504434263074,1.1854650748938738,1.353767547475769,0.001636752376840485,0.0006501575520207665,0.0006720867332423736,-0.00011793553312948106,0.0010427400275241177,-0.00031709026954925836,-0.00041404082579150377,0.7410162091255188,-50.29355239868164,-7.154435157775879,16.85950469970703,1.5645242929458618,-1.2696030139923096,0.03300629183650017,770,725,730,41.934,0,0
1739303414.7918422,-0.06541056941018625,1.0376842954368062,-0.3975226701849934,-1.4713540076864418,1.5376528832203578,1.1854641648144848,1.3537713167741363,0.00029054998760403043,0.0002577989527677196,0.0007231175540292152,0.0021984593386395503,0.001123048002678784,0.0005938189126944566,0.0016665640180222306,0.7410162091255188,-50.29355239868164,-7.154435157775879,16.78809356689453,1.5773416757583618,-1.2888290882110596,-0.0008682189509272575,771,724,730,42.043,1,0
1739303414.8027592,-0.0654122819313674,1.0376803553865446,-0.3975291063255481,-1.4713578752442764,1.5376557934490895,1.1854618916188362,1.3537658069200973,0.0010615244772211021,-0.0009645699903016844,-0.0022716900646701324,-1.6758053230779706e-05,0.0008305176793115245,-0.00032128610057596655,-0.0006263664960750756,0.7648199200630188,-50.24197769165039,-7.102860450744629,16.83570098876953,1.5517069101333618,-1.2696030139923096,0.012864691205322742,772,724,729,42.151,1,0
1739303414.8128304,-0.0654122809602056,1.037686007952369,-0.39752267331678326,-1.4713617529748244,1.5376524301260728,1.1854626492789135,1.353766868075013,0.0005528806931628725,0.0005188232588628143,0.001052131853308993,-0.00025119684391389046,-0.00016482415838134829,0.00016276463927811629,-0.0005884537963566559,0.7648199200630188,-50.31735610961914,-7.154435157775879,16.88727569580078,1.5452982187271118,-1.2760117053985596,0.03941498324275017,772,723,729,42.043,1,0
1739303414.8237364,-0.06541600031344913,1.0376802699382988,-0.39752832226905227,-1.4713574235256497,1.5376508348433522,1.1854634069389918,1.3537683705462968,-0.0011181008780466253,-0.0009004691467078111,-0.0020089973247589933,-0.0002728281570034319,-0.00046725960452229814,-0.0001433357852112768,-0.0003581701527324724,0.8163946270942688,-50.26578140258789,-7.079056739807129,16.85950469970703,1.5581156015396118,-1.2824203968048096,0.026597600430250168,772,724,729,42.260,0,0
1739303414.8338304,-0.06541420027219975,1.0376871639341698,-0.3975244559503345,-1.4713586872039974,1.537653987863004,1.1854626492789135,1.3537715130045271,3.6079048697640814e-05,0.0007090423318843116,8.03990372279971e-05,-8.447696834815003e-05,0.0007873370341470738,-6.826596527954374e-05,0.001337751839203571,0.7925909161567688,-50.34512710571289,-7.130631446838379,16.85950469970703,1.5581156015396118,-1.2760117053985596,-0.0008682189509272575,772,725,730,42.043,1,0
1739303414.8448455,-0.06541662135244197,1.0376824005111578,-0.3975272377503855,-1.4713617559090564,1.5376515532210862,1.1854637089170428,1.3537692867787725,-0.001595189156786589,-0.0002304341961178059,-0.0012829197588107286,-0.000558907305478407,2.5904208444439052e-05,0.00047937616411021283,0.0017578057005975837,0.8163946270942688,-50.26578140258789,-7.102860450744629,16.88727569580078,1.5517069101333618,-1.2760117053985596,0.019273381680250168,772,724,729,42.151,1,0
1739303414.8558109,-0.06541143454912375,1.0376863932006866,-0.3975265357440877,-1.4713556774781131,1.537648531272104,1.1854649222651301,1.3537702073395301,0.0011310085086112304,0.00046840389672406945,-0.0005644547108146764,0.0019130797204446855,-0.0005366435357136815,0.0005562661113686239,0.001456881403906779,0.7410162091255188,-50.29355239868164,-7.102860450744629,16.83570098876953,1.5517069101333618,-1.2952377796173096,0.012864691205322742,772,724,730,42.043,0,0
1739303414.8677971,-0.06541535494739081,1.037686050485308,-0.3975225938003905,-1.471359438133798,1.5376515531860064,1.1854634069389918,1.3537631091262012,-0.00016403842384696092,0.0008218643074058751,0.0003734328370654631,-0.0002615333034942292,0.0005202938707365692,-0.0004756044109651117,-0.0017622761098001882,0.7648199200630188,-50.31735610961914,-7.154435157775879,16.85950469970703,1.5517069101333618,-1.2824203968048096,0.05955658480525017,772,723,730,42.043,1,0
1739303414.8778312,-0.0654171133769927,1.0376823740251975,-0.39752059250179955,-1.4713596853938604,1.537655169275677,1.1854634069389918,1.3537645263287825,-0.000930345229618989,0.0001525680022737848,0.0014606457235313353,-0.0009167886721839852,0.0008789832212372508,-0.00050841429481665,-0.0018543412489399245,0.7925909161567688,-50.26578140258789,-7.182206153869629,16.85950469970703,1.5581156015396118,-1.2824203968048096,0.05955658480525017,773,723,730,41.934,2,0
1739303414.8887997,-0.06541261950481371,1.0376823055669118,-0.3975226735578982,-1.4713595396058785,1.5376509002232948,1.1854634069389918,1.3537716817582057,0.0005140995953374169,0.00040798869650481815,-7.084522380244082e-05,0.0002566660901240312,0.00045984939699596173,-0.00019772948929376312,-0.0004724776193284963,0.7410162091255188,-50.29355239868164,-7.154435157775879,16.88727569580078,1.5581156015396118,-1.2824203968048096,0.026597600430250168,770,726,729,42.043,1,0
1739303414.900746,-0.0654129568058106,1.0376843719545779,-0.39752264678229854,-1.4713578935483071,1.5376524636599656,1.1854626492789135,1.3537708039484984,-0.00043598821133792427,0.00021852093431141934,-0.00017426753718502357,0.0012067331494737168,-3.3208343071320495e-05,-0.0005320475505347926,0.0014959136549020507,0.7410162091255188,-50.29355239868164,-7.154435157775879,16.83570098876953,1.5709329843521118,-1.2760117053985596,0.0064559997990727425,769,725,730,42.043,1,0
1739303414.9107594,-0.06541420017663575,1.037688079558411,-0.39752445300668043,-1.4713617621326045,1.5376492851936387,1.1854641660526204,1.3537656884442288,0.0003365512246805873,0.002050001660216501,-0.0010117293421628335,-0.0014076506220288881,0.00010798934893528221,0.00022584533853703317,0.00033831771994970227,0.7925909161567688,-50.34512710571289,-7.130631446838379,16.88727569580078,1.5709329843521118,-1.2888290882110596,0.04673920199275017,768,727,730,41.934,0,0
1739303414.9208245,-0.06541420351092173,1.0376816848406423,-0.39752645601718856,-1.4713596839255036,1.5376500335223422,1.1854637089170674,1.3537692866660065,-0.0009944161356773284,0.000905317407064792,-0.0010273254401916786,0.00025405682300799987,-0.0008165132698520065,0.000178348735937771,0.00029936396245900765,0.7925909161567688,-50.26578140258789,-7.130631446838379,16.85950469970703,1.5645242929458618,-1.2760117053985596,0.019273381680250168,770,728,729,42.043,1,0
1739303414.9318237,-0.0654142011347895,1.0376860841681474,-0.3975226732845406,-1.471359438146351,1.5376510975210134,1.1854626492848952,1.3537684228743165,-0.000995004735462734,0.0006701744068796633,0.0012901727408144914,0.0002827035909119751,-0.0006468220177923904,-3.704232277068186e-05,-0.0007596739537164145,0.7925909161567688,-50.31735610961914,-7.154435157775879,16.85950469970703,1.5645242929458618,-1.2760117053985596,0.026597600430250168,770,727,730,41.934,1,0
1739303414.9427762,-0.06541714000139744,1.0376860843819935,-0.3975215949273201,-1.4713578629218658,1.5376516709466168,1.185462649440419,1.3537680696616188,-0.0006553178173036736,0.0013900752056203506,0.00029742784478962124,0.00041755280893191767,-5.2910121561711225e-05,-0.0006612252459730809,0.0003066290144457028,0.7925909161567688,-50.31735610961914,-7.130631446838379,16.83570098876953,1.5517069101333618,-1.2760117053985596,0.026597600430250168,770,726,730,42.043,0,0
1739303414.9527912,-0.06541243848264192,1.0376823623727598,-0.39752446777853434,-1.4713569568263993,1.5376508131490896,1.1854618916188377,1.353769288765579,0.00012212702712445414,-0.00035002131362427315,-0.0001063040230035056,0.00010986770141697285,0.0007711657235612278,0.0003420403694856013,0.0003157670003338807,0.7648199200630188,-50.26578140258789,-7.130631446838379,16.85950469970703,1.5581156015396118,-1.2696030139923096,0.019273381680250168,769,726,730,41.934,0,0
1739303414.9628007,-0.06541617514410747,1.0376821433871444,-0.39752367405722183,-1.4713579026720285,1.5376503910959165,1.185463408392542,1.3537645263367826,-8.683274323411229e-05,-2.5808556879473627e-05,0.00015146356962380294,-0.00013731308041626546,-0.0005267288052580433,-0.0006535383113156744,0.0006580827189158465,0.8163946270942688,-50.26578140258789,-7.102860450744629,16.83570098876953,1.5645242929458618,-1.2824203968048096,0.05955658480525017,769,727,730,42.151,1,0
1739303414.972805,-0.06541252894704776,1.0376857782604076,-0.397528318368681,-1.4713617648459492,1.5376501556264601,1.1854634069390162,1.3537695754812495,0.0002341833118795143,3.0570952407492824e-05,-0.0007867829981785737,-0.0006829335727563215,-5.441067144502595e-06,5.1382422218950636e-05,0.00014188502073208956,0.7648199200630188,-50.31735610961914,-7.079056739807129,16.88727569580078,1.5645242929458618,-1.2824203968048096,0.012864691205322742,769,728,731,41.934,1,0
1739303414.9837685,-0.06541318627418852,1.0376833733028175,-0.39752269927362993,-1.4713596579231547,1.5376500378835734,1.1854649222591485,1.3537652839942025,-0.0007798448214523163,-0.000582308943189318,0.0006975406442155204,-6.504512360755823e-06,-0.0002065381434591657,0.0003027672196321329,-0.0002952913249519273,0.7648199200630188,-50.29355239868164,-7.154435157775879,16.85950469970703,1.5645242929458618,-1.2952377796173096,0.05314789339900017,768,726,730,42.043,0,0
1739303414.9947443,-0.06541423528160292,1.0376833949495698,-0.3975265357405651,-1.471359685394791,1.5376500436971097,1.1854673435134582,1.3537684227128228,-0.0002494584953993879,-0.0010823563134986555,2.6645350501144005e-05,0.0002879184491293126,-0.0015857279350151951,0.0008480767028799375,-0.0012597742908280571,0.7925909161567688,-50.29355239868164,-7.102860450744629,16.85950469970703,1.5645242929458618,-1.2888290882110596,0.026597600430250168,770,728,730,42.151,1,0
1739303415.0048318,-0.06541806497231108,1.037686074718446,-0.3975226732732502,-1.471357902718237,1.5376532169049997,1.1854626492968585,1.3537605196235747,-0.0009597267642527461,1.539490424960333e-05,0.00016271543437348278,0.0008021358698706846,-0.0008754739655782552,-0.00016226101921592542,-0.003842512181816245,0.8163946270942688,-50.31735610961914,-7.154435157775879,16.83570098876953,1.5645242929458618,-1.2760117053985596,0.09343110024929047,769,726,730,42.043,1,0
1739303415.0157626,-0.06541286446007347,1.0376848462959716,-0.3975188108063756,-1.471357901700752,1.5376497904369124,1.1854635645684408,1.3537663973580245,-0.0005015237334696262,0.0002831276379121685,0.0018233742642638552,-0.00024462320001085837,-0.000615273568208926,0.0006850737726772551,-0.001498456977535261,0.7410162091255188,-50.29355239868164,-7.206009864807129,16.83570098876953,1.5709329843521118,-1.2824203968048096,0.03941498324275017,770,727,730,42.043,1,0
1739303415.0257964,-0.06541366589903098,1.0376841423860141,-0.39752584672531405,-1.4713617641676093,1.5376514507423882,1.1854634075876835,1.353770046422889,0.0007164326082192546,0.0005212518897923679,-0.0005446447171448667,-0.0013635057050536631,-6.982895521977425e-05,0.0001269919570972244,3.576975026832604e-05,0.7410162091255188,-50.29355239868164,-7.130631446838379,16.88727569580078,1.5645242929458618,-1.2824203968048096,0.012864691205322742,769,727,731,41.934,1,0
1739303415.0358348,-0.06541286352965119,1.0376843719623547,-0.39752445553775706,-1.4713579022660044,1.5376500393603858,1.185464164599081,1.3537692887715607,0.0016155396975408207,0.0004411744349013427,3.349807249625258e-05,-1.2106584270963434e-06,5.048711008519319e-05,-0.00010359840083797796,0.0010712454701780067,0.7410162091255188,-50.29355239868164,-7.130631446838379,16.83570098876953,1.5645242929458618,-1.2888290882110596,0.019273381680250168,769,727,733,42.260,1,0
1739303415.0467672,-0.06541244168646158,1.0376823702461588,-0.3975205933380373,-1.4713596484266258,1.5376511487557052,1.185465070533223,1.3537671942639706,-0.00018141562018512332,0.00017095813209300952,0.0009793696327177026,-0.0002341669188917263,0.0002305299310045399,0.0010996819970960038,-0.00014535115206200608,0.7648199200630188,-50.26578140258789,-7.182206153869629,16.85950469970703,1.5581156015396118,-1.2696030139923096,0.03300629183650017,768,726,732,41.934,1,0
1739303415.0577226,-0.06541358669113868,1.037679618651296,-0.3975244559502684,-1.471356690936186,1.5376542764374197,1.185463407010772,1.3537716699861815,0.0005533748269511524,-0.0016328881816394603,-0.0005045733408325878,-2.092826338584547e-06,5.442187820653246e-05,0.00030011971681026073,0.0004160086207209672,0.7410162091255188,-50.26578140258789,-7.130631446838379,16.85950469970703,1.5645242929458618,-1.2824203968048096,-0.0008682189509272575,767,727,731,41.934,1,0
1739303415.0677943,-0.06541506305196623,1.0376860066511473,-0.39752445486010657,-1.4713616827181013,1.5376511664315857,1.1854641645990713,1.3537652447510042,-0.0008885619256648479,-4.79533374430815e-05,0.00048386212089286483,-0.0016837423915757209,0.0007664321827304512,-0.00013420653221518343,0.0007313570578968176,0.7648199200630188,-50.31735610961914,-7.130631446838379,16.88727569580078,1.5581156015396118,-1.2888290882110596,0.05314789339900017,767,727,731,42.151,1,0
1739303415.0778582,-0.06541614894288814,1.0376821443308313,-0.3975229073836494,-1.4713579027168406,1.5376506957388179,1.1854649222591485,1.353764526336118,-0.00110037155238776,0.00013123376124350822,-0.00045251884775953527,-0.000546345465575046,-0.0007853841180319812,0.0005752262572620496,-0.0006583827999162815,0.8163946270942688,-50.26578140258789,-7.154435157775879,16.83570098876953,1.5581156015396118,-1.2952377796173096,0.05955658480525017,769,727,731,41.934,0,0
1739303415.0887988,-0.06541636120127087,1.0376850897122276,-0.3975244559515908,-1.4713565231226726,1.5376517016380822,1.1854665858533797,1.3537692887715609,-0.0009987028215237173,-0.00020644987847450602,0.000589246463662613,0.0005104858133293858,-0.0014603523141170209,-3.322016200507321e-05,-0.0004643615949398778,0.7925909161567688,-50.31735610961914,-7.130631446838379,16.85950469970703,1.5773416757583618,-1.2824203968048096,0.019273381680250168,766,726,730,42.151,1,0
1739303415.0988345,-0.06541315984726116,1.0376823967202653,-0.3975244244809064,-1.4713568858578352,1.5376508348426816,1.1854641646529054,1.3537724271644014,-0.0004360261189709819,-0.00025549848927197927,0.0002628378524042423,0.000518971548186755,0.0006551237975542984,0.0002384670584444404,0.0018803676562740034,0.7648199200630188,-50.26578140258789,-7.130631446838379,16.83570098876953,1.5581156015396118,-1.2888290882110596,-0.0072769103571772575,767,726,731,42.043,1,0
1739303415.1098115,-0.06541233421603272,1.0376816512126648,-0.39752407073676244,-1.4713574587927976,1.537651149902904,1.1854626492789138,1.3537692868334912,0.00038388056003899247,-0.000584304724306856,0.00022407565811315383,-0.0008022973555824196,0.00024167535568599556,-0.0004126943639277022,0.0009246866658514242,0.7410162091255188,-50.26578140258789,-7.102860450744629,16.85950469970703,1.5645242929458618,-1.2760117053985596,0.019273381680250168,769,725,733,41.934,0,0
1739303415.120797,-0.0654149088421225,1.037686083538086,-0.39752733918620237,-1.4713574596903998,1.537652477285956,1.1854641639530479,1.3537708040915963,7.98450874773093e-05,0.0004992124888091225,-0.0019248879405932373,0.00015748105827503696,-0.0003045547114703533,-6.734332371857352e-06,0.001048649625897879,0.7925909161567688,-50.31735610961914,-7.102860450744629,16.85950469970703,1.5709329843521118,-1.2888290882110596,0.0064559997990727425,769,727,731,42.043,1,0
1739303415.1317332,-0.06541430558940438,1.0376857865451972,-0.3975265633856246,-1.4713579026805448,1.5376500379370512,1.1854641645990591,1.3537676786232513,-7.148597506293516e-05,0.0010159674998277278,7.311271041483402e-05,2.779238195841529e-05,-0.001275869007586076,0.00024159265947171785,-0.0004739977462953224,0.7925909161567688,-50.34512710571289,-7.130631446838379,16.83570098876953,1.5645242929458618,-1.2888290882110596,0.03300629183650017,767,727,730,42.043,2,0
1739303415.141761,-0.06541143468972757,1.0376845987975933,-0.397526457563131,-1.4713578633633642,1.5376493984449173,1.1854634069389918,1.3537644740090495,0.0005145473223268506,0.0006101063064290774,-0.0006512020917846984,0.00034349963907491716,0.0003614346976364315,-0.0001718874314293165,-0.0015026657227412165,0.7410162091255188,-50.26578140258789,-7.102860450744629,16.83570098876953,1.5709329843521118,-1.2824203968048096,0.05955658480525017,766,726,733,42.043,1,0
1739303415.151804,-0.06541255221208794,1.0376821439323993,-0.3975245695775879,-1.4713595389255556,1.5376495952888398,1.1854626492789135,1.3537714733208333,-0.00012965031981646133,-0.00017311677869395362,-0.00022264529656305186,-0.0012312308122977233,-0.00046381375768189985,-0.0007639339592282644,0.0016070504788512142,0.7648199200630188,-50.26578140258789,-7.130631446838379,16.88727569580078,1.5773416757583618,-1.2760117053985596,-0.0008682189509272575,767,726,731,42.043,1,0
1739303415.1618109,-0.06541431825218327,1.0376842964166697,-0.39752581982487484,-1.471359685382689,1.5376500424649557,1.1854634069389918,1.3537725471576982,5.354306813070331e-05,5.9763711001672865e-05,-0.0012707921284970175,-0.001095579060230637,0.0005368566759918418,-0.00036308293174545746,0.0016615778784796918,0.7925909161567688,-50.29355239868164,-7.102860450744629,16.85950469970703,1.5645242929458618,-1.2824203968048096,0.019273381680250168,766,727,732,42.043,1,0
1739303415.1718268,-0.06541220546406144,1.037684371964963,-0.3975244559381451,-1.4713573777388855,1.5376493369113675,1.1854626487943967,1.3537676131071656,0.001057499093121061,0.0001529746805154266,0.00020616649957373755,6.480247356870669e-06,-0.0006252949740766801,-0.00030232252196418265,0.0005273247037659754,0.7648199200630188,-50.29355239868164,-7.130631446838379,16.85950469970703,1.5709329843521118,-1.2760117053985596,0.03300629183650017,766,727,731,42.043,1,0
1739303415.1827302,-0.06541514184454349,1.0376880942015838,-0.39752446846897066,-1.4713585508987415,1.537651908354162,1.185461043164203,1.3537637672224194,-0.00028315725774454866,0.0010813211345632734,0.000504950367593358,-0.00026747872960505587,0.0006032346764463454,0.0004954596977142882,-0.0006236380627623897,0.7648199200630188,-50.34512710571289,-7.130631446838379,16.88727569580078,1.5517069101333618,-1.2622787952423096,0.06596527993679047,767,728,732,42.043,1,0
1739303415.1937244,-0.06541224147812826,1.037679605339419,-0.39752059348360663,-1.4713605808209345,1.53765003837344,1.1854641645993655,1.3537669075541472,0.00154407520335949,-0.0018943227828145648,0.0010998985362799798,-0.0009871989226656664,-0.0004762879576322053,0.0006894382397432396,0.0003581190338650914,0.7648199200630188,-50.26578140258789,-7.182206153869629,16.91107940673828,1.5645242929458618,-1.2888290882110596,0.03941498324275017,769,728,732,42.043,1,0
