IITGN-Robotics/Franka_IITGN_ROBOTICS/franka_ros/franka_iitgn/data01/s_b_011.csv
time,fr3_joint1_pos,fr3_joint2_pos,fr3_joint3_pos,fr3_joint4_pos,fr3_joint5_pos,fr3_joint6_pos,fr3_joint7_pos,fr3_joint1_vel,fr3_joint2_vel,fr3_joint3_vel,fr3_joint4_vel,fr3_joint5_vel,fr3_joint6_vel,fr3_joint7_vel,fr3_joint1_eff,fr3_joint2_eff,fr3_joint3_eff,fr3_joint4_eff,fr3_joint5_eff,fr3_joint6_eff,fr3_joint7_eff,flexpin1,flexpin2,flexpin3,Force,ContactMic,ContactMic_gt
1739303310.0392108,-0.0708501359040228,1.0412914917545066,-0.3957355643973724,-1.464134468649029,1.5345569387992615,1.1818110926982226,1.3554639710022107,0.00039525108913910886,0.0003488939678426285,0.0012062285331108057,-0.00022525800660445422,-0.0005541761299763865,4.354567129711085e-05,-0.001669163995018667,-0.2309686839580536,-50.36893081665039,-7.765397071838379,17.37921905517578,1.7412210702896118,-0.8814194202423096,0.03941498324275017,,,,,,,,,
1739303310.0502112,-0.07084839724577999,1.041295639664558,-0.39573934012348766,-1.4641341777881633,1.53455586763292,1.1818057471037946,1.355460832176144,0.0012504845430195304,0.0011051148702528562,0.000992331373259617,-0.0006811035642845611,-0.0022743303553829095,-0.0022951658111565526,-0.0006497902396946628,-0.2547723948955536,-50.39670181274414,-7.765397071838379,17.40302276611328,1.7476297616958618,-0.8750107288360596,0.06596527993679047,,,,,,,,,
1739303310.0631537,-0.07085182218308766,1.0412887882277617,-0.3957407126963166,-1.4641380232822694,1.53456117201326,1.1818098509997512,1.3554592090495148,-0.00016315133767488333,-0.0011548970488882637,-0.0007471515129186407,-0.0010745149524881174,0.001548373782584749,0.0006569644594796335,-0.0013658602504739363,-0.2071649730205536,-50.31735610961914,-7.737626075744629,17.43079376220703,1.7412210702896118,-0.9006454944610596,0.07969819009304047,,,,,,,,,
1739303310.0732057,-0.07085234072609364,1.0412907861847516,-0.39573066261431533,-1.4641326106970984,1.5345606657558493,1.1817949520109512,1.355459168528526,0.0007863444773515678,-0.0004211078871787192,0.0015219569510339505,-0.0008466130208697321,0.0007157353020467575,-0.0017641149276459022,-0.0020270704932635474,-0.1555902659893036,-50.34512710571289,-7.713822364807129,17.35541534423828,1.7082620859146118,-0.9409286975860596,0.05314789339900017,,,,,,,,,
1739303310.0832436,-0.07085565615586358,1.0412939671896235,-0.3957279687696884,-1.46413258424383,1.5345606592332492,1.1817762771457296,1.3554665453124803,-0.00043827415782439114,0.0011769341372271677,0.00046714480579946064,-0.0006457818352967812,-9.87892933637533e-05,-0.0034213551967390513,0.0011743361874945232,-0.10798283666372299,-50.36893081665039,-7.610672950744629,17.35541534423828,1.7082620859146118,-0.9729721546173096,0.026597600430250168,,,,,,,,,
1739303310.0941749,-0.07085206417734498,1.0412888265052305,-0.3957242939250933,-1.4641341634755733,1.5345628766018913,1.1817574592687978,1.3554685587994926,0.0017310585266891035,-0.001547084519986328,0.0008680904044983025,-0.0014171490126310606,0.0002005605576538214,-0.002140417014276006,0.0008558395058083019,-0.1555902659893036,-50.31735610961914,-7.586869239807129,17.37921905517578,1.6954447031021118,-0.9802963733673096,-0.0008682189509272575,,,,,,,,,
1739303310.1041858,-0.0708594452118759,1.0413003921095365,-0.39572468546450035,-1.464128123879083,1.5345633366485325,1.181745813858338,1.3554615326088655,-0.0007798580791397296,0.001749562430736134,0.0002895853863546601,0.0004581090886405548,-0.00014233967418034695,-0.0013116946505057462,-0.00047173563919045044,-0.05640812963247299,-50.44827651977539,-7.563065528869629,17.33161163330078,1.6826273202896118,-0.9729721546173096,0.05955658480525017,,,,,,,,,
1739303310.1151726,-0.07085947184472714,1.0412944330181373,-0.39572684291971727,-1.4641316010057115,1.5345640933336204,1.1817401683505628,1.3554626950393411,-0.0003918375908187761,-0.0001471380245632582,-0.0008383419900401953,0.00031036694363621253,0.001196200849484784,-0.002537191415457351,-0.0001332997349366919,-0.05640812963247299,-50.36893081665039,-7.535294532775879,17.37921905517578,1.6762186288833618,-0.9665634632110596,0.04673920199275017,,,,,,,,,
1739303310.1252148,-0.07085947184517818,1.0412984031550596,-0.39571993840969505,-1.4641287272467838,1.5345633365887346,1.1817390049548668,1.355465433505733,-0.0002079173616965614,5.9363500488063205e-05,0.001011089635420221,0.00119930524132865,0.0013166773103750438,0.0003858887952316711,0.0010016376858687764,-0.05640812963247299,-50.42050552368164,-7.586869239807129,17.33161163330078,1.6826273202896118,-0.9601547718048096,0.026597600430250168,,,,,,,,,
1739303310.1362114,-0.0708604740772258,1.0413003893236215,-0.39572193047102183,-1.4641292727384148,1.5345630499327765,1.1817405139201802,1.3554617820280261,-0.0002170603545315764,0.0014333669409091392,5.093372036890252e-05,0.0007246207475053103,0.0014295308059881608,-2.4242938545348457e-05,-0.0010437570980969492,-0.03260441869497299,-50.44827651977539,-7.586869239807129,17.35541534423828,1.6890360116958618,-0.9729721546173096,0.026597600430250168,,,,,,,,,
1739303310.14714,-0.07086286368787556,1.0412967125479646,-0.39572160422771857,-1.4641295906193126,1.5345625789904727,1.1817413753477097,1.3554647771687827,3.231508677375636e-05,0.00021018501179243554,-0.0018062963403416826,0.0006749008305167245,-0.00017457344594062332,0.0005676970840134613,0.0008652221706202086,-0.004833422601222992,-50.39670181274414,-7.563065528869629,17.35541534423828,1.6890360116958618,-0.9802963733673096,-0.0072769103571772575,,,,,,,,,
1739303310.157217,-0.07086318327929671,1.0412959694933022,-0.39572160310385834,-1.464134125946311,1.5345625789824973,1.1817425330944806,1.3554583498136619,-0.0008562968076138277,0.0003854035612756737,-0.0006205842690128121,-0.0017743953953743596,0.00037193454259907936,0.0011612845121188415,-0.001915897975719779,-0.004833422601222992,-50.39670181274414,-7.563065528869629,17.37921905517578,1.6890360116958618,-0.9931137561798096,0.04673920199275017,,,,,,,,,
1739303310.167223,-0.07085776809345955,1.0412946838525106,-0.3957214981211744,-1.4641295878368894,1.5345575784092507,1.1817413753415784,1.3554592026288563,1.7017135361392915e-05,0.0001164590531627997,0.00027431558153875814,0.00014318030865870387,-0.000783952541346615,-0.0009657961865174611,-0.0004589353575577883,-0.08021184056997299,-50.36893081665039,-7.563065528869629,17.35541534423828,1.6954447031021118,-0.9802963733673096,0.03941498324275017,,,,,,,,,
1739303310.1782405,-0.07086118490735394,1.041299585982988,-0.39572160408320944,-1.464131370467245,1.5345633365707212,1.181742124068378,1.3554592026286347,-0.0011762575116688054,0.002004545970045142,0.00011373242544178303,-0.0012173253935500016,0.0009828141355196058,-1.5086564382484795e-05,-0.00035182052621535,-0.03260441869497299,-50.42050552368164,-7.563065528869629,17.37921905517578,1.6826273202896118,-0.9867050647735596,0.03941498324275017,,,,,,,,,
1739303310.18921,-0.0708594718451792,1.041294683709348,-0.3957197949645861,-1.4641295877902252,1.5345625775289466,1.1817405137545758,1.3554544227508132,-0.00031576393747259943,-0.0004594967335194478,0.00041836325332189405,0.00014481081083081936,-0.0001462349389510504,0.0006592877117187867,-0.0010408669621067772,-0.05640812963247299,-50.36893081665039,-7.586869239807129,17.35541534423828,1.6890360116958618,-0.9729721546173096,0.07969819009304047,,,,,,,,,
1739303310.2002118,-0.07085947188126458,1.041296681805426,-0.39571984726286064,-1.4641313704672443,1.5345618213224104,1.1817405137546002,1.3554622237683236,0.00048539774152137153,0.0009305065915685115,-0.00015071026387733873,-0.0008759734993008242,-0.0009305278787463155,-9.784816687713525e-05,0.001108502276986082,-0.05640812963247299,-50.39670181274414,-7.586869239807129,17.37921905517578,1.6954447031021118,-0.9729721546173096,0.012864691205322742,,,,,,,,,
1739303310.211212,-0.07086388967244751,1.0412966818054266,-0.39571483187222034,-1.4641320592320282,1.5345625440972912,1.1817372555328958,1.355457314400398,-0.0014507567857596174,0.00015152337667579687,0.0025268763848139125,-0.00018228948059178848,9.653598024944083e-05,-7.079196733254477e-05,-0.0007131874977065093,-0.004833422601222992,-50.39670181274414,-7.610672950744629,17.37921905517578,1.6890360116958618,-0.9729721546173096,0.04673920199275017,,,,,,,,,
1739303310.2221384,-0.07086160368955491,1.041299106638456,-0.3957165949559118,-1.4641354625262681,1.5345594000679124,1.181741962479875,1.3554588494101538,-0.0007582597106451425,0.0020157535671841394,0.001023183565604055,-0.0016062005610397066,-0.00018023868466525954,-0.0007029504853822845,-0.0002452185747726486,-0.05640812963247299,-50.42050552368164,-7.610672950744629,17.43079376220703,1.6890360116958618,-0.9867050647735596,0.03941498324275017,,,,,,,,,
1739303310.2322006,-0.07085786361417018,1.04129750303704,-0.39571793274270245,-1.4641332561321865,1.5345618212685834,1.1817401369752631,1.3554551978475127,-4.0531289647705894e-05,0.0011301979133640679,0.0010215690306652164,-0.002151393097097528,-1.7563894694906887e-05,0.0018489833193095933,-0.00043433705471398234,-0.08021184056997299,-50.39670181274414,-7.610672950744629,17.40302276611328,1.6954447031021118,-0.9729721546173096,0.07328949868679047,,,,,,,,,
1739303310.2422392,-0.07086118436767552,1.0412966818193343,-0.3957208878463253,-1.464131371413796,1.5345610636623395,1.1817341304640612,1.3554568214112455,-0.0007102110374798917,0.0008345898065441103,-0.000994402246065827,-0.0005118029575574719,-0.0005160212292523078,-0.0009415149186982033,-0.0006889574386118247,-0.03260441869497299,-50.39670181274414,-7.563065528869629,17.37921905517578,1.7018533945083618,-0.9601547718048096,0.05955658480525017,,,,,,,,,
1739303310.2532442,-0.07085846863879766,1.041298394180803,-0.39571842502121773,-1.4641295877902305,1.5345618213224186,1.1817380610897341,1.3554595547481945,0.0006869576004190057,0.0016989056883039081,0.0009604696330777863,0.00037494615273753835,-1.754584828718962e-05,0.0013264314640029332,0.0003986585655972665,-0.08021184056997299,-50.42050552368164,-7.563065528869629,17.35541534423828,1.6954447031021118,-0.9802963733673096,0.03300629183650017,,,,,,,,,
1739303310.2642095,-0.07085923508628775,1.0412983944351732,-0.39572152324966436,-1.4641278051132063,1.5345626182283538,1.181735626348129,1.3554528164723105,0.0006963132631777363,0.0010948190930141878,-0.0004012634088437139,0.0001985792562737165,0.00016781062272395078,-0.0009268167715851838,-0.0021481138051541652,-0.05640812963247299,-50.42050552368164,-7.563065528869629,17.33161163330078,1.6890360116958618,-0.9729721546173096,0.09343110024929047,,,,,,,,,
1739303310.2742202,-0.07085947184116864,1.0412946721998348,-0.3957212860831799,-1.4641237042277524,1.5345618213230832,1.1817349267848656,1.3554623410214726,0.00017469215515488956,0.0003197397185299693,-8.919971042659437e-05,0.001429276677293945,-0.000433642648451094,0.00022413939171121738,0.0017762040626400197,-0.05640812963247299,-50.36893081665039,-7.563065528869629,17.28003692626953,1.6954447031021118,-0.9665634632110596,0.012864691205322742,,,,,,,,,
1739303310.2852592,-0.07085576138359391,1.0412934917716123,-0.3957215380695137,-1.4641314205043656,1.5345632341732578,1.181740548511162,1.3554577898854632,0.0008405316327155377,0.0013777256091909106,-0.0011650831138072526,-0.001029740289448993,0.00031890393736483624,0.0001851671975487357,-0.000943243076215193,-0.10798283666372299,-50.36893081665039,-7.535294532775879,17.37921905517578,1.6954447031021118,-0.9867050647735596,0.03941498324275017,,,,,,,,,
1739303310.2961853,-0.07085775921618778,1.0412908254608848,-0.3957173191751422,-1.4641313704675267,1.5345576220237336,1.181737773031787,1.35545840056301,0.001393225476282286,-0.0012563443814776268,0.0006608180044213167,0.00018888784823043315,-0.0006119240095031482,0.0014302840505707412,0.00027740074438219664,-0.08021184056997299,-50.34512710571289,-7.610672950744629,17.37921905517578,1.6954447031021118,-0.9867050647735596,0.019273381680250168,,,,,,,,,
1739303310.3071535,-0.0708592376083313,1.0413011163046135,-0.39572357401806485,-1.4641316501599917,1.5345649988133865,1.1817383494376201,1.3554591894748775,0.0005128504252566793,0.0018542820146899093,-0.0016250119844113222,-0.0007213154749703187,-0.00039692371225306093,0.0004675177947896396,0.0010456219253408522,-0.05640812963247299,-50.44827651977539,-7.535294532775879,17.35541534423828,1.6954447031021118,-0.9867050647735596,0.03941498324275017,,,,,,,,,
1739303310.3171718,-0.07085947184121136,1.0412968208137294,-0.39571671858509183,-1.4641278051481326,1.53456182282978,1.181734868697815,1.3554575747104505,0.0007144636266904746,0.000832473509269831,0.0013362743081353529,0.0012322580480200027,-0.0002438057466087826,-0.0013076411105289601,-0.0003860143424705533,-0.05640812963247299,-50.36893081665039,-7.586869239807129,17.33161163330078,1.6954447031021118,-0.9665634632110596,0.05314789339900017,,,,,,,,,
1739303310.3272448,-0.0708653206426985,1.041294536146783,-0.39572125954497217,-1.4641313776623197,1.534559113358387,1.1817364922365061,1.3554551578167926,-0.0019656357349848064,-0.0005631367699371393,-5.892165906785902e-05,0.00012275849506727967,-0.00025623111086507406,0.0005219979666049142,-0.00011877030894399363,-0.004833422601222992,-50.39670181274414,-7.563065528869629,17.37921905517578,1.6954447031021118,-0.9802963733673096,0.04673920199275017,,,,,,,,,
1739303310.3382485,-0.07085505156805726,1.0412991107164722,-0.39572088881650547,-1.4641313704672576,1.5345633366374798,1.1817356263392729,1.355461583840042,0.0016840041682956914,0.0013829041402126454,-0.00024050988982619097,-0.0010921751049096876,0.0005256849111674558,-0.00020461833928955736,0.0009280620100488115,-0.10798283666372299,-50.42050552368164,-7.563065528869629,17.37921905517578,1.6826273202896118,-0.9729721546173096,0.019273381680250168,,,,,,,,,
1739303310.3492374,-0.07085965599008921,1.0412946841956665,-0.39571686913438125,-1.4641295877902252,1.5345618213224186,1.1817341110191162,1.3554588479623746,-0.0009990971864904765,-0.0008792357325878012,-0.0001513853662772464,0.0003341779889590229,-0.0011576932132022972,-0.00024502970612853847,0.0014042049200148998,-0.05640812963247299,-50.36893081665039,-7.586869239807129,17.35541534423828,1.6954447031021118,-0.9601547718048096,0.03941498324275017,,,,,,,,,
1739303310.360183,-0.07085734087190776,1.0412946838282366,-0.3957169661759124,-1.4641295789599074,1.5345633366425753,1.181737889819092,1.355452839774279,-0.00035514859695479333,-0.0005276685856475788,0.0006018289239297467,-0.0005510826341546182,0.0001265411571141702,0.0006807867791678872,-0.0007749150108352943,-0.05640812963247299,-50.36893081665039,-7.610672950744629,17.35541534423828,1.6826273202896118,-0.9931137561798096,0.06596527993679047,,,,,,,,,
1739303310.3712184,-0.07085947053403824,1.041294401964333,-0.3957155366561953,-1.4641313351459233,1.5345618232604856,1.1817364922358404,1.3554600022455012,0.0009967293663546042,-0.002081110378731544,0.0014349982528699989,-0.002025792856249065,1.5197465943331875e-05,-0.0007619234478229207,0.0016751192562542649,-0.05640812963247299,-50.34512710571289,-7.610672950744629,17.37921905517578,1.6954447031021118,-0.9802963733673096,0.05955658480525017,,,,,,,,,
1739303310.3821378,-0.07085948061416687,1.0412944468349432,-0.3957188647397662,-1.4641352315167078,1.5345634842706386,1.1817356263392729,1.3554546494642934,0.0006145531139879258,-0.00039176141750905307,8.795724565456947e-05,-0.00195695420295275,-0.0004753055488255015,-0.0004482263575229751,-0.0002797116087593193,-0.05640812963247299,-50.36893081665039,-7.586869239807129,17.43079376220703,1.7082620859146118,-0.9729721546173096,0.06596527993679047,,,,,,,,,
1739303310.3921716,-0.07085505109505887,1.0412929713398285,-0.39571553679140364,-1.4641295877902012,1.5345618213762429,1.1817372498965835,1.3554607398731355,0.001222729971244844,-0.0011557788581259662,0.0004286717038855016,-0.0001930029281015918,9.423635081582261e-05,0.0002249426738440325,0.0009042321038571935,-0.10798283666372299,-50.34512710571289,-7.610672950744629,17.35541534423828,1.6954447031021118,-0.9867050647735596,0.05314789339900017,,,,,,,,,
1739303310.404165,-0.07085752255754287,1.041294604537069,-0.39572046817152673,-1.4641278051132063,1.5345625787671566,1.1817330513809867,1.3554560177025476,0.0012640217655646084,-0.0002933555870437236,-0.001211007999589782,0.0001271054979559785,2.636066189644321e-06,-0.0012627103887063627,-0.0005428193980999763,-0.08021184056997299,-50.36893081665039,-7.535294532775879,17.33161163330078,1.6890360116958618,-0.9601547718048096,0.03941498324275017,,,,,,,,,
1739303310.4141686,-0.07085947184384161,1.041296444367546,-0.39571672147590004,-1.4641302793664108,1.5345629834298644,1.1817341110131343,1.3554629807106637,0.00034647114874310897,-2.7319552430239995e-05,0.0007590749072149828,0.0004918522059553725,0.0006039093138405921,-2.605378546098765e-05,0.0008584879881124443,-0.05640812963247299,-50.39670181274414,-7.586869239807129,17.40302276611328,1.6826273202896118,-0.9601547718048096,0.0064559997990727425,,,,,,,,,
1739303310.424235,-0.07086118404113172,1.0413012554541023,-0.39571838674439186,-1.4641278051695172,1.534561821316437,1.181736492236505,1.3554560621336649,-0.00035419043380520383,0.0004833651958834072,0.0009739377450616662,0.0008944300650277333,-0.00019942405549959734,0.0005032115103270872,-0.001243656278720066,-0.03260441869497299,-50.42050552368164,-7.563065528869629,17.33161163330078,1.6954447031021118,-0.9802963733673096,0.06596527993679047,,,,,,,,,
1739303310.435175,-0.07086223407894213,1.0412947113851267,-0.3957150599159608,-1.4641331531442643,1.5345633366425753,1.1817364922365052,1.3554517859523254,-0.001740920188210186,-0.0009226554542226498,0.0007591787394878636,0.0002768474394997356,0.0007965619699466511,0.0011702222857116543,-0.0014847882899624177,-0.05640812963247299,-50.36893081665039,-7.610672950744629,17.40302276611328,1.6826273202896118,-0.9802963733673096,0.06596527993679047,,,,,,,,,
1739303310.4461389,-0.07085947022648764,1.0412966818054783,-0.3957194185818135,-1.464127089857469,1.534562296633349,1.1817341108576105,1.3554581296851629,0.00097672860976767,5.9297691917326316e-05,-0.0012122803818816101,0.0006895961737327281,0.0002430050602161249,-0.00018135746659676106,0.000883357380562611,-0.05640812963247299,-50.39670181274414,-7.563065528869629,17.33161163330078,1.6954447031021118,-0.9601547718048096,0.03941498324275017,,,,,,,,,
1739303310.4561725,-0.07085775932436475,1.0412939210935732,-0.3957204613882841,-1.464128723429913,1.534560896516261,1.181736492236497,1.3554615707095603,0.0003879877882151315,7.430043373868084e-05,-0.0011870325420303659,-0.0003032238188258573,-0.000845630737609888,-0.00011400217489125465,0.0014464482924680983,-0.08021184056997299,-50.34512710571289,-7.535294532775879,17.33161163330078,1.6762186288833618,-0.9802963733673096,0.019273381680250168,,,,,,,,,
1739303310.4672143,-0.07085734101521386,1.041292724060394,-0.39571660624971805,-1.4641277962962809,1.5345603089571804,1.1817364922365052,1.3554585473840142,-0.0001958962267818454,-0.0011907211092782037,0.00043672711562556005,0.0011868741610332792,-0.0009891313245403146,-0.000125053123909139,0.000485430503864026,-0.05640812963247299,-50.34512710571289,-7.586869239807129,17.33161163330078,1.7082620859146118,-0.9802963733673096,0.03300629183650017,,,,,,,,,
1739303310.4772663,-0.07085733119971267,1.0412952931523103,-0.3957194632441788,-1.4641295906244989,1.5345618213224688,1.1817364922365052,1.3554560222367686,0.0004893619829290214,-0.0005800595640434822,-0.0009129284578977999,0.00030348359976776937,0.00035188473189811515,0.00018532756084421145,0.002040597502550213,-0.05640812963247299,-50.36893081665039,-7.586869239807129,17.35541534423828,1.6954447031021118,-0.9802963733673096,0.03941498324275017,,,,,,,,,
1739303310.487288,-0.07085776026252787,1.0412929713541608,-0.39571660280560966,-1.4641313704672922,1.5345625789824973,1.1817364922365052,1.3554509455191424,0.0006122238058305161,-0.0007463989723959202,0.0006779288040304981,-0.000486202423985683,-0.00015336533196045715,0.0004751546860450451,-0.002034576655151643,-0.08021184056997299,-50.34512710571289,-7.586869239807129,17.37921905517578,1.6890360116958618,-0.9802963733673096,0.07328949868679047,,,,,,,,,
1739303310.4991355,-0.07085734097913275,1.04129468484572,-0.39571667931384186,-1.464129314050375,1.534564094302654,1.1817356263392729,1.3554556538255529,0.0001227709823676291,0.0008380507497318623,0.0005256747399072483,0.00026574993721648646,0.0009193153001696076,-0.000750569932081914,0.0004854730651119418,-0.05640812963247299,-50.36893081665039,-7.586869239807129,17.35541534423828,1.6762186288833618,-0.9729721546173096,0.06596527993679047,,,,,,,,,
1739303310.509149,-0.07086118431779417,1.0413012288581593,-0.39571838543461824,-1.4641331266517648,1.5345633366425755,1.1817356263392729,1.355459687101109,-0.0008269413448299517,0.0005785212050880243,-0.0002338601257145287,-0.0017572566525325105,8.958466083959575e-05,0.0003277999771649966,0.00030539872666595106,-0.03260441869497299,-50.42050552368164,-7.563065528869629,17.40302276611328,1.6826273202896118,-0.9729721546173096,-0.0008682189509272575,,,,,,,,,
1739303310.5211363,-0.07085904960252679,1.0412966818214278,-0.3957162595351891,-1.4641277127762773,1.5345633366425755,1.1817356263392729,1.3554511041099466,0.00162140787179452,-0.0009573166569652715,0.0002647454801586275,0.0014128227636836,-0.0005596640856484798,-8.466441034111279e-05,-0.003257873121417446,-0.03260441869497299,-50.39670181274414,-7.563065528869629,17.33161163330078,1.6826273202896118,-0.9729721546173096,0.07969819009304047,,,,,,,,,
1739303310.5311775,-0.07085947183312738,1.0412943924640883,-0.39571838836562456,-1.464131017289006,1.5345610263545508,1.1817348293795025,1.3554654348200528,0.00013954270050854178,-0.0009927987187844027,-9.333605091220638e-05,-0.00015171264717404322,-0.000501108402846266,-0.000195088182752728,0.0026834882105199543,-0.05640812963247299,-50.36893081665039,-7.563065528869629,17.37921905517578,1.7018533945083618,-0.9665634632110596,-0.013685601763427258,,,,,,,,,
1739303310.5412126,-0.07085528516843788,1.0412966818004916,-0.39571589543241287,-1.4641292246940512,1.5345605796294766,1.1817364791538874,1.3554580456601812,0.00134140716122594,-2.6277794420047967e-05,0.000244240552272607,-0.0001457628769023055,-0.0011585025197427328,0.00042547501776613375,0.0024032430778493223,-0.08021184056997299,-50.39670181274414,-7.586869239807129,17.37921905517578,1.7018533945083618,-0.9802963733673096,0.05314789339900017,,,,,,,,,
1739303310.5512466,-0.07085834024627634,1.0412953932334323,-0.3957204665202583,-1.4641313704309054,1.5345618213142216,1.1817351553887716,1.3554570667835166,0.0001609987439413981,-3.816556044824651e-06,-0.0005690773414716195,-7.258948794944877e-06,-0.00031809260407308356,-0.0018374236418218753,0.00018381960523827247,-0.03260441869497299,-50.36893081665039,-7.535294532775879,17.37921905517578,1.6954447031021118,-0.9729721546173096,0.05314789339900017,,,,,,,,,
1739303310.5621698,-0.07086114924175958,1.0412919411521186,-0.39571838543420806,-1.4641313616369258,1.534565757896885,1.181735613249345,1.3554528392830887,-0.00026525133494033245,-0.0013369156791923614,-0.0002744064586902138,-0.0006237381275624196,0.0019142231855251162,-0.000509101603989165,-0.0013183019134494602,-0.03260441869497299,-50.34512710571289,-7.563065528869629,17.37921905517578,1.6890360116958618,-0.9729721546173096,0.06596527993679047,,,,,,,,,
1739303310.5721824,-0.0708577593242487,1.0412991085949332,-0.3957186242888303,-1.4641351269339173,1.534564094320599,1.1817364922364313,1.355459142977391,0.00067460489934561,0.002303511580957232,-0.001204365969868716,-0.0008421351238802989,0.0012569988673468277,0.00029491577112360586,0.001393481679627996,-0.08021184056997299,-50.42050552368164,-7.563065528869629,17.43079376220703,1.6762186288833618,-0.9802963733673096,0.012864691205322742,,,,,,,,,
1739303310.582208,-0.07086318425542822,1.0412939686209326,-0.39571660276121207,-1.464131370465449,1.5345599996635606,1.1817348686791944,1.3554524069249811,-0.002212591167753219,0.0005944497399686113,6.117611833481945e-06,-0.0005038248807981915,-0.0004827146856300176,-0.0005079799531132459,-0.001470258022215242,-0.004833422601222992,-50.36893081665039,-7.586869239807129,17.37921905517578,1.7018533945083618,-0.9665634632110596,0.05955658480525017,,,,,,,,,
1739303310.5931902,-0.07086118339158748,1.041296602982627,-0.39571660211215415,-1.464127089857469,1.5345617035788424,1.1817372498965835,1.355460753504346,-0.00018510575813823153,0.00015039942819911317,0.0005074508398578793,0.0006077695570003967,-0.0005899988704815096,0.00012644188623164848,0.0007094598368254876,-0.03260441869497299,-50.39670181274414,-7.586869239807129,17.33161163330078,1.6954447031021118,-0.9867050647735596,0.012864691205322742,,,,,,,,,
1739303310.6038861,-0.07086306798501908,1.0412983949789207,-0.3957204524643872,-1.4641313704551313,1.534561363091697,1.1817356263392729,1.3554564622333252,-0.00037984290847625963,0.000244770932899207,-0.0011759383830571768,0.0003273576372156485,-4.6350984293677124e-05,0.0003687623569225938,0.0009086850126178803,-0.004833422601222992,-50.42050552368164,-7.563065528869629,17.37921905517578,1.7018533945083618,-0.9729721546173096,0.05314789339900017,,,,,,,,,
1739303310.6142218,-0.07085944553754456,1.0412930511437546,-0.3957135310901168,-1.4641313704672443,1.534561821324109,1.1817348686791944,1.355459353911101,-0.0003515662692405875,-0.0001271164483923297,0.0015284684671865462,-0.0005306356495903618,-0.002328882773385296,-9.254426739753211e-06,0.00045515362789666004,-0.05640812963247299,-50.34512710571289,-7.586869239807129,17.37921905517578,1.6954447031021118,-0.9665634632110596,-0.0008682189509272575,,,,,,,,,
1739303310.6262503,-0.07085945917870198,1.0412947139535143,-0.39571838541684645,-1.4641314469966646,1.5345657579507201,1.1817356263392729,1.3554489199768442,0.0008481845724880696,-0.0009189028721395804,0.00036419221588808513,-0.00016844012587778861,0.0004525135228272806,0.0007371324745058488,-0.0021082819995844626,-0.05640812963247299,-50.36893081665039,-7.563065528869629,17.37921905517578,1.6890360116958618,-0.9729721546173096,0.08610688149929047,,,,,,,,,
1739303310.6372845,-0.07086118435385674,1.0412964463303434,-0.3957204262067307,-1.464131367523949,1.53456146375504,1.1817356248857225,1.355457261412292,-0.0009056290680034315,-0.0004531140786349487,-0.000583544119823277,-0.0006144326522855163,-0.0006189112729602825,5.6216304770003605e-05,-0.0015158639165783968,-0.03260441869497299,-50.39670181274414,-7.563065528869629,17.37921905517578,1.6954447031021118,-0.9729721546173096,0.03941498324275017,,,,,,,,,
1739303310.6481597,-0.07086118436590931,1.0412966818040974,-0.39572046509155273,-1.4641306580459132,1.5345618213204002,1.1817372496812344,1.3554538710536879,-0.0001193415881118015,0.0007532921391257872,-0.0005167480303725209,-0.0011516076569553005,0.00011336072923532783,0.0007010018913987423,0.00018417647980274992,-0.03260441869497299,-50.39670181274414,-7.535294532775879,17.37921905517578,1.6954447031021118,-0.9867050647735596,0.05314789339900017,,,,,,,,,
1739303310.658211,-0.07085710031890134,1.041294604391714,-0.39571838543418386,-1.4641295874511113,1.5345632843147665,1.1817324474248811,1.355452410630981,0.0010387799769948144,-0.0010787920616399734,-0.0002256285494194927,3.3405819327174163e-05,0.00097302217901338,-0.0007744342400896288,-0.0006165420990940864,-0.05640812963247299,-50.36893081665039,-7.563065528869629,17.35541534423828,1.6826273202896118,-0.9729721546173096,0.05955658480525017,,,,,,,,,
1739303310.6682098,-0.07086160256280769,1.0412946397116392,-0.39572261099125355,-1.4641313675237992,1.5345606571519022,1.181738335810325,1.3554554939012378,-0.00010023711166737829,-0.0006025065668808255,-0.0011406752021523657,-4.422235985237615e-05,-0.0015357641955669253,0.0006773749511868418,0.000668994164863386,-0.05640812963247299,-50.36893081665039,-7.535294532775879,17.37921905517578,1.7018533945083618,-0.9867050647735596,0.03941498324275017,,,,,,,,,
1739303310.679213,-0.07085939286406849,1.0412946838643244,-0.3957183972563948,-1.4641312900132215,1.5345648788690411,1.1817352731326929,1.3554560846018582,0.00013040952000406244,-0.0011681342797868277,0.0004344920114637869,0.0001538202560348726,0.0004991216637252078,-0.0004107764303538724,0.0013250410971746424,-0.05640812963247299,-50.36893081665039,-7.563065528869629,17.37921905517578,1.7082620859146118,-0.9729721546173096,0.026597600430250168,,,,,,,,,
1739303310.6892328,-0.07085548954070238,1.0412944101247235,-0.3957165240207678,-1.4641331501967367,1.5345618215547443,1.1817364922185605,1.3554512958705214,0.0014043567760035082,-0.002117318543512029,0.00014509811902963614,-0.0009584853130811504,0.00028273755846868213,0.00036174035739548814,-0.0015333767060497655,-0.10798283666372299,-50.36893081665039,-7.586869239807129,17.40302276611328,1.6954447031021118,-0.9802963733673096,0.06596527993679047,,,,,,,,,
1739303310.7002032,-0.07085775921567625,1.0412937301897423,-0.39571842075530894,-1.4641286340795645,1.534562539736641,1.1817295192538888,1.3554575198959926,0.0001102101044121312,-0.0017599536782746884,0.0002691925848457379,0.000732950641211869,0.0003793395944967498,-0.0014991800978141525,0.0008407626908909073,-0.08021184056997299,-50.36893081665039,-7.563065528869629,17.35541534423828,1.6890360116958618,-0.9601547718048096,0.026597600430250168,,,,,,,,,
1739303310.711208,-0.0708618933554818,1.0412953991149274,-0.3957148199723405,-1.4641331531388797,1.5345617820763404,1.1817343846210417,1.3554562515641249,0.00010946306717690902,-0.001780151497806397,0.000383148818375278,-0.0006312084434723463,-0.00025344622224090574,-0.0003303439576246145,0.0006769779043058343,-0.03260441869497299,-50.36893081665039,-7.610672950744629,17.40302276611328,1.6954447031021118,-0.9665634632110596,0.03300629183650017,,,,,,,,,
1739303310.7222269,-0.07086117560091555,1.0412939706115056,-0.3957204681674803,-1.4641278050768674,1.5345625789822757,1.1817345660523886,1.3554516485978363,-0.0006991097945024902,-0.0010302788597818865,-0.0014849869740684728,-3.489647030767147e-06,-6.873479064384851e-05,-0.00016193870041343795,-0.0016797999484574086,-0.03260441869497299,-50.36893081665039,-7.535294532775879,17.33161163330078,1.6890360116958618,-0.9729721546173096,0.06596527993679047,,,,,,,,,
1739303310.7341535,-0.0708611814428612,1.0412947191818183,-0.39571858594237447,-1.464132914725684,1.5345607616842893,1.1817350745345132,1.3554524062543674,-0.000663208372647175,-0.0002825822361272128,-0.00024284707168033395,-0.0007750799280874431,-0.0012569916971171098,0.00043688598026243706,0.00020080989321652048,-0.03260441869497299,-50.36893081665039,-7.563065528869629,17.40302276611328,1.6954447031021118,-0.9802963733673096,0.05955658480525017,,,,,,,,,
1739303310.7441933,-0.0708611580589046,1.0412909734031888,-0.3957166017862372,-1.4641331531429174,1.5345590883398883,1.1817348685096858,1.3554576908739737,-0.002000656693610313,-0.0007867385464696785,0.00016756497447934873,-0.00134771637482628,-0.0013363609993857827,0.000275733217433684,0.0010135847956384073,-0.03260441869497299,-50.31735610961914,-7.586869239807129,17.40302276611328,1.7155863046646118,-0.9665634632110596,0.012864691205322742,,,,,,,,,
1739303310.7542355,-0.07085774763200668,1.041299555910328,-0.3957204649000047,-1.4641331531442634,1.5345610638178888,1.1817318607409018,1.355449689266431,2.749840201927723e-05,0.0005174047293125437,-0.0010832780892376204,-0.0009295828065510298,-0.0001861736368918523,-0.0004356764390552424,-0.00043951987274994163,-0.08021184056997299,-50.39670181274414,-7.535294532775879,17.40302276611328,1.7018533945083618,-0.9802963733673096,0.07969819009304047,,,,,,,,,
1739303310.7652116,-0.07085560211525557,1.0412966817853122,-0.39571838543418425,-1.4641295838656394,1.534562579305509,1.1817339531646454,1.3554629227213195,0.0016893348327170388,0.00019328117599715333,-5.5119943611533486e-05,-2.771369992445147e-06,-0.0006720678283534256,0.0008562792319611619,0.0036083927539405395,-0.08021184056997299,-50.39670181274414,-7.563065528869629,17.35541534423828,1.6890360116958618,-0.9867050647735596,0.0064559997990727425,,,,,,,,,
1739303310.7752383,-0.07085773287266697,1.041298416892525,-0.39571481997214114,-1.4641303899748592,1.534561808240472,1.1817342134326032,1.3554520531174281,0.0002872949245372892,0.001412939416087917,0.0015889415047349005,0.0011069356459247524,-0.0011636543491519921,-0.0005170699622175627,-0.0012358716094429847,-0.08021184056997299,-50.42050552368164,-7.610672950744629,17.37921905517578,1.6954447031021118,-0.9729721546173096,0.05955658480525017,,,,,,,,,
1739303310.7862067,-0.07086118436576005,1.0412988292443486,-0.3957180617739692,-1.4641274420174781,1.5345618214838503,1.1817343976671035,1.355454434257053,-0.0006671830841228738,0.0008949623940411023,0.00020063366977274765,0.0008130848873142275,0.00027622497512954313,-0.0010698529375673905,-0.000851863719249986,-0.03260441869497299,-50.39670181274414,-7.563065528869629,17.35541534423828,1.6954447031021118,-0.9665634632110596,0.03941498324275017,,,,,,,,,
1739303310.7971795,-0.07085894924623842,1.0412925469398018,-0.3957165998391548,-1.4641269838815432,1.5345625796285205,1.1817313191068346,1.3554522100230901,-6.223641073266784e-05,-0.0015788824974039082,0.000646273379257158,0.0014599106822729365,0.000347040905541655,-0.0003723968147671725,0.0008045576054198625,-0.03260441869497299,-50.36893081665039,-7.586869239807129,17.33161163330078,1.6890360116958618,-0.9665634632110596,0.05955658480525017,,,,,,,,,
1739303310.8071988,-0.07085947180732624,1.041292866324987,-0.3957147063488765,-1.4641333298027293,1.5345632868614778,1.1817340978770516,1.355454434259711,7.576556359125837e-05,-0.0017818313193531878,0.0012360075166891816,-0.0010537990156978363,0.0006432291935805334,0.000595868980613452,8.8122387758237e-05,-0.05640812963247299,-50.34512710571289,-7.610672950744629,17.37921905517578,1.6890360116958618,-0.9601547718048096,0.03941498324275017,,,,,,,,,
1739303310.8182425,-0.07085962676410895,1.041296681804834,-0.3957184649064038,-1.4641329147367448,1.5345625789864932,1.1817334556129402,1.3554535683598203,0.000541899457276471,8.451201744407425e-06,-0.00019825865729178067,-0.0010025768049199612,-0.00044011150577845197,0.00043129654573094965,-0.00041150629452599014,-0.05640812963247299,-50.39670181274414,-7.563065528869629,17.40302276611328,1.6890360116958618,-0.9665634632110596,0.04673920199275017,,,,,,,,,
1739303310.8291996,-0.07086326090382415,1.0412929713438424,-0.3957204652244903,-1.4641295877888791,1.53456681769652,1.1817329932474638,1.3554487965856914,-2.174199754790369e-05,-0.0009211405135829212,-0.0009794989215307075,-0.0006443735164664946,0.0016148585835185072,-0.0011402339647352212,-0.0004694885143381504,-0.004833422601222992,-50.34512710571289,-7.535294532775879,17.35541534423828,1.6890360116958618,-0.9867050647735596,0.08610688149929047,,,,,,,,,
1739303310.8392491,-0.07085823798455301,1.0412947103555268,-0.3957184122521882,-1.4641313586934872,1.5345618197791457,1.1817351537018506,1.3554579263451285,0.000105315149211399,-0.0007119993244764927,-0.00010478737102361823,-5.638514471835356e-05,-0.0005520871134385107,0.00044706650417814897,0.0010368431102881657,-0.03260441869497299,-50.36893081665039,-7.563065528869629,17.37921905517578,1.6954447031021118,-0.9729721546173096,0.012864691205322742,,,,,,,,,
1739303310.8502514,-0.07086041888012387,1.0412946835376744,-0.3957148200442971,-1.4641331531441968,1.534563234173249,1.1817342134857656,1.3554512953811386,-0.000569235034161099,-0.000747672962088734,0.0010177650096237511,-0.0012261982332529208,0.0007629742442666226,0.0013127899090019468,-0.0015972989742569416,-0.05640812963247299,-50.36893081665039,-7.610672950744629,17.40302276611328,1.6954447031021118,-0.9729721546173096,0.06596527993679047,,,,,,,,,
1739303310.861199,-0.07086078554432199,1.0412973853237437,-0.39571660275716686,-1.4641316765485872,1.5345630346725,1.1817351096749376,1.355455988823066,-8.739778991009395e-05,0.0005806733349146788,0.0008002026707652035,-0.0015578795694961875,0.0003789661163081003,-0.0009884956076127152,0.000506991542619768,-0.03260441869497299,-50.39670181274414,-7.586869239807129,17.37921905517578,1.6762186288833618,-0.9729721546173096,0.026597600430250168,,,,,,,,,
1739303310.8712301,-0.0708590772335999,1.0412946809330486,-0.3957186945770694,-1.4641295879003873,1.5345618211429681,1.1817335586777367,1.3554504294825769,-0.00012995464972896366,-0.0006508789352952591,-0.0007213153902560412,0.0004717463009922432,-0.00023512753281084467,-0.00017172502546176612,-0.0017317958089920196,-0.05640812963247299,-50.36893081665039,-7.563065528869629,17.35541534423828,1.6954447031021118,-0.9867050647735596,0.07328949868679047,,,,,,,,,
1739303310.8821893,-0.07085947140991375,1.0412990659912011,-0.3957162590689045,-1.4641299046344993,1.5345610651158896,1.1817361375494082,1.3554535683598203,0.0001695407642331908,0.001854246326785471,-2.5854691011603935e-05,-4.878382953093515e-06,-0.0009961749440266726,-0.00032979321624984485,-0.0002925329848682541,-0.05640812963247299,-50.39670181274414,-7.563065528869629,17.37921905517578,1.7018533945083618,-0.9802963733673096,0.04673920199275017,,,,,,,,,
1739303310.8922393,-0.07085363051753583,1.0412945370597375,-0.39571838834161516,-1.4641276991245693,1.53456197830587,1.1817363221651198,1.3554535683598203,0.001992762433926441,-4.139740587623457e-05,-0.001148223192414392,5.8198418451864604e-05,0.0006945459391806662,0.0006960556357111548,-0.00022574514948048188,-0.10798283666372299,-50.39670181274414,-7.563065528869629,17.33161163330078,1.6954447031021118,-0.9802963733673096,0.04673920199275017,,,,,,,,,
1739303310.9032023,-0.07086318227067602,1.0412983854595186,-0.39571660039015005,-1.464129584844991,1.534564092851762,1.1817344082612864,1.3554576131714406,-0.0012500040566465636,0.00023761602701822333,-0.00018743816608555997,0.0006781729639176819,-0.0008113154515271156,-0.00045613324299841984,0.001255072544838121,-0.004833422601222992,-50.42050552368164,-7.586869239807129,17.35541534423828,1.6762186288833618,-0.9729721546173096,0.03941498324275017,,,,,,,,,
1739303310.9132233,-0.07086118436590917,1.041296114703047,-0.39571625953517575,-1.4641331502008075,1.5345618208378937,1.1817347465740977,1.3554486122016496,-0.0004116295834805092,-0.0001436046024835914,-0.0007007520322014804,-0.0004242934556992344,-2.522535171426625e-05,0.0010357236514316186,-0.0022090325189880215,-0.03260441869497299,-50.36893081665039,-7.563065528869629,17.40302276611328,1.6954447031021118,-0.9665634632110596,0.07969819009304047,,,,,,,,,
1739303310.9241645,-0.07086109375294974,1.0412967881407043,-0.39571660238514345,-1.4641295873541433,1.5345606130872007,1.181729460626673,1.3554559497327332,-0.00041988261572999607,0.0007736235288258153,0.00021578127300703892,0.00010514465523492133,-0.0011494247725525222,-0.000462032569376486,0.0007552509160116168,-0.03260441869497299,-50.39670181274414,-7.586869239807129,17.35541534423828,1.6698099374771118,-0.9601547718048096,0.026597600430250168,,,,,,,,,
1739303310.934257,-0.07085947184364363,1.0412966818072276,-0.39571659109242,-1.464126956028481,1.5345633365707896,1.1817321969167733,1.3554559495772118,4.238067413748278e-05,0.00022325589850587244,0.0006266556618934777,0.0010558081766120567,0.0011286052872600749,0.00022248124421073596,3.195522344573171e-05,-0.05640812963247299,-50.39670181274414,-7.586869239807129,17.35541534423828,1.6826273202896118,-0.9802963733673096,0.026597600430250168,,,,,,,,,
1739303310.945221,-0.07085939324899096,1.0412947106825758,-0.3957156664193997,-1.4641295962786378,1.5345632184204883,1.1817363686066518,1.3554496716603284,0.00030110330664871835,0.00025291324652302146,0.0022021882710761167,0.0002150969820041396,-0.00038646212221632534,0.00011759911130164997,-0.002197243087807137,-0.05640812963247299,-50.36893081665039,-7.586869239807129,17.35541534423828,1.6826273202896118,-0.9802963733673096,0.07969819009304047,,,,,,,,,
1739303310.9561732,-0.07086084107550752,1.0412946851729201,-0.3957165910871407,-1.4641295877902731,1.5345640943019865,1.1817305756985976,1.3554535681983138,0.00016727875406632097,-0.0005090500762440786,0.0005902953802335674,-0.0002205550509035648,0.0007589459615946645,-0.0013470425981114656,-0.00010958947603714874,-0.03260441869497299,-50.36893081665039,-7.586869239807129,17.35541534423828,1.6762186288833618,-0.9665634632110596,0.04673920199275017,,,,,,,,,
1739303310.966206,-0.07085573377168146,1.0412980777429364,-0.395715556816125,-1.464131369159049,1.5345621080322174,1.1817372302817057,1.3554551919171283,0.0015705957923314764,0.0009723830376140636,0.0006069410556194407,-0.00046674165965163356,-0.0008904659198766105,-0.0002680246355485801,0.0008438092682274136,-0.10798283666372299,-50.42050552368164,-7.563065528869629,17.37921905517578,1.6890360116958618,-0.9867050647735596,0.03300629183650017,,,,,,,,,
1739303310.977141,-0.07085905349970278,1.0412969113919008,-0.39571838149396926,-1.4641313704672367,1.5345628803118672,1.181733790090966,1.355449684903786,-0.0007465773624473798,-0.0007530182141959256,3.750911384519316e-05,-0.0003628285568055364,0.0008359338521437881,0.00031896678686225657,-0.0016807715856858895,-0.03260441869497299,-50.39670181274414,-7.563065528869629,17.37921905517578,1.6954447031021118,-0.9665634632110596,0.07969819009304047,,,,,,,,,
1739303310.9872148,-0.07085852475751367,1.0412982795359154,-0.39571828045145285,-1.4641295877902252,1.5345618213403527,1.1817356082323816,1.3554509421666565,0.0012059135101452959,0.0011634106513946983,-0.0006472669135473316,0.00014046063625485807,-0.0004877877471470382,0.0014260817986538137,-0.0008938785009436636,-0.05640812963247299,-50.42050552368164,-7.563065528869629,17.35541534423828,1.6954447031021118,-0.9729721546173096,0.06596527993679047,,,,,,,,,
1739303310.9973023,-0.07086008565886572,1.0412970261858747,-0.395716599839204,-1.4641278060580138,1.5345607573236388,1.1817316854038489,1.3554504149404283,5.703871502332609e-05,0.0007966908550936699,-0.00028689157606028606,0.0013003415325629104,-0.0016170436696267881,0.0009636293198784615,-0.0020731227509157694,-0.05640812963247299,-50.39670181274414,-7.586869239807129,17.33161163330078,1.6954447031021118,-0.9665634632110596,0.07328949868679047,,,,,,,,,
1739303311.008165,-0.07086118451371998,1.0413025380361667,-0.39571660275715054,-1.4641295877902305,1.534562578491974,1.181732955515446,1.3554543163040598,-0.0006839317263721142,0.0018953785420071046,0.0008259922851528281,-7.819341997300337e-05,-0.00021687374432400545,-0.0004240837277791469,0.00015614830916743693,-0.03260441869497299,-50.44827651977539,-7.586869239807129,17.35541534423828,1.6890360116958618,-0.9802963733673096,0.03941498324275017,,,,,,,,,
1739303311.0181713,-0.07086134220784156,1.0412947634827885,-0.3957175980641872,-1.4641313704672443,1.534561064146849,1.1817326579099559,1.3554583708295216,0.0002781890299628677,0.0005065101363534181,-0.00031416026221371614,-0.0003620548550071176,-0.000830084225590605,0.0008628686320410219,0.002085225561576966,-0.03260441869497299,-50.36893081665039,-7.563065528869629,17.37921905517578,1.7018533945083618,-0.9867050647735596,0.03300629183650017,,,,,,,,,
1739303311.0292447,-0.07086220018187302,1.041292299680131,-0.39571636523675086,-1.4641313694860978,1.5345628656923038,1.1817356241619346,1.3554576213169087,0.00024758817558246217,-0.0016334033938708002,0.0007942983337777079,-0.0010217441284826275,-0.0007730971170126853,-0.00041159735827091227,0.0010325180189130609,-0.004833422601222992,-50.36893081665039,-7.586869239807129,17.37921905517578,1.6826273202896118,-0.9729721546173096,0.012864691205322742,,,,,,,,,
1739303311.0401933,-0.07085852479175204,1.041300475647857,-0.39571838496570944,-1.4641278050041882,1.5345625658996587,1.1817323163900177,1.3554535421960066,0.0006706260576896632,0.002925959970062014,-0.0012038056617858853,9.597512962323325e-05,0.0005421216366885956,0.0006495013023447633,-0.0006859503992421182,-0.05640812963247299,-50.44827651977539,-7.563065528869629,17.33161163330078,1.6890360116958618,-0.9729721546173096,0.04673920199275017,,,,,,,,,
1739303311.0502422,-0.07086118045253935,1.0412929713452546,-0.3957148113315845,-1.4641295877902234,1.53456257882077,1.1817347318279112,1.3554575731339669,-0.0008859460662178349,-0.0006776099677726534,0.0001431348583173412,-0.00012823271762424777,-0.00035761706334227773,0.0016065425574666415,0.0005422409391467827,-0.03260441869497299,-50.34512710571289,-7.610672950744629,17.35541534423828,1.6890360116958618,-0.9665634632110596,0.012864691205322742,,,,,,,,,
1739303311.0611336,-0.07085947184515609,1.041294713298966,-0.3957183841380544,-1.4641313704672443,1.5345592463641318,1.1817367787840256,1.3554532816500215,-0.00025214060509710164,-0.0007896603151383569,-1.0836333462660333e-06,-0.0006956270112220167,-0.0017890628458959517,0.00021855583273625137,0.0013051071323827768,-0.05640812963247299,-50.36893081665039,-7.563065528869629,17.37921905517578,1.7082620859146118,-0.9867050647735596,0.05314789339900017,,,,,,,,,
1739303311.0712545,-0.07085936918371802,1.0412946662044367,-0.3957166027571451,-1.4641295877902252,1.5345610243985386,1.1817324859584266,1.3554489141697312,-0.0009909668243999956,-0.00030579914170898335,0.00020403407188499242,9.763164076061334e-05,-0.0005625830800013664,-0.0011836390197503728,-0.002193436656786595,-0.03260441869497299,-50.36893081665039,-7.586869239807129,17.35541534423828,1.7018533945083618,-0.9867050647735596,0.08610688149929047,,,,,,,,,
1739303311.0832338,-0.07086317352751957,1.041292538097262,-0.39571975561898093,-1.464132437888526,1.5345625789822754,1.1817344089909667,1.3554568154206066,-0.002029831199991423,-0.0009330701534607794,-0.0016754277919450906,-0.0008394307265065437,0.0006808010577449149,-0.0019137548366948657,0.001367856471386487,-0.004833422601222992,-50.36893081665039,-7.535294532775879,17.40302276611328,1.6890360116958618,-0.9729721546173096,0.019273381680250168,,,,,,,,,
1739303311.0932753,-0.07085915486215873,1.0412966816479587,-0.3957148199321331,-1.4641295877861875,1.534562984883416,1.1817340376019818,1.3554512430513357,0.0001702738191860099,9.018102464560695e-05,0.000875119456578976,-0.00012221057599701976,0.0010737164776593014,0.00017400908039373587,-0.0009526199567463934,-0.05640812963247299,-50.39670181274414,-7.610672950744629,17.35541534423828,1.6826273202896118,-0.9729721546173096,0.06596527993679047,,,,,,,,,
1739303311.1041937,-0.07086115805713172,1.0412966553144725,-0.3957166024331456,-1.4641352329341188,1.5345633366405895,1.1817356263303043,1.3554535683595248,-0.0008142826544463218,-0.00023492691444948298,-0.00011378125039377155,-0.001002755686718499,0.00016576710102692593,0.0034838059837791523,0.0017341193228528546,-0.03260441869497299,-50.39670181274414,-7.586869239807129,17.43079376220703,1.6826273202896118,-0.9729721546173096,0.04673920199275017,,,,,,,,,
1739303311.1151912,-0.07086118436576086,1.0412929714527093,-0.3957183394340591,-1.46412958735416,1.534562578982497,1.1817324820364354,1.3554543107052817,-0.0006925056168768495,8.06706771735885e-05,-0.0005290726616263435,0.00016345095045462005,-2.490329835083769e-05,0.0013322893575514923,-3.36094168995652e-05,-0.03260441869497299,-50.34512710571289,-7.535294532775879,17.35541534423828,1.6890360116958618,-0.9867050647735596,0.03941498324275017,,,,,,,,,
1739303311.1252003,-0.07085947281951108,1.041292971343848,-0.39571838532618475,-1.4641322633764795,1.534562578982497,1.181732105610294,1.3554533345756155,-0.0002037064126954094,-0.0013656975416928426,-7.684122251637115e-05,-0.0007642304862469917,0.0006354710903642493,-0.0004535812004323157,0.00032252219825414574,-0.05640812963247299,-50.34512710571289,-7.563065528869629,17.35541534423828,1.6890360116958618,-0.9473373889923096,0.012864691205322742,,,,,,,,,
1739303311.136128,-0.07085943676919564,1.0412929713075036,-0.39571660264916,-1.4641295877952598,1.5345618213224186,1.181734380213609,1.3554515840194752,6.055493685845284e-05,-0.0009075276903845364,-4.0085373646375606e-05,0.0007261521073565886,-0.00038433000984760304,0.0002739304519887698,-0.0014735517726374566,-0.05640812963247299,-50.34512710571289,-7.586869239807129,17.35541534423828,1.6954447031021118,-0.9665634632110596,0.05955658480525017,,,,,,,,,
1739303311.1461415,-0.07085734097853344,1.0412985630830418,-0.3957162594271804,-1.4641331443139456,1.534562578982497,1.1817340690358562,1.3554575311514796,-0.0004812270052574492,0.0011741148236173813,3.0969769034599884e-05,-0.0009625851105490629,0.0005335652579877251,0.0012468253335164627,0.0026622386707066442,-0.05640812963247299,-50.44827651977539,-7.563065528869629,17.40302276611328,1.6890360116958618,-0.9867050647735596,-0.013685601763427258,,,,,,,,,
1739303311.1571977,-0.07085947183314938,1.0412966827762473,-0.3957165998289805,-1.4641274420229633,1.53456257839031,1.1817308761191128,1.3554472899404664,-0.0001936553806206267,0.00013628304459982954,0.0006105658367583603,0.00027136298390187646,3.831900468311118e-05,-0.0024492648920563065,-0.0020814574458983665,-0.05640812963247299,-50.39670181274414,-7.586869239807129,17.35541534423828,1.6890360116958618,-0.9729721546173096,0.09983979165554047,,,,,,,,,
1739303311.1682556,-0.0708604740772256,1.041290973839071,-0.39571815805345456,-1.4641320591956895,1.534562578982487,1.181730259390919,1.3554542772736147,-0.0014419124818799436,-0.0007725800246871784,1.716555320504105e-05,-0.0006896491129561873,0.00042047906136549935,-0.0018902625740398623,-0.001147194687565625,-0.03260441869497299,-50.31735610961914,-7.563065528869629,17.37921905517578,1.6890360116958618,-0.9665634632110596,0.03941498324275017,,,,,,,,,
1739303311.1801362,-0.07086086770638057,1.0412975445604749,-0.3957183972075152,-1.4641313703595238,1.5345641117452569,1.1817372104087678,1.3554540810440474,-0.00040770603636981084,0.0014601613825898695,-3.126961982940032e-05,-8.994113049454343e-05,0.0011431758461222534,0.0008182477018842435,0.0001341745287588752,-0.03260441869497299,-50.36893081665039,-7.563065528869629,17.37921905517578,1.6762186288833618,-0.9867050647735596,0.03941498324275017,,,,,,,,,
1739303311.1901677,-0.070859471518613,1.0412966818215754,-0.3957175200271113,-1.464131374246474,1.5345603690643157,1.18173240812497,1.355457567318215,-0.0008159483051970634,0.0004710681656787433,0.00045805911400894494,-0.00017550852701004574,-0.0005048788547949517,0.00028577023358660993,0.0025991293370179985,-0.05640812963247299,-50.39670181274414,-7.563065528869629,17.37921905517578,1.6954447031021118,-0.9729721546173096,0.012864691205322742,,,,,,,,,
1739303311.2002146,-0.07086121034811449,1.0412977237829208,-0.3957152359395348,-1.4641278051132702,1.534562578957903,1.1817372435433648,1.355449836677526,-0.0006527128611723207,0.0007918015820614671,-0.0017740546485119732,0.0008125548432705761,-0.0015519791348310883,0.002134094733939405,-0.0019646054217456947,-0.03260441869497299,-50.39670181274414,-7.563065528869629,17.33161163330078,1.6890360116958618,-0.9867050647735596,0.03941498324275017,,,,,,,,,
1739303311.2111669,-0.07085876144838207,1.0412983825582829,-0.3957201471980688,-1.4641313704672443,1.5345640943026537,1.1817301154083484,1.3554559669938588,0.00022693590111053254,-2.4961799313562584e-05,-0.0009124961724568088,0.0005541983070342761,0.000853318825422744,-0.0005181038880560143,0.0012388429106009397,-0.05640812963247299,-50.42050552368164,-7.535294532775879,17.37921905517578,1.6762186288833618,-0.9665634632110596,0.026597600430250168,,,,,,,,,
1739303311.221177,-0.07085775931241635,1.0412980764345197,-0.3957183591831337,-1.4641313704672443,1.5345625920644492,1.181734942186929,1.3554504275441404,0.0007208632660138479,0.000447270284574507,0.00037506777340676857,-0.0006174529557313027,0.0008960263002457459,-0.0010696212627012026,-0.0022110393473504593,-0.08021184056997299,-50.42050552368164,-7.563065528869629,17.37921905517578,1.6890360116958618,-0.9802963733673096,0.07328949868679047,,,,,,,,,
1739303311.2321458,-0.07086318230676236,1.0412966818036322,-0.39571828045137136,-1.4641313665063198,1.5345592463642066,1.181733596453579,1.3554544336110192,-0.0017348023684387083,-0.0001381770759223552,-0.0001490122062382658,-0.00012896467470900692,-0.0016133360032176223,-3.3982457968172067e-05,-2.494079235676504e-05,-0.004833422601222992,-50.39670181274414,-7.563065528869629,17.37921905517578,1.7082620859146118,-0.9601547718048096,0.03941498324275017,,,,,,,,,
1739303311.242241,-0.07085704513843182,1.0412925380973617,-0.3957158941223901,-1.4641295868090116,1.5345633366246303,1.181731730397185,1.3554524531263703,0.00029076914176356434,-0.001043360232124952,0.0003709155037099025,-0.00046620254808310086,0.00017693695371136806,0.00022368212027839467,-0.0005924345296725569,-0.08021184056997299,-50.36893081665039,-7.586869239807129,17.35541534423828,1.6826273202896118,-0.9802963733673096,0.05314789339900017,,,,,,,,,
1739303311.2531931,-0.07085576235389524,1.0412887481508049,-0.39571531079894323,-1.4641278021697615,1.5345618213224186,1.1817312139424785,1.3554583307924697,0.0007168901494925004,-0.002700242728983536,0.0006891740082347752,0.0004446699870626688,-0.0006281387893520237,-9.369662414170522e-05,0.0017735065537957386,-0.10798283666372299,-50.31735610961914,-7.563065528869629,17.33161163330078,1.6954447031021118,-0.9665634632110596,0.0064559997990727425,,,,,,,,,
1739303311.26413,-0.07085936650897132,1.0412969202841216,-0.39571482002678926,-1.4641278188492395,1.5345640943026537,1.1817308579739771,1.3554503117443424,-0.0003794334735965239,0.0009085176736488613,-0.0003887447454774518,5.3237431732484105e-05,0.000651123896517398,-0.0011240253245477887,-0.00072306399206717,-0.05640812963247299,-50.39670181274414,-7.610672950744629,17.33161163330078,1.6762186288833618,-0.9729721546173096,0.07328949868679047,,,,,,,,,
1739303311.2741306,-0.0708611843641255,1.0412929713478811,-0.39572046522404075,-1.4641293492628624,1.5345625788209916,1.1817312505877628,1.3554526915066276,-0.0009348648401729311,-0.0012468400986308853,-0.000828263666752315,0.00025238664795174847,-0.0001531770437001302,-0.0001238616136780272,-0.0006566308523186586,-0.03260441869497299,-50.34512710571289,-7.535294532775879,17.35541534423828,1.6890360116958618,-0.9729721546173096,0.05314789339900017,,,,,,,,,
1739303311.2842107,-0.07086118306679881,1.0412949340569098,-0.3957219211803136,-1.4641331527041588,1.5345625615398915,1.1817359624240895,1.3554559495751906,-0.0003445430672197908,-0.0006285155013183437,-0.0006355083435897228,-0.0004418330833155882,-0.00042720381546318756,0.00036058837323350867,-0.0007561343079765569,-0.03260441869497299,-50.36893081665039,-7.511490821838379,17.40302276611328,1.6890360116958618,-0.9802963733673096,0.026597600430250168,,,,,,,,,
1739303311.294235,-0.07086058878716449,1.0412983148575352,-0.395716602751634,-1.4641295877902176,1.534559099543313,1.1817317413793065,1.3554485532510712,-0.0003918246094778733,-0.0006695488798189692,0.00014135974186972768,0.00012714052832298956,0.0002153068014969766,-0.0009230991421002401,-0.0015953888524764396,-0.08021184056997299,-50.42050552368164,-7.586869239807129,17.35541534423828,1.6826273202896118,-0.9802963733673096,0.05314789339900017,,,,,,,,,
1739303311.3051975,-0.07086097242746005,1.041296681804978,-0.39571447696718626,-1.4641256593459944,1.5345626682921087,1.1817301400380846,1.355453452784517,-0.001057544685904375,0.0003529711311486047,0.00048139855997625006,0.00110726836974496,0.00038633258573594095,-0.0006065779800442841,-0.0005096601804754074,-0.004833422601222992,-50.39670181274414,-7.586869239807129,17.33161163330078,1.6762186288833618,-0.9665634632110596,0.05955658480525017,,,,,,,,,
1739303311.3152568,-0.07086118422022566,1.0412956413544594,-0.3957164974144795,-1.4641274419866743,1.5345624481388254,1.181733142530636,1.3554504295056171,-0.0006244533342224549,-0.0005517856633293155,4.3286185843130075e-06,0.0009440602700592729,-0.0002837552494100168,0.0011977432743946427,0.00021987132530046545,-0.03260441869497299,-50.36893081665039,-7.586869239807129,17.35541534423828,1.6890360116958618,-0.9802963733673096,0.07328949868679047,,,,,,,,,
1739303311.3272066,-0.07086118436590855,1.0412985109948,-0.3957173605205083,-1.464131370455131,1.534562865691557,1.1817324409457524,1.3554525725074384,-0.0006459127931274036,0.0002481728502942626,-0.00019437413408617183,0.0005432531208165651,-0.0012475268331036897,3.204756581654706e-05,-0.0003364374544915366,-0.03260441869497299,-50.39670181274414,-7.563065528869629,17.37921905517578,1.6826273202896118,-0.9729721546173096,0.019273381680250168,,,,,,,,,
1739303311.3372078,-0.07085946210184918,1.0412930782991277,-0.39571827655748704,-1.4641313733016672,1.5345634936233434,1.1817311599546776,1.355454081020391,-0.0005322708401254438,-0.00035577404021787764,-0.0012308127724110097,-0.000656459485633304,0.0010592064808140366,-0.0018275809846380804,-0.00042391743080308976,-0.05640812963247299,-50.34512710571289,-7.563065528869629,17.37921905517578,1.6826273202896118,-0.9665634632110596,0.03941498324275017,,,,,,,,,
1739303311.3481977,-0.07085947184512317,1.0412908255772342,-0.3957163315513306,-1.4641278047861734,1.5345633366434615,1.1817308579736725,1.3554575731324159,-8.473343297043944e-05,-0.0015866544657296476,6.82802029534181e-05,0.0010925991662553238,0.00011437095696668621,-0.0009738215159082424,0.00020790575275875548,-0.05640812963247299,-50.34512710571289,-7.586869239807129,17.33161163330078,1.6826273202896118,-0.9729721546173096,0.012864691205322742,,,,,,,,,
1739303311.3582017,-0.07085559240807898,1.0412964432414924,-0.39571827169837115,-1.4641352326070645,1.5345618213224188,1.1817333330033595,1.3554535683598201,0.001978002634844949,-0.0002460001040985579,-0.00042322933210174433,-0.0013921678854002442,-0.0005782802980622112,-3.368765158673066e-05,0.0005800579442607201,-0.08021184056997299,-50.39670181274414,-7.563065528869629,17.43079376220703,1.6954447031021118,-0.9665634632110596,0.04673920199275017,,,,,,,,,
1739303311.3682308,-0.07086126314191808,1.041296251498345,-0.3957166027552409,-1.4641313351459677,1.5345634543801454,1.1817301048845146,1.3554551933706813,0.00032431909886002655,0.0003579001574776825,0.00023327368886006276,-0.0001071989562039683,0.0014058232096924314,-0.0019325647158329527,0.000593391029510111,-0.03260441869497299,-50.42050552368164,-7.586869239807129,17.37921905517578,1.6826273202896118,-0.9665634632110596,0.03300629183650017,,,,,,,,,
1739303311.3791866,-0.07085947184651226,1.0412908254313253,-0.3957176738850019,-1.4641295864814317,1.5345610636643343,1.181730975705338,1.3554591966917453,-0.00015188418482680298,-0.001305578973976216,-0.0006633314626443409,0.0003276566941735848,0.001095876343212955,-0.0010598461906422133,0.0024044108067172733,-0.05640812963247299,-50.34512710571289,-7.563065528869629,17.35541534423828,1.7018533945083618,-0.9729721546173096,-0.0008682189509272575,,,,,,,,,
1739303311.3892121,-0.07085947184517818,1.0412983946047543,-0.3957137682211543,-1.4641282419639003,1.5345625788209916,1.1817317632729498,1.3554585550720002,0.00044275718014988064,0.0012800062250895015,-0.00047340689395234173,0.0007346778717098657,-1.3010971154089315e-05,-7.022071111921062e-05,0.001198112926240891,-0.05640812963247299,-50.42050552368164,-7.586869239807129,17.30384063720703,1.6890360116958618,-0.9802963733673096,0.03941498324275017,,,,,,,,,
1739303311.4001937,-0.07085947180909177,1.0412967043717958,-0.395716602741166,-1.4641274420372197,1.5345624605989039,1.1817324820097403,1.3554535683830822,-0.00014661256264161614,0.0008415085013916386,-0.00092566586744592,0.00036603993931442114,-0.00098555514343499,-0.0003902323072082882,0.00042726004798931044,-0.05640812963247299,-50.39670181274414,-7.586869239807129,17.35541534423828,1.6890360116958618,-0.9867050647735596,0.04673920199275017,,,,,,,,,
1739303311.4111812,-0.07085947180909158,1.0412968283237178,-0.39571842353174147,-1.4641310526686713,1.5345640943019856,1.181731736946878,1.3554583307944883,0.0005006302827240715,-0.0003239670710677179,-0.00042958891721813755,-1.158820530355989e-05,0.0011827701421492653,-6.68436742050997e-05,0.0020509035028154045,-0.05640812963247299,-50.36893081665039,-7.586869239807129,17.37921905517578,1.6762186288833618,-0.9802963733673096,0.0064559997990727425,,,,,,,,,
1739303311.4211981,-0.07085734097912563,1.0412966819143765,-0.3957195204725479,-1.4641295823959433,1.534562578982497,1.1817325338534748,1.355450428691289,-0.00016193406869925204,-0.00112412014263358,-0.0013057983897556676,-0.00032455204547412705,0.0008239642697517973,0.0003634022893331801,0.0009835359490553914,-0.05640812963247299,-50.39670181274414,-7.535294532775879,17.35541534423828,1.6890360116958618,-0.9867050647735596,0.04673920199275017,,,,,,,,,
1739303311.432125,-0.07085775920415897,1.0412950003388015,-0.3957194328891544,-1.4641313704672136,1.534562880960548,1.1817324858859475,1.3554575750547535,0.00011488623684362276,-8.791107890502125e-05,-0.00041489179065153764,-0.0004712205022956956,0.0015506550132141713,0.000668012537868055,0.002156300129233824,-0.08021184056997299,-50.36893081665039,-7.535294532775879,17.37921905517578,1.6954447031021118,-0.9867050647735596,0.012864691205322742,,,,,,,,,
1739303311.4422252,-0.07085947144822706,1.0412966818072131,-0.3957186228748759,-1.464127804677141,1.5345593863461162,1.1817352559920455,1.3554511253137769,0.00037169071189245583,-0.0004138238111417267,-0.0010231596487708184,0.00032539446019966473,-0.0008989099045373678,-0.00041268090695180734,-0.0007279039078377385,-0.05640812963247299,-50.39670181274414,-7.563065528869629,17.33161163330078,1.6890360116958618,-0.9802963733673096,0.06596527993679047,,,,,,,,,
1739303311.4541922,-0.07085696719179763,1.0412946011212258,-0.3957138719972839,-1.464133073671401,1.53456111330131,1.1817317282455129,1.3554511732799641,0.000906983260694181,-0.0005710219192219274,0.0008075247293861335,-0.0012395414293024081,-0.0007676760426810328,-0.0005678512909881453,-0.0014627207026396884,-0.08021184056997299,-50.36893081665039,-7.610672950744629,17.40302276611328,1.6890360116958618,-0.9802963733673096,0.06596527993679047,,,,,,,,,
1739303311.464198,-0.07086117234466534,1.0412966549869576,-0.3957147821643887,-1.4641295874627276,1.5345598557418627,1.1817325994241015,1.3554503902353665,-0.00048537632030675387,-0.0005939447692412572,0.0008986997142332021,4.344515784024806e-05,-0.000992869371536117,0.0005215094789819874,-0.0002161771612907001,-0.03260441869497299,-50.39670181274414,-7.610672950744629,17.35541534423828,1.6762186288833618,-0.9867050647735596,0.07328949868679047,,,,,,,,,
1739303311.474239,-0.07086101636411658,1.041296681804064,-0.3957160204060779,-1.4641267267672593,1.5345600561366788,1.1817317282315636,1.3554497890728932,-0.0009466262684983136,-0.0003373013143308555,-0.0007377408015608326,0.001014084197081772,-0.0014740017003545154,0.0002294442244437481,0.00032975413738193116,-0.004833422601222992,-50.39670181274414,-7.563065528869629,17.35541534423828,1.7018533945083618,-0.9802963733673096,0.07969819009304047,,,,,,,,,
1739303311.485204,-0.07085947179686497,1.0412983943261578,-0.3957165750580583,-1.464131370414755,1.5345621745294409,1.1817296973138187,1.3554512953798066,-0.00042035811940948617,0.0007204839624265916,0.0007038215148219076,-0.00044811189360031696,7.486697164833645e-05,0.001664437634920428,0.00032360416316317656,-0.05640812963247299,-50.42050552368164,-7.586869239807129,17.37921905517578,1.6954447031021118,-0.9601547718048096,0.06596527993679047,,,,,,,,,
1739303311.4971886,-0.07085744353232831,1.0412983766655224,-0.395714819972089,-1.4641331253451146,1.5345633366432399,1.181730857968358,1.3554496718038889,0.0008052620006104886,0.0015610717013704305,0.0005694086262482674,0.0003986237380103284,0.0007879042790414931,-0.0001495853854832079,-0.001139147711597072,-0.08021184056997299,-50.42050552368164,-7.610672950744629,17.40302276611328,1.6826273202896118,-0.9729721546173096,0.07969819009304047,,,,,,,,,
1739303311.508152,-0.07086106744536724,1.0412969202118596,-0.39571838250599994,-1.4641313714119997,1.5345618736681725,1.181732788079044,1.3554559490926925,-0.000258263720656145,0.0006633085178255893,-0.00055247640086662,-0.0010192420271303473,-4.2222491503818964e-05,7.66579760754693e-05,0.0012775873620604102,-0.03260441869497299,-50.39670181274414,-7.563065528869629,17.37921905517578,1.6954447031021118,-0.9802963733673096,0.026597600430250168,,,,,,,,,
1739303311.5181596,-0.07086047407524573,1.0412946851768063,-0.39571652402011753,-1.4641295902976152,1.5345650569261526,1.1817320770956554,1.3554488755788177,0.0005046592392897423,-0.0008576272115575292,-0.0006298180118061516,0.00036219433350209615,0.0009732108072891104,0.0009603514095449816,-0.001274341276898098,-0.03260441869497299,-50.36893081665039,-7.586869239807129,17.35541534423828,1.6954447031021118,-0.9802963733673096,0.05955658480525017,,,,,,,,,
1739303311.5291994,-0.07085939292020373,1.0412983933450188,-0.39571660275672255,-1.4641295877902394,1.5345625790545974,1.1817343388621238,1.3554543164477106,0.00010482311015755277,0.0009015357886434097,-0.0004573916958477086,-0.00033128700594309453,0.00099415372816717,0.0003284588493383401,0.0007477329196931173,-0.05640812963247299,-50.42050552368164,-7.586869239807129,17.35541534423828,1.6890360116958618,-0.9665634632110596,0.03941498324275017,,,,,,,,,
1739303311.5402021,-0.07086118436457278,1.0412929447438564,-0.39571652402016716,-1.464128509444295,1.5345617820765634,1.181730858039471,1.3554575729709093,-7.012118904797525e-05,-0.0008107677559873916,-0.00033894664728980635,-0.0002382466126865202,9.184160488160534e-05,0.0005513608208254325,0.0022161331936573314,-0.03260441869497299,-50.34512710571289,-7.586869239807129,17.37921905517578,1.6954447031021118,-0.9729721546173096,0.012864691205322742,,,,,,,,,
1739303311.5502648,-0.07085947184517817,1.0412988275724884,-0.3957183812214742,-1.4641295877377358,1.5345639918869498,1.1817340368820792,1.355453661328721,-0.00018864290555218997,-6.841134547778422e-05,-0.0006941277413432727,0.0002506440815819871,0.000981411990775715,0.00015058524550070276,6.615561427276943e-05,-0.05640812963247299,-50.39670181274414,-7.563065528869629,17.35541534423828,1.6890360116958618,-0.9729721546173096,0.03300629183650017,,,,,,,,,
1739303311.5621912,-0.0708594601531834,1.0412966906478573,-0.39571692064858205,-1.4641313704672438,1.5345633366505513,1.181730571275837,1.3554527976091493,-0.0006797642216622556,-0.0007831612487947178,-0.0002507146912645079,0.00019345286803062187,0.002191482424450761,-0.0005339789535990784,-0.0005610102571476755,-0.05640812963247299,-50.39670181274414,-7.586869239807129,17.37921905517578,1.6826273202896118,-0.9665634632110596,0.05314789339900017,,,,,,,,,
1739303311.573116,-0.07086365583252947,1.0412981559197083,-0.39571814921178383,-1.4641295877902252,1.5345610636443954,1.1817308579685768,1.3554480482465536,-0.0015516862177043505,-0.00036434940531092233,-0.001086895622080758,0.0005423325883114948,-0.0005871298013411302,-0.000638904154222177,-0.003333436234698353,-0.004833422601222992,-50.42050552368164,-7.563065528869629,17.35541534423828,1.7018533945083618,-0.9729721546173096,0.09343110024929047,,,,,,,,,
1739303311.583158,-0.07085923509030286,1.0412991095778577,-0.3957183825140005,-1.4641313704672443,1.5345625833431475,1.1817308579676908,1.3554489664895641,0.0005222627512195888,0.00021205208295745951,-0.00010867651440820509,-0.0004043783727226379,0.00033880894443715404,0.0006912902776135451,-0.0012971812973959068,-0.05640812963247299,-50.42050552368164,-7.563065528869629,17.37921905517578,1.6890360116958618,-0.9729721546173096,0.08610688149929047,,,,,,,,,
1739303311.5942028,-0.07085923497268795,1.0412966827906107,-0.39571367782341393,-1.4641313586934872,1.5345625789825217,1.181730139553469,1.3554558318399348,-0.00013853082006047386,-0.00020800839020994745,0.0006218959794616382,-0.00038437063947313437,0.0007725640477239716,0.0005552926231024404,0.0009306161459195137,-0.05640812963247299,-50.39670181274414,-7.586869239807129,17.37921905517578,1.6890360116958618,-0.9665634632110596,0.026597600430250168,,,,,,,,,
1739303311.6052136,-0.07086118436457223,1.0412967653118939,-0.39571841154860515,-1.4641313704671777,1.534564081059196,1.1817317238651446,1.355454316518818,0.00021442427999547142,0.000562453083718239,-0.0017636205032785614,-0.0002804156343474111,0.00017939326883575901,-0.00018214624066920315,0.0008157480065088951,-0.03260441869497299,-50.39670181274414,-7.563065528869629,17.37921905517578,1.6762186288833618,-0.9802963733673096,0.03941498324275017,,,,,,,,,
1739303311.6161556,-0.07086044484723882,1.0412944047992276,-0.3957194314905458,-1.464129590624648,1.534561350372064,1.1817308579676908,1.355451710970192,0.0003008531218768235,-0.0015613620799144693,-0.0006039994582136942,0.00018294484239914625,-0.0012812623027765972,0.0004965753631527592,-9.284420538432513e-05,-0.03260441869497299,-50.34512710571289,-7.535294532775879,17.35541534423828,1.6954447031021118,-0.9729721546173096,0.026597600430250168,,,,,,,,,
1739303311.6271794,-0.07086107815944875,1.0412929713519343,-0.39571625864148025,-1.4641330471804663,1.5345607098009497,1.1817324815250014,1.355454885554502,-0.0004866772277512785,-0.0005177335641781818,0.0002127642188447068,-0.001102340129365637,-0.0007082911843084432,-0.00035372504771919675,0.0015244737120996723,-0.03260441869497299,-50.34512710571289,-7.586869239807129,17.40302276611328,1.7018533945083618,-0.9867050647735596,0.026597600430250168,,,,,,,,,
1739303311.6372042,-0.07085913277553062,1.041293201368169,-0.3957165994031268,-1.4641295877884306,1.5345625789765045,1.1817317238649232,1.3554520530216443,0.000293818699496767,-0.0009743445026254795,0.00034917441963890647,-3.226560149372317e-05,-0.00037591605846661513,6.519725740182165e-05,-0.001051310272076605,-0.05640812963247299,-50.34512710571289,-7.586869239807129,17.35541534423828,1.6890360116958618,-0.9802963733673096,0.05955658480525017,,,,,,,,,
1739303311.6482255,-0.07086318133051547,1.041294728017461,-0.3957183821939614,-1.4641295521419053,1.5345618213224186,1.1817317238649232,1.3554571161440017,-0.0018456812230682935,-0.0010415631662897109,0.0003761547628863773,0.0006211823301931299,-0.0005331480904482317,0.00024699352407471883,0.00047357176538418116,-0.004833422601222992,-50.36893081665039,-7.563065528869629,17.35541534423828,1.6954447031021118,-0.9802963733673096,0.019273381680250168,,,,,,,,,
1739303311.6591508,-0.07085947173691345,1.041298313872401,-0.3957165765114821,-1.4641295759072506,1.5345618198688684,1.1817324815250014,1.3554517108648836,-7.98952430770152e-05,-0.00027936540171363816,-0.000334599397286667,0.0008784960443469102,-0.0005422949130860948,0.00021207812922477106,-0.0008828562313641362,-0.05640812963247299,-50.42050552368164,-7.586869239807129,17.35541534423828,1.6954447031021118,-0.9867050647735596,0.026597600430250168,,,,,,,,,
1739303311.6712472,-0.07085946783958676,1.0413003922665567,-0.3957183023767637,-1.464130412868275,1.5345625784979722,1.1817317238649232,1.3554559495532816,0.0007440065119054984,0.0021989238052625144,-0.000392217156119686,0.0009585208126937673,0.00042484089650197493,-0.000224217637546271,0.0029714817264023677,-0.05640812963247299,-50.44827651977539,-7.563065528869629,17.37921905517578,1.6890360116958618,-0.9802963733673096,0.026597600430250168,,,,,,,,,
1739303311.6831334,-0.07086118432981543,1.0412963344795954,-0.39571410809878005,-1.4641294817999357,1.5345641067385827,1.1817317238649232,1.3554520530396634,-0.0015721583655236957,-0.0007113400268966124,0.0004386390832692433,0.0003597041509968134,4.03831581615899e-05,0.00012978093920743927,-7.802531753537061e-05,-0.03260441869497299,-50.39670181274414,-7.610672950744629,17.35541534423828,1.6762186288833618,-0.9802963733673096,0.05955658480525017,,,,,,,,,
1739303311.6931973,-0.07086094760301465,1.041296681803466,-0.39571838413408467,-1.46413136654206,1.534564983999591,1.1817308579676908,1.3554543418922131,-2.7984927460465952e-05,0.0002418769887839102,-0.0005700049765083911,0.00045271382488311254,0.0001279889221477328,-0.0004224373027237337,0.0015070607121286774,-0.03260441869497299,-50.39670181274414,-7.563065528869629,17.37921905517578,1.6826273202896118,-0.9729721546173096,0.012864691205322742,,,,,,,,,
1739303311.7032268,-0.0708614182017956,1.0412908255766304,-0.39571659951693927,-1.4641292233917707,1.5345618689944638,1.1817301003076124,1.3554555946947222,-0.0005750105089683388,-0.0019438458679844205,-0.0009831078847378047,0.00024289437529655608,0.00020555662478879058,-0.00047456047735308253,0.00024227335169777257,-0.03260441869497299,-50.34512710571289,-7.586869239807129,17.37921905517578,1.6954447031021118,-0.9665634632110596,0.026597600430250168,,,,,,,,,
1739303311.7141852,-0.07085290853818486,1.041298473750566,-0.39571838446210605,-1.4641267268237954,1.5345618213226877,1.1817274853124058,1.3554568154724382,0.002251147216537782,0.0008668860287799182,-0.00039434679260152354,0.0007339467228109416,0.0006264895667078758,-0.000987023552214806,0.0015523376302827093,-0.10798283666372299,-50.42050552368164,-7.563065528869629,17.35541534423828,1.6954447031021118,-0.9802963733673096,0.019273381680250168,,,,,,,,,
1739303311.7251859,-0.07086110507185371,1.0412946838659187,-0.3957155509021736,-1.4641278050647555,1.5345633361580586,1.1817308578959105,1.3554485716627076,0.00025924632851040776,-5.221182414356156e-05,-0.00015693639059692925,0.0006185603889505764,0.0014409743266383102,-0.0007213654787627652,-0.001115992896368036,-0.03260441869497299,-50.36893081665039,-7.563065528869629,17.33161163330078,1.6826273202896118,-0.9729721546173096,0.05314789339900017,,,,,,,,,
1739303311.735256,-0.07085947086950242,1.0412930773076554,-0.3957165910444233,-1.4641277933394483,1.5345557142370267,1.181732481525,1.3554496717500455,0.0013674806214784543,-0.0010060470024664896,0.0002703552412398371,0.0006721451641541806,-0.002190440167610474,-0.0006842275192406084,-0.000718423760111019,-0.05640812963247299,-50.34512710571289,-7.586869239807129,17.33161163330078,1.7082620859146118,-0.9867050647735596,0.07969819009304047,,,,,,,,,
1739303311.7461224,-0.07085576152793771,1.0412970291314574,-0.3957162834888711,-1.464127442022991,1.5345640942940135,1.181731723864923,1.355455139589322,0.0007284029509546896,0.0009770402947965353,0.0003982676272811449,-0.00046943296419553547,0.001923246743258717,3.236582151531936e-05,0.000972921861080404,-0.10798283666372299,-50.39670181274414,-7.586869239807129,17.35541534423828,1.6762186288833618,-0.9802963733673096,0.03300629183650017,,,,,,,,,
1739303311.756127,-0.0708648961266066,1.0412994009882628,-0.39571909420339085,-1.4641331266169715,1.5345618256830693,1.1817301003076122,1.3554536234772152,-0.001995669206270711,0.0024317913222338342,-0.0012646352857947371,-0.0010500246352768956,-0.0005835863373196167,-0.00082669831669208,0.0013031847059874872,0.018970288336277008,-50.42050552368164,-7.511490821838379,17.40302276611328,1.6954447031021118,-0.9665634632110596,0.019273381680250168,,,,,,,,,
1739303311.7661917,-0.07085775921620978,1.0412966818224745,-0.3957173068340755,-1.4641313704667949,1.5345668176965939,1.181731723864923,1.355454432264929,0.0007035880338853496,8.537130134062167e-05,0.00023390812553885753,-0.0005825128179444269,0.0016815709022899195,-0.0001962155668760936,0.0007680541305395005,-0.08021184056997299,-50.39670181274414,-7.535294532775879,17.37921905517578,1.6890360116958618,-0.9802963733673096,0.03941498324275017,,,,,,,,,
1739303311.7761953,-0.07085947195343556,1.041292971452859,-0.39571557037412536,-1.464127803805011,1.534563321446106,1.1817293428090396,1.3554496718218003,-0.00025463320307610654,0.00022691433594424051,0.0003676310816881384,0.0010342462788762794,0.00047961889481461977,-0.000797259812337137,-0.0018430801100349607,-0.05640812963247299,-50.34512710571289,-7.586869239807129,17.33161163330078,1.6698099374771118,-0.9601547718048096,0.07969819009304047,,,,,,,,,
1739303311.787228,-0.07086047407722641,1.0412961144123876,-0.3957103781744679,-1.4641304167929203,1.534562565891905,1.1817312111804015,1.3554544342570525,-0.0003264893272226187,-2.9711401672872725e-05,0.002065504481872742,-0.00046041184983921076,0.000623285491011744,7.880026857133246e-05,0.00012620106789697506,-0.03260441869497299,-50.36893081665039,-7.638443946838379,17.37921905517578,1.6890360116958618,-0.9729721546173096,0.03941498324275017,,,,,,,,,
1739303311.7972314,-0.07086317352573752,1.0412983943503844,-0.3957119845360876,-1.4641254204751997,1.534561821322197,1.181729798335543,1.3554536359140312,-0.0016846506320563146,0.0012695996668969987,-9.100971800427699e-05,0.0006558420010122209,-0.00016215841421098016,-0.0010628113370780184,1.2376719924367223e-05,-0.004833422601222992,-50.42050552368164,-7.610672950744629,17.33161163330078,1.6954447031021118,-0.9729721546173096,0.019273381680250168,736,750,732,40.848,0,0
1739303311.808676,-0.07085779440038179,1.0412982478079944,-0.3957155777200703,-1.4641274063612322,1.5345640943026537,1.181733239179098,1.355454381911295,-0.00026132787505271475,0.0009177715818868517,-0.00017772540007751744,0.0002537437110921673,0.0009975651700334424,0.0005040611515208161,-0.000261532547322003,-0.08021184056997299,-50.44827651977539,-7.586869239807129,17.35541534423828,1.6762186288833618,-0.9931137561798096,0.03941498324275017,736,751,732,40.740,0,0
1739303311.8191652,-0.07086315567519452,1.0412966814299336,-0.395718110334931,-1.4641267257374766,1.5345618213224186,1.181731723864923,1.3554496718215383,-0.0009408055714841475,-0.0007612537279952926,-0.0011702008905489674,0.0008716325354258315,0.0005933366621896291,4.500000451836563e-05,0.000381366531382878,-0.004833422601222992,-50.39670181274414,-7.563065528869629,17.35541534423828,1.6954447031021118,-0.9802963733673096,0.07969819009304047,736,751,733,40.631,0,0
1739303311.8291698,-0.07085948656797987,1.0412946720908103,-0.39571657521075926,-1.4641267149450496,1.5345618213224186,1.1817324815250012,1.3554538711284947,8.725420171099224e-05,-0.0006073422208164553,-0.0001732636924984941,0.0009547229717915311,-0.00011466477301934406,0.0003910022885502582,0.0005487115583453161,-0.05640812963247299,-50.36893081665039,-7.586869239807129,17.35541534423828,1.6954447031021118,-0.9867050647735596,0.07969819009304047,736,751,733,40.848,0,0
1739303311.840137,-0.07086021100742611,1.0412966819143765,-0.3957164977383427,-1.4641277961576549,1.5345610631778237,1.1817324815250012,1.3554537548058454,0.001286188145114164,0.00046296748136770774,-0.00047562207901099846,0.0009430492875948211,-0.0008156301092704112,0.0004947107051167848,0.0015486386040619786,-0.03260441869497299,-50.39670181274414,-7.586869239807129,17.33161163330078,1.7018533945083618,-0.9867050647735596,0.019273381680250168,736,752,733,40.740,0,0
1739303311.8502486,-0.07086041011127628,1.0412955757266678,-0.39571830637138716,-1.464132209238262,1.5345586424080224,1.1817340368820788,1.3554512552908318,-0.0001897006237894459,-0.0006296853944416063,-0.0011836164201934542,-6.517917320710676e-06,-0.0004592230038451877,0.00023941571604911246,0.0009686682431254076,-0.05640812963247299,-50.36893081665039,-7.563065528869629,17.37921905517578,1.6954447031021118,-0.9729721546173096,0.03941498324275017,736,751,733,40.848,0,0
1739303311.8612616,-0.07085744353762495,1.0412966860620956,-0.3957204651155885,-1.4641313704719792,1.5345625397186953,1.1817317195222174,1.355450389427487,0.0016298140973063744,-0.0003739048176209518,-0.0014264608896007722,0.0003138643055931357,0.0006090516797279777,3.7889356641839456e-05,-0.0004443289368073165,-0.08021184056997299,-50.39670181274414,-7.535294532775879,17.37921905517578,1.6890360116958618,-0.9802963733673096,0.04673920199275017,734,751,732,40.740,0,0
1739303311.8721998,-0.07086294651641818,1.04129624855897,-0.39571341731088694,-1.4641313704672443,1.5345596508112795,1.1817305072433426,1.3554559481057138,-0.0009276285068654346,-0.00032248568938655713,0.0015499798449377337,3.024994667894662e-05,-0.0013546362730576442,-0.00044001426898301497,0.003234283230831349,-0.004833422601222992,-50.42050552368164,-7.586869239807129,17.37921905517578,1.7018533945083618,-0.9802963733673096,0.026597600430250168,737,752,732,40.740,0,0
1739303311.8831503,-0.07086094760168381,1.0412969244635273,-0.3957173605391233,-1.4641313704672443,1.5345593942459326,1.1817301003007443,1.3554528106997334,-0.0007003269894224728,0.00042619361615943446,-0.00033302784396730653,-0.0007072057118430056,-0.0008033121492049984,-0.0005744962495499383,0.0010717416362754943,-0.03260441869497299,-50.39670181274414,-7.563065528869629,17.37921905517578,1.6890360116958618,-0.9665634632110596,0.05314789339900017,737,751,733,40.631,0,0
1739303311.8941996,-0.07085945982706922,1.04129668082565,-0.3957180587076534,-1.4641295877902252,1.5345622256979743,1.181731723864923,1.3554520137938069,0.0005163189363709272,0.0007823834174518652,-0.00010081044758125487,-0.0001676203462332376,-0.0011889664217242986,4.144997237378665e-05,-0.0005454539300839803,-0.05640812963247299,-50.39670181274414,-7.563065528869629,17.35541534423828,1.6890360116958618,-0.9802963733673096,0.05955658480525017,736,752,732,40.740,0,0
1739303311.904309,-0.07085752256134893,1.0412918234957054,-0.39571262363735205,-1.4641330618976467,1.5345625775229639,1.1817308579676906,1.3554559490920277,0.0009421116785537143,-0.0011102394724735497,0.001038333513889877,-0.0003488021477271693,-0.000807721471175564,-1.0051251154752292e-06,0.0014990897221216477,-0.08021184056997299,-50.36893081665039,-7.638443946838379,17.40302276611328,1.6890360116958618,-0.9729721546173096,0.026597600430250168,737,751,737,41.065,0,0
1739303311.9151816,-0.07086118425631363,1.0413015115211912,-0.3957165939719507,-1.4641304128678272,1.5345625789824888,1.181731723864923,1.3554561601220625,6.5818810239017e-05,0.0015863900858824975,-0.0007955489677894323,0.000913877313718933,0.000346245481408265,0.0006322890414332999,0.0003761368732265156,-0.03260441869497299,-50.42050552368164,-7.586869239807129,17.37921905517578,1.6890360116958618,-0.9802963733673096,0.012864691205322742,736,751,734,40.848,1,0
1739303311.9252121,-0.07086117559691142,1.0413026176688887,-0.3957165200237646,-1.4641292207592296,1.5345618213224186,1.1817308579676906,1.3554544337486063,-0.0008740791534811266,0.0020359855602579665,-0.000844621387668532,0.0004918046267155857,0.0003431131867649632,-4.745377092546509e-05,0.000702782224759631,-0.03260441869497299,-50.44827651977539,-7.586869239807129,17.37921905517578,1.6954447031021118,-0.9729721546173096,0.03941498324275017,738,752,733,40.848,1,0
1739303311.9361875,-0.07085905349980916,1.0412966819270053,-0.3957204375738188,-1.464129221744458,1.5345610505803882,1.181731723864923,1.3554496710312074,-0.0007067064072641965,0.0008908440062092879,-0.0005362330820520794,0.0005535738706705741,0.0007750791594360264,0.00019949550130655687,-0.0013443436123366278,-0.03260441869497299,-50.39670181274414,-7.535294532775879,17.37921905517578,1.7018533945083618,-0.9802963733673096,0.05314789339900017,738,753,732,40.848,1,0
1739303311.946208,-0.07085876141214899,1.0412959694931305,-0.39571407645245854,-1.4641274872903574,1.534559686777686,1.1817308579676906,1.3554442044442825,0.0011233774717026687,8.59952248980377e-05,-6.15137739086182e-05,0.0010630959625177031,0.00018117941040356677,-0.0001147171883731633,-0.003036783090137452,-0.05640812963247299,-50.39670181274414,-7.610672950744629,17.33161163330078,1.6826273202896118,-0.9729721546173096,0.08610688149929047,737,748,732,40.848,1,0
1739303311.956223,-0.0708594676110377,1.041296390392878,-0.395716563538084,-1.464129261063086,1.534563330282047,1.181731723864923,1.3554520508603314,-0.00021744662772912242,-0.0005401889442715078,0.0007065981315155425,0.0013884657649314274,0.0007840703197764265,0.00023122512763168994,-0.001552276408577268,-0.05640812963247299,-50.39670181274414,-7.586869239807129,17.35541534423828,1.6826273202896118,-0.9802963733673096,0.05955658480525017,738,750,734,40.740,1,0
1739303311.9681306,-0.07086142011836069,1.0412946809194894,-0.39572045355907953,-1.464127805075023,1.5345631796591128,1.181731723864923,1.3554572199216879,-0.0007037249320334992,-0.0015465257639579498,-0.0009200696744414266,0.0005249384555418533,0.00032592700090566004,0.00015321428518146838,0.0010781920223443373,-0.03260441869497299,-50.36893081665039,-7.535294532775879,17.33161163330078,1.6826273202896118,-0.9802963733673096,0.012864691205322742,737,751,733,40.740,0,0
1739303311.9782615,-0.0708611843672402,1.0412988278996709,-0.3957197575721232,-1.4641276901737204,1.5345615237041323,1.1817308579676906,1.3554536025801056,-0.00043354471385114986,0.00046993154297117186,-0.0008889711533203909,0.0011864037543513864,0.0005451588853858542,-0.00010184153587929981,-0.0007516026216485927,-0.03260441869497299,-50.39670181274414,-7.535294532775879,17.33161163330078,1.6890360116958618,-0.9729721546173096,0.07328949868679047,738,751,732,40.740,1,0
1739303311.9891922,-0.07085947184517818,1.0412946848941735,-0.39571660145709003,-1.4641296639919479,1.5345582212329025,1.1817305047549809,1.3554517114194504,-0.0004131707601743599,-0.0011639011343225344,-0.00012744566617796122,-0.00028298087499424997,-0.0015742394757120054,0.0007665418395210475,-0.0003945648431784097,-0.05640812963247299,-50.36893081665039,-7.586869239807129,17.35541534423828,1.6890360116958618,-0.9729721546173096,0.026597600430250168,736,751,733,40.848,0,0
1739303311.9992087,-0.07085939292421334,1.0412983943261753,-0.3957165755394167,-1.4641351531355007,1.5345617994453662,1.1817350965142264,1.355452811112485,4.1270572716923734e-05,0.0005858371699896446,4.3605656633070725e-05,-0.0013905709300399845,-0.0013452977646346955,0.001136891272606704,-0.00016458693945491603,-0.05640812963247299,-50.42050552368164,-7.586869239807129,17.43079376220703,1.6954447031021118,-0.9729721546173096,0.05314789339900017,736,752,733,40.740,1,0
1739303312.010209,-0.07086117559646776,1.0412977107009682,-0.39571830658902574,-1.4641313704667938,1.5345649609908265,1.181730100331539,1.3554497647369028,-0.0002923715318554198,0.00019931062806151072,-0.000638468728710083,-0.0005845479017188713,0.00028130033353513935,-0.00013875703488001322,-0.00021210355873157115,-0.03260441869497299,-50.39670181274414,-7.563065528869629,17.37921905517578,1.6954447031021118,-0.9665634632110596,0.06596527993679047,736,752,732,40.740,2,0
1739303312.0211937,-0.07085946307613258,1.0412931442497513,-0.39571522590910757,-1.4641316765849262,1.5345613373079103,1.1817317238649232,1.3554488749072584,0.0007570845406758234,-0.0005688195037746621,0.000729447726595337,-0.001296037122377478,-0.0008789160607540436,0.00023700956908623616,-0.0015684241385414298,-0.05640812963247299,-50.31735610961914,-7.563065528869629,17.37921905517578,1.6954447031021118,-0.9802963733673096,0.08610688149929047,737,751,732,40.740,1,0
1739303312.03217,-0.07085704903571391,1.041294680933389,-0.3957174362160752,-1.4641295789252966,1.5345618213196863,1.1817308579676908,1.3554548899388583,0.0007973323114167096,0.00024637037541922814,-0.0009029619419620998,-0.0005483720919846186,-0.00045475549490292,-2.9152322722544443e-05,0.0008972434161575417,-0.08021184056997299,-50.36893081665039,-7.563065528869629,17.35541534423828,1.6954447031021118,-0.9729721546173096,0.026597600430250168,738,750,734,40.740,0,0
1739303312.0431128,-0.07086094467600655,1.0412966848942045,-0.39571652289873793,-1.464127442022963,1.5345615186445103,1.1817317240802638,1.3554503771481219,-0.0007705453171923005,3.958470347722038e-06,0.0002582481664228133,0.0006802595627766764,-0.000263718403281101,0.0006565290096191187,-0.0020293126337793134,-0.03260441869497299,-50.39670181274414,-7.586869239807129,17.35541534423828,1.6890360116958618,-0.9802963733673096,0.07328949868679047,736,753,734,40.631,1,0
1739303312.053224,-0.0708589398236279,1.0412966814784301,-0.3957142374056122,-1.4641295873178213,1.5345621592489191,1.1817317238649268,1.3554508244279788,0.0005318707218327927,0.00016264576047892996,0.00035777175875604443,0.0006020838487325956,-0.0008720760819933286,2.4595127475004433e-05,-0.0005260341554569762,-0.03260441869497299,-50.39670181274414,-7.586869239807129,17.35541534423828,1.6826273202896118,-0.9802963733673096,0.06596527993679047,737,754,733,40.740,1,0
1739303312.0641837,-0.07086149935145657,1.0412930508167002,-0.3957175917602218,-1.4641278051132036,1.5345590412334464,1.1817293426475342,1.3554504294792538,-0.00034632054276110565,-0.0008029150326886157,9.598540566993995e-05,0.0006361994141880776,-0.0011263484746902382,-0.0010747475781891676,-0.00019445624123153114,-0.03260441869497299,-50.34512710571289,-7.535294532775879,17.33161163330078,1.6826273202896118,-0.9601547718048096,0.07328949868679047,736,754,734,40.740,0,0
1739303312.0742376,-0.07086294231209449,1.0412976354837806,-0.39571763744871036,-1.4641331531442634,1.534562461026698,1.1817324815250014,1.3554493181246072,-0.0011546944940603347,0.00019294252035591063,-0.0003859141579130622,-0.0011820947103045225,-0.00010116763099531401,0.00011068996549208398,-0.000696576293711892,-0.004833422601222992,-50.39670181274414,-7.563065528869629,17.40302276611328,1.6890360116958618,-0.9867050647735596,0.07969819009304047,738,752,734,40.848,0,0
1739303312.085205,-0.07085947184472659,1.041294692696686,-0.3957165935751766,-1.4641296133000319,1.5345625791437807,1.181730857483174,1.3554575726492275,-0.0004700403670629127,-0.0005279720243687835,-0.0005889783353804522,4.9029911246315026e-05,0.0003158963206682068,0.0001588678065253122,0.0023436851510537865,-0.05640812963247299,-50.36893081665039,-7.586869239807129,17.35541534423828,1.6890360116958618,-0.9729721546173096,0.012864691205322742,737,753,733,40.848,1,0
1739303312.0952098,-0.0708574199000923,1.0412956379751048,-0.3957134928075262,-1.4641278051136382,1.5345608887398474,1.1817317107829626,1.3554575731344016,3.992357520268173e-05,5.603411066449585e-05,0.0012183783000936734,0.001092732187406511,0.00013170694009561473,0.00041184438198968746,0.0021821473861763094,-0.05640812963247299,-50.36893081665039,-7.586869239807129,17.33161163330078,1.6762186288833618,-0.9802963733673096,0.012864691205322742,737,753,734,40.848,1,0
1739303312.1061785,-0.07085915604147631,1.0412936866049658,-0.39571449625803023,-1.4641292698987862,1.5345602666844746,1.1817324815249275,1.3554522997125416,0.0005074642229344176,-0.001096287903595812,0.00031951563772557334,0.0005189046570288969,-0.001109674764129715,0.00043199092589199896,-0.0013458683347098495,-0.05640812963247299,-50.34512710571289,-7.610672950744629,17.35541534423828,1.7082620859146118,-0.9867050647735596,0.026597600430250168,737,753,734,40.740,1,0
1739303312.1171205,-0.07085775931909882,1.0413003746184883,-0.39571523454461743,-1.4641288725291042,1.5345625789818311,1.1817324815250012,1.3554499584698219,0.0008349445271362586,0.0013335601640011726,-5.174514078282897e-05,0.0001977449119469947,0.0005802473146148245,0.0003063795820577787,-0.002018047528723261,-0.08021184056997299,-50.44827651977539,-7.563065528869629,17.35541534423828,1.6890360116958618,-0.9867050647735596,0.07328949868679047,738,753,735,40.740,1,0
1739303312.1271665,-0.0708594714121413,1.0412945514097078,-0.39572035683937334,-1.4641306463408128,1.5345618169617679,1.181732638508428,1.3554496717653397,-0.0003340077456620578,4.562910970468763e-05,-0.0011264248311774997,-0.00026422483371902526,0.00025304136646998556,0.0004885257946791195,-0.0011528210642272612,-0.05640812963247299,-50.36893081665039,-7.535294532775879,17.37921905517578,1.6954447031021118,-0.9867050647735596,0.07969819009304047,736,753,733,40.848,1,0
1739303312.1371906,-0.07085699898827248,1.0412966906335013,-0.3957137561265674,-1.464129578511579,1.5345629703478396,1.18173009594962,1.3554504157539369,0.001337821145803318,0.001114450120820168,0.0006367203094769251,0.0005176904394852539,4.196927549981631e-06,-0.0015105347697475335,-0.0008008372469710159,-0.05640812963247299,-50.39670181274414,-7.586869239807129,17.35541534423828,1.6826273202896118,-0.9665634632110596,0.07328949868679047,737,753,736,40.848,1,0
1739303312.1471941,-0.07086118432403132,1.0412966847490153,-0.39571436016255485,-1.4641314725063144,1.534561063656137,1.181730857967617,1.3554488734790207,-0.0011890738795709713,-0.0001332195728223829,0.0008247728254307637,-0.001813074974238616,0.0007680618951156675,-0.0002457282976581068,-0.0012796299187050326,-0.03260441869497299,-50.39670181274414,-7.586869239807129,17.37921905517578,1.7018533945083618,-0.9729721546173096,0.05955658480525017,737,755,734,40.740,1,0
1739303312.1582253,-0.07085939245508985,1.0412966023325836,-0.3957137293300424,-1.4641352329346948,1.534558893511823,1.1817324815250012,1.3554551393560326,-0.0004483072134589363,-6.641611082630627e-05,0.00044751806768363836,-0.0020367969351140105,-0.0012231970491815717,0.0007284512534133241,0.001338006947603505,-0.05640812963247299,-50.39670181274414,-7.586869239807129,17.43079376220703,1.7018533945083618,-0.9867050647735596,0.03300629183650017,736,755,735,40.848,0,0
1739303312.1691835,-0.07085652513726498,1.041294683864125,-0.3957149724732396,-1.4641302126484543,1.5345633365764897,1.1817308579676906,1.3554544342567558,0.0006832651794673919,-0.0011637153745575727,0.00022995076247925736,0.0001223652306239449,0.0002700211151710956,5.585896536217645e-05,4.951637788891706e-05,-0.05640812963247299,-50.36893081665039,-7.563065528869629,17.40302276611328,1.6826273202896118,-0.9729721546173096,0.03941498324275017,736,755,735,40.740,1,0
1739303312.179186,-0.070860237164623,1.041296683113622,-0.3957134138972854,-1.4641295081679728,1.534563336642572,1.181731723864923,1.3554575726498932,-0.001005804965877543,0.00013205312159563442,0.0010400407878764124,0.00020874845282529183,0.0013568868600375328,0.0008664239814201046,0.0012997967341966707,-0.03260441869497299,-50.39670181274414,-7.586869239807129,17.35541534423828,1.6826273202896118,-0.9802963733673096,0.012864691205322742,736,747,735,40.740,1,0
1739303312.1901188,-0.07086109667416611,1.041298827572641,-0.3957165112573567,-1.4641278051130564,1.534561166131658,1.1817301003076122,1.3554534113763927,0.00010696219384369107,0.0007632039723315869,-8.199249031479443e-05,0.0010699065165538032,-0.00020601344197939032,-0.0005228032018414564,-0.00017664586762682332,-0.03260441869497299,-50.39670181274414,-7.586869239807129,17.33161163330078,1.6890360116958618,-0.9665634632110596,0.04673920199275017,735,751,736,40.740,1,0
1739303312.2001662,-0.07085946805462073,1.0412983946895455,-0.3957135017707014,-1.4641331492196776,1.5345594793269595,1.1817324815250012,1.3554558056730763,8.719748505138048e-05,-0.0002963660157053038,0.0016948820323915907,-0.0005197418550517075,-6.577814939315589e-06,0.0003414219104681182,0.0013145950982921674,-0.05640812963247299,-50.42050552368164,-7.586869239807129,17.40302276611328,1.7155863046646118,-0.9867050647735596,0.026597600430250168,736,752,736,40.740,0,0
1739303312.2102206,-0.07086019834095111,1.0412988275726447,-0.39571557480337866,-1.464131366857528,1.5345625731689605,1.181731723864923,1.3554545362394164,0.0004807044589128144,-0.000717110655047515,0.0008482961680821502,-0.0006788222105217803,-0.00041447863249584365,0.0003381635279699463,0.0014882826235603401,-0.03260441869497299,-50.39670181274414,-7.586869239807129,17.37921905517578,1.6890360116958618,-0.9802963733673096,0.026597600430250168,736,752,736,40.740,2,0
1739303312.2211652,-0.07086105139905917,1.0412932905555894,-0.3957151995500764,-1.4641313408874763,1.5345625809205312,1.1817308579676906,1.355458326425859,-0.0009454017999572405,0.0001663510280060427,0.0002088764061548936,0.0005365446869075867,6.901509341955431e-05,-0.00024692976389788197,0.0020721752865667975,-0.004833422601222992,-50.34512710571289,-7.563065528869629,17.37921905517578,1.6890360116958618,-0.9729721546173096,0.0064559997990727425,736,752,735,40.740,2,0
1739303312.2311697,-0.0708587615204075,1.0412943731736144,-0.395717663678404,-1.4641331443134447,1.534562277004479,1.181731723864923,1.3554512953790707,0.000595879376780575,-0.0005732732540733521,-0.0016913171392725203,-0.00103345500487063,0.0006864703002102521,-4.501809648031432e-05,-0.0017217500262085305,-0.05640812963247299,-50.36893081665039,-7.563065528869629,17.40302276611328,1.6826273202896118,-0.9802963733673096,0.06596527993679047,736,753,735,40.848,1,0
1739303312.2411733,-0.07085810251486072,1.0412966817896419,-0.39571344449194695,-1.4641295083169168,1.534563323506788,1.1817301003076122,1.355457566835692,0.001000868167713055,7.431607958912343e-05,0.00024092777028889164,0.0011073195811808953,0.0003600845620090259,-0.0005593593376210917,0.0013237922547228577,-0.03260441869497299,-50.39670181274414,-7.586869239807129,17.35541534423828,1.6826273202896118,-0.9665634632110596,0.012864691205322742,737,754,735,40.740,1,0
1739303312.2531538,-0.0708610791201284,1.0413004020905878,-0.3957173238888343,-1.464127441986525,1.5345625745679865,1.181731723864923,1.3554554387350386,0.0009140680408290911,0.0015371464820499398,-0.0005808869621630965,0.00014567682325048614,-5.851333589277971e-05,0.0004523118686657325,-0.000781523396276723,-0.03260441869497299,-50.44827651977539,-7.563065528869629,17.35541534423828,1.6890360116958618,-0.9802963733673096,0.026597600430250168,737,752,736,40.848,1,0
1739303312.2641191,-0.07085662971591294,1.041294684191641,-0.39571471375139866,-1.4641295874591385,1.5345625789824888,1.1817308579676906,1.3554583307935268,0.00011054582601224545,-0.00018812701041085443,0.000859266436296499,-0.0006665200749790941,-0.0004246557314725995,-0.0004014882156063054,0.0022902794810766643,-0.05640812963247299,-50.36893081665039,-7.610672950744629,17.35541534423828,1.6890360116958618,-0.9729721546173096,0.0064559997990727425,735,754,734,40.740,1,0
1739303312.2741733,-0.07085923492589274,1.0412918238227764,-0.3957162488168909,-1.4641302656303552,1.5345617035848487,1.1817301003076122,1.3554534506222502,0.0007771435435429987,-0.0011683849336872206,-0.0008279096604211818,0.0008295942428394471,-0.0011566893136799573,-0.0002523410712950474,0.00022302597191264,-0.05640812963247299,-50.36893081665039,-7.586869239807129,17.40302276611328,1.6954447031021118,-0.9665634632110596,0.04673920199275017,736,751,734,40.740,1,0
1739303312.2851439,-0.07085944553685249,1.0412930547251427,-0.3957161453699416,-1.4641295877739249,1.534562578820327,1.1817324815250012,1.3554474612199365,2.2817266957278503e-05,-0.0013791405571733429,-6.731143077579284e-05,-0.0005455847585011063,0.000494217188434944,0.0006793314016315054,-0.002367339124807618,-0.05640812963247299,-50.34512710571289,-7.563065528869629,17.35541534423828,1.6890360116958618,-0.9867050647735596,0.05955658480525017,736,751,735,40.848,2,0
1739303312.2952209,-0.07085947151995502,1.041298429648841,-0.39571435876873795,-1.464131340366641,1.5345617630189003,1.1817308579676906,1.3554482530790308,0.0006257693174427765,0.0006828663729283188,-0.0003329900413791093,-0.0010186891989928926,-0.0004970015944732397,-9.53599309094033e-05,-0.0009744455272116213,-0.05640812963247299,-50.42050552368164,-7.586869239807129,17.37921905517578,1.6954447031021118,-0.9729721546173096,0.07969819009304047,735,752,736,40.740,1,0
1739303312.3062248,-0.07085905349985683,1.0412983943263574,-0.3957134140580144,-1.4641331430055804,1.5345638075925259,1.1817301003076122,1.3554531610796088,0.00046695218358817767,0.000545580692515905,0.0005437855488916633,-0.0009437919735287087,0.001964239189516743,-0.00039002547294711784,-0.0009698621970392228,-0.03260441869497299,-50.42050552368164,-7.586869239807129,17.40302276611328,1.6826273202896118,-0.9665634632110596,0.019273381680250168,736,752,735,40.740,1,0
1739303312.3181405,-0.0708647886131788,1.0412946839009123,-0.39571519759375545,-1.4641295877538292,1.5345622207657728,1.1817301003076122,1.3554565134756515,-0.0014786157744722823,-0.0008396335437111318,-4.7527615937300574e-05,-0.0005669881249640345,-0.0003550212395876589,-0.0002641468955567647,0.0007624577847317124,0.018970288336277008,-50.36893081665039,-7.563065528869629,17.35541534423828,1.6890360116958618,-0.9665634632110596,0.012864691205322742,736,752,734,40.848,1,0
